nelsonifechukwu/NELSON_IML_WORK/CNN-GradCAM/train2dof/data_sample_2022-02-22-11-34-43/robot_state.csv
position_joint1,position_joint2,position_joint3,position_joint4,position_joint5,position_joint6,position_joint7,velocity_joint1,velocity_joint2,velocity_joint3,velocity_joint4,velocity_joint5,velocity_joint6,velocity_joint7,ee_T_00,ee_T_10,ee_T_20,ee_T_30,ee_T_01,ee_T_11,ee_T_21,ee_T_31,ee_T_02,ee_T_12,ee_T_22,ee_T_32,ee_T_03,ee_T_13,ee_T_23,ee_T_33,v_x,v_y,time
0.465066278576,0.547766066409,-0.124008729902,-1.35584163197,0.0795335057924,1.89409750861,0.159146192448,0.00186662440133,-0.00172475432489,-0.00178062925823,-0.000631968992919,-1.55010104945e-05,4.71683105469e-05,0.00113882622547,0.573824594228,0.818964122595,0.00196159681596,0.0,0.818920907786,-0.573765757564,-0.0119226313848,0.0,-0.00863887659311,0.00844805441299,-0.999926997429,0.0,0.661679587306,0.26087827819,0.303221449548,1.0,0.0,0.0,0.0
0.465064135072,0.54777102455,-0.124006595596,-1.35584155292,0.0795345703976,1.89409484023,0.159150076993,0.000395142102193,0.00119468474563,-0.000419097261427,-0.000367983281065,-5.26911535156e-05,-0.000626873304862,0.000971578499994,0.573828307378,0.818961533783,0.00195620485073,0.0,0.818918224624,-0.573769469162,-0.0119283082174,0.0,-0.00864658144787,0.00844693534732,-0.999926940287,0.0,0.661678950199,0.260878029056,0.303217674344,1.0,-0.00024,-0.000315428571429,0.013
0.465063017473,0.54776618427,-0.124006552999,-1.35584724621,0.0795341161983,1.89409555945,0.159145321445,-0.000540071785022,0.000573527727774,0.000767034105533,-0.000827001325884,-2.62502673514e-05,-0.000420809678639,0.00129935277444,0.573825485451,0.818963511104,0.00195617713707,0.0,0.818920200188,-0.573766646334,-0.0119284609248,0.0,-0.00864675152226,0.00844697048393,-0.99992693852,0.0,0.661678223741,0.260876677201,0.303218453746,1.0,-0.00058,-0.000762285714286,0.03
0.46506562872,0.547747041912,-0.124004837802,-1.35587141476,0.079534116144,1.8941002842,0.159149305266,0.000201304902842,-0.00531173236733,0.000669634639317,-0.00399837834671,4.95118709012e-05,-0.000157667442727,0.00227751504049,0.573826729719,0.818962636518,0.00195733206493,0.0,0.818919313237,-0.573767858849,-0.0119310292781,0.0,-0.00864817947027,0.00844940322042,-0.999926905617,0.0,0.66167305649,0.260877101046,0.303220864924,1.0,-0.00092,-0.00120914285714,0.047
0.465062676083,0.547635812068,-0.123998839817,-1.3559891653,0.0795341117629,1.89412263692,0.159148013382,-0.000590746611013,-0.0122740692831,0.00189666868154,-0.00444789230318,-0.000115119600468,0.00486012531618,0.00128089281861,0.573830285975,0.818960095323,0.00197789467773,0.0,0.818916918127,-0.573771209675,-0.0119342806201,0.0,-0.00863900690003,0.00846814611305,-0.999926826353,0.0,0.661652855923,0.260867623131,0.303245358851,1.0,-0.00126,-0.001656,0.064
0.465064751233,0.547503669581,-0.124001336645,-1.35617648671,0.0795313599319,1.89415803172,0.159136271485,0.000536781820007,-0.00896578989699,0.000752411447505,-0.0112644484297,-3.55457863166e-05,-0.000101153594998,-0.000205761313736,0.573830224712,0.8189601653,0.001966662299,0.0,0.818916729572,-0.573771085595,-0.0119531695978,0.0,-0.00866092253698,0.00846978572403,-0.999926622883,0.0,0.661620642866,0.260849004426,0.303252960428,1.0,-0.0016,-0.00210285714286,0.081
0.465044230884,0.547331319501,-0.124001346407,-1.35639410115,0.0795284779677,1.89427179501,0.15913609705,-0.00193726776153,-0.0162029752794,0.00103584909787,-0.0089535296045,0.000145509699265,0.0066691908974,0.000335347856345,0.573858496665,0.818940200941,0.00202977554209,0.0,0.818897544445,-0.573799048787,-0.0119251924243,0.0,-0.00860150181044,0.00850571496559,-0.999926830813,0.0,0.661603511413,0.260819125357,0.303281344141,1.0,-0.00196,-0.002576,0.099
0.465032218598,0.547166656464,-0.123998866039,-1.35657778703,0.0795267082682,1.89437607917,0.159127564607,0.000853661490854,-0.00812874072086,0.000873166759933,-0.00932596403376,0.000623516997495,0.00680719453735,0.000820150416885,0.573869599454,0.818932223876,0.002107705135,0.0,0.818890540436,-0.573809789955,-0.0118892656059,0.0,-0.00852724505801,0.00854903248352,-0.99992709741,0.0,0.661589207683,0.260799781866,0.303319522317,1.0,-0.00226,-0.00297028571429,0.114
0.465006946694,0.546938396976,-0.123999575096,-1.35687035388,0.0795206199203,1.89451351798,0.159106877237,-0.000482580697766,-0.0175232969147,0.00105770219909,-0.0131430512013,-0.000579191136683,0.00830499907725,-0.00372946207237,0.573888744706,0.818918629338,0.00217580405013,0.0,0.818877776764,-0.573828603735,-0.0118603186953,0.0,-0.0084642602926,0.00858838634414,-0.999927295316,0.0,0.661562644152,0.260759278206,0.303353891512,1.0,-0.00262,-0.00344342857143,0.132
0.464971897278,0.546701954862,-0.124003589427,-1.35723541499,0.0795106507163,1.89465020311,0.159086475903,-0.00191882229566,-0.0173143893807,-0.000154698270466,-0.0206567064773,-1.47824527021e-05,0.00817307948958,1.99635036671e-05,0.573921349286,0.818895747358,0.00218785124803,0.0,0.81885496687,-0.573861070358,-0.0118643187916,0.0,-0.00846028043134,0.00860088430411,-0.999927221574,0.0,0.661523016419,0.26070120358,0.303359574943,1.0,-0.00296,-0.00389028571429,0.149
0.464935178972,0.546435064537,-0.124004534159,-1.35762392496,0.0795027845517,1.894791568,0.158993712428,6.95376595056e-05,-0.0196224171541,1.54159063324e-05,-0.0240540586157,-0.000232655554984,0.0132289385069,-0.00770368019775,0.573895725958,0.818913634638,0.0022139631411,0.0,0.818873052665,-0.57383520261,-0.01186721388,0.0,-0.0084479359128,0.00862366411286,-0.999927129743,0.0,0.661479333668,0.260642079197,0.303375955183,1.0,-0.00328,-0.00431085714286,0.165
0.464900492422,0.546171642034,-0.124004525521,-1.35807219875,0.0794868840979,1.89494885258,0.158919874877,-0.00217399644745,-0.0178705762718,7.87155829987e-05,-0.0231291689319,-5.85693793024e-05,0.00508670376755,0.000770671127063,0.573884512828,0.818921540264,0.00219629914066,0.0,0.818880608605,-0.573823939258,-0.0118904367638,0.0,-0.00847720897687,0.0086224102946,-0.999926892812,0.0,0.661424685219,0.260577483714,0.303362755145,1.0,-0.0036,-0.00473142857143,0.181
0.464847661201,0.545844692816,-0.124002028629,-1.35861343077,0.0794676034205,1.89512876837,0.158886394724,-0.000905169329549,-0.0232186733921,0.000743890506434,-0.0329671403831,-0.00141143904319,0.0102000240705,-0.00106036786573,0.573923665391,0.81889415934,0.00217462768142,0.0,0.818852781436,-0.573863007784,-0.0119213058626,0.0,-0.00851451329132,0.00862278549779,-0.999926572621,0.0,0.661359187856,0.26049311691,0.303352149814,1.0,-0.00394,-0.00517828571429,0.198
0.464786575222,0.545490125633,-0.124004896091,-1.35922171317,0.0793756073103,1.8953341844,0.158788821889,-0.00307549245351,-0.0253015206355,0.000501971503521,-0.0378509254266,-0.00729136912382,0.0171406478393,-0.0101419441606,0.573905278281,0.818907235222,0.00210203808525,0.0,0.818865384551,-0.573845393716,-0.0119034866937,0.0,-0.00854177096073,0.00855292473875,-0.999926940145,0.0,0.661291498225,0.260382544958,0.303331416779,1.0,-0.00428,-0.00562514285714,0.215
0.464718389409,0.545102727629,-0.124004772129,-1.35990979868,0.0793429016655,1.89555391069,0.158702436033,-0.00652796982753,-0.0224804615851,0.000122961406406,-0.0405383663681,-3.03589826048e-05,0.0164982118961,-0.00703796243335,0.573919882473,0.818897163056,0.00203758250779,0.0,0.818854332172,-0.573860121473,-0.0119536842317,0.0,-0.00861971671619,0.0085291045247,-0.999926474727,0.0,0.661206952518,0.26027054286,0.30329716976,1.0,-0.00462,-0.006072,0.232
0.464656619327,0.544697346336,-0.12400521569,-1.3605771987,0.0793237838278,1.89577924221,0.15863612288,-0.000749709736518,-0.0266848644331,0.000362858184175,-0.0398226759429,-0.000356111870833,0.01497445208,-0.00255288701848,0.573955175431,0.818872477051,0.00201738072533,0.0,0.818829106995,-0.573895222494,-0.011996417681,0.0,-0.00866593794816,0.00853746044503,-0.999926003907,0.0,0.661121456004,0.26015831772,0.303285324457,1.0,-0.00496,-0.00651885714286,0.249
0.464584598555,0.544241138606,-0.124013628935,-1.3613428659,0.0792955367583,1.89605499507,0.158532076784,-0.00429918720034,-0.0269103044052,-0.000260647709848,-0.0506033863578,-0.00302930476135,0.0156971822838,-0.00178328151171,0.573963402108,0.81886676357,0.00199586113772,0.0,0.818823017887,-0.573903446235,-0.0120185972311,0.0,-0.00869636566413,0.00853265627547,-0.999925780746,0.0,0.661039517771,0.26004449178,0.303268602624,1.0,-0.00528,-0.00693942857143,0.265
0.464512835527,0.543732899614,-0.124016558694,-1.36215810388,0.0792563849378,1.89634459193,0.158443410529,-0.00470876009647,-0.0345762873421,-0.00222199655222,-0.0521823332208,-0.0050652483214,0.00873910706104,-0.0102253193606,0.573986569289,0.81885055,0.00198543222248,0.0,0.818806566396,-0.573926555341,-0.0120358963661,0.0,-0.00871627589809,0.00853429211594,-0.999925593428,0.0,0.660944561745,0.259918573791,0.30326538597,1.0,-0.00562,-0.00738628571429,0.282
0.464432620736,0.54320272381,-0.124014833469,-1.36300946844,0.0792073809345,1.89664049736,0.15832978713,-0.00216084034438,-0.0284125183535,-0.000261269870799,-0.049779118212,-0.00162157206745,0.0205448899552,-0.00660447969209,0.573992252727,0.818846613675,0.00196570156296,0.0,0.818802304169,-0.573932256304,-0.0120539936426,0.0,-0.00874236065982,0.00852858413603,-0.99992541441,0.0,0.660844680226,0.259784606914,0.303260812578,1.0,-0.00596,-0.00783314285714,0.299
0.464360566052,0.542622475401,-0.124023265644,-1.36391469001,0.0791633627566,1.89695945711,0.158214094014,-0.000251809449011,-0.040593294708,-0.000660591840944,-0.0563187307965,-0.00247618733015,0.0197101116247,-0.012171277189,0.574000948998,0.818840520185,0.00196467623025,0.0,0.818796111418,-0.573940872169,-0.0120644138856,0.0,-0.00875139144413,0.00853381857943,-0.999925290753,0.0,0.660738109451,0.259646792256,0.303268302093,1.0,-0.0063,-0.00828,0.316
0.464287340819,0.542067771706,-0.124023375826,-1.36477859521,0.0791063589888,1.89728496269,0.158089359754,-0.00278936505045,-0.040450392614,-0.00084372571175,-0.0525263470155,-0.000370158347845,0.0153407225932,-0.0077117679191,0.573991700477,0.818846977299,0.00197546293223,0.0,0.818802754294,-0.573931621951,-0.01205362128,0.0,-0.0087364589097,0.00853635741663,-0.999925399661,0.0,0.660640682683,0.259515946741,0.303277586865,1.0,-0.00662,-0.00870057142857,0.332
0.464200336412,0.541430232195,-0.124029453657,-1.36574647299,0.0790504433684,1.89764640897,0.157966949674,-0.00842480171514,-0.0374620888889,-0.000523306239112,-0.0628935403244,-0.00134596616747,0.0255759507956,-0.0128537454303,0.574005785796,0.818837039683,0.00200180338121,0.0,0.818793168142,-0.573945599555,-0.0120392464713,0.0,-0.00870942238215,0.00854982467428,-0.999925520456,0.0,0.660533365161,0.259363908891,0.303299199324,1.0,-0.00696,-0.00914742857143,0.349
0.46411647582,0.540750048933,-0.1240269074,-1.36679366073,0.0789938390689,1.89803561238,0.157837002206,-0.00229536999978,-0.0450242133582,-0.000679466830575,-0.0651110199593,-0.00844372898748,0.0273969088816,-0.000890491767334,0.574009231077,0.818834568192,0.00202471563535,0.0,0.818790916887,-0.573948868769,-0.0120365013185,0.0,-0.00869398749738,0.00856704658038,-0.999925507373,0.0,0.660411470641,0.25921187111,0.303315244141,1.0,-0.0073,-0.00959428571429,0.366
0.464023620408,0.54001230407,-0.124030841267,-1.3678967024,0.0789249140014,1.89843433053,0.157700891639,-0.00807998651354,-0.0446625594392,-0.000376718448054,-0.0692496343415,-0.000230748943324,0.0252214455069,-0.00583344444916,0.574019137978,0.818827556064,0.00205172259971,0.0,0.81878428029,-0.573958682243,-0.012019997009,0.0,-0.00866486760065,0.00857979172133,-0.999925650858,0.0,0.660284392224,0.259042928487,0.303346290157,1.0,-0.00764,-0.0100411428571,0.383
0.46392087976,0.539276990474,-0.12403042047,-1.3690433051,0.0788560402334,1.89887659089,0.157551897314,-0.00304984866891,-0.0442800183314,0.000449883778327,-0.0664946880217,-0.00485747578157,0.0234330201749,-0.00707990924235,0.574026118311,0.818822598249,0.00207725648464,0.0,0.818779665866,-0.573965563993,-0.0120057076512,0.0,-0.00863843735972,0.00859257056462,-0.99992576981,0.0,0.660157204663,0.258867748527,0.303358411169,1.0,-0.00798,-0.010488,0.4
0.463816620685,0.538561893196,-0.124041752157,-1.37016316413,0.0787937061617,1.89930909805,0.157416245999,-0.00632473258473,-0.0494536518207,-0.00133637012276,-0.0724158497929,0.000264257672201,0.0311107913906,-0.0145140541486,0.574053713446,0.818803195047,0.00209970476599,0.0,0.818760581028,-0.573993086957,-0.011991412842,0.0,-0.00861355696548,0.00860303620071,-0.999925894456,0.0,0.66003621707,0.258688063975,0.303368411641,1.0,-0.0083,-0.0109085714286,0.416
0.46370809145,0.537786501738,-0.124047105241,-1.37138452023,0.0787249625814,1.89978025796,0.15727086747,-0.00726335884884,-0.0488054124595,-0.000348529689236,-0.0666058576979,-0.00522762086118,0.0272118746236,-0.0068386046601,0.574076455231,0.818787195561,0.00212104595949,0.0,0.818744857238,-0.574015734308,-0.011980918755,0.0,-0.00859247454549,0.00861472470073,-0.99992597521,0.0,0.65990088055,0.258499369359,0.303375720701,1.0,-0.00864,-0.0113554285714,0.433
0.463592324716,0.536975205694,-0.124046078269,-1.37268073123,0.0786480258957,1.90026035666,0.157108681248,-0.0068411682317,-0.0437885392085,-3.9330031827e-06,-0.0783718616116,-0.00464522851565,0.0282287979082,-0.0138087335475,0.574088587757,0.818778699693,0.00211689340899,0.0,0.818736274023,-0.574027849315,-0.0119870226063,0.0,-0.0085997285834,0.00861495616623,-0.999925910855,0.0,0.659751509659,0.25830048691,0.303373174125,1.0,-0.00898,-0.0118022857143,0.45
0.463478230935,0.536131001601,-0.12405490637,-1.37398957573,0.0785676129799,1.90075632396,0.156945619044,-0.00771604621421,-0.0462699357872,0.000421706515594,-0.0786066728327,-0.00496118009902,0.0302611252024,-0.0113004643108,0.574105232237,0.818766969452,0.00213984901284,0.0,0.818724904108,-0.574044457718,-0.0119682436836,0.0,-0.00857099916258,0.00862314501953,-0.99992608694,0.0,0.659604963507,0.258096452864,0.303389379883,1.0,-0.00932,-0.0122491428571,0.467
0.46336072607,0.535227729042,-0.124058345237,-1.37541519894,0.078487308656,1.90125878198,0.156775728315,-0.00583793840006,-0.0507659944076,0.000861720932716,-0.0833299386709,-0.00732497608447,0.0275601517817,-0.00919609020529,0.574121396977,0.818755672232,0.00212546982122,0.0,0.818713330399,-0.574060590612,-0.0119861517593,0.0,-0.00859374673649,0.0086218226652,-0.9999259031,0.0,0.659433464517,0.2578806904,0.303391918975,1.0,-0.00966,-0.012696,0.484
0.463241842176,0.534391180096,-0.124057828051,-1.3767876004,0.0784187924052,1.90176536874,0.156610707234,-0.00677175516275,-0.0573097054458,-0.00121425883005,-0.0885196403416,-0.0104293943611,0.0344375680308,-0.0101576253414,0.57414122833,0.818741811289,0.00210790916532,0.0,0.818699129771,-0.574080382035,-0.0120081962395,0.0,-0.00862166903439,0.00862030990596,-0.999925675778,0.0,0.659263714644,0.257658280851,0.303376298357,1.0,-0.01,-0.0131428571429,0.501
0.463120425155,0.533474897474,-0.124064489132,-1.37825381201,0.0783322638244,1.9023057976,0.156422769985,-0.00485303294449,-0.0477370193152,0.00306030907687,-0.0889052171126,-0.00263379442783,0.0293963173803,-0.0134201268961,0.574147562415,0.818737396481,0.00209739780739,0.0,0.818694519729,-0.574086701522,-0.012020374455,0.0,-0.00863760819774,0.00861876272116,-0.999925551556,0.0,0.659100221588,0.257450689976,0.303368251924,1.0,-0.01032,-0.0135634285714,0.517
0.462970234639,0.53241478991,-0.124065081051,-1.37997257108,0.0782383378333,1.90295301331,0.156209075057,-0.00701921660456,-0.0536597455495,-0.000376979583495,-0.0967305770889,-0.00650115659066,0.0363423144183,-0.00820965611131,0.574164871912,0.818725274559,0.00209082797846,0.0,0.818682212928,-0.574103937755,-0.0120353558741,0.0,-0.00865346407286,0.00862216824361,-0.999925385103,0.0,0.658900872401,0.257189963141,0.303353782325,1.0,-0.0107,-0.0140628571429,0.536
0.462854003198,0.531551702579,-0.124062396696,-1.38134801463,0.0781586013471,1.90345375615,0.156036095355,-0.0103975941859,-0.0572014911846,0.00076687350367,-0.0881228453616,-0.00371384952403,0.0317823659126,-0.00958555704638,0.574170104341,0.818721625255,0.00208291203326,0.0,0.818678382643,-0.574109125857,-0.0120484148674,0.0,-0.00866864589364,0.00862324070024,-0.999925244355,0.0,0.658736439007,0.256984081684,0.303350793356,1.0,-0.011,-0.0144571428571,0.551
0.462709456359,0.530486164477,-0.124068027746,-1.38308793458,0.0780540316692,1.90406509002,0.155815660749,-0.00724309985555,-0.0590912583494,-0.00110935442474,-0.0950466674955,-0.00153944963016,0.0354701125156,-0.0121184054179,0.574178423409,0.818715929428,0.00202778042432,0.0,0.818671905946,-0.574117620419,-0.0120836766027,0.0,-0.00872908211062,0.00859843879214,-0.99992493217,0.0,0.658524472643,0.25671762998,0.303326660394,1.0,-0.01136,-0.0149302857143,0.569
0.462564333084,0.529425408901,-0.124062759618,-1.38472852324,0.0779483679464,1.90467514988,0.155593186638,-0.00574475446736,-0.0630311241744,0.000665960068522,-0.095888914874,-0.00643621369789,0.0345679044978,-0.0140654528648,0.574172063022,0.818720331907,0.00205111378822,0.0,0.81867662975,-0.57411117645,-0.0120697919133,0.0,-0.00870438427768,0.00860950200607,-0.999925052276,0.0,0.658332571438,0.256468629594,0.303345675182,1.0,-0.0117,-0.0153771428571,0.586
0.462437003404,0.528457990615,-0.124073597571,-1.38622822638,0.0778466096197,1.90524732478,0.15538686217,-0.005616304139,-0.0667817036698,-0.000411166344966,-0.0936050500323,-0.0114500897714,0.0355965023012,-0.00950257512299,0.574169037119,0.818722392201,0.00207562621576,0.0,0.818679170162,-0.574108204801,-0.0120387882912,0.0,-0.00866495833572,0.00861173723176,-0.999925375455,0.0,0.65816206161,0.256235559374,0.303363014359,1.0,-0.012,-0.0157714285714,0.601
0.462298042138,0.527341590446,-0.124074009278,-1.3879614817,0.077745357759,1.9059152421,0.155139486908,-0.011253708537,-0.0695801009309,-0.00101672798389,-0.100993296201,-0.00451738063853,0.0428594340685,-0.0139901695634,0.574147287079,0.818737531545,0.00211992461444,0.0,0.818694871641,-0.574086254303,-0.0120177647868,0.0,-0.00862254150557,0.00863570472327,-0.999925535418,0.0,0.657960032256,0.255981714405,0.30338182654,1.0,-0.01234,-0.0162182857143,0.618
0.462159903879,0.526175781924,-0.124080127193,-1.3897719851,0.0776370432734,1.90659316876,0.154892064861,-0.00613298322525,-0.0696225760733,-0.000873256512699,-0.108920427946,-0.00220701508339,0.0327780539716,-0.0227763445635,0.574130768715,0.818749044253,0.00214705634572,0.0,0.818706742525,-0.574069628626,-0.0120032552057,0.0,-0.00859525937393,0.00864941417316,-0.999925651812,0.0,0.657744127567,0.255716148198,0.303399396104,1.0,-0.01268,-0.0166651428571,0.635
0.462004020105,0.525002614167,-0.124078034223,-1.39162287527,0.077510374488,1.90725013382,0.15465575421,-0.00668865938859,-0.0666412733339,0.000577266739653,-0.112467084186,-0.00552168662569,0.0349507505599,-0.0184301852331,0.574128756139,0.818750520091,0.00212229270209,0.0,0.81870794408,-0.574067768862,-0.0120102437909,0.0,-0.00861521938356,0.008633130438,-0.999925620761,0.0,0.65751783433,0.255434679336,0.303400508539,1.0,-0.01302,-0.017112,0.652
0.461845898219,0.523818631678,-0.12408505096,-1.39351673669,0.0773984525728,1.9079400738,0.154386947584,-0.0107746882306,-0.0761843227966,-0.00027959966435,-0.10958290427,-0.00640936407598,0.0439323342847,-0.0193286875543,0.574114696453,0.818760424099,0.00210479144178,0.0,0.818717574768,-0.574053739586,-0.0120242976879,0.0,-0.00863692196375,0.00862672185287,-0.999925488849,0.0,0.657289541453,0.255146105659,0.30339166474,1.0,-0.01336,-0.0175588571429,0.669
0.461697683306,0.522674677097,-0.124085493857,-1.39533161525,0.077288309414,1.90863123124,0.154151253504,-0.00938643587889,-0.0694719007185,0.00027032316747,-0.114766730793,-0.0034594517148,0.0452696022416,-0.014668067037,0.574111148311,0.818762872466,0.00212013169114,0.0,0.818720224137,-0.574050128133,-0.0120163172427,0.0,-0.00862161854604,0.00863466262808,-0.999925552376,0.0,0.657074312907,0.254877110682,0.303391854576,1.0,-0.01368,-0.0179794285714,0.685
0.461532212206,0.521450623634,-0.124087623158,-1.39732182367,0.0771618748195,1.90940028723,0.153875185204,-0.00547544831705,-0.0713551707033,5.18784551467e-05,-0.122905394095,-0.00961568712591,0.0435397921007,-0.0189311226524,0.57409471254,0.818774407701,0.00211594597663,0.0,0.818731771697,-0.57403377904,-0.0120105551969,0.0,-0.00861947670393,0.00862775454249,-0.999925630471,0.0,0.656840485507,0.254578721094,0.303371398748,1.0,-0.01402,-0.0184262857143,0.702
0.461365355212,0.520143873802,-0.124090819421,-1.39934271072,0.0770335911274,1.9101469256,0.153611774223,-0.0116459930198,-0.0814116594626,0.000571897944982,-0.116786064272,-0.00878728971747,0.0507404069508,-0.0151462471695,0.574091020584,0.818776934444,0.0021397683158,0.0,0.818734644248,-0.574030023124,-0.0119942386417,0.0,-0.0085924801221,0.00863785345919,-0.999925775632,0.0,0.656597123999,0.254274502808,0.303392095877,1.0,-0.01436,-0.0188731428571,0.719
0.461190270028,0.518805217787,-0.124094734375,-1.40142770867,0.0769022111421,1.91088005069,0.153314134536,-0.0123329236563,-0.0813279473097,-0.000310356858625,-0.119786259698,-0.00950722042483,0.045504289956,-0.0166984393005,0.574078206034,0.818785976329,0.00211783494556,0.0,0.818743372096,-0.574017273834,-0.0120086173126,0.0,-0.00861697951238,0.00862801492469,-0.999925649747,0.0,0.656353020059,0.253973151183,0.303396246931,1.0,-0.01468,-0.0192937142857,0.735
0.4610241807,0.517541808908,-0.124099996073,-1.4034173721,0.076776154609,1.9116001326,0.153060994884,-0.00727220450831,-0.0773203267416,-0.0017926531643,-0.125986632179,-0.00542783670989,0.048295455346,-0.0124938438904,0.574072428122,0.818790028617,0.00211735887122,0.0,0.818747426198,-0.574011506684,-0.0120078803208,0.0,-0.00861671021404,0.00862714123773,-0.999925659606,0.0,0.656094734363,0.25365283048,0.303405297653,1.0,-0.01502,-0.0197405714286,0.752
0.460842235257,0.516180083551,-0.124106642875,-1.40556354603,0.0766405059156,1.91240201061,0.15274706835,-0.00886923559423,-0.0844500247052,-0.000662659987904,-0.130470393233,-0.0118323559369,0.0466271356605,-0.0223192799514,0.574046025967,0.818808513797,0.00212713573683,0.0,0.818766086858,-0.573985115011,-0.011997068755,0.0,-0.00860252341192,0.00862866237403,-0.999925768633,0.0,0.655837000778,0.253325254109,0.303408689365,1.0,-0.01536,-0.0201874285714,0.769
0.460651388991,0.514805371476,-0.124111734586,-1.40775742216,0.0765043292205,1.91323024518,0.152463015739,-0.0119558061785,-0.0839987190615,-0.000881373538662,-0.135379708546,-0.00742568006294,0.0459432853188,-0.014720538777,0.574052416099,0.818804025762,0.00213022740671,0.0,0.818761668833,-0.573991521226,-0.0119920853943,0.0,-0.00859660083957,0.00862840026459,-0.99992582183,0.0,0.65557466868,0.252989005366,0.303400324074,1.0,-0.0157,-0.0206342857143,0.786
0.460438937494,0.513239488535,-0.124109900696,-1.4102987813,0.0763518639926,1.91410829942,0.152104133324,-0.0116052320608,-0.0864871948769,-0.000161387887976,-0.137203582323,-0.0082694050206,0.0489561463921,-0.017983097558,0.574023343853,0.818824611763,0.00205006945284,0.0,0.818781021465,-0.573962604739,-0.0120546319474,0.0,-0.00869413351025,0.00859836364519,-0.999925237298,0.0,0.655248541358,0.252604812691,0.303364222286,1.0,-0.01608,-0.0211337142857,0.805
0.460260736777,0.511959358703,-0.124113491595,-1.41231113661,0.0762330417486,1.91482618587,0.151820494215,-0.012629547345,-0.0849475506265,0.000971542235232,-0.134771010465,-0.00578140391758,0.0554382634641,-0.0175353187044,0.574012812343,0.818832019622,0.00204005133406,0.0,0.818788200125,-0.57395202043,-0.0120709768726,0.0,-0.00871337854599,0.00859943090805,-0.999925060603,0.0,0.654998652394,0.252293520128,0.303365469653,1.0,-0.01638,-0.021528,0.82
0.460056263598,0.510412105814,-0.124113912608,-1.41477386081,0.0760783578295,1.91577351968,0.151467826861,-0.0087750930268,-0.087484696752,0.00062230229851,-0.136614860152,-0.00439775514968,0.0569804206191,-0.0234521212592,0.573978915117,0.818855725662,0.00206214776547,0.0,0.818812238422,-0.573918075815,-0.0120543504243,0.0,-0.00868743724659,0.00860762053017,-0.999925215855,0.0,0.654701298268,0.251926716167,0.303358789302,1.0,-0.01674,-0.0220011428571,0.838
0.459866947519,0.509012845587,-0.124123445572,-1.41700141592,0.0759454219881,1.91657910982,0.151155063089,-0.0145202615892,-0.0902565467323,-0.00123148891207,-0.139499965801,-0.00670714689149,0.0456187142184,-0.0203066743656,0.573966913143,0.81886418387,0.00204398966884,0.0,0.818820400675,-0.573906095136,-0.0120703067533,0.0,-0.00871105147395,0.00860178275844,-0.99992506065,0.0,0.654441725052,0.251609542404,0.30334689949,1.0,-0.01704,-0.0223954285714,0.853
0.459659175827,0.507498176531,-0.124122327746,-1.41938814,0.0757889127738,1.91743117294,0.15082366821,-0.0130336011669,-0.0888987133255,-0.000640608482149,-0.146017175932,-0.00792831492447,0.0632187590088,-0.0207042935189,0.573943958734,0.818880330964,0.00202056781378,0.0,0.818836233261,-0.573883236426,-0.012083085259,0.0,-0.00873519903924,0.00858969330318,-0.999924953917,0.0,0.654123480385,0.251218528503,0.303345283792,1.0,-0.0174,-0.0228685714286,0.871
0.459471820385,0.506209811442,-0.124127262348,-1.42138075879,0.0756610787502,1.91817611491,0.150559416238,-0.0146155433018,-0.0933347709237,-0.000548758567942,-0.144071761524,-0.00661944018594,0.0565987325179,-0.0106535956567,0.573946094957,0.818878742275,0.00205728797918,0.0,0.818835126609,-0.573885216315,-0.0120640302943,0.0,-0.00869849827023,0.00860884848676,-0.999925109123,0.0,0.653864074935,0.250886133096,0.303365826386,1.0,-0.0177,-0.0232628571429,0.886
0.459224698491,0.504394312087,-0.124128751128,-1.42415521527,0.0754876123042,1.91924320335,0.150183169976,-0.0127253382185,-0.10372141633,-0.00110221467933,-0.14958263894,-0.0108253313554,0.0595333471865,-0.00736515978017,0.573944775958,0.818879457464,0.00213897067706,0.0,0.818837022898,-0.57388366574,-0.0120089562354,0.0,-0.00860653293613,0.00864411250325,-0.999925600687,0.0,0.653550729948,0.250480172501,0.303402991498,1.0,-0.01806,-0.023736,0.904
0.458995166657,0.502732372254,-0.124136958723,-1.42662424936,0.0753347556644,1.92017579036,0.149829319465,-0.01426192189,-0.0941436426476,-0.000890197747556,-0.14822156679,-0.0094005978691,0.059093275346,-0.026324774057,0.5739343766,0.818886464575,0.00224419120596,0.0,0.818845458215,-0.573872890964,-0.0119485345553,0.0,-0.00849677631286,0.00869548792273,-0.99992609391,0.0,0.65325483208,0.250092920848,0.303469501843,1.0,-0.0184,-0.0241828571429,0.921
0.458770863866,0.501121402684,-0.12413824496,-1.42904005776,0.075175420731,1.92101690052,0.149494172162,-0.0181113113082,-0.109527543151,0.000573247663584,-0.155128500128,-0.00690438340792,0.0530719192058,-0.0131857408343,0.57392451991,0.818893294681,0.00227250391977,0.0,0.818852651536,-0.573862915178,-0.0119346787155,0.0,-0.0084692857101,0.00871061831877,-0.99992619544,0.0,0.652948516208,0.249711770074,0.303516987455,1.0,-0.01872,-0.0246034285714,0.937
0.458496706538,0.499225244027,-0.124140857392,-1.43195272629,0.0749935945959,1.92207808077,0.149084645005,-0.0200409405251,-0.0985046090269,-0.00142803093568,-0.154758732123,-0.0104470301718,0.055500609583,-0.0267279061556,0.573914756458,0.818900033439,0.0023096439069,0.0,0.818859840114,-0.573852968942,-0.0119196974163,0.0,-0.00843580701504,0.00873233300451,-0.999926289043,0.0,0.652586666914,0.249253458386,0.30354549192,1.0,-0.0191,-0.0251028571429,0.956
0.458259808432,0.497649406948,-0.124136384296,-1.43444156959,0.074839035306,1.92300077813,0.148714534154,-0.0130351400103,-0.099037253775,-0.000688733062268,-0.153840069493,-0.0154612009078,0.055003737259,-0.0248789930543,0.573887166834,0.818919346222,0.00231754780322,0.0,0.818879197747,-0.573825291094,-0.0119223193814,0.0,-0.00843371282555,0.00874002605029,-0.999926239496,0.0,0.652277416198,0.248864767223,0.303539501345,1.0,-0.01942,-0.0255234285714,0.972
0.457999946674,0.495973648304,-0.124138729239,-1.43712637487,0.074674310323,1.92394108825,0.148318528362,-0.0117933839961,-0.0997597001325,0.000395142597712,-0.16346958438,-0.0102818533471,0.0474747151464,-0.0254835195882,0.573874533043,0.818928391566,0.0022487138226,0.0,0.818887183269,-0.573812769625,-0.0119763681405,0.0,-0.0085176111819,0.00871454338433,-0.99992575076,0.0,0.651910962735,0.248405649959,0.303507359027,1.0,-0.01978,-0.0259965714286,0.99
0.457752837486,0.494493775238,-0.12414933592,-1.43954819456,0.0745190484017,1.92478203645,0.147983058458,-0.0190313094948,-0.100120856945,-0.00238270485259,-0.157749065513,-0.0114478888231,0.0553239827264,-0.028001565887,0.573883147253,0.818922587967,0.00216220217707,0.0,0.818880147149,-0.573821636197,-0.0120325117792,0.0,-0.00861314312462,0.00867600720615,-0.99992526754,0.0,0.651603003087,0.248009884978,0.303455037439,1.0,-0.0229422857143,-0.0301527183673,1.005
0.45744257021,0.4921621464,-0.124224882291,-1.4430363551,0.074315547893,1.92607492881,0.147469335345,-0.0182061490341,-0.158972519619,-0.00777610962421,-0.240629454169,-0.0103477652203,0.0895898636412,-0.0386715719269,0.573891679054,0.818916298788,0.002276662643,0.0,0.818875624454,-0.573829973903,-0.0119423459444,0.0,-0.00847352761627,0.00871808435947,-0.999926094436,0.0,0.651202439011,0.247457814219,0.303539426571,1.0,-0.0347914285714,-0.045725877551,1.021
0.457031029914,0.488913625158,-0.124258632293,-1.44820443158,0.074055520943,1.92805212913,0.146699465545,-0.0289514508471,-0.209119596843,-0.0009419914463,-0.342106236829,-0.0162786956885,0.123783689452,-0.0480280315753,0.573812116824,0.818971852974,0.00234638530378,0.0,0.818931693931,-0.5737497341,-0.0119528321354,0.0,-0.00844295769117,0.00878037825058,-0.999925807959,0.0,0.650547303198,0.246692252901,0.303511402807,1.0,-0.0473811428571,-0.0622723591837,1.038
0.456379997142,0.484521871026,-0.124345587994,-1.45510572495,0.0736527450316,1.93065449884,0.145651627151,-0.0411350626721,-0.284997412078,-0.00907213453531,-0.442722382251,-0.027474844538,0.157941327479,-0.0733496028733,0.573783797272,0.818991489562,0.00241679853161,0.0,0.818952342891,-0.573721237814,-0.0119058076161,0.0,-0.00836434750842,0.00881077195796,-0.999926201271,0.0,0.649696414762,0.245569434773,0.303505279849,1.0,-0.0599708571429,-0.0788188408163,1.055
0.455438988002,0.478407125509,-0.124516937582,-1.46488223634,0.0730627528806,1.93402185445,0.144175562481,-0.0566719238044,-0.344752355882,-0.00867588941849,-0.553986791188,-0.0342854108711,0.1927782944,-0.0779853978652,0.573787797208,0.81898943855,0.00214714247625,0.0,0.818946702754,-0.573726262936,-0.0120507330677,0.0,-0.00863771738312,0.00867312581745,-0.999925080557,0.0,0.648426218727,0.243914580679,0.30338906208,1.0,-0.0740417142857,-0.0973119673469,1.074
0.454587288973,0.472987302924,-0.124642698802,-1.47333573112,0.0725618535038,1.93700864949,0.142971279143,-0.0601009767233,-0.396455985372,-0.00519778202878,-0.622207341706,-0.0311337944293,0.213589568662,-0.0902692711087,0.573863084462,0.818936805552,0.00210135786576,0.0,0.818893364966,-0.573801629266,-0.0120869337361,0.0,-0.00869283969983,0.0086571997671,-0.999924740883,0.0,0.64733667453,0.242481868415,0.3033786855,1.0,-0.0844097142857,-0.110938481633,1.088
0.453389050155,0.465478360224,-0.124766029094,-1.48473869167,0.0718921082914,1.94128506253,0.141153004562,-0.0717769281713,-0.455155882999,-0.00802721451765,-0.694779705892,-0.0447792719648,0.267736487914,-0.11477527257,0.57380815767,0.818974386135,0.00242898069447,0.0,0.818935244489,-0.573745385197,-0.0119182717209,0.0,-0.00836730389872,0.00882814940687,-0.999926023265,0.0,0.645903275088,0.240566676819,0.303509805967,1.0,-0.0969994285714,-0.127484963265,1.105
0.451931883863,0.457056745856,-0.124843265437,-1.49787276099,0.0710600572047,1.94585052061,0.139126565157,-0.09470401386,-0.519835764266,-0.00565213114512,-0.784904845737,-0.0528611360454,0.270530171694,-0.123653081272,0.573784627551,0.818991238611,0.00230199194687,0.0,0.818949977551,-0.573721888484,-0.0120364382238,0.0,-0.0085371986499,0.00879170874415,-0.999924908229,0.0,0.644152634149,0.23831775654,0.303455568948,1.0,-0.109589142857,-0.144031444898,1.122
0.450159233461,0.44690227838,-0.125018692622,-1.51321709074,0.0699965918766,1.9513146289,0.136735184923,-0.106228634746,-0.594212168413,-0.0077676217682,-0.885649954869,-0.0636743111268,0.312678866972,-0.122851173635,0.573814123575,0.818970087215,0.00246875158962,0.0,0.818931864685,-0.573751621162,-0.011850110504,0.0,-0.00828859538733,0.00882166996034,-0.999926735979,0.0,0.642142863387,0.235599621691,0.303599543753,1.0,-0.122919428571,-0.16155124898,1.14
0.448520848116,0.43777835861,-0.125125690882,-1.52729277887,0.0690870536915,1.95612625152,0.134517982859,-0.112116136954,-0.615202298668,-0.00921075410055,-0.961279445568,-0.0635584311476,0.31979401534,-0.152785167978,0.573796535358,0.81898276687,0.00234744138237,0.0,0.818942462893,-0.57373398537,-0.0119709399265,0.0,-0.00845734943347,0.00879147254505,-0.999925588857,0.0,0.640204571814,0.233131874799,0.303561437257,1.0,-0.134028,-0.176151085714,1.155
0.446412952959,0.426431534422,-0.125253916754,-1.54429153941,0.0679371755489,1.96213643888,0.131723308031,-0.134879902125,-0.676495512043,-0.00424180081957,-1.02858844069,-0.0714332791783,0.358165750763,-0.171270428288,0.573749648821,0.819014776588,0.0026235680817,0.0,0.818978275592,-0.573686256219,-0.0118072195774,0.0,-0.00816533956167,0.00892320514889,-0.999926849144,0.0,0.637897630057,0.230087703345,0.303727472007,1.0,-0.146617714286,-0.192697567347,1.172
0.444037054465,0.414263509409,-0.125411422593,-1.56244285538,0.066627181967,1.96852107107,0.128691265817,-0.144722191824,-0.759161020991,-0.00681520672861,-1.08419985422,-0.0935192295503,0.395416291836,-0.186873714043,0.573727578691,0.819029328715,0.00289327758394,0.0,0.818997138966,-0.573664157648,-0.0115701122289,0.0,-0.00781664209857,0.00900785196683,-0.999928876825,0.0,0.635408396056,0.226743659197,0.303902471142,1.0,-0.159207428571,-0.20924404898,1.189
0.441400740157,0.401393092279,-0.125536978048,-1.58193816293,0.0653094179014,1.97512325947,0.125401219021,-0.163020690437,-0.783106924263,-0.00234838568175,-1.15773676563,-0.0753930414296,0.38993707694,-0.195952844239,0.573712657758,0.819039848695,0.00287393099135,0.0,0.819006754155,-0.573648552229,-0.0116628502558,0.0,-0.00790386493037,0.00904506785577,-0.999927855231,0.0,0.632617179486,0.223135437368,0.303894122169,1.0,-0.171797142857,-0.225790530612,1.206
0.438453761455,0.387609034273,-0.125697904546,-1.6025018101,0.0638116208926,1.9821907137,0.121869636646,-0.175375997782,-0.798944302613,-0.0126036506429,-1.24085035695,-0.104830222329,0.417478916472,-0.220959873926,0.573737632938,0.819021682216,0.00305933180437,0.0,0.818991380579,-0.573673372169,-0.0115207422905,0.0,-0.00768082841812,0.00911562529361,-0.999928952601,0.0,0.629672352884,0.219219791415,0.30398890399,1.0,-0.184386857143,-0.242337012245,1.223
0.435438117327,0.373938831645,-0.125844791663,-1.62283420302,0.0622954857041,1.98895530143,0.118181245113,-0.195450221581,-0.884993616466,-0.0112633967255,-1.28787808604,-0.0911585659713,0.425140953664,-0.230770304218,0.573622447247,0.819102173375,0.00310877585809,0.0,0.819072531244,-0.573558071178,-0.011492364839,0.0,-0.00763050444279,0.00913876730433,-0.999929126656,0.0,0.626463975305,0.215044812083,0.304051162437,1.0,-0.196976571429,-0.258883493878,1.24
0.431411997699,0.356870162318,-0.126037270259,-1.64812689955,0.0603395509512,1.99727951142,0.11365845697,-0.221011302386,-0.921692888168,-0.0120392088155,-1.36840183783,-0.0996335308094,0.434077267718,-0.255237603869,0.573710513889,0.819040654601,0.0030658220427,0.0,0.819010800489,-0.573646668681,-0.0114697469387,0.0,-0.00763563744894,0.00909143081397,-0.999929518979,0.0,0.622644059043,0.209973752093,0.304062129702,1.0,-0.211047428571,-0.277376620408,1.259
0.427856573782,0.342722405352,-0.126259855958,-1.66895327701,0.0587800501509,2.00401365881,0.109710898992,-0.244571521481,-0.98476099734,-0.0150652684257,-1.40533684108,-0.103890886317,0.462930842057,-0.256760736732,0.573819181111,0.818964350296,0.00311243228641,0.0,0.818934894282,-0.573754934631,-0.0114743546373,0.0,-0.00761146055177,0.00913326003075,-0.999929322117,0.0,0.619673964352,0.205947169432,0.304104679056,1.0,-0.221415428571,-0.291003134694,1.273
0.423343153265,0.325120663022,-0.126416075036,-1.69474912955,0.0567382136418,2.01232394309,0.104706118049,-0.257905321241,-0.999459147381,-0.007337543214,-1.44609246731,-0.132054982583,0.48381988,-0.283551635895,0.573768991989,0.818999365596,0.00315117226907,0.0,0.818970311564,-0.573704515037,-0.0114675674375,0.0,-0.00758423471785,0.00916062751466,-0.999929278643,0.0,0.615617031032,0.200642038838,0.304109692481,1.0,-0.234745714286,-0.308522938775,1.291
0.418762260939,0.307730010702,-0.126576089294,-1.71989846598,0.054683558722,2.02025258187,0.0996712796904,-0.27467281777,-1.05776856068,-0.0136585743477,-1.47915164957,-0.128315720534,0.498351339829,-0.308523618316,0.573668820016,0.81906922289,0.00323109213859,0.0,0.81904119026,-0.573604103032,-0.0114284094884,0.0,-0.00750743531197,0.00920269691734,-0.999929471905,0.0,0.611552588414,0.195386596629,0.304169148102,1.0,-0.247335428571,-0.325069420408,1.308
0.413430050301,0.288572946615,-0.126770848106,-1.74735736367,0.0523642847994,2.02870520667,0.0939822827046,-0.298696452282,-1.1088876528,-0.0189567641036,-1.53216788846,-0.12964540348,0.494261964971,-0.323433002707,0.573598566357,0.81911823303,0.00327900777662,0.0,0.819090879582,-0.573533792919,-0.0113958881348,0.0,-0.00745410150018,0.00922264802493,-0.999929687095,0.0,0.607012297792,0.189474682273,0.304232908452,1.0,-0.260665714286,-0.34258922449,1.326
0.40893967563,0.273387087233,-0.126903599751,-1.76912478166,0.0505836771628,2.03523853421,0.089297371758,-0.329162593104,-1.1030614611,-0.0113044637375,-1.54248089649,-0.119222039253,0.459746832316,-0.336523211242,0.573558172379,0.819146474246,0.00328991306696,0.0,0.819118444682,-0.573492362674,-0.0114991494721,0.0,-0.00753289276063,0.00929043849939,-0.999928469081,0.0,0.603059993687,0.184334998949,0.304219855451,1.0,-0.271774285714,-0.357189061224,1.341
0.402266201786,0.251819719652,-0.12722828819,-1.79945065583,0.0478450826679,2.04437099286,0.0825872518838,-0.362142920437,-1.16493575644,-0.0191747948039,-1.61740459798,-0.1477904024,0.499865514671,-0.357092870764,0.573674285394,0.81906464891,0.00341497947281,0.0,0.819039032393,-0.573609096127,-0.0113320412169,0.0,-0.00732295206157,0.00929808114709,-0.999929957577,0.0,0.598150571227,0.17773789593,0.304308160119,1.0,-0.285104571429,-0.374708865306,1.359
0.396630161547,0.234390634646,-0.127416441015,-1.82389219601,0.0456589809307,2.05138302473,0.0769287886929,-0.378605294054,-1.17811367952,-0.0112849150705,-1.59274531694,-0.139830195276,0.495691892377,-0.378709307419,0.573650630371,0.819081389843,0.00337312751186,0.0,0.819054740601,-0.5735849406,-0.0114190506523,0.0,-0.00741849956457,0.00931350099792,-0.999929109769,0.0,0.593814202557,0.172082992624,0.304300950724,1.0,-0.296213142857,-0.389308702041,1.374
0.390264368822,0.215253942762,-0.127602832075,-1.85046610844,0.0432064346007,2.05892901289,0.070544154987,-0.410747600802,-1.20865802553,-0.0132236666211,-1.68128595899,-0.1506074933,0.486152414975,-0.402970075776,0.573524556566,0.819169529062,0.00340772261011,0.0,0.819143023613,-0.573458401652,-0.0114418242409,0.0,-0.00741874944772,0.00935375946543,-0.999928732131,0.0,0.588995080835,0.165871510858,0.304304997928,1.0,-0.308062285714,-0.404881861224,1.39
0.38203350604,0.191807167721,-0.127926071744,-1.88264750688,0.0400715239303,2.06768025451,0.0624723914415,-0.442979959513,-1.26700777987,-0.0168167314227,-1.73108563496,-0.169824476439,0.466954855019,-0.445002001964,0.573446031824,0.819224889553,0.00331297808079,0.0,0.819197170503,-0.573380182378,-0.011485172909,0.0,-0.00750948811257,0.00930028815855,-0.999928553562,0.0,0.583005674508,0.158067422645,0.304304369147,1.0,-0.322133142857,-0.423374987755,1.409
0.37491112574,0.172797430494,-0.128306840411,-1.90828517853,0.0376369866169,2.07448928112,0.0557130928611,-0.484516214011,-1.27635601614,-0.0251948490029,-1.70343184633,-0.158573982313,0.475912990274,-0.453422199835,0.573631757865,0.819094311064,0.00344424926999,0.0,0.819067733544,-0.573564793012,-0.0114988253822,0.0,-0.00744326564076,0.00941734617378,-0.999927953098,0.0,0.57816356333,0.151558718203,0.304376782222,1.0,-0.333241714286,-0.43797482449,1.424
0.366400860992,0.150826484088,-0.128638115776,-1.93768693605,0.0345589853299,2.08203288519,0.0476294564027,-0.504466864066,-1.30363594316,-0.0170302024424,-1.73055404884,-0.18414085809,0.440983410028,-0.483839211092,0.573576896863,0.819132851186,0.00341502482653,0.0,0.819106298974,-0.573510535518,-0.0114579026126,0.0,-0.00742713471398,0.00936943696237,-0.999928523106,0.0,0.572435575451,0.144032122488,0.304407585633,1.0,-0.345831428571,-0.454521306122,1.441
0.357281890966,0.128305579704,-0.128983296014,-1.96741290653,0.0314536623482,2.08934270696,0.0390501205333,-0.549375384146,-1.33502053247,-0.0177261811225,-1.74965346696,-0.189037836054,0.417409380453,-0.518921036479,0.573534983724,0.819162079171,0.00344345664971,0.0,0.819135516644,-0.573468066323,-0.0114947457827,0.0,-0.00744149070024,0.00941347771579,-0.999928002735,0.0,0.566476854918,0.136257765933,0.30444769321,1.0,-0.358421142857,-0.471067787755,1.458
0.346764075451,0.103920645204,-0.129518905701,-1.99919822061,0.027928013471,2.09685308042,0.0293840679985,-0.60330923167,-1.35309696895,-0.0232659629461,-1.76704219809,-0.196398402603,0.387810283176,-0.5511718431,0.57366973772,0.819067856965,0.00340948864602,0.0,0.819041237293,-0.573603385348,-0.0114610135466,0.0,-0.00743179665971,0.00936752878842,-0.999928506346,0.0,0.559970732547,0.127556513629,0.304474312866,1.0,-0.371751428571,-0.488587591837,1.476
0.336875464896,0.0818031309337,-0.129873478085,-2.02757660059,0.0247963586834,2.10326103023,0.0202133527251,-0.636688037985,-1.38398021502,-0.0295455574447,-1.72749384507,-0.187026115924,0.367072137095,-0.594320050187,0.573553744035,0.81914859523,0.00352541306252,0.0,0.819122886864,-0.573486318568,-0.0114841426729,0.0,-0.00738558537467,0.0094747019696,-0.999927838972,0.0,0.553598728657,0.119253522047,0.304541027145,1.0,-0.37998,-0.499402285714,1.493
0.325722420409,0.058411646746,-0.130314465297,-2.05732496517,0.0212836041104,2.10964406973,0.0100974164387,-0.672607518299,-1.38503271011,-0.0382909361348,-1.70715992313,-0.209721954584,0.350269827085,-0.6040089312,0.57358087972,0.819130028306,0.00342316347682,0.0,0.819103128966,-0.573513923295,-0.0115148081343,0.0,-0.00746903699943,0.00940877884245,-0.99992784158,0.0,0.547524534246,0.111216458605,0.304491498131,1.0,-0.37998,-0.499402285714,1.509
0.313967001259,0.0351383304716,-0.130725267816,-2.086421045,0.0178698219557,2.11542078948,-0.000230645970581,-0.698425328157,-1.3693619133,-0.0206635522465,-1.66638870731,-0.197102420513,0.339438791605,-0.607212505861,0.573827139202,0.818957692856,0.00338504478446,0.0,0.818929217044,-0.573758914459,-0.0116787179037,0.0,-0.00762232300236,0.00947385976039,-0.999926070354,0.0,0.541027502471,0.10261729216,0.304481653463,1.0,-0.37998,-0.499402285714,1.526
0.302569363182,0.0134430640214,-0.131112195519,-2.11292549117,0.0145242799975,2.12053000383,-0.0103236337336,-0.718038426088,-1.34888621029,-0.0268494770004,-1.63722160265,-0.207960336731,0.329694298626,-0.639430041949,0.573886458585,0.818915505982,0.00353180065654,0.0,0.818889636102,-0.57381865518,-0.0115178884284,0.0,-0.00740570690992,0.00950229810367,-0.999927428285,0.0,0.534990846544,0.0945600021897,0.304582446737,1.0,-0.37998,-0.499402285714,1.542
0.289978977098,-0.00930534680782,-0.131546898612,-2.14033602769,0.0110378269606,2.12544302385,-0.0213844053983,-0.742709553084,-1.33890986347,-0.017998379413,-1.56647175979,-0.214754089817,0.314425552156,-0.664048422606,0.574032253364,0.818812629357,0.00368741159849,0.0,0.818788899391,-0.573964143467,-0.0114300983993,0.0,-0.00724280633091,0.0095806412817,-0.999927873933,0.0,0.528574773629,0.085970235777,0.30466770002,1.0,-0.37998,-0.499402285714,1.559
0.277079698393,-0.0317941771931,-0.131858350352,-2.16704214305,0.00750539159911,2.12981540438,-0.0327505194357,-0.774542861188,-1.33242263523,-0.0269093547976,-1.56184505522,-0.227394100825,0.27327293456,-0.658796893589,0.573979108238,0.818849573674,0.00375578235308,0.0,0.818826867959,-0.573911003904,-0.0113783481831,0.0,-0.00716180862516,0.00960645459829,-0.999928209687,0.0,0.52210999579,0.0775125864297,0.304730818658,1.0,-0.37998,-0.499402285714,1.576
0.26439203298,-0.0526566885165,-0.132283026463,-2.19152184527,0.00429001613681,2.13345551961,-0.0438001359448,-0.78860427235,-1.32534344202,-0.0171943809211,-1.50734113957,-0.209177869591,0.232506393182,-0.686459753517,0.574175341395,0.818711750664,0.00380704096408,0.0,0.81868887541,-0.574105948183,-0.0114731182296,0.0,-0.00720767061889,0.00970455050454,-0.999926932922,0.0,0.516027575124,0.0694313709557,0.304746395666,1.0,-0.37998,-0.499402285714,1.592
0.248999925134,-0.0771779738825,-0.132633247601,-2.21977709227,0.00037231054491,2.13730951256,-0.057415363517,-0.836812075142,-1.31225477066,-0.0260925503263,-1.47072907917,-0.207995313128,0.198490025691,-0.724111260218,0.574019656534,0.818820592399,0.0038753421421,0.0,0.818798559546,-0.573950036641,-0.0114464503764,0.0,-0.00714847414389,0.00974379967563,-0.999926976176,0.0,0.508790761141,0.0600147317208,0.304788986927,1.0,-0.37998,-0.499402285714,1.611
0.236394108391,-0.096083124497,-0.13297515522,-2.24138919768,-0.00265320462751,2.13988406897,-0.0685064991652,-0.83378592661,-1.26988543582,-0.00881314339713,-1.41670977283,-0.200166790371,0.174068956224,-0.745072438202,0.574014594973,0.818824468919,0.00380535937323,0.0,0.818800608115,-0.573943937173,-0.0116046556874,0.0,-0.00731825398826,0.00977726054567,-0.999925421386,0.0,0.503087123343,0.0525384513117,0.304735720496,1.0,-0.37998,-0.499402285714,1.626
0.221742998707,-0.117358765057,-0.13330202679,-2.26526793147,-0.00619837912503,2.14240183338,-0.0813779994806,-0.881310686739,-1.24937950983,-0.0332343736373,-1.37527210031,-0.194064267242,0.124827966532,-0.758130921626,0.57390133857,0.818904328214,0.00370158364949,0.0,0.818879009597,-0.573830872559,-0.0116638004779,0.0,-0.00742759672359,0.00972520710028,-0.999925122774,0.0,0.496608605675,0.0441260742766,0.304708868544,1.0,-0.37998,-0.499402285714,1.643
0.204755002856,-0.140808818135,-0.133714560141,-2.29120542108,-0.00999940009076,2.1447106189,-0.0963995217859,-0.895907936793,-1.22691118703,-0.0225068258336,-1.32250204682,-0.194026887194,0.107591627559,-0.798831852159,0.573799750309,0.818975801736,0.00363725421518,0.0,0.818948327715,-0.573727803719,-0.0118655245898,0.0,-0.00763093056057,0.00978734674066,-0.999922985406,0.0,0.489347421183,0.0347047542417,0.304644961444,1.0,-0.37998,-0.499402285714,1.662
0.190831119715,-0.159148517516,-0.134144421925,-2.31118990023,-0.0131112063697,2.14624177631,-0.108679975316,-0.933238315422,-1.20575310326,-0.0343397834115,-1.32391509726,-0.21331758241,0.0906556015044,-0.822227571393,0.573781256242,0.818989147796,0.00354861630914,0.0,0.818960181595,-0.573709198537,-0.0119466889312,0.0,-0.00774848395041,0.00976114957218,-0.999922337462,0.0,0.483599275671,0.0271697494769,0.304583833153,1.0,-0.37998,-0.499402285714,1.677
0.174676966946,-0.179705468122,-0.134507953624,-2.33298700491,-0.0164201033012,2.14746229684,-0.122950443884,-0.960027068635,-1.21039074983,-0.0161423177809,-1.26760097947,-0.192041833263,0.0691918849629,-0.849500990418,0.573733208541,0.819022410353,0.00363918360822,0.0,0.81899363017,-0.573659564229,-0.0120368189814,0.0,-0.00777092162663,0.00988658131632,-0.999920931018,0.0,0.477123029014,0.0187693994078,0.304618889428,1.0,-0.37998,-0.499402285714,1.694
0.156859399293,-0.201104124467,-0.135085419532,-2.35530284806,-0.0200416816893,2.14844462145,-0.138659370934,-0.992714684276,-1.16629139791,-0.0177392208492,-1.2366811633,-0.190470487713,0.0334938644792,-0.885388111547,0.573832251719,0.818952662202,0.00371898645831,0.0,0.818925001693,-0.57375839728,-0.0119954180714,0.0,-0.00769002791086,0.00992911992022,-0.999921134914,0.0,0.470302040929,0.00969997166074,0.304652750388,1.0,-0.37998,-0.499402285714,1.712
0.140564737818,-0.219909383519,-0.135634216695,-2.37446995149,-0.0231722461325,2.14894308975,-0.15306678001,-1.03615734751,-1.18057937781,-0.0381043227999,-1.17971464671,-0.198766918611,0.0354783577463,-0.897563303314,0.573963065495,0.818860175689,0.00389345855009,0.0,0.818834798463,-0.573888573964,-0.0119257872366,0.0,-0.00753128585729,0.0100332539192,-0.999921303678,0.0,0.464242570596,0.00165202231364,0.304729457827,1.0,-0.37998,-0.499402285714,1.728
0.122867848389,-0.239431428057,-0.136113322836,-2.39425111108,-0.0264839139126,2.14906410891,-0.168836486467,-1.05236281847,-1.13844515793,-0.0279250216372,-1.13161883541,-0.185510381685,0.00228778827414,-0.931841167875,0.57392721911,0.818885389251,0.00387470475968,0.0,0.818859005114,-0.573851789726,-0.0120332902058,0.0,-0.00763052618446,0.0100792637263,-0.999920088564,0.0,0.457758302089,-0.00678984666444,0.304708111772,1.0,-0.37998,-0.499402285714,1.745
0.104522992467,-0.258648829826,-0.136675450879,-2.41328233811,-0.0297325480907,2.14903078804,-0.185247001526,-1.08089853432,-1.11826370368,-0.020635226429,-1.11011806175,-0.193299928979,-0.0129322851471,-0.985204855885,0.573964310941,0.818858480707,0.00406266431139,0.0,0.818834879152,-0.573888643693,-0.0119168882498,0.0,-0.00742687108582,0.0101667155341,-0.999920736599,0.0,0.451335665711,-0.0153135639642,0.304752007759,1.0,-0.37998,-0.499402285714,1.762
0.0868571491534,-0.276398254476,-0.137215224235,-2.43044497044,-0.0327844388724,2.14879039832,-0.201082066465,-1.11697814773,-1.09639235103,-0.0400127850953,-1.05851436455,-0.193891086719,-0.0235686066907,-1.0017016406,0.573998873643,0.818832905506,0.00432583159235,0.0,0.818814217186,-0.573924447242,-0.0116083371952,0.0,-0.00702272317728,0.0102054213698,-0.999923262423,0.0,0.445351491733,-0.0233040013325,0.304855710208,1.0,-0.37998,-0.499402285714,1.778
0.066457308965,-0.2958132146,-0.137734083258,-2.44913869885,-0.03607230546,2.14791987984,-0.219582841041,-1.1563501545,-1.06791027714,-0.0298105961216,-1.00136703751,-0.182122040569,-0.0451521125979,-1.04584424247,0.573877267853,0.818917959327,0.00435938466793,0.0,0.818898868671,-0.573801539909,-0.0117124970785,0.0,-0.00709028908066,0.0102916291416,-0.999921902036,0.0,0.438518823143,-0.0322151393803,0.304837728724,1.0,-0.37998,-0.499402285714,1.796
0.0453958962578,-0.314838723794,-0.138352666157,-2.46718935028,-0.0393864898896,2.14678836824,-0.238635166874,-1.16531693632,-1.04682761125,-0.0304195860477,-0.997319484351,-0.177958332086,-0.0696893329933,-1.05936497272,0.573889652542,0.818909254147,0.00436429582302,0.0,0.818889625099,-0.573813034379,-0.0117953543193,0.0,-0.00715517273812,0.010343307503,-0.999920906619,0.0,0.431646874823,-0.0411904797025,0.304797634385,1.0,-0.37998,-0.499402285714,1.814
0.0273378780227,-0.330351814982,-0.138883657303,-2.4814763251,-0.0420507020599,2.14567384964,-0.255042875727,-1.19510626128,-1.01997334058,-0.0318347020649,-0.948986443613,-0.181412953521,-0.0822468124509,-1.10582012836,0.573930709453,0.818879561468,0.00453337156306,0.0,0.81886257429,-0.573854196981,-0.0116701301057,0.0,-0.00695507063195,0.010410254789,-0.999921623722,0.0,0.425983440195,-0.0486910802789,0.30485677857,1.0,-0.37998,-0.499402285714,1.829
0.00635076768559,-0.347382421056,-0.139521113126,-2.49714368252,-0.0450826454778,2.14407760109,-0.274207625645,-1.25184076932,-0.985129312767,-0.0505835714231,-0.912391214885,-0.177092415879,-0.101731929468,-1.12449427034,0.57394786687,0.818867743925,0.00449566186692,0.0,0.818849469629,-0.573870287843,-0.0117976998175,0.0,-0.00708096539395,0.0104527362271,-0.999920296941,0.0,0.419484481514,-0.057203212431,0.304807388444,1.0,-0.37998,-0.499402285714,1.846
-0.0112906589018,-0.361112281496,-0.13994411604,-2.50930740432,-0.0474285321281,2.14267105097,-0.290413133674,-1.27327450612,-0.973345635232,-0.0277797800759,-0.873295950782,-0.172651556999,-0.106134118859,-1.15461629787,0.573902375831,0.818898582228,0.00468208731782,0.0,0.81888356342,-0.573825471452,-0.0116096845463,0.0,-0.00682058456993,0.0104971119928,-0.999921642063,0.0,0.414228510649,-0.0641519716715,0.304902920107,1.0,-0.37998,-0.499402285714,1.86
-0.0344604917435,-0.378165967791,-0.140599167501,-2.52446686625,-0.050466378248,2.14054634193,-0.311889304021,-1.28659075412,-0.943552797766,-0.0314066612947,-0.811180281863,-0.155783432153,-0.128817154807,-1.21149437573,0.5737865366,0.818979791733,0.00467525944814,0.0,0.818963930504,-0.573708517284,-0.0117202657963,0.0,-0.00691655784015,0.0105540027703,-0.999920383957,0.0,0.407354857687,-0.0730964296837,0.304879583914,1.0,-0.37998,-0.499402285714,1.878
-0.0570186577205,-0.39369384088,-0.141213084235,-2.53781858903,-0.0531653025179,2.13854799398,-0.332691443585,-1.33752902764,-0.888753198081,-0.0377658184782,-0.784073630044,-0.137105189103,-0.124945606007,-1.24829696801,0.573891008632,0.818905241817,0.00490530710101,0.0,0.818893374618,-0.573813860508,-0.011490926712,0.0,-0.00659537389454,0.0106116673138,-0.999921943734,0.0,0.400965640632,-0.0816012687043,0.304976423628,1.0,-0.37998,-0.499402285714,1.895
-0.0799917113242,-0.408476451867,-0.141764993408,-2.55060948175,-0.0558290002672,2.13616645614,-0.354137875637,-1.36015443694,-0.836821013143,-0.0205278986807,-0.715531167332,-0.155601341411,-0.147218506739,-1.26975828428,0.573778692661,0.818984436516,0.00482198037671,0.0,0.818970101484,-0.573699617334,-0.0117247109956,0.0,-0.00683611914764,0.010676652664,-0.999919635052,0.0,0.394472626521,-0.0900185273328,0.304920983257,1.0,-0.37998,-0.499402285714,1.912
-0.102128187921,-0.421926586989,-0.14237963065,-2.56177091594,-0.0582205591772,2.1341282968,-0.374898464142,-1.39937512981,-0.834357835024,-0.0308789898081,-0.698275833091,-0.145116270866,-0.139057280442,-1.31071391559,0.573728004692,0.819018633281,0.00504002698404,0.0,0.819008575008,-0.573650613607,-0.0114312935558,0.0,-0.00647135244631,0.010686484309,-0.99992195728,0.0,0.38810137333,-0.0984954691353,0.305027530913,1.0,-0.37998,-0.499402285714,1.929
-0.126160245064,-0.435352758347,-0.143014161712,-2.57323046447,-0.0606389992549,2.13160060791,-0.397477913596,-1.42039524431,-0.756169103947,-0.0330652197828,-0.658991341253,-0.146587955154,-0.144567355356,-1.32318375837,0.57378818069,0.81897671734,0.00500070560381,0.0,0.818963638517,-0.573706825561,-0.0118230280611,0.0,-0.00681397696311,0.0108795192823,-0.999917599494,0.0,0.381939695203,-0.106461897053,0.304905104174,1.0,-0.37998,-0.499402285714,1.945
-0.153590497939,-0.449664966809,-0.143683311298,-2.58473456025,-0.063281476613,2.12899852034,-0.423436011905,-1.45711564339,-0.725599133651,-0.0291809253746,-0.591368050992,-0.143251574383,-0.133051399836,-1.38900325615,0.57372824373,0.819017530318,0.00518982455958,0.0,0.819008759286,-0.573649344192,-0.0114816820626,0.0,-0.00642668316529,0.010838085725,-0.99992061367,0.0,0.374823007847,-0.115949692189,0.3050350438,1.0,-0.37998,-0.499402285714,1.964
-0.175658234712,-0.460183384147,-0.144247066382,-2.59338478661,-0.065215757286,2.12671220674,-0.444406018599,-1.47914172682,-0.683975995133,-0.0447418584252,-0.554865024485,-0.107605075486,-0.153764021931,-1.41106767508,0.573731687276,0.819015108792,0.00519128950515,0.0,0.819004459573,-0.573649616585,-0.011771129597,0.0,-0.00666288003434,0.011005371188,-0.999917240493,0.0,0.369072677572,-0.123399670462,0.304967323456,1.0,-0.375701142857,-0.493778644898,1.979
-0.203779940309,-0.472255847909,-0.144643269836,-2.60318011527,-0.0673661797677,2.12414650063,-0.471092139905,-1.48217349056,-0.606524098763,-0.0233636404236,-0.478805692917,-0.105990238506,-0.128772012596,-1.38718128977,0.573720284224,0.819022729607,0.0052488816936,0.0,0.819011963874,-0.573636584654,-0.0118835465641,0.0,-0.00672207359714,0.011116942652,-0.999915610095,0.0,0.36202157434,-0.13264884672,0.304919100673,1.0,-0.361630285714,-0.475285518367,1.998
-0.2273039889,-0.481447831227,-0.144841810272,-2.61033722257,-0.0688720682932,2.12212189948,-0.493284582626,-1.47878886707,-0.555827637651,-0.0177589096674,-0.441960375065,-0.0748361770001,-0.129116778811,-1.37711311857,0.573854552028,0.818927591507,0.00541293696262,0.0,0.818919611099,-0.573771354617,-0.0117409573507,0.0,-0.00650933107647,0.0111705771214,-0.999916419915,0.0,0.356669768761,-0.13976904649,0.304988456641,1.0,-0.350521714286,-0.460685681633,2.013
-0.251927113312,-0.490133395703,-0.144827333311,-2.61723832871,-0.0702637132344,2.11998558298,-0.51666252561,-1.4551483399,-0.496499629201,-0.00711197189324,-0.380028347403,-0.064738396046,-0.127641577748,-1.37815472449,0.573906433682,0.818890793089,0.0054791671947,0.0,0.818882306662,-0.573820647785,-0.0119322634946,0.0,-0.00662728904331,0.0113350140931,-0.999913794532,0.0,0.350363842268,-0.147960226774,0.304948181371,1.0,-0.337191428572,-0.443165877551,2.031
-0.27319950129,-0.496903981785,-0.144661147177,-2.62250062266,-0.0713137728081,2.11840184367,-0.53692290692,-1.41233719855,-0.436554095418,0.0183510054165,-0.337356269219,-0.0551950893657,-0.100472381333,-1.34934463424,0.573855219877,0.818926248189,0.0055437845926,0.0,0.818919019208,-0.573769923538,-0.0118516548777,0.0,-0.00652490002661,0.0113412630115,-0.999914397053,0.0,0.345371458308,-0.154533771913,0.304967522433,1.0,-0.326082857143,-0.428566040816,2.046
-0.296707898403,-0.503593116834,-0.144431325696,-2.62766728011,-0.0722162503677,2.11670357727,-0.559371201883,-1.35941055226,-0.366652242211,0.0168555529924,-0.2880137439,-0.0447564189721,-0.0984000367043,-1.3080906839,0.573864984152,0.818918426079,0.00568667675883,0.0,0.818912688378,-0.573778514652,-0.0118731561802,0.0,-0.00646037781,0.0114707011823,-0.999913339511,0.0,0.339920836557,-0.161694197452,0.304978195187,1.0,-0.313493142857,-0.412019559184,2.063
-0.319779357985,-0.50939184563,-0.144150782611,-2.63198038288,-0.0729800800177,2.11529421297,-0.581354197081,-1.347353361,-0.324919961483,0.0135581778175,-0.237630121207,-0.0383497931898,-0.0758209853259,-1.25769105929,0.573969710465,0.81884383793,0.00585554897786,0.0,0.818841509101,-0.573884826176,-0.0116419997866,0.0,-0.00617268792248,0.011477142779,-0.999915082953,0.0,0.334701205014,-0.168676482499,0.305059499531,1.0,-0.300903428572,-0.395473077551,2.08
-0.342154836505,-0.51428695898,-0.143711739839,-2.63576835912,-0.0736700890258,2.1139028022,-0.602743797666,-1.29449675326,-0.261295880689,0.0335505068886,-0.209050249403,-0.0384227864387,-0.0736637824449,-1.2669806817,0.573928923892,0.818872624343,0.00582772024242,0.0,0.818869463126,-0.573843272773,-0.0117238028729,0.0,-0.00625622362076,0.0115009931427,-0.999914289738,0.0,0.329920285097,-0.17492872556,0.305048291393,1.0,-0.289054285714,-0.379899918367,2.096
-0.362511726013,-0.518112449761,-0.143296741772,-2.63884565763,-0.0740944481779,2.11279171071,-0.62226934317,-1.25094383878,-0.222669254986,0.0350551988393,-0.18043310663,-0.0265530964118,-0.0660366580501,-1.22289522509,0.573961154608,0.818849622818,0.00588516043782,0.0,0.818845730318,-0.573872576173,-0.0119450055403,0.0,-0.00640395439552,0.0116752324528,-0.999911335227,0.0,0.325028831633,-0.181279914188,0.304969571567,1.0,-0.276464571429,-0.363353436735,2.113
-0.383404124972,-0.521444169153,-0.142763213079,-2.64148093452,-0.0744308057573,2.11185041784,-0.642289001201,-1.22395832222,-0.179732204528,0.0235780335581,-0.14089573644,-0.0169724892881,-0.0499901891324,-1.16152730241,0.573995089816,0.818825519816,0.00592890088127,0.0,0.818821639089,-0.57390531025,-0.012023523903,0.0,-0.00644266455148,0.011756382367,-0.999910135736,0.0,0.320395295636,-0.187360079201,0.304930550493,1.0,-0.263874857143,-0.346806955102,2.13
-0.403416484776,-0.524134863041,-0.142079125753,-2.64354095187,-0.0746410358194,2.11103358051,-0.661625295125,-1.15144176455,-0.146502269757,0.042657318775,-0.107038586572,-0.0104891739126,-0.0422269044062,-1.12697315487,0.573850044592,0.818927167284,0.00593025362491,0.0,0.81892318933,-0.573760079719,-0.0120385962442,0.0,-0.00645631503182,0.0117649977163,-0.999909946358,0.0,0.316019768423,-0.193116034941,0.304929641461,1.0,-0.251285142857,-0.33026047347,2.147
-0.422776861549,-0.526232750233,-0.141483074294,-2.64515137429,-0.0747703843026,2.11038893728,-0.680209575977,-1.11798398789,-0.111127427327,0.0355986346683,-0.0795601964736,0.00142424363799,-0.0334033435067,-1.06926845233,0.573911765919,0.81888362363,0.00597015850907,0.0,0.818880103855,-0.57382150916,-0.0120415130614,0.0,-0.00643491637616,0.0117998372288,-0.999909673767,0.0,0.311802789293,-0.198686714369,0.304926545072,1.0,-0.238695428572,-0.313713991837,2.164
-0.441252358117,-0.527853315444,-0.140838506975,-2.64643044843,-0.0748224445917,2.10987068786,-0.697979629452,-1.06188428915,-0.0904081363155,0.0421376664057,-0.0724824994018,-0.00823800539187,-0.0327125349478,-1.02564506178,0.57393518239,0.818867084334,0.0059876130368,0.0,0.818863602535,-0.573844499718,-0.012068035807,0.0,-0.00644628259825,0.0118295364691,-0.999909249636,0.0,0.307783498134,-0.203951492039,0.304910539438,1.0,-0.226105714286,-0.297167510204,2.181
-0.458778680602,-0.528979951804,-0.14016389409,-2.64733456812,-0.0748057946738,2.10946240436,-0.714857013798,-1.02629036312,-0.0609297297884,0.0293168635457,-0.0443404985651,0.00539544878036,-0.0272322619098,-0.981507037451,0.57394352867,0.818861268402,0.00598296828192,0.0,0.81885746304,-0.573852382423,-0.0121097197567,0.0,-0.00648296469461,0.011849721661,-0.999908773472,0.0,0.303992295056,-0.208919017736,0.304894136808,1.0,-0.213516,-0.280621028572,2.198
-0.47548976798,-0.529741768823,-0.139434872616,-2.64792268586,-0.0747473890293,2.10916301271,-0.730920602907,-0.958895277248,-0.0355449925714,0.0429527410303,-0.0289155662424,0.00548303096171,-0.00524381899681,-0.920871228342,0.573949231157,0.818857585576,0.00593982319402,0.0,0.818853361039,-0.573858529902,-0.0120957709171,0.0,-0.00649622063524,0.0118064299149,-0.999909199543,0.0,0.300402186023,-0.213630628562,0.304898649156,1.0,-0.200926285714,-0.264074546939,2.215
-0.491321453968,-0.530140575912,-0.138716504746,-2.64821473723,-0.0746450390003,2.1089641022,-0.746107234038,-0.917544230787,-0.0144984638692,0.0445923647724,-0.0120531532207,0.00666780523306,-0.0167393635443,-0.880059849816,0.573996993835,0.818824469198,0.00588953416031,0.0,0.818819899706,-0.573907057656,-0.012058520653,0.0,-0.00649389157964,0.0117442484886,-0.999909946945,0.0,0.297018629429,-0.21809017934,0.304913455936,1.0,-0.188336571429,-0.247528065306,2.232
-0.505141667874,-0.530263750331,-0.137920921644,-2.6483073324,-0.0744190614082,2.10885830334,-0.759597038883,-0.84297411596,-0.00502280302766,0.0493329261665,-0.00366803670627,0.0069647912035,-0.00319689299684,-0.838126682697,0.57379730212,0.818964659376,0.005855738655,0.0,0.818959943674,-0.573708076971,-0.0120166541744,0.0,-0.00648185532553,0.0116909642321,-0.999910649462,0.0,0.29410061669,-0.221924973772,0.304928370761,1.0,-0.176487428572,-0.231954906123,2.248
-0.519196118825,-0.530236696656,-0.137159798688,-2.64831032672,-0.074159158387,2.10880728471,-0.773014149299,-0.794250486318,0.00729881099767,0.0544026280024,-6.67029813931e-05,0.0103365414464,-0.00325524180459,-0.773507107374,0.573893181733,0.818897503372,0.00585165220524,0.0,0.818892948502,-0.57380434022,-0.0119860310033,0.0,-0.00645775176282,0.0116708028959,-0.999911040944,0.0,0.291105176073,-0.225818365333,0.304932914499,1.0,-0.163897714286,-0.21540842449,2.265
-0.53206975014,-0.529972675666,-0.136262182088,-2.64817177693,-0.0737516032693,2.10880970021,-0.785482040079,-0.744502953799,0.0200165442687,0.0521637615234,0.00773739035673,0.0174807422528,-0.00265711861782,-0.72373934857,0.573774443386,0.818980576931,0.0058693806019,0.0,0.818976125561,-0.573685323968,-0.0120000719162,0.0,-0.00646077269893,0.0116924422848,-0.999910768624,0.0,0.288406097307,-0.229318300964,0.3049234645,1.0,-0.151308,-0.198861942857,2.282
-0.543563373593,-0.529607707484,-0.135570234087,-2.64797869761,-0.0733951448128,2.10882010053,-0.796388243631,-0.698140540566,0.0253886264976,0.0522241538136,0.0101762492322,0.0193238314074,0.00100202539222,-0.668928462623,0.573930968462,0.818870525993,0.00592047304236,0.0,0.818866234156,-0.573840688791,-0.0120706813566,0.0,-0.00648704175861,0.0117760400309,-0.999909617501,0.0,0.285954817873,-0.232457678396,0.30489711564,1.0,-0.139458857143,-0.183288783674,2.298
-0.555219869097,-0.529056376185,-0.134615062372,-2.64765954107,-0.0729030783387,2.10890123612,-0.80768627146,-0.628871187634,0.0289098819814,0.049810551511,0.0198991995751,0.0280038828946,0.00399376602012,-0.602488388523,0.573779231689,0.818976696988,0.00594221966707,0.0,0.81897232699,-0.573688234465,-0.0121195776341,0.0,-0.00651679561858,0.0118207029967,-0.999908897028,0.0,0.283532425883,-0.235576939547,0.304872786014,1.0,-0.126128571429,-0.165768979592,2.316
-0.565523341326,-0.528476629532,-0.133859873148,-2.64729775892,-0.0724751463272,2.10899773036,-0.817369514938,-0.588173644232,0.0367584419044,0.0448959582844,0.0259742645177,0.029776007679,0.0102060283041,-0.544535681535,0.573957665982,0.818851320465,0.0059882831165,0.0,0.818847277847,-0.573865934051,-0.0121561589209,0.0,-0.00651774058683,0.0118808386734,-0.999908178149,0.0,0.281366375593,-0.238355233527,0.304853340158,1.0,-0.113538857143,-0.149222497959,2.333
-0.574186583842,-0.527867947779,-0.133074531675,-2.64686269853,-0.0720316778454,2.10912554443,-0.825643124886,-0.515468209926,0.0417279932431,0.0527592300592,0.0268165368771,0.0322374637354,0.00854122639397,-0.506285548476,0.573936135316,0.818866259149,0.00600908534956,0.0,0.818862661844,-0.573844634916,-0.0121253007337,0.0,-0.0064808430406,0.0118799925939,-0.999908428032,0.0,0.279598149157,-0.240667992031,0.304859843633,1.0,-0.101689714286,-0.133649338776,2.349
-0.581977248092,-0.527247240318,-0.132277541021,-2.64642235139,-0.0716010117152,2.10922989782,-0.833016234161,-0.477182270092,0.0351807473964,0.0469463742484,0.0266554576916,0.0234131615111,0.00482232529367,-0.441661729632,0.573923798618,0.818874949006,0.006003180067,0.0,0.818871243156,-0.573832268768,-0.012131007962,0.0,-0.00648908502363,0.0118783343897,-0.999908394278,0.0,0.278021343874,-0.24272184274,0.304862381461,1.0,-0.0898405714287,-0.118076179592,2.365
-0.589469590567,-0.526618629347,-0.13143466427,-2.64595085373,-0.0711074119114,2.10935204628,-0.839923904346,-0.420644123716,0.033745775966,0.0531570921826,0.0286545777856,0.029067171819,0.0141794948532,-0.379972770775,0.574043912212,0.818790633737,0.00601929052617,0.0,0.818787357011,-0.573952689525,-0.012096325358,0.0,-0.00644969409586,0.0118725694967,-0.999908717604,0.0,0.276527533463,-0.244675517072,0.304878636247,1.0,-0.077250857143,-0.101529697959,2.382
-0.595915987023,-0.525964177766,-0.130587507928,-2.64548107424,-0.0706202455779,2.10948687497,-0.845952418208,-0.352102426603,0.0401155763001,0.0541257344828,0.0246662981643,0.0264424818713,0.00782177484236,-0.33879201845,0.574021356536,0.818806465102,0.00601679719958,0.0,0.818803244599,-0.573930312646,-0.0120826222633,0.0,-0.0064402309211,0.0118624846808,-0.999908898292,0.0,0.27527939209,-0.246332714245,0.30488555528,1.0,-0.0646611428573,-0.0849832163267,2.399
-0.601255835386,-0.52539561158,-0.129634284274,-2.64513515445,-0.070091082554,2.10959429934,-0.850960972242,-0.304251961331,0.0325133912557,0.0533656047475,0.0164978827503,0.0273777283856,0.00613919367045,-0.276996377532,0.573864002651,0.818916873153,0.00600068565786,0.0,0.818913090005,-0.573772414298,-0.0121373189508,0.0,-0.00649655246504,0.0118794391848,-0.999908332664,0.0,0.274288976436,-0.247618938843,0.304867650862,1.0,-0.0520714285715,-0.068436734694,2.416
-0.605830222301,-0.524956199006,-0.12875010938,-2.64482660607,-0.069582619406,2.10964698468,-0.855052084475,-0.249949456974,0.0215989376377,0.0512403300609,0.0237814210848,0.0327905813029,0.00153411411969,-0.215413860312,0.573868369239,0.81891381564,0.00600035350082,0.0,0.818909867933,-0.573776488731,-0.0121620756347,0.0,-0.00651695547285,0.0118934081889,-0.999908033838,0.0,0.273452144081,-0.248695090674,0.304873421251,1.0,-0.0394817142858,-0.0518902530614,2.433
-0.609251127951,-0.524576383308,-0.127910226795,-2.64457448511,-0.0690862409064,2.10976729831,-0.857992475976,-0.19772327507,0.02462180174,0.0547068096875,0.0144733554151,0.0340677127219,0.000864397527406,-0.157028574183,0.573893369447,0.818896297293,0.00600014057784,0.0,0.818892598624,-0.573801944896,-0.0121238134752,0.0,-0.00648537849436,0.0118714754384,-0.999908499782,0.0,0.272887877512,-0.249460992989,0.304879857425,1.0,-0.0276325714287,-0.0363170938777,2.449
-0.611900245497,-0.524277513318,-0.12709117163,-2.64440440701,-0.0685828451047,2.10982769005,-0.860212502359,-0.138317851777,0.0157042109794,0.0506241672192,0.00860523257444,0.0206106124122,0.000140210362673,-0.109712367315,0.573889516379,0.818898841532,0.00602139756556,0.0,0.818895225909,-0.573797643904,-0.012149886187,0.0,-0.00649458902816,0.011903815213,-0.999908055521,0.0,0.272483396661,-0.249992174023,0.304872883168,1.0,-0.0198466666667,-0.0260841904762,2.466
-0.614003334336,-0.52410354509,-0.126546394798,-2.64426769324,-0.0682456908706,2.10982547626,-0.861997894569,-0.116150497762,0.0118258738947,0.0332825300599,0.0103982018541,0.0142413841541,-0.000598778578235,-0.0963942987017,0.573915336055,0.818880593935,0.00604208731468,0.0,0.818877166384,-0.573823216527,-0.012159335949,0.0,-0.00649007922047,0.0119263863366,-0.999907815841,0.0,0.272127889635,-0.250438251016,0.304884358455,1.0,-0.0195066666667,-0.0256373333333,2.483
-0.61576011742,-0.523934451235,-0.126122361488,-2.64406319264,-0.0680453349096,2.10988984975,-0.863649144172,-0.0979631535863,0.011752842602,0.021838793487,0.0117886857795,0.00727712665697,0.0018336904473,-0.0863878380129,0.573797616273,0.818963448817,0.00599265912936,0.0,0.818960194151,-0.573707237371,-0.0120396464138,0.0,-0.00642212208168,0.0118162971974,-0.999909561645,0.0,0.271848590795,-0.250856922311,0.304931065481,1.0,-0.0191666666667,-0.0251904761905,2.5
-0.617221095089,-0.523743052811,-0.125913256327,-2.64387262535,-0.0678879807371,2.10998613871,-0.865006199131,-0.0926825364841,0.00981410774254,0.0105058047536,0.0145576865547,0.0130351961488,0.000423512346621,-0.0905310640703,0.573811670633,0.818953477142,0.0060096442795,0.0,0.818951133305,-0.57372249555,-0.0119283803986,0.0,-0.00632104219035,0.011766475419,-0.999910793262,0.0,0.271595657472,-0.251247988254,0.304960787002,1.0,-0.0188466666667,-0.0247699047619,2.516
-0.618836686118,-0.523561753009,-0.12577147994,-2.64370543682,-0.0678063030078,2.10997799842,-0.866600429897,-0.0938895666286,0.0123557712419,0.00731743224376,0.0100124934786,0.00196837610088,-0.00098532986425,-0.0907737894479,0.573772386061,0.818981000473,0.00600972199934,0.0,0.818978595035,-0.573683102242,-0.0119375867664,0.0,-0.00632910264786,0.0117715179606,-0.999910682924,0.0,0.271260328375,-0.251683896353,0.30497299564,1.0,-0.0184866666667,-0.0242967619048,2.534
-0.620243863186,-0.523417597083,-0.12567736102,-2.64356710044,-0.067787681238,2.10998524639,-0.867971039944,-0.0859556860308,0.00462200032755,0.00278101808103,0.0058145597047,0.000176097433199,0.00032779739099,-0.0912866928814,0.573750857357,0.818996305702,0.00597928343851,0.0,0.818993598664,-0.573661875186,-0.0119283362868,0.0,-0.00633929845363,0.011741114085,-0.999910975805,0.0,0.270957898925,-0.25207557838,0.304985844421,1.0,-0.0181666666667,-0.0238761904762,2.55
-0.621629531661,-0.523206925846,-0.12559101385,-2.64338896928,-0.0677408315671,2.11003813862,-0.869338548769,-0.0793779829821,0.00773959447876,0.00437250493593,0.00866565675991,0.00321618688335,0.00839162984774,-0.0810616429178,0.573733924764,0.819008244076,0.00596880328278,0.0,0.819005599129,-0.573645355166,-0.0118988231721,0.0,-0.00632137969979,0.0117154673863,-0.999911390065,0.0,0.270676442761,-0.252474930956,0.304996089343,1.0,-0.0178266666667,-0.0234293333333,2.567
-0.622881865862,-0.52300219185,-0.125579265672,-2.64325073695,-0.0677120379474,2.11011498428,-0.870642302659,-0.0783935623318,0.0146821192056,-0.000119716954815,0.00889787592459,0.00631500369558,0.00177926344063,-0.072164798402,0.5737156719,0.819020912262,0.0059849808693,0.0,0.819018607372,-0.573627283586,-0.0118746454592,0.0,-0.00629255578956,0.0117147064393,-0.999911580788,0.0,0.270389574561,-0.252874444583,0.304992484686,1.0,-0.0174866666667,-0.0229824761905,2.584
-0.624306006662,-0.522796105498,-0.125584106433,-2.64311396112,-0.0676866108381,2.11011046179,-0.871979903331,-0.0826361915091,0.0109636341868,-0.000781396339908,0.00580445517896,0.000342679964419,-0.000637989526566,-0.07631284701,0.573795729957,0.818964654356,0.00600850224252,0.0,0.818962186919,-0.57370636049,-0.0119455109215,0.0,-0.00633595725618,0.0117752460055,-0.999910595617,0.0,0.270073059274,-0.253263354492,0.304976640823,1.0,-0.0171466666667,-0.0225356190476,2.601
-0.625550224064,-0.522620316305,-0.125577436729,-2.64300272085,-0.0676625428565,2.11011198966,-0.873247144898,-0.0770137811204,0.00905555772534,0.000508798817373,0.00737804876222,0.00282128816187,-0.000119898830892,-0.0700408710846,0.573788466636,0.818969589175,0.00602946618525,0.0,0.818967020469,-0.573698317892,-0.0120002638843,0.0,-0.00636887919569,0.0118237746144,-0.999909813799,0.0,0.269783672821,-0.253620442314,0.304962956513,1.0,-0.0168266666667,-0.0221150476191,2.617
-0.626819142624,-0.522433219916,-0.125574666591,-2.6428647748,-0.0676318011003,2.11013509732,-0.874503633205,-0.0712828005261,0.0114525947322,0.00126357246559,0.00731872276106,0.00104667275031,0.00523660383454,-0.0695548544351,0.573817132861,0.818949330628,0.00605299923883,0.0,0.818946931375,-0.573726625367,-0.0120178965596,0.0,-0.0063694041472,0.0118533883136,-0.999909459839,0.0,0.269496803561,-0.253993504718,0.304959002117,1.0,-0.0164866666667,-0.0216681904762,2.634
-0.628043211942,-0.52224599967,-0.125551256145,-2.64272681555,-0.0676027281266,2.11017664102,-0.875771709805,-0.069839667613,0.00974779226207,0.00551400970576,0.00453175232952,0.000683377151347,0.00358370419536,-0.0786461388413,0.573784243533,0.8189722978,0.00606334978717,0.0,0.818970020368,-0.573693675302,-0.0120174688674,0.0,-0.00636359118685,0.01186136435,-0.999909402268,0.0,0.269228040196,-0.254352287643,0.304957060773,1.0,-0.0161466666667,-0.0212213333333,2.651
-0.62925620922,-0.522054679645,-0.125471239938,-2.64259402967,-0.067573306846,2.11021502712,-0.877009330373,-0.0683252891331,0.0169103895238,0.00245286248649,0.00876825002237,0.00463779338325,0.00422203100106,-0.0744862191947,0.573727068863,0.819012477279,0.00604643832728,0.0,0.81900991265,-0.573636459157,-0.0120300710192,0.0,-0.00638444371502,0.0118542985423,-0.999909353134,0.0,0.268971873472,-0.254693417908,0.304952326309,1.0,-0.0158066666667,-0.0207744761905,2.668
-0.630436165104,-0.52188406709,-0.125397620791,-2.64246972879,-0.0675455901507,2.11023896624,-0.878160275975,-0.0690418491259,0.00788054767481,9.51626347167e-05,0.00985676547775,0.00151701214855,0.0052048872656,-0.0681967218692,0.57371712238,0.819019548999,0.00603230858859,0.0,0.819016717723,-0.573626421315,-0.0120454041161,0.0,-0.00640525317971,0.011851444345,-0.999909253882,0.0,0.268718356089,-0.255023228934,0.304949945237,1.0,-0.0154666666667,-0.0203276190476,2.685
-0.631509948443,-0.521735371794,-0.125380435864,-2.64236347623,-0.0675208905084,2.11027595383,-0.879303308083,-0.0632975915336,0.00692015403765,0.00123681719339,0.00804593336709,0.00455884237153,0.00466570260746,-0.0765039957327,0.573664418123,0.819056376595,0.00604435603165,0.0,0.819053694841,-0.573573663304,-0.0120434477294,0.0,-0.00639750239932,0.011859777912,-0.999909204694,0.0,0.268477632541,-0.255334696198,0.304947178837,1.0,-0.0151466666667,-0.0199070476191,2.701
-0.63278275776,-0.521531577775,-0.125369840079,-2.64221629111,-0.0674902152173,2.11030971091,-0.880604097708,-0.0720211552812,0.00935899475284,-0.00114714725646,0.00976782676628,0.00049399398822,0.000995549759944,-0.0595835150168,0.573654903383,0.819062903969,0.00606284317486,0.0,0.819060348936,-0.57356386016,-0.0120577784241,0.0,-0.00639877447278,0.0118830669491,-0.999908920055,0.0,0.26819258561,-0.255709142449,0.30494233091,1.0,-0.0147666666667,-0.0194076190476,2.72
-0.633786473188,-0.521371452685,-0.125371856958,-2.64209806539,-0.0674719516651,2.11033354026,-0.881552497208,-0.0647070087463,0.00819988990278,0.000501050758511,0.0052720579785,0.00120120454942,0.00150504633465,-0.0650479078549,0.573715697561,0.819020219404,0.00607663402614,0.0,0.819017757309,-0.573624421235,-0.0120699410272,0.0,-0.00639994329074,0.0119018149548,-0.999908689595,0.0,0.267964770668,-0.25600727808,0.30493920622,1.0,-0.0144666666667,-0.0190133333333,2.735
-0.635014960313,-0.521173660806,-0.125351382048,-2.64196914668,-0.0674452720543,2.11036211542,-0.882811203715,-0.0631481134604,0.0128241513332,0.00074504702617,0.00654052607842,0.00114842843322,0.00405543113223,-0.0689359333061,0.573694766295,0.819034788086,0.0060891651876,0.0,0.819032266551,-0.573603025937,-0.0121021438732,0.0,-0.00641943685962,0.011930389063,-0.999908224112,0.0,0.267686969744,-0.256362288954,0.30492803125,1.0,-0.0140866666667,-0.0185139047619,2.754
-0.635999656682,-0.521022006298,-0.125323668897,-2.64186324256,-0.0674238146962,2.11038868436,-0.883790651012,-0.0633696569313,0.00953855579137,0.00238596005387,0.00654103910506,0.00087181907684,-6.38732312653e-05,-0.0563976981639,0.573694230618,0.819035138625,0.00609248352978,0.0,0.819032572817,-0.573602313206,-0.0121151909058,0.0,-0.00642822818045,0.011940587479,-0.999908045899,0.0,0.267467731695,-0.256645403375,0.304923344895,1.0,-0.0137666666667,-0.0180933333333,2.77
-0.636962943538,-0.52086542628,-0.125268410528,-2.64172867796,-0.0674048309939,2.11041154896,-0.884736091695,-0.058215386502,0.00987564934525,0.0021805866687,0.00940520785537,0.000729064493819,-9.25327335435e-05,-0.0600346660502,0.573684793048,0.819041869474,0.00607627976172,0.0,0.819039147301,-0.57359305047,-0.012109275073,0.0,-0.00643281530136,0.01192384753,-0.999908216162,0.0,0.267265357392,-0.256923460642,0.30493019829,1.0,-0.0134466666667,-0.0176727619048,2.786
-0.637898203896,-0.520709179166,-0.125222149105,-2.64160086578,-0.0673836672925,2.1104471762,-0.885737000681,-0.0587946987533,0.00467267182691,0.002057853624,0.00476995755232,-0.00028742645399,0.00449598479349,-0.0656904432597,0.573613941057,0.819091563057,0.00606670055651,0.0,0.819088801551,-0.573522413643,-0.0120964095462,0.0,-0.0064288020309,0.0119080649078,-0.999908430055,0.0,0.267068649611,-0.257195693831,0.304934975022,1.0,-0.0131266666667,-0.0172521904762,2.802
-0.638891984427,-0.520537985993,-0.125182232282,-2.64146521696,-0.0673616921371,2.11048682836,-0.886741679957,-0.060286492768,0.011225117452,0.00368761814944,0.0093961614264,0.00116031491156,0.000593644060047,-0.0507297006885,0.573593201629,0.819106136603,0.00605994433978,0.0,0.819103355525,-0.573501834682,-0.0120865828488,0.0,-0.00642492868486,0.0118967315449,-0.999908589857,0.0,0.26685743918,-0.257487008499,0.304938001947,1.0,-0.0127866666667,-0.0168053333333,2.819
-0.639854891602,-0.520383198604,-0.125166816268,-2.64134788568,-0.0673406771865,2.11051341458,-0.88769700381,-0.05340585685,0.0106408314077,0.000395908332424,0.00211666304747,0.000316898480411,1.31389996382e-05,-0.0537818350723,0.573603631086,0.819098778502,0.00606731918875,0.0,0.819096054676,-0.573512158025,-0.0120915140842,0.0,-0.00642458678847,0.0119056828153,-0.999908485513,0.0,0.266642548874,-0.257769220649,0.304937035242,1.0,-0.0124466666667,-0.0163584761905,2.836
-0.64080364294,-0.520236154379,-0.125169150848,-2.64125392583,-0.0673292505377,2.11053242952,-0.888639587015,-0.0578149463258,0.00990642030126,6.23278258116e-05,0.0034820720155,0.00211959087603,0.00157395531953,-0.0651512731778,0.573620276584,0.819087034829,0.00607902694742,0.0,0.81908426938,-0.573528389025,-0.0121199644012,0.0,-0.00644093517957,0.0119317224004,-0.999908069952,0.0,0.266419889481,-0.258045503543,0.304927217893,1.0,-0.0121066666667,-0.0159116190476,2.853
-0.641680137079,-0.520106552751,-0.125166039275,-2.64115505368,-0.0673152329712,2.11055569107,-0.889539045064,-0.053445796184,0.00914450750705,-0.000732556907139,0.00875171784725,-7.41341389038e-05,0.00202247313229,-0.0529325008126,0.573610443375,0.819093853736,0.00608809689883,0.0,0.819091182236,-0.573518472954,-0.0121220156997,0.0,-0.00643755646082,0.0119402511734,-0.999907989901,0.0,0.266219223603,-0.258303033346,0.304926535848,1.0,-0.0117866666667,-0.0154910476191,2.869
-0.642587047361,-0.519965133973,-0.125159265603,-2.64105267142,-0.0673114857829,2.11059854631,-0.890420588554,-0.0527716233288,0.0120959970994,0.00182488877703,0.00900211620604,0.000265003617068,0.00545541266665,-0.053352463228,0.573633426673,0.819077786501,0.00608427194992,0.0,0.819075123661,-0.573541576763,-0.0121139764608,0.0,-0.00643282994953,0.0119326873688,-0.999908110614,0.0,0.26601399505,-0.258572166205,0.304924847673,1.0,-0.0114466666667,-0.0150441904762,2.886
-0.64347370046,-0.519805511949,-0.125143743016,-2.64093017148,-0.067300980128,2.11062856634,-0.891258529775,-0.0498993924927,0.0060719293824,-0.00045633970202,0.00887919885123,-0.00039424181741,0.007040484927,-0.0457862385279,0.57367323665,0.819049933197,0.00608040976415,0.0,0.819047210274,-0.573581377229,-0.0121168452834,0.0,-0.00643681544192,0.0119314822244,-0.999908099347,0.0,0.26581843487,-0.258836181213,0.304924712334,1.0,-0.0111066666667,-0.0145973333333,2.903
-0.644402447793,-0.519651755736,-0.125122908374,-2.64081557978,-0.0672910562183,2.11066691706,-0.892168756885,-0.0452484132988,0.0120015377994,-0.000103250354518,0.00674826459282,-0.000556939870954,0.00384162453089,-0.051596110557,0.573683898431,0.819042510475,0.00607434088741,0.0,0.819039740484,-0.573592122753,-0.0121130972682,0.0,-0.0064370714458,0.0119244450294,-0.999908181646,0.0,0.265612440029,-0.259109368398,0.304923970565,1.0,-0.0107466666667,-0.0141241904762,2.921
-0.645197020765,-0.519529160315,-0.125107090127,-2.64073331416,-0.067285949573,2.11069299916,-0.892953700757,-0.0501925691299,0.00885123169978,-0.000763215988823,0.00559384719274,4.02768436944e-05,0.00140480142887,-0.0459800584839,0.573687136295,0.819040274629,0.00607001532941,0.0,0.819037386633,-0.573595264859,-0.0121234619774,0.0,-0.00644799572078,0.0119268733053,-0.999908082298,0.0,0.265430741432,-0.259338929395,0.304918833951,1.0,-0.0104266666667,-0.0137036190476,2.937
-0.645966906976,-0.519416820882,-0.125086457274,-2.64065402389,-0.0672729530066,2.11070662446,-0.893676936512,-0.0440502067699,0.00914156992641,0.000946536185222,0.000667400607215,0.00160212332567,-0.000242686978304,-0.0422135605714,0.573720465176,0.81901692397,0.00607066626824,0.0,0.819013949361,-0.573628408013,-0.0121386644316,0.0,-0.00645958934398,0.0119363903724,-0.999907893903,0.0,0.265254567818,-0.259557631667,0.304915171804,1.0,-0.0101066666667,-0.0132830476191,2.953
-0.646758224541,-0.519332288589,-0.125090074678,-2.64058279892,-0.0672659678209,2.11072828411,-0.894435831704,-0.043196281235,0.00422720832778,-0.000421287005432,0.00411006092573,-0.000223313138916,0.00030572325189,-0.0386014222314,0.573756258749,0.818991794973,0.00607801075638,0.0,0.818988994025,-0.573664305718,-0.0121259602631,0.0,-0.00644444821655,0.0119353993028,-0.999908003434,0.0,0.265066887243,-0.259787348775,0.30491818563,1.0,-0.00976666666667,-0.0128361904762,2.97
-0.647534844682,-0.519238550292,-0.125080501062,-2.64050106718,-0.067252951754,2.11074616357,-0.895186343945,-0.0479334060466,0.00725912564617,-0.00105006538749,0.00413014473306,0.00192290092005,0.00256366972758,-0.0429147470522,0.573780630169,0.81897468341,0.00608303186316,0.0,0.818972012,-0.573688768686,-0.0121155745207,0.0,-0.00643270559745,0.0119337445889,-0.999908098796,0.0,0.264887849771,-0.260011543787,0.304922575041,1.0,-0.00942666666667,-0.0123893333333,2.987
-0.64826753123,-0.51912306955,-0.125067027501,-2.64040244567,-0.0672410715535,2.11077107812,-0.895898570611,-0.0432007293242,0.0107273770148,0.00041961036477,0.00815417284289,-0.000218772928772,0.00120641899048,-0.0438739705072,0.573798005609,0.818962515452,0.00608226478102,0.0,0.818959913468,-0.573706291226,-0.0121036540265,0.0,-0.00642312904305,0.0119264132001,-0.999908247832,0.0,0.264725319576,-0.260228191994,0.304927322725,1.0,-0.00908666666667,-0.0119424761905,3.004
-0.649005465269,-0.519032010915,-0.125062990297,-2.64031856165,-0.067228610147,2.11080076494,-0.896636142518,-0.038345833263,0.00647507492258,0.000758131731846,0.00482837602963,0.0010720493765,0.000265891710252,-0.0361124647059,0.573805056891,0.818957534942,0.00608765541271,0.0,0.818955170426,-0.57371362855,-0.0120767607283,0.0,-0.00639790649948,0.0119154526622,-0.999908540208,0.0,0.264557160576,-0.260445439241,0.304934546884,1.0,-0.00872666666667,-0.0114693333333,3.022
-0.649662492142,-0.518898495186,-0.125044935092,-2.64021894409,-0.0672143484381,2.11082419558,-0.897269862273,-0.038147667715,0.00561919921519,0.00162583055854,0.00594452970275,0.000225036924617,0.00257368413526,-0.0358102468382,0.573822660216,0.818945210445,0.00608636278522,0.0,0.818942788029,-0.573731157322,-0.0120837061664,0.0,-0.00640408062312,0.0119185167943,-0.999908464165,0.0,0.264414805774,-0.260640379207,0.304933082017,1.0,-0.00838666666667,-0.0110224761905,3.039
-0.650275058187,-0.518776985234,-0.125006063621,-2.64012861216,-0.0672026177405,2.11084953038,-0.897882445069,-0.0362929528046,0.00840144294588,0.000647014422071,0.00575296332952,-0.000485237796845,0.000474311771682,-0.0364458996951,0.573804824739,0.818957805991,0.00607305635685,0.0,0.818955203826,-0.573713371464,-0.0120867047257,0.0,-0.00641443104393,0.0119091998824,-0.999908508831,0.0,0.264286658449,-0.260817291642,0.304932466017,1.0,-0.00806666666667,-0.0106019047619,3.055
-0.650823747196,-0.518661314481,-0.124984623202,-2.64004974227,-0.0671938190073,2.11087105314,-0.898432436641,-0.036013720628,0.0122103355211,-0.000357117082161,0.00251858999657,0.000511693692477,0.00527478410044,-0.0354602521666,0.573797868492,0.818962689033,0.00607181908877,0.0,0.818959999235,-0.573706289363,-0.0120979378288,0.0,-0.00642444258735,0.0119145772881,-0.999908380496,0.0,0.264158788197,-0.260987672787,0.304926992004,1.0,-0.00774666666667,-0.0101813333333,3.071
-0.651457670986,-0.518549928827,-0.124959928063,-2.63998646777,-0.0671794524918,2.11089933339,-0.899085706468,-0.0359924671303,0.0022258302686,0.0035121740441,0.00426627497225,-6.65849797895e-05,-0.000136564808777,-0.0319986000683,0.573772698884,0.818980360626,0.00606678046359,0.0,0.818977496778,-0.573680946289,-0.0121152192382,0.0,-0.00644185428918,0.0119201682176,-0.999908201838,0.0,0.264025581216,-0.26115688912,0.304918779013,1.0,-0.00740666666667,-0.00973447619048,3.088
-0.65200144014,-0.518457967667,-0.124939857663,-2.6399488999,-0.0671616461969,2.11091277585,-0.899608400064,-0.0354368403321,0.00167776464946,0.000331652194529,-8.61530250592e-05,0.00219528444738,-0.00032909427568,-0.0354048103365,0.573785486894,0.818971341289,0.00607487266502,0.0,0.818968336623,-0.573693240433,-0.0121522175913,0.0,-0.00646732907213,0.0119481244876,-0.999907703729,0.0,0.26389819834,-0.261304216868,0.30490360757,1.0,-0.00708666666667,-0.00931390476191,3.104
-0.652556445091,-0.518374904704,-0.124933988786,-2.63991279308,-0.0671529781411,2.11092378702,-0.900137491674,-0.0313945106338,0.00773957865223,0.000149222319338,0.000479450541156,-0.00033477829847,0.000187418178166,-0.0306633547936,0.573808305098,0.818955297258,0.00608251552418,0.0,0.818952176033,-0.573715620299,-0.0121847157097,0.0,-0.00648922824686,0.0119732109152,-0.999907261768,0.0,0.26376335056,-0.261457900703,0.304890499909,1.0,-0.00674666666667,-0.00886704761905,3.121
-0.653075015587,-0.518320122563,-0.124919902633,-2.63985954801,-0.067136451271,2.11093904926,-0.900654886239,-0.0281070431848,0.00314403089471,0.00143751747121,0.00545014141846,0.000447834137352,0.000453379018615,-0.0266408291583,0.573809037743,0.818954740267,0.0060883906034,0.0,0.818951802235,-0.57371652319,-0.012167314288,0.0,-0.00647159402191,0.0119680437828,-0.999907437916,0.0,0.263645675587,-0.261604814616,0.304896154767,1.0,-0.00640666666667,-0.0084201904762,3.138
-0.653566929563,-0.518260135002,-0.124921308847,-2.63978985882,-0.0671214607197,2.11095254063,-0.901141183462,-0.0298741152657,0.00581837416345,-0.000395054517083,0.00147608223816,0.00529369186059,-0.000489994865313,-0.0255485539579,0.573824528846,0.818943813087,0.00609819656926,0.0,0.818941166299,-0.573732269895,-0.0121406557924,0.0,-0.0064439068532,0.0119609005851,-0.999907702201,0.0,0.263534735788,-0.261752075411,0.304906844645,1.0,-0.00606666666667,-0.00797333333334,3.155
-0.65404060021,-0.518209348075,-0.124909217301,-2.63969852337,-0.0671069456614,2.11096370446,-0.901613194472,-0.0290834200063,0.0027405267612,-0.00189863018346,0.00646986469102,0.00520591414368,0.000193058460192,-0.0299703886404,0.573827953667,0.818941419732,0.00609733862548,0.0,0.818939112977,-0.573736351043,-0.0120861751438,0.0,-0.00639972783194,0.0119289639054,-0.999908367454,0.0,0.263436196168,-0.261896994509,0.304930876608,1.0,-0.00572666666667,-0.00752647619048,3.172
-0.654486932392,-0.518162790064,-0.124894802132,-2.63960231936,-0.067088041955,2.11098965634,-0.902048992195,-0.02708488651,-0.000441858952365,0.00303955216492,0.00769486537483,0.000192140069704,0.000550683581169,-0.0308822846514,0.573839061247,0.818933647172,0.00609591813612,0.0,0.818931823682,-0.573748400493,-0.0120078305566,0.0,-0.00633621518403,0.0118829323537,-0.999909320036,0.0,0.263349184807,-0.26203714028,0.30495999806,1.0,-0.00538666666667,-0.00707961904763,3.189
-0.654892311707,-0.518114156023,-0.124885090302,-2.6395335223,-0.0670719444656,2.11100448232,-0.902448479661,-0.0261232353496,0.000916923614264,-0.0013467155238,0.00232727550734,0.00180588963205,0.000139767684346,-0.0233654250008,0.573847259587,0.818927875787,0.00609949380917,0.0,0.818926334511,-0.573757024981,-0.0119700388898,0.0,-0.0063030924533,0.0118642385449,-0.999909751362,0.0,0.263263492019,-0.262159119635,0.304974840586,1.0,-0.00506666666667,-0.00665904761905,3.205
-0.655271767659,-0.518044939949,-0.124849719796,-2.63947911246,-0.0670472655187,2.11101984144,-0.902808876603,-0.0231086905638,0.000482517541984,0.00419494297186,-0.000687764671042,0.000299310474819,0.00292572029189,-0.0195663104887,0.57385112777,0.818925160229,0.006100164135,0.0,0.81892365006,-0.573760931722,-0.0119664323336,0.0,-0.00629969794708,0.0118627477641,-0.999909790442,0.0,0.263187285734,-0.262263816057,0.304976216629,1.0,-0.00472666666667,-0.0062121904762,3.222
-0.655655981554,-0.517976181003,-0.124792606215,-2.63944533852,-0.0670200972285,2.11103180516,-0.903176439068,-0.0178273884449,0.00547330079476,0.00178703011129,0.000340987090095,9.39554604947e-05,-4.84481021946e-05,-0.0281040264553,0.573832982135,0.818937916519,0.00609462081367,0.0,0.818936210867,-0.57374258094,-0.011986669616,0.0,-0.00631971643994,0.0118696805755,-0.999909581846,0.0,0.263106702576,-0.262364908697,0.304967806308,1.0,-0.00434666666667,-0.00571276190477,3.241
-0.656009714004,-0.517908563144,-0.124742117694,-2.63942540308,-0.066997320311,2.11105235003,-0.903526372074,-0.0232476041728,0.00381074074054,0.00123638108045,0.00286143862215,0.000790491872964,0.000121223211347,-0.0249712921469,0.573815930894,0.818949884843,0.00609183635233,0.0,0.818947993192,-0.573725264015,-0.0120105278497,0.0,-0.00634110206572,0.0118809581195,-0.999909312517,0.0,0.263036149297,-0.262445630605,0.304955702218,1.0,-0.00400666666667,-0.00526590476191,3.258
-0.656264860683,-0.517857399998,-0.124708680654,-2.63941865627,-0.0669768333309,2.11106141033,-0.903782257326,-0.0140857525674,0.00584469035485,0.00322120127257,0.00165367464487,0.00084352452011,0.000457151364321,-0.0179480470436,0.573800887069,0.818960395214,0.00609589788722,0.0,0.818958342837,-0.573709806301,-0.0120431620996,0.0,-0.00636571895645,0.0119028926953,-0.999908895234,0.0,0.262980196549,-0.262505542316,0.304941485334,1.0,-0.00370666666667,-0.00487161904763,3.273
-0.656552469901,-0.517800684574,-0.124672424775,-2.63940500018,-0.0669523876646,2.11106408511,-0.904077651597,-0.0210027088094,0.0023076170053,-0.00036910810523,0.00107936219044,2.35665528485e-05,-8.15235558943e-05,-0.0165692585753,0.57378011018,0.818974903937,0.00610235891924,0.0,0.818972689302,-0.573688545664,-0.0120803001705,0.0,-0.0063927323381,0.0119293309346,-0.999908407824,0.0,0.262917130578,-0.262573749699,0.304927884566,1.0,-0.00334666666667,-0.00439847619048,3.291
-0.656799047075,-0.517758341434,-0.124652506372,-2.63938943755,-0.0669340058803,2.11106979811,-0.904340449729,-0.0104376567825,-5.26586815668e-05,-0.000448123151707,0.000384998855085,0.000349971353858,0.000240550128356,-0.015538376302,0.573761448349,0.81898792058,0.00611009276491,0.0,0.818985679022,-0.573669615799,-0.0120986101326,0.0,-0.00640356427391,0.0119460245426,-0.999908139212,0.0,0.262861919625,-0.262636486148,0.304920317179,1.0,-0.00300666666667,-0.00395161904763,3.308
-0.65702060095,-0.517715738539,-0.124636295652,-2.6393727637,-0.066911381018,2.11106892271,-0.904558194957,-0.0102171660048,0.00459924533238,-0.000383705792688,-0.000754148641377,0.00114261062619,9.64378070903e-05,-0.00967201004691,0.57376368994,0.818986251273,0.00612333522293,0.0,0.818984015875,-0.573671488062,-0.012122393643,0.0,-0.00641541441348,0.0119705334488,-0.99990777014,0.0,0.262812046299,-0.262692363977,0.304912511864,1.0,-0.00268666666667,-0.00353104761905,3.324
-0.657253014768,-0.51769064053,-0.124611503269,-2.63934071309,-0.0668900505515,2.11107419092,-0.904798778986,-0.0128356887715,0.00231062781801,0.00121532593143,1.72017238102e-05,0.00477836276077,0.00217615452755,-0.0125731429062,0.573750094379,0.818995743747,0.00612762797714,0.0,0.818993652949,-0.573658041985,-0.0121076090182,0.0,-0.00640104042537,0.01196546061,-0.999907922978,0.0,0.262765940065,-0.262754488875,0.304918868055,1.0,-0.00230666666667,-0.00303161904763,3.343
-0.657419554595,-0.517665553447,-0.124586919226,-2.63931598303,-0.0668701286133,2.11108046645,-0.904974703381,-0.0117901632588,0.00224284889317,0.000690724647379,-0.000417575624325,-0.000416276611873,0.00370392939818,-0.00701115557062,0.573745033319,0.818999250788,0.00613276869094,0.0,0.818997245999,-0.573652994916,-0.0121036924168,0.0,-0.0063949570172,0.0119673844864,-0.999907938879,0.0,0.262731601138,-0.262801032853,0.304920759078,1.0,-0.00198666666667,-0.00261104761905,3.359
-0.657601402879,-0.517655146311,-0.124557370399,-2.63929864506,-0.0668501453858,2.11108287438,-0.905148125235,-0.0110719130001,0.000289623091852,0.00136987180404,0.00150948392127,0.000380393140376,0.000476296213259,-0.0199372623939,0.573730011797,0.819009772402,0.00613295806241,0.0,0.819007867791,-0.573638158721,-0.0120881039345,0.0,-0.00638229936078,0.0119584791567,-0.999908126295,0.0,0.262700056,-0.262841718819,0.304926935427,1.0,-0.00166666666667,-0.00219047619048,3.375
-0.657749215342,-0.51764418042,-0.124527290785,-2.63928751697,-0.0668313803904,2.11108541604,-0.905271039101,-0.0082091131427,0.00252314347183,0.00437054053404,0.000967216293717,0.000267419709979,-1.10078046432e-05,-0.00993464728867,0.57373762188,0.819004434104,0.00613392688191,0.0,0.819002570431,-0.573645816019,-0.0120836373581,0.0,-0.00637797388055,0.0119567694495,-0.999908174341,0.0,0.26267220372,-0.262875167112,0.304928884249,1.0,-0.00136666666667,-0.0017961904762,3.39
-0.65790556685,-0.517647864902,-0.124503286385,-2.6392728222,-0.0668158718257,2.1110862538,-0.905389000459,-0.00746668302717,-0.000761402991687,0.00189728975014,0.0010984866169,5.61842108422e-05,6.23532889607e-05,-0.006388832648,0.573759297972,0.818989247953,0.00613405486751,0.0,0.818987520166,-0.573667738793,-0.0120629259513,0.0,-0.00636061972912,0.0119451602912,-0.999908423638,0.0,0.262641342557,-0.26291343376,0.304937563083,1.0,-0.00102666666667,-0.00134933333334,3.407
-0.65803482295,-0.517639636925,-0.124486655785,-2.63926833137,-0.0667960947745,2.11109031009,-0.905456069581,-0.00510168065615,0.000454280551519,-1.60637088961e-06,0.000576772222241,0.000990145816889,-0.000223605555469,-0.000877051769926,0.573807104287,0.818955690423,0.00614256417164,0.0,0.818954083836,-0.573715517565,-0.0120606954929,0.0,-0.00635321314047,0.0119512208681,-0.999908398306,0.0,0.262614279368,-0.262943369767,0.304937319526,1.0,-0.000646666666672,-0.000849904761912,3.426
-0.658084117561,-0.517633534353,-0.124483142748,-2.63926850697,-0.0667900461176,2.11109183743,-0.905498286769,-0.0040255040294,-2.92403229005e-05,-0.00054026060565,0.000263653961099,7.74258989635e-05,0.00569262088445,-0.00462232314729,0.573813008088,0.818951523729,0.00614657888041,0.0,0.818949940555,-0.573721348354,-0.0120646678015,0.0,-0.00635407689195,0.0119568339376,-0.999908325712,0.0,0.262602700768,-0.262955009408,0.304935206998,1.0,-0.000346666666672,-0.000455619047626,3.441
-0.658098393246,-0.517629520969,-0.124473300362,-2.63926748637,-0.0667724777224,2.11109390037,-0.905530070664,0.000868289401843,-0.00150341594965,0.000559104011208,0.000562675545516,0.00119346376204,-0.000334317851516,-0.000117549883214,0.573799244187,0.818961091245,0.00615672797265,0.0,0.818959632762,-0.57370752913,-0.0120639059789,0.0,-0.00634783062789,0.0119646021678,-0.999908272464,0.0,0.262603165834,-0.262955339529,0.304934609457,1.0,-6.66666667206e-06,-8.761904769e-06,3.458
-0.658098710697,-0.517626146749,-0.124447396733,-2.63927277609,-0.0667612096011,2.11109503922,-0.905545715422,-0.00117008031111,0.00013909019478,0.000406905941572,-0.00101464493855,-0.000147691123906,-2.9588076349e-05,-0.0022166056905,0.573772885458,0.818979575606,0.00615447435382,0.0,0.81897804376,-0.57368110292,-0.012070745324,0.0,-0.0063551106031,0.0119664761326,-0.999908203796,0.0,0.262608696995,-0.26294739999,0.304931674687,1.0,0.0,0.0,3.474
-0.658101007349,-0.517624004928,-0.124407000294,-2.63926999203,-0.0667554839725,2.11109823195,-0.905543643619,-0.0045568442544,-7.81157993627e-05,-7.3510023916e-05,-0.0003773493476,-9.63345924766e-05,0.000788773245844,0.00089475902551,0.573750367057,0.818995470482,0.0061386100033,0.0,0.818993767961,-0.57365872602,-0.0120673527778,0.0,-0.00636176255531,0.011951361523,-0.999908342267,0.0,0.262618586003,-0.262939786045,0.304933373758,1.0,0.0,0.0,3.493
-0.65809060266,-0.517617587667,-0.124378509098,-2.639261961,-0.0667447420476,2.11109583447,-0.90554981416,0.000715939582238,0.000274618160887,0.00221263922925,0.000616368486634,0.000196800497571,-0.000100474700602,-3.2544734372e-05,0.57372155218,0.819015697902,0.0061330298608,0.0,0.819013922764,-0.573629941621,-0.0120677792186,0.0,-0.00636573361791,0.0119468118825,-0.999908371363,0.0,0.26262987053,-0.262931407612,0.304935127459,1.0,0.0,0.0,3.508
-0.658092392721,-0.517614728522,-0.124373567223,-2.63926967664,-0.0667421176241,2.11109580815,-0.905555474529,-0.000588294590383,0.000541688326007,-0.000880736020705,-0.00167601413495,0.000206670045823,-0.000138581047808,-0.00095456191388,0.57371565416,0.819019820664,0.00613420187317,0.0,0.819017993203,-0.573623912948,-0.012078087806,0.0,-0.00637359113892,0.0119536398993,-0.999908239705,0.0,0.262628897566,-0.262928495273,0.304930683568,1.0,0.0,0.0,3.525
-0.658092708345,-0.517614407526,-0.124368062663,-2.63926438693,-0.0667395125037,2.11110214225,-0.905554231135,-0.00546796865095,0.000900698192282,0.000634393088537,-0.000331227474313,1.758540874e-06,0.000282645580003,-0.00325258283949,0.573714374462,0.819020732764,0.0061321072999,0.0,0.819018952155,-0.573622781716,-0.0120667812246,0.0,-0.00636555011007,0.0119454279238,-0.999908389065,0.0,0.262632454841,-0.262929376919,0.304933639552,1.0,0.0,0.0,3.541
-0.658097953669,-0.517611910371,-0.124367751926,-2.63925964677,-0.0667394715945,2.11110381412,-0.905563425406,0.000458084351223,0.0019863340149,0.00130291271478,-0.000729500883445,2.30071993325e-05,0.000568021350302,-0.000834552022098,0.573711165307,0.819022986888,0.00613128467363,0.0,0.81902122087,-0.5736196243,-0.0120628886661,0.0,-0.00636288040004,0.0119424961026,-0.999908441078,0.0,0.262632435549,-0.26293210046,0.304935022595,1.0,0.0,0.0,3.558
-0.658100515649,-0.517613611453,-0.124369819793,-2.63925831382,-0.0667400819461,2.11110244562,-0.905561802491,-0.000767745362374,0.0013305197336,0.000773120439568,0.000829656256586,1.42414385771e-05,-0.00016973901607,-0.000101061927198,0.573715854229,0.819019699629,0.0061316496445,0.0,0.819017948879,-0.573624330385,-0.0120612563692,0.0,-0.00636126562125,0.0119418950345,-0.999908458531,0.0,0.262631378426,-0.262933463609,0.304936089558,1.0,0.0,0.0,3.575
