nelsonifechukwu/NELSON_IML_WORK/CNN-GradCAM/train2dof/data_sample_2022-02-21-08-09-52/robot_state.csv
position_joint1,position_joint2,position_joint3,position_joint4,position_joint5,position_joint6,position_joint7,velocity_joint1,velocity_joint2,velocity_joint3,velocity_joint4,velocity_joint5,velocity_joint6,velocity_joint7,ee_T_00,ee_T_10,ee_T_20,ee_T_30,ee_T_01,ee_T_11,ee_T_21,ee_T_31,ee_T_02,ee_T_12,ee_T_22,ee_T_32,ee_T_03,ee_T_13,ee_T_23,ee_T_33,v_x,v_y,time
0.465072677326,0.547537941722,-0.123996213198,-1.35574867681,0.0794375553976,1.89410162263,0.159148306294,0.00111459069956,0.00269351561643,-9.21655608149e-05,4.32842661285e-05,2.41649690757e-05,-0.000221151259065,0.000106922559963,0.573781444765,0.818993769289,0.00219235273619,0.0,0.818954467076,-0.573722613118,-0.011691490718,0.0,-0.00831761585093,0.00850396122994,-0.999929247452,0.0,0.661708619223,0.260888571126,0.303427068117,1.0,0.0,0.0,0.0
0.465070285487,0.547538498414,-0.123999272168,-1.35575154645,0.0794371430205,1.89410349653,0.15914683312,-0.00073832889367,0.00341245211856,-0.0011882838386,-0.00345552347102,-0.000208508009945,0.000132783978777,-0.000226065923254,0.573784396379,0.818991707556,0.00219005216451,0.0,0.818952393791,-0.573725591697,-0.0116905532893,0.0,-0.00831813737668,0.00850156920665,-0.999929263454,0.0,0.661709670152,0.260884930445,0.303425571107,1.0,-0.00018,-0.000236571428571,0.01
0.465069468428,0.54752645429,-0.1239942171,-1.35574936915,0.0794407359601,1.89410162295,0.159145319009,-0.00168255728756,-0.000559816445575,-0.00103588430949,-0.000183480659633,4.58343525433e-05,-0.000232336590951,0.000383625405451,0.573781089189,0.818993986664,0.00220417745222,0.0,0.818954799243,-0.573722173793,-0.0116897817286,0.0,-0.00830943544425,0.00851266129063,-0.999929241437,0.0,0.661708964362,0.260888188575,0.303434816447,1.0,-0.00048,-0.000630857142857,0.025
0.465074407087,0.547520485433,-0.123991722676,-1.35576191579,0.0794385628861,1.89410187353,0.159146389507,-0.000669232935191,4.67644770233e-05,0.0015810420735,0.000226181587498,-6.66470741946e-05,-0.00022963473808,5.51890591626e-05,0.57377628002,0.81899737061,0.00219870907907,0.0,0.818958106621,-0.573717379924,-0.011693351721,0.0,-0.0083155468011,0.00851018232323,-0.999929211734,0.0,0.661704556258,0.260891152903,0.303433007609,1.0,-0.0008,-0.00105142857143,0.041
0.465063108523,0.547405021023,-0.123994533159,-1.35586344366,0.079434186174,1.89412295457,0.159139887174,-0.00202373575194,-0.0058476757529,-0.000575562650769,-0.00728843150258,0.00012224514361,0.00526851108238,-0.0123262661314,0.573786489485,0.818990131161,0.00223079525677,0.0,0.818951262213,-0.573727446717,-0.0116787801081,0.0,-0.00828509669947,0.00852820302528,-0.999929310964,0.0,0.661692374078,0.260872240449,0.303468391996,1.0,-0.00118,-0.00155085714286,0.06
0.465070917474,0.547278788772,-0.123989322679,-1.35603019968,0.0794339513133,1.89415333317,0.15913971014,0.000425344959568,-0.0105425508245,-0.00148520078081,-0.00909893326833,-1.45949180016e-05,0.00118569108364,0.000174156200857,0.57378533571,0.818990940613,0.00223038553436,0.0,0.818951914428,-0.57372613828,-0.0116973078447,0.0,-0.00830051848556,0.00853848660418,-0.999929095306,0.0,0.661660313779,0.260864307988,0.303480900709,1.0,-0.0015,-0.00197142857143,0.076
0.465049667882,0.547135160481,-0.123991757856,-1.35623217498,0.0794311617582,1.89421496465,0.159134231978,-0.00210440672438,-0.0102708589402,-0.000393146131933,-0.0118934657889,0.000328353409565,0.00340131093987,0.000144522019869,0.573810408794,0.81897335203,0.00223837562613,0.0,0.818934343296,-0.573751089676,-0.011703647577,0.0,-0.00830086484985,0.0085489220672,-0.999929003267,0.0,0.661636347059,0.260830482915,0.303491927859,1.0,-0.00184,-0.00241828571429,0.093
0.465029947007,0.546963158447,-0.123988878754,-1.35642920167,0.0794280295095,1.89434146584,0.159128043524,-0.00324259068838,-0.0106038928524,0.00101922842599,-0.0133897273307,9.61951889119e-05,0.00927287806659,0.000239516380571,0.573829945441,0.818959410418,0.00232909937304,0.0,0.818921558774,-0.573770268776,-0.0116578791264,0.0,-0.00821111993233,0.00859715535406,-0.999929330718,0.0,0.661625599671,0.260806070475,0.303530867183,1.0,-0.00216,-0.00283885714286,0.109
0.465002460508,0.546763954402,-0.123992462335,-1.35667449107,0.0794222099457,1.8944739621,0.159114281432,-0.000931750831484,-0.0105726124917,-0.000512084208279,-0.0178095326432,-0.000167104437144,0.0155095421028,-0.000345150690409,0.573856065683,0.818940885797,0.00240589888666,0.0,0.818904024919,-0.573796105016,-0.0116178630297,0.0,-0.00813400423516,0.00863734774741,-0.999929614622,0.0,0.661609347112,0.260767375728,0.303566822672,1.0,-0.0025,-0.00328571428571,0.126
0.464966500915,0.546523216847,-0.123991717735,-1.35700024692,0.079409634826,1.89460562494,0.159100656096,-0.00394946111409,-0.0138289242503,6.85072574434e-05,-0.0179416045553,-0.00169694310775,0.0139345737568,-0.00153005237571,0.573888735817,0.818917862124,0.00244967312284,0.0,0.818881520843,-0.573828566169,-0.0116007917952,0.0,-0.00809455904553,0.00866372259372,-0.999929706542,0.0,0.661577145505,0.260715416724,0.303593650156,1.0,-0.00284,-0.00373257142857,0.143
0.46494313545,0.546288900705,-0.123995484571,-1.35735655197,0.0793934755224,1.8947242184,0.159061846722,-0.00184264792361,-0.018498689156,-0.00208391874736,-0.0216459128014,-0.000390646435378,0.00998574184446,-0.00527803534138,0.573894271423,0.818913984038,0.00244926041406,0.0,0.818877591092,-0.573834052972,-0.0116067807024,0.0,-0.00809964193987,0.00866687628682,-0.999929638053,0.0,0.661533092577,0.260663994461,0.303600379101,1.0,-0.00314,-0.00412685714286,0.158
0.464898380474,0.545986682649,-0.123989925309,-1.35783226491,0.0793628544541,1.89488972968,0.158922657494,-0.00111420055544,-0.0147962836399,0.00223530681399,-0.025620944266,-0.000518453611195,0.0119938328698,-0.00436983801391,0.573831470474,0.818958007599,0.00244380546506,0.0,0.818921509975,-0.57377124258,-0.0116132936832,0.0,-0.00810877067707,0.00866552509099,-0.999929575777,0.0,0.661477004596,0.260591383533,0.303602078234,1.0,-0.0035,-0.0046,0.176
0.464849341097,0.545678943615,-0.123990012999,-1.35834750988,0.079315952352,1.895066994,0.158912669146,-0.00479866436229,-0.015612888866,0.00108638726961,-0.0339367743776,-0.00542435886142,0.0181448764912,-0.00442237034827,0.573879823839,0.818924230149,0.0024083119558,0.0,0.818887392163,-0.573819842802,-0.0116178252935,0.0,-0.00813233801934,0.00863953816773,-0.999929609252,0.0,0.661417614957,0.260506212111,0.303590025561,1.0,-0.00384,-0.00504685714286,0.193
0.464786947227,0.545315063274,-0.123998128544,-1.35897320591,0.0792764929139,1.89527229679,0.158814306799,-0.00472529522304,-0.0207910765926,-0.000841555437127,-0.0362847659706,-0.00439249866495,0.0165442861119,-0.0106115695028,0.57388042618,0.8189239568,0.00235718654547,0.0,0.818886468938,-0.573820641271,-0.0116434334317,0.0,-0.00818264182275,0.00861237252172,-0.999929433216,0.0,0.661344780693,0.260398296994,0.303567835673,1.0,-0.0042,-0.00552,0.211
0.464736495095,0.544961535217,-0.123994916968,-1.35957412994,0.0792528282377,1.8954607096,0.158738790285,-0.000975827513143,-0.0233713358768,-0.0011199856731,-0.0410499136086,-0.000114062177475,0.0126238790529,-0.00623888207928,0.573890764739,0.818916832384,0.0023148838934,0.0,0.81887863822,-0.573830967281,-0.0116851939408,0.0,-0.00824100860906,0.00860179946837,-0.999929044894,0.0,0.66126369224,0.260301922464,0.30354969482,1.0,-0.00452,-0.00594057142857,0.227
0.464663089802,0.54452909092,-0.123996348013,-1.36031376561,0.0792185631639,1.89571685719,0.158665443715,-0.000350567776782,-0.0198802799689,0.000117988106514,-0.0414503799556,-0.000801612883602,0.017261260684,-0.00208593987019,0.573917929864,0.818897904239,0.00227576701277,0.0,0.818859072078,-0.573858138708,-0.0117219287968,0.0,-0.00829325517412,0.00859112297916,-0.999928704721,0.0,0.66118115224,0.26018941121,0.303524522673,1.0,-0.00486,-0.00638742857143,0.244
0.464596010375,0.544072312628,-0.124001044417,-1.3610568584,0.0791819828937,1.89597674048,0.158553862455,-0.00225154862128,-0.0277695610016,-0.000140247458172,-0.0438794026466,-0.0012754810107,0.0195134555174,-0.0100393480228,0.573916413445,0.818899020066,0.00225659363605,0.0,0.818859860825,-0.573856613831,-0.0117414646903,0.0,-0.00832027293726,0.0085866185734,-0.999928518965,0.0,0.661094697699,0.260071851305,0.303516736988,1.0,-0.0052,-0.00683428571429,0.261
0.464529148421,0.543578091711,-0.124006664825,-1.36186145617,0.0791352077712,1.89625862998,0.158468321973,-0.00175821334219,-0.0302321326302,-0.00013970802926,-0.0512110627908,-0.000203047805378,0.0146317991656,-0.00433459478982,0.57393736281,0.818884406508,0.00223142340902,0.0,0.81884490455,-0.573877639886,-0.011756854727,0.0,-0.00834710171352,0.00857505298166,-0.999928394616,0.0,0.661000089691,0.25994693934,0.303508044982,1.0,-0.00554,-0.00728114285714,0.278
0.464440032555,0.54305697566,-0.124007730582,-1.36269529435,0.0790923637106,1.8965617385,0.158345265462,-0.00208149886517,-0.0314477346553,-0.000780043988131,-0.049825418445,0.000255513112784,0.0201265986984,-0.00790962613571,0.573945310776,0.818878848541,0.00222678044685,0.0,0.818839209565,-0.57388552586,-0.0117685593192,0.0,-0.00835926817839,0.00857804973085,-0.999928267276,0.0,0.660908094406,0.259808923541,0.30350610715,1.0,-0.00588,-0.007728,0.295
0.464383351347,0.542571238707,-0.124016788409,-1.36347814942,0.0790347194404,1.89683217986,0.15825931624,-0.00655957770991,-0.0327998762059,-0.00251526319948,-0.0503011916396,-0.000297159572034,0.0194186537115,-0.00534419787635,0.573955764094,0.818871605057,0.00219594974866,0.0,0.818831669212,-0.573896202417,-0.0117725633554,0.0,-0.00838013197249,0.00855520850845,-0.999928288326,0.0,0.660814505901,0.259688694358,0.303500750951,1.0,-0.00618,-0.00812228571429,0.31
0.464309809628,0.542017927564,-0.124008484986,-1.36433756787,0.0789794725314,1.89715506834,0.158138057626,-0.00134639470235,-0.0414414355149,-0.000351832921618,-0.0577417997537,-0.00388076727269,0.0203737455322,-0.0170152248439,0.573943917885,0.818879870131,0.00221004941179,0.0,0.818840104118,-0.573884289836,-0.0117665911653,0.0,-0.0083672731041,0.00856320539229,-0.999928327559,0.0,0.660715667973,0.259563139261,0.303510673601,1.0,-0.0065,-0.00854285714286,0.326
0.464218593302,0.541323407988,-0.124019559108,-1.3654166449,0.078921986217,1.89754804818,0.157993820535,-0.00336407148022,-0.036236218935,0.000126036012706,-0.0603242545176,-0.00108197476317,0.0261947399711,-0.00823892925102,0.573952775714,0.818873638297,0.00221870557065,0.0,0.818833952871,-0.573893080757,-0.0117658992551,0.0,-0.00836164594325,0.00856998698773,-0.999928316531,0.0,0.660592869402,0.259394856851,0.303522534185,1.0,-0.00688,-0.00904228571429,0.345
0.46412927734,0.540707370655,-0.124020133108,-1.36637506932,0.0788701400701,1.8979027582,0.157883113369,-0.0053503241059,-0.038546415586,0.000368672603513,-0.0621057151208,-0.00112223808201,0.0241077425796,-0.0140745541023,0.573974958775,0.818858053777,0.00223189725317,0.0,0.818818482144,-0.573915151513,-0.0117660131318,0.0,-0.00835393580274,0.00858108083581,-0.999928285833,0.0,0.660484813006,0.259245532324,0.30353258017,1.0,-0.0072,-0.00946285714286,0.361
0.464037189212,0.539987121459,-0.124021198973,-1.36744671891,0.0788057756528,1.89829203801,0.157738564696,-0.00513806471813,-0.0461538686875,0.000479169067853,-0.0617439243746,-0.00720372721453,0.0212426270645,-0.00661991948898,0.573974787874,0.818858082705,0.002264988988,0.0,0.818818925603,-0.573914838911,-0.0117503895233,0.0,-0.00832215087313,0.00859920874516,-0.999928395143,0.0,0.660361598925,0.259082353881,0.303565285647,1.0,-0.00754,-0.00990971428571,0.378
0.463931992957,0.539215244287,-0.124029271651,-1.36866406255,0.0787273176785,1.89875592125,0.157586790302,-0.00208937591606,-0.0435079851981,-0.000936391633146,-0.0714375818111,-0.00864023375831,0.0310140543365,-0.0152310125499,0.573988774117,0.818848252179,0.00227464104383,0.0,0.818809308828,-0.573928878441,-0.0117347845826,0.0,-0.00830368553369,0.00859829742188,-0.999928556492,0.0,0.660226518326,0.258892631223,0.303571699768,1.0,-0.0079,-0.0103828571429,0.396
0.463832984455,0.538515536796,-0.124032235506,-1.36976152497,0.0786696065403,1.8991845731,0.157450915464,-0.0083984455045,-0.0445203211543,-0.000130668798417,-0.0754782361221,-0.00343781483561,0.0262799988256,-0.0152640470409,0.574006019452,0.818836082961,0.00230342684853,0.0,0.818797472067,-0.573945970892,-0.0117247232803,0.0,-0.00827874331716,0.00861626770983,-0.999928608622,0.0,0.660106072237,0.25872421244,0.30358087308,1.0,-0.00822,-0.0108034285714,0.412
0.463723971807,0.537737359355,-0.124040943867,-1.37099444542,0.0785984949795,1.89965216568,0.157310077568,-0.00771234954964,-0.0504298424601,0.00221970570846,-0.0740064962454,-0.00141296754086,0.0323665843443,-0.00182790375682,0.574035164523,0.818815625513,0.00231261930701,0.0,0.81877714989,-0.573975094695,-0.0117182075729,0.0,-0.0082678247592,0.00862034902542,-0.999928663784,0.0,0.65996851606,0.258531297238,0.303584426359,1.0,-0.00856,-0.0112502857143,0.429
0.463600277987,0.536766971349,-0.124042734226,-1.37249114003,0.0785085664153,1.9002083555,0.157130316959,-0.00527930627143,-0.0550961843282,-0.000386319727544,-0.0782688991353,-0.00144335989993,0.0287231688872,-0.00616226387198,0.574048858934,0.818805954358,0.00233742722752,0.0,0.818767794385,-0.573988688807,-0.011706019826,0.0,-0.00824346065802,0.00863380368686,-0.999928748857,0.0,0.659795521465,0.258306908198,0.303605422859,1.0,-0.00896,-0.011776,0.449
0.463509415261,0.536082025403,-0.124045667454,-1.37358963012,0.0784464245311,1.90061946255,0.156994235689,-0.0104935897855,-0.052033699917,-0.000469655284576,-0.0802650576893,-0.00105804071552,0.0245212958721,-0.00675227925396,0.574057733397,0.818799737224,0.0023357978319,0.0,0.818761526041,-0.573997536716,-0.0117106028947,0.0,-0.00824805517177,0.00863518980598,-0.999928699,0.0,0.659668342091,0.258141700386,0.30360177582,1.0,-0.00924,-0.012144,0.463
0.463381971179,0.535082348779,-0.124052067868,-1.37515041694,0.078356035969,1.90118363721,0.156800283379,-0.0074133751901,-0.0596625663319,0.00115475436271,-0.088439390157,-0.00778218058553,0.0293334544573,-0.00580102638853,0.574069167383,0.818791711724,0.0023389685609,0.0,0.818753503217,-0.574008917258,-0.011713700484,0.0,-0.00824865087089,0.00863967932759,-0.999928655305,0.0,0.65948418921,0.25790544232,0.303613419033,1.0,-0.00962,-0.0126434285714,0.482
0.463285875468,0.534361106507,-0.124057451912,-1.37632841239,0.0782912567026,1.9016173297,0.156652036044,-0.00588705302539,-0.0533770324088,-0.000912924257212,-0.0898580458097,-0.00477199072055,0.0236708746008,-0.0169851480057,0.574077528486,0.818785902663,0.00232029919404,0.0,0.818747401656,-0.574017294312,-0.0117296638677,0.0,-0.00827235082089,0.00863364160369,-0.999928511667,0.0,0.659345532344,0.257727531673,0.303599320444,1.0,-0.0099,-0.0130114285714,0.496
0.46313281556,0.533272764751,-0.124057823711,-1.37806817114,0.0781891903128,1.9022533842,0.156439458539,-0.00924644877196,-0.0570363536126,0.000276588139557,-0.0873829191837,-0.00580970813918,0.0422220423121,-0.0112866372309,0.574096887306,0.818772364692,0.00230774879946,0.0,0.818733642711,-0.574036637266,-0.0117434352005,0.0,-0.00829062746845,0.0086314673584,-0.999928379069,0.0,0.659141519258,0.257460835464,0.30359395879,1.0,-0.0103,-0.0135371428571,0.516
0.463029887201,0.532551273179,-0.124057880345,-1.37924342245,0.0781347792503,1.90269558918,0.156294980246,-0.0115576744068,-0.0567571562198,-0.000504452893642,-0.0954333339277,-0.00783963434793,0.0341437018039,-0.0162448171025,0.574112662658,0.818761309751,0.00230545701381,0.0,0.818722405512,-0.574052260621,-0.011763149642,0.0,-0.00830791895029,0.00864106884171,-0.999928152625,0.0,0.659004578302,0.257284122364,0.303581638231,1.0,-0.01056,-0.0138788571429,0.529
0.462864644349,0.531353343891,-0.124056111648,-1.381168165,0.0780064570722,1.90340206073,0.156042124571,-0.00984559394568,-0.057440186899,0.000830720138172,-0.0907488063248,-0.00487752472563,0.0258546364644,-0.0147064247485,0.574110159224,0.818763134399,0.00228072916273,0.0,0.818723968,-0.574049912634,-0.0117689815926,0.0,-0.00832691619978,0.00862414556761,-0.999928140708,0.0,0.658777553054,0.256990723633,0.303571031474,1.0,-0.01098,-0.0144308571429,0.55
0.462745284371,0.530458931737,-0.124061647973,-1.38262321871,0.0779198495878,1.90391113069,0.155868249424,-0.00987856769194,-0.0604141128935,-0.000664516499269,-0.0997516636761,-0.00506101584495,0.0386423641031,-0.0122226701114,0.574125209433,0.818752704746,0.00223590352258,0.0,0.818712907165,-0.574065082616,-0.0117984517814,0.0,-0.00837662144335,0.00860451733671,-0.999927894648,0.0,0.658599774424,0.256768458031,0.303552993674,1.0,-0.01128,-0.0148251428571,0.565
0.462592005011,0.529295179169,-0.12406539668,-1.38445362901,0.0778025423816,1.90459165439,0.155621480526,-0.00614967068371,-0.0682128527225,0.00339634803542,-0.0939055624838,-0.00626338913866,0.0345925281193,-0.00882825219976,0.574119178658,0.818756915767,0.00224242788401,0.0,0.818717256471,-0.574059082413,-0.0117885858229,0.0,-0.00836486112565,0.00860413327145,-0.999927996402,0.0,0.658385174739,0.256490562691,0.303560588371,1.0,-0.01166,-0.0153245714286,0.584
0.462486966562,0.52846765313,-0.124065256513,-1.38573387119,0.0777198282476,1.90506997444,0.155440145511,-0.0115852733175,-0.0673124696239,0.000405431361251,-0.100251138815,-0.00630287678398,0.0469811009094,-0.00875627241772,0.574103739346,0.818767690016,0.00226122902622,0.0,0.818728308285,-0.574043607196,-0.0117745977408,0.0,-0.00834277675051,0.00861133860253,-0.999928118878,0.0,0.658234406015,0.256299479321,0.303575373743,1.0,-0.01192,-0.0156662857143,0.597
0.462319595602,0.527163423141,-0.124068452705,-1.38775801187,0.0775934314872,1.90585299171,0.155162890171,-0.00628678853202,-0.0724291076661,-0.0032974010291,-0.0990392184025,-0.010202750317,0.0369827044919,-0.0164317862218,0.574091679233,0.818776008761,0.00231045765906,0.0,0.818737333071,-0.574031431242,-0.0117406253534,0.0,-0.00828682659748,0.00863201945948,-0.99992840581,0.0,0.65800156064,0.255997005932,0.303597970585,1.0,-0.01232,-0.016192,0.617
0.462198266459,0.526218009553,-0.124068452826,-1.38925177316,0.0775016994105,1.90641466809,0.15495958467,-0.0112613741159,-0.0707655115973,0.000798536161704,-0.110667998547,-0.0115623949086,0.0440923475876,-0.0204343677003,0.574080545121,0.818783788027,0.00232014628332,0.0,0.818745237492,-0.574020261532,-0.0117355160109,0.0,-0.00827719863925,0.0086369064358,-0.999928443355,0.0,0.657824408977,0.255775563046,0.30360092172,1.0,-0.0126,-0.01656,0.631
0.46202963974,0.524900473312,-0.124074483776,-1.39128660674,0.0773741251331,1.90715247671,0.154678017227,-0.00721990930433,-0.0639653932996,5.00486239629e-05,-0.103248061602,-0.00717371615001,0.0377848649246,-0.018137194971,0.574067382871,0.818792975436,0.00233456685271,0.0,0.818754627679,-0.574007063353,-0.0117259445876,0.0,-0.00826122224947,0.00864308614156,-0.99992852208,0.0,0.657580160244,0.255466367079,0.303623280574,1.0,-0.01298,-0.0170594285714,0.65
0.461889365075,0.523863444214,-0.124083181238,-1.39295994226,0.0772631964425,1.90774720565,0.154460193305,-0.00989423858218,-0.0718986909232,0.00038439433907,-0.109810110573,-0.00813411054412,0.0435018176962,-0.0178698979879,0.574069891917,0.818791337738,0.00229158023759,0.0,0.818752492808,-0.574009796477,-0.0117412082358,0.0,-0.00829836986162,0.00861667707266,-0.999928442407,0.0,0.657376731504,0.255206524705,0.303607827061,1.0,-0.01328,-0.0174537142857,0.665
0.461713150466,0.522518682696,-0.124089749891,-1.39512118192,0.0771389439908,1.90856178964,0.154170313028,-0.0048882679547,-0.0690864387704,-0.00126481110752,-0.120505434476,-0.00673976000127,0.0420715242785,-0.0183769562173,0.57406401283,0.818795463898,0.0022900598817,0.0,0.818756551956,-0.574003874774,-0.0117476497635,0.0,-0.0083045789811,0.00861907044086,-0.999928370231,0.0,0.657119325227,0.254883179257,0.303595196613,1.0,-0.01366,-0.0179531428571,0.684
0.461571487894,0.521506144034,-0.124090409979,-1.39673235692,0.0770325540087,1.90920111856,0.153952247278,-0.0110704716942,-0.0714144007699,-0.000619849236246,-0.116674705533,-0.00587886387632,0.0505782747368,-0.0139932481807,0.574059627519,0.818798462415,0.00231708873595,0.0,0.81876001078,-0.573999502541,-0.0117201848054,0.0,-0.00826662067415,0.00862539058775,-0.999928630263,0.0,0.656935990979,0.254637939905,0.303595185765,1.0,-0.01394,-0.0183211428571,0.698
0.461399047658,0.520150083604,-0.124096760355,-1.39888159394,0.0769061117613,1.90999083411,0.153656780753,-0.00699383221676,-0.0749510563402,0.000311527063631,-0.121902355903,-0.00753518797214,0.0495769665777,-0.0190300596723,0.574043928286,0.818809476873,0.0023142781096,0.0,0.818770937314,-0.573983762078,-0.0117277441111,0.0,-0.00827458927613,0.00862727005814,-0.999928548139,0.0,0.656674443118,0.254316840027,0.303593301749,1.0,-0.0143,-0.0187942857143,0.716
0.461264088631,0.519069176169,-0.12410211805,-1.40058399943,0.0767930868342,1.91059474199,0.153448146187,-0.0104449481517,-0.0733951966444,0.0006045324142,-0.121656459801,-0.00589767879797,0.0405799843469,-0.0154247458641,0.574047230821,0.818807221108,0.0022931091475,0.0,0.818768451749,-0.573987190307,-0.0117334856444,0.0,-0.00829140713304,0.00861326620051,-0.999928529553,0.0,0.656462920626,0.254059994083,0.303594371972,1.0,-0.01458,-0.0191622857143,0.73
0.461072943349,0.517552461126,-0.12410602997,-1.40293699006,0.0766332645764,1.91143844808,0.153111811906,-0.00913579760111,-0.0816203050885,0.000510118265497,-0.12559151493,-0.0112254728985,0.049808317729,-0.0171482281911,0.574012468424,0.818831598292,0.00229055303821,0.0,0.818792882434,-0.573952531818,-0.0117240691156,0.0,-0.00828552905899,0.00860541605848,-0.999928645866,0.0,0.656172711433,0.253704385098,0.303612006248,1.0,-0.01496,-0.0196617142857,0.749
0.460892239564,0.516285030523,-0.124106645162,-1.40494334214,0.0765075270733,1.9121899253,0.152839394901,-0.0106359769293,-0.0791963386803,-0.00119860585991,-0.127317539279,-0.00513350294274,0.0502993513824,-0.0123398497033,0.574010037754,0.818833281657,0.002297892467,0.0,0.818794672317,-0.573950085718,-0.0117188135019,0.0,-0.00827703829712,0.00860838442827,-0.999928690635,0.0,0.655933531203,0.253394674268,0.303611253643,1.0,-0.01528,-0.0200822857143,0.765
0.460719422762,0.51499890192,-0.124111952315,-1.40700319138,0.0763792434971,1.91296447337,0.152558723613,-0.00581896212673,-0.0803623112392,0.000177451992064,-0.126265644476,-0.00815522923766,0.0484118948827,-0.019708871807,0.573999625725,0.818840591353,0.00229401862911,0.0,0.818801958371,-0.573939717123,-0.0117175500077,0.0,-0.00827833655806,0.00860438192589,-0.999928714337,0.0,0.655685250742,0.253082500454,0.303599953602,1.0,-0.0156,-0.0205028571429,0.781
0.460516071539,0.513511213211,-0.124112784222,-1.40938558097,0.0762428986527,1.91379296104,0.15223977807,-0.0154969987145,-0.0839099550537,-0.000445603829046,-0.132005412773,-0.0104348723755,0.0436709160256,-0.0112112622042,0.573993826015,0.818844797369,0.00224330526569,0.0,0.81880531304,-0.573933910203,-0.0117674533005,0.0,-0.00834836968251,0.00859144122462,-0.999928243356,0.0,0.655382737045,0.252719762867,0.303580540734,1.0,-0.01596,-0.020976,0.799
0.460322560742,0.512201233542,-0.124115968732,-1.41152349352,0.0761159324629,1.91455142973,0.151926855915,-0.0126921728662,-0.0868813962426,-0.0020024458597,-0.12968302338,-0.00928274204136,0.0555684024052,-0.0241525209157,0.573976035284,0.818857425242,0.00218516504524,0.0,0.818817076586,-0.573916234992,-0.011810893449,0.0,-0.00841749816679,0.00856858522105,-0.999927859934,0.0,0.65511635237,0.252385605734,0.303546562775,1.0,-0.01628,-0.0213965714286,0.815
0.460139563582,0.510839350689,-0.124119170547,-1.41369870699,0.075983041131,1.91537183258,0.151628697633,-0.0130989529221,-0.0879071061542,-0.00363210582094,-0.13298951838,-0.0111273653708,0.0453542319448,-0.0186272416822,0.573961986527,0.818867263468,0.00218854827018,0.0,0.818826952341,-0.573902168189,-0.0118097573514,0.0,-0.00841477309761,0.00857055910978,-0.999927865953,0.0,0.654851698493,0.252057839185,0.303536118269,1.0,-0.0166,-0.0218171428571,0.831
0.459926567007,0.509271001765,-0.124124786385,-1.41619817747,0.0758273376947,1.91630482114,0.151271240652,-0.0155443280218,-0.0869137342896,-0.000587440184987,-0.139930772553,-0.00789051249562,0.0384155692635,-0.0222904311582,0.573935951954,0.818885518461,0.00218577456776,0.0,0.818845183146,-0.573876159749,-0.0118095813641,0.0,-0.00841649328668,0.00856791925762,-0.999927874099,0.0,0.65454601588,0.251677297547,0.303525222781,1.0,-0.01696,-0.0222902857143,0.849
0.459717085193,0.507753505091,-0.12412545345,-1.41857042803,0.0756716407854,1.91715828623,0.150940970642,-0.00943680593482,-0.0916484138897,0.00113331304712,-0.138236958807,-0.00586646038526,0.0531750128835,-0.020494751344,0.573918339779,0.818897878973,0.0021794448522,0.0,0.818857478746,-0.57385859216,-0.0118106988559,0.0,-0.00842122522241,0.00856319626381,-0.999927874717,0.0,0.654250458572,0.251311125925,0.303531642058,1.0,-0.0173,-0.0227371428571,0.866
0.459510754987,0.50628875678,-0.124136607481,-1.42085933539,0.0755229582474,1.91799825501,0.150620516795,-0.0136238071833,-0.0980216722391,3.51432147876e-05,-0.155150493876,-0.0141715746517,0.0465501794671,-0.0238680173439,0.573910997224,0.818903008467,0.0021856097707,0.0,0.818862762404,-0.573851301794,-0.011798588006,0.0,-0.00840784607872,0.00856121869271,-0.999928004238,0.0,0.653971017348,0.250950353878,0.303539500597,1.0,-0.01762,-0.0231577142857,0.882
0.459298640879,0.504682209384,-0.124143218329,-1.42331512302,0.0753679772549,1.91896024081,0.150294389809,-0.00921846963927,-0.0981233788423,-0.00223168243034,-0.149855564525,-0.00507712359181,0.0531231922669,-0.0141711033827,0.573907390859,0.818905291078,0.00227549179453,0.0,0.818866316577,-0.573847458329,-0.0117386986425,0.0,-0.00830725718639,0.00860041507882,-0.999928508614,0.0,0.653679499653,0.25057776373,0.303576908552,1.0,-0.01796,-0.0236045714286,0.899
0.459066519628,0.503027724593,-0.124144993244,-1.42578508293,0.0752162453639,1.91989766407,0.149946125647,-0.0142186131628,-0.103913940772,-0.0021147243159,-0.147925403184,-0.00792516286512,0.057383404078,-0.0208818172511,0.573901539592,0.818909070372,0.00238835050782,0.0,0.818871589656,-0.57384122068,-0.011675615798,0.0,-0.00819089140841,0.00865657292501,-0.999928984,0.0,0.653366211762,0.250166995032,0.303645001411,1.0,-0.01832,-0.0240777142857,0.917
0.45886564807,0.501538801221,-0.12415042565,-1.42799838291,0.0750756279945,1.92069896418,0.149641723275,-0.0156869869446,-0.0977823864344,0.000144922226556,-0.1501054864,-0.007565994535,0.0597111343121,-0.0174495322719,0.573893670519,0.818914423199,0.00244321825745,0.0,0.818877641942,-0.573833142224,-0.0116481463885,0.0,-0.00813699213354,0.00868566151692,-0.999929171813,0.0,0.653109318543,0.24984720773,0.303693581772,1.0,-0.0186,-0.0244457142857,0.931
0.458614954916,0.499707843395,-0.12415115299,-1.43076222294,0.0748974154708,1.92167454439,0.149247084059,-0.0170544376643,-0.105296532723,-0.00129474375604,-0.150626719328,-0.0175712467376,0.0528942378347,-0.0297319624717,0.573868662549,0.818931842886,0.00247825617994,0.0,0.818895481676,-0.573807976324,-0.0116337138949,0.0,-0.00810533164884,0.0087058242356,-0.999929253609,0.0,0.652758571919,0.249416903049,0.303740056098,1.0,-0.01896,-0.0249188571429,0.949
0.458367756417,0.498032770215,-0.124145593754,-1.43339267144,0.0747397592028,1.92266195407,0.148875771617,-0.0165701104755,-0.09752063322,0.00179226594899,-0.152284671031,-0.00367752687233,0.0689835086145,-0.0302968058339,0.573854348708,0.818941783047,0.00250785766434,0.0,0.818905714829,-0.573793462279,-0.0116292633982,0.0,-0.00808485302924,0.00872737037558,-0.999929231575,0.0,0.6524336429,0.249010451267,0.303741574011,1.0,-0.0193,-0.0253657142857,0.966
0.458126727242,0.496457173495,-0.124145839736,-1.43590776551,0.074585597097,1.92355014883,0.14850236171,-0.0176774338245,-0.0979024437879,0.000959284805198,-0.160622604378,-0.0135913139711,0.0543636823943,-0.0212838982666,0.573831672408,0.818957801054,0.0024655092541,0.0,0.818921064122,-0.573770810476,-0.0116659626045,0.0,-0.00813945054842,0.00871352405587,-0.999928909395,0.0,0.652112550467,0.248611067114,0.303719653122,1.0,-0.01962,-0.0257862857143,0.982
0.457875339845,0.494893684843,-0.124153635103,-1.43847463835,0.0744213050035,1.92443283817,0.148144302124,-0.0176095287883,-0.104072676796,-0.00176190582635,-0.160947144837,-0.0171157203489,0.0540287469136,-0.0197949082656,0.573834701655,0.818955994032,0.00235837151216,0.0,0.818917794379,-0.57377415378,-0.0117308740127,0.0,-0.00825405588538,0.00866306177707,-0.999928408398,0.0,0.651781168893,0.248192402808,0.303663923898,1.0,-0.01994,-0.0262068571429,0.998
0.457568521543,0.492967838907,-0.124154621126,-1.44159490518,0.074223419244,1.92556883516,0.147698958006,-0.0173978764142,-0.106470859816,-0.00136391925157,-0.168772041694,-0.0030069612953,0.0661966583778,-0.0202903062827,0.573825244181,0.818962775025,0.00230416276103,0.0,0.81892382012,-0.573764847555,-0.0117653496276,0.0,-0.00831349584535,0.00863835470845,-0.999928129725,0.0,0.651388364927,0.247692597514,0.303618202025,1.0,-0.0210862857143,-0.0277134040816,1.017
0.457313309413,0.491353198664,-0.12415363321,-1.44418749353,0.0740567877466,1.9265076008,0.147341613983,-0.0189458075706,-0.106091406791,-0.00135904632652,-0.177279602281,-0.0133441134357,0.05884478671,-0.0257703894753,0.57382544397,0.818962739174,0.00226684750229,0.0,0.818923261592,-0.573765150542,-0.0117894252791,0.0,-0.0083546227738,0.00862161233777,-0.999927931443,0.0,0.651059823103,0.247277844192,0.303589110704,1.0,-0.0221234285714,-0.0290765061224,1.032
0.456983493225,0.489329379864,-0.12415714525,-1.44747460377,0.0738504828619,1.92765644853,0.14686679203,-0.0191581330916,-0.115336179651,-0.000505744609265,-0.175630974293,-0.0149185371072,0.0579846516664,-0.0238758763626,0.573816915604,0.818968982636,0.00216789009657,0.0,0.818928077213,-0.573756865859,-0.0118579143332,0.0,-0.00846758523754,0.00857978308397,-0.999927341022,0.0,0.650635001713,0.246743093452,0.303531750028,1.0,-0.023368,-0.0307122285714,1.05
0.456649059778,0.487250587473,-0.124171724967,-1.45068195645,0.0736487755009,1.92888998548,0.146404921776,-0.015382987977,-0.130341118877,-0.000549542558941,-0.18863088387,-0.0115061570938,0.0757538010432,-0.0285167510628,0.57382783468,0.818961109704,0.0022502977984,0.0,0.818921376492,-0.573767562974,-0.0118029532384,0.0,-0.0083751730462,0.00861584595194,-0.999927809232,0.0,0.650249583972,0.246215462047,0.303557053261,1.0,-0.0245434285714,-0.032257077551,1.067
0.456325387774,0.485332549822,-0.124187264205,-1.45359844499,0.073471292649,1.92998766217,0.145961873938,-0.0257328658338,-0.133251265138,-0.00170622480093,-0.196433517668,-0.00757167044509,0.0766133391754,-0.0321053068387,0.573837420702,0.818954160227,0.00233344176402,0.0,0.818915523636,-0.573776847305,-0.0117576165358,0.0,-0.0082902337303,0.00865801872425,-0.999928152787,0.0,0.649898466215,0.245721531077,0.303596391815,1.0,-0.0255805714286,-0.0336201795918,1.082
0.455959994685,0.483070284506,-0.124218137603,-1.45708085378,0.073250093428,1.93118139844,0.145440202184,-0.0220323876873,-0.136179561826,-0.0036873066702,-0.208404313214,-0.00721637646244,0.0678637247988,-0.0261716072025,0.573842310676,0.81895080991,0.00230658348546,0.0,0.818911795863,-0.5737818086,-0.0117751270885,0.0,-0.00831993440647,0.00864612102598,-0.99992800905,0.0,0.649451100023,0.245129002183,0.303613119645,1.0,-0.026756,-0.0351650285714,1.099
0.455570462385,0.480687010934,-0.124250186436,-1.46074623715,0.0730149423524,1.93249316417,0.144883464534,-0.0206404765909,-0.142159865626,-0.00486184303034,-0.220488186499,-0.0155003692095,0.0875716084236,-0.0334339198614,0.573843666783,0.818949811323,0.00232368867071,0.0,0.818911084104,-0.573783167005,-0.0117584222574,0.0,-0.00829642397642,0.00865055710226,-0.999928166025,0.0,0.648990262413,0.244505973534,0.303635703945,1.0,-0.0279314285714,-0.036709877551,1.116
0.455150085501,0.478255186729,-0.124262564153,-1.46449646119,0.0727903775381,1.93387195432,0.144343579712,-0.0270865483015,-0.140634749685,-0.000752980662467,-0.218125262374,-0.00904271573441,0.0812852916295,-0.0267228362235,0.573876459663,0.818926675949,0.00237810107637,0.0,0.818888546868,-0.573815638031,-0.0117434347536,0.0,-0.0082525792883,0.00868684774418,-0.999928214229,0.0,0.648523403422,0.243871513565,0.303655469133,1.0,-0.0291068571429,-0.0382547265306,1.133
0.454662298761,0.475408284133,-0.124273674739,-1.46884818657,0.072516274481,1.93547416945,0.143720676187,-0.0236219945393,-0.150085936931,0.00090972229579,-0.232531889006,-0.0110140257148,0.079000052392,-0.0360848612133,0.573909751044,0.818903108362,0.00245838818128,0.0,0.818866002866,-0.573848609769,-0.011704243593,0.0,-0.00817405619519,0.00873043811813,-0.99992847957,0.0,0.64797959935,0.243136003664,0.303693999429,1.0,-0.0304205714286,-0.039981322449,1.152
0.454266047611,0.473081914741,-0.124283275117,-1.47246093432,0.072281088078,1.93674025337,0.143199864574,-0.0266121229488,-0.150798737169,-0.000507086126798,-0.244307525573,-0.0112858245702,0.0881345833598,-0.0380835012765,0.573923853005,0.818893288496,0.00243719291913,0.0,0.81885584925,-0.573862724929,-0.011722541853,0.0,-0.00820105457348,0.00872372402358,-0.999928317102,0.0,0.647510106401,0.242525347104,0.303693443506,1.0,-0.0314577142857,-0.0413444244898,1.167
0.453841030448,0.47053239217,-0.124282976342,-1.47638395628,0.0720365915134,1.93814044152,0.142603134028,-0.0305424231511,-0.159331477203,-1.56069883992e-05,-0.244445190064,-0.0145033710787,0.0880488980762,-0.0402448942996,0.573903758801,0.818907291228,0.00246392156213,0.0,0.81887003342,-0.573842358663,-0.0117287114364,0.0,-0.00819098245301,0.00874895155561,-0.999928179247,0.0,0.646999156408,0.241876008336,0.303709372299,1.0,-0.032564,-0.0427984,1.183
0.45331802494,0.467377884033,-0.124280763286,-1.48113473263,0.0717259413681,1.9399650358,0.141834364751,-0.0306126194957,-0.168002568585,-0.000984881724909,-0.251725901108,-0.0139635895142,0.0884966867453,-0.045284516867,0.573841881066,0.818950067774,0.00265121282284,0.0,0.818915359525,-0.5737799541,-0.011616587598,0.0,-0.0079923463063,0.00883737352761,-0.999929009095,0.0,0.646406739607,0.241092840754,0.303783792545,1.0,-0.0338777142857,-0.0445249959184,1.202
0.452782569103,0.464287843177,-0.124288959105,-1.48591768131,0.0713922769854,1.94157706181,0.141124261934,-0.0320777620058,-0.175472271959,-0.00131430627499,-0.269258844651,-0.0220466957878,0.0875253378505,-0.0389040249183,0.573837521157,0.818953380281,0.00257043567203,0.0,0.818917599865,-0.573775848675,-0.0116613468193,0.0,-0.00807540096357,0.00879686273013,-0.999928699011,0.0,0.645764383037,0.240274202972,0.303778192424,1.0,-0.0351222857143,-0.0461607183673,1.22
0.452387845836,0.46205173184,-0.124286728632,-1.48949230202,0.071157569624,1.94283300124,0.140588054271,-0.024925379316,-0.169730818676,0.000697865508052,-0.278240554718,-0.0166684147821,0.100849988498,-0.0375607220398,0.573822934512,0.818963827527,0.00249718473434,0.0,0.818926972216,-0.573761391653,-0.011714372653,0.0,-0.00816101640148,0.00876715642022,-0.999928264817,0.0,0.645286089622,0.239675918955,0.303726562479,1.0,-0.0360211428571,-0.0473420734694,1.233
0.451838914574,0.459034604789,-0.124288132615,-1.49418785384,0.070837183971,1.94448800422,0.139887451747,-0.0373684865515,-0.173328925128,-4.2331275531e-05,-0.278470780074,-0.0239324671261,0.0956582611226,-0.0409320675471,0.573829645301,0.818959215358,0.00246751992005,0.0,0.818921955966,-0.573768189664,-0.0117320700944,0.0,-0.00819246021177,0.0087530843842,-0.999928130972,0.0,0.644666361701,0.23886789306,0.303712165259,1.0,-0.0371965714286,-0.048886922449,1.25
0.45118013004,0.455593915495,-0.124304226891,-1.49967870933,0.0704686393692,1.94640146485,0.139038962264,-0.0379872645553,-0.181029615373,-0.00399775441236,-0.29434417251,-0.0269555148812,0.10145320882,-0.0500159059732,0.573837745474,0.818953913786,0.0023400564585,0.0,0.818914913346,-0.573776677276,-0.0118083113011,0.0,-0.00832795327478,0.00869252922495,-0.99992753994,0.0,0.643936839483,0.237902922036,0.303631402217,1.0,-0.0385102857143,-0.0506135183673,1.269
0.450616585579,0.452525903651,-0.124350517269,-1.50436743607,0.0701512358145,1.94804462691,0.138282735337,-0.0396536884342,-0.196516011211,-0.00278036412671,-0.290104122841,-0.016480650462,0.105221836803,-0.0545211664347,0.573840635426,0.818951876223,0.00234445428704,0.0,0.818913058688,-0.5737796814,-0.0117909467095,0.0,-0.00831117771222,0.00868619581939,-0.999927734552,0.0,0.643322366268,0.237061681141,0.303650684776,1.0,-0.0396165714286,-0.0520674938775,1.285
0.450000715948,0.449135048299,-0.124375895556,-1.509409369,0.069810331991,1.94993340317,0.137521619444,-0.0411655761068,-0.197393413383,-4.35835688384e-07,-0.303588718089,-0.0199534026168,0.0999259046233,-0.0388334043935,0.573875422878,0.818926942214,0.00253164622532,0.0,0.818890797132,-0.573814033292,-0.0116646676408,0.0,-0.00809997242116,0.00876737666977,-0.999928759239,0.0,0.642681046904,0.236174923259,0.303741299909,1.0,-0.040792,-0.0536123428571,1.302
0.449339405421,0.445475963321,-0.124391099648,-1.51496816619,0.0694267203543,1.95176497736,0.136699897294,-0.0374675589903,-0.203496389268,0.000682604951377,-0.312414511034,-0.0179534746811,0.109297326689,-0.0473880178766,0.573902949012,0.818907841797,0.00246954652713,0.0,0.818870750893,-0.573841628751,-0.0117143222392,0.0,-0.00817597915453,0.00874529187175,-0.999928334049,0.0,0.641953257127,0.235251747118,0.303762361533,1.0,-0.0419674285714,-0.0551571918367,1.319
0.448769167927,0.442420363691,-0.124394039555,-1.51967401132,0.0690938741203,1.95347424869,0.135947093922,-0.0407129677715,-0.203924293572,0.00247935371414,-0.314342952527,-0.0256691373849,0.113392043612,-0.0545096508824,0.573868300705,0.818932026016,0.00250142214778,0.0,0.818895477403,-0.573807007518,-0.0116816999068,0.0,-0.00813134116832,0.00875232906819,-0.999928636467,0.0,0.641283685256,0.234381076772,0.30376160465,1.0,-0.0430737142857,-0.0566111673469,1.335
0.448048524949,0.438717346557,-0.124397963625,-1.5254565856,0.0687147047381,1.95550496334,0.135005225625,-0.0384070348866,-0.204280752051,0.000269188027344,-0.324338125649,-0.0196276066537,0.11382194855,-0.0516798647259,0.57384111245,0.818951203452,0.00245986349563,0.0,0.818913892355,-0.573779734431,-0.0117303097093,0.0,-0.00819528921472,0.00874591874885,-0.99992817049,0.0,0.640497015692,0.233363706985,0.303717236838,1.0,-0.0443182857143,-0.0582468897959,1.353
0.447195075216,0.434374932172,-0.124417809063,-1.53199263789,0.0682590724529,1.95781489544,0.133957362182,-0.0429928354239,-0.224182995395,0.000139458289043,-0.330015720688,-0.0217091632943,0.118938566937,-0.0469453661585,0.5738555773,0.818940812277,0.00254347965607,0.0,0.818904684221,-0.573794000299,-0.0116751994858,0.0,-0.00810201997288,0.00878291484394,-0.999928606291,0.0,0.639621389703,0.232179988217,0.303771073598,1.0,-0.0457011428571,-0.0600643591837,1.373
0.446620637641,0.431515729153,-0.124430479883,-1.53636315626,0.067940754317,1.95938315673,0.133256661171,-0.0449378088504,-0.223359030904,0.000330405237301,-0.345603035072,-0.0239648243369,0.117212380035,-0.0561110276589,0.573861976806,0.818936237888,0.00257230473553,0.0,0.81890067454,-0.573800504883,-0.01163669779,0.0,-0.00805387881572,0.00878448960895,-0.999928981367,0.0,0.639036538715,0.231386166276,0.303776470701,1.0,-0.0466,-0.0612457142857,1.386
0.445866870794,0.427729140228,-0.124469914155,-1.542270092,0.0675085931723,1.96125476228,0.13232518039,-0.0459874342646,-0.226563353613,-0.00247002579158,-0.341823209065,-0.0232516431073,0.113240204482,-0.0587773997944,0.57387700795,0.818926397873,0.00234126326853,0.0,0.81888777043,-0.573816303526,-0.0117650392299,0.0,-0.00829140579834,0.0086690842764,-0.999928047195,0.0,0.638188280192,0.230298884071,0.303707225818,1.0,-0.0477754285714,-0.0627905632653,1.403
0.445087487047,0.423816472457,-0.124480212738,-1.5481472472,0.0670830043466,1.96332990531,0.131333572612,-0.0498158506922,-0.234773710687,0.0013598005102,-0.351602990146,-0.0234664158652,0.118682978535,-0.0645803489223,0.573841159534,0.818951298827,0.00241674890696,0.0,0.818913803743,-0.573780339276,-0.0117068869298,0.0,-0.00820084514029,0.00869717005788,-0.999928550133,0.0,0.63738505946,0.229232724311,0.303750484808,1.0,-0.0489508571429,-0.0643354122449,1.42
0.44427129902,0.419837978808,-0.124497685524,-1.55418247934,0.0666750392266,1.96539801374,0.130367574257,-0.0479872803235,-0.233408506119,-0.00146748742804,-0.351944693337,-0.0250146579392,0.126755870973,-0.0611471010385,0.573871391294,0.818930090594,0.00242484524697,0.0,0.818892520422,-0.573810346382,-0.0117249000847,0.0,-0.00821063027754,0.00871444014027,-0.999928319473,0.0,0.636543708999,0.228125247812,0.303759299463,1.0,-0.0501262857143,-0.0658802612245,1.437
0.443484783572,0.416003436343,-0.124513689407,-1.55985634024,0.066278412989,1.96748646677,0.129442384364,-0.049713165517,-0.242266551765,-0.00209507592855,-0.360038555848,-0.0208383333878,0.130272657534,-0.0631300203205,0.573895240378,0.818912769294,0.00262226237097,0.0,0.818877950349,-0.573833697768,-0.0115989930569,0.0,-0.00799397492117,0.00880408925015,-0.999929289689,0.0,0.635783131235,0.22708170098,0.303839902031,1.0,-0.0512325714286,-0.0673342367347,1.453
0.442586719234,0.411632321687,-0.124524684502,-1.56650340394,0.0658108074803,1.96973356832,0.128305045297,-0.0535666860146,-0.245697235916,-0.00114099512837,-0.375334626312,-0.0300460526309,0.120379759247,-0.0634565500457,0.573849322349,0.818945045813,0.00259115415293,0.0,0.818909664334,-0.57378771796,-0.0116345726639,0.0,-0.00804145803798,0.0087985822166,-0.999928957428,0.0,0.63483444102,0.225866029881,0.303830959312,1.0,-0.0524771428571,-0.0689699591837,1.471
0.441765162216,0.407699150153,-0.124543771665,-1.57250270608,0.0653830179331,1.97169020185,0.12734534167,-0.0484796390637,-0.246315469096,-0.000186836687304,-0.375099509675,-0.0194938963531,0.127128330065,-0.0632592676071,0.573873205667,0.818928620524,0.00249102497056,0.0,0.81889174731,-0.573811745506,-0.0117104144766,0.0,-0.0081607713068,0.00876034154985,-0.999928326545,0.0,0.633961299428,0.224752691851,0.303804909849,1.0,-0.0535834285714,-0.0704239346939,1.487
0.440799403443,0.403239783858,-0.12454528386,-1.57934568261,0.0649152676846,1.9740560188,0.126198906562,-0.0515704679626,-0.253208903964,0.000259747936218,-0.388824546847,-0.0273445411682,0.137467238241,-0.0748723439651,0.573870334765,0.818930677411,0.00247616096621,0.0,0.818893338536,-0.573808637276,-0.0117513739364,0.0,-0.00820287599933,0.00877164549655,-0.99992788293,0.0,0.63298490292,0.223489691607,0.303763760346,1.0,-0.054828,-0.0720596571429,1.505
0.439899527759,0.399110321587,-0.124559099744,-1.58536947741,0.0644818071102,1.97623772628,0.125158778397,-0.0549494500057,-0.263580037999,0.000894366332028,-0.381333300465,-0.0316389436044,0.136247933374,-0.0542875675542,0.573882632321,0.818921336273,0.00270485082622,0.0,0.818887186651,-0.573820365402,-0.0116064934647,0.0,-0.0079528597653,0.00887590359359,-0.999928982657,0.0,0.632158440937,0.222346215991,0.303868397114,1.0,-0.0559342857143,-0.0735136326531,1.521
0.438851670404,0.394411469975,-0.124581524971,-1.592436535,0.0639416090214,1.97857535303,0.123970624603,-0.0617333980299,-0.257351672974,0.00351130244337,-0.407247765272,-0.0310160705222,0.12859737411,-0.0642142838269,0.57390644717,0.818904817253,0.002652749109,0.0,0.818870089308,-0.573844462985,-0.0116213613154,0.0,-0.00799467729861,0.0088420013195,-0.99992894955,0.0,0.631132714811,0.220988137195,0.30386957178,1.0,-0.0571788571429,-0.075149355102,1.539
0.437976033072,0.39044127309,-0.124589576325,-1.59842742974,0.0634925853427,1.9804770701,0.122955112017,-0.0585901618633,-0.26889947021,0.000577926990201,-0.403767781868,-0.0327012916791,0.129412130299,-0.0662989407528,0.573900482796,0.818909348104,0.0025421123774,0.0,0.818873000758,-0.573838686661,-0.0117011632783,0.0,-0.00812358596854,0.00879713981766,-0.999928306271,0.0,0.630234010564,0.219849724168,0.303850372471,1.0,-0.058216,-0.0765124571429,1.554
0.43685160248,0.385415039303,-0.124592141132,-1.60607897976,0.0629191916622,1.98308042829,0.121568249284,-0.0622276877749,-0.26684258062,0.000423082025838,-0.39795987765,-0.0242742888186,0.139703553938,-0.0761830405815,0.57381540101,0.818969086972,0.00250340739828,0.0,0.818932222037,-0.573753739303,-0.0117221689968,0.0,-0.00816391186545,0.00877665106466,-0.999928157889,0.0,0.629110438284,0.218409346531,0.303805694595,1.0,-0.0595297142857,-0.0782390530612,1.573
0.435934127609,0.381284609571,-0.124599839871,-1.61206656061,0.0625017366248,1.98518486135,0.120497883599,-0.0613077121667,-0.277108322025,0.00765751973313,-0.405590445583,-0.0300242958781,0.14127743096,-0.0688779831804,0.573803183208,0.818976977113,0.00271381652926,0.0,0.818942789078,-0.573740723213,-0.0116205699377,0.0,-0.00796010543841,0.00889055166911,-0.999928794871,0.0,0.628250489753,0.217268586655,0.303902860944,1.0,-0.0605668571429,-0.079602155102,1.588
0.434897805557,0.376929070946,-0.124614948017,-1.61869726141,0.0619895678264,1.98734488795,0.119354551827,-0.0681360107243,-0.274944729581,-0.00115653613365,-0.425417546992,-0.0336927766005,0.129905891633,-0.0770750623799,0.573825077206,0.818962023614,0.00259452288985,0.0,0.818926257328,-0.5737629955,-0.0116857586895,0.0,-0.00808170695655,0.00883047431595,-0.999928351801,0.0,0.627258298638,0.215970522196,0.303846509481,1.0,-0.0616731428571,-0.0810561306122,1.604
0.433707598334,0.371868804794,-0.124656127516,-1.62631941471,0.0613823290946,1.98976019786,0.117995775272,-0.066793480862,-0.279202932407,-0.00235443803305,-0.422006626873,-0.0249736130214,0.13326775305,-0.079337297321,0.573819811934,0.818966195267,0.00243748685668,0.0,0.818928467607,-0.573758385179,-0.0117570098522,0.0,-0.00823022356089,0.00874270088273,-0.999927911702,0.0,0.626100886281,0.214461947419,0.303805816798,1.0,-0.0629177142857,-0.0826918530612,1.622
0.432555461988,0.367022723454,-0.124697511647,-1.63346709826,0.0608358525112,1.99215218182,0.116785899648,-0.072003416016,-0.282560596026,-0.00128013263255,-0.417240045624,-0.0295533261679,0.148634588109,-0.0710240040186,0.573903202947,0.81890760206,0.00248994734113,0.0,0.818870704711,-0.573841732042,-0.0117124905278,0.0,-0.00816276899596,0.00876094943775,-0.999928304914,0.0,0.625041295001,0.21303855422,0.303839200414,1.0,-0.0640931428571,-0.0842367020408,1.639
0.431502473207,0.362651830951,-0.124709633315,-1.63969159005,0.0603480053459,1.99436957751,0.11558755867,-0.0723847727215,-0.291028270289,-0.0023548752779,-0.422205562511,-0.0312266754341,0.143707710508,-0.086327596303,0.573869507885,0.818930307829,0.00277231679948,0.0,0.818897482492,-0.573807525422,-0.0115145055925,0.0,-0.00783895229113,0.00887823783928,-0.9999298614,0.0,0.624083471536,0.211712141369,0.303974034943,1.0,-0.0651994285714,-0.085690677551,1.655
0.430127431306,0.357170754242,-0.124729857701,-1.64796928423,0.0597337165579,1.99693442991,0.114068641166,-0.0717106216683,-0.290426186228,-0.00290878874836,-0.442122150908,-0.0359745155679,0.130267952239,-0.0746829428311,0.573881027539,0.818922874149,0.00257668926122,0.0,0.818886989552,-0.573819125528,-0.0116814563437,0.0,-0.00808781394011,0.00881395317772,-0.999928448188,0.0,0.622856722179,0.210131564723,0.303894080731,1.0,-0.066444,-0.0873264,1.673
0.428569973914,0.350991417832,-0.124768850942,-1.65726695764,0.0590311161265,1.99989504394,0.112388794339,-0.0758883413207,-0.286280864383,-0.0012918453835,-0.439251322268,-0.0261283235765,0.144267682514,-0.0746847962991,0.573924438712,0.818892892952,0.0024321642574,0.0,0.818854791617,-0.573862695554,-0.0117976183181,0.0,-0.00826541659258,0.00876269953666,-0.999927446361,0.0,0.621414159325,0.208256459805,0.303818320291,1.0,-0.067896,-0.0892347428571,1.694
0.427574349703,0.347046123936,-0.124779265321,-1.66291052239,0.0586176084209,2.00183230354,0.111266799967,-0.0747492322385,-0.308876311077,-0.000504427883803,-0.429818997171,-0.034350167382,0.158582056552,-0.0863077906908,0.573899473956,0.818909766519,0.0026334375578,0.0,0.818874263531,-0.573836979705,-0.0116965016394,0.0,-0.00806737089411,0.00886924113907,-0.999928124461,0.0,0.620571455865,0.207110260994,0.303906080158,1.0,-0.0687948571429,-0.0904160979592,1.707
0.426331038364,0.34214980829,-0.124779622099,-1.66994649061,0.0580440345606,2.00415833283,0.109982744931,-0.083234314981,-0.305602603475,-0.000102061607371,-0.44331243055,-0.0391485460429,0.141330539043,-0.0822931016342,0.573929893876,0.818888016184,0.00276419364667,0.0,0.81885444037,-0.573867201438,-0.0116011853296,0.0,-0.00791394393566,0.00892191108112,-0.999928881968,0.0,0.619494208159,0.205676490441,0.303987211315,1.0,-0.0699011428571,-0.0918700734694,1.723
0.424995437707,0.336960582014,-0.124777519446,-1.67771489297,0.0574121560664,2.00650581392,0.108480586421,-0.073985985796,-0.311209022562,0.00114046053851,-0.452311974232,-0.0351918719264,0.140207336275,-0.0949918146991,0.57385672528,0.818939978197,0.0025530103171,0.0,0.818903346386,-0.573794433895,-0.0117475023086,0.0,-0.00815575319838,0.00883222194471,-0.999927735162,0.0,0.61823542075,0.204106824848,0.303910024338,1.0,-0.0710765714286,-0.093414922449,1.74
0.423806780777,0.332343100861,-0.124777765453,-1.68457584827,0.0568462824974,2.00870152207,0.107185394976,-0.0841378971408,-0.306598095085,-0.00111048342065,-0.452943659003,-0.0330530923815,0.147195257712,-0.0855302142702,0.573820588153,0.818965500661,0.00248761726847,0.0,0.818928036946,-0.573758561684,-0.0117783742493,0.0,-0.00821894869829,0.00879602251623,-0.99992753681,0.0,0.617142691594,0.202723646602,0.303869087,1.0,-0.0721137142857,-0.0947780244898,1.755
0.422416984067,0.326931639872,-0.124776443721,-1.69219846175,0.0562555927199,2.01129102393,0.105647610901,-0.0792985868854,-0.312599766802,-0.00162805362037,-0.455298751027,-0.0374184953212,0.152539428274,-0.085549762195,0.573763911159,0.819004209886,0.00279738116935,0.0,0.818970901542,-0.573700944642,-0.0116032515453,0.0,-0.00789840371331,0.00894867305668,-0.999928765697,0.0,0.61596835204,0.201166814269,0.304011573492,1.0,-0.0732891428571,-0.0963228734694,1.772
0.420758802816,0.320958608976,-0.12479437698,-1.70105515452,0.0555145616232,2.01401405375,0.103973916308,-0.0865957266484,-0.315923645608,-0.000921357364547,-0.467125191349,-0.0410148681331,0.145756685798,-0.0902060652719,0.573814700208,0.818969178514,0.00263084973183,0.0,0.818933627709,-0.573752210298,-0.0116987814078,0.0,-0.00807164095462,0.00886759478982,-0.999928104603,0.0,0.614538612629,0.199297156774,0.303940977213,1.0,-0.0746028571429,-0.0980494693877,1.791
0.419357884262,0.315801997764,-0.124842923658,-1.70861971012,0.054902488806,2.01631041313,0.102477432224,-0.0885012263031,-0.31950551628,0.00128076432757,-0.480710266465,-0.0438257486119,0.150720775149,-0.0949485696578,0.573818313564,0.818966989874,0.00252178831353,0.0,0.818929824132,-0.573756003553,-0.0117787280434,0.0,-0.00819965613446,0.00882418741483,-0.999927447046,0.0,0.613303616138,0.197697069219,0.303906863888,1.0,-0.0757091428571,-0.099503444898,1.807
0.417819171638,0.310214426815,-0.12486551916,-1.71650073337,0.0542174514591,2.0189209823,0.100810930585,-0.088524794025,-0.336469211074,0.000887179800271,-0.461696423465,-0.0398371914775,0.15599498058,-0.0957012593766,0.573755931022,0.81900998716,0.00274216156224,0.0,0.818976293027,-0.573693522836,-0.0115896599134,0.0,-0.00791903935607,0.0088955726923,-0.999929076286,0.0,0.61206760565,0.196010996325,0.304019774029,1.0,-0.0768845714286,-0.101048293878,1.824
0.416215416668,0.304664871532,-0.124877580333,-1.72451515894,0.0535614791312,2.02143625904,0.0991766427533,-0.0920742258345,-0.325351672106,-0.00392831333781,-0.476960350105,-0.041646497214,0.150217995215,-0.0996209601565,0.573773969238,0.818997257704,0.00276965688705,0.0,0.818963829715,-0.57371136521,-0.0115871458298,0.0,-0.00790100914429,0.00891682314259,-0.999929029641,0.0,0.610770461119,0.194280862608,0.304029374838,1.0,-0.07806,-0.102593142857,1.841
0.414673864602,0.299388844946,-0.124931637688,-1.73229516941,0.0529112455377,2.02368115222,0.0976452480859,-0.0952338110056,-0.328185640461,9.39621576649e-05,-0.490255199188,-0.0412577604391,0.139539161639,-0.0935124277878,0.573846124813,0.818947459842,0.00253573597758,0.0,0.818910660328,-0.573783959276,-0.0117492714655,0.0,-0.00816722863726,0.00881898491648,-0.999927758331,0.0,0.609462013437,0.192576793265,0.303944056685,1.0,-0.0791662857143,-0.104047118367,1.857
0.413102257855,0.294035446763,-0.124985753224,-1.73996909036,0.0523136791575,2.02607602847,0.0960638915702,-0.101114402992,-0.33886848,-0.000323571875802,-0.471595305548,-0.0413781711961,0.15355763518,-0.108551532156,0.573913468358,0.818900067699,0.002599396431,0.0,0.818863832605,-0.573850776896,-0.0117497407964,0.0,-0.00813035440674,0.00887205703131,-0.999927589349,0.0,0.608208818582,0.190887880189,0.303963179961,1.0,-0.0802725714286,-0.105501093878,1.873
0.411394827966,0.288243268459,-0.125002430773,-1.74807031797,0.0516239516229,2.02874255723,0.0943059451684,-0.100603413521,-0.337713618514,-0.00213369850683,-0.485020427964,-0.0386791550741,0.147407215058,-0.104790373873,0.573893557963,0.818913123007,0.00286844844155,0.0,0.818880803773,-0.57383041776,-0.0115597476745,0.0,-0.00782057667212,0.00898315504106,-0.999929068237,0.0,0.60690935382,0.189106001861,0.304075140994,1.0,-0.081448,-0.107045942857,1.89
0.40967272988,0.282455134791,-0.125019322957,-1.75647234354,0.050889518605,2.03111351345,0.0925521223535,-0.106039676244,-0.344123204759,-0.00115341410548,-0.491962534852,-0.0403680107819,0.147430081574,-0.104312501758,0.573874592113,0.818927161689,0.00264637028605,0.0,0.818891601227,-0.573811807061,-0.0117176114412,0.0,-0.0080775072804,0.00889170108016,-0.999927843161,0.0,0.60545357751,0.187267279681,0.30400942691,1.0,-0.0826234285714,-0.108590791837,1.907
0.407896670559,0.276595680957,-0.125029325106,-1.7648845583,0.0501654107811,2.03362145716,0.0907502642474,-0.10774697216,-0.347751302023,0.00108713485757,-0.490495561888,-0.0465287808311,0.155724995428,-0.0965054391348,0.573853638649,0.818942019077,0.00259185267539,0.0,0.81890556018,-0.573790845257,-0.011768445396,0.0,-0.00815065002186,0.00887601866963,-0.999927388962,0.0,0.604019450736,0.185415511132,0.303986699747,1.0,-0.0837988571429,-0.110135640816,1.924
0.406081338103,0.270648005061,-0.12505793446,-1.77313887736,0.0494472708677,2.03628836382,0.0889002740396,-0.113396124792,-0.345855838366,0.000868341933808,-0.487559449678,-0.0439200208322,0.141220425085,-0.106319485268,0.573825767687,0.81896069311,0.00284927702547,0.0,0.818928064185,-0.573762628682,-0.011576636781,0.0,-0.00784615286879,0.00897649823227,-0.999928927657,0.0,0.602577475811,0.183450682961,0.304095247579,1.0,-0.0850434285714,-0.111771363265,1.942
0.404313645137,0.265057312495,-0.125116317858,-1.78116657481,0.0487442935882,2.03858181578,0.0871966314731,-0.11136454038,-0.348620067839,-0.001121999927,-0.497499694996,-0.0452454987239,0.140384609644,-0.113545104962,0.573906740035,0.818904389727,0.00272050160306,0.0,0.818869852361,-0.573843756964,-0.0116728055542,0.0,-0.00799792283288,0.00892701040136,-0.999928168278,0.0,0.601271254103,0.181729132134,0.304050337732,1.0,-0.0860805714286,-0.113134465306,1.957
0.402403560163,0.259044398542,-0.125154561101,-1.78979614152,0.0479611313578,2.04101592427,0.0852974548645,-0.111142701468,-0.35170768497,-0.000703878000376,-0.501886218484,-0.0399071879906,0.141625766766,-0.109310650802,0.573903285519,0.818907392768,0.00253926002647,0.0,0.818870323451,-0.573840759031,-0.0117865833205,0.0,-0.00819514709767,0.00884385384348,-0.999927310265,0.0,0.599752869776,0.179768568492,0.303988617864,1.0,-0.087256,-0.114679314286,1.974
0.400472735854,0.252863376908,-0.125141084128,-1.79817726671,0.0472003515878,2.04363173003,0.0834182362761,-0.115215870271,-0.357138198186,-0.0045953364492,-0.491874957084,-0.0446163983763,0.151420734729,-0.1120274294,0.573887720004,0.818917264761,0.0028539805991,0.0,0.818884756172,-0.573824625617,-0.0115672833972,0.0,-0.00783511458177,0.0089755759101,-0.999929022489,0.0,0.598329384301,0.177873578456,0.304152032404,1.0,-0.0884314285714,-0.116224163265,1.991
0.398603694947,0.247175501638,-0.125149168091,-1.80635816084,0.0465024396316,2.04597035178,0.0815129113107,-0.116129054159,-0.354199670837,-0.00266159047074,-0.508462620979,-0.0483637755958,0.137362951798,-0.118225263885,0.573828794714,0.818958981324,0.0027291331306,0.0,0.818924277855,-0.573765480995,-0.0117024296304,0.0,-0.00801808183863,0.00895031678949,-0.99992779849,0.0,0.596872909605,0.176019274368,0.304069587421,1.0,-0.0895377142857,-0.117678138776,2.007
0.396454547661,0.240665851575,-0.125147854949,-1.81564055211,0.045676412355,2.04856342306,0.0793985130722,-0.118337071638,-0.362765374166,0.00308210206753,-0.510629887606,-0.0408845458267,0.146812289926,-0.121938642157,0.573795127597,0.818983077229,0.00257248116048,0.0,0.818945796437,-0.573731795026,-0.0118472264606,0.0,-0.00822692214318,0.00890477489592,-0.999926508668,0.0,0.595198128903,0.173906131924,0.303994524912,1.0,-0.0907822857143,-0.119313861224,2.025
0.394387878357,0.234282031724,-0.125146298574,-1.82419020518,0.0449359494394,2.05117760783,0.0774112605217,-0.121855841429,-0.37880904726,0.000916665228715,-0.509364169039,-0.0512406040326,0.160597120823,-0.120700694253,0.573805958608,0.81897429789,0.00292714257392,0.0,0.818941802015,-0.573741555302,-0.0116490142305,0.0,-0.00786097126561,0.00908160804069,-0.999927862161,0.0,0.59380351779,0.172051975294,0.304166186389,1.0,-0.0918885714286,-0.120767836735,2.041
0.392648341848,0.229141303056,-0.125152472476,-1.83143092548,0.0442258999478,2.05320954429,0.0756948340026,-0.120895254389,-0.368807885635,-0.00357428360369,-0.521741717537,-0.050193745705,0.136162387819,-0.135580921411,0.573744078953,0.819017939726,0.00284485070611,0.0,0.818984501656,-0.573680107385,-0.01167336028,0.0,-0.0079288098818,0.00902758378894,-0.999927815747,0.0,0.592399274595,0.17025171816,0.3041371259,1.0,-0.0929257142857,-0.122130938775,2.056
0.390183353915,0.222078061695,-0.125201608197,-1.84139294029,0.043290385853,2.05588619117,0.0733231451502,-0.130657831996,-0.380890723348,-0.00272608535179,-0.521683482379,-0.0470459522369,0.135394514223,-0.118029037821,0.573751701256,0.819013303005,0.00263471205906,0.0,0.818976779241,-0.573688083615,-0.0118222114323,0.0,-0.00817120284296,0.00894095405934,-0.999926642702,0.0,0.590569767592,0.167878723738,0.304060222928,1.0,-0.0942394285714,-0.123857534694,2.075
0.388211778902,0.216393291545,-0.125261487362,-1.8490319773,0.0426162429677,2.05823637242,0.0714124942124,-0.133721462027,-0.378707115426,-0.00222185435182,-0.505088898993,-0.0467105446531,0.152018927981,-0.129097347074,0.57377844004,0.818993495895,0.00294997085867,0.0,0.818961402382,-0.573714087053,-0.0116238817484,0.0,-0.00782759441646,0.00908561993458,-0.999928087552,0.0,0.589237185219,0.166030687609,0.304181567782,1.0,-0.0952765714286,-0.125220636735,2.09
0.385325493692,0.208459722687,-0.125316636922,-1.86003927446,0.0415644245611,2.06123031716,0.068740279074,-0.13557894107,-0.371109183072,0.0015021807117,-0.53106298322,-0.0612165798535,0.142562301167,-0.128340977762,0.57385341215,0.818941320751,0.00284981258739,0.0,0.818907806912,-0.573789249666,-0.0116896384905,0.0,-0.00793808899108,0.00904204679802,-0.999927611446,0.0,0.587213985699,0.163338633384,0.304149709382,1.0,-0.0967285714286,-0.127128979592,2.111
0.383393964305,0.203134166861,-0.125372758174,-1.86751601273,0.0408134925453,2.06313129554,0.066886305608,-0.133733487986,-0.377173828741,-0.00288488229798,-0.530851634477,-0.0561830704967,0.13593424527,-0.140211748532,0.573842503168,0.818949769607,0.00260831733849,0.0,0.818912942519,-0.573779016002,-0.0118313258584,0.0,-0.00819282156722,0.00892547431614,-0.999926604098,0.0,0.585796261232,0.161513133378,0.304068554507,1.0,-0.0976965714286,-0.128401208163,2.125
0.380537661356,0.195347960383,-0.125407943652,-1.87787662081,0.0398533292599,2.06617519997,0.0642166983944,-0.145834468314,-0.377626158662,-0.00419575135475,-0.523663231177,-0.0490981141956,0.146563107296,-0.132986684279,0.573882647016,0.818920381002,0.00297723621088,0.0,0.818888732413,-0.573818296911,-0.0115996964904,0.0,-0.007790985258,0.0090950648215,-0.999928287601,0.0,0.583927027774,0.158951413123,0.304222596055,1.0,-0.0990794285714,-0.130218677551,2.145
0.378483480074,0.18996151436,-0.125476682259,-1.8853331825,0.0391564841406,2.06815934741,0.0622875458779,-0.147141399752,-0.384649554581,-0.00973565330734,-0.531432238529,-0.0558339240141,0.14230010114,-0.152892681531,0.573929839363,0.818887586915,0.00289937685345,0.0,0.818854611911,-0.573865377123,-0.011679057875,0.0,-0.00790013563141,0.00907730268446,-0.999927592595,0.0,0.582526574251,0.157079618077,0.304175223498,1.0,-0.100047428571,-0.131490906122,2.159
0.375636377876,0.182536576286,-0.125589280937,-1.89548885967,0.0381856524067,2.07075742132,0.0596430037689,-0.150974127534,-0.396782707179,-0.00331136495034,-0.530419081256,-0.0515243506701,0.13961239425,-0.140745697099,0.574018324824,0.818825983169,0.00277830049463,0.0,0.818790999447,-0.573953782466,-0.0117941391814,0.0,-0.00806288676871,0.00904507360013,-0.999926585555,0.0,0.580592819611,0.154496574573,0.304141707929,1.0,-0.101361142857,-0.133217502041,2.178
0.373538071554,0.176955575317,-0.125576924252,-1.90280853072,0.0374413974875,2.07284368639,0.0577173844471,-0.145525774704,-0.405183732513,0.00234576571837,-0.523663079824,-0.0505417397223,0.145777433692,-0.135409266598,0.574005755948,0.818833909254,0.00302788640982,0.0,0.818802764614,-0.573941045528,-0.0115955086463,0.0,-0.00775711673142,0.00913530635239,-0.99992818408,0.0,0.579229999722,0.152677805872,0.304261770801,1.0,-0.102329142857,-0.134489730612,2.192
0.370656563482,0.169432522208,-0.125567265189,-1.91305797588,0.036405640457,2.07540090629,0.0549471121094,-0.153451741629,-0.398522525295,-0.000426011616785,-0.544629743363,-0.0543277423541,0.139491419431,-0.155510334321,0.573880060493,0.818922583204,0.00286806365738,0.0,0.818888949367,-0.573815424174,-0.0117258042386,0.0,-0.00795693992882,0.0090780056606,-0.999927135806,0.0,0.577212988645,0.150153376544,0.304210566341,1.0,-0.103642857143,-0.136216326531,2.211
0.368624867983,0.164316377628,-0.12557809151,-1.92011090541,0.0357004321705,2.0771838983,0.0530319663964,-0.157239403258,-0.396697666626,-0.00144523822915,-0.539891930907,-0.0507162757745,0.150526887787,-0.149600240096,0.573841158931,0.818950303607,0.00273339359322,0.0,0.818914510183,-0.573776552631,-0.011842278659,0.0,-0.00813003707866,0.00903417652146,-0.999926140348,0.0,0.575720680608,0.148253711891,0.304130816185,1.0,-0.104610857143,-0.137488555102,2.225
0.36528083821,0.155757148915,-0.125567978695,-1.93123473191,0.0345598494424,2.08023047343,0.0499323750083,-0.165042445107,-0.400015494171,-4.49489556588e-05,-0.542487673438,-0.0527443696519,0.14404191549,-0.148203360948,0.573778402756,0.818993036614,0.00308178671271,0.0,0.818962541525,-0.573713490322,-0.0115729642618,0.0,-0.00771026297849,0.00916436127032,-0.999928280592,0.0,0.573695094994,0.145568800138,0.304302334649,1.0,-0.105993714286,-0.13930602449,2.245
0.363120899441,0.150516827221,-0.125584061468,-1.93833983734,0.0338377844861,2.08187304525,0.047963215725,-0.170372368452,-0.394062217216,-0.00273800193189,-0.545431914325,-0.0571331890179,0.12418967067,-0.148537225355,0.573782291386,0.818990987062,0.00289691286785,0.0,0.818957521628,-0.573717331098,-0.0117366378891,0.0,-0.00795034459935,0.0091068988998,-0.999926925537,0.0,0.572258876484,0.1437359812,0.304240847409,1.0,-0.106892571429,-0.140487379592,2.258
0.359748568588,0.1423592796,-0.125629765972,-1.94923026951,0.0327638074112,2.08454170363,0.0449070367338,-0.170006831036,-0.408186196541,-0.00346357793527,-0.526344690543,-0.0482652742786,0.135921855977,-0.149854630008,0.573829392187,0.81895815054,0.00285012766207,0.0,0.81892345359,-0.57376388338,-0.0118376598066,0.0,-0.00805940283487,0.00912700924312,-0.999925869116,0.0,0.570082093728,0.140908534764,0.304217888228,1.0,-0.108275428571,-0.14230484898,2.278
0.357525822952,0.137000563098,-0.125655488125,-1.95613733534,0.0320349687707,2.08645443945,0.0428393176562,-0.170652436975,-0.404934872475,-0.00148106437129,-0.536837786677,-0.0572893642144,0.140259247697,-0.160260033314,0.5737949628,0.818981323874,0.00311106290554,0.0,0.818950740078,-0.573729396321,-0.0116194674348,0.0,-0.0077313674325,0.00921517657412,-0.999927650622,0.0,0.568751563209,0.139085004652,0.304319929478,1.0,-0.109174285714,-0.143486204082,2.291
0.35346412202,0.127505348318,-0.125756019594,-1.96878676414,0.0306548142293,2.08937365878,0.0391132478988,-0.177005499382,-0.411196801934,-0.00617827280626,-0.563936902744,-0.0569658083406,0.12782559842,-0.157261830652,0.57378473187,0.818989377237,0.0028685094293,0.0,0.818955434724,-0.57371974804,-0.0117640786303,0.0,-0.00798908873889,0.00909940528102,-0.999926684955,0.0,0.566166705131,0.135706789883,0.304250599409,1.0,-0.110764571429,-0.145576293878,2.314
0.351287877393,0.122524203243,-0.125843060765,-1.97534121813,0.0299739839614,2.09098169018,0.0372371320936,-0.184809736076,-0.418319561496,-0.0121092508005,-0.540736101797,-0.060729541569,0.146383504453,-0.162167173595,0.573919669157,0.818894775129,0.00288227738335,0.0,0.81886099592,-0.573854600898,-0.0117606670792,0.0,-0.00797689426563,0.00911003808427,-0.999926685494,0.0,0.564848365311,0.133916977968,0.304248223332,1.0,-0.111594285714,-0.14666677551,2.326
0.347373904687,0.113684204555,-0.125886627308,-1.98671162797,0.0287730343603,2.09385217199,0.0336775421065,-0.183652953825,-0.420597301608,-0.000469751733208,-0.551860891312,-0.0629331865727,0.119804777078,-0.173943807374,0.573912359213,0.818898986557,0.00313060064182,0.0,0.818868852869,-0.573846949218,-0.0115856624846,0.0,-0.00769114971816,0.00921288362249,-0.999927981902,0.0,0.562565547667,0.130816216924,0.304347078484,1.0,-0.113046285714,-0.148575118367,2.347
0.344568514885,0.107395360774,-0.125892628323,-1.99502791869,0.0278400983646,2.09564633741,0.0311550791163,-0.188514062006,-0.419874166728,-0.000924255350404,-0.556433503448,-0.0601012879182,0.119580288895,-0.165151506468,0.573873683785,0.818926884348,0.00291548494722,0.0,0.818893586091,-0.57380856146,-0.0117378173116,0.0,-0.00793963679911,0.00912367204277,-0.999926857713,0.0,0.560800832679,0.128588540402,0.304277113273,1.0,-0.114083428571,-0.149938220408,2.362
0.341744636819,0.101001818896,-0.125890606704,-2.00319040579,0.0269569904726,2.09759438196,0.0285535338118,-0.192423624348,-0.442157450562,0.00158005049591,-0.539844318021,-0.0514085639836,0.132084417294,-0.177473166675,0.573791350335,0.81898410655,0.00304407622174,0.0,0.818952635914,-0.573725983828,-0.0116542915356,0.0,-0.00779836405825,0.00918026267163,-0.999927451516,0.0,0.559105981042,0.126394402444,0.304339246004,1.0,-0.115120571429,-0.151301322449,2.377
0.338276290546,0.093332262628,-0.125884520145,-2.01306680356,0.0259560405097,2.09988176364,0.0253823640137,-0.192791384488,-0.424696474929,-0.000208182660467,-0.558521165097,-0.0598152124743,0.118314149192,-0.171606255649,0.573731218481,0.819025882257,0.0031368830102,0.0,0.818995035257,-0.573664861809,-0.0116835547549,0.0,-0.00776976377452,0.00927249024143,-0.99992682317,0.0,0.557023965962,0.123735761128,0.304354667944,1.0,-0.116365142857,-0.152937044898,2.395
0.335269087767,0.0869202341393,-0.125928353412,-2.02145856325,0.0250597655507,2.10160100333,0.0226854684213,-0.203298997324,-0.419202092231,-0.00322425370471,-0.563371361831,-0.0638955654561,0.11428315027,-0.184279136697,0.573740005416,0.819020453358,0.00294109970929,0.0,0.818986134172,-0.573673254535,-0.0118935262718,0.0,-0.00805396610083,0.00923268946661,-0.999924942721,0.0,0.55520370294,0.121415114192,0.304275868732,1.0,-0.117402285714,-0.154300146939,2.41
0.332010441089,0.0799675059304,-0.12603300101,-2.0301599547,0.0240560323504,2.10362838543,0.019717800651,-0.199396113719,-0.438492251113,-0.00759677584426,-0.536629444428,-0.0607979577065,0.142917198386,-0.182072713256,0.573734343458,0.819023760306,0.00311930959657,0.0,0.818992500359,-0.573667825558,-0.0117156807972,0.0,-0.00780612367967,0.00927655819875,-0.99992650225,0.0,0.553384535216,0.118916506127,0.304373691362,1.0,-0.118508571429,-0.155754122449,2.426
0.328036435583,0.0717375229611,-0.12608790623,-2.04065066392,0.0228862155848,2.10595499199,0.0162559942945,-0.207182868896,-0.426733504366,-0.00700762240918,-0.563015585637,-0.0668877471704,0.11243470705,-0.189225408215,0.573808410423,0.818971736869,0.00315424137441,0.0,0.818940891973,-0.573741718367,-0.0117048264211,0.0,-0.00777635187641,0.00929964413459,-0.999926519786,0.0,0.551135434885,0.115939674651,0.304376565864,1.0,-0.119822285714,-0.157480718367,2.445
0.324591877928,0.0647631389068,-0.126215641417,-2.04963814624,0.0218487573052,2.10769418734,0.0131925894479,-0.218897410431,-0.434838439953,-0.0136501145546,-0.561205722619,-0.0653331276281,0.112787816746,-0.196554752139,0.573865902798,0.818932319614,0.00292034229603,0.0,0.81889781614,-0.573799310431,-0.0118939047983,0.0,-0.00806476792186,0.0092171458021,-0.999924999058,0.0,0.549148620552,0.113327126203,0.304298739839,1.0,-0.120928571429,-0.158934693878,2.461
0.32085160022,0.0572627687235,-0.126303439383,-2.05885384403,0.0207643929381,2.10983073773,0.00989723952872,-0.219062655272,-0.439368748417,-0.000302525127481,-0.538827652859,-0.0536575397877,0.12731740364,-0.205373189476,0.573917890515,0.818894809182,0.00320832386567,0.0,0.818865083299,-0.573851507089,-0.0116262662399,0.0,-0.00767973544715,0.00929988563608,-0.99992726425,0.0,0.547193388563,0.110591109941,0.304427569004,1.0,-0.122104,-0.160479542857,2.478
0.317557510562,0.0506428980716,-0.126296406743,-2.06718612571,0.0198218412147,2.11153063593,0.00698744900635,-0.222576629674,-0.445293444063,0.000991070057323,-0.562768375287,-0.0641273005886,0.107647944491,-0.194537201292,0.573887561498,0.818916098795,0.00319949896823,0.0,0.818885941696,-0.573820828162,-0.0116712707937,0.0,-0.00772200107117,0.00931820126518,-0.999926768231,0.0,0.545335792852,0.108224530792,0.304419884475,1.0,-0.123141142857,-0.161842644898,2.493
0.313749408248,0.0431373134306,-0.126301980525,-2.07674664079,0.0187373505183,2.11334399265,0.00363177887419,-0.222274661174,-0.44593446243,-0.00138282986433,-0.564409761695,-0.0683411055683,0.108974126298,-0.211254328858,0.573863120198,0.818933906469,0.00302043261898,0.0,0.818900497378,-0.573795918725,-0.0118729082265,0.0,-0.00799016904102,0.00928703673889,-0.999924951257,0.0,0.543158753165,0.105499896524,0.304333526248,1.0,-0.124316571429,-0.163387493878,2.51
0.309823079386,0.0354866616658,-0.126334934039,-2.08597749056,0.0176471839233,2.11533621097,9.32242404675e-05,-0.231914788425,-0.441501278266,-0.0047106174311,-0.539540604449,-0.0673928757011,0.11496431536,-0.212280314943,0.57379503404,0.818980451905,0.00332042315427,0.0,0.818951753229,-0.573727784816,-0.0116276271929,0.0,-0.00761792702075,0.00939132191664,-0.999926882457,0.0,0.541128004291,0.102746348915,0.304475852068,1.0,-0.125492,-0.164932342857,2.527
0.305566828631,0.0274246279588,-0.126419808882,-2.09600775763,0.0164522015566,2.11719399753,-0.00360030078836,-0.234334428794,-0.445186148722,-0.00470201946032,-0.557917522717,-0.0641030249133,0.0954073456072,-0.211721282604,0.573861961527,0.81893394825,0.00322248627591,0.0,0.818903592266,-0.573794554321,-0.01172445764,0.0,-0.0077526605725,0.00936730619619,-0.999926072182,0.0,0.538831817142,0.0997431184306,0.304447097511,1.0,-0.126736571429,-0.166568065306,2.545
0.301222022095,0.0193116932456,-0.126509124529,-2.10607388179,0.0152699574126,2.11901607822,-0.00747162669163,-0.251005103152,-0.46144140587,-0.0076110529516,-0.549091070188,-0.0618898867747,0.114825635889,-0.209122804584,0.573854725628,0.818939384994,0.00312801563996,0.0,0.818907149184,-0.573786869405,-0.0118514309332,0.0,-0.00791094156838,0.00936273427845,-0.999924875283,0.0,0.536502245276,0.0967146969989,0.304406672736,1.0,-0.127981142857,-0.168203787755,2.563
0.297259310888,0.0119788424455,-0.126614955352,-2.1147924838,0.0141697321753,2.1207611247,-0.010884198002,-0.250740672858,-0.455515528072,-0.00948797827255,-0.556031537555,-0.0620882466967,0.0994611403393,-0.212003114855,0.573945292122,0.818874987326,0.00336209524069,0.0,0.818846820917,-0.57387787948,-0.0116107802938,0.0,-0.00757849138803,0.00941717499675,-0.999926938973,0.0,0.53453116046,0.0939895636858,0.304534621548,1.0,-0.129087428571,-0.169657763265,2.579
0.292959819081,0.00431244879554,-0.126643138643,-2.12433044393,0.0130800558682,2.12237283147,-0.0146929421679,-0.253069668484,-0.453462387813,2.22003939889e-05,-0.559216500267,-0.0639746305433,0.101303716859,-0.225484227879,0.573921750431,0.818892126165,0.0032026534709,0.0,0.818860614879,-0.573853324101,-0.0118491653682,0.0,-0.00786548631638,0.0094232019455,-0.999924665857,0.0,0.532267625076,0.091100256076,0.304439361994,1.0,-0.12998,-0.170830857143,2.596
0.288684960371,-0.00344530855275,-0.12664120514,-2.13368424024,0.0119311427444,2.12404932716,-0.0185062644917,-0.253156386149,-0.462797140686,0.00500227363342,-0.538314481011,-0.0640239914802,0.103592617871,-0.223441827584,0.573814395918,0.818967142696,0.00325655080107,0.0,0.818936359613,-0.573745826343,-0.0118200067766,0.0,-0.00781191514965,0.00944957983986,-0.999924836887,0.0,0.530057363177,0.0882703612734,0.30446442685,1.0,-0.12998,-0.170830857143,2.613
0.284573765866,-0.010712731018,-0.126648627708,-2.14234732823,0.010821324134,2.12568136683,-0.0221173269731,-0.263064022142,-0.448350560658,-0.00141552965221,-0.54327763477,-0.0729341922269,0.0941589311205,-0.22366863363,0.57375435048,0.8190086261,0.0034003793689,0.0,0.818980450512,-0.573686212007,-0.0116575612172,0.0,-0.00759703870322,0.00947360308804,-0.999926265205,0.0,0.528025246771,0.085583136928,0.304521770356,1.0,-0.12998,-0.170830857143,2.629
0.280072692927,-0.0183689149937,-0.126696759552,-2.15170280977,0.00964395553511,2.12706626172,-0.0260512161724,-0.266533706235,-0.44732471473,-0.00446650018145,-0.54805027607,-0.0696423515282,0.0761766431417,-0.232867485084,0.573743758241,0.819017006449,0.0031606845809,0.0,0.818984766843,-0.57367529063,-0.0118894702191,0.0,-0.00792462423512,0.00941024302787,-0.999924320965,0.0,0.525733836471,0.0826418734731,0.304431212057,1.0,-0.12998,-0.170830857143,2.646
0.276081706535,-0.0251510941575,-0.126780853417,-2.15966931665,0.00863665617187,2.12838431063,-0.0295132334367,-0.265745315767,-0.458437845118,-0.00700902941515,-0.51701967362,-0.0710765964167,0.10040110351,-0.221547589686,0.573798538309,0.81897824775,0.00325792089187,0.0,0.818947471182,-0.573729952451,-0.0118206601796,0.0,-0.00781184716504,0.00945092556822,-0.999924824699,0.0,0.523817760046,0.0800582620844,0.304489959602,1.0,-0.12998,-0.170830857143,2.661
0.271461416986,-0.032791689842,-0.126892512153,-2.16862777715,0.00748023600619,2.12994922777,-0.0334521552683,-0.274064523493,-0.443240716334,-0.00367785589667,-0.53400266587,-0.0678598607149,0.0850707448887,-0.235587199398,0.573927219154,0.81888740323,0.0034226958225,0.0,0.818859424116,-0.57385886836,-0.0116614596986,0.0,-0.00758542414195,0.00949571868825,-0.999926143606,0.0,0.521672893383,0.0770981103647,0.304553297818,1.0,-0.12998,-0.170830857143,2.678
0.266281140092,-0.0412828001414,-0.126934790466,-2.178780553,0.00625233528875,2.13135905528,-0.038000933278,-0.272767842657,-0.443382570996,-0.000361765416743,-0.536116345292,-0.0623255697726,0.0812067426082,-0.241084835359,0.573913927581,0.818897285753,0.00328420721505,0.0,0.818866140058,-0.573844370999,-0.0119008168004,0.0,-0.00786107410257,0.00951955387758,-0.9999237879,0.0,0.519123568082,0.0738466286359,0.304484395723,1.0,-0.12998,-0.170830857143,2.697
0.261915559442,-0.048395594539,-0.126930529642,-2.18703493853,0.0051967703937,2.13268793838,-0.0417777039878,-0.274112219985,-0.451482213019,0.000765975809915,-0.505895901728,-0.0618470961016,0.0821048113668,-0.235850453929,0.573900634977,0.818906030549,0.00342362462875,0.0,0.81887704609,-0.573831015107,-0.0117939132735,0.0,-0.00769367283445,0.00957224623486,-0.999924586907,0.0,0.517084753004,0.0711670128147,0.304536197169,1.0,-0.12998,-0.170830857143,2.713
0.257192256134,-0.0559602143322,-0.126940826619,-2.19573323778,0.00400930370085,2.13397620004,-0.0459566549581,-0.276317388441,-0.445994492929,-0.00136895380483,-0.519804201019,-0.069196709138,0.0645856565563,-0.248521750726,0.573794829884,0.818979827016,0.00350471702213,0.0,0.818952512096,-0.573725728512,-0.0116755418099,0.0,-0.00755143227355,0.00956974658338,-0.99992569515,0.0,0.514906260027,0.0682843621174,0.304599568544,1.0,-0.12998,-0.170830857143,2.73
0.252411955376,-0.0634362926315,-0.12699458165,-2.20460697024,0.00289182337047,2.13508813037,-0.0500760101846,-0.28327976529,-0.442562439509,-0.00171274497782,-0.518682400691,-0.065812430055,0.0671020331575,-0.239962683112,0.573842001513,0.818947515434,0.00332733621617,0.0,0.818916645205,-0.573771951018,-0.0119173542761,0.0,-0.00785070663291,0.00956367357248,-0.999923448347,0.0,0.512612796719,0.0653730211597,0.304504575194,1.0,-0.12998,-0.170830857143,2.747
0.247830386089,-0.0704609237491,-0.127083896562,-2.21261950828,0.00182584721974,2.13623819565,-0.0540552628624,-0.28778392927,-0.43995077735,-0.00559665207068,-0.485492853535,-0.0720137153659,0.0723273138909,-0.24280868915,0.57389012417,0.818913305537,0.00344532957444,0.0,0.81888433236,-0.573820093525,-0.0118193647821,0.0,-0.0077021840353,0.00960452804764,-0.999924211829,0.0,0.510582391431,0.0626097721771,0.304556106607,1.0,-0.12998,-0.170830857143,2.763
0.242907523171,-0.0779093153177,-0.127182422984,-2.22107047963,0.000707686798437,2.13739344725,-0.0583812998943,-0.287528327738,-0.436295556999,-0.00481899274909,-0.503491118276,-0.0723367359641,0.0649979712725,-0.261677433852,0.573907979465,0.818900267701,0.00356785195363,0.0,0.818873106508,-0.573837808381,-0.0117367802639,0.0,-0.00756402978537,0.00965763579893,-0.999924754931,0.0,0.508415722599,0.0596722281031,0.304608590542,1.0,-0.12998,-0.170830857143,2.78
0.237730305432,-0.0857377852711,-0.127163200389,-2.23015957648,-0.000475721507557,2.13842113642,-0.0628923046824,-0.285639448094,-0.429070164851,0.00068315642205,-0.502231433308,-0.0699213743843,0.057452100288,-0.257976982191,0.573844727659,0.81894520038,0.00342552380572,0.0,0.818915151512,-0.573773758228,-0.0119329750509,0.0,-0.00780712728769,0.00965307401622,-0.999922930493,0.0,0.505998642868,0.0566614137061,0.304535484114,1.0,-0.12998,-0.170830857143,2.798
0.233072710334,-0.0926867322233,-0.127160321867,-2.23799200498,-0.00152727626068,2.13936999787,-0.0670155884,-0.293578116316,-0.440717964433,4.23007597801e-05,-0.480879076991,-0.0609876399992,0.0649574477292,-0.256927628277,0.573747517674,0.819013068735,0.00348225583428,0.0,0.818983791206,-0.573676397878,-0.0119032416039,0.0,-0.00775137168831,0.00968155280749,-0.999923088928,0.0,0.503928955766,0.0539841177233,0.304564451324,1.0,-0.12998,-0.170830857143,2.814
0.227985237827,-0.100032677349,-0.127190656467,-2.2461537195,-0.00269970044523,2.14037632692,-0.071400604202,-0.298102695472,-0.427228698433,-0.000889338338676,-0.487246450617,-0.0668686825226,0.0519348463638,-0.25307833785,0.573751484208,0.819009840098,0.00358651548854,0.0,0.81898275972,-0.573681066966,-0.0117481738242,0.0,-0.00756449957306,0.00967801285267,-0.999924554361,0.0,0.501775463248,0.0510762989362,0.30463212349,1.0,-0.12998,-0.170830857143,2.831
0.222849699935,-0.107348719242,-0.12731206123,-2.2544881668,-0.00382137705216,2.14117015005,-0.0758227786876,-0.298299701317,-0.432086380374,-0.00774926520352,-0.485757668332,-0.060129046955,0.0434287169214,-0.265714823155,0.573851977855,0.818939988462,0.00345683553567,0.0,0.818910187885,-0.573780695649,-0.0119400326537,0.0,-0.00779485478037,0.00968283561658,-0.999922738482,0.0,0.499502279641,0.0481235606975,0.304570571437,1.0,-0.12998,-0.170830857143,2.848
0.217910102443,-0.114167682406,-0.127457079955,-2.26218306051,-0.00492619761673,2.14196424127,-0.0800724965533,-0.302972852678,-0.428789744656,-0.00732003261116,-0.470062977826,-0.0691797939092,0.0527221639453,-0.261977282911,0.573959762371,0.818864736741,0.00338836284567,0.0,0.81883386304,-0.573888493987,-0.0119936695816,0.0,-0.00787680228674,0.00965857593881,-0.999922330932,0.0,0.497411431325,0.0453008073666,0.304535526478,1.0,-0.12998,-0.170830857143,2.864
0.212405964839,-0.121888215247,-0.127465671147,-2.27050108734,-0.00606735314186,2.14293655626,-0.0849158298554,-0.310474001525,-0.416273688242,0.000674895960635,-0.471856419732,-0.0619520238349,0.0395282391138,-0.273507551629,0.573902318394,0.818903776198,0.00367167157358,0.0,0.81887756512,-0.573831291959,-0.011744301315,0.0,-0.00751067725675,0.00974691888908,-0.999924290784,0.0,0.49516455038,0.0422799946185,0.304664287789,1.0,-0.12998,-0.170830857143,2.882
0.207141108831,-0.129068503584,-0.127471426198,-2.2785469485,-0.00717303440272,2.14357171349,-0.0894833363913,-0.315211839589,-0.432396892183,0.000448416578086,-0.454271851297,-0.0690785270155,0.0380820415423,-0.270191957271,0.573884161971,0.818917099224,0.00353555341758,0.0,0.81888814203,-0.573812362153,-0.0119302466403,0.0,-0.00774128775746,0.00974198992797,-0.999922580051,0.0,0.492896604363,0.0394094306178,0.304603331182,1.0,-0.12998,-0.170830857143,2.899
0.202407782421,-0.135435013814,-0.127494670858,-2.28559304408,-0.0081768070834,2.14417898263,-0.093623649437,-0.315972174145,-0.421517300859,-0.00529312685269,-0.466019304913,-0.067256096012,0.0390577502461,-0.269003977155,0.573847103191,0.818943269279,0.00348866212522,0.0,0.81891344141,-0.57377515497,-0.0119830679776,0.0,-0.00781189561719,0.00973354855412,-0.999922113127,0.0,0.490913335314,0.0368463749579,0.304579074554,1.0,-0.12998,-0.170830857143,2.914
0.196711944877,-0.143110876117,-0.12754297694,-2.29370120071,-0.00930919837532,2.14499855118,-0.0986530614993,-0.321571285834,-0.425433314855,-0.00214102234412,-0.444656086863,-0.0611443595946,0.0433312180553,-0.280238548091,0.573812003785,0.81896654507,0.00378540231782,0.0,0.818941600449,-0.573740341857,-0.0117227164742,0.0,-0.00742881761757,0.00982684805963,-0.999924119984,0.0,0.488656608705,0.0337990610838,0.304715437413,1.0,-0.12998,-0.170830857143,2.932
0.19118946131,-0.150163661307,-0.127685732972,-2.30142387453,-0.0104142875096,2.14556111989,-0.103392289593,-0.331534375644,-0.416695625988,-0.00819112653961,-0.45817114279,-0.0633009937749,0.0159193838721,-0.286221008594,0.573960087188,0.818862998328,0.00373566387859,0.0,0.818836872255,-0.573887865537,-0.0118169931036,0.0,-0.00753279126399,0.00984157119894,-0.999923197317,0.0,0.486440650105,0.0308235140758,0.304683222957,1.0,-0.12998,-0.170830857143,2.949
0.186055153609,-0.156860273383,-0.12768544003,-2.30871524521,-0.0114969459666,2.14600034713,-0.107960038956,-0.318810773105,-0.426650619783,0.00267179381235,-0.448573417699,-0.058417575401,0.0232790478994,-0.278715796191,0.573824827068,0.818958300901,0.00362161938409,0.0,0.818930285879,-0.573752500279,-0.0119164674246,0.0,-0.00768132462744,0.00980400741429,-0.999922436337,0.0,0.484306311981,0.02813759779,0.304649653267,1.0,-0.12998,-0.170830857143,2.965
0.180550965907,-0.163924170236,-0.127687187001,-2.31621903306,-0.0125648415042,2.14652918517,-0.112804639659,-0.32696326714,-0.419397136393,-0.00193954269494,-0.429104060945,-0.0562356215469,0.0390596044411,-0.287566677735,0.573764802833,0.818999968393,0.00370805937516,0.0,0.818973209497,-0.573692348538,-0.011862472583,0.0,-0.00758822547591,0.00984326004341,-0.99992276155,0.0,0.482119017462,0.0253003853501,0.30468935837,1.0,-0.12998,-0.170830857143,2.982
0.174889733052,-0.170945498275,-0.127721227679,-2.32358721125,-0.0135889090447,2.14706582244,-0.117809277846,-0.333510452811,-0.408127018245,-0.00136004511662,-0.435579750257,-0.0579141560774,0.0266899106833,-0.291174226017,0.573744430804,0.819013413109,0.00388640838821,0.0,0.818989257664,-0.573671752584,-0.0117500220648,0.0,-0.00739404532239,0.00992462752219,-0.999923411998,0.0,0.479965954162,0.0224068550081,0.304754610126,1.0,-0.12998,-0.170830857143,2.999
0.169510300214,-0.177465377855,-0.127817240136,-2.33068090316,-0.0146506199077,2.14735237061,-0.122441141594,-0.340511762456,-0.407313554494,-0.00915453962229,-0.435408000824,-0.0695270557197,0.0189680666171,-0.29419703951,0.57383061447,0.818953880842,0.00370322177149,0.0,0.818926329539,-0.573757224001,-0.0119608359608,0.0,-0.00767077047081,0.00989635019714,-0.999921607694,0.0,0.477820550604,0.0196388648477,0.304668065071,1.0,-0.12998,-0.170830857143,3.015
0.163326622447,-0.184847348032,-0.127949637992,-2.33849380183,-0.0158291184741,2.14774195132,-0.12781612381,-0.342791643094,-0.416735128888,-0.00380628658269,-0.434241363302,-0.0635814545743,0.0138003195325,-0.301791048831,0.57392419606,0.818888352892,0.00369182545645,0.0,0.818860465469,-0.573850591564,-0.0119909780626,0.0,-0.00770086431863,0.00990519306193,-0.999921288822,0.0,0.475463867149,0.0164861417783,0.304657979921,1.0,-0.12998,-0.170830857143,3.033
0.156911778038,-0.192601270715,-0.127950319639,-2.34640863712,-0.0169855455973,2.14822068426,-0.133527837301,-0.344347430158,-0.404904585203,0.000723292837913,-0.412146701246,-0.0612104211925,0.0301061577005,-0.291886078897,0.573826165241,0.818955921073,0.00393425017139,0.0,0.818932193264,-0.573753056612,-0.0117575407711,0.0,-0.00737176149967,0.0099688605865,-0.999923136522,0.0,0.473079643907,0.013323358931,0.304768160854,1.0,-0.12998,-0.170830857143,3.052
0.152069123038,-0.19826506519,-0.12797185942,-2.35233826702,-0.017902818061,2.14841545985,-0.137851455618,-0.350304301754,-0.405455937916,-0.00141194150831,-0.429966660059,-0.0682235145253,0.0058867400153,-0.308102270182,0.573735822252,0.819019452467,0.00388453938349,0.0,0.818994961675,-0.573662734524,-0.011792653273,0.0,-0.00743013999488,0.00994747732537,-0.999922917386,0.0,0.471241157563,0.0109411341767,0.30475569806,1.0,-0.12998,-0.170830857143,3.066
0.145788329856,-0.20547262127,-0.128061097309,-2.35998395816,-0.0190117082911,2.148602962,-0.143333977154,-0.349564728944,-0.398417955336,-0.00562105253935,-0.419078268663,-0.0594835728414,0.0138160323836,-0.301960207956,0.573802335754,0.818973368595,0.00377464127974,0.0,0.818946189687,-0.573727964608,-0.0120044960463,0.0,-0.00766589289901,0.00997962810318,-0.99992081742,0.0,0.468836470071,0.00786250809498,0.304673975668,1.0,-0.12998,-0.170830857143,3.084
0.140805900516,-0.211076593184,-0.128192637156,-2.36573080757,-0.0198472899271,2.14876607124,-0.147722170132,-0.359671051391,-0.404921634897,-0.00878834706681,-0.405569446648,-0.0627621992732,0.012345047386,-0.320093483036,0.573893579412,0.818909098031,0.00384650135869,0.0,0.818882545528,-0.573818522677,-0.012017760388,0.0,-0.00763440657854,0.0100469417843,-0.999920384229,0.0,0.467026884298,0.00542021456466,0.304689054946,1.0,-0.12998,-0.170830857143,3.098
0.134396225672,-0.21826809923,-0.128234716166,-2.37288766908,-0.0209510313813,2.14901489888,-0.153298586062,-0.352369966936,-0.395844676147,0.00112499888036,-0.399949455049,-0.0594941557447,0.0105410603941,-0.308297477297,0.573951884639,0.818867261045,0.00404843295627,0.0,0.818844441874,-0.573877595455,-0.0117911978648,0.0,-0.00733226209842,0.0100828111865,-0.999922284406,0.0,0.464771099692,0.00235947374897,0.304797103276,1.0,-0.12998,-0.170830857143,3.116
0.128737594766,-0.224586851822,-0.128228389849,-2.37943470399,-0.0219998376948,2.14909883308,-0.158440883269,-0.358594937027,-0.393754693052,0.000592257735843,-0.4190148266,-0.068589097863,0.000474186034544,-0.317510502477,0.573746009903,0.819012059702,0.00393815756566,0.0,0.818987578461,-0.57367181547,-0.0118634464979,0.0,-0.00745723932604,0.0100321003692,-0.99992187022,0.0,0.462652194773,-0.000304165887246,0.304750266022,1.0,-0.12998,-0.170830857143,3.132
0.122879067335,-0.230866622613,-0.128262008221,-2.38587383595,-0.0229748557085,2.14911294264,-0.163581400369,-0.367354023379,-0.392418174192,-0.00356975886965,-0.401843275475,-0.060438006677,-0.000395837665248,-0.32759493952,0.573768157743,0.818996822269,0.00387984212711,0.0,0.818970914395,-0.573693275408,-0.0119755596361,0.0,-0.00758225193076,0.0100488661167,-0.999920761733,0.0,0.460539362185,-0.0030438022374,0.304715133926,1.0,-0.12998,-0.170830857143,3.148
0.116628943683,-0.237554629794,-0.12836972033,-2.39254843109,-0.023989939272,2.14914293831,-0.169096222836,-0.369616828864,-0.398803960363,-0.0124450864678,-0.388269422781,-0.0591051002344,0.000201811163928,-0.328449365968,0.573834587904,0.818949893235,0.00396042878398,0.0,0.818924962423,-0.573759307186,-0.0119545070587,0.0,-0.00751795414807,0.0101033981465,-0.999920697711,0.0,0.458338725688,-0.00596854581438,0.304746872928,1.0,-0.12998,-0.170830857143,3.165
0.110270907179,-0.244184940853,-0.128499588949,-2.39901287623,-0.0250597241241,2.14923170513,-0.174705225851,-0.369670318139,-0.390521676867,-0.00171658171006,-0.387936057628,-0.0578980930663,0.00120360526204,-0.330926551004,0.573905213901,0.818899599153,0.00412296803006,0.0,0.81887796939,-0.5738309941,-0.011730658941,0.0,-0.007240484463,0.0101086886406,-0.999922691911,0.0,0.456203565619,-0.00893336182745,0.304837748523,1.0,-0.12998,-0.170830857143,3.182
0.103996528647,-0.250740612366,-0.128502079601,-2.4056643561,-0.0260394177852,2.14919997485,-0.180336420079,-0.368638231768,-0.387696244083,-0.00122824923538,-0.401736123105,-0.0525826107805,-0.000117984842167,-0.331938792459,0.573819942251,0.818959468954,0.00409987643583,0.0,0.818936815114,-0.573744806222,-0.0118379510963,0.0,-0.00734266070111,0.0101505875954,-0.999921522373,0.0,0.45395812442,-0.0117598344206,0.304787925393,1.0,-0.12998,-0.170830857143,3.199
0.0979129431097,-0.256839440784,-0.12854660108,-2.41181073072,-0.0269924667357,2.14915441062,-0.185746819803,-0.378801255851,-0.386036493325,-0.00350184715723,-0.373237641121,-0.0490392084797,-0.00109498953259,-0.33776845372,0.573813285147,0.818964259077,0.00407468348032,0.0,0.818940874212,-0.573737681684,-0.0119022713143,0.0,-0.00740987801777,0.0101668019975,-0.999920861791,0.0,0.451860676838,-0.0144983453882,0.304745948377,1.0,-0.12998,-0.170830857143,3.215
0.0906699256449,-0.264089739178,-0.128685848308,-2.41888968215,-0.0281307763314,2.14905658064,-0.192156320045,-0.383237559153,-0.377162092558,-0.0124250139095,-0.366182179093,-0.0530227339299,-0.00696409038241,-0.337621732776,0.57389839566,0.818904196097,0.00415884293713,0.0,0.818882163839,-0.573822845576,-0.0118359851205,0.0,-0.0073062394594,0.0101984515269,-0.999921302129,0.0,0.449415783784,-0.0177670554131,0.304778357976,1.0,-0.12998,-0.170830857143,3.234
0.0844268172323,-0.270168715046,-0.128802492548,-2.42464385168,-0.0290612580244,2.14899684732,-0.19772746699,-0.390874660758,-0.38268586343,-0.00375530348098,-0.363670822772,-0.0611766087724,-0.00867473527788,-0.333892788975,0.5739586001,0.818860963224,0.00435834597181,0.0,0.818842528881,-0.5738838376,-0.0116189818445,0.0,-0.00701328138036,0.0102378107009,-0.999922997593,0.0,0.447413367622,-0.020557117823,0.304876280933,1.0,-0.12998,-0.170830857143,3.25
0.0775475444117,-0.276926360049,-0.128789412423,-2.43133337905,-0.0301124200639,2.14877767915,-0.203987099388,-0.384704606038,-0.373520980149,0.000119885497615,-0.374780718219,-0.0599007556015,-0.0145513188237,-0.351619895512,0.573789106405,0.818980068632,0.00429598124693,0.0,0.818960286855,-0.573713785165,-0.0117170033352,0.0,-0.00713146583625,0.0102415240888,-0.999922123657,0.0,0.445036476156,-0.0235321802937,0.304827893316,1.0,-0.12998,-0.170830857143,3.268
0.0716106901389,-0.282472775224,-0.128825428689,-2.43679247817,-0.0310221061595,2.14857299007,-0.209259405979,-0.402500921217,-0.36958870845,-0.002104953667,-0.354287755294,-0.0645835891067,-0.0186523160232,-0.348525590016,0.573790592132,0.818979385473,0.00422722756227,0.0,0.818958466755,-0.57371514597,-0.011777432491,0.0,-0.00722038896088,0.0102199005306,-0.999921706743,0.0,0.44306818862,-0.0261041230033,0.304788511929,1.0,-0.12998,-0.170830857143,3.283
0.0648668125214,-0.288782003399,-0.128918092732,-2.44285385451,-0.0319784648891,2.14835291539,-0.21531450972,-0.398916745313,-0.372294276357,-0.00888864894496,-0.360509882192,-0.0574184385562,-0.0172377641379,-0.362697594689,0.57381343522,0.818962995323,0.00430125038111,0.0,0.818943006016,-0.573737697125,-0.0117539225589,0.0,-0.00715837595815,0.0102672352737,-0.999921667699,0.0,0.440866088221,-0.0290135109268,0.304799183505,1.0,-0.12998,-0.170830857143,3.3
0.057196621462,-0.295803071795,-0.129064887335,-2.44937171982,-0.0330016850037,2.14810106079,-0.222144466237,-0.403971042553,-0.362257792852,0.000670413126769,-0.341949950342,-0.0584917442069,-0.0117043934668,-0.35066064225,0.573953267359,0.818863729104,0.00453728404367,0.0,0.818847519751,-0.573877831773,-0.0115637580125,0.0,-0.00686542746025,0.0103525997994,-0.999922841815,0.0,0.438466185573,-0.0323095370238,0.304897489111,1.0,-0.12998,-0.170830857143,3.319
0.0512276125039,-0.301280948147,-0.129065986015,-2.45455911823,-0.0338479278305,2.14780867439,-0.227620064883,-0.399288066412,-0.365483631328,2.89814339143e-05,-0.349638758491,-0.0627008807394,-0.0209061107445,-0.366302277682,0.573812341348,0.818962409251,0.00455148893392,0.0,0.818946445504,-0.573736979546,-0.0115474931913,0.0,-0.00684573713302,0.0103537191302,-0.999922965224,0.0,0.436389877344,-0.0349750948011,0.30490681624,1.0,-0.12998,-0.170830857143,3.335
0.0438474723985,-0.307746298517,-0.129106234096,-2.46085123591,-0.0349383772201,2.14734241231,-0.234173417392,-0.406873766362,-0.362960294879,-0.00106491272725,-0.3440028926,-0.0555649380632,-0.0274094422097,-0.36317080004,0.573827632602,0.818952644461,0.0043773386669,0.0,0.818933650939,-0.573751657563,-0.0117242358171,0.0,-0.00709022511963,0.0103126389691,-0.999921686026,0.0,0.434116984113,-0.0378787591822,0.30482596431,1.0,-0.12998,-0.170830857143,3.352
0.0376685183586,-0.313128129992,-0.129220558344,-2.46588434347,-0.0357268675109,2.14703643471,-0.239767220261,-0.408652547099,-0.357296289523,-0.0163299379428,-0.330646636307,-0.0469143820081,-0.0187545988028,-0.375071280988,0.573875280921,0.818918702169,0.00447974185434,0.0,0.818900949371,-0.573798842067,-0.0116991821598,0.0,-0.00701034335278,0.0103825362019,-0.999921525935,0.0,0.432182245997,-0.0404561842619,0.304843526762,1.0,-0.12998,-0.170830857143,3.367
0.0305850757036,-0.319162810144,-0.129325154694,-2.47147334882,-0.0366541033142,2.14664462709,-0.246151922297,-0.410637001211,-0.345823315997,-0.00757802079646,-0.32529210569,-0.0489568593256,-0.0220263691099,-0.373532569869,0.573923803096,0.818884247798,0.00456112364341,0.0,0.818867755658,-0.573847408653,-0.0116403276123,0.0,-0.00691482506942,0.0104158187105,-0.999921844903,0.0,0.429998343433,-0.0433824352674,0.304873026662,1.0,-0.12998,-0.170830857143,3.384
0.0231350876526,-0.325518144068,-0.129323021602,-2.47721550634,-0.0376644151379,2.14624828169,-0.253005096912,-0.422111685021,-0.351402505243,-0.00284265081626,-0.313066560103,-0.0534297922667,-0.0220067743846,-0.388768887602,0.573758438208,0.818999460471,0.00467816577799,0.0,0.818985874978,-0.573683867691,-0.0113887417859,0.0,-0.00664371305293,0.0103659379696,-0.999924201331,0.0,0.427608688062,-0.04656256818,0.304963932635,1.0,-0.12998,-0.170830857143,3.403
0.0154849486392,-0.331761710352,-0.129362617744,-2.48314193854,-0.0386222805655,2.1456678163,-0.259910804421,-0.42324839656,-0.343973006226,-0.00316464614009,-0.326219742776,-0.063475307318,-0.0337622097832,-0.384787958694,0.57376258876,0.818997094224,0.00458238945308,0.0,0.818981085643,-0.573686469538,-0.0116001262887,0.0,-0.0068717471981,0.0104088091803,-0.999922214866,0.0,0.425338273312,-0.0494554171559,0.304886563139,1.0,-0.12998,-0.170830857143,3.42
0.00815013814492,-0.33764269214,-0.129543297247,-2.48857290732,-0.0395141912019,2.14515066561,-0.266488135697,-0.430770144953,-0.345578128497,-0.0120690594268,-0.312796645643,-0.0432881754089,-0.0222829074854,-0.390238456747,0.573928708589,0.818880407249,0.00463281589992,0.0,0.818864522291,-0.573851603316,-0.0116609778831,0.0,-0.00689053014984,0.0104864204522,-0.999921274691,0.0,0.423105390976,-0.0524247269338,0.304874440404,1.0,-0.12998,-0.170830857143,3.437
0.000871438341153,-0.343469638545,-0.129580836302,-2.4938451512,-0.0403755338477,2.1446429224,-0.273158483262,-0.420327865684,-0.342618083028,-0.0020151854498,-0.311733090773,-0.0492910959563,-0.0345182008671,-0.405649461611,0.5738777891,0.818915614524,0.00471660557352,0.0,0.818901009006,-0.573800731742,-0.0116019223406,0.0,-0.00679473445351,0.0105207211619,-0.999921569929,0.0,0.420919798701,-0.0552891370422,0.304903771442,1.0,-0.12998,-0.170830857143,3.454
-0.00565306986735,-0.348495666481,-0.12960517853,-2.49840428515,-0.0411859771485,2.14413078673,-0.279088669561,-0.440701369385,-0.330666003453,-0.00723889915656,-0.300003618761,-0.063382439696,-0.0298620352971,-0.393038782731,0.573851442406,0.818934190693,0.00469683550205,0.0,0.818919425311,-0.573774597855,-0.0115945075804,0.0,-0.00680034470813,0.0105000568877,-0.999921748997,0.0,0.418985772724,-0.057841917488,0.304908841051,1.0,-0.12998,-0.170830857143,3.469
-0.0130974427328,-0.354263110222,-0.129687738962,-2.50345082369,-0.0420684586219,2.14360606087,-0.285901816865,-0.435023439359,-0.333493601653,-0.0124777556943,-0.296235506872,-0.0408485145714,-0.0312503001554,-0.397626449386,0.573846497797,0.818936830123,0.00483860875737,0.0,0.818924880034,-0.573770792972,-0.0113958279756,0.0,-0.0065563370852,0.0105021152677,-0.999923357072,0.0,0.416826250237,-0.0607531451524,0.304992924069,1.0,-0.12998,-0.170830857143,3.486
-0.0210936070685,-0.360195663914,-0.129827972493,-2.50894153445,-0.0430146946723,2.14287766854,-0.293187140523,-0.442214154927,-0.331844164075,-0.00124382503775,-0.303248965721,-0.051590842151,-0.0423962959859,-0.400407842959,0.573903735222,0.818897252245,0.00474761685302,0.0,0.81888287823,-0.573826315131,-0.0116163120579,0.0,-0.00678838923854,0.0105545902414,-0.999921256098,0.0,0.414416455693,-0.0638564613048,0.30491548791,1.0,-0.12998,-0.170830857143,3.504
-0.0276832940972,-0.365096039965,-0.129822707789,-2.51337506239,-0.0437894525616,2.1423166301,-0.299341943513,-0.444315538034,-0.321869177096,-0.000757930200646,-0.28805927405,-0.0587712748071,-0.0336005027758,-0.408984207647,0.573737685899,0.819013816507,0.00470988863613,0.0,0.818998795272,-0.573660164389,-0.0116505809641,0.0,-0.00684024298653,0.0105419734462,-0.999921035818,0.0,0.412462089928,-0.0663484065148,0.304895026316,1.0,-0.12998,-0.170830857143,3.519
-0.0362605147401,-0.371230114175,-0.1298703751,-2.51878757269,-0.0447477515333,2.14161110054,-0.307164185095,-0.450794133944,-0.317161283326,-0.00791318899205,-0.285609865008,-0.052411262508,-0.0408351002462,-0.413265054182,0.573750872964,0.81900436494,0.00474688140806,0.0,0.818990163611,-0.573673763707,-0.0115875641886,0.0,-0.00676723461651,0.0105362271048,-0.999921593153,0.0,0.410016687493,-0.0695983287668,0.304919403072,1.0,-0.12998,-0.170830857143,3.538
-0.0426533490471,-0.375660211472,-0.129998868171,-2.52274320764,-0.0454031095703,2.14101677934,-0.312935221349,-0.460065036666,-0.310299946014,-0.00820209807854,-0.281035758682,-0.039945729625,-0.0469229548189,-0.413642796798,0.57390747302,0.818894494909,0.00477132272824,0.0,0.818879864075,-0.573829101766,-0.0116908973236,0.0,-0.00683581923417,0.0106168378545,-0.999920273987,0.0,0.408182153007,-0.0720265292838,0.304899358838,1.0,-0.12998,-0.170830857143,3.552
-0.0503754775968,-0.381068488679,-0.1300740016,-2.52735241684,-0.0461984581658,2.14039215025,-0.320117405524,-0.451514105268,-0.318360518432,-0.00424345707919,-0.265708701779,-0.0495381418266,-0.0386604030662,-0.431443703869,0.573864592428,0.818923658676,0.00492115018829,0.0,0.818911812775,-0.573787107451,-0.0115128242222,0.0,-0.00660455876009,0.0106369949967,-0.999921613998,0.0,0.406032876967,-0.0749188287354,0.304976234269,1.0,-0.12998,-0.170830857143,3.569
-0.0577393029138,-0.386064838287,-0.130099901217,-2.53178264129,-0.0470100297369,2.13970791518,-0.326893759928,-0.464127668659,-0.313857701307,-0.00360773879907,-0.276838733169,-0.0555604259175,-0.0452364831383,-0.425221282615,0.573821909269,0.818953889523,0.00486725574544,0.0,0.818941153478,-0.573744281307,-0.0115600047421,0.0,-0.00667467920514,0.0106195844867,-0.999921333447,0.0,0.403932903781,-0.077633247428,0.304952759457,1.0,-0.12998,-0.170830857143,3.585
