nelsonifechukwu/NELSON_IML_WORK/CNN-GradCAM/train2dof/data_sample_2022-02-22-14-17-41/robot_state.csv
position_joint1,position_joint2,position_joint3,position_joint4,position_joint5,position_joint6,position_joint7,velocity_joint1,velocity_joint2,velocity_joint3,velocity_joint4,velocity_joint5,velocity_joint6,velocity_joint7,ee_T_00,ee_T_10,ee_T_20,ee_T_30,ee_T_01,ee_T_11,ee_T_21,ee_T_31,ee_T_02,ee_T_12,ee_T_22,ee_T_32,ee_T_03,ee_T_13,ee_T_23,ee_T_33,v_x,v_y,time
0.465059892023,0.547716786234,-0.124013039939,-1.3558288491,0.0795005694709,1.89411402212,0.159165433694,0.000340714156546,-0.00233349747648,-0.000630135855493,-0.00056742393253,4.71151929799e-05,0.00462197269777,-0.00102548145391,0.57383919584,0.81895377557,0.00200940258594,0.0,0.818911546355,-0.573780517997,-0.0118550965769,0.0,-0.00855598477401,0.00844860472702,-0.999927705488,0.0,0.661691630422,0.260869521804,0.303263960184,1.0,0.0,0.0,0.0
0.465059892023,0.547724941488,-0.124015350485,-1.35583129882,0.0794971760037,1.89411084744,0.159165315223,0.000740733447931,0.00183397836058,-0.00125572078164,-0.00186116598176,-0.00043877961302,0.000135228396834,-0.00143079964027,0.573839940495,0.818953288533,0.00199519306735,0.0,0.818910909898,-0.573781355186,-0.011858540891,0.0,-0.00856695141818,0.00843895224542,-0.9999276931,0.0,0.661690939254,0.260867018279,0.303256811396,1.0,-0.00018,-0.000236571428571,0.01
0.465056792129,0.547722399842,-0.124012700336,-1.35583663674,0.0794977080846,1.89411084198,0.159165269975,0.00100755764211,0.00160149017562,0.0003156757023,-0.00134961316783,2.23478163672e-05,0.000255475667923,-0.00995674723774,0.573841018426,0.81895253618,0.00199398025771,0.0,0.818910117989,-0.573782414499,-0.0118619714668,0.0,-0.00857044581771,0.00843993889012,-0.999927654828,0.0,0.661689951468,0.260865985917,0.303255984032,1.0,-0.00052,-0.000683428571429,0.027
0.465059457468,0.547700251815,-0.124013020183,-1.35585076784,0.0794973133176,1.89411245718,0.159166942662,0.00110665899112,-0.00125301784335,-0.000267055689172,-0.00288194782325,-0.00016148095118,1.35462013457e-05,-0.000567170717227,0.573841067765,0.818952480008,0.00200283217563,0.0,0.818910170275,-0.573782421242,-0.011858035038,0.0,-0.00856214215506,0.00844492971683,-0.999927683827,0.0,0.661687021359,0.260866225617,0.30326509816,1.0,-0.00086,-0.00113028571429,0.044
0.465058783316,0.547601055168,-0.124010436042,-1.35595043176,0.0794948182731,1.89413094196,0.159169207817,-0.00125751098884,-0.00441475408389,0.000153895680916,-0.0111443335273,-0.00135853342761,-2.43951619724e-05,0.000649228442636,0.573846402076,0.81894869438,0.00202230050934,0.0,0.818906570465,-0.573787609345,-0.0118555941296,0.0,-0.00854891695205,0.00845952808244,-0.999927673586,0.0,0.661670206543,0.260857601985,0.30328944786,1.0,-0.0012,-0.00157714285714,0.061
0.465058382247,0.547458359328,-0.124010505765,-1.35613191109,0.0794953280784,1.89415967805,0.159166384636,0.000455528311509,-0.00722460511907,2.80493088528e-05,-0.0114662574365,0.000127382385811,0.00463607578966,0.001598619543,0.57385445664,0.818943050978,0.00202206608433,0.0,0.818900770544,-0.573795512048,-0.011873721305,0.0,-0.00856381398765,0.00846982243263,-0.999927458968,0.0,0.66163819098,0.260839659947,0.30330665104,1.0,-0.00154,-0.002024,0.078
0.465039623155,0.547318654476,-0.12401301932,-1.3563223943,0.0794918418522,1.89422892594,0.159158378159,-9.35194710695e-05,-0.0128306507809,-0.0026703149894,-0.0138943975505,0.000263068892857,0.000773900320572,-0.00225862789671,0.573874725843,0.818928798336,0.00204186076252,0.0,0.818886715565,-0.573815638962,-0.0118704024588,0.0,-0.00854952738817,0.00848433996001,-0.999927458147,0.0,0.66161768311,0.260809158038,0.303321038429,1.0,-0.00186,-0.00244457142857,0.094
0.46502362238,0.547114256112,-0.124008452672,-1.3565432518,0.0794857440738,1.89436823959,0.159145217993,0.000870199455173,-0.0122410753621,-0.000454737774395,-0.00701626040199,-0.00486932408087,0.00316006010793,0.000470341294417,0.573884893909,0.81892139417,0.00215072425881,0.0,0.818880720826,-0.573825364671,-0.0118136709748,0.0,-0.00844049027844,0.00854103838686,-0.999927901794,0.0,0.661603697601,0.260786176004,0.303372634882,1.0,-0.00222,-0.00291771428571,0.112
0.46499841402,0.546927015148,-0.12400547046,-1.35677296709,0.0794838237602,1.89449112219,0.159122597267,-4.07763129686e-05,-0.0134703624758,0.0016360131645,-0.0127320850888,-2.70626053272e-05,0.00193479455817,-0.00532032773,0.573897463704,0.818912384444,0.00222590661422,0.0,0.818872620597,-0.573837571603,-0.0117821710355,0.0,-0.00837141810626,0.00858465733786,-0.999928108924,0.0,0.661586466117,0.260754460946,0.303406488252,1.0,-0.00254,-0.00333828571429,0.128
0.464966607603,0.546694732202,-0.124012648553,-1.35712346386,0.0794752944282,1.89461707777,0.159090401429,-0.00301608872701,-0.0123099879604,0.000916237094725,-0.0218036629897,-6.4612055187e-05,0.00416551650632,-0.00524965733502,0.573919483403,0.818896920235,0.00223774468876,0.0,0.818857228863,-0.573859459503,-0.011785855036,0.0,-0.0083674105323,0.00859669076139,-0.999928039085,0.0,0.661547734164,0.260697879545,0.30341533227,1.0,-0.00288,-0.00378514285714,0.145
0.464925750703,0.54642510501,-0.124014075499,-1.35752596919,0.0794614954765,1.89476209166,0.158959817203,-0.00237267238852,-0.0122912890586,-0.000847464210149,-0.0205413379473,-0.00013986737503,0.0102529743772,-0.00466148055018,0.573865824182,0.818934477751,0.00225474799796,0.0,0.818894907964,-0.573805639291,-0.0117883387125,0.0,-0.00836025085141,0.00861149216317,-0.99992797161,0.0,0.661503165954,0.260633398375,0.303427310018,1.0,-0.00322,-0.004232,0.162
0.464888088106,0.546159879675,-0.124008420885,-1.35796640141,0.0794394349741,1.89491544078,0.158942603416,-0.00581806247588,-0.018495000614,0.000416264987177,-0.0253631663879,-0.000110990701642,0.0105155553349,-0.00874518723567,0.573897372524,0.818912411939,0.00223925970412,0.0,0.818872558508,-0.573837158827,-0.0118065648474,0.0,-0.00838373348223,0.00860959062882,-0.999927791374,0.0,0.661449411542,0.260569794786,0.303418576782,1.0,-0.00354,-0.00465257142857,0.178
0.464837823748,0.545850318768,-0.124016225364,-1.35848700029,0.079407816998,1.89509429108,0.158888747529,-0.00575443998155,-0.0233470605327,-0.00177033582607,-0.0273675206144,-0.000237445934823,0.00813196609411,-0.0117164439877,0.573920562707,0.818896241047,0.00220929909924,0.0,0.818856015054,-0.573860480102,-0.0118204436487,0.0,-0.00841204938764,0.00859325897362,-0.999927694049,0.0,0.66139037641,0.260481313567,0.30340570367,1.0,-0.00388,-0.00509942857143,0.195
0.46477592601,0.545508877031,-0.124016225508,-1.3590961766,0.0793708492196,1.89529536152,0.158775810207,-0.00655212678532,-0.019464939002,-0.00103771014315,-0.0391987567171,-0.00250426813219,0.0163846145178,-0.00669779034772,0.573902925955,0.818908753581,0.00215215930479,0.0,0.818867740301,-0.573843026117,-0.0118554701716,0.0,-0.00847370983836,0.00856638777624,-0.999927403986,0.0,0.661317749669,0.260380202097,0.303374882643,1.0,-0.00422,-0.00554628571429,0.212
0.464711524107,0.545116202578,-0.124019088283,-1.3597776659,0.0793281017301,1.89551154883,0.158720603154,-0.00138722089649,-0.0239275581233,-0.000965010219417,-0.0419577000021,-0.00701411433804,0.0108543983752,-0.0067094887933,0.5739389967,0.818883638948,0.00208826057119,0.0,0.81884176683,-0.573879321936,-0.0118925039362,0.0,-0.00854033176668,0.00853569109159,-0.999927099698,0.0,0.661234431119,0.260267960788,0.30334728076,1.0,-0.00456,-0.00599314285714,0.229
0.464650737115,0.544693157426,-0.124020021316,-1.36049489692,0.0792952694835,1.89575251108,0.158623128036,-0.00722585350694,-0.0278519946146,0.000410823514946,-0.0435945331853,-0.00498497070542,0.0194924148163,-0.00445167305771,0.573940808953,0.818882469958,0.00204819790242,0.0,0.818839941976,-0.573881164401,-0.0119291856778,0.0,-0.00859334428377,0.00852395684222,-0.999926745614,0.0,0.661146616291,0.260158678416,0.30332623616,1.0,-0.0049,-0.00644,0.246
0.464576699712,0.544238323099,-0.124014813812,-1.36124288157,0.0792583613769,1.89602049064,0.158525071846,-0.00463779414492,-0.0263690676691,-0.00224577320957,-0.0452821959553,-0.00267297505195,0.013827564115,-0.00222935060165,0.573949379258,0.818876503572,0.00203195663331,0.0,0.818833641687,-0.573889679866,-0.0119519657861,0.0,-0.00862123099734,0.00852382190362,-0.999926506717,0.0,0.661060131949,0.260042142649,0.303315146507,1.0,-0.00524,-0.00688685714286,0.263
0.464513196219,0.543761275267,-0.124023289022,-1.362007637,0.0792182759575,1.89629362746,0.158444044851,-0.00200061387207,-0.0261622620759,-0.000529356611989,-0.0494357029974,-0.00373853654774,0.0162040029178,-0.00541872520139,0.573972869521,0.81886006756,0.00202032434849,0.0,0.818817021536,-0.57391318362,-0.0119620153207,0.0,-0.00863589216258,0.00852031226687,-0.999926410115,0.0,0.66097188032,0.259922788272,0.303312638001,1.0,-0.00556,-0.00730742857143,0.279
0.464444641648,0.543227331439,-0.124031486841,-1.36285314001,0.0791718987983,1.89658522379,0.1583189451,0.000716861564749,-0.037266546653,-0.000580232077318,-0.0524329198488,-0.00293537987763,0.0246852822532,-0.00610833245777,0.573966905843,0.818864286872,0.00200439109414,0.0,0.818820992223,-0.573907247207,-0.0119750239815,0.0,-0.00865575154775,0.00851466890031,-0.999926286472,0.0,0.660871708301,0.259791657171,0.303313477601,1.0,-0.0059,-0.00775428571429,0.296
0.464353155148,0.542663277347,-0.124027618774,-1.36374144526,0.0791122099554,1.89690721635,0.158213043521,-0.00483183025866,-0.0376584733692,0.000161872928461,-0.0557404719884,-0.00356110109669,0.0233457145834,-0.00587779332532,0.573985861805,0.81885101111,0.00199973845325,0.0,0.818807675051,-0.573926239315,-0.0119753916145,0.0,-0.00865852586532,0.00851127053824,-0.999926291385,0.0,0.660772337534,0.259647595798,0.30331739591,1.0,-0.00624,-0.00820114285714,0.313
0.464292081078,0.542104164426,-0.124032945829,-1.36460900455,0.0790659064585,1.89722224514,0.158078310807,-0.00629589140268,-0.0354410752874,0.00126975861,-0.0611817264381,-0.00384073744329,0.0277867430261,-0.00649728869891,0.573965106803,0.818865539867,0.00200765850118,0.0,0.818822259786,-0.573905407063,-0.0119765405967,0.0,-0.00865513695029,0.00851819587519,-0.999926261753,0.0,0.660669558569,0.259522400364,0.30332734453,1.0,-0.00656,-0.00862171428571,0.329
0.464198561206,0.541480307965,-0.124036032022,-1.36557013618,0.0790105958881,1.89757582701,0.157973173164,-0.00722804992271,-0.0351417178487,-0.00229611759397,-0.0570000288553,-0.00479363093349,0.0185642525774,-0.00606621317418,0.573996338078,0.81884361284,0.00202200025623,0.0,0.818800502315,-0.57393655704,-0.0119713325384,0.0,-0.00864231571223,0.00852728004101,-0.999926295221,0.0,0.660562860335,0.259367977085,0.303341719384,1.0,-0.0069,-0.00906857142857,0.346
0.464123439835,0.540802953977,-0.124042193761,-1.3665906228,0.0789553471063,1.89795992901,0.157841078281,-0.000210986119711,-0.0459555410341,0.000612415625458,-0.0591688604899,0.00053653545321,0.0303622795186,-0.0145082436872,0.573995865738,0.818843851994,0.00205889991691,0.0,0.818801197889,-0.573935906443,-0.0119549376147,0.0,-0.00860771630189,0.00854807906129,-0.999926416075,0.0,0.660445723059,0.259219670867,0.303368320965,1.0,-0.00724,-0.00951542857143,0.363
0.464032048379,0.54008099565,-0.12404246628,-1.36768223697,0.078885388893,1.89836076009,0.157693063416,-0.00278998189142,-0.0446994272959,-0.000450609617445,-0.0722936721069,-0.00419049039092,0.0233564767659,-0.0100793695667,0.57399141061,0.818846912489,0.00208359163265,0.0,0.818804605523,-0.573931374956,-0.0119390836131,0.0,-0.00858060834729,0.00855915065951,-0.999926554353,0.0,0.660320163595,0.259054941399,0.303393720321,1.0,-0.00758,-0.00996228571429,0.38
0.463926690257,0.539344113233,-0.124045587181,-1.36884018802,0.0788192022183,1.89879507702,0.157571048487,-0.0030958197229,-0.0495651371675,-0.00048713607191,-0.0734612538022,-0.000383854693976,0.0190894403916,-0.00899674594472,0.574026390214,0.818822362338,0.00209503571198,0.0,0.818780185401,-0.573966284035,-0.0119356477511,0.0,-0.0085708604407,0.00856691546179,-0.99992657146,0.0,0.66019018153,0.258874547636,0.303400990706,1.0,-0.00792,-0.0104091428571,0.397
0.463817452627,0.538544641315,-0.124046455795,-1.3700824251,0.0787525902582,1.89927793671,0.157403531314,-0.00467190512565,-0.0441973338617,-0.000170925176456,-0.0720657668024,-0.00501466364857,0.0198313821798,-0.00947669291621,0.574030264979,0.818819549585,0.00213237101383,0.0,0.818777808168,-0.573969954483,-0.0119222105503,0.0,-0.00853838656951,0.00858981312675,-0.999926652843,0.0,0.660052300203,0.258686951617,0.303416374302,1.0,-0.00828,-0.0108822857143,0.415
0.463709654816,0.537815239866,-0.12405455158,-1.3712461519,0.0786808037519,1.89972421389,0.157263028688,-0.00670798780587,-0.0400713097395,-2.58225151471e-05,-0.0706897063818,-0.0122880456833,0.0292491052661,-0.00536017482125,0.574054309716,0.818802677631,0.00213810705105,0.0,0.818761073762,-0.573994036139,-0.0119120724514,0.0,-0.00852654028577,0.00858894071707,-0.999926761422,0.0,0.659924758578,0.258501208265,0.303416555505,1.0,-0.0086,-0.0113028571429,0.431
0.463610382824,0.537041286528,-0.124055637964,-1.37244178602,0.0786041223121,1.90016096179,0.157112486741,-0.00361371131118,-0.0498865381639,0.000711125024148,-0.0786526424013,-0.00212457197513,0.0280220506921,-0.0104721074928,0.574058379139,0.818799798101,0.00214822505683,0.0,0.818758351812,-0.573998090087,-0.0119038152136,0.0,-0.00851392833334,0.00859252750672,-0.999926838071,0.0,0.659785313712,0.2583205388,0.30343181113,1.0,-0.00892,-0.0117234285714,0.447
0.463497431287,0.536198451754,-0.124067221752,-1.37376792096,0.0785377018538,1.90065670089,0.156941335555,-0.00726519606441,-0.0515151943192,-0.000257591273704,-0.0769844590788,-0.00247586073671,0.0223403294101,-0.0163476726102,0.574074114753,0.818788727509,0.00216272422087,0.0,0.818747396401,-0.574013690745,-0.0119050672176,0.0,-0.00850646530174,0.00860528142733,-0.99992679191,0.0,0.659634279883,0.258115828605,0.30343893196,1.0,-0.00926,-0.0121702857143,0.464
0.463387687329,0.535313456978,-0.12406596679,-1.37516708153,0.0784617334033,1.90116576266,0.156775917524,-0.00606004445087,-0.0529587894063,-0.00087837648267,-0.078345263029,-0.00273565016465,0.0303266971522,-0.00202390307581,0.574084126055,0.818781707916,0.00216284419098,0.0,0.818740266289,-0.574023586943,-0.0119182586904,0.0,-0.00851709260584,0.00861305658127,-0.999926634504,0.0,0.659466505436,0.257911952548,0.303441608186,1.0,-0.0096,-0.0126171428571,0.481
0.463265188605,0.534481588843,-0.124071210242,-1.37651800225,0.0783817824922,1.90165596417,0.156618013641,-0.00630806368748,-0.051142192034,-0.000466756752486,-0.0852617605802,-0.00334546425025,0.0305989995605,-0.0123571540881,0.574111479816,0.81876259668,0.00213680206949,0.0,0.818720793204,-0.574051020523,-0.0119346350406,0.0,-0.00854516388852,0.00860142087348,-0.999926495165,0.0,0.65930943749,0.257699017323,0.303428169002,1.0,-0.00992,-0.0130377142857,0.497
0.463138896134,0.533564964464,-0.124074179633,-1.37800291736,0.0782961857829,1.90219603374,0.156430074786,-0.0127242678755,-0.0520097666749,0.000544578420357,-0.0899065042158,-0.00278294889842,0.0314891673776,-0.0155021975015,0.574121445403,0.818755669775,0.00211330097259,0.0,0.818713500288,-0.574061021342,-0.0119538748085,0.0,-0.00857430414246,0.00859332936788,-0.999926315285,0.0,0.659133809604,0.257472598575,0.303414824295,1.0,-0.01026,-0.0134845714286,0.514
0.463013873685,0.532628361705,-0.124076931376,-1.37952088946,0.0782161705432,1.90277714317,0.156231308702,-0.00686874422274,-0.0494936171612,-0.000835014933716,-0.090770883478,-0.0129034326327,0.0371350876995,-0.01315835284,0.574124728795,0.818753358692,0.00211667622898,0.0,0.818711143738,-0.574064200712,-0.011962586728,0.0,-0.00857946519594,0.00860112887566,-0.999926203957,0.0,0.658958131131,0.257247174285,0.303403214874,1.0,-0.0106,-0.0139314285714,0.531
0.462876744787,0.531638471525,-0.12407246898,-1.38107745832,0.0781194505392,1.90334300981,0.156041328898,-0.00765585376944,-0.0575947086119,0.00054696930438,-0.0961133905575,-0.0034700219484,0.0340632671788,-0.00866266141839,0.574137184195,0.818744628142,0.00211530486691,0.0,0.818702362082,-0.574076626912,-0.0119672743504,0.0,-0.00858395977285,0.0086028279202,-0.999926150766,0.0,0.658773794084,0.257010395802,0.303408991906,1.0,-0.01094,-0.0143782857143,0.548
0.462736859104,0.530637095917,-0.124077383947,-1.38271457658,0.0780172867061,1.9039222166,0.155831181562,-0.00642284197157,-0.0563299213871,-0.000443633780379,-0.0978798481576,-0.0084916552717,0.0334054706866,-0.011996879134,0.574144697678,0.818739491207,0.00206362989325,0.0,0.818696534826,-0.574084338559,-0.011995957106,0.0,-0.00863703250485,0.00857706694387,-0.999925915052,0.0,0.658576322957,0.256756999059,0.303385784377,1.0,-0.01128,-0.0148251428571,0.565
0.462601572335,0.52960896613,-0.124080002317,-1.38434872676,0.077923023263,1.90452560909,0.15560769325,-0.00402239208505,-0.0597560732519,0.000435623088603,-0.0984264560312,-0.00760855331803,0.0380344905584,-0.0204476937032,0.574137826753,0.818744312071,0.00206258193823,0.0,0.818701284476,-0.574077415773,-0.0120030994829,0.0,-0.00864355413515,0.00858023712975,-0.999925831501,0.0,0.658382480089,0.256511601175,0.303384633848,1.0,-0.01162,-0.015272,0.582
0.462469374122,0.528571029236,-0.124085462737,-1.38593593293,0.0778174150903,1.90512491687,0.155396295486,-0.0053916091288,-0.0681489557952,-0.00270894767474,-0.10251008951,-0.00417343390753,0.0413041680301,-0.0138471990399,0.574134507992,0.818746548419,0.00209835324256,0.0,0.81870409977,-0.57407405979,-0.0119715411246,0.0,-0.00859721333321,0.00859137068645,-0.999926135408,0.0,0.658199092774,0.256270208544,0.303412182688,1.0,-0.01194,-0.0156925714286,0.598
0.462322484608,0.52746896302,-0.124084021696,-1.38765021769,0.0777144417296,1.90578637333,0.15513731009,-0.00734203488156,-0.0673495720477,-0.000812865788756,-0.103684145744,-0.00202086375867,0.0373360312097,-0.0123343625827,0.574106955093,0.81876576092,0.00214003740908,0.0,0.818723854561,-0.574046337108,-0.0119498839994,0.0,-0.00855583995616,0.00861277701574,-0.999926306122,0.0,0.658001627752,0.256013569442,0.303429337114,1.0,-0.01228,-0.0161394285714,0.615
0.462169115076,0.526308128008,-0.124088685005,-1.38944891251,0.0776024805236,1.90646529769,0.154910974604,-0.0114133627113,-0.0667730543865,0.000728591631982,-0.106651150351,-0.0117866651834,0.0359086161728,-0.0185963288753,0.574119891131,0.818756596238,0.00217568969655,0.0,0.81871516995,-0.574059141533,-0.0119297702002,0.0,-0.00851876749627,0.00863055469316,-0.99992646936,0.0,0.657780559496,0.255723149421,0.303450670078,1.0,-0.01264,-0.0166125714286,0.633
0.462025055299,0.525192828961,-0.12409031633,-1.39117634188,0.0774911428633,1.90707542932,0.154675496666,-0.0061268788519,-0.0677225634053,-0.00190676374333,-0.11107248503,-0.00883490057162,0.0363656154635,-0.0178663775614,0.574099705361,0.818770771208,0.00216781478647,0.0,0.818729335503,-0.574039084622,-0.0119227267866,0.0,-0.00851773378305,0.00861985345377,-0.999926570473,0.0,0.657566741251,0.255464174236,0.303468807808,1.0,-0.01296,-0.0170331428571,0.649
0.461862623003,0.523946926294,-0.12410179797,-1.39317465487,0.0773588712248,1.90779360753,0.154402333664,-0.0118030278256,-0.0726878879336,0.00091987478587,-0.116560053872,-0.00608554669633,0.0308344800845,-0.0132465554916,0.574095764201,0.818773637643,0.00212855063839,0.0,0.81873171434,-0.574035328276,-0.011940214679,0.0,-0.00855463444572,0.00859770411655,-0.999926446152,0.0,0.657339108424,0.255170025375,0.303451939333,1.0,-0.0133,-0.01748,0.666
0.4617110662,0.52280762029,-0.124100232872,-1.39499178076,0.077251264893,1.90849016443,0.154163217516,-0.0080440371681,-0.0681136159763,-0.000448764235899,-0.113875372582,-0.00773894331048,0.0425937236738,-0.0178251599872,0.574091611626,0.818776508344,0.00214423567352,0.0,0.818734761178,-0.574031083607,-0.0119353589716,0.0,-0.00854169807155,0.00860771547458,-0.999926470611,0.0,0.657124661645,0.254900444052,0.303448235391,1.0,-0.01362,-0.0179005714286,0.682
0.461550387987,0.521575331069,-0.124102846075,-1.39694998798,0.0771299574946,1.90925247282,0.153889244852,-0.0102615740328,-0.0739491030224,-7.12489614739e-05,-0.121039888698,-0.0145421399731,0.044884206368,-0.0266107388007,0.574073008471,0.818789481814,0.00217078713277,0.0,0.818748134054,-0.57401242887,-0.0119151746499,0.0,-0.00851012472891,0.00861767398902,-0.999926654046,0.0,0.656895974268,0.254609190288,0.303448237764,1.0,-0.01396,-0.0183474285714,0.699
0.461379467111,0.520287214662,-0.124105318191,-1.39898182415,0.0770131991932,1.9100007964,0.153631164209,-0.0117257904083,-0.0772687645093,0.00120630699506,-0.123174786061,-0.00202021895492,0.0472650012166,-0.00958389739669,0.574080340554,0.818784324348,0.00217708361626,0.0,0.818742972574,-0.574019647374,-0.011922088324,0.0,-0.00851209414768,0.00862687453075,-0.999926557948,0.0,0.656650229393,0.254303137532,0.303450840338,1.0,-0.0143,-0.0187942857143,0.716
0.461220137835,0.519052119767,-0.124114931698,-1.40091878135,0.0768772015537,1.91069399541,0.153362028532,-0.00954551895969,-0.0732513598373,0.00031094717754,-0.124989709049,-0.00574974627251,0.0451067632399,-0.0171426849087,0.574063332622,0.818796299455,0.00215801743283,0.0,0.818754839995,-0.574002861213,-0.0119152929137,0.0,-0.00851765355489,0.00860718569212,-0.999926680278,0.0,0.656413518926,0.254004352381,0.303456403684,1.0,-0.01462,-0.0192148571429,0.732
0.46103693924,0.517613695735,-0.124114530275,-1.4031565368,0.0767345799626,1.91149655474,0.153046536381,-0.0121565291979,-0.0808467316044,-0.00357132531319,-0.123996126112,-0.00691349499035,0.0477349755401,-0.0209438162733,0.574034722692,0.818816356422,0.00215835621379,0.0,0.818774882177,-0.573974234096,-0.0119171226341,0.0,-0.00851925810168,0.00860821577602,-0.999926657742,0.0,0.656136262096,0.253669095993,0.303470281824,1.0,-0.01498,-0.019688,0.75
0.460860777525,0.516361279142,-0.124113460553,-1.40515955032,0.0766002096317,1.91225348093,0.152770113686,-0.0134644826127,-0.0785591810695,0.00124258951774,-0.124630448691,-0.00362716803355,0.0489620554946,-0.0159733149216,0.574021618645,0.818825550839,0.0021553475424,0.0,0.818784126603,-0.573961233992,-0.0119080980326,0.0,-0.00851373291163,0.00860043564774,-0.999926771748,0.0,0.655897426567,0.253362529255,0.303461035166,1.0,-0.0153,-0.0201085714286,0.766
0.460679256977,0.514990740085,-0.124129102938,-1.40735147022,0.0764675479967,1.91307057439,0.152469740935,-0.0100456042302,-0.078019108542,-0.00226649318882,-0.128579334919,-0.0106138311248,0.0468223361507,-0.019038927454,0.57401536289,0.818829958123,0.00214703245927,0.0,0.818788457201,-0.573955044586,-0.0119086544282,0.0,-0.0085190269135,0.00859388144685,-0.999926783011,0.0,0.655633205087,0.253026229821,0.303450105759,1.0,-0.01564,-0.0205554285714,0.783
0.460487507114,0.513577560026,-0.124119341403,-1.40961288222,0.0763387165004,1.91385347006,0.152167945077,-0.0109073252597,-0.080110550336,0.00110002699867,-0.131139168954,-0.00708459686357,0.0513047683318,-0.0113966603685,0.574002236647,0.81883928217,0.00209980983415,0.0,0.818796912659,-0.57394185912,-0.0119626532037,0.0,-0.00859048699568,0.00858607281305,-0.999926238723,0.0,0.655342517638,0.252688779337,0.303431787937,1.0,-0.01598,-0.0210022857143,0.8
0.460300391388,0.512256065847,-0.124128054516,-1.41175326917,0.0762035958751,1.91461653016,0.151862992928,-0.0128675627615,-0.0776330581651,-0.00101822886962,-0.137728880286,-0.00991118707403,0.047426335655,-0.018625426397,0.57398755233,0.818849707846,0.00204759173966,0.0,0.818806647518,-0.573927384704,-0.0119907450982,0.0,-0.00864361556478,0.0085592849501,-0.999926010538,0.0,0.655076757571,0.252354443391,0.303405279191,1.0,-0.0163,-0.0214228571429,0.816
0.460106095999,0.510808396886,-0.124131257112,-1.41405609871,0.0760649848414,1.91549377992,0.151526507278,-0.00998648691898,-0.0841423910014,5.75746532575e-05,-0.131602315784,-0.0091620874364,0.0603092160546,-0.0283869460461,0.573956607265,0.818871355143,0.00206484973766,0.0,0.818828505416,-0.573896356761,-0.0119832097654,0.0,-0.00862786359094,0.00856876522095,-0.999926065383,0.0,0.65479835135,0.252008174468,0.303399106701,1.0,-0.01664,-0.0218697142857,0.833
0.459905545408,0.509309149609,-0.124131859581,-1.41642461008,0.0759199065343,1.91637025351,0.151209076536,-0.00707723369667,-0.087861381625,0.000706015695695,-0.139760651846,-0.00622017778457,0.048965919701,-0.018622172438,0.573945597133,0.818879059651,0.00206980651918,0.0,0.818836233821,-0.573885286778,-0.011985270249,0.0,-0.00862682141635,0.00857389073871,-0.999926030439,0.0,0.654505865832,0.251651225332,0.303397117083,1.0,-0.01698,-0.0223165714286,0.85
0.459691495122,0.507799899986,-0.124132188969,-1.41880282509,0.0757597228563,1.91721227713,0.150879540957,-0.00706549627482,-0.090519208022,0.000403085913258,-0.138304187498,-0.00894359276861,0.0499097950376,-0.0200646215014,0.573931091799,0.818889301503,0.00203976777081,0.0,0.81884611346,-0.573870938801,-0.0119972902255,0.0,-0.00865405578454,0.00855603851952,-0.99992594802,0.0,0.654207598153,0.251279972685,0.303393961841,1.0,-0.01732,-0.0227634285714,0.867
0.459478855901,0.506247363879,-0.124142950766,-1.42123249491,0.0756095329545,1.91811401922,0.150553467202,-0.0140960679017,-0.0933689172729,-0.00228987866086,-0.144236050319,-0.0127624567935,0.0522953800863,-0.0133363485118,0.573931098403,0.818889254262,0.00205680346861,0.0,0.818846311012,-0.573870896138,-0.0119858420032,0.0,-0.00863490381867,0.00856341827129,-0.999926050418,0.0,0.653910561926,0.2509036765,0.303401577455,1.0,-0.01766,-0.0232102857143,0.884
0.459273581823,0.504726187154,-0.124145497623,-1.42355782782,0.0754638694105,1.91902139108,0.150226521456,-0.0158148131065,-0.0939805631031,-0.000987667333814,-0.147052638605,-0.00881758265304,0.0620664954917,-0.0215356520868,0.573914116855,0.818900940561,0.00214077645784,0.0,0.818859165439,-0.573853642474,-0.0119336120317,0.0,-0.00854411824971,0.00860202844941,-0.999926498874,0.0,0.65363393095,0.250550097445,0.30343656606,1.0,-0.01798,-0.0236308571429,0.9
0.459046697891,0.503059960639,-0.124149001331,-1.42603020358,0.0753110684765,1.91995938404,0.149880192144,-0.0140096561533,-0.106210956814,-0.000987153837639,-0.146379316507,-0.00122775864652,0.0595886434676,-0.0208356058339,0.573904623115,0.818907294651,0.00225238431169,0.0,0.818867005959,-0.573843734782,-0.0118718787106,0.0,-0.00842961374792,0.00865789596597,-0.999926988559,0.0,0.653336941965,0.250167336505,0.30350492146,1.0,-0.01832,-0.0240777142857,0.917
0.458797841905,0.501248871297,-0.124153654746,-1.42872134376,0.0751335177774,1.9209196474,0.149512486669,-0.0111205071509,-0.103988814481,-0.00217654378561,-0.157427448871,-0.00777689833702,0.0499598219932,-0.0246321277063,0.573899906345,0.818910421966,0.00231628866823,0.0,0.81887101113,-0.573838816393,-0.0118332934373,0.0,-0.00836139195688,0.00868803491083,-0.999927299944,0.0,0.653001492326,0.249743250301,0.303571533377,1.0,-0.01868,-0.0245508571429,0.935
0.458579138039,0.499642651051,-0.12415590071,-1.43116162432,0.0749794374663,1.92178576617,0.149157653448,-0.0112004679809,-0.1001200386,-0.00118569879648,-0.153656912837,-0.0105344890997,0.0557284213275,-0.0315323931725,0.573872541837,0.818929521151,0.00234350456417,0.0,0.818890417969,-0.573811301978,-0.0118245499798,0.0,-0.00833890419734,0.00870502558376,-0.999927339963,0.0,0.652691787947,0.249364822308,0.303605750475,1.0,-0.019,-0.0249714285714,0.951
0.458320631835,0.497975557456,-0.124155803967,-1.43379199962,0.0748140830408,1.92278033963,0.148772484752,-0.0162280468924,-0.0984765186747,-0.00190783836211,-0.160286230316,-0.00542537480179,0.0593332716661,-0.0203975264754,0.57385793241,0.818939692154,0.00236662754322,0.0,0.818900897697,-0.573796614089,-0.0118115330238,0.0,-0.00831513043928,0.00871634315588,-0.999927439351,0.0,0.65237237969,0.248946959322,0.303602523398,1.0,-0.01934,-0.0254182857143,0.968
0.458061659749,0.496307784529,-0.12415687867,-1.43646630038,0.0746492877265,1.92371607428,0.148388147061,-0.0162432464804,-0.0943686016095,-0.00243908498682,-0.157835930312,-0.0125241968764,0.0570970927084,-0.018919547232,0.573846697496,0.818947734189,0.00230723667981,0.0,0.818908030032,-0.573785467281,-0.0118584479458,0.0,-0.00838775168996,0.00869451323172,-0.999927022868,0.0,0.652029694465,0.248519271888,0.303573209769,1.0,-0.01968,-0.0258651428571,0.985
0.457806222232,0.494722197296,-0.124153536052,-1.43905832078,0.074490329717,1.9246121719,0.14802201113,-0.0177777322659,-0.102902875536,-0.000262735071439,-0.165906909667,-0.00452738177797,0.0588029794778,-0.0227658956782,0.573841208372,0.818951834164,0.00221535411918,0.0,0.818910746154,-0.573780151713,-0.0119278763858,0.0,-0.00849739362243,0.00865905100687,-0.999926404861,0.0,0.651693438382,0.248103564395,0.303521686807,1.0,-0.01998,-0.0262594285714,1.001
0.457489851745,0.492557816053,-0.124220732824,-1.44235359864,0.0742999153489,1.92580639602,0.147547643737,-0.0170705351448,-0.156737724602,-0.0103275938007,-0.234141567762,-0.0155431230515,0.0866020268854,-0.0302381707256,0.573874345881,0.818928482079,0.00226346632634,0.0,0.818888122612,-0.573813196436,-0.0118913894486,0.0,-0.00843955315077,0.00867785610763,-0.999926731694,0.0,0.651292526444,0.247546230666,0.303565463555,1.0,-0.0340074285714,-0.044695477551,1.018
0.457099478191,0.489292858773,-0.12428273814,-1.44743734805,0.0740340340031,1.92777617974,0.146774524708,-0.0333518233056,-0.218002974733,-0.00259008267442,-0.34063037538,-0.0194212377885,0.130036833979,-0.0495616101984,0.57378934838,0.818987647322,0.00240085836015,0.0,0.818948960974,-0.573727553463,-0.0118338758393,0.0,-0.00831451961939,0.00875650095589,-0.99992709357,0.0,0.6506589166,0.246786573074,0.303589338592,1.0,-0.0480348571429,-0.0631315265306,1.035
0.456457898628,0.484845695047,-0.124356913131,-1.45446352139,0.0736408891324,1.93044903397,0.145707581777,-0.0438487653807,-0.290822272233,-0.0132694635625,-0.451095852541,-0.0198653676779,0.170092472469,-0.0689614735542,0.573738019067,0.819023362488,0.00248275593218,0.0,0.818985653912,-0.573675827023,-0.0118021640594,0.0,-0.00824210971599,0.0088048612396,-0.999927268378,0.0,0.649788205437,0.245669467155,0.303568413799,1.0,-0.0620622857143,-0.0815675755102,1.052
0.455655475209,0.479582100245,-0.124502741135,-1.46287694454,0.0731337531777,1.93335634702,0.144422481674,-0.0557354673001,-0.350012310716,-0.00983488776242,-0.566065983892,-0.0315370300546,0.191784433088,-0.0830219768875,0.573737608764,0.819024367606,0.00223348574949,0.0,0.818983364451,-0.573676337365,-0.0119354765746,0.0,-0.00849431177111,0.00867718652569,-0.999926273833,0.0,0.648620509739,0.244146666314,0.303460209494,1.0,-0.0760897142857,-0.10000362449,1.069
0.45451720739,0.472351104892,-0.124671102535,-1.47422746856,0.0724610662678,1.93731963326,0.142778510469,-0.0692230645197,-0.42795745177,-0.0112371769582,-0.656969579138,-0.041312321851,0.23767203247,-0.0957876373821,0.573797318608,0.818982836844,0.00212061621235,0.0,0.818940136229,-0.573736277489,-0.0120201526033,0.0,-0.0086277903384,0.00863395529327,-0.99992550525,0.0,0.647222930039,0.242327771761,0.303421558696,1.0,-0.0901171428571,-0.118439673469,1.086
0.453325973747,0.464809862977,-0.124784315496,-1.48562212948,0.0717828358445,1.94160980943,0.140963591336,-0.0740873605116,-0.481855101287,-0.00594431044921,-0.743037192102,-0.0468794696514,0.274214076012,-0.122904726762,0.573728261328,0.819030170223,0.00249185044441,0.0,0.818992386567,-0.573665829616,-0.0118208957812,0.0,-0.00825233971455,0.00882295839564,-0.999927024484,0.0,0.645789936922,0.24042423527,0.303578489957,1.0,-0.103319428571,-0.13579124898,1.102
0.451800701076,0.455893652729,-0.124892179109,-1.49963353705,0.070890792304,1.94646421768,0.138809881228,-0.098278978504,-0.536491096156,-0.00779093006817,-0.846654395996,-0.054108538737,0.29273623451,-0.12896490137,0.573701761481,0.819049359516,0.00227649980191,0.0,0.819008372053,-0.573639761473,-0.0119773730649,0.0,-0.00850433266888,0.00873608061861,-0.999925675849,0.0,0.643912935455,0.238026789407,0.303471489872,1.0,-0.117346857143,-0.154227297959,1.119
0.450133554144,0.446271670307,-0.125069107803,-1.51411132639,0.0698740152919,1.95165605066,0.136521947295,-0.113180631031,-0.616203620395,-0.0105869296594,-0.932612409865,-0.058610016995,0.331245995481,-0.14455154824,0.573714009683,0.819040173081,0.00248533163735,0.0,0.819002874574,-0.57365221379,-0.0117548268151,0.0,-0.00820211730959,0.00877957161445,-0.999927819592,0.0,0.641894604947,0.235289463447,0.303635415834,1.0,-0.131374285714,-0.172663346939,1.136
0.448132038547,0.435203144138,-0.125191308456,-1.53111036802,0.0687777442552,1.9574682595,0.13383724391,-0.119446650437,-0.676968167718,-0.00910082553987,-1.01773387574,-0.0669278808148,0.355033442646,-0.174018988065,0.573686322016,0.81905984778,0.00239093868682,0.0,0.819020736136,-0.573624267066,-0.0118735383758,0.0,-0.0083537989194,0.00877008377476,-0.999926647147,0.0,0.639680965988,0.232471610256,0.30361997714,1.0,-0.144576571429,-0.190014922449,1.152
0.445702793296,0.422267021732,-0.125352350492,-1.55054964649,0.0674484036825,1.964281954,0.130589499123,-0.141599392424,-0.720718098981,-0.00681155882292,-1.10579122211,-0.0771934205001,0.384713563276,-0.18477788334,0.573604037193,0.819116786435,0.00261640912823,0.0,0.819080839035,-0.573541396547,-0.011729981809,0.0,-0.00810776215853,0.00887158631138,-0.999927776966,0.0,0.637020425808,0.228966985212,0.303767541171,1.0,-0.159429142857,-0.209535444898,1.17
0.443262125491,0.409885641609,-0.125507052768,-1.56895682562,0.0661249708068,1.97081568451,0.127540120842,-0.157049042616,-0.777521092852,-0.00588082090159,-1.17800049518,-0.0774921641093,0.409413009429,-0.190713119733,0.573617169865,0.819106351856,0.00297887355502,0.0,0.819075907237,-0.573554233858,-0.0114431599423,0.0,-0.00766476702491,0.00900408993664,-0.999930086411,0.0,0.634493746109,0.225568557299,0.303965159058,1.0,-0.172631428571,-0.226887020408,1.186
0.440334324177,0.39585247898,-0.12568189507,-1.5898753132,0.0647468583694,1.97794193919,0.123968708412,-0.178790637063,-0.848268084695,-0.0117441613225,-1.24709623535,-0.0855943181186,0.442183066209,-0.21488922548,0.573678749639,0.819062386282,0.00320101417574,0.0,0.819034107733,-0.573614294652,-0.0114244580785,0.0,-0.00752134121633,0.0091758852793,-0.999929613801,0.0,0.631514675859,0.221627973436,0.304093046157,1.0,-0.186658857143,-0.245323069388,1.203
0.437091667213,0.381061498169,-0.12585065096,-1.61206664695,0.0630673098968,1.98536058046,0.12005408906,-0.19648946474,-0.902846215061,-0.00987860870088,-1.31555195217,-0.0966750436327,0.439402032984,-0.239188081273,0.573631503351,0.819095732441,0.00313470283919,0.0,0.819066995376,-0.573567733343,-0.0114043524157,0.0,-0.00754343722735,0.00910960284496,-0.999930053399,0.0,0.628272486142,0.217352526685,0.304098556835,1.0,-0.200686285714,-0.263759118367,1.22
0.433746848936,0.366352229448,-0.12600120102,-1.63403733727,0.0614216190104,1.99262079335,0.116148206972,-0.216878154481,-0.909569955599,-0.00907974187976,-1.37493109703,-0.100678982925,0.449085451403,-0.243722271421,0.573623965141,0.81910120905,0.00308266923527,0.0,0.819071721169,-0.573560256949,-0.0114408972807,0.0,-0.00760330262372,0.00908787502902,-0.999929797694,0.0,0.62498280916,0.213070166538,0.304085365469,1.0,-0.213888571429,-0.281110693878,1.236
0.42953367367,0.348953712597,-0.12623246728,-1.65990336632,0.0594537330101,2.00106219825,0.111341772192,-0.251959446936,-0.957513174911,-0.0129090209101,-1.47094112259,-0.104080684404,0.467744966014,-0.267480780656,0.573650990526,0.819082594476,0.00299856566447,0.0,0.819051935033,-0.573587437502,-0.0114946143741,0.0,-0.00769524712574,0.00905005217278,-0.999929437374,0.0,0.621046613902,0.207852592989,0.304044936548,1.0,-0.228741142857,-0.300631216327,1.254
0.425405671937,0.332627764316,-0.126438095165,-1.68378858683,0.0575888065092,2.00881236206,0.106797320948,-0.263053017257,-1.0107017822,-0.010764518754,-1.53342344443,-0.123162276631,0.484573542478,-0.282854629376,0.573712164788,0.819039370085,0.00309985900009,0.0,0.81901010769,-0.573648397491,-0.0114326925679,0.0,-0.00758574222034,0.00909806582191,-0.999929838395,0.0,0.617347902293,0.202925520162,0.304102786953,1.0,-0.241943428571,-0.317982791837,1.27
0.420740441338,0.314566450534,-0.126607947084,-1.71003432936,0.0554202129897,2.01711607161,0.101633972976,-0.285782429797,-1.06047655536,-0.0143537308141,-1.58600951742,-0.140031554739,0.48958644683,-0.310419438178,0.573604706004,0.819114592586,0.00311004247374,0.0,0.819085721225,-0.573541234038,-0.0113921483774,0.0,-0.00754788269867,0.00908215616307,-0.999930269522,0.0,0.613140260713,0.197485390608,0.304144991985,1.0,-0.255970857143,-0.336418840816,1.287
0.415617977305,0.295812456097,-0.126791206699,-1.73712730889,0.0531463406974,2.02548529587,0.0960192733284,-0.318737238101,-1.10054892796,-0.0153382115674,-1.62886998361,-0.150362073053,0.488228347157,-0.344203402387,0.57344254139,0.819228327115,0.00305723353923,0.0,0.819198735708,-0.5733792017,-0.0114223190899,0.0,-0.00760467964735,0.00905469986864,-0.999930088185,0.0,0.608685589035,0.191720187154,0.304151195549,1.0,-0.269998285714,-0.354854889796,1.304
0.410356080199,0.277477711185,-0.126988203486,-1.76325957047,0.0510229599573,2.03346102158,0.0905003859574,-0.344461120105,-1.1634742402,-0.0182673550656,-1.67620698797,-0.137388769084,0.491271491735,-0.356270111918,0.573445721269,0.819225566626,0.00319728718972,0.0,0.819197004887,-0.573381021499,-0.0114550543826,0.0,-0.0075511550056,0.00918823691423,-0.999929275679,0.0,0.604305460333,0.186021476864,0.304215689693,1.0,-0.283200571429,-0.372206465306,1.32
0.404192104324,0.257350141397,-0.12728227775,-1.79165049344,0.0485224790806,2.04197174896,0.0842371724704,-0.381199067343,-1.17997325952,-0.0216887224171,-1.69689661124,-0.148074435242,0.482293909805,-0.380056148621,0.573520493581,0.819172772127,0.00331055120255,0.0,0.819145988046,-0.573455841648,-0.0113575899371,0.0,-0.0074055160864,0.00922581294788,-0.999930018905,0.0,0.59947542211,0.179555141599,0.304300755225,1.0,-0.297228,-0.390642514286,1.337
0.397540463724,0.236591893818,-0.127569949874,-1.82065204137,0.0459305527494,2.05044670616,0.0775861042385,-0.400604770982,-1.22019106048,-0.0173120033104,-1.68127400637,-0.142798519767,0.488303617258,-0.402079293626,0.573581835184,0.819129316806,0.00343330691984,0.0,0.819104066258,-0.573516773065,-0.0113042714688,0.0,-0.00729074142897,0.00929633941659,-0.999930209146,0.0,0.594400259576,0.172819740966,0.304376229486,1.0,-0.311255428571,-0.409078563265,1.354
0.390447521054,0.215138410997,-0.12777831724,-1.8503674389,0.0432248828322,2.05896164946,0.0704566968773,-0.431687109817,-1.27687042952,-0.0149674990776,-1.76702432669,-0.157868911201,0.510715626538,-0.424629158674,0.573447706621,0.819222520239,0.00359680485834,0.0,0.819198996707,-0.573381735294,-0.0112754745757,0.0,-0.00717491862705,0.00941257518907,-0.999929959533,0.0,0.589032763494,0.165892388961,0.304426536734,1.0,-0.325282857143,-0.427514612245,1.371
0.383209653989,0.194415848723,-0.128057048508,-1.87882326808,0.0404626687598,2.06675271977,0.0633534383333,-0.468148717094,-1.30230331094,-0.0209772107594,-1.7752344227,-0.170129343609,0.515531632906,-0.447967554362,0.573377561765,0.819271823064,0.0035494364659,0.0,0.819247735663,-0.573311785627,-0.0112911901268,0.0,-0.00721575908724,0.00938216348762,-0.999929951461,0.0,0.583750795733,0.159015170193,0.304431351223,1.0,-0.338485142857,-0.444866187755,1.387
0.374765154913,0.171705451377,-0.12851487187,-1.90959078551,0.0375247873031,2.07490389283,0.0552643565793,-0.501070184832,-1.36052073023,-0.0262890652497,-1.82797454107,-0.170062574776,0.488983099774,-0.475671295116,0.573533366735,0.819162557659,0.00359559070666,0.0,0.819138369293,-0.573466537513,-0.011367022766,0.0,-0.00724962806687,0.00946483537222,-0.999928927366,0.0,0.577925823229,0.151253008057,0.304459401513,1.0,-0.352512571429,-0.463302236735,1.404
0.365765440839,0.1484850169,-0.128875198101,-1.94069283288,0.0342470916431,2.08284021214,0.0466889070095,-0.535881647726,-1.3710629621,-0.0182470359958,-1.85021433619,-0.198860302733,0.457938846775,-0.505055689445,0.573446601612,0.819223690152,0.00350535223543,0.0,0.81919873491,-0.57338054852,-0.0113545674683,0.0,-0.00729217027082,0.00938299889594,-0.999929389299,0.0,0.571845175535,0.143291899692,0.304463925948,1.0,-0.36654,-0.481738285714,1.421
0.356041913154,0.124661818789,-0.129316950635,-1.97218484587,0.0309168250113,2.09053671905,0.0375545757209,-0.584901363713,-1.40174575629,-0.0344437145795,-1.87244071442,-0.209023792041,0.449634435361,-0.556159317506,0.573450479291,0.819221216309,0.00344868834379,0.0,0.819195247297,-0.573384224653,-0.0114203602004,0.0,-0.00737851994134,0.00937434061633,-0.999928837059,0.0,0.565516403979,0.134989618791,0.304460958684,1.0,-0.380567428571,-0.500174334694,1.438
0.34543238759,0.100263708661,-0.129858527136,-2.00370183041,0.0274273807078,2.09794888951,0.0278487509592,-0.636922769122,-1.4347709419,-0.0263104735015,-1.83332184232,-0.211861014359,0.41856641084,-0.581703114369,0.573629206417,0.819095507728,0.00358185235311,0.0,0.819071689223,-0.573563116192,-0.0112989627372,0.0,-0.0072006498575,0.00941539016115,-0.999929748067,0.0,0.5590562465,0.126283802792,0.304583307735,1.0,-0.394594857143,-0.518610383673,1.455
0.334929844283,0.0768443974023,-0.130260096901,-2.03365696347,0.0241375044348,2.10462960617,0.0180784186621,-0.670058259701,-1.44977701813,-0.030126637921,-1.84002958754,-0.204100908054,0.419671129427,-0.612433013455,0.573500893877,0.819184781686,0.00371013163584,0.0,0.819161951219,-0.573433599956,-0.0113292107902,0.0,-0.0071533406516,0.00953669479615,-0.99992893806,0.0,0.552294712152,0.117491677244,0.304633672912,1.0,-0.39998,-0.525688,1.472
0.322268905543,0.0507306928962,-0.130815190448,-2.06677964109,0.0201662340677,2.11161058443,0.00674972110903,-0.718392384665,-1.45616229833,-0.0327358198509,-1.82328341604,-0.218513458209,0.36487392808,-0.634575530295,0.573674083713,0.819064217597,0.0035496520981,0.0,0.819039282583,-0.573607164288,-0.0114114663721,0.0,-0.00731075865627,0.00945394904051,-0.999928585278,0.0,0.545457620621,0.108401974801,0.304580672503,1.0,-0.39998,-0.525688,1.489
0.309841009235,0.026281755669,-0.13121956472,-2.09706767077,0.0165123397658,2.1175205056,-0.0042546621124,-0.737706842507,-1.43800355926,-0.0208025190746,-1.77153421722,-0.224073984582,0.335114613944,-0.664802487127,0.573785404952,0.818986133243,0.00357344673022,0.0,0.818960953666,-0.573717687549,-0.0114768578009,0.0,-0.00734937929583,0.00951194997745,-0.999927752106,0.0,0.538626089817,0.0994203945922,0.304621215304,1.0,-0.39998,-0.525688,1.506
0.296847066242,0.00215846325594,-0.131703883234,-2.1263843315,0.0127983207156,2.12296353215,-0.0156621862475,-0.776694155529,-1.41148883012,-0.0326618200787,-1.74070183315,-0.212205949477,0.306307554387,-0.666706059481,0.573970423271,0.818855915211,0.00370003182422,0.0,0.818832681248,-0.573902728361,-0.0113774075216,0.0,-0.0071931375801,0.00956018645346,-0.999928428242,0.0,0.53186473569,0.0903584176845,0.304707656809,1.0,-0.39998,-0.525688,1.523
0.283509450282,-0.0215480417472,-0.132046520421,-2.15484068751,0.00912926548959,2.12786045904,-0.0275326865416,-0.804117108571,-1.39228061241,-0.0274424556742,-1.69231667533,-0.229838416703,0.272326459373,-0.705748708178,0.573869007339,0.818926610948,0.00378354295031,0.0,0.818904276216,-0.573800859936,-0.0113625012252,0.0,-0.00713419177703,0.00961913199832,-0.999928285232,0.0,0.525078800152,0.0814607615268,0.304739737307,1.0,-0.39998,-0.525688,1.54
0.270376596443,-0.0435996306331,-0.132498029872,-2.18088768729,0.00567554042171,2.13189787782,-0.0389572711227,-0.830215541124,-1.35023782889,-0.0344059931875,-1.63957736525,-0.204482176394,0.239798785419,-0.727840580114,0.574067724155,0.818787219473,0.00380581293567,0.0,0.818764734181,-0.57399889678,-0.0114159300466,0.0,-0.00716282310068,0.00966976857059,-0.999927592149,0.0,0.518689397372,0.0729552086686,0.304760222317,1.0,-0.39998,-0.525688,1.556
0.256916748791,-0.0654388393976,-0.132861401827,-2.20627919431,0.00220807439334,2.13552752784,-0.0507987211285,-0.844856940649,-1.35713478898,-0.028233361387,-1.59618407572,-0.217731601251,0.205926920696,-0.749919600022,0.574042939511,0.818804373685,0.00385332754864,0.0,0.818782250071,-0.573973641702,-0.011429457625,0.0,-0.00714691904677,0.00971622272,-0.999927255636,0.0,0.512275981037,0.0645618710848,0.304782755513,1.0,-0.39998,-0.525688,1.572
0.242047491064,-0.0882678889863,-0.133347229128,-2.23246748725,-0.00147490580094,2.13887485147,-0.0638539912282,-0.897125695549,-1.32785194217,-0.0304321286036,-1.54972987363,-0.219882559009,0.188652154973,-0.780781533871,0.574102807503,0.818762444451,0.00384354983717,0.0,0.818739726204,-0.574032894127,-0.0114997433692,0.0,-0.00720937275753,0.00974908959533,-0.999926487396,0.0,0.50547283692,0.0555648763078,0.304767374799,1.0,-0.39998,-0.525688,1.589
0.226847965443,-0.110771202469,-0.133657620747,-2.25783716983,-0.00516655816543,2.14166026836,-0.077255804732,-0.899229833499,-1.29822557617,-0.0198392561832,-1.50538353589,-0.233910167728,0.157368739656,-0.79990640877,0.573932458045,0.818882201659,0.0037709825377,0.0,0.818858114101,-0.573862208667,-0.0115888453231,0.0,-0.00732601585341,0.00973930164303,-0.99992573499,0.0,0.498648426277,0.0467574619774,0.304749240967,1.0,-0.39998,-0.525688,1.606
0.210979564316,-0.13297569697,-0.134093343826,-2.28245852186,-0.00881587674639,2.14398981947,-0.091197866422,-0.937349053582,-1.28816377879,-0.0191814938562,-1.44290199885,-0.206933162276,0.113143820522,-0.832373362342,0.573924077039,0.818888263102,0.00373004698031,0.0,0.818862966596,-0.573853061379,-0.0116984094862,0.0,-0.00743933457668,0.00976858427852,-0.99992461269,0.0,0.491834518355,0.0378303457407,0.304723070538,1.0,-0.39998,-0.525688,1.623
0.194666173353,-0.1549009998,-0.134523752529,-2.30636106203,-0.0124469778059,2.14593054183,-0.105685037321,-0.968818561629,-1.2888686262,-0.038994963474,-1.40423957266,-0.208482306579,0.0876138967103,-0.865653899367,0.573770169571,0.818995991502,0.00375570436477,0.0,0.818970710608,-0.573698675662,-0.0117282399488,0.0,-0.00745088233779,0.00980531487935,-0.999924167201,0.0,0.48542253837,0.0294917229567,0.304709354621,1.0,-0.39998,-0.525688,1.639
0.177762285073,-0.17648942445,-0.134957845389,-2.32952109986,-0.0160307768608,2.14729223768,-0.120614391068,-0.995458156759,-1.24625084763,-0.0263923208955,-1.36300943452,-0.21120227842,0.0617480405782,-0.883854103506,0.573723651513,0.819029063211,0.00364859047134,0.0,0.819000978561,-0.573650704623,-0.0119588085787,0.0,-0.00770174357499,0.00984944012415,-0.999921832783,0.0,0.478170064718,0.0200822055497,0.304643476489,1.0,-0.39998,-0.525688,1.657
0.160189250227,-0.197889695048,-0.135552236031,-2.35184589422,-0.0196717259075,2.14833654199,-0.136103093718,-1.04580583936,-1.25524706655,-0.0326201452021,-1.30283116213,-0.214830727025,0.0647181871752,-0.925514172003,0.573814886733,0.818964674772,0.00375288437214,0.0,0.818938276764,-0.573741979415,-0.0118737866803,0.0,-0.00757117030722,0.00988692657362,-0.999922460025,0.0,0.471382864512,0.0110771369402,0.304700626503,1.0,-0.39998,-0.525688,1.674
0.143189580508,-0.217603250057,-0.136083132665,-2.37216035063,-0.022948195007,2.14886159038,-0.151243617039,-1.08472466954,-1.24025930522,-0.043711674141,-1.23889337182,-0.214277337035,0.0506926957489,-0.96329282968,0.573821958976,0.81895945882,0.00380934465438,0.0,0.818932809473,-0.573747558491,-0.0119808011293,0.0,-0.00762633504478,0.00999463652191,-0.999920970004,0.0,0.464974196808,0.00266670748786,0.304698646988,1.0,-0.39998,-0.525688,1.69
0.124586257879,-0.23822410702,-0.136664936391,-2.39307848601,-0.0264670205807,2.14900821366,-0.167743254267,-1.09825029208,-1.20216418362,-0.0319761325326,-1.20851071116,-0.187507321998,-0.0117755226282,-0.981112737544,0.573892575931,0.81891005589,0.00379190645144,0.0,0.818882255246,-0.573817024612,-0.0121087245656,0.0,-0.00774024485692,0.0100544256177,-0.999919495327,0.0,0.458135660357,-0.00626747281364,0.304677012766,1.0,-0.39998,-0.525688,1.707
0.105304256816,-0.258532309656,-0.137326946896,-2.41312867,-0.0299233235797,2.14901607324,-0.184966933963,-1.14057368149,-1.18356860479,-0.0328949759966,-1.1775245874,-0.208922421924,0.000292564958754,-1.02152154426,0.573987535288,0.818842243288,0.00405423764762,0.0,0.818818619624,-0.573912013927,-0.0119086240811,0.0,-0.00742465171133,0.0101552825799,-0.999920869261,0.0,0.451385260792,-0.0152691957319,0.304757365769,1.0,-0.39998,-0.525688,1.724
0.0855269078966,-0.278337522892,-0.13797161311,-2.4323202085,-0.0333219704374,2.14866139583,-0.202703621716,-1.18090009861,-1.13934584233,-0.042469047162,-1.12920953779,-0.187612967841,-0.0420033262022,-1.05348587294,0.57405459772,0.818793964856,0.00430219160929,0.0,0.818774470618,-0.573979513011,-0.0116889609534,0.0,-0.00710161756744,0.0102328234488,-0.999922425167,0.0,0.444664684427,-0.0242146719097,0.304839842783,1.0,-0.39998,-0.525688,1.741
0.0651929864453,-0.297697966493,-0.138512700561,-2.45075443551,-0.0366353664791,2.14784349039,-0.221172695296,-1.22096087501,-1.13302004389,-0.0380217436662,-1.05650047397,-0.195502878899,-0.0437732933212,-1.10776676366,0.573911428429,0.818893458459,0.0044635090488,0.0,0.818876438894,-0.573836435013,-0.0115702453528,0.0,-0.0069136072203,0.0102955566539,-0.999923098817,0.0,0.437916999324,-0.0330896701781,0.304906705014,1.0,-0.39998,-0.525688,1.758
0.0454971097007,-0.31544223259,-0.139095277085,-2.46759380333,-0.0397468989685,2.14674137235,-0.238973414471,-1.23103843469,-1.08868773528,-0.0320548534723,-1.04899909958,-0.193113372807,-0.076715116646,-1.12936727347,0.573903364724,0.818899294497,0.00442948440772,0.0,0.818881099591,-0.573827390089,-0.0116883709898,0.0,-0.00702997462904,0.0103354154904,-0.99992187627,0.0,0.431082458371,-0.0419855932322,0.304853407653,1.0,-0.39998,-0.525688,1.775
0.0239403274978,-0.333849572968,-0.139721953867,-2.48458473533,-0.0429895230258,2.14537686235,-0.258604019799,-1.27538630057,-1.06664392698,-0.0376371727608,-0.986649565786,-0.191882132623,-0.0881295570154,-1.16903703009,0.57390529819,0.818897276692,0.0045503666453,0.0,0.818880919798,-0.573829353323,-0.0116042818043,0.0,-0.00689171350492,0.010386167199,-0.99992231289,0.0,0.424314279793,-0.0509194789603,0.304883749396,1.0,-0.39998,-0.525688,1.792
0.00178935206795,-0.351668290512,-0.140403104484,-2.50079521695,-0.0461475092574,2.1435979754,-0.278863155775,-1.30865859845,-1.04954168397,-0.0346690104404,-0.913688270738,-0.184314289184,-0.112668071164,-1.22407516779,0.573923692122,0.818884296801,0.00456628672416,0.0,0.818867719426,-0.573847052548,-0.0116604144055,0.0,-0.0069283134646,0.0104315737235,-0.999921587297,0.0,0.417907280785,-0.0593347115675,0.30488998156,1.0,-0.39998,-0.525688,1.808
-0.0209851958707,-0.368980721932,-0.141138314729,-2.51622725684,-0.0491933867985,2.14172248018,-0.299836624547,-1.34697366132,-0.996711440273,-0.0436633150991,-0.904533677128,-0.189080277805,-0.109233307481,-1.26741193474,0.57395616341,0.818860670835,0.00471923132269,0.0,0.81884609081,-0.573879072079,-0.0116033226329,0.0,-0.00679336725608,0.0105243252873,-0.999921541291,0.0,0.411117411575,-0.0682927921096,0.304920527488,1.0,-0.39998,-0.525688,1.825
-0.0443245960011,-0.385632349015,-0.141823449005,-2.53082331417,-0.0521949578016,2.13959102701,-0.321376772962,-1.39437540905,-0.959749918502,-0.0533867112225,-0.845898294473,-0.177354977281,-0.115521644467,-1.27414777389,0.573971830038,0.818849320007,0.00478292264735,0.0,0.818835604175,-0.573894605744,-0.0115750479281,0.0,-0.00673345625786,0.0105603821178,-0.999921566372,0.0,0.40432798466,-0.0772204714008,0.304943733255,1.0,-0.39998,-0.525688,1.842
-0.0668331020157,-0.400698593128,-0.142437056321,-2.54387461614,-0.0548145168918,2.13746663085,-0.342327668271,-1.41825419635,-0.933596231594,-0.0396886700708,-0.822769517731,-0.174537366362,-0.13594891915,-1.33558009909,0.573947799339,0.818865417304,0.00490906083043,0.0,0.818852804853,-0.573869358143,-0.0116099384286,0.0,-0.00668994629055,0.0106835025323,-0.99992055054,0.0,0.397929076406,-0.0855903867429,0.304942557867,1.0,-0.39998,-0.525688,1.858
-0.0912687969633,-0.416084750813,-0.143103780334,-2.5567732496,-0.0576491213882,2.13505234422,-0.365178391859,-1.4588128874,-0.91155925723,-0.0358742952678,-0.744518450858,-0.165344583347,-0.128634938721,-1.35555678429,0.573871809532,0.818918035962,0.00501432971471,0.0,0.818907835633,-0.573794778576,-0.0114129627564,0.0,-0.00646920938898,0.0106560566451,-0.999922295874,0.0,0.391182345292,-0.0945043333306,0.305039730932,1.0,-0.39998,-0.525688,1.875
-0.11628740438,-0.430572683917,-0.143753406263,-2.56903232567,-0.0602633607937,2.13250392164,-0.388723658164,-1.47446306428,-0.827660995837,-0.0374736938525,-0.726472007022,-0.153165805817,-0.167942099915,-1.38169614554,0.573798947908,0.818968968952,0.0050341011903,0.0,0.818957775872,-0.573719825786,-0.0115961088577,0.0,-0.00660881689739,0.0107767588627,-0.999920089311,0.0,0.384361755248,-0.103380880743,0.304987744815,1.0,-0.39998,-0.525688,1.892
-0.141816973112,-0.444353572014,-0.144408108746,-2.58030265083,-0.0628166023372,2.12988982134,-0.412826732105,-1.518519904,-0.792427326026,-0.0286176084997,-0.635995378236,-0.138344719721,-0.158265829705,-1.43624884162,0.573746309172,0.81900540111,0.00510613020592,0.0,0.818995226326,-0.573667117914,-0.0115587188105,0.0,-0.00653756000511,0.0108138767206,-0.999920157002,0.0,0.377594076224,-0.112265792533,0.305036842167,1.0,-0.39998,-0.525688,1.909
-0.166404909852,-0.456471910735,-0.145038355214,-2.59024204317,-0.0651377759245,2.12753063102,-0.436173358672,-1.54028731538,-0.748660923835,-0.0367200798742,-0.608676219238,-0.133553164952,-0.15938558828,-1.48217816331,0.573680077284,0.819051666038,0.00512681079756,0.0,0.819041527457,-0.57360045136,-0.0115864317773,0.0,-0.00654927135686,0.0108461848467,-0.999919730438,0.0,0.371200394412,-0.120656846242,0.305011443341,1.0,-0.397548,-0.522491657143,1.925
-0.192715723592,-0.468181919793,-0.145463894791,-2.59985333097,-0.0672319117745,2.12501714952,-0.461240148801,-1.54217280223,-0.663525161604,-0.020756086584,-0.537404007172,-0.125165667986,-0.143602861912,-1.46532286564,0.573569378741,0.819129063442,0.00514704736558,0.0,0.819117463019,-0.573486871461,-0.0118379449032,0.0,-0.00674517049615,0.011006130986,-0.999916680407,0.0,0.36450709184,-0.129364288681,0.304925250921,1.0,-0.383520571429,-0.504055608163,1.942
-0.218974753854,-0.478786533003,-0.14572293823,-2.6081368206,-0.0690401165425,2.12271484379,-0.485987898968,-1.52200185998,-0.597180910362,-0.0114255735143,-0.467258255826,-0.0907848055469,-0.133543312337,-1.44673987564,0.573741472711,0.819007430742,0.00531956591886,0.0,0.818998817924,-0.573659595681,-0.0116769612614,0.0,-0.00651202338402,0.011056488022,-0.999917670423,0.0,0.358094262405,-0.137896604731,0.305002587203,1.0,-0.369493142857,-0.485619559184,1.959
-0.244832680884,-0.488173399118,-0.145796989305,-2.61558232712,-0.0705421654549,2.12048499271,-0.510507121465,-1.50988628275,-0.527733717719,0.00205360130172,-0.418324773923,-0.0757932842962,-0.129290731562,-1.44474911799,0.57381228305,0.818957115418,0.00542713805208,0.0,0.818948856084,-0.573728250211,-0.0118073252955,0.0,-0.00655611687212,0.011219952803,-0.99991556143,0.0,0.351831015754,-0.146072725123,0.304978737198,1.0,-0.355465714286,-0.467183510204,1.976
-0.270198459655,-0.496365810117,-0.145688847929,-2.62200617079,-0.0717573145053,2.11851589901,-0.534587619733,-1.46931940557,-0.464445970054,0.00689432518953,-0.361043987452,-0.054362851719,-0.103355469488,-1.40795727395,0.573886135966,0.81890443084,0.00556623736012,0.0,0.818897486861,-0.57380073997,-0.0118475197134,0.0,-0.00650820057466,0.0113575237621,-0.999914321319,0.0,0.345836710083,-0.153936334166,0.304972483838,1.0,-0.341438285714,-0.448747461225,1.993
-0.293452183744,-0.503044250947,-0.1454406769,-2.62715887585,-0.0726624935041,2.11685095168,-0.556699724768,-1.43269297685,-0.393552065577,0.00272033911993,-0.303138005058,-0.0477074134992,-0.0975281607354,-1.37027940542,0.573947214594,0.818860656264,0.005706783993,0.0,0.818855420186,-0.573861082483,-0.0118324023436,0.0,-0.00641431100388,0.0114644260973,-0.999913708051,0.0,0.340452268301,-0.161023614049,0.304989804701,1.0,-0.328236,-0.431395885714,2.009
-0.31751890828,-0.509135005174,-0.145109465784,-2.63173138786,-0.0735173018421,2.11535878055,-0.57966007527,-1.39642001342,-0.339410195835,0.0182939738526,-0.250879533144,-0.051266842525,-0.0768379775673,-1.33807316036,0.573974382351,0.818840839143,0.00581682536195,0.0,0.818838145237,-0.573889882219,-0.0116293547448,0.0,-0.00618449244673,0.0114382104183,-0.999915456124,0.0,0.334996113561,-0.168300997136,0.305056581954,1.0,-0.314208571429,-0.412959836735,2.026
-0.340871396691,-0.514276205271,-0.144629068174,-2.6356924506,-0.0741537392817,2.11389596364,-0.601971464281,-1.34708196524,-0.278200922589,0.0511185908296,-0.224799478684,-0.0364979194511,-0.0960102358579,-1.29584512103,0.57397270905,0.818841724317,0.00585719080455,0.0,0.818838886762,-0.573886836263,-0.0117270453431,0.0,-0.006241349495,0.0115273215193,-0.999914079516,0.0,0.329707777259,-0.175214711045,0.305046357149,1.0,-0.300181142857,-0.394523787755,2.043
-0.363385394199,-0.518483896458,-0.144092635767,-2.63907449417,-0.074612841452,2.11269025382,-0.623547584546,-1.30989106265,-0.226813843005,0.0430980505065,-0.187358821317,-0.0349720006964,-0.0695410555817,-1.25385250667,0.57395916511,0.818850950962,0.00589438688066,0.0,0.818847277498,-0.573870731324,-0.0119275632339,0.0,-0.00638440330637,0.0116727616221,-0.999911489098,0.0,0.324642864594,-0.181791929947,0.304971655159,1.0,-0.286153714286,-0.376087738776,2.06
-0.383803590714,-0.521695252736,-0.143532122807,-2.64160851494,-0.07487573833,2.11178400807,-0.643093568468,-1.25950632866,-0.181786676326,0.0297340362696,-0.139683131565,-0.0139248020264,-0.0564031403734,-1.22256196343,0.573994077863,0.81882593779,0.00596901015291,0.0,0.818822701701,-0.573904357518,-0.0119966037769,0.0,-0.00639761257498,0.0117737672238,-0.999910220449,0.0,0.319857468007,-0.18808043639,0.30493770971,1.0,-0.272126285714,-0.357651689796,2.077
-0.405752165372,-0.524600988628,-0.142729262824,-2.64382591652,-0.0750722485582,2.11088075297,-0.664246847543,-1.20848439569,-0.146254198661,0.049684199533,-0.117040736522,-0.00556881987152,-0.0561238012171,-1.14368227062,0.573870020667,0.818912906988,0.00596632632829,0.0,0.818909430359,-0.573779959192,-0.0120270611031,0.0,-0.00642588081139,0.0117880776556,-0.999909870579,0.0,0.31560278781,-0.19365994505,0.304937668009,1.0,-0.258924,-0.340300114286,2.093
-0.424522519957,-0.526562932288,-0.142086923803,-2.64533454839,-0.0751716933047,2.11028754513,-0.682297336986,-1.154960119,-0.110050677624,0.0413198388834,-0.0864975014048,-0.000558135236108,-0.0384359065256,-1.11221402337,0.573875816051,0.818908653838,0.00599260559143,0.0,0.818905614153,-0.57378581859,-0.0120073475731,0.0,-0.00639457184781,0.0117983319038,-0.999909950353,0.0,0.311267776269,-0.199388586816,0.304938813785,1.0,-0.244896571429,-0.321864065306,2.11
-0.443504639755,-0.528151240284,-0.141348920741,-2.64658908863,-0.0752220920816,2.1097767409,-0.700524588947,-1.08026726943,-0.0839983204777,0.0510914534182,-0.064936268934,-2.39753348155e-06,-0.0263274295884,-1.06223852829,0.573875662734,0.818908947221,0.00596714199426,0.0,0.818905505137,-0.573785640598,-0.0120232774951,0.0,-0.00642223277187,0.0117866186987,-0.999909911215,0.0,0.30715632784,-0.204780054063,0.304925217653,1.0,-0.230869142857,-0.303428016327,2.127
-0.461535320084,-0.529201355503,-0.140629362008,-2.6474470613,-0.0751769081611,2.1093839821,-0.7178077036,-1.05019411898,-0.0484243593864,0.032075795431,-0.0459009511117,-0.000353410110819,-0.0178479741542,-0.998085193127,0.573947947423,0.81885833858,0.00596002413285,0.0,0.818854481527,-0.573857350339,-0.0120758621827,0.0,-0.00646834132262,0.011811536193,-0.999909319975,0.0,0.303269105654,-0.209885162316,0.304904375463,1.0,-0.216841714286,-0.284991967347,2.144
-0.478522861842,-0.52991749591,-0.139771118084,-2.64798919139,-0.0750751635518,2.10910850645,-0.73413489745,-0.97413359082,-0.0335229356803,0.0555062313487,-0.0255658889699,0.00953024869189,-0.0116604298557,-0.941267823955,0.573894110503,0.818896593563,0.00588777405062,0.0,0.818892175385,-0.573804517973,-0.0120302597158,0.0,-0.00647323197965,0.0117257730567,-0.999910297734,0.0,0.299646228963,-0.214642679168,0.304918660839,1.0,-0.202814285714,-0.266555918367,2.161
-0.494558111376,-0.530247868383,-0.13896196971,-2.64823900583,-0.0748710717282,2.108921626,-0.749471785118,-0.915628052179,-0.00958542074986,0.0527254769039,-0.00627485114548,0.0154036583882,-0.00932577003302,-0.881748988387,0.573967380225,0.818845354519,0.0058718583934,0.0,0.818840917865,-0.573878179903,-0.0120055304818,0.0,-0.00646106585163,0.0116991260397,-0.999910688551,0.0,0.296238569291,-0.219126865887,0.304931253127,1.0,-0.188786857143,-0.248119869388,2.178
-0.508516061595,-0.530328561708,-0.138077502119,-2.64832568098,-0.0745138885664,2.10883106232,-0.762994381976,-0.857437501186,-0.000341985798351,0.0526300593357,-0.00309917616504,0.0187939925024,-0.00562126119918,-0.825042259267,0.573847298266,0.818929304306,0.00590082393716,0.0,0.818925333949,-0.573758166747,-0.011983756031,0.0,-0.0064283268302,0.0117094056772,-0.999910779236,0.0,0.293305979095,-0.222958008321,0.304937150458,1.0,-0.175584571429,-0.230768293878,2.194
-0.523301205423,-0.530197065075,-0.137118016054,-2.64829149703,-0.0741292416581,2.10881521156,-0.777154729456,-0.788439520466,0.0194475929363,0.0647007584154,0.00380544257546,0.027065547458,-0.000133729655804,-0.767094428088,0.573848576098,0.818928402597,0.00590169743932,0.0,0.818924512199,-0.573759565792,-0.0119729229021,0.0,-0.0064189348508,0.0117039147924,-0.999910903858,0.0,0.290191128268,-0.227002913957,0.304928809443,1.0,-0.160732,-0.211247771429,2.212
-0.535350079376,-0.529912950511,-0.13621494153,-2.64813294078,-0.0736916765606,2.10882479308,-0.788703713866,-0.736905444756,0.026329030311,0.0529474270685,0.00867729561915,0.0210944641564,0.00261487294315,-0.698194253536,0.573816968624,0.818950352166,0.00592908993178,0.0,0.818946701483,-0.573727640505,-0.0119850553444,0.0,-0.00641360599995,0.0117330626668,-0.999910596453,0.0,0.287677011766,-0.23025537531,0.304921888593,1.0,-0.147529714286,-0.193896195919,2.228
-0.547249225113,-0.529450829247,-0.135321779328,-2.6478826954,-0.0732406964523,2.10884224665,-0.800004625549,-0.669436371702,0.0330812335928,0.0609502884048,0.0225981721953,0.0216225246719,0.00200364479888,-0.644282868356,0.573884045558,0.818903160664,0.00595504913237,0.0,0.818899220926,-0.573793450209,-0.0120784670099,0.0,-0.00647425127196,0.0118084519561,-0.999909318155,0.0,0.285180622809,-0.233458048288,0.304891910414,1.0,-0.133502285714,-0.175460146939,2.245
-0.557339249851,-0.528935769967,-0.134404175988,-2.64758693617,-0.0727451017094,2.1089290762,-0.809702403002,-0.622504991232,0.0343334993304,0.0522893488931,0.0197981388726,0.027519134425,0.00507955550425,-0.588204915953,0.573786514211,0.818971295675,0.00598329935115,0.0,0.818967414315,-0.573695252497,-0.0121193421413,0.0,-0.00649292791314,0.0118542705119,-0.999908654907,0.0,0.283106513535,-0.236130058088,0.304869642835,1.0,-0.1203,-0.158108571429,2.261
-0.567826372235,-0.528316901557,-0.133510320118,-2.64718213157,-0.0722382714547,2.10901816233,-0.819434825544,-0.558783740209,0.0390539292144,0.0486203986858,0.0296983228722,0.0247374691308,0.00756691382183,-0.513223012485,0.574013082217,0.818812219136,0.00602313362196,0.0,0.818808611447,-0.573921149151,-0.0121539819702,0.0,-0.00649515023032,0.0119085676063,-0.999907995288,0.0,0.280933595325,-0.238924274367,0.304858349744,1.0,-0.105447428572,-0.13858804898,2.279
-0.575915738347,-0.527710273043,-0.132592389432,-2.64677285964,-0.0717290740573,2.1091571892,-0.827175302603,-0.478234308259,0.0401845188032,0.057274541,0.0235529082152,0.0314595176535,0.00871328338143,-0.464519944707,0.573891154062,0.818897640562,0.00602863768042,0.0,0.818894213237,-0.573799421677,-0.0121341712148,0.0,-0.00647754007618,0.0119007391584,-0.999908202728,0.0,0.27932675675,-0.241031313407,0.304858141598,1.0,-0.0922451428573,-0.12123647347,2.295
-0.584059486308,-0.527087117901,-0.131635027383,-2.64632208041,-0.0712013787654,2.10926849221,-0.834673270207,-0.433697951981,0.0361401830108,0.0607056278093,0.0224102444179,0.032078478341,0.00318257627924,-0.405641278207,0.573994153292,0.818825472293,0.00602534752246,0.0,0.818822119714,-0.573902629929,-0.0121183550144,0.0,-0.00646497944956,0.0118897816713,-0.999908414372,0.0,0.277705648875,-0.243137839556,0.304869088868,1.0,-0.0773925714287,-0.101715951021,2.313
-0.590303679311,-0.52655557851,-0.130762703608,-2.64592900232,-0.0706925211212,2.10938998471,-0.840307132516,-0.371061529821,0.033211501706,0.0447153887278,0.0264571069047,0.0314941871703,0.0111131058071,-0.327066813413,0.57411645156,0.818739665174,0.00603387268939,0.0,0.818736726248,-0.574025423669,-0.0120719913815,0.0,-0.00642034546629,0.0118711105832,-0.999908923801,0.0,0.276505149951,-0.244718547572,0.304885763708,1.0,-0.0641902857144,-0.0843643755104,2.329
-0.595524923705,-0.526037710623,-0.129868705294,-2.64555963544,-0.0701590132221,2.10948114047,-0.845138165502,-0.302904533161,0.0344259456526,0.0578304776495,0.0201047269312,0.0388691972343,0.00363831812887,-0.275783841597,0.574052167893,0.818784637693,0.00604752148599,0.0,0.818781868158,-0.573961079385,-0.0120697402297,0.0,-0.00641159936448,0.011880490221,-0.99990886852,0.0,0.275543710145,-0.245994412712,0.304894376652,1.0,-0.0509880000001,-0.0670128000002,2.345
-0.599940247167,-0.525610494682,-0.128849839262,-2.6452962849,-0.0695783845334,2.10955541747,-0.849100658463,-0.240757780542,0.0227794345575,0.0599882996031,0.0137676476762,0.0315464955066,0.00506594729744,-0.207866767129,0.57396511199,0.818845709359,0.00604163750475,0.0,0.818842656674,-0.573873685222,-0.0121014016449,0.0,-0.00644216806624,0.0118931618356,-0.999908521402,0.0,0.274779240195,-0.246984996582,0.304889398599,1.0,-0.0369605714287,-0.0485767510206,2.362
-0.603438247136,-0.525309615181,-0.127809060444,-2.64511215042,-0.0690397390253,2.10960120881,-0.852053435377,-0.186448323701,0.0127131342473,0.0575105951779,0.0103245451282,0.0337690853121,0.00886868025743,-0.151963774187,0.57391569311,0.818880734921,0.00598882948635,0.0,0.818876912666,-0.573824356754,-0.0121225574942,0.0,-0.00649051752483,0.0118616685607,-0.999908582822,0.0,0.274218876142,-0.247699878737,0.30489249947,1.0,-0.0229331428573,-0.030140702041,2.379
-0.605960132579,-0.525036723493,-0.12698775927,-2.6449219218,-0.0685456179656,2.10968169678,-0.854087738323,-0.133937570589,0.0171764139119,0.0332142752405,0.0126649580544,0.0253591166424,0.0069383753974,-0.109031387879,0.573955205126,0.818852997563,0.00599481374916,0.0,0.818849498439,-0.573864283634,-0.0120842780767,0.0,-0.00645516211067,0.0118449125853,-0.999909010324,0.0,0.273857724841,-0.248206940431,0.304906028064,1.0,-0.0197115789474,-0.0259066466165,2.396
-0.607893290997,-0.52484218789,-0.126437374788,-2.64475343257,-0.068238621844,2.1097273627,-0.855785229543,-0.112738853632,0.0131303905176,0.0245468472062,0.00910159507978,0.0182316071845,0.00537896592712,-0.103778852954,0.573898744921,0.818892687097,0.00597867036744,0.0,0.818889293266,-0.573808482876,-0.0120373275863,0.0,-0.00642679149507,0.0118043036152,-0.999909673304,0.0,0.273560902641,-0.248624330278,0.304928646171,1.0,-0.0193715789474,-0.0254597894737,2.413
-0.60951749908,-0.524673479317,-0.12609873961,-2.64459630145,-0.0680607560571,2.10976642684,-0.857300023075,-0.0980714366758,0.0106917037257,0.0156861623361,0.00927061494194,0.0157347733689,0.00791087554161,-0.0909596526886,0.573832885327,0.818938986513,0.00595843833211,0.0,0.818935641756,-0.573743294679,-0.0119913874382,0.0,-0.0064017238887,0.011760856405,-0.999910346075,0.0,0.273282245618,-0.24901484817,0.304949786419,1.0,-0.0190515789474,-0.0250392180451,2.429
-0.611135899551,-0.524460875245,-0.125888895902,-2.64442867474,-0.0679093305395,2.10983521289,-0.85884105142,-0.0842358959653,0.011896942637,0.00809392126003,0.00604588979642,0.00383305635122,0.00409665458766,-0.0839185018017,0.573821244458,0.818947006488,0.005977196125,0.0,0.818944139794,-0.573732011083,-0.0119508266205,0.0,-0.00635790734194,0.0117528542215,-0.99991071973,0.0,0.272981829402,-0.249441061919,0.304959016599,1.0,-0.0186915789474,-0.024566075188,2.447
-0.612541916983,-0.524298806071,-0.125777866972,-2.64428995488,-0.0678640442546,2.10983667293,-0.86026640285,-0.0862929262177,0.0107169765283,0.00630858218467,0.0159619431853,0.000966997294914,-0.000414247015521,-0.0911327236747,0.573753487233,0.818994589575,0.00596196580928,0.0,0.818991461435,-0.573664212513,-0.0119626200546,0.0,-0.00637727746323,0.0117466202228,-0.999910669633,0.0,0.272687423299,-0.249826922069,0.304965440772,1.0,-0.0183715789474,-0.0241455037594,2.463
-0.614012596615,-0.524153525473,-0.125712250775,-2.64413746984,-0.0678205892346,2.10985002624,-0.861667171909,-0.0871517752404,0.0120838383323,0.0036941497826,0.00125822418617,0.00588290749286,-0.000307400576829,-0.0835315741883,0.573790703295,0.818968492748,0.00596519902721,0.0,0.818965599069,-0.57370176289,-0.0119323802788,0.0,-0.0063501205534,0.0117322075484,-0.999911011678,0.0,0.272372275254,-0.250245712947,0.304984201476,1.0,-0.0180315789474,-0.0236986466165,2.48
-0.615392739692,-0.523985932785,-0.125675535004,-2.64397062318,-0.0677849777793,2.10991792477,-0.863056138795,-0.0832083902125,0.00887792736686,0.00138635467406,0.0110485718163,-0.000264462952254,0.00485934236681,-0.0846853965033,0.573781285782,0.818975053825,0.00597027640438,0.0,0.81897269894,-0.573693203853,-0.0118563546153,0.0,-0.00628507266807,0.0116926728964,-0.999911885749,0.0,0.272084266897,-0.250657331066,0.305005262261,1.0,-0.0176915789474,-0.0232517894737,2.497
-0.616724265197,-0.523803773747,-0.125676919623,-2.64381286093,-0.0677489711208,2.10994840502,-0.864379827191,-0.078427063499,0.0149191287141,-5.7004186194e-05,0.0163156982509,0.000274755729241,-0.000573248042157,-0.0746003413443,0.573812289684,0.818953129821,0.00599785508142,0.0,0.818951194335,-0.573724208956,-0.0118414634621,0.0,-0.00625660936101,0.0117069532399,-0.999911897162,0.0,0.271791332664,-0.251056357462,0.305012737481,1.0,-0.0173515789474,-0.0228049323308,2.514
-0.618012658367,-0.523638338592,-0.125686760771,-2.64368943997,-0.0677283538595,2.109946009,-0.865582942408,-0.0806097838639,0.0121044781434,-0.00145465199669,0.0052048509536,-0.000164812723596,4.9058648402e-05,-0.0803237963675,0.573904462979,0.818888365077,0.00602161231625,0.0,0.818886487298,-0.57381580099,-0.0118783145224,0.0,-0.0062718380169,0.011748260865,-0.999911317275,0.0,0.2714924589,-0.251434109098,0.305007709886,1.0,-0.0170315789474,-0.0223843609023,2.53
-0.619327662936,-0.523478669135,-0.125663628246,-2.64358924632,-0.0677033187956,2.10996306388,-0.866928247633,-0.0769682091326,0.0100498700603,0.00454146232706,0.00304023850487,0.00144664632214,0.00326237170628,-0.0740846407197,0.573879414425,0.818905817127,0.00603550128132,0.0,0.81890388854,-0.573790269221,-0.0119119763988,0.0,-0.00629179599792,0.0117787602866,-0.999910833079,0.0,0.271191459663,-0.251807830857,0.304996681721,1.0,-0.0166915789474,-0.0219375037594,2.547
-0.620575512575,-0.523293499672,-0.12562017025,-2.64347676473,-0.0676703652662,2.10999102715,-0.868195301987,-0.0696763614058,0.0106823387348,0.00397082373032,0.00981376308924,0.000292975710408,2.13031611682e-05,-0.0693189132586,0.573853134415,0.818924177806,0.00604301482399,0.0,0.818922107165,-0.573763515849,-0.0119481035018,0.0,-0.00631745103528,0.0118054423694,-0.999910356653,0.0,0.270915938554,-0.252161772021,0.304983292409,1.0,-0.0163515789474,-0.0214906466165,2.564
-0.621800856039,-0.523102909293,-0.125540070247,-2.64335995929,-0.067640060307,2.11001397863,-0.869447792284,-0.0747186962445,0.0150808111714,0.00459498840863,0.00787693963146,0.000826037552288,6.22649186659e-05,-0.0792200532677,0.573793516594,0.818966048019,0.00602987634971,0.0,0.81896354479,-0.573703476796,-0.0119908264707,0.0,-0.0063608412066,0.0118187349448,-0.999909924545,0.0,0.270653215592,-0.252501735719,0.304970309616,1.0,-0.0160115789474,-0.0210437894737,2.581
-0.622972560056,-0.522915721139,-0.125438989829,-2.64326681118,-0.0676127800306,2.11005516626,-0.870668474748,-0.0672028871163,0.00917312728347,0.010646606307,0.00319056890164,0.00166257476256,0.005638470669,-0.0702553559767,0.57369873291,0.81903263325,0.00600470060847,0.0,0.819029533422,-0.573608320237,-0.012035997579,0.0,-0.00641365204407,0.0118232913331,-0.999909533333,0.0,0.270405244371,-0.252819174842,0.304949864972,1.0,-0.0156715789474,-0.0205969323308,2.598
-0.624031929123,-0.522746957135,-0.125358760694,-2.64317161194,-0.0675856579925,2.11007199664,-0.871724441463,-0.0659240854265,0.0102162523495,0.00784904265164,0.00581798151273,0.000546513491547,0.00150850563825,-0.0741781771943,0.573661545121,0.819058791313,0.00598956786152,0.0,0.819055186855,-0.573570639338,-0.0120859205477,0.0,-0.00646376365546,0.0118392424217,-0.999909021911,0.0,0.270177886056,-0.253108179921,0.304934531221,1.0,-0.0153515789474,-0.0201763609023,2.614
-0.625146827963,-0.522575525077,-0.125332523891,-2.64307324409,-0.0675574001572,2.11010640577,-0.872925762274,-0.0662956255377,0.00707965554911,-0.00113719492999,0.00705129092417,0.000785291737665,0.00030167770775,-0.0744285507867,0.573589635115,0.819109058151,0.00600235328849,0.0,0.819105398809,-0.573498283532,-0.0121165725404,0.0,-0.00648257982326,0.0118667288778,-0.999908574273,0.0,0.269928365733,-0.253427013933,0.304919868708,1.0,-0.0150115789474,-0.0197295037594,2.631
-0.626306016662,-0.52242498997,-0.125333191784,-2.64297931536,-0.0675363318802,2.11012284334,-0.874043900599,-0.0674448221515,0.0095561058212,-0.00059474294116,0.00435946138076,0.000585049476287,0.000332878792227,-0.0634185378736,0.573637820699,0.819075159397,0.00602335652587,0.0,0.819071541819,-0.573545942035,-0.0121494303748,0.0,-0.00649675001059,0.0119031618523,-0.999908049261,0.0,0.269657439709,-0.253761050919,0.304908677783,1.0,-0.0146715789474,-0.0192826466165,2.648
-0.627429308493,-0.522268029668,-0.125344838553,-2.64286008422,-0.0675073907765,2.11014003028,-0.875156681016,-0.065150703554,0.00896790629199,-0.000556072349054,0.00736548604023,0.00137567576635,0.000871564894481,-0.0667576118424,0.573673331058,0.819050067053,0.00605341180187,0.0,0.819046728521,-0.57358110436,-0.0121622416233,0.0,-0.00648948713337,0.0119354105915,-0.999907712007,0.0,0.269399504878,-0.254093109529,0.304906427735,1.0,-0.0143315789474,-0.0188357894737,2.665
-0.628545090467,-0.522111600277,-0.125348164434,-2.64273257116,-0.0674819487337,2.11017218825,-0.876267275289,-0.0683979154335,0.00869394310522,0.000175910111962,0.00695281469748,0.00263665419625,0.00285972787766,-0.0663411096835,0.573697471274,0.819033006384,0.00607394504369,0.0,0.819029983997,-0.573605237186,-0.0121517113159,0.0,-0.00646873050741,0.0119463791703,-0.999907715517,0.0,0.269148906137,-0.25442554571,0.304909601333,1.0,-0.0139915789474,-0.0183889323308,2.682
-0.629560136686,-0.521978192658,-0.125336770726,-2.64259835168,-0.0674598998516,2.11020432288,-0.877259158727,-0.0644253816719,0.00773721577128,0.000652849422307,0.000959418030443,-0.000391959850756,0.00168432147479,-0.0609367931414,0.573724660292,0.819013904687,0.00608152961773,0.0,0.819011227984,-0.573632843732,-0.0121126351126,0.0,-0.00643197528623,0.0119303882024,-0.999908143547,0.0,0.268928487556,-0.254729803023,0.304924616912,1.0,-0.0136715789474,-0.0179683609023,2.698
-0.630585890484,-0.521821146578,-0.125292217818,-2.64245858204,-0.0674310087128,2.11025736131,-0.878250826766,-0.0624990040576,0.00693793037569,-0.000353003969333,0.00945156753541,0.0016534736514,0.00396657958898,-0.0590665449145,0.573740585573,0.819002788749,0.00607613271614,0.0,0.819000318706,-0.573649303536,-0.0120706840583,0.0,-0.00640047783409,0.0119020251218,-0.999908683671,0.0,0.268716786038,-0.255032571739,0.30493603902,1.0,-0.0133315789474,-0.0175215037594,2.715
-0.631568471018,-0.521666115503,-0.125247600188,-2.64233100912,-0.0674042059287,2.11028604485,-0.879322996941,-0.0569806585536,0.00505463308105,0.00131779054724,0.0126104532829,0.00249000703389,4.15015142039e-05,-0.0653059359011,0.573653711241,0.819063658882,0.00607364622944,0.0,0.819061200479,-0.573562540033,-0.0120627294509,0.0,-0.00639665051691,0.0118947464999,-0.999908794775,0.0,0.268508881173,-0.255317389596,0.304940572464,1.0,-0.0129915789474,-0.0170746466165,2.732
-0.632525457332,-0.52150953391,-0.125197841046,-2.64222814495,-0.0673769578751,2.11029756004,-0.88031224536,-0.0602214337384,0.0141348675758,0.00823295877515,0.00726641232033,0.00311760082365,0.000479363445866,-0.0534776494511,0.573609197788,0.819094839269,0.00607284095436,0.0,0.819092137536,-0.573517607128,-0.0120984065804,0.0,-0.00642698492012,0.0119142029566,-0.999908368618,0.0,0.268299787887,-0.255585365951,0.30493195662,1.0,-0.0126515789474,-0.0166277894737,2.749
-0.633482109277,-0.521360369103,-0.12515471737,-2.64213308925,-0.0673596225549,2.11031424281,-0.881252992487,-0.0577601670777,0.0054476554565,-0.000997853413124,0.00430427699958,0.00434712764813,0.000347230838638,-0.051453714711,0.573604203944,0.819098381234,0.00606679307457,0.0,0.819095401584,-0.57351227242,-0.0121302674928,0.0,-0.00645662649487,0.0119274843796,-0.999908019315,0.0,0.268087402423,-0.255854431624,0.304922788072,1.0,-0.0123115789474,-0.0161809323308,2.766
-0.63441212633,-0.52120946903,-0.125147229825,-2.6420534479,-0.0673519897433,2.11034213044,-0.882193629022,-0.0541642765667,0.00878676272788,-0.00237166943783,0.00885317433911,0.000270262806757,0.00076923225764,-0.0448076583303,0.573597877626,0.819102777906,0.00607131866114,0.0,0.8190996052,-0.573505462213,-0.012168338979,0.0,-0.00648531070751,0.0119529782628,-0.999907529252,0.0,0.267871260073,-0.256122678381,0.304906077208,1.0,-0.0119715789474,-0.015734075188,2.783
-0.635273375934,-0.521066342758,-0.125143278444,-2.6419711561,-0.0673412308685,2.11036176256,-0.883078009853,-0.0504011615948,0.00550246925822,0.00158803015681,0.00259831051404,-0.000843471922287,0.000265009170465,-0.0502007074057,0.573585230165,0.819111570759,0.00607990842911,0.0,0.819108265848,-0.57349232882,-0.0122042822409,0.0,-0.00651001329026,0.0119805299504,-0.999907038994,0.0,0.267671470686,-0.25637245883,0.304892636201,1.0,-0.0116515789474,-0.0153135037594,2.799
-0.63622310009,-0.520921773061,-0.125137962187,-2.64186393889,-0.0673321018292,2.11038337033,-0.883960766237,-0.0556724300357,0.00916306104281,0.00114373575152,0.000954868548548,-0.000224948428165,0.000385477849259,-0.0513702513958,0.573645881921,0.819069072848,0.00608300591978,0.0,0.819065740805,-0.573552829242,-0.0122152040663,0.0,-0.0065162960725,0.0119898141005,-0.999906886787,0.0,0.267454985358,-0.256652177534,0.304890184006,1.0,-0.0112915789474,-0.0148403609023,2.817
-0.637051328901,-0.52079716987,-0.12514004948,-2.641751106,-0.0673286139215,2.11041236857,-0.88475134345,-0.0476662841528,0.0092947510136,0.000143002249879,0.00717999405564,0.000112415618235,0.000134571789556,-0.0485077497544,0.573685516949,0.819041320735,0.00608189718822,0.0,0.819038116654,-0.573592723148,-0.012194192065,0.0,-0.00649914033272,0.0119771675949,-0.999907150005,0.0,0.267270281428,-0.256904237209,0.304898069658,1.0,-0.0109715789474,-0.0144197894737,2.833
-0.637900699508,-0.52066402611,-0.125130125347,-2.64162235581,-0.0673227494909,2.1104538814,-0.885614582371,-0.0489453259456,0.0125531322973,0.000545951775084,0.00902051323401,0.00436574460195,-6.31576976493e-06,-0.042859323937,0.573676226198,0.819047883025,0.00607451307862,0.0,0.819044856313,-0.573583972411,-0.0121530589568,0.0,-0.00646981843277,0.0119474497161,-0.999907695687,0.0,0.267088208399,-0.257164549886,0.304911396014,1.0,-0.0106315789474,-0.0139729323308,2.85
-0.638681214456,-0.520541145101,-0.125122980214,-2.6415081203,-0.0673166821206,2.11048237848,-0.886394681792,-0.0514443276377,0.00552321692661,-0.00139967314241,0.00688052987956,-0.000408004665837,0.000161865074274,-0.0386645713831,0.573679972718,0.819045287837,0.0060706076047,0.0,0.819042367554,-0.573588026198,-0.0121294375763,0.0,-0.00645265509081,0.0119307299464,-0.999908006231,0.0,0.266917810957,-0.257401635107,0.304920719924,1.0,-0.0103115789474,-0.0135523609023,2.866
-0.639497407646,-0.520414191561,-0.125107696054,-2.64138423821,-0.0673072795712,2.11050505154,-0.887159476569,-0.0462681379758,0.0120681033457,0.000154794161831,0.00681945285879,0.000111220768972,0.000270020854524,-0.037934320533,0.573721597729,0.819016175148,0.00606465549788,0.0,0.819013339081,-0.57362996786,-0.0121060845348,0.0,-0.00643633483276,0.0119127852693,-0.999908325368,0.0,0.266741280214,-0.257647569349,0.304932622345,1.0,-0.00997157894737,-0.0131055037594,2.883
-0.640272945575,-0.520312373095,-0.125098252056,-2.64131323815,-0.0673016535808,2.11053623146,-0.887921970326,-0.0504055088669,0.00475071328391,-0.000576553690574,0.00443314329325,6.44489564513e-05,0.00447385734362,-0.0477675210053,0.573738494254,0.819004304761,0.00606925821986,0.0,0.819001598624,-0.573646970352,-0.0120946995536,0.0,-0.00642412309333,0.0119101562023,-0.999908435219,0.0,0.26655255939,-0.257886494715,0.304932417449,1.0,-0.00961157894737,-0.0126323609023,2.901
-0.641005846164,-0.520227498924,-0.12509492434,-2.64125573759,-0.0672933871002,2.11055329736,-0.888655813329,-0.0489803566933,0.00606587843276,0.000961288911837,0.00870198527863,-0.000294846317344,0.000346922352796,-0.0475721502648,0.573735219376,0.819006585425,0.00607107727635,0.0,0.819003817654,-0.573643530075,-0.0121075998162,0.0,-0.00643369365152,0.0119190213814,-0.99990826805,0.0,0.266389601891,-0.258081669435,0.304926769575,1.0,-0.00929157894737,-0.0122117894737,2.917
-0.641726619137,-0.520144258943,-0.12508535372,-2.64120553366,-0.0672805055097,2.11056836278,-0.889391968365,-0.0442346154678,0.00544738310097,-0.00157818051143,0.00213846276114,-0.00027870203181,0.000444150832442,-0.0357485971714,0.573724054098,0.81901433941,0.00608017192993,0.0,0.819011594138,-0.57363214931,-0.0121207610074,0.0,-0.00643941895604,0.0119339332141,-0.999908053334,0.0,0.266218881947,-0.258283665918,0.304920481011,1.0,-0.00895157894737,-0.0117649323308,2.934
-0.642415342005,-0.520063038676,-0.12507068657,-2.64115643953,-0.0672682578132,2.110592223,-0.890064059591,-0.0383428992934,0.00595902714035,0.00205717427474,0.00106208559575,0.000487542557891,0.00682591915609,-0.0377005762387,0.57373515715,0.819006528539,0.00608461691046,0.0,0.819003811741,-0.573643175813,-0.0121247720859,0.0,-0.00643999251711,0.0119399623421,-0.999907977664,0.0,0.266058528144,-0.258476942533,0.304915299584,1.0,-0.00861157894737,-0.011318075188,2.951
-0.643091589619,-0.519965024452,-0.125043604712,-2.6410805698,-0.0672589325894,2.11061034621,-0.89069059806,-0.040317600213,0.00742099867002,0.000397523313081,0.00485309353583,0.00397925861967,0.000876903426332,-0.0297505493151,0.573764627596,0.818985937469,0.00607727314856,0.0,0.818983131349,-0.573672684275,-0.0121255426081,0.0,-0.00644440735482,0.0119346214107,-0.999908012982,0.0,0.265908589179,-0.258670118928,0.304915905312,1.0,-0.00827157894737,-0.0108712180451,2.968
-0.643701448086,-0.519866382009,-0.125015519457,-2.64099505377,-0.0672511080453,2.11063347223,-0.891269069576,-0.0380767095729,0.00493572390444,0.000913555690405,0.00436578123258,0.00395050299698,0.00263486473118,-0.0401024101404,0.57377818416,0.818976525489,0.00606572178935,0.0,0.818973664649,-0.573686466145,-0.012112888774,0.0,-0.00644047306284,0.0119180071868,-0.999908236495,0.0,0.26577879402,-0.258848644319,0.304921109282,1.0,-0.00795157894737,-0.0104506466165,2.984
-0.644330715164,-0.519745197787,-0.124990191026,-2.64089741281,-0.0672398758519,2.11064928459,-0.891885980241,-0.0355844386364,0.00395604039313,0.00158393116018,6.13212794893e-05,0.00177041468438,-0.000709882247951,-0.0348721790625,0.573780235499,0.81897514032,0.00605869544406,0.0,0.818972166298,-0.573688507881,-0.012117493779,0.0,-0.00644824636772,0.0119149107659,-0.999908223299,0.0,0.265644693818,-0.259034213736,0.304922837494,1.0,-0.00761157894737,-0.0100037894737,3.001
-0.644937179938,-0.519662182045,-0.124977761746,-2.6408108417,-0.067228141251,2.11068889184,-0.892499433052,-0.0368660975761,0.00618523094173,0.00107714537594,0.000908938391355,-0.000329163069352,0.0011768898061,-0.0393280318235,0.573775088003,0.818978765123,0.00605620069965,0.0,0.81897605977,-0.573683929709,-0.0120710073394,0.0,-0.00641167711279,0.0118861555299,-0.999908800693,0.0,0.265515712301,-0.259217575645,0.304935303834,1.0,-0.00727157894737,-0.00955693233083,3.018
-0.64552378277,-0.519559414991,-0.124961811974,-2.64075551369,-0.0672167168275,2.11071165552,-0.893036399937,-0.0342011842852,0.00666245464862,0.000900628589302,0.000967985838395,9.12620771183e-05,0.000591169826341,-0.0363192008539,0.573812344553,0.818952651239,0.00605765370885,0.0,0.818949829821,-0.573720922076,-0.0120924236566,0.0,-0.00642784349791,0.0118999255541,-0.999908533117,0.0,0.265382165322,-0.259384199138,0.304924948681,1.0,-0.00693157894737,-0.00911007518798,3.035
-0.646042396102,-0.519524841841,-0.124958617315,-2.64071208208,-0.0672062070034,2.11071966734,-0.893523811706,-0.031894928339,0.00661075140529,-0.000218013375714,0.00417194737418,-0.00042694287772,-0.000623193331889,-0.0264579232643,0.573842286238,0.81893161692,0.00606500079208,0.0,0.818929015592,-0.573751056295,-0.0120722708723,0.0,-0.00640668704304,0.0118946136538,-0.999908732099,0.0,0.265259754482,-0.259531659995,0.304932723896,1.0,-0.00661157894737,-0.0086895037594,3.051
-0.646628691327,-0.519449431089,-0.124950887614,-2.64067205542,-0.0671936281342,2.11073131554,-0.894082065498,-0.0327591180527,0.002944216983,0.000791683915906,0.00183524426503,-0.000706967250484,-0.000675059203171,-0.0240799884694,0.573867343619,0.818913989771,0.00607422311772,0.0,0.81891137365,-0.573775817978,-0.0120921342808,0.0,-0.00641729914371,0.0119137607524,-0.999908436096,0.0,0.265119732385,-0.259694751241,0.304924339502,1.0,-0.00623157894737,-0.00819007518798,3.07
-0.647085820966,-0.519407656566,-0.124946456128,-2.64061079459,-0.0671833220672,2.1107442178,-0.894530023437,-0.026803112512,0.00248538614348,0.000100179866982,0.00502110479893,0.00304145429564,0.000183866941015,-0.0247822641932,0.57387913477,0.818905702829,0.00607745425512,0.0,0.81890335157,-0.573788006966,-0.0120569793304,0.0,-0.00638648172768,0.0118963255658,-0.99990884099,0.0,0.26501809898,-0.25983066839,0.30493801012,1.0,-0.00591157894737,-0.0077695037594,3.086
-0.647572328087,-0.5193393676,-0.124935530397,-2.64053865085,-0.0671700086834,2.11076243131,-0.894990173343,-0.0252200820009,0.00409576062049,0.00182767476772,0.00407703564279,0.000809311304127,9.14704777105e-05,-0.0268515890151,0.573902303612,0.818889454878,0.00607893904817,0.0,0.818887282722,-0.573811462557,-0.0120320627723,0.0,-0.00636488696247,0.011883423214,-0.999909132105,0.0,0.264913194567,-0.259975681432,0.304947473548,1.0,-0.00557157894737,-0.00732264661655,3.103
-0.647991375278,-0.519294874673,-0.124919235475,-2.64046505213,-0.0671608564051,2.11077201624,-0.895386612443,-0.0228105863401,0.00178062312306,0.000485994403767,0.00383908978949,-6.31559455847e-06,0.00548892405447,-0.0264627212556,0.573916776939,0.818879353052,0.0060733181592,0.0,0.818877374177,-0.573826454565,-0.0119913720108,0.0,-0.00633457828796,0.0118555806589,-0.999909655081,0.0,0.264826054378,-0.260101604011,0.304965744598,1.0,-0.00525157894737,-0.00690207518798,3.119
-0.648373370698,-0.519247354517,-0.124903656214,-2.64041455159,-0.0671483314574,2.11078706941,-0.895755140828,-0.023910781324,0.00120757629703,0.000208354379223,0.00345540644941,-6.08373280385e-05,-0.000186704953716,-0.0171962882332,0.573919701422,0.818877315033,0.00607174972386,0.0,0.818875438539,-0.573829614908,-0.0119723060574,0.0,-0.00631982170933,0.0118433770573,-0.999909893077,0.0,0.264740439071,-0.260218372902,0.304972852712,1.0,-0.00491157894737,-0.00645521804512,3.136
-0.648766134197,-0.519191486709,-0.124884428555,-2.64037705563,-0.0671292910037,2.11080196536,-0.896164703348,-0.0232849272625,0.00190958884083,0.00260898554242,-0.00173415785494,0.000352011399962,0.000381257204832,-0.0152473193286,0.573907373294,0.818885894884,0.00607987989057,0.0,0.818884121245,-0.573817250251,-0.0119710562454,0.0,-0.00631431071563,0.0118492226811,-0.999909858638,0.0,0.264657527345,-0.260320872805,0.304971063291,1.0,-0.00457157894737,-0.00600836090226,3.153
-0.649110994597,-0.519153570093,-0.124850421152,-2.64035307368,-0.0671086800108,2.11080802598,-0.896506016169,-0.0233665833222,0.00860976258495,0.000813345983939,-0.000377811448717,0.000380770774927,9.83736495256e-05,-0.0162009541486,0.573896238212,0.818893684296,0.00608181608885,0.0,0.818891901721,-0.573806045436,-0.0119759099107,0.0,-0.00631733577883,0.0118535078066,-0.999909788742,0.0,0.264582609996,-0.260408952857,0.3049693325,1.0,-0.00423157894737,-0.0055615037594,3.17
-0.649406271277,-0.519104857523,-0.124805191945,-2.64032516301,-0.0670828756975,2.11081628183,-0.896796839974,-0.0162225473492,0.00475545496287,0.000780658820978,0.00104779893326,0.00100458368444,-7.16509473854e-05,-0.0164388287054,0.573880331768,0.818904833363,0.00608157923809,0.0,0.818902985396,-0.573790026437,-0.0119855317763,0.0,-0.00632558217732,0.0118587126632,-0.999909674893,0.0,0.264524497582,-0.260482047472,0.304965866242,1.0,-0.00391157894737,-0.00514093233083,3.186
-0.649681105785,-0.519054796134,-0.124754899702,-2.64030662621,-0.0670538172211,2.11082272953,-0.89708299792,-0.014081913704,0.00659125834917,0.00413475108057,0.00281191152587,0.000466774717634,0.000471898977014,-0.0213445892337,0.573848876494,0.818926864245,0.0060831624073,0.0,0.818924893197,-0.573758301966,-0.0120073780621,0.0,-0.00634302165362,0.0118723021139,-0.999909403156,0.0,0.264470615044,-0.260545606933,0.304957609928,1.0,-0.00359157894737,-0.00472036090226,3.202
-0.649952218854,-0.519003308385,-0.124721758085,-2.64028792653,-0.0670269425005,2.11083351167,-0.897350827855,-0.0167319750562,0.00317190552033,0.000256986944564,-0.000679613287539,0.00243551035736,-5.39666398505e-05,-0.0170659799124,0.573840625812,0.818932589373,0.00609074147092,0.0,0.81893058817,-0.573749779946,-0.0120261661263,0.0,-0.00635418012501,0.0118892260956,-0.99990913122,0.0,0.264414447052,-0.260612765522,0.304948865946,1.0,-0.00325157894737,-0.0042735037594,3.219
-0.65019414559,-0.518964264804,-0.12468274315,-2.64026332421,-0.0670065463079,2.11084094765,-0.897599619629,-0.0140071858901,0.00344390432241,0.00488456433683,0.00239850529283,4.72271412908e-05,5.68507734552e-05,-0.0135212898669,0.573817349063,0.818948914224,0.00608873598207,0.0,0.818946856835,-0.573726460346,-0.0120308470202,0.0,-0.00635950260154,0.0118900888598,-0.999909087124,0.0,0.264367674871,-0.260672825025,0.304947233796,1.0,-0.00291157894737,-0.00382664661655,3.236
-0.650421765312,-0.518915875928,-0.124652270411,-2.64024416462,-0.066981153766,2.110852624,-0.897825864629,-0.0152668130516,0.00135898742265,0.00481173859102,0.00100399377634,0.000412713679774,0.00170021616706,-0.00889918163484,0.57380880052,0.818954852745,0.00609561418579,0.0,0.818952782779,-0.573717693321,-0.0120455323618,0.0,-0.00636770806966,0.0119040818668,-0.999908868412,0.0,0.264322417202,-0.260729494509,0.304939850656,1.0,-0.00257157894737,-0.00337978947369,3.253
-0.650605051286,-0.518885319618,-0.124633125124,-2.64023076916,-0.0669625723492,2.11085361885,-0.898030268325,-0.00913701100276,0.000515421625688,0.0039758818731,0.00186712260094,0.00794746800806,2.05289434704e-06,-0.0165863342316,0.573786616325,0.818970337642,0.0061034327347,0.0,0.818968270947,-0.573695295989,-0.0120592471974,0.0,-0.00637477783393,0.0119181818603,-0.999908655402,0.0,0.264283013931,-0.260774929004,0.304935232194,1.0,-0.00225157894737,-0.00295921804512,3.269
-0.650797430378,-0.518857259858,-0.124610779041,-2.64022334052,-0.0669435130871,2.11085974673,-0.898208259284,-0.0124517828719,0.000657912493362,0.00137521243377,-0.000384057183365,-3.48088279931e-05,1.37118628331e-05,-0.0115996614278,0.573791152727,0.81896711067,0.00610995863131,0.0,0.818965044564,-0.573699645413,-0.0120714347636,0.0,-0.00638094980275,0.011930554711,-0.999908468483,0.0,0.264241469595,-0.260821245096,0.304929335292,1.0,-0.00191157894737,-0.00251236090226,3.286
-0.650978668842,-0.518835360164,-0.124589680907,-2.64020927184,-0.066926488368,2.11086026195,-0.898386193896,-0.0124977508003,0.00106400189942,-3.99815734475e-05,0.00136697354331,0.00304499738561,0.000482274021586,-0.0078928590615,0.573786908597,0.81897004811,0.00611479538984,0.0,0.818968005943,-0.573695308133,-0.0120766539173,0.0,-0.00638251129746,0.011937477538,-0.999908375892,0.0,0.264203143344,-0.260866110193,0.304928213882,1.0,-0.00157157894737,-0.00206550375941,3.303
-0.651140044248,-0.518824802746,-0.124565568125,-2.64021020148,-0.0669071922862,2.11086149766,-0.898526410292,-0.0126313613485,0.00129246535917,0.000408601381346,0.000539402806031,0.00172043527447,0.000487593285407,-0.00154800929422,0.573795371298,0.818964070434,0.00612128396085,0.0,0.818962055298,-0.573703633218,-0.0120847058195,0.0,-0.00638525995567,0.0119474775823,-0.999908238907,0.0,0.264167777237,-0.260901279507,0.304924588408,1.0,-0.00123157894737,-0.00161864661655,3.32
-0.651305168261,-0.518821551316,-0.124545024281,-2.64020935241,-0.0668880158831,2.11086589446,-0.898637834764,-0.00380095883902,-0.000325025044317,-0.00150732485167,-0.00136173057616,-0.000237712625391,-0.000322010809091,-0.00436579430449,0.573833007434,0.818937648344,0.00612818133793,0.0,0.818935745556,-0.573741273389,-0.0120806772012,0.0,-0.00637745359893,0.011951108179,-0.99990824534,0.0,0.264131710228,-0.260939250261,0.304924647117,1.0,-0.000831578947374,-0.00109293233083,3.34
-0.65138949351,-0.518818500875,-0.124528907303,-2.64020626179,-0.0668683666633,2.11086335125,-0.89868478577,-0.00616510641039,0.000841786957351,-0.000209017000756,-0.000530138663821,0.00457229455582,-0.000624743391859,-0.00351747943634,0.573860721945,0.818918159398,0.00613733804431,0.0,0.818916364634,-0.573768920916,-0.0120813917322,0.0,-0.00637237994135,0.0119592329936,-0.999908180545,0.0,0.264115221776,-0.260956398924,0.304925102351,1.0,-0.000571578947374,-0.00075121804512,3.353
-0.65142712666,-0.518818118146,-0.124528051674,-2.64019560573,-0.0668526398457,2.11086508305,-0.898713368714,-0.00197365297411,0.000792133337146,-0.00170475935511,-0.000298881895396,0.000723728596413,0.000848007445126,-6.49112779851e-05,0.573874724647,0.818908260712,0.0061488088382,0.0,0.818906690563,-0.573783011941,-0.0120679020569,0.0,-0.00635454497351,0.0119609949528,-0.999908272972,0.0,0.264109707889,-0.260967531186,0.304929980894,1.0,-0.000231578947374,-0.000304360902262,3.37
-0.651420308407,-0.518812947722,-0.124495968511,-2.64019111884,-0.0668313357978,2.11086547819,-0.898741635202,0.000639757441352,7.41321463271e-05,0.00129278265848,0.000398076622782,0.000266779530226,5.40407299051e-05,-0.00198457347098,0.573832553569,0.818937796978,0.0061507761036,0.0,0.818936253183,-0.57374084265,-0.0120667144989,0.0,-0.00635305943992,0.0119615974283,-0.999908275205,0.0,0.264121373158,-0.260957689207,0.304930916671,1.0,0.0,0.0,3.389
-0.65141501868,-0.518812714707,-0.124463387282,-2.64020225317,-0.0668156334733,2.11086309922,-0.898752652429,0.00357473026602,-0.000436610157835,0.00301177217679,-0.000616925731237,0.000714230452027,-0.00232638289127,-0.00460608662585,0.573802276445,0.818959017469,0.00614997182887,0.0,0.818957379921,-0.573710418779,-0.0120794105174,0.0,-0.00636436178919,0.0119679884894,-0.999908126855,0.0,0.264128331972,-0.260944394008,0.304926344415,1.0,0.0,0.0,3.404
-0.651412589338,-0.518806809534,-0.124415399367,-2.64018583061,-0.0668057495898,2.11086476613,-0.898763639378,0.000583355023209,0.00366804689767,0.00112313639389,-0.00139581687367,0.00176665578436,-0.000175496909717,-0.00210006346328,0.573762246464,0.818987195351,0.00613231478145,0.0,0.818985418575,-0.573670644787,-0.012067409528,0.0,-0.00636524746048,0.0119463303918,-0.99990838021,0.0,0.264144222228,-0.260936623692,0.304932906771,1.0,0.0,0.0,3.423
-0.651406733017,-0.518811814423,-0.124391556051,-2.64019332821,-0.0668040275,2.11086730391,-0.898761371097,0.00150515420113,-0.000331457157215,0.00275763032769,-0.000977024780661,-2.52272496349e-05,-0.000369921295562,-0.000302860544395,0.57374275768,0.819000921426,0.00612254968711,0.0,0.818999024523,-0.573651215751,-0.0120676177855,0.0,-0.00637130468155,0.0119383003775,-0.999908437539,0.0,0.264149898112,-0.260928214514,0.304932120736,1.0,0.0,0.0,3.438
-0.651411509419,-0.518800734652,-0.124384084508,-2.64019037816,-0.0667916126604,2.11086313852,-0.898760834489,-0.00110934346103,0.00070163608961,0.00106360976086,0.00196192839443,0.000676123488108,-7.3527333523e-05,0.00115528754635,0.573747296973,0.81899768703,0.00612982515709,0.0,0.818995805612,-0.573655573865,-0.0120789016684,0.0,-0.0063763069238,0.0119507683648,-0.999908256714,0.0,0.264151165444,-0.260926571365,0.304929208733,1.0,0.0,0.0,3.454
-0.65140923477,-0.518805400649,-0.124389027981,-2.64018849523,-0.0667888836173,2.11086710586,-0.898762475449,0.00174397583143,-0.00116002709953,-0.000197101699092,0.000859455424771,-7.35788883117e-05,0.000321656743796,-0.00204278036044,0.573748821905,0.818996589821,0.00613368771052,0.0,0.818994823712,-0.57365720357,-0.012068074702,0.0,-0.00636520043692,0.011947732159,-0.999908363761,0.0,0.264152088762,-0.26092789337,0.304932006765,1.0,0.0,0.0,3.471
-0.651414524484,-0.518805394436,-0.124389019774,-2.64018327414,-0.0667888424201,2.11087207279,-0.898765997122,-0.000569207792413,0.000426815464494,-0.000809752571511,-0.000696544357975,-0.000183827608918,-0.00149548274771,-0.000349685378858,0.573750518018,0.818995411035,0.0061324285437,0.0,0.818993694376,-0.573659028422,-0.0120579676663,0.0,-0.00635761958876,0.0119409154029,-0.99990849342,0.0,0.264152697768,-0.260931322112,0.304934800714,1.0,0.0,0.0,3.488
-0.651406450711,-0.518805387986,-0.124383478944,-2.64018752414,-0.0667853467414,2.11086794719,-0.89877089604,0.000717599049177,-0.000149251784971,2.48980412273e-06,-0.00118485124101,0.000446052652194,-0.000294527379479,-0.00104300613382,0.573737261621,0.819004687472,0.0061337939077,0.0,0.819002934414,-0.573645667179,-0.0120660204871,0.0,-0.00636362555902,0.0119465507705,-0.999908387901,0.0,0.264154698328,-0.260925955505,0.304932647617,1.0,0.0,0.0,3.507
-0.651411740389,-0.518802581789,-0.12438618423,-2.64018424428,-0.0667851252143,2.11087129877,-0.898768552508,0.00135818722953,5.37080220502e-05,-0.000182558746289,-0.000564663547081,-9.90049650069e-05,-0.000275469719325,0.000787617010084,0.573745688779,0.81899877832,0.00613454301891,0.0,0.818997059483,-0.573654135237,-0.0120621965196,0.0,-0.00635994069142,0.0119450359231,-0.999908429443,0.0,0.264153968024,-0.260929185706,0.304933327015,1.0,0.0,0.0,3.522
-0.651422786566,-0.518795394412,-0.124388689884,-2.64018238622,-0.0667872869798,2.11087211259,-0.898772020919,-0.00111199476496,0.00296027627883,-0.000170358679124,0.000978739329818,0.00020329391453,0.000141218524707,-0.000376947551397,0.57375287016,0.818993752051,0.00613392095283,0.0,0.818991996872,-0.573661264768,-0.0120668664299,0.0,-0.00636401788817,0.0119472614396,-0.999908376913,0.0,0.264150740193,-0.260933338321,0.304931533595,1.0,0.0,0.0,3.54
-0.651420308392,-0.518802500637,-0.12438340017,-2.64018468296,-0.0667894376171,2.11087048499,-0.898773237739,-0.000279847118255,-0.00141681271731,0.00145667726518,-0.000720673212917,0.000158406072481,0.000368028946516,0.000481478620343,0.573741983566,0.819001420457,0.0061283345388,0.0,0.818999659247,-0.573650529939,-0.0120571370869,0.0,-0.00635941248341,0.011937019472,-0.999908528536,0.0,0.264153439659,-0.260930221911,0.304934983589,1.0,0.0,0.0,3.557
-0.651422814047,-0.518805279236,-0.124388689872,-2.64018537141,-0.0667854063463,2.11087211259,-0.898769105652,-0.000220676254869,-0.000466999028095,-0.000325502857269,-0.000702927786927,6.10976491542e-05,2.99864190778e-05,0.000371717237822,0.573755897043,0.818991619565,0.00613551887766,0.0,0.818989928903,-0.573664366161,-0.0120597783184,0.0,-0.00635725122533,0.0119445270657,-0.999908452625,0.0,0.264150436888,-0.260932557327,0.304933818725,1.0,0.0,0.0,3.572
