nelsonifechukwu/NELSON_IML_WORK/CNN-GradCAM/train2dof/data_sample_2022-07-06-09-07-10/robot_state.csv
position_joint1,position_joint2,position_joint3,position_joint4,position_joint5,position_joint6,position_joint7,velocity_joint1,velocity_joint2,velocity_joint3,velocity_joint4,velocity_joint5,velocity_joint6,velocity_joint7,ee_T_00,ee_T_10,ee_T_20,ee_T_30,ee_T_01,ee_T_11,ee_T_21,ee_T_31,ee_T_02,ee_T_12,ee_T_22,ee_T_32,ee_T_03,ee_T_13,ee_T_23,ee_T_33,v_x,v_y,w_z,time
0.4650939916291483,0.547274037228881,-0.12399494506122404,-1.3555717018343723,0.07944828386439218,1.8941833141619195,0.1591369417009849,-2.384994816579774e-05,-0.0006664714438959309,-6.846160678694073e-06,-0.0006078259810521229,-6.147364853147107e-05,0.0011872801162043634,-0.00010435422987753305,0.5737468694457637,0.8190166615680503,0.002642872739972894,0.0,0.8189833715483488,-0.5736866740329603,-0.01142733851373334,0.0,-0.007843150772995078,0.008721036432483772,-0.9999312118888456,0.0,0.6617659631982266,0.2609352237473556,0.3037053760983565,1.0,5e-324,6.9397750347728e-310,6.9395628351938e-310,0.0
0.46509764924030383,0.5472761964222432,-0.12399218315089386,-1.3555717046687472,0.0794466089076466,1.8941816474727373,0.15914215314637573,0.0004917529417330231,-0.0008611157198426955,0.000397576383230442,-0.00045380714799932815,-0.00021154581611319785,-6.996073624485614e-05,0.00097839313510872,0.5737457633621771,0.8190174478771284,0.002639317714186935,0.0,0.8189841111326576,-0.5736855784961767,-0.011429332393727114,0.0,-0.00784683521424484,0.008719258183848305,-0.9999311984900981,0.0,0.6617640788295747,0.2609388289624207,0.3037036053995563,1.0,-8e-05,-0.00010514285714285717,-4e-05,0.005
0.46509140260517656,0.5472730532192046,-0.12399772944441495,-1.355572377942859,0.07944899442651371,1.8941806214297257,0.15913544012841047,-0.000863507010998121,0.0008993626206464632,-0.0012233839259123238,0.0002698788137064021,7.361168076593547e-05,-0.0021994823435676405,-0.00044424746067013983,0.5737499116980576,0.8190145373027967,0.0026407223188376714,0.0,0.8189812227945383,-0.5736897264046928,-0.011428098217981882,0.0,-0.007844974349712763,0.008719740219206212,-0.9999312088878725,0.0,0.66176657203315,0.26093176338988383,0.30370561042649813,1.0,-0.0004400000000000003,-0.0005782857142857148,-0.00022000000000000014,0.023000000000000013
0.46508860561289966,0.5472525161713578,-0.12399851861932062,-1.3555866441431506,0.07944864085639633,1.8941847762093962,0.15914167449959693,-0.0002690266582545958,-0.001979674580766894,-0.0007260025902613946,-0.0016768242453580919,0.00021821259166771451,0.0003408644408532061,0.0007672702734095951,0.5737585312403441,0.8190084690974714,0.002649957876613731,0.0,0.8189752730561553,-0.5736983146569362,-0.011423343800977901,0.0,-0.007835689811997837,0.008724658913409622,-0.9999312387819548,0.0,0.66176560153658,0.26092825670034486,0.30371375506382203,1.0,-0.0007800000000000005,-0.001025142857142858,-0.00039000000000000026,0.04000000000000003
0.46509032081876867,0.5471752558262152,-0.1239958966962252,-1.3556519043680333,0.07944588521356793,1.8941937074172037,0.1591357423401142,-0.00060488142350787,-0.0070623440271330214,-0.0005001710891569633,-0.004236461448857873,0.00023293438121396834,0.000524794466263729,-0.0011719572970186134,0.573753181474918,0.8190121496115845,0.002670662320291951,0.0,0.8189791812089392,-0.5736928557543566,-0.011417307211179364,0.0,-0.007818923967035596,0.008738101412178664,-0.9999312526427546,0.0,0.6617535610440127,0.26092433428056705,0.3037381046302953,1.0,-0.001120000000000001,-0.0014720000000000015,-0.0005600000000000005,0.057000000000000044
0.46508721180069224,0.5470418489718645,-0.12399280267151482,-1.3558254569243289,0.0794436431158473,1.8942243754521435,0.1591405232648055,-7.040339941584748e-05,-0.004663738559538699,0.00022506307391760835,-0.013393914362924026,0.0003021685319675797,0.001311647263440082,0.008085087819562336,0.5737663419751299,0.8190029336813818,0.0026695203645303927,0.0,0.8189698287880988,-0.573705882253658,-0.01143359539043208,0.0,-0.007832779436639126,0.008746637238548599,-0.9999310695759553,0.0,0.6617236380524292,0.2609069312705545,0.303752543002579,1.0,-0.001460000000000001,-0.0019188571428571445,-0.0007300000000000005,0.07400000000000005
0.4650713165872977,0.5468913134533799,-0.12399740396671341,-1.3560266150645748,0.07943673398569776,1.8942941023040882,0.15913732492349617,-0.006510593765056438,-0.007409053044311447,-2.050947547671585e-05,-0.010877077274541203,-0.0011310542306405677,0.008963883589963587,0.0011220233298172922,0.5737893103729186,0.8189867819009721,0.002687987066270614,0.0,0.8189538896031465,-0.5737287603336286,-0.01142729938014022,0.0,-0.00781678215511461,0.008758368319611368,-0.9999310920764077,0.0,0.6617009899927514,0.26087546310948406,0.30376961243274847,1.0,-0.0018000000000000013,-0.002365714285714288,-0.0009000000000000006,0.09100000000000007
0.46505385405983507,0.5467120514183637,-0.12399817695087141,-1.356224765588918,0.07943582741479373,1.894401953811211,0.1591317858897445,0.00043192468971763384,-0.008901528628235362,0.000995008229351469,-0.012455922782250953,0.00019646177993873302,0.004900882710316642,0.0006324145333513504,0.573813395829616,0.8189696777207587,0.0027569261232697406,0.0,0.818937600719177,-0.5737525429238604,-0.011400549018787603,0.0,-0.007755059890811267,0.008799707633183398,-0.9999312097297796,0.0,0.661681982246334,0.26084832402405056,0.3038020587582489,1.0,-0.0021400000000000017,-0.002812571428571431,-0.0010700000000000009,0.10800000000000008
0.46502515818264095,0.5465062131260573,-0.12399563603531223,-1.3564711067822515,0.07942641592478418,1.894535083459924,0.15912692426921315,-0.006488002454257703,-0.014333448465113002,0.00010616443324494182,-0.010880048964182206,0.0003335136939601205,0.00836301185527449,9.968610878811725e-05,0.5738397412651807,0.8189508956450637,0.002851099448728772,0.0,0.8189200656154928,-0.5737786357866739,-0.011346812253164485,0.0,-0.007656729521031802,0.008846244672792297,-0.9999315568818852,0.0,0.6616694846295976,0.260812939694605,0.303851658920046,1.0,-0.002460000000000002,-0.0032331428571428606,-0.001230000000000001,0.1240000000000001
0.4649910276200441,0.5462769708449666,-0.12399881001213943,-1.356784812627256,0.0794194721691787,1.8946543639762412,0.15912013146338588,0.00078104662228816,-0.017436246094137742,-0.0001695849695580717,-0.023213281400735853,-0.0015366823729566674,0.0005530198305324265,0.0005751746504496469,0.5738800110623387,0.8189225523306352,0.0028867089525646287,0.0,0.8188921064684503,-0.5738187080739372,-0.011338215434121144,0.0,-0.007628819598856362,0.008870849165022926,-0.9999315522307612,0.0,0.6616373848687525,0.26076126499068863,0.30387513304584746,1.0,-0.002800000000000002,-0.0036800000000000036,-0.001400000000000001,0.1410000000000001
0.4649552140828625,0.5460239643816343,-0.12399632237130065,-1.357202824652951,0.0794013640845208,1.8947928130810172,0.15909903761824265,-0.004898238104907106,-0.014821427176716638,-0.0004028040994248703,-0.022681731214618226,-0.0024422101083451304,0.012088890650017689,-0.007315469900656637,0.5739088506945735,0.8189024062119926,0.0028682914515283965,0.0,0.8188716334088713,-0.5738474950460056,-0.011359900040043733,0.0,-0.007656835030399323,0.008868480427722356,-0.9999313591103242,0.0,0.6615855650159076,0.26069917851077434,0.3038672173871582,1.0,-0.003140000000000002,-0.0041268571428571465,-0.001570000000000001,0.1580000000000001
0.46492038965990984,0.5457580212661978,-0.12399046497380613,-1.3576194960684713,0.07937742198804229,1.8949464892018297,0.15909883762464846,-0.0003089151452460605,-0.01421826647495544,-0.00010349922027357262,-0.03053247796327406,-0.002892283436686297,0.00554693651249041,-0.0008828351740317202,0.5739536578446249,0.8188709992433437,0.002869171690850875,0.0,0.8188401964847878,-0.5738922461393262,-0.011365269161871316,0.0,-0.007660241412413948,0.008872701745932923,-0.9999312955724665,0.0,0.6615329863602295,0.26063221894950706,0.3038686854571616,1.0,-0.0034800000000000026,-0.00457371428571429,-0.0017400000000000013,0.17500000000000013
0.4648689563512385,0.5454282227209247,-0.12399727900715979,-1.35817523448552,0.07933388999283897,1.89512730330609,0.15904757522700957,-0.005564687568228633,-0.013557647742567354,-0.0010219423367028803,-0.03054679913408757,-0.0021024170353010864,0.0059920062614164235,-0.0035006585757255907,0.5739743963411581,0.8188566124719848,0.0028262089301816905,0.0,0.8188253398588652,-0.5739132089087357,-0.011377097446191468,0.0,-0.0076943609786770395,0.008844504410677634,-0.9999312834144451,0.0,0.6614712999934155,0.2605457355375721,0.3038550908217915,1.0,-0.003820000000000003,-0.005020571428571433,-0.0019100000000000015,0.19200000000000014
0.4648237782148317,0.5450995676898122,-0.12400209476821288,-1.3587310699817436,0.07929178681615832,1.8953089477370224,0.15893769110717573,-0.0029504849957604443,-0.020054641890806826,0.003162680492142059,-0.03577805175837123,-0.0026475055005715756,0.01852579248575431,-0.006348548822483087,0.5739445773690147,0.8188776649305047,0.002781885669018238,0.0,0.8188458737733239,-0.5738835900068573,-0.011393288658303961,0.0,-0.007733379969194987,0.008817221604056777,-0.9999312233536048,0.0,0.6614037969172478,0.2604569120858733,0.3038390201096671,1.0,-0.004140000000000003,-0.005441142857142862,-0.0020700000000000015,0.20800000000000016
0.4647577891539635,0.5447165437243178,-0.12400423939034967,-1.359377066075776,0.07926954979109595,1.8955322111544801,0.15892857873910915,-0.0029894537044283997,-0.0196079426469801,-0.0015555800269980609,-0.04007063538942983,-0.0001011010094278455,0.010005705227921753,-0.001224131465783871,0.5740227872161469,0.818822932307923,0.0027553918902458573,0.0,0.8187906525936975,-0.5739617057147632,-0.01142691994348045,0.0,-0.00777528436444852,0.008815571286283005,-0.9999309129414635,0.0,0.661328951361323,0.2603519298600351,0.3038220570995027,1.0,-0.004480000000000004,-0.005888000000000006,-0.002240000000000002,0.22500000000000017
0.464696250044592,0.5443022462307192,-0.12400773346722876,-1.3600921627855094,0.07923341432449595,1.8957487612246238,0.15891129965525733,-0.0018914170174456314,-0.023058483955675408,-0.00012835472455103653,-0.045095790492416236,-0.0006410117036361738,0.016159208222890714,-0.003646456396677083,0.5740915691315039,0.8187749394606626,0.002686198898839181,0.0,0.8187416619313049,-0.5740305820359585,-0.01147731704850509,0.0,-0.007855530497500318,0.008788503110428308,-0.9999305240133841,0.0,0.6612375601434812,0.2602386133166964,0.30379373199109716,1.0,-0.004820000000000004,-0.006334857142857149,-0.002410000000000002,0.2420000000000002
0.46463431638464775,0.5438744434031616,-0.12400836212305633,-1.360798320799502,0.07919866565198345,1.895987486849589,0.15887094933326537,-0.006072334966378994,-0.025577758097460237,-0.00013222209663969316,-0.04198336052734894,-0.002340165685905924,0.019448912209430194,-0.002392451987232143,0.5741375665379683,0.8187427728049891,0.0026596185189560933,0.0,0.8187090408462036,-0.5740765365908568,-0.011505801742797545,0.0,-0.007893619410861585,0.008783535850632976,-0.999930267703982,0.0,0.6611472812849943,0.26012288139732087,0.3037828965433795,1.0,-0.005160000000000004,-0.006781714285714292,-0.002580000000000002,0.2590000000000002
0.46457347866194626,0.54335513387241,-0.12401761716253805,-1.3616266356059739,0.07915671810143642,1.8962902303056248,0.1587811045916894,-0.004164654585666316,-0.02677040378430317,-0.001242037430638768,-0.04387108589907416,-0.003906860087452528,0.01725571000019475,-0.0032249926270598818,0.5741574472873104,0.8187288558011625,0.0026520377537222533,0.0,0.818695007960856,-0.5740964199261376,-0.011512231285661197,0.0,-0.007903022725983921,0.008781212463003549,-0.9999302138346816,0.0,0.6610560714241712,0.26000634054753863,0.30378070011646585,1.0,-0.005500000000000004,-0.007228571428571435,-0.002750000000000002,0.2760000000000002
0.464504957465505,0.542877245126043,-0.12401254469445477,-1.3624243584157196,0.07911289770202685,1.8965631410707497,0.1587427136621303,-0.003861243801844802,-0.026680973186160188,-0.00012553336333659195,-0.04824751686490581,-0.005592477688776639,0.021829817085921657,-0.0031990576605766324,0.5742112366054094,0.8186912523156047,0.0026145820320278273,0.0,0.8186568279004666,-0.5741502250300203,-0.01154400845163303,0.0,-0.007949968935498541,0.008769313637482734,-0.9999299461123524,0.0,0.6609585678019476,0.2598869966546134,0.3037625114354945,1.0,-0.005820000000000004,-0.007649142857142864,-0.002910000000000002,0.2920000000000002
0.4644364599667341,0.5423216984510869,-0.12401546186437962,-1.3633056017786833,0.07905611237181952,1.8968630584103414,0.1586911477240372,-0.0063052799308075955,-0.03306481122020771,0.0008739465744164235,-0.051092890578874194,-0.00176463885299164,0.017880675747843085,-0.006084049895573735,0.5742608737633633,0.8186565149547991,0.002589650132584542,0.0,0.8186217754368493,-0.5741999481915798,-0.011556607573839944,0.0,-0.007974068634666875,0.00875662014446299,-0.9999298654571005,0.0,0.6608516864359236,0.25975388532496435,0.3037620254246075,1.0,-0.006160000000000005,-0.008096000000000008,-0.0030800000000000024,0.3090000000000002
0.46435757827352797,0.5417268942315888,-0.12401624238512977,-1.364227562210358,0.07900190381527737,1.8972061573025727,0.15858621368011092,-0.004984531980753705,-0.032275993211504546,-0.00028747060303590453,-0.054679140305910194,-0.0018660708719310378,0.017893098546058337,-0.0014418489875081572,0.5742768688894693,0.8186452513629284,0.0026033018732465833,0.0,0.8186106768319519,-0.574215882458449,-0.011551061007816615,0.0,-0.007961517243678495,0.008764766605293808,-0.9999298940973477,0.0,0.6607469930520528,0.2596141863133176,0.30377353819973646,1.0,-0.006500000000000005,-0.00854285714285715,-0.0032500000000000025,0.32600000000000023
0.4642683994070399,0.5411134926434933,-0.12401869624918291,-1.3651956656069713,0.07894394891376494,1.8975452227433498,0.15856162190563527,-0.006130409742010825,-0.03901807176759428,0.0002950747780674388,-0.06047375491652189,-0.006109901596890146,0.02085826013777946,0.00179581893944871,0.5743588251339016,0.8185877967979542,0.002589560866994139,0.0,0.8185530594987176,-0.5742978914057992,-0.01155714555372817,0.0,-0.00797351248534145,0.008757810127560578,-0.9999298594703607,0.0,0.6606431454970085,0.2594699272619208,0.30377626563656207,1.0,-0.006820000000000005,-0.008963428571428579,-0.0034100000000000024,0.34200000000000025
0.4641864795735087,0.5404738162127075,-0.12402689621758602,-1.3661518239933166,0.07889163811109862,1.897907568598024,0.1584795079401199,-0.0032564958219482407,-0.038200245130512,0.0004511134993821205,-0.05911412336967869,-0.0016184635668906862,0.02984784572634832,-0.008949701562413174,0.5743998733778295,0.818558887320943,0.0026230426305189824,0.0,0.8185245448157539,-0.5743387795858513,-0.01154481265357456,0.0,-0.007943746838567523,0.008778532715519469,-0.9999299146687869,0.0,0.6605187183653233,0.2593072735423507,0.30380163803445653,1.0,-0.007180000000000006,-0.009436571428571438,-0.003590000000000003,0.36000000000000026
0.46408218561367337,0.5397883031853955,-0.12402272541001859,-1.3672052758365505,0.0788286720701527,1.8982951609626755,0.15837751302372371,-0.0057469989319017065,-0.032319377768803434,-0.0005814047904667756,-0.05976898718515015,-0.0012370934994720452,0.02243103652755957,-0.0057516608105668806,0.5744546908259135,0.8185203443540148,0.0026459342201854428,0.0,0.818486275568948,-0.574393488997545,-0.011536178037272377,0.0,-0.00792294157238388,0.008792841722444406,-0.9999299540124221,0.0,0.6604106269638237,0.2591463569281157,0.3038210257050374,1.0,-0.007500000000000006,-0.009857142857142866,-0.003750000000000003,0.3760000000000003
0.4639853348271834,0.5390462497966118,-0.1240339707039529,-1.368349028684763,0.07876137156801848,1.8987191753731483,0.15832693634799205,-0.008877539627265731,-0.04339419941474921,4.509172333600814e-05,-0.0700427160864881,0.0003779835508104395,0.027505613830827103,-0.005759013748014669,0.5745505411010505,0.8184530236208369,0.002659087739849484,0.0,0.8184191761396822,-0.5744893406188218,-0.01152373825647188,0.0,-0.007904173036935191,0.008797387825070488,-0.9999300625624061,0.0,0.6602745693742061,0.2589537138463303,0.30383782569465123,1.0,-0.007860000000000006,-0.010330285714285724,-0.003930000000000003,0.3940000000000003
0.46388319514145193,0.5382899106243259,-0.12403967330624206,-1.3695213901841858,0.0786923043996193,1.8991730456507836,0.15821677940907924,-0.004228385251195819,-0.047509769940959186,-0.0006380578479598925,-0.06612056444236036,-0.0002841935369554126,0.0314005060767823,-0.0060914009644095005,0.574589554175665,0.8184255276768572,0.002691984449549002,0.0,0.8183921239550532,-0.5745282614157315,-0.011504572315471846,0.0,-0.0078691660282601,0.008813675639616866,-0.9999301952375172,0.0,0.6601526919801494,0.25878737558610704,0.30385375871753506,1.0,-0.008180000000000007,-0.010750857142857154,-0.004090000000000003,0.4100000000000003
0.4637761019208632,0.5375224636729532,-0.12404356965646562,-1.3707403681856505,0.07862361948391035,1.8996445852542194,0.15812703508708237,-0.004050733893284174,-0.04488617600388029,0.0007587851945472742,-0.07579159034458624,-0.009459442789465495,0.029825183120464237,-0.002090294334915019,0.5746555138782731,0.8183791617262656,0.0027083062458448616,0.0,0.818345965652438,-0.5745941560531292,-0.011497096641288253,0.0,-0.00785295856370577,0.008823371345786313,-0.9999302371465176,0.0,0.6600171972985311,0.25860067948517673,0.30385651257362556,1.0,-0.008520000000000007,-0.011197714285714297,-0.004260000000000003,0.4270000000000003
0.4636838166249625,0.5367615317135404,-0.1240530710580023,-1.3719469073938648,0.0785570565899062,1.9000863383499724,0.15805504383585453,-0.005501664459242932,-0.045699257459899355,0.00042185361697203046,-0.07438995963177569,-0.0052682721169468195,0.026635229355033235,-0.0018767882039589475,0.5747251168188989,0.8183302769295816,0.0027101400453304145,0.0,0.8182971182661218,-0.5746637597679377,-0.011495057544295048,0.0,-0.007849485482516627,0.008824367975604819,-0.9999302556216064,0.0,0.6598869470598147,0.2584304690662798,0.3038612345651871,1.0,-0.008820000000000007,-0.01159200000000001,-0.004410000000000003,0.44200000000000034
0.463578074343628,0.5359151741439081,-0.12406723008527785,-1.373276552840856,0.07847785189143826,1.900576913191073,0.15795119152846238,-0.0009016951749178429,-0.0474717274791287,-0.0007299386377704017,-0.08442457221331331,-0.009878715411314947,0.024330477041971908,-0.01057534051595849,0.5747908550574174,0.8182841155702713,0.002706667499031392,0.0,0.8182509227749468,-0.5747295131399924,-0.01149613000202937,0.0,-0.007851650045835323,0.008822773438173712,-0.9999302526978652,0.0,0.6597223087100864,0.25821598825859005,0.30386552771447894,1.0,-0.009180000000000008,-0.01206514285714287,-0.004590000000000004,0.46000000000000035
0.4634628538931856,0.535031570123071,-0.1240652335095775,-1.374649003665005,0.0783974906663833,1.9010686598681976,0.15784658000170218,-0.009461822641333247,-0.055600798013439146,0.00018637260238981048,-0.0756412997858523,9.646154384221627e-05,0.03437725147544287,-0.006988723244542879,0.5748518483131678,0.8182412556686379,0.002710519129919719,0.0,0.8182080543646987,-0.5747904207567937,-0.011502125028475531,0.0,-0.00785368400275549,0.008829956419781501,-0.9999301733207221,0.0,0.6595588502279092,0.25801018795761255,0.30387831592176706,1.0,-0.009520000000000008,-0.012512000000000013,-0.004760000000000004,0.47700000000000037
0.46334144970493946,0.5341367016014895,-0.12406597344219773,-1.3760955734204925,0.07832435514894373,1.9015926620694203,0.15776043013264773,-0.004738052217676884,-0.05546430433166887,0.0006632253010272487,-0.08228032360544879,-0.00020796814641259304,0.024064278374805643,-0.003582801252218745,0.574940930192271,0.8181787236744504,0.002692548477115102,0.0,0.8181451500202119,-0.574879393173686,-0.011530121589463873,0.0,-0.007885961360457161,0.00883220435692543,-0.9999298994327646,0.0,0.6593863967904354,0.25779344311036156,0.3038665122848363,1.0,-0.009860000000000008,-0.012958857142857156,-0.004930000000000004,0.4940000000000004
0.463223634969855,0.5332720895501222,-0.12406663034969165,-1.3774773967366056,0.07825324196936718,1.9020963068263856,0.15763800986661072,-0.007311113230561539,-0.05709878220298221,-0.002819811210900237,-0.08547237607983525,-0.00103500008395492,0.030789590915283507,-0.004927967248002952,0.5749941933298035,0.8181413131248585,0.0026863165392272143,0.0,0.8181075361742336,-0.5749325329515671,-0.011549403016121144,0.0,-0.007904745168049676,0.008838705648459663,-0.9999296936716541,0.0,0.6592227285541457,0.2575853662544741,0.30386224226009195,1.0,-0.010180000000000007,-0.013379428571428582,-0.005090000000000003,0.5100000000000003
0.46310646438074177,0.5323562803207319,-0.12406694701348905,-1.378957589230521,0.07815968011056135,1.9026654672274466,0.15754069631641426,-0.002972876523505837,-0.0580924156533046,-0.00037612263502510195,-0.08804564884027252,-0.005401532454399479,0.03417082346917151,-0.0033308279020440898,0.5750666158235684,0.8180904148081243,0.002684672327829962,0.0,0.8180566670862488,-0.5750050082810212,-0.011544556669234542,0.0,-0.007900943237855063,0.008835273338073782,-0.9999297540532502,0.0,0.6590512412139578,0.2573677410057209,0.3038527256091858,1.0,-0.010520000000000007,-0.013826285714285725,-0.005260000000000003,0.5270000000000004
0.46296966331563405,0.5313863249589121,-0.12406601517374159,-1.3805121247424463,0.0780671408440301,1.9032458938874506,0.15742135894644524,-0.005690674911512328,-0.05880749050180221,7.18249297186521e-05,-0.09266596555493765,-0.0067248848034184875,0.02674872698600956,-0.0025759338833288886,0.5751402554504841,0.8180386618100667,0.0026797846098335163,0.0,0.8180048276044496,-0.5750786289043345,-0.011550735670657127,0.0,-0.00790801374553396,0.008835539923569738,-0.9999296958050898,0.0,0.6588704162611698,0.25713074404937963,0.30384673326145933,1.0,-0.010860000000000007,-0.014273142857142868,-0.005430000000000003,0.5440000000000004
0.4628302636806885,0.5303826656287903,-0.12406693688064986,-1.382134647847601,0.07797195602047788,1.9038215708533406,0.1573283975037784,-0.009022451861785647,-0.05806723785077124,0.0013075189782932996,-0.09501197301794012,-0.006635739207990035,0.03245151412150394,-0.0031726383613547666,0.5752415437220755,0.8179675604100998,0.0026426112467838585,0.0,0.8179331781748833,-0.5751799544996392,-0.011579416381490664,0.0,-0.007951763047934823,0.008822610633046096,-0.9999294630152905,0.0,0.6586744696486415,0.25688262101973747,0.30383156034105113,1.0,-0.011200000000000009,-0.014720000000000014,-0.005600000000000004,0.5610000000000004
0.46269534097479625,0.5293488242701576,-0.12407195751958125,-1.3837910226254693,0.07785730040530961,1.9044204283365194,0.15718848082378406,-0.010557920802130883,-0.06124749650926854,-0.0009773864729378382,-0.09844102249257101,-0.0057841915144871405,0.03497605475662285,-0.007052478241814795,0.5753000522840924,0.8179265097908801,0.002611766535854961,0.0,0.8178918355320312,-0.5752386788991741,-0.011582511367826974,0.0,-0.007971407440316602,0.00879973134358042,-0.9999295082113046,0.0,0.6584764290753866,0.2566299040154757,0.3038234171618175,1.0,-0.011540000000000009,-0.015166857142857157,-0.005770000000000004,0.5780000000000004
0.4625557973055603,0.5283287198202532,-0.12407557339463483,-1.385373424268531,0.07776111178514478,1.9050075164206994,0.15707316927795828,-0.006629894418237792,-0.06899002191304641,0.0015721171308711768,-0.09660463821511386,-0.011450310438387387,0.035542197972797646,-0.00020069135961563395,0.5753822984513771,0.8178685948453359,0.0026304174068454743,0.0,0.817834173654873,-0.5753208645374022,-0.011572127349608913,0.0,-0.007951298605333001,0.008809812094867475,-0.9999295795511511,0.0,0.6582923512170699,0.25638575483684717,0.30383952277056886,1.0,-0.01186000000000001,-0.015587428571428587,-0.005930000000000005,0.5940000000000004
0.46241868015574566,0.5272363657908536,-0.124090052900801,-1.3871091472260288,0.07764786472000124,1.9056698784063477,0.15695963589367118,-0.010913181541820957,-0.06323412243784551,-0.0009225790146235811,-0.09842141367667033,-0.004881553722478253,0.03688828684648768,-0.010650811502969265,0.5754753418086467,0.8178031133621624,0.0026354594634922426,0.0,0.8177689025292374,-0.5754140402466295,-0.011552109953823836,0.0,-0.007931023805129667,0.008803320708611562,-0.999929797738773,0.0,0.6580916485069692,0.256122007439062,0.3038401462501463,1.0,-0.01220000000000001,-0.01603428571428573,-0.006100000000000005,0.6110000000000004
0.4622707681759213,0.5260856059852403,-0.12408579499605839,-1.3888929258307885,0.07754242578346486,1.906345263847404,0.15683868506323378,-0.0071338700838491685,-0.07280319397263749,0.0006705010684659242,-0.1063028926288855,-0.0023364112878212695,0.03697510756154684,-0.007970628693410746,0.5755623308622781,0.8177417756128136,0.002671817956502359,0.0,0.8177080018514926,-0.5755008604931202,-0.011538205273172748,0.0,-0.0078977909913715,0.008825893169310317,-0.9999298617939264,0.0,0.6578813483877833,0.2558592848115659,0.3038592432643288,1.0,-0.01254000000000001,-0.01648114285714287,-0.006270000000000005,0.6280000000000004
0.4621119001469622,0.5249260318982122,-0.124094015425405,-1.390732074260663,0.07743176920112668,1.9070108224420874,0.15668952321879545,-0.007134915242917541,-0.06584546150182209,-0.0007268445768078701,-0.10800055155739959,-0.00771778987913016,0.03945439654223681,-0.01551312701903784,0.5756452279452287,0.8176834711376237,0.0026569669589498347,0.0,0.8176494972616697,-0.5755837874951535,-0.01154773145171075,0.0,-0.007913234386001444,0.00882003401498277,-0.9999297913961395,0.0,0.6576616934277322,0.2555741863034717,0.3038574396867558,1.0,-0.01288000000000001,-0.016928000000000016,-0.006440000000000005,0.6450000000000005
0.4619616387133032,0.5237572942360725,-0.1241025425140671,-1.3926035927725713,0.0773135057411445,1.9076830833380503,0.15656796482336843,-0.005198280259387348,-0.06706642610615207,0.00021988266503779143,-0.11181502782318525,-0.006687911703102385,0.0387270488461016,-0.012318448982625707,0.5757432816993696,0.8176145379960489,0.0026244498006815957,0.0,0.8175801756514155,-0.5756819734499801,-0.011561519266314508,0.0,-0.007942170704380469,0.008802334645066495,-0.9999297179448658,0.0,0.657433704422842,0.25529012234847437,0.30384695522740535,1.0,-0.01322000000000001,-0.017374857142857157,-0.006610000000000005,0.6620000000000005
0.46181896987567395,0.5226204881690734,-0.1241042834165297,-1.3944015630571576,0.07720031303746124,1.9083530582625279,0.15642593563294932,-0.0037336551249226137,-0.07342290363133451,-0.0001289807501657389,-0.117301046877321,-0.007701105480603776,0.045395273890141474,-0.017301767580086995,0.5758108900341075,0.8175669170992342,0.002627143732513766,0.0,0.8175326184707854,-0.5757495962896636,-0.011557119442114138,0.0,-0.007936294367706653,0.008802660405425725,-0.999929761734041,0.0,0.6572173704872446,0.2550239920808788,0.3038483144429533,1.0,-0.01354000000000001,-0.017795428571428587,-0.006770000000000005,0.6780000000000005
0.46165290488395694,0.5213321997406541,-0.12410284290280936,-1.3964821427653966,0.07707402269426916,1.9091781924461413,0.15627192163865372,-0.011603823040455347,-0.07267382596332254,0.0002741457564111702,-0.11577031356573265,-0.0074029614085944564,0.04594260993332958,-0.009976923624771494,0.5758973019815209,0.8175059768321076,0.002649965168644154,0.0,0.8174720144163402,-0.5758359669264523,-0.011540872634979802,0.0,-0.007908939373337476,0.008812799451240402,-0.999929889164146,0.0,0.6569747968098294,0.2547211880150483,0.3038346724194605,1.0,-0.01390000000000001,-0.018268571428571443,-0.006950000000000005,0.6960000000000005
0.4614968109477876,0.5201272113104011,-0.12410498561502623,-1.3983885254625799,0.07695410150995184,1.909882319792241,0.1561310238690602,-0.010535650574464464,-0.07814624569330406,-0.0014416213005891468,-0.11640340227399744,-0.009294347849362583,0.04068213410170106,-0.00885613175446857,0.5759804947069261,0.8174473731419286,0.0026474066051919197,0.0,0.8174133994471638,-0.5759191820313229,-0.011540237164443745,0.0,-0.007908996581635575,0.008811146785759907,-0.9999299032759204,0.0,0.6567441587690419,0.2544353416568371,0.3038346598540993,1.0,-0.01422000000000001,-0.018689142857142873,-0.007110000000000005,0.7120000000000005
0.4613201058112796,0.5188082702769045,-0.1241139034978529,-1.4004491881806027,0.07682046977310913,1.9106256552638652,0.15598977225976474,-0.010456157506910256,-0.07723862944657003,-0.0005436011174654632,-0.1250496783477813,-0.013407780205851549,0.038390189627499606,-0.006490855453338679,0.5760890877124173,0.8173708678600977,0.0026408887734251747,0.0,0.817336875129827,-0.5760278557417613,-0.011536414684233387,0.0,-0.00790845604732282,0.0088046679056899,-0.999929964620532,0.0,0.6564947686598315,0.2541157059742334,0.3038444571160251,1.0,-0.01456000000000001,-0.019136000000000018,-0.007280000000000005,0.7290000000000005
0.46115636159220147,0.517519677903128,-0.12411934200113689,-1.402424742251066,0.07669194885921611,1.9113345375359525,0.1558306186083491,-0.010315797837799887,-0.07354768788421914,-0.0012041002838846671,-0.1247965013632345,-0.00687334529716006,0.044317374547576796,-0.0074784542149345535,0.5761701576923444,0.8173137121345248,0.0026442849450294638,0.0,0.8172798214005117,-0.5761089690589442,-0.011528061528137578,0.0,-0.007898798564047405,0.008803415249183238,-0.9999300519842351,0.0,0.6562349025215702,0.25380119791959244,0.3038629886780037,1.0,-0.01490000000000001,-0.01958285714285716,-0.007450000000000005,0.7460000000000006
0.46095970393978,0.5160998161818298,-0.12412501984626698,-1.404684310459705,0.07654912716779219,1.9121760518363897,0.15566372571850418,-0.01667725154720821,-0.08327670742169598,-0.0005643885128010936,-0.12615547309437083,-0.006820480719432267,0.04454760379701706,-0.013421824412767245,0.576275747780451,0.817239253723671,0.0026479415529325114,0.0,0.8172054486446556,-0.5762145767088682,-0.011522291218134776,0.0,-0.007890838078307427,0.00880409875880693,-0.999930108817345,0.0,0.6559818450933299,0.25346699072785206,0.303863517301244,1.0,-0.015240000000000012,-0.020029714285714303,-0.007620000000000006,0.7630000000000006
0.4607911074434955,0.5148210433828614,-0.12413515491498545,-1.4067118748388707,0.0764212332659893,1.9129588700107525,0.15550356848351773,-0.007730092325391928,-0.07918471585664379,-0.004223490813351584,-0.1264864738143933,-0.00996997610457595,0.0525175719081067,-0.008337525465610843,0.5763623744531946,0.8171780953522078,0.002668462557771617,0.0,0.8171446546969762,-0.5763012363832852,-0.011499788887839483,0.0,-0.007859688632392448,0.008808735139895635,-0.9999303133118014,0.0,0.6557428061234011,0.25315907603858023,0.3038632129798669,1.0,-0.015560000000000011,-0.020450285714285733,-0.007780000000000006,0.7790000000000006
0.460585117939934,0.5133341396227681,-0.12413875212239589,-1.4090893750712696,0.0762859139108993,1.9138056299851482,0.1553246159274759,-0.010442996280292145,-0.08195242919434481,-0.0022542179483118537,-0.1313262157110509,-0.0010352051459098796,0.044960231288809306,-0.012801154351178064,0.5764753485611117,0.8170985140997177,0.0026339435427795987,0.0,0.8170644905612489,-0.5764141570062101,-0.011536237164493651,0.0,-0.0079081521550311,0.008802627557291387,-0.9999299849877393,0.0,0.655446472780501,0.2527949091538847,0.30384716161268727,1.0,-0.01592000000000001,-0.02092342857142859,-0.007960000000000005,0.7970000000000006
0.4604004595398831,0.5119983558010627,-0.12413624983068648,-1.4112539512141586,0.07614985293587197,1.9145569380930099,0.15515707616346924,-0.01303089599268093,-0.0795999156386336,0.001199979752526943,-0.13338086714318226,-0.011330115290027257,0.04463693703372473,-0.009136181970735837,0.5765639322281817,0.817036228334783,0.002565256957326194,0.0,0.817001241253414,-0.5765028773857819,-0.011582359755378139,0.0,-0.00798448323866291,0.008773957929190501,-0.9999296303688917,0.0,0.6551700885377595,0.2524650958675636,0.30381764813347484,1.0,-0.01624000000000001,-0.02134400000000002,-0.008120000000000006,0.8130000000000006
0.46022394388988586,0.5106386313761234,-0.12414476315308438,-1.4134362217137821,0.07601606382838726,1.9153867515362366,0.1549928889601821,-0.0111154434355659,-0.0874616303488709,0.0008552321532212487,-0.13688145551029146,-0.008241032206457003,0.04651590966625303,-0.00925641026271477,0.5766555111323398,0.8169715736303901,0.002572209515629406,0.0,0.8169367047087263,-0.5765944522181702,-0.011576055981376107,0.0,-0.007974340465648433,0.008776897826836633,-0.9999296855072736,0.0,0.6548884345515615,0.2521192294432133,0.3038072874303468,1.0,-0.01658000000000001,-0.02179085714285716,-0.008290000000000006,0.8300000000000006
0.4600226386299422,0.509167696490085,-0.12415249042446118,-1.4157788375208233,0.07587477563262394,1.9162650654493953,0.154801275809543,-0.012604267714379887,-0.08494816636858539,-0.0023372314071943823,-0.13530296583360943,-0.005180590409926896,0.05588715318015368,-0.012777479563430722,0.5767554435084159,0.8169010443670269,0.0025669041039705623,0.0,0.816866122410876,-0.576694407301828,-0.011577803998218773,0.0,-0.007977754533277981,0.008774547419085454,-0.9999296789025701,0.0,0.6546205148159862,0.25177982973215823,0.303794078997184,1.0,-0.016900000000000012,-0.02221142857142859,-0.008450000000000006,0.8460000000000006
0.4598175024358958,0.5076645422382554,-0.12414763363974286,-1.4181561432388046,0.07571749437037986,1.9171037487786584,0.15462132371554219,-0.010045953946229457,-0.08524710874007838,0.00012553758768594448,-0.1381070666132427,-0.0022069410831296273,0.04832367403285792,-0.0061345586952637615,0.5768530277905622,0.8168322520086579,0.0025304759499570036,0.0,0.8167968505521307,-0.5767920951101899,-0.01159874336840407,0.0,-0.008014823451470143,0.008757823632195932,-0.9999295290820596,0.0,0.6543183530395825,0.2514176622170662,0.30378656009566807,1.0,-0.017240000000000012,-0.022658285714285735,-0.008620000000000006,0.8630000000000007
0.45960094644023824,0.5061013756482813,-0.12415126871337985,-1.420586359781932,0.07555898415329927,1.9179868498894084,0.15442438693508723,-0.012341160595533501,-0.09752021079291993,0.0002643953285830239,-0.14189960839085733,-0.009876331614708807,0.05475558560540896,-0.008562581670394646,0.5769542111481818,0.8167607663320838,0.0025368721321379637,0.0,0.8167254943385425,-0.5768932949220954,-0.011590516494110359,0.0,-0.008003328699687284,0.008759294090407946,-0.9999296082708835,0.0,0.6540178424592589,0.2510404326109178,0.3037993850610641,1.0,-0.017580000000000012,-0.023105142857142876,-0.008790000000000006,0.8800000000000007
0.4593743509975418,0.5044914222522802,-0.12415470391378873,-1.4230485119456837,0.07541153503680204,1.918952791888779,0.15422953566877043,-0.014695940056956978,-0.09383225103361188,-0.00047234452188251526,-0.1502761334889395,-0.009887274291526181,0.05990118991292832,-0.013493158161542639,0.5770698978572509,0.8166787351073933,0.0026312566614415597,0.0,0.8166447189755651,-0.5770086877756017,-0.011537941844488033,0.0,-0.007904685987580151,0.008807170343837892,-0.9999299723930533,0.0,0.6537283188179404,0.25066093714756316,0.30383631787779397,1.0,-0.017920000000000016,-0.023552000000000024,-0.008960000000000008,0.8970000000000007
0.45915282361331833,0.5028272523576799,-0.12416572915415969,-1.4255325037165216,0.07525334942801656,1.919897315082214,0.15403523591687066,-0.010419691971509807,-0.0983617716962034,-0.0016864093605025788,-0.14512411320174837,-0.011328895833464562,0.05705203741705141,-0.016902737786835004,0.5771846766281615,0.8165972938710216,0.0027304961778317673,0.0,0.8165646694192438,-0.5771232530293596,-0.011473376584921308,0.0,-0.007793445482251138,0.008852054292278408,-0.9999304492525077,0.0,0.6534306334061117,0.2502753979396612,0.303898409374624,1.0,-0.018260000000000016,-0.02399885714285717,-0.009130000000000008,0.9140000000000007
0.45892138613998906,0.5011208807370525,-0.12416391464396818,-1.4280565154548994,0.07508408354159825,1.9208144517613992,0.15383419960837405,-0.010942851207221391,-0.10040639727394014,-0.0002590629518871054,-0.1501729770312681,-0.009489201041574613,0.05091939951035868,-0.012264864573195998,0.5772910169317066,0.8165218544897831,0.0028088808678205564,0.0,0.8164903099433957,-0.5772294126250889,-0.011424791912357988,0.0,-0.007707372016767355,0.008889024892953581,-0.9999307884314032,0.0,0.6531180271679397,0.2498832404550446,0.3039674266274122,1.0,-0.018600000000000016,-0.02444571428571431,-0.009300000000000008,0.9310000000000007
0.45870322791513773,0.4995332161010023,-0.1241618209024974,-1.4305042536898733,0.07493880137652974,1.9216808839265038,0.1536479891161922,-0.012705370834973646,-0.09452940629849967,0.00020070852069128004,-0.15132838582343633,-0.011055671851329298,0.04515215517949318,-0.015665377186422146,0.5774008406518798,0.8164441661469746,0.002817743828299124,0.0,0.8164126078325982,-0.5773390473060218,-0.011437881314284429,0.0,-0.007711746409761855,0.008904855319269336,-0.9999306138523084,0.0,0.6528048066916771,0.2495079484957614,0.30398501699314007,1.0,-0.018920000000000017,-0.02486628571428574,-0.009460000000000008,0.9470000000000007
0.45845181748809644,0.49785747652656853,-0.12416432655991864,-1.4331180146492608,0.07477325865424184,1.9226723707137336,0.1534467439206072,-0.013707044430115676,-0.09467071060241929,-0.0007397781687256971,-0.15474725357659413,-0.006771688778949167,0.05341964355533938,-0.011922553244304664,0.5775316132824995,0.8163515306255679,0.002856747418677105,0.0,0.8163205262911539,-0.5774697426795764,-0.011412341851060074,0.0,-0.007666945153823546,0.008923181555765533,-0.9999307949967993,0.0,0.652488171836066,0.2490949719659254,0.30399542363155163,1.0,-0.019260000000000017,-0.025313142857142885,-0.009630000000000008,0.9640000000000007
0.4581872761310844,0.4961870760719718,-0.12416253151840892,-1.4358017597351016,0.07460405711721962,1.9236311666281791,0.15322094497099578,-0.014585046074198452,-0.09549500928000382,0.00038481058852084027,-0.16082901175533537,-0.016123138901673897,0.056266992306304844,-0.015011329312264645,0.577651777332611,0.8162666807619875,0.0028065857356604045,0.0,0.8162349670540047,-0.577589973805969,-0.011447603171690796,0.0,-0.00772338996128219,0.008903733158260749,-0.9999305339789122,0.0,0.6521492150283573,0.24866502169107746,0.3039652591642818,1.0,-0.019600000000000017,-0.025760000000000026,-0.009800000000000008,0.9810000000000008
0.4579108364442323,0.4945169019345781,-0.1241643268893054,-1.4385253942520193,0.07443821061791611,1.9245693664357988,0.15299988703885128,-0.018264392527813506,-0.10155794778303953,-0.0004570728167327881,-0.1596398213195873,-0.01440054923432881,0.04944742976775792,-0.01678647463182585,0.5777903985788357,0.8161688974283515,0.002707966378599871,0.0,0.8161357616092,-0.5777287214922587,-0.011519109631378196,0.0,-0.007837219944215601,0.008865869843465976,-0.9999299847166624,0.0,0.6517987706062501,0.24821982831276465,0.30391369448607636,1.0,-0.019940000000000017,-0.02620685714285717,-0.009970000000000008,0.9980000000000008
0.4576365002167432,0.49279389962021264,-0.12421314729553447,-1.4412628080857461,0.07427370874463154,1.9255625771308267,0.15283226756481383,-0.02028847070074303,-0.12337487898442752,-0.00789157010710146,-0.18453350267520915,-0.008997257762907157,0.06653634854863821,-0.010837049022434504,0.5780054322602378,0.816016723445435,0.0026784764774568917,0.0,0.815983315306836,-0.5779439468804779,-0.011522599805958742,0.0,-0.007854776101003824,0.008845887708401431,-0.9999300239332019,0.0,0.6514660176788667,0.247751483097992,0.303897868418767,1.0,-0.02539542857142827,-0.03337684897959144,-0.034294386566570016,1.0139999999999991
0.4573532914110599,0.49022553860231954,-0.1243248765308263,-1.4452660794253072,0.0740677999087975,1.9270715405990628,0.1528616755905592,-0.023154581766434118,-0.1538106917941488,-0.0016079609763041398,-0.24492143506047884,-0.009456778275481512,0.08870153595454393,0.0014377538810403205,0.5784859222327419,0.8156759942885445,0.0027307546826419527,0.0,0.815643402566838,-0.5784243677373959,-0.01148205373585904,0.0,-0.007786250456167487,0.008869699254635752,-0.999930348943848,0.0,0.650967615559654,0.24712976035801149,0.3039134012881059,1.0,-0.03289371428571316,-0.04323173877550873,-0.06794661412028061,1.0319999999999971
0.45700178107919276,0.4874179884509806,-0.12445121480834878,-1.4498015381143396,0.07385601909232918,1.9287382324881965,0.15326201293434577,-0.02406869591247423,-0.18496412494327502,-0.003939982553802306,-0.30194257015499193,-0.014348308031185862,0.11177411336828985,0.044888124538931366,0.5793591968294447,0.8150561449969965,0.002673659100220288,0.0,0.8150227498074096,-0.579297641367187,-0.011528525664235529,0.0,-0.00784770236740212,0.008858420913421317,-0.9999299685210326,0.0,0.6503947847882866,0.24640501538304474,0.3038546460822511,1.0,-0.039558857142855286,-0.0519916408163241,-0.09785970527913448,1.0479999999999954
0.45654053683977086,0.48401781088870033,-0.12461276078389978,-1.4551013301065774,0.07356867412097112,1.9307595832576367,0.1541496452894097,-0.02590566062112072,-0.22293710324676536,-0.011610512155459298,-0.3486012656398776,-0.02142007490106611,0.1281671619985507,0.06401062096190106,0.5807589713197697,0.8140591152033139,0.0027424600651587564,0.0,0.8140270549222507,-0.5806975287679603,-0.011449054048226989,0.0,-0.007727815810233352,0.008881748542897971,-0.9999306953012415,0.0,0.6497564493620546,0.24551749996214228,0.3038730832190483,1.0,-0.046223999999997406,-0.06075154285713946,-0.12777279643798833,1.0639999999999936
0.45602205412953767,0.480362948253349,-0.12475036305293874,-1.4608889394844624,0.07326735775488567,1.9327995546977097,0.1553062780912279,-0.03303654094228814,-0.2551335965316741,-0.00877652249314393,-0.4021493927000604,-0.018857778968909684,0.1439510263093076,0.0887557830898918,0.5824229311814964,0.8128697797297839,0.0026452480441801034,0.0,0.812836460424377,-0.5823615815736465,-0.011516241271349495,0.0,-0.007820864246765591,0.008857647591792722,-0.9999301856437645,0.0,0.6490129760989569,0.2445522134554087,0.3038341406891294,1.0,-0.05247257142856815,-0.06896395102040387,-0.15581631939941382,1.078999999999992
0.45533103320437424,0.4756163210562143,-0.12491806018151014,-1.4682725698316228,0.07286747458229377,1.9354831928662473,0.15697807212225703,-0.039336726572821,-0.28657564202995794,-0.01211446710111373,-0.4474982750314638,-0.022490086055710918,0.16947148989252506,0.10581337563254031,0.584712722963291,0.8112242239606278,0.0026527279429002454,0.0,0.8111912024644977,-0.5846512877812344,-0.011508763667511551,0.0,-0.00778541696037538,0.008881361105506858,-0.9999302519214361,0.0,0.6480806895206397,0.2433109261095899,0.303844529402571,1.0,-0.05955428571428166,-0.07827134693877019,-0.18759897875569606,1.09599999999999
0.4545815368356946,0.47066836416389235,-0.12505841461699344,-1.4759929316804337,0.07244638298394075,1.9382885432027699,0.15887661493080038,-0.043249094824816474,-0.3194443456370575,-0.005538392890541053,-0.4810183996934754,-0.023922103534649988,0.17068087181311642,0.1309199033513457,0.5872161521138087,0.8094139260030125,0.0026521670856618123,0.0,0.8093809745394575,-0.58715448767975,-0.01152356508623599,0.0,-0.007770251853005283,0.00891360874359666,-0.9999300829384558,0.0,0.6470940487351822,0.24201653435559295,0.3038381852007044,1.0,-0.06621942857142378,-0.08703124897958556,-0.2175120699145499,1.1119999999999883
0.4537415830614466,0.4651162584572828,-0.12517996099472514,-1.484349433307704,0.07197022504732592,1.9414672330362182,0.1612274575545503,-0.05861371946492371,-0.3474060029326392,-0.008376351346091044,-0.5423626472989265,-0.032349118704801755,0.19726186603176002,0.1502350217796206,0.590149945343167,0.8072763967996043,0.00293395346131034,0.0,0.8072474096834749,-0.5900874489268572,-0.011365257565149438,0.0,-0.0074437583780539995,0.009075807200071173,-0.9999311077193651,0.0,0.6460492347274633,0.24062471321692055,0.30397104668471314,1.0,-0.0728845714285659,-0.09579115102040092,-0.24742516107340376,1.1279999999999866
0.45266959569858284,0.45834158124173724,-0.12534240657810072,-1.4948701008329697,0.07132338625327167,1.9451412441951588,0.16427106407458217,-0.06370769142853291,-0.3947604757668907,-0.014144110128179342,-0.61046858248447,-0.04037527106185312,0.2055916879981651,0.17468899524512208,0.5938965539296595,0.8045245526659088,0.002806116427087088,0.0,0.8044942602456522,-0.5938343473996217,-0.01142365884795759,0.0,-0.0075243905750895235,0.009042150271655142,-0.9999308091387814,0.0,0.6446528867722077,0.23882856647373338,0.3039521759049565,1.0,-0.08038285714285089,-0.10564604081631833,-0.2810773886271148,1.1459999999999848
0.4515193207773566,0.4513458602172914,-0.12549624994729022,-1.5055634062500727,0.07065943534756143,1.9489442487336202,0.16753575324552006,-0.0737197306957377,-0.43074066307324016,-0.007234809489844646,-0.6310724883455164,-0.04157807379958461,0.2402666424754316,0.20881856314239772,0.5981002399577512,0.8014041455888191,0.002871462474674547,0.0,0.8013752115944554,-0.5980379259237892,-0.01136469532908101,0.0,-0.007390612779555106,0.009098521026322096,-0.9999312955187853,0.0,0.6431664453459786,0.23686827780578024,0.3040215439824116,1.0,-0.08788114285713577,-0.11550093061223562,-0.3147296161808254,1.1639999999999828
0.450209277764209,0.4433430587010866,-0.1256355074375987,-1.5176024753361765,0.06987104140634824,1.953447057510141,0.17140897740173208,-0.07463905611827559,-0.4483895444761522,-0.006311159925752857,-0.6767738128792588,-0.03752696645583732,0.24812194983466268,0.2192486584080171,0.602429561324985,0.7981538413438547,0.0031330641620214775,0.0,0.7981290445790261,-0.6023669975183277,-0.011170291013867694,0.0,-0.007028491549580296,0.009230080729251813,-0.9999327006935363,0.0,0.641676359254132,0.2349186603622261,0.30414933373617636,1.0,-0.09496285714284929,-0.12480832653060195,-0.3465122755371076,1.180999999999981
0.4488416983009259,0.4353609532980874,-0.12576782554814733,-1.5299850595539404,0.06906707384173447,1.9577229918800907,0.17554349010098766,-0.08095651643136134,-0.4894133594041537,-0.006193018502077074,-0.7416127505866339,-0.05901863595671862,0.2565700143367675,0.2456320891813167,0.6072272089237142,0.7945106729311651,0.0029418093737781136,0.0,0.7944837664499124,-0.6071649068184213,-0.011272429948642124,0.0,-0.007170040535256272,0.009182322755126093,-0.999932135430972,0.0,0.6399628777650421,0.23277383038762844,0.3040842529855343,1.0,-0.10204457142856278,-0.13411572244896827,-0.37829493489338983,1.197999999999979
0.44730832104930707,0.4267816367034527,-0.1259018593921118,-1.5429519929177125,0.06823112656074977,1.9624414133125188,0.18001968039155772,-0.09367644558998574,-0.511908547635315,-0.010599102662407964,-0.7637348209171587,-0.05263439239245663,0.27823375008952994,0.2764585992923426,0.6124115276927744,0.790520715404697,0.0031410454082066675,0.0,0.7904968838973383,-0.61234874081897,-0.011155405291978539,0.0,-0.006895296527298811,0.009314864744271192,-0.9999328418351887,0.0,0.63821580385483,0.23049002470217148,0.3041694767776414,1.0,-0.1091262857142763,-0.1434231183673346,-0.41007759424967205,1.2149999999999772
0.4457137270291944,0.41833707236287787,-0.12605012594465886,-1.5559085037013531,0.06732662346386326,1.96687074485251,0.18466376944888482,-0.1010595856565837,-0.5365231343602387,-0.012671340699395163,-0.788102672425323,-0.0621301749163039,0.27731344893243204,0.2950552880937742,0.6177256508443589,0.786375890022083,0.002954112743013675,0.0,0.7863503802754559,-0.6176635082927149,-0.011207892995097538,0.0,-0.006989103750455028,0.009246548698551502,-0.9999328246267,0.0,0.6364001569170908,0.22813584704799497,0.30412614393468396,1.0,-0.11579142857141841,-0.15218302040814996,-0.43999068540852593,1.2309999999999754
0.4438669325439519,0.4088290373703825,-0.12619779633570383,-1.5702001071434348,0.06629707659604825,1.9720111560111346,0.1899297183024664,-0.10975844065041708,-0.5507132761865213,-0.005143472748560771,-0.8630416503648725,-0.05334626099347794,0.28939370396674324,0.3218162373259334,0.6237014037614285,0.7816441436685548,0.0031206595269718017,0.0,0.7816218904520805,-0.6236396240954292,-0.011026628017477405,0.0,-0.00667286075318968,0.009316678547117194,-0.9999343340591013,0.0,0.6344367699206195,0.22551384293566037,0.30420942225965647,1.0,-0.12287314285713193,-0.16149041632651628,-0.47177334476480814,1.2479999999999736
0.44180606758162794,0.3988704274922269,-0.12636682438194405,-1.585285724407688,0.06532809131750425,1.9771780623029176,0.1955969378680625,-0.12339222094721447,-0.6067363242734647,-0.020640374702353626,-0.8779470694060363,-0.06746100050716494,0.32044895298292886,0.3401842709899455,0.6301694996347527,0.7764391155148656,0.003073846090350829,0.0,0.7764163795766372,-0.6301070613535362,-0.01111052018252796,0.0,-0.006689919138062161,0.009388276150359628,-0.9999335504186522,0.0,0.6322921806247297,0.2226783505453441,0.30419932325008187,1.0,-0.12995485714284552,-0.17079781224488275,-0.5035560041210908,1.264999999999972
0.43961095374470954,0.3884937029421339,-0.12653906971171194,-1.600907669369157,0.06420620683184976,1.982651814182179,0.2015903162219703,-0.13032688974119844,-0.6199415913165377,-0.006465261548361148,-0.9318112887492105,-0.07274850735739959,0.32556284006729946,0.35761148076028304,0.6369101614737052,0.7709191918937063,0.0031293262376790717,0.0,0.770898100680351,-0.6368479932636474,-0.011022646900844753,0.0,-0.006504790143962935,0.00943300908517647,-0.9999343508674866,0.0,0.630072556175898,0.21970697126215777,0.3042160205449508,1.0,-0.13703657142855905,-0.18010520816324907,-0.5353386634773731,1.28199999999997
0.43740618032827244,0.37826568799454835,-0.12668569204246413,-1.6161905713300448,0.06305970519106664,1.9877938868272367,0.20766784550803083,-0.1443705977368118,-0.6356434708497626,-0.008831613209151693,-0.9576747523830004,-0.07621436734611989,0.3387187451007496,0.38029672034644224,0.644037510836211,0.7649752009835202,0.0030616037183655654,0.0,0.764954219038768,-0.6439758379180947,-0.010995901676743278,0.0,-0.006440117267468015,0.009423941266750169,-0.9999348549883548,0.0,0.627685648117291,0.2165823940805127,0.30423543069526215,1.0,-0.14411828571427254,-0.1894126040816154,-0.5671213228336554,1.2989999999999682
0.4348684474618014,0.367074890548312,-0.12686022962183124,-1.6330148720573427,0.061834177242624404,1.9934678185370605,0.21442642929430467,-0.15178805392340172,-0.6569201806100358,-0.013664622906058976,-0.993484057976356,-0.07887490117283553,0.33109979366111464,0.4044565764061071,0.6510793416428255,0.758991272804733,0.0029471330822410944,0.0,0.7589695178352733,-0.6510178244341629,-0.011036764340623041,0.0,-0.006458295989227536,0.009422774852799923,-0.9999347487346307,0.0,0.6253315729117108,0.21347945929209572,0.30418757808874564,1.0,-0.1507834285714147,-0.19817250612243076,-0.5970344139925091,1.3149999999999664
0.4321334431413494,0.3554087383943326,-0.1270231791884794,-1.6502621808335345,0.060469119054332256,1.999309759664499,0.22162196079300434,-0.1616050888172154,-0.6892586647371177,-0.008163819008141513,-1.0207316354323075,-0.07906450958072346,0.3336801764254306,0.44218044797843814,0.6588994201573501,0.752212330653042,0.0029850680116961575,0.0,0.7521923518441682,-0.6588386124045961,-0.010913089990179432,0.0,-0.006242402974981298,0.00943615567002408,-0.9999359936372272,0.0,0.6227590581804442,0.21003766822307396,0.30423185834366806,1.0,-0.1578651428571282,-0.20747990204079708,-0.6288170733487914,1.3319999999999645
0.4291462897156978,0.34326866102653103,-0.12721590980685388,-1.6680921989796476,0.05914170221134728,2.0051981037484965,0.22919643228194223,-0.17490008005186733,-0.7329529839947952,-0.007670463276320989,-1.0399166643312536,-0.08251651136744412,0.35909482877902765,0.4554013435459405,0.6671490806295328,0.7449052135674821,0.0030122942023334855,0.0,0.7448862116335793,-0.6670879618890917,-0.010905490453917715,0.0,-0.006114209213062605,0.009519587628408432,-0.9999359949002155,0.0,0.6200473931674112,0.2063904998177688,0.304280521765325,1.0,-0.16494685714284169,-0.2167872979591634,-0.6605997327050737,1.3489999999999627
0.426020118619558,0.33088943269752047,-0.12736824199204325,-1.6864370483279867,0.057703331147017194,2.011202706603141,0.23713965120467687,-0.18937159912952528,-0.7289789478753416,-0.007112035692513986,-1.0856175562555979,-0.08537389407256456,0.35742631503864414,0.468128756950079,0.6756232799070484,0.737228390389709,0.002868963619410762,0.0,0.7372084908930961,-0.6755624570841328,-0.010943236942579017,0.0,-0.006129618858974006,0.009508713048429901,-0.9999360040266608,0.0,0.6171862626122205,0.20264039252698682,0.3042131843810701,1.0,-0.1720285714285552,-0.22609469387752973,-0.6923823920613559,1.3659999999999608
0.42294937470977456,0.31872338285751517,-0.1274695688267358,-1.7040440872266696,0.05621581246252926,2.016998667279132,0.24488542677996517,-0.19720955686080943,-0.7554895443453942,-0.008723181537422816,-1.0999135574155783,-0.09180964468784722,0.3505689884506592,0.4864988339291494,0.6837251667756475,0.7297203210453687,0.0029826619428048613,0.0,0.7297030600080759,-0.6836648690812381,-0.010795272122176161,0.0,-0.005838500661355439,0.009557640792960093,-0.9999372797393344,0.0,0.614405187458595,0.19903702168183235,0.3042959216734491,1.0,-0.17869371428569733,-0.2348545959183451,-0.7222954832202098,1.381999999999959
0.4192731531453026,0.3046808919135567,-0.127588404005586,-1.7243108791904114,0.054573985518232976,2.02353223868389,0.2540294919226716,-0.21093589502380208,-0.7687314311691504,-0.0064886718608302635,-1.124699875065763,-0.09640152738684082,0.3676635369238294,0.5194993730286595,0.6926624711429673,0.721241959535338,0.0030795741511273015,0.0,0.7212266225474334,-0.6926018323433866,-0.01075210047450831,0.0,-0.00562205555743811,0.009668833503558946,-0.9999374511188136,0.0,0.6113163780244069,0.19507977040110297,0.30435606227893036,1.0,-0.18577542857141083,-0.24416199183671142,-0.754078142576492,1.3989999999999572
0.4156968015743741,0.29189614431306654,-0.12770924632924158,-1.7428005241426756,0.05297849776816021,2.0292818333834486,0.2625428126914273,-0.22528163019551667,-0.8405562882343982,-0.013805264741736418,-1.1374879076913154,-0.10179586384757487,0.37570583630693105,0.5401938367889293,0.7019869029859663,0.7121704256394489,0.0029016860453920067,0.0,0.712154064023636,-0.7019268991863447,-0.010768667255997552,0.0,-0.005632463297391477,0.009626096218252125,-0.9999378048802838,0.0,0.6080823413077586,0.19085945229237644,0.30433053286608425,1.0,-0.19285714285712433,-0.2534693877550777,-0.7858608019327742,1.4159999999999553
0.411666550604234,0.27799336235462796,-0.12785684154659963,-1.7628353867885154,0.05132984522614619,2.0354773551714067,0.27190390385212143,-0.2436414698411753,-0.8416353166476115,-0.0035716120128789605,-1.1829836010352823,-0.09991910871550069,0.3546322239785571,0.5533102059847164,0.7115925427109309,0.7025731994233938,0.0027747993398344354,0.0,0.7025559354176854,-0.7115321799321178,-0.010856400491763271,0.0,-0.005653165845533714,0.009674971649600766,-0.9999372163488578,0.0,0.6047288394794321,0.18649420166853647,0.3042827184861295,1.0,-0.19993885714283785,-0.26277678367344404,-0.8176434612890564,1.4329999999999534
0.4073706498256181,0.2636162869008102,-0.12803607594062513,-1.7831242821713853,0.049523275074300634,2.0417783773250453,0.2816029833922681,-0.2627010922597276,-0.8275794083387599,-0.010188080362466769,-1.1988100621958357,-0.10830571187198827,0.3619260475193086,0.56944053127427,0.7214332043725736,0.6924640914029403,0.0028914784157965563,0.0,0.6924495061096877,-0.7213732055233646,-0.010729713071811227,0.0,-0.005344208852362253,0.009743161670394435,-0.9999382532098704,0.0,0.601317855695968,0.1819511380758769,0.3043704872828062,1.0,-0.20702057142855135,-0.27208417959181036,-0.8494261206453386,1.4499999999999515
0.4027454965667652,0.2489736302054411,-0.12822491665792887,-1.8037828892771868,0.04765841668469173,2.0480134330989967,0.29160829087998064,-0.2791977942954359,-0.8613966937890059,-0.01102618353092602,-1.207648213961836,-0.09931571546011071,0.3671243804543745,0.5925602913561202,0.73152949495735,0.681789708176625,0.002852846488175148,0.0,0.6817758518087714,-0.7314699111395794,-0.01068662196805624,0.0,-0.005199357609540378,0.009762768979203196,-0.9999388256400021,0.0,0.5977726820835683,0.1772015481172524,0.30438881415860775,1.0,-0.21410228571426485,-0.28139157551017674,-0.8812087800016208,1.4669999999999497
0.3981399845529159,0.23482731715666713,-0.12838617196983945,-1.823497389110787,0.04582781557789624,2.053924402721192,0.3013821285490709,-0.28990913990422806,-0.8947275778928674,-0.007924107186577786,-1.219566150933914,-0.11828521261594376,0.38884253832936627,0.6090087615055915,0.7412395716086241,0.6712198235218346,0.002931363844591057,0.0,0.6712080803936337,-0.7411803565429561,-0.010589560442165014,0.0,-0.004935348612427115,0.009817145355206655,-0.9999396311733768,0.0,0.5943396449918522,0.17260263232777695,0.3044542427528111,1.0,-0.220767428571407,-0.2901514775509921,-0.9111218711604747,1.482999999999948
0.3931368428820677,0.21965905465790694,-0.1284723318626969,-1.844776421053049,0.04385795310092925,2.060130131078368,0.31208006665831056,-0.3015778986249722,-0.9054335872281991,-0.006649390973514793,-1.232081236177384,-0.12670338632354816,0.350711438665731,0.6371844383247661,0.7515811226416723,0.659620206758603,0.0027831323413207727,0.0,0.6596076678159414,-0.7515219332094683,-0.01064215038073581,0.0,-0.004928287321772529,0.009834404106110459,-0.9999394964096338,0.0,0.590500260178922,0.16771277331747902,0.30438502901159914,1.0,-0.2278491428571205,-0.2994588734693584,-0.9429045305167569,1.499999999999946
0.38772519599335187,0.204000575058627,-0.12860814147726918,-1.8663379859840565,0.04175536622085237,2.066289612788919,0.32306325943393666,-0.3292503301507395,-0.9103295306296507,-0.01178716182866364,-1.279445738680258,-0.1309432615949417,0.35557529476986177,0.6491032145132071,0.7621522063953283,0.6473771549912413,0.0027532496050351758,0.0,0.6473655485889493,-0.7620935220149267,-0.010585702821319312,0.0,-0.004754800032195805,0.009850465354462282,-0.9999401783151602,0.0,0.5865689931093387,0.16256678242367,0.3044141675619876,1.0,-0.234930857142834,-0.3087662693877247,-0.9746871898730392,1.5169999999999442
0.38198829879165586,0.18802988746628232,-0.128763688578767,-1.8880771934061735,0.03961407290013361,2.0724478290785795,0.3342915273552171,-0.35133791879478865,-0.936638761283278,-0.014275003609558651,-1.290001534117474,-0.13129826625727947,0.3492140739055853,0.6679873333707954,0.7728552463532398,0.63456078609755,0.002850233804568805,0.0,0.6345515252102673,-0.7727968183170237,-0.0104969687823115,0.0,-0.00445839898451067,0.009921448620741083,-0.9999408420180469,0.0,0.5825537991772101,0.15726224144260492,0.3044796235555247,1.0,-0.2420125714285475,-0.31807366530609105,-1.0064698492293214,1.5339999999999423
0.376173866331501,0.1727426850493393,-0.12896300011421197,-1.9087467715353128,0.037631381491203424,2.0781504450909454,0.3452241044305196,-0.374079274033617,-0.9509486918960781,-0.011850141651922382,-1.2901120995438682,-0.12605354789748127,0.35341575318346974,0.6876215401015942,0.7838875414362528,0.6208804706316878,0.0029172710551744687,0.0,0.6208728809743779,-0.7838286062645486,-0.010503740912624132,0.0,-0.00423500863298959,0.010045199525708523,-0.9999405775686708,0.0,0.5784364756144825,0.15170756954484257,0.3045200851280453,1.0,-0.249094285714261,-0.32738106122445737,-1.0382525085856036,1.5509999999999404
0.36933512144777714,0.15524484263742924,-0.12911512383627455,-1.9322512498560118,0.03515225446787726,2.084429125903156,0.35777913177993215,-0.38439394678548755,-0.9680471050219018,-0.005809942151212419,-1.2951079310532683,-0.13090683818320403,0.3570665156606648,0.6875703133861102,0.7948341965989212,0.6068040268948998,0.0028670127815120195,0.0,0.6067972963239046,-0.7947761178630492,-0.010426435140951377,0.0,-0.004048247482642653,0.010027175857203821,-0.999941532009071,0.0,0.574157540399342,0.14606037455754406,0.3045395902070752,1.0,-0.2561759999999745,-0.3366884571428237,-1.0700351679418858,1.5679999999999386
0.3629996451536995,0.13948437479879308,-0.12921879393368774,-1.9533137973746917,0.03288330113673797,2.089946087973649,0.3691445484312924,-0.40268597537280476,-1.0017007185353437,-0.013916764798560695,-1.317507276944078,-0.1390899480210403,0.36230214416766365,0.6938098257616236,0.8051154490564107,0.5930953581860241,0.0027850834985327917,0.0,0.5930890356684293,-0.8050581890051314,-0.010366049723922379,0.0,-0.0039059768985861276,0.009997861754637835,-0.9999423913930257,0.0,0.5700133901478234,0.1406637269872143,0.30451665446340076,1.0,-0.2628411428571166,-0.3454483591836391,-1.0999482591007397,1.5839999999999368
0.355879588959839,0.12239737581190156,-0.12934647854471062,-1.9758890147984922,0.03050495322248781,2.095654575867809,0.3815317544930613,-0.4214476818728958,-1.0067897635720564,-0.006690657123914768,-1.3104710264171546,-0.13454321968991922,0.3228481780654271,0.7221214994451762,0.8161717693424697,0.5777862723465533,0.002722740800227569,0.0,0.5777803083626853,-0.8161143747390153,-0.01039180031922617,0.0,-0.0037822444835880487,0.010054833659049328,-0.9999422958084909,0.0,0.5654780104263695,0.13476643588105655,0.30450712812180236,1.0,-0.26992285714283015,-0.3547557551020054,-1.131730918457022,1.600999999999935
0.3482113695347972,0.1049476979320306,-0.12957789964044863,-1.9986127765468886,0.02794375235748619,2.101260937948279,0.3941373531066957,-0.45594705842477634,-1.0153732514417937,-0.0098625859853217,-1.3306378070330362,-0.14717662660364597,0.3054552983335159,0.7425755577002376,0.8273400072581555,0.5616777025084441,0.0027235631293204133,0.0,0.5616732496260891,-0.8272835724991323,-0.010285826595374054,0.0,-0.003524228267253793,0.010039821701159163,-0.9999433892952787,0.0,0.5608654452059098,0.12855727338571643,0.3045428775936155,1.0,-0.2770045714285436,-0.36406315102037173,-1.1635135778133041,1.617999999999933
0.34078711447106486,0.08830276652899394,-0.12963169336953762,-2.020022784041692,0.025548543064583134,2.10642763095378,0.4061360762892753,-0.4756495812217463,-1.0183869790613318,-0.003847852292402552,-1.345629349125073,-0.13688378443202312,0.312621506812299,0.7374724213050895,0.8376309143882944,0.5462116462641837,0.0028347217868300223,0.0,0.5462095405542288,-0.8375745796919667,-0.010232700649005479,0.0,-0.003214991256618449,0.010119773323067155,-0.9999436254205083,0.0,0.5564016656291622,0.1227788231928929,0.3045987070317545,1.0,-0.28366971428568577,-0.3728230530611871,-1.193426668972158,1.6339999999999313
0.33194430164198874,0.06927957952051196,-0.1297085655077444,-2.044196245479251,0.022790440664952737,2.1120360893696795,0.41993089929377986,-0.5003624072292386,-1.0518835712633217,-0.007087810059684389,-1.3555986037382817,-0.15548961190205193,0.3046705229487328,0.7720058104459304,0.8492334768228698,0.527990960596604,0.0029655139224626296,0.0,0.5279915562865336,-0.8491772498856447,-0.010181437422386039,0.0,-0.002857514983743703,0.010212380432347165,-0.9999437693660693,0.0,0.5512605158415015,0.11608809085508179,0.30467193362284956,1.0,-0.28998,-0.3811165714285715,-1.2217471650000002,1.6519999999999293
0.3230963578843659,0.05129573507727957,-0.12984927400599294,-2.066932197610422,0.02008855805930159,2.1170796708040953,0.43303196154954937,-0.5330013498744796,-1.0443229425939198,-0.01264364248213215,-1.3369157260311015,-0.1554703985786131,0.2859908709939948,0.7690545422821911,0.8600921728151298,0.5101113309689208,0.0029378870763178085,0.0,0.5101129655349075,-0.8600366086067904,-0.010126260441101015,0.0,-0.0026388805603899113,0.010208368176906651,-0.9999444112192202,0.0,0.5463318297509463,0.10955950990628574,0.3046728200219153,1.0,-0.28998,-0.3811165714285715,-1.2217471650000002,1.6689999999999277
0.3139617450534918,0.03344161867979689,-0.12986366968611812,-2.089251051722068,0.017450249260116676,2.121734717635935,0.4458331091048051,-0.5411864408958144,-1.0497409074363406,0.00016210705674636172,-1.293914013603137,-0.16373287544150156,0.27676772055089305,0.7399990609053899,0.8704881136696698,0.49216166716937537,0.0028432780534632797,0.0,0.4921633871469424,-0.8704324299616335,-0.010165240987944605,0.0,-0.0025281092006088635,0.010248276121059177,-0.9999442891983614,0.0,0.5413569887258263,0.10308386687481433,0.3046622658482111,1.0,-0.28998,-0.3811165714285715,-1.2217471650000002,1.6859999999999258
0.3051352650106348,0.016776024592356126,-0.12988098871034118,-2.1097138980299035,0.014856823428853886,2.125872512565549,0.4577278786763975,-0.5566435113097282,-1.0541699004975205,-0.0014447301470541932,-1.267290218692921,-0.163749004428323,0.2665514304139785,0.7525788205569458,0.8799115003325155,0.4751086139846934,0.002881562307705657,0.0,0.4751120581944032,-0.8798568817173995,-0.010057174256231908,0.0,-0.002242930878318339,0.010218685029088417,-0.9999452723711192,0.0,0.5367253383181226,0.09698410294447776,0.3047166213492182,1.0,-0.28998,-0.3811165714285715,-1.2217471650000002,1.701999999999924
0.29540664439959813,-0.000776623366733196,-0.12997026302537473,-2.131075826385453,0.012220536057263018,2.129933559078113,0.47025295587415,-0.5654721434897203,-1.0236659395823537,-0.006787059453916339,-1.2464333954340017,-0.14997217831314755,0.21394670724488893,0.7336570662837131,0.8896996087023176,0.456516377174007,0.0028549164736532875,0.0,0.4565206719329665,-0.8896450143289236,-0.010068340417887673,0.0,-0.0020565396793792434,0.010261324479235001,-0.9999452364327155,0.0,0.5317877200444076,0.09042286611439258,0.304743361868191,1.0,-0.28998,-0.3811165714285715,-1.2217471650000002,1.7189999999999221
0.28553716368215976,-0.018132014113441647,-0.12995282550515969,-2.151965181767981,0.009509841331023432,2.133895023642208,0.4824601188316829,-0.5845540311692906,-1.0030798628117465,-0.0015671290945314942,-1.2528081427577022,-0.16084617422733832,0.21561883514403316,0.7126497635750214,0.8983923411494155,0.4391612795812,0.0030526679943692707,0.0,0.43916889028407846,-0.8983388155793967,-0.009940077025158936,0.0,-0.0016229980428274504,0.010270923632438297,-0.999945935541062,0.0,0.5271838547441389,0.08436800292179715,0.3048093954232036,1.0,-0.28998,-0.3811165714285715,-1.2217471650000002,1.7349999999999204
0.2753509221382515,-0.035385448771846316,-0.12999250095527207,-2.172320896231748,0.0068123248543571335,2.1374451449740417,0.4944781997751921,-0.5943154428898058,-1.002326429506928,-0.0027588903879044425,-1.2012924536806453,-0.16503672301539746,0.20105797893258184,0.7082108022870787,0.9078293039255115,0.4193051860436325,0.003140508278081345,0.0,0.41931499916183335,-0.9077767984686853,-0.009846955928805938,0.0,-0.0012780237433678843,0.010256414840392643,-0.9999465848783791,0.0,0.5219894792603699,0.07748473352580565,0.30487446860531003,1.0,-0.28998,-0.3811165714285715,-1.2217471650000002,1.7529999999999184
0.2654662356156616,-0.05148877884059076,-0.13009352847577385,-2.1911609975309627,0.00444264204638322,2.1404534970642257,0.5056676756403149,-0.610760583176612,-1.0033685215966248,0.0011413205937114371,-1.1568553711716896,-0.14977293923425952,0.1952909797977535,0.6958454218857928,0.9164561274659888,0.40009820035507154,0.0032161162734620522,0.0,0.40010982820417573,-0.9164030732062456,-0.009913611540798912,0.0,-0.0010191789220561076,0.01037238947218147,-0.9999456859304721,0.0,0.5170715987345657,0.07094601624263525,0.3049376027397594,1.0,-0.28998,-0.3811165714285715,-1.2217471650000002,1.7699999999999165
0.2548251485802531,-0.06818465813918952,-0.1300826432988289,-2.2108537295392763,0.0017708324858613112,2.143342148873615,0.5172464211972916,-0.6347186213043416,-0.9829890244276719,-0.0022954146280867436,-1.1310213634804236,-0.1542228294642279,0.1635310811786097,0.6673380265981862,0.9240504335806485,0.3822349773310656,0.0028222695376799913,0.0,0.3822435468091277,-0.9239978061221192,-0.009933383386190528,0.0,-0.0011891386069425303,0.010257939040180068,-0.9999466788964406,0.0,0.5123633807250983,0.06488435702127603,0.30480210573835026,1.0,-0.28998,-0.3811165714285715,-1.2217471650000002,1.7859999999999148
0.24379712780971316,-0.08486737991362013,-0.13017799785439105,-2.2300853033983117,-0.0008406731891899022,2.146193934103823,0.5285799976291664,-0.6472090244192633,-0.9554333411545567,-0.0025917040630080088,-1.1270175528230755,-0.15465201572292883,0.15950946583843592,0.6722340907162074,0.9318282950160826,0.3628615718168981,0.00287318763728393,0.0,0.3628717994821537,-0.931776228453971,-0.009892630079239389,0.0,-0.0009125049281943909,0.010261028944757528,-0.9999469379020824,0.0,0.5074559706814507,0.05834786014020013,0.3047904998405539,1.0,-0.28998,-0.3811165714285715,-1.2217471650000002,1.802999999999913
0.23268866611952616,-0.10151687535059156,-0.13013537691254687,-2.2488800696949593,-0.003454476577519425,2.14858965714996,0.5397354677666529,-0.6507707730961628,-0.9540855035478168,0.0033413133867410292,-1.094207963911767,-0.16257094654006832,0.1402518249347549,0.6519422496121698,0.9391030134227623,0.3435956802713801,0.0028784684022772028,0.0,0.3436070599039236,-0.9390515766767457,-0.009852493405627591,0.0,-0.0006822570180650134,0.01024176549740851,-0.9999473189947846,0.0,0.5025014622977352,0.05197827777354962,0.30483424143284477,1.0,-0.28998,-0.3811165714285715,-1.2217471650000002,1.819999999999911
0.2218231341064949,-0.11689865375073885,-0.13020755077300156,-2.26625783211365,-0.005943766133672145,2.1506086382450578,0.5499874814251587,-0.6817531165580094,-0.96527084325988,-0.00817034146831762,-1.0532799611061716,-0.15985648116145035,0.13735221772053333,0.6620391633670933,0.945658043047144,0.32512222966905524,0.0026736298316842994,0.0,0.32513254516290924,-0.9456073109547121,-0.009817761766094394,0.0,-0.0006637814599750325,0.01015372494149628,-0.99994822929189,0.0,0.49782786945735175,0.045844397302995776,0.3047726978296469,1.0,-0.28998,-0.3811165714285715,-1.2217471650000002,1.8359999999999093
0.20934177455896408,-0.13409754469794274,-0.1302668579721473,-2.2854093836540317,-0.008619501337474663,2.1526747198341547,0.5611674635091731,-0.6807335653742913,-0.9468911488981692,-0.0022273035097803264,-1.0627221068339638,-0.15034795615875418,0.09650448764448548,0.6058735443235211,0.9525699999968176,0.3042771744917913,0.002557946551998831,0.0,0.30428741366621587,-0.9525193093561402,-0.009842869969423703,0.0,-0.0005584779325374378,0.010154569094268713,-0.9999482850772377,0.0,0.492569136882969,0.038995309509648905,0.3047255878041458,1.0,-0.28998,-0.3811165714285715,-1.2217471650000002,1.8539999999999073
0.19800683784998138,-0.1492683474488056,-0.13030571335445446,-2.301881130661786,-0.011006566677544974,2.1542988040894095,0.5708695087232556,-0.7042357220359775,-0.9413201145924252,-0.003929828113313108,-1.0353238298131988,-0.15551291383885665,0.08986798974582222,0.6026378003327413,0.9583149167283794,0.285667843671389,0.0026740174319477817,0.0,0.28568026220656384,-0.9582649239475264,-0.009791333853915708,0.0,-0.0002346566355223012,0.010147290654768205,-0.9999484873875408,0.0,0.4879596530722714,0.032932625990248085,0.3047801736775073,1.0,-0.28998,-0.3811165714285715,-1.2217471650000002,1.8699999999999055
0.18556881190540392,-0.16521777842318128,-0.1304312472655829,-2.31903782166366,-0.013540530199236664,2.1557516680709927,0.5810081269582702,-0.7258558594309346,-0.9444126598308812,-0.0007361191612869607,-0.9872023597922552,-0.14082332918023543,0.09213592387854361,0.5828046736721074,0.9640939249296487,0.2655114404830916,0.002706619209850174,0.0,0.26552523498466024,-0.964044602101882,-0.009752007268932784,0.0,2.003252731369587e-05,0.010120721520808625,-0.9999487839857579,0.0,0.48304417141925565,0.026395744348552765,0.30480812044774774,1.0,-0.28998,-0.3811165714285715,-1.2217471650000002,1.8869999999999036
0.17381326402139863,-0.18010153958582148,-0.13042729705457623,-2.3348950254054257,-0.01585197358651071,2.1568408122868434,0.5902396475819113,-0.744415457953575,-0.9195493003363069,-0.0017421491949668507,-0.9780418757776959,-0.15673949952941246,0.06805028106701659,0.5880248616970325,0.9690542588972749,0.24679470316476587,0.0026390725788445904,0.0,0.24680876839271082,-0.9690051177005239,-0.00976015450058328,0.0,0.0001485232616028065,0.010109660181455468,-0.999948885049559,0.0,0.4783702626690963,0.020415500742321124,0.3048083780348161,1.0,-0.28998,-0.3811165714285715,-1.2217471650000002,1.9029999999999019
0.16076650805359907,-0.19581694306396055,-0.13058530074265343,-2.351232507173546,-0.01836600437539984,2.157904617086619,0.5997347544439144,-0.7666398371169844,-0.930372645726958,-0.0017241665708914704,-0.9474469341909518,-0.15176060688176407,0.05475733751468752,0.547964843474157,0.9740041711457315,0.22646928496423252,0.0028782737385541126,0.0,0.22648674572118405,-0.9739563351442129,-0.009672546008653908,0.0,0.0006127901616900244,0.010073184950392774,-0.999949076419981,0.0,0.47348664836444443,0.01385322045071366,0.30490639440361417,1.0,-0.28998,-0.3811165714285715,-1.2217471650000002,1.9199999999999
0.1468383875942807,-0.21210164939173576,-0.1306360256610989,-2.3682108071703536,-0.02086522180568982,2.158640199339964,0.6094183842003285,-0.7816655723490276,-0.9207034759388739,-0.0036463337416898817,-0.9232996280065148,-0.14081859725909013,0.03871424080696886,0.5440045182146278,0.9787174661285283,0.2051471958259789,0.0027379629104226384,0.0,0.20516432297239517,-0.9786694033106573,-0.009723502663582337,0.0,0.0006848244077817256,0.0100784882377654,-0.9999489762434739,0.0,0.4682346912903462,0.007078957499090618,0.3048715239288985,1.0,-0.28998,-0.3811165714285715,-1.2217471650000002,1.937999999999898
0.1340371806603281,-0.22642075944495518,-0.13080430680646438,-2.3828395406041554,-0.023177940391734188,2.159170206525002,0.6178311728868235,-0.7859603232259147,-0.8792017126813346,-0.005726274559466902,-0.9163909599539143,-0.14148008529266998,0.019308064644847644,0.514228452298904,0.982566200038701,0.18584040487879666,0.0027844850871737467,0.0,0.1858588856771417,-0.9825191442249015,-0.009661922563686127,0.0,0.000940252406586406,0.010011192580435768,-0.9999494446963454,0.0,0.46361728260885504,0.0009274520355669212,0.30489478811187387,1.0,-0.28998,-0.3811165714285715,-1.2217471650000002,1.9539999999998963
0.12026752456127218,-0.24153011802195898,-0.13087023786195615,-2.397990167017449,-0.025557413847364412,2.1594993172300705,0.6264122297351953,-0.8128914362140992,-0.8889609924976596,-0.00842735884206055,-0.8792904091631344,-0.13956079868828328,0.028256812570151814,0.5113965179466557,0.9861921999484186,0.1655212164494007,0.00290147673042405,0.0,0.16554176549627908,-0.9861462192108785,-0.009607555030990558,0.0,0.001271050583664446,0.009955403084997955,-0.9999496359216442,0.0,0.4587087607524046,-0.005488873038142712,0.3049587844814792,1.0,-0.28998,-0.3811165714285715,-1.2217471650000002,1.9709999999998944
0.10690595619212771,-0.25547365866219673,-0.13103086509605846,-2.412017771392576,-0.027676637943231188,2.1596469771061755,0.6342141398436458,-0.8251441997924924,-0.8817144813500554,-0.0010068089625078205,-0.872617527669193,-0.13405187484095768,0.004710837053469838,0.47749340498540305,0.9892609503661172,0.1460668963428361,0.0028250264965895625,0.0,0.14608768070852834,-0.9892146111161052,-0.009674171841760004,0.0,0.0013815078299102002,0.009983174206050776,-0.9999492125447609,0.0,0.4540429166229209,-0.011608920332193412,0.304916959914765,1.0,-0.28998,-0.3811165714285715,-1.2217471650000002,1.9869999999998926
0.09254198370814817,-0.27018231129389725,-0.13115545747918808,-2.426386284200464,-0.029987047411183985,2.159692450609219,0.6420936267507455,-0.8477539902818476,-0.8751124022448731,-0.011348919843900362,-0.8119928478339075,-0.14156057996322374,0.00025510623574680766,0.4501020854002432,0.9920585650100602,0.12566310760372706,0.003055139728818513,0.0,0.12568702656893443,-0.9920136506666639,-0.009614319760987427,0.0,0.0018226101079128476,0.00992215072604903,-0.9999491132139496,0.0,0.44915864679722806,-0.01804125634631817,0.3049905182632382,1.0,-0.28998,-0.3811165714285715,-1.2217471650000002,2.0039999999998908
0.07776335913183063,-0.28452887747385835,-0.1313061102636781,-2.4404857338114083,-0.03228102142295916,2.159559540081537,0.6497559142225107,-0.8563947513713998,-0.8330680437052744,0.0018201620473600778,-0.8020198119811114,-0.14040621135295714,-0.013117724591755529,0.4382677650892281,0.9944585185339634,0.10499465874358149,0.0030205052163657436,0.0,0.10501906980797499,-0.9944145109522726,-0.00956672804195629,0.0,0.0019992173626325327,0.009831114123405486,-0.9999496748962067,0.0,0.4442229625942228,-0.02452621097222515,0.3049409508564109,1.0,-0.28998,-0.3811165714285715,-1.2217471650000002,2.020999999999889
0.06360103775896028,-0.2979454554659249,-0.13152344806109192,-2.4532096611437484,-0.03427518182536165,2.1593362333326485,0.6566841173904173,-0.8983263866782453,-0.8716195306613068,-0.02144976185109346,-0.774071823639817,-0.13258118483916412,-0.014577805637603365,0.43252414462608857,0.9963338639285704,0.08537116906128583,0.0033677861397523865,0.0,0.0853999573343387,-0.9962907428919926,-0.009609881176322279,0.0,0.0025349361698890904,0.009862448719645162,-0.9999481517578135,0.0,0.43965615527844215,-0.030632485010418195,0.3050343580003861,1.0,-0.28998,-0.3811165714285715,-1.2217471650000002,2.036999999999887
0.049144231564192335,-0.3110418903939351,-0.13165230760599303,-2.465762418219077,-0.03636065405499182,2.1587974095133418,0.6632419836194202,-0.8959082106394938,-0.8677042279946976,-0.005919142943634019,-0.7588556390870915,-0.11623085536542069,-0.03376621063691767,0.40671745361902023,0.9978084413747019,0.06594326435291142,0.003247631302765975,0.0,0.06597160703436239,-0.9977659511504453,-0.009570825009330782,0.0,0.002609294729133682,0.009764289434158035,-0.9999489238120429,0.0,0.4349864329519397,-0.03671263951459197,0.3049828105770908,1.0,-0.28998,-0.3811165714285715,-1.2217471650000002,2.052999999999886
0.03341740036841734,-0.3247938172658849,-0.13191957392160247,-2.4784885911068146,-0.03849278833037261,2.1581859501967213,0.6699101617409815,-0.9301293252386774,-0.799658970491147,-0.014978367071138452,-0.7324277338683647,-0.11944671614171691,-0.03677609032590728,0.37749390139229066,0.9989695275023139,0.04503460972251372,0.003537506205369849,0.0,0.04506660477530955,-0.9989286447579621,-0.009555664145191626,0.0,0.003103440424979953,0.00970542754969592,-0.9999480853192362,0.0,0.43011950567545887,-0.043253053559783115,0.30506965256538926,1.0,-0.28998,-0.3811165714285715,-1.2217471650000002,2.069999999999884
0.017555815640759337,-0.3382153274335456,-0.1320292364291706,-2.4909569064114456,-0.04053700219072268,2.1573130995572347,0.676211353624063,-0.940177883329055,-0.8033888120078975,-0.015442343530835673,-0.7200505474746647,-0.11563954926241338,-0.0608607552643566,0.36210818110916354,0.9996852225417079,0.02445217257227289,0.0035062785741939756,0.0,0.024484707820877638,-0.9996448869179881,-0.009557512378099368,0.0,0.0032713944912535764,0.009640539705336501,-0.9999481776433576,0.0,0.4251885848636782,-0.04963442590863724,0.3050528956805425,1.0,-0.28998,-0.3811165714285715,-1.2217471650000002,2.086999999999882
0.0012050272747274554,-0.35139660631074937,-0.13224971260554091,-2.502871832229985,-0.04263885007296287,2.156326558559438,0.6820875431941866,-0.9572672827078287,-0.7872937517428236,-0.004833981945733375,-0.6867799108363499,-0.12859459288798256,-0.0554991442932207,0.337894864237711,0.9999767139246819,0.0037192585046850746,0.0036722780093554276,0.0,0.003753941796254545,-0.9999383594868256,-0.00948325097183399,0.0,0.0036368510070771687,0.009496998508694898,-0.9999482888300164,0.0,0.4202983171717884,-0.05615156920703846,0.30511678729523084,1.0,-0.28998,-0.3811165714285715,-1.2217471650000002,2.10399999999988
-0.015369145965497448,-0.36422756265892037,-0.13245384913026767,-2.5144801804110046,-0.04461154555437658,2.155249831452303,0.6877613461428174,-0.9999593838282013,-0.7555631767054146,-0.022240400157884678,-0.678846601620823,-0.11780085008164287,-0.07427962539554829,0.32539548905333515,0.9998374751915786,-0.017086589489955006,0.0037173328260214425,0.0,-0.017050713188374977,-0.9998000774096587,-0.00947762062000654,0.0,0.0038786045352454113,0.009412878322765023,-0.9999481757313926,0.0,0.41538238846831116,-0.06260409619192624,0.3051113521503838,1.0,-0.28998,-0.3811165714285715,-1.2217471650000002,2.1209999999998783
-0.03323793405387051,-0.3774778455980002,-0.1326449107553108,-2.526257843103141,-0.046579315666695556,2.1538492043192723,0.693309028029206,-0.9858152637290232,-0.7500659402165105,-0.012471517196495191,-0.6240608559194294,-0.09975157043728779,-0.08240495649149307,0.29962511830476657,0.9992222048753518,-0.03901379746905442,0.0036953744455192265,0.0,-0.03897714965554866,-0.9991851349133231,-0.009518133965291742,0.0,0.004063780005064632,0.009366875985690214,-0.9999478723045211,0.0,0.41017323465234823,-0.06940646051375192,0.305121254843026,1.0,-0.28998,-0.3811165714285715,-1.2217471650000002,2.1389999999998763
-0.049561134580316454,-0.38897465513415297,-0.13288279253193702,-2.5363269950141274,-0.048395043891478674,2.15263000356774,0.6979072123386572,-1.0208147302933681,-0.7233317374298577,-0.0030586150236030785,-0.6286787223731937,-0.11902962683986432,-0.08252509745856768,0.28014437371212697,0.9982630378838064,-0.05862663054860684,0.003817366463873097,0.0,-0.05858835249850891,-0.9982276924288532,-0.009467096750605327,0.0,0.0043657089533787885,0.009227177201952041,-0.9999478985358277,0.0,0.4055528503803327,-0.07555351933918829,0.30515099442886723,1.0,-0.28998,-0.3811165714285715,-1.2217471650000002,2.1549999999998746
-0.06710146935367284,-0.4008056815604255,-0.1331081790696969,-2.546725160333731,-0.05023058217071709,2.15112984901921,0.7024066670568689,-1.0332859463483954,-0.6857895912227752,-0.025564080024346153,-0.6030118254408545,-0.09956983867836208,-0.09214096415701052,0.25629291201622584,0.9968362855955286,-0.07927612469065765,0.003669151856947446,0.0,-0.07923853238872208,-0.9968011883759118,-0.00945477331613938,0.0,0.004407037568798788,0.009134298768908852,-0.9999485699804104,0.0,0.4005884983638341,-0.08201055810721868,0.3051002359034703,1.0,-0.28998,-0.3811165714285715,-1.2217471650000002,2.1719999999998727
-0.08489400889526041,-0.4123920978975976,-0.13332928198312202,-2.556453837810074,-0.051974834294743345,2.149625845201455,0.7066465988559218,-1.0525991436626765,-0.6716965219569088,-0.016922817645942553,-0.5544025390905959,-0.09285709104866939,-0.08210635322245935,0.2397767586133441,0.9949749003780848,-0.09995054831869932,0.003947456094772573,0.0,-0.09990981973592356,-0.9949420867291163,-0.00943498153974261,0.0,0.004870615556921032,0.008993353340650628,-0.9999476969820906,0.0,0.39572957079652804,-0.08846216926770437,0.3052114517266863,1.0,-0.28998,-0.3811165714285715,-1.2217471650000002,2.188999999999871
-0.10313839764967128,-0.4234867228548904,-0.1335814582705045,-2.5659580040632246,-0.05361217368706347,2.148009273337955,0.7104416817372641,-1.062346185445293,-0.6461892553984611,-0.01390424963302831,-0.5616879549774618,-0.11097161819461018,-0.09887731956500763,0.21723133819473694,0.9926750835691631,-0.12067331657528779,0.0038569455381098293,0.0,-0.12063245084213059,-0.992642193016527,-0.009488695820251173,0.0,0.0049736950309402506,0.00895409151731194,-0.9999475419254944,0.0,0.39077156927975026,-0.09495365519688635,0.3051763207940026,1.0,-0.28998,-0.3811165714285715,-1.2217471650000002,2.205999999999869
-0.12046439655859845,-0.4335356379760564,-0.13380233581840004,-2.5745138367187144,-0.055184808243524765,2.14634779799257,0.7137262337930464,-1.0868604270792317,-0.6105114437786698,-0.022132424581329482,-0.5152644083213348,-0.09869392058836801,-0.09433069170903312,0.19457527020239584,0.9901386851033632,-0.13997488009192222,0.0036282373466150018,0.0,-0.13993553733163522,-0.9901056732461679,-0.00946298571631459,0.0,0.004917013339463372,0.008862119514900901,-0.9999486415899186,0.0,0.38609164226247267,-0.10101426835870413,0.3051177038155053,1.0,-0.28998,-0.3811165714285715,-1.2217471650000002,2.221999999999867
-0.13914527927942072,-0.4438935652963528,-0.13401792030407608,-2.58291057081317,-0.0567219098837691,2.144827157875678,0.716840962512335,-1.0849129233227646,-0.6067003446390917,-0.010066568250224938,-0.4783552962063904,-0.08326616216622236,-0.09281316824781329,0.1757699689257271,0.9870329672307915,-0.1604075147228053,0.004012196560605729,0.0,-0.16036427204733916,-0.9870030045029152,-0.009440140579139682,0.0,0.0054744249485521035,0.008674483996849003,-0.9999473906155618,0.0,0.3812722450743472,-0.10747525582399428,0.3052339145551185,1.0,-0.28998,-0.3811165714285715,-1.2217471650000002,2.2389999999998653
-0.1582454392004513,-0.45377982634843,-0.13425481550898502,-2.5911668412677034,-0.05826152014789539,2.142972624747192,0.719671441272192,-1.110178727805201,-0.5772861514006368,-0.0058620795200818926,-0.473960096304724,-0.07325672107180005,-0.10275775385136461,0.15701047514544159,0.9834813533478366,-0.18091772812696272,0.0037349923286445056,0.0,-0.180876371278001,-0.9834509605670472,-0.009417715979108777,0.0,0.0053771170985680294,0.008586741518805813,-0.9999486759238183,0.0,0.3762686310802887,-0.11395170376546974,0.30516704141119405,1.0,-0.28998,-0.3811165714285715,-1.2217471650000002,2.2559999999998634
-0.17756911188804214,-0.46318844652850333,-0.13455969022476993,-2.5989117982022045,-0.059626714615080526,2.141255851722513,0.7221285967868974,-1.1512836260176906,-0.539919333331505,-0.011822792354513601,-0.445552569422985,-0.08400764381150935,-0.1016753167557284,0.14690754989316618,0.9794973308701149,-0.20137647982408474,0.0036385564704212838,0.0,-0.20133488687893436,-0.9794666052626413,-0.009496283585285752,0.0,0.005476278149280145,0.008569181052887578,-0.9999482884198134,0.0,0.37131657095652537,-0.12042797760942704,0.3051289696188414,1.0,-0.28998,-0.3811165714285715,-1.2217471650000002,2.272999999999862
-0.19709842511219855,-0.47220102120114477,-0.13479839233678384,-2.6060273672231196,-0.060973847068054206,2.1396086074869087,0.7242715374964437,-1.1549100199974867,-0.5162698636473818,-0.021059843131730895,-0.40164197334395285,-0.08042588386286192,-0.09206503980526073,0.11478432606732678,0.975115095382287,-0.22162242899242213,0.003846638311594086,0.0,-0.22157853555350437,-0.9750865519959432,-0.009482383657892474,0.0,0.005852426864280558,0.00839424457635038,-0.9999476415081895,0.0,0.3664488429324465,-0.12689218941052519,0.30520607501896874,1.0,-0.28998,-0.3811165714285715,-1.2217471650000002,2.28999999999986
-0.21692556168044388,-0.48064021843046095,-0.13502112942593839,-2.6128144998133265,-0.06227300942447109,2.1379562988074663,0.7261155565665817,-1.145186653880127,-0.4813605863129161,-0.008554286489545326,-0.395545861928072,-0.070155646314822,-0.10546833913254436,0.09908131092414355,0.9703096501787027,-0.24179623471079786,0.0038092717115050306,0.0,-0.24175225009760498,-0.9702820501324816,-0.009451966179684974,0.0,0.005981632963582895,0.008250592839300575,-0.9999480725442143,0.0,0.36152819563616007,-0.1333502806541677,0.3051891917739299,1.0,-0.2859377142857732,-0.375803853061302,-1.2036054291585503,2.3069999999998583
-0.23552654062273473,-0.4879592742245362,-0.13517920176135198,-2.6187818966009324,-0.06337378500355959,2.136336550717966,0.7274027994811776,-1.154847371653917,-0.44355119847228786,-0.0026069617528731402,-0.35755251169391455,-0.07373531315230683,-0.10306068717348013,0.07072134928582495,0.9655285695010312,-0.2602363757331988,0.00351527008210037,0.0,-0.2601943148375858,-0.965500103536023,-0.00944539566862818,0.0,0.00585214183625965,0.008205304055350277,-0.999949211420904,0.0,0.3569218527349035,-0.13929645562863138,0.3051041429144177,1.0,-0.27927257142863104,-0.36704395102048665,-1.1736923379996964,2.3229999999998565
-0.2551704094112085,-0.49510818714614574,-0.1353806065667942,-2.624460297473314,-0.0643643244122471,2.1348516670613074,0.7284920207275406,-1.1537905142240867,-0.40760834689298403,-0.013289562221276146,-0.32382161475784443,-0.05798457370632254,-0.08562071520156071,0.058753021557688835,0.960129160856225,-0.2795006833258168,0.0034798556193084322,0.0,-0.2794579628885412,-0.9601008072317899,-0.009509670460133325,0.0,0.005999087081975107,0.008158195626935205,-0.9999487260846407,0.0,0.35218371748425964,-0.14553635625254935,0.3050813526682167,1.0,-0.2721908571429176,-0.3577365551021203,-1.1419096786434142,2.3399999999998546
-0.2734275619922566,-0.5012839660487356,-0.13537076485870245,-2.6291872451860074,-0.06514536300099562,2.1335150655701813,0.7291606915935889,-1.1368290177261549,-0.37462174658416814,-0.0026958992729450505,-0.2754060059780974,-0.04500311868829567,-0.0818879203918332,0.041609391778631474,0.9548878469738856,-0.29691264477386237,0.0035816164194162644,0.0,-0.2968685077611507,-0.9548607887664455,-0.009524183807407643,0.0,0.006247915974615936,0.008031412877819666,-0.999948228636443,0.0,0.34788456585108246,-0.15122935328899195,0.30513046310017594,1.0,-0.2655257142857754,-0.34897665306130493,-1.1119965874845603,2.355999999999853
-0.29254009301908246,-0.5072348641837227,-0.13538472878720226,-2.6336455150482894,-0.06588743670466254,2.1323164185587835,0.729572064262769,-1.1100535311139217,-0.33627018762620875,-0.0008651108250849605,-0.25220991319361635,-0.03925912263435863,-0.07177684259429729,0.01882824096290152,0.9491237770439687,-0.3148489240796066,0.00386752594220803,0.0,-0.3148019265953319,-0.949099295071516,-0.009540545467991978,0.0,0.006674625128367251,0.007837804833906531,-0.9999470076932984,0.0,0.34346464325812553,-0.15716368575778064,0.3052183331158382,1.0,-0.25844400000006196,-0.3396692571429386,-1.080213928128278,2.372999999999851
-0.31131951685468345,-0.5125518191927478,-0.13536097722727908,-2.637790222142574,-0.06651527902230404,2.1310281161782068,0.7297449654592306,-1.0953739937681228,-0.29777765797372957,0.005818033528866431,-0.23193750242229322,-0.04210386564322119,-0.07588540785831718,0.0070021398196605045,0.943199224645566,-0.33217752565103353,0.003749797536975133,0.0,-0.3321306621877182,-0.9431744222125455,-0.009590590179286113,0.0,0.00672262107192656,0.007800564667012733,-0.9999469773727001,0.0,0.3390727288097691,-0.16288826093735306,0.30519576861019815,1.0,-0.25136228571434843,-0.3303618612245723,-1.0484312687719959,2.389999999999849
-0.3307632222797867,-0.5174918169164839,-0.13527146794869974,-2.641722259710127,-0.06713309380850295,2.1298150188449547,0.7297411235080646,-1.0678315791763584,-0.2613319867639159,-0.0009672060580782765,-0.2031513541929208,-0.027896252248034235,-0.05465634128444056,-0.001615108005970904,0.936801809481729,-0.34981502236807427,0.003544965245237915,0.0,-0.34976935421918615,-0.936776588599854,-0.009579603411494941,0.0,0.00667205808860194,0.007734418516973263,-0.9999478298446707,0.0,0.33455456544574,-0.1687473388395026,0.30513028275318954,1.0,-0.24386400000006353,-0.320506971428655,-1.0147790412182853,2.407999999999847
-0.347645724430437,-0.5213625821799085,-0.13512328270894033,-2.6446833266727,-0.06751782567911015,2.12893276773558,0.7295705601038915,-1.020794739230122,-0.22968379011572454,0.013412847389199139,-0.1805215980403841,-0.02548759490104575,-0.053706250129512925,-0.01636827177144519,0.931021600718487,-0.3649201533375728,0.0035787686257298845,0.0,-0.36487369279562437,-0.930997203703233,-0.00959905743570135,0.0,0.006834844686527564,0.007631278220797677,-0.9999475228684893,0.0,0.33072506087557557,-0.1737987512112028,0.30513678887758966,1.0,-0.2371988571429214,-0.31174706938783964,-0.9848659500594314,2.4239999999998454
-0.3653404202334883,-0.5250477363040436,-0.13498148265793194,-2.6474207872096485,-0.06793305795404904,2.1280780592518354,0.7290912158560204,-1.015834165334306,-0.19962985764798344,0.0137101032818951,-0.15631281829818955,-0.024425847813252768,-0.046161567671318335,-0.03433502782942071,0.9248046922203081,-0.3803991292823795,0.0036783949920187755,0.0,-0.3803517566045101,-0.9247820208650083,-0.009565669548100727,0.0,0.007040621475140174,0.0074474354718238045,-0.9999474812979615,0.0,0.3267383639698222,-0.1790828701509961,0.3051747826141743,1.0,-0.2301171428572079,-0.3024396734694733,-0.9530832907031492,2.4409999999998435
-0.38251917128332175,-0.5281434332483245,-0.13484414638159603,-2.649816134680672,-0.06823382702887194,2.1272815513695456,0.7284077452718517,-0.9955845169155012,-0.16833025283369812,-0.002191322864770792,-0.13217004643533148,-0.009781491842314536,-0.046564112043069025,-0.04261192692598614,0.9185812077245026,-0.39519159610541654,0.003593617154926608,0.0,-0.39514438888763115,-0.9185585918492548,-0.00957977931597199,0.0,0.00708693263710547,0.007379949686120518,-0.9999476544941877,0.0,0.3228635894412548,-0.18416704094199007,0.30515334741332845,1.0,-0.2230354285714944,-0.293132277551107,-0.921300631346867,2.4579999999998416
-0.3982667435776011,-0.5306049925041844,-0.13466602865916324,-2.651761772718069,-0.06842052990878109,2.126663586273823,0.7276528385481379,-0.9721970599833359,-0.1440586644486146,0.009871720342194794,-0.11481487071885173,-0.006836419143135126,-0.03593338640531026,-0.046503555115914114,0.9127128081060553,-0.4085630726582614,0.003506063377539116,0.0,-0.4085160216134841,-0.912690095938463,-0.009601862430736614,0.0,0.007123052879197123,0.00733160091572535,-0.9999477535079984,0.0,0.319338908890318,-0.1887893634304386,0.30511870453516965,1.0,-0.21637028571435227,-0.2843723755102916,-0.8913875401880131,2.47399999999984
-0.41472350584484163,-0.5329011575321438,-0.13452272068651824,-2.653501101749188,-0.06862322182968074,2.1261122623219313,0.7267143289173951,-0.940377149406204,-0.1302637034779983,0.011802780244886617,-0.09792700234285032,-0.014245375358515439,-0.02753810974014275,-0.05686159452373689,0.9064123286446208,-0.42235649573554035,0.00352532157946577,0.0,-0.42230898460984495,-0.9063904898907451,-0.00959938824222953,0.0,0.007249821514157151,0.007212367733984232,-0.9999477095526959,0.0,0.31567088499262763,-0.19362777208395668,0.305120936639259,1.0,-0.20928857142863877,-0.2750649795919253,-0.8596048808317309,2.490999999999838
-0.43050207166886884,-0.534749448895742,-0.13428702909350826,-2.6549177006014135,-0.06872722281256105,2.1256787930885763,0.7256955900796889,-0.9159454502197169,-0.09667670570049183,0.010356291425464932,-0.07418883591914986,-0.0022987185576316643,-0.030573303027691894,-0.06480339487229181,0.9002359024316549,-0.4353659689711672,0.003541177215146333,0.0,-0.43531813684881526,-0.9002149643531295,-0.009585644807630524,0.0,0.007361225986799724,0.007087939401035109,-0.9999477853703256,0.0,0.3121856585627003,-0.19822330958801337,0.30511808159258774,1.0,-0.20220685714292524,-0.26575758367355895,-0.8278222214754487,2.507999999999836
-0.44592745185175753,-0.5362954809358286,-0.13407403946159555,-2.6560611172500685,-0.06875902070841529,2.1252976289462033,0.7244923630967811,-0.8899422752254238,-0.08385187166285123,0.018600009951882407,-0.060954862435122076,-0.002130989207404855,-0.014858014741094107,-0.07656054880128457,0.8940791967666543,-0.4478730820583876,0.003583179848079588,0.0,-0.44782450152602105,-0.89405908521212,-0.009608063480560966,0.0,0.0075069120320949145,0.006985868449454008,-0.9999474205745766,0.0,0.3087829691258321,-0.20270480454891635,0.3051327369830344,1.0,-0.19512514285721175,-0.2564501877551926,-0.7960395621191664,2.5249999999998343
-0.4599561029595641,-0.5374208078733217,-0.1339098973458201,-2.6569294707053235,-0.06877041063976498,2.124987822561327,0.7232857774325565,-0.8884578084236353,-0.05764092413473901,0.0001960515338096814,-0.05224077243721882,0.0007479267675788229,-0.02421619525375635,-0.0780045862860641,0.8883593902636431,-0.4591140836622012,0.0035494808963488704,0.0,-0.4590652929245638,-0.8883394613629234,-0.009633541338656309,0.0,0.007576184316724799,0.0069287368219302925,-0.9999472956297504,0.0,0.3056748094075967,-0.20677292492219984,0.3051238284981781,1.0,-0.18846000000006963,-0.24769028571437726,-0.7661264709603126,2.5409999999998325
-0.4751816078990331,-0.5383451758769267,-0.13361539374485326,-2.6576565694603587,-0.06874906909263528,2.1247397840586677,0.7219016467751861,-0.8275268773995708,-0.043859317315803614,0.016136202639056546,-0.035430061386626736,0.008294994144067603,-0.016200727546210478,-0.07942005493925111,0.8820583167171577,-0.4711066487992268,0.0035211175022247278,0.0,-0.47105805721118943,-0.8820390754745362,-0.009598071350734535,0.0,0.007627625310703601,0.006807538955769826,-0.9999477370070323,0.0,0.30232948231753837,-0.2111548052881267,0.30511456921234753,1.0,-0.18096171428578472,-0.23783539591845998,-0.7324742434066019,2.5589999999998305
-0.48910392354032023,-0.5389206102523069,-0.13342914014409296,-2.6581257761151678,-0.0687531836694126,2.124550843258984,0.7204949951129028,-0.8202750640859746,-0.028448566782841772,0.008749656803836506,-0.018499412370537996,-0.002857457292376074,-0.004754215351594587,-0.08218787369457992,0.8761878391351128,-0.4819374104975292,0.003456850573284134,0.0,-0.4818892978157287,-0.8761689504629506,-0.009561474599866164,0.0,0.007636964483130726,0.006711957699172932,-0.9999483118628322,0.0,0.2992507090241488,-0.21518131527388398,0.30509808012832607,1.0,-0.17388000000007123,-0.22852800000009366,-0.7006915840503197,2.5759999999998286
-0.5015879011374943,-0.5392040500711333,-0.13310030714069648,-2.6583656644000726,-0.06869474892445585,2.124448637856846,0.7191824297339137,-0.7644477891458343,-0.015176712123499969,0.01574328922567174,-0.010190969205666072,0.005689937499340553,-0.006077530418430565,-0.07914857120199924,0.8708818100607124,-0.4914610240954912,0.003417835805909321,0.0,-0.4914136481940109,-0.8708637348017819,-0.009472522206521311,0.0,0.0076319916587469505,0.006570002615655074,-0.9999492925988551,0.0,0.2965314269888963,-0.21875277897962117,0.3050911729043785,1.0,-0.1672148571429291,-0.2197680979592783,-0.6707784928914658,2.591999999999827
-0.5145392562810076,-0.5393690469949871,-0.13287772897913264,-2.658521897492279,-0.06859940824217167,2.1244358765658387,0.7177466999655521,-0.7431958260284275,-0.009711149066737706,0.009857572184323935,-0.007108514620021574,0.010313136059892397,-0.0012487402944632172,-0.08821381792497683,0.8652407934182282,-0.5013255607829857,0.003434881632284552,0.0,-0.5012780216433739,-0.8652235144765671,-0.009453143145578298,0.0,0.007711191110639393,0.006457538733996765,-0.9999494175832867,0.0,0.2936830375330787,-0.22247646044528427,0.3050845475284752,1.0,-0.1601331428572156,-0.21046070204091197,-0.6389958335351836,2.608999999999825
-0.5274905085473321,-0.5393481887733045,-0.1325243358849756,-2.658542309082597,-0.06842327155487622,2.1244435411360802,0.716177773149014,-0.6993206311186012,0.005675272583819743,0.023925490386588512,-0.0011068380401695103,0.012848642686394513,-0.0007111607874568427,-0.08377376326080513,0.8595871821649199,-0.5109587815120304,0.0034273538951014337,0.0,-0.5109113774979477,-0.8595706036851805,-0.009417458502824477,0.0,0.007758135146340828,0.006344174662900326,-0.9999497801324315,0.0,0.29085210302005504,-0.22615419105145143,0.30507740219233476,1.0,-0.1526348571429307,-0.20060581224499469,-0.6053436059814731,2.626999999999823
-0.5386401849298685,-0.539177199905825,-0.13230511138006318,-2.658440414506795,-0.06823769943776727,2.124443843664531,0.7147811611291408,-0.6794637455159417,0.01338763918655136,0.01098584215342884,0.006092254437009321,0.006403037971546069,-0.0014425229863605587,-0.0866968014197,0.8546066647988522,-0.5192463363056556,0.0033819544267519046,0.0,-0.519198838624356,-0.8545900126497987,-0.00944580073605945,0.0,0.007795031980531886,0.006316659068009267,-0.9999496673806341,0.0,0.2883899612023022,-0.22933255554487433,0.3050673628715618,1.0,-0.1459697142857886,-0.19184591020417932,-0.5754305148226192,2.6429999999998213
-0.5498522076463236,-0.5388771279295255,-0.13196199290789565,-2.6582213393603715,-0.06802161960505221,2.124511403663326,0.713269550599947,-0.6349979962079015,0.01824371870985907,0.020633951344850555,0.012686577582742914,0.018335357990178033,0.007976173261191799,-0.0922262369957906,0.849897676070231,-0.5269186388379894,0.0033815908607331795,0.0,-0.5268711866340132,-0.8498816013050001,-0.009421430853316943,0.0,0.00783843029088721,0.006225709262180634,-0.9999498985222999,0.0,0.2860782708460079,-0.23232290122909527,0.3050693047809254,1.0,-0.13930457142864647,-0.18308600816336396,-0.5455174236637653,2.6589999999998195
