nelsonifechukwu/NELSON_IML_WORK/CNN-GradCAM/train2dof/data_sample_2022-02-21-14-31-12/robot_state.csv
position_joint1,position_joint2,position_joint3,position_joint4,position_joint5,position_joint6,position_joint7,velocity_joint1,velocity_joint2,velocity_joint3,velocity_joint4,velocity_joint5,velocity_joint6,velocity_joint7,ee_T_00,ee_T_10,ee_T_20,ee_T_30,ee_T_01,ee_T_11,ee_T_21,ee_T_31,ee_T_02,ee_T_12,ee_T_22,ee_T_32,ee_T_03,ee_T_13,ee_T_23,ee_T_33,v_x,v_y,time
0.465081453042,0.547857002284,-0.1239849517,-1.35584691298,0.0794781835681,1.89409469135,0.159166267064,-0.000321330352887,0.00022454994874,0.000192294058414,-0.00020742977095,-0.000216262845593,8.41883209331e-05,0.000335104823234,0.573797755993,0.818983186331,0.00185003385666,0.0,0.818938891163,-0.573739752723,-0.0119388268954,0.0,-0.00871642834266,0.00836569782256,-0.999927016825,0.0,0.661669075693,0.260891076901,0.303153382737,1.0,0.0,0.0,0.0
0.465077608958,0.547859786018,-0.123987483661,-1.35584554438,0.0794829953922,1.89409520822,0.159162401516,-0.000722863049232,0.000510765877482,-0.000597218971716,0.000240778788827,-0.00027672218307,-0.000538564776367,-0.00142982740729,0.573800716538,0.818981109454,0.001851205043,0.0,0.818936800075,-0.573742679653,-0.0119416049486,0.0,-0.00871800137604,0.00836828252568,-0.999926981484,0.0,0.661670732915,0.260888008746,0.303152199692,1.0,-8e-05,-0.000105142857143,0.005
0.465078948988,0.547856228303,-0.123982196908,-1.35585046203,0.0794794469302,1.89409684143,0.159166024838,-0.00140863107047,-0.000999014351985,0.000278538462428,-0.00081226723856,4.55717140266e-05,0.000270536431972,0.000862948943339,0.573796182257,0.818984286815,0.00185096705587,0.0,0.818939998442,-0.573738170075,-0.011938930074,0.0,-0.0087159934904,0.0083665045357,-0.999927013866,0.0,0.661669416477,0.260889706723,0.303152816839,1.0,-0.00042,-0.000552,0.022
0.46507513137,0.547850298961,-0.123982858285,-1.35586046561,0.0794832365619,1.89409642774,0.159162871354,-0.00135392846028,0.000438105460909,0.000886006984833,-0.000355637832624,0.000192586120875,0.000101902503521,-0.000663418296651,0.573800768498,0.818981076834,0.00184952960904,0.0,0.818936705443,-0.573742700162,-0.0119471080143,0.0,-0.0087234692285,0.00837006859435,-0.999926918848,0.0,0.661667376194,0.260887520669,0.303151772206,1.0,-0.00076,-0.000998857142857,0.039
0.465082857385,0.54779925177,-0.123982849527,-1.3559087808,0.0794789737,1.89410528805,0.159166464466,0.000716795337352,-0.00651736144769,0.000749309882572,-0.00441657374386,0.000139541497368,-0.000527171892213,-0.00117247287012,0.573795824554,0.818984507281,0.00186425832426,0.0,0.818940317583,-0.573737684497,-0.0119403737732,0.0,-0.00870955356303,0.0083782142254,-0.999926971935,0.0,0.661657176529,0.26088629143,0.303170729495,1.0,-0.0011,-0.00144571428571,0.056
0.465078257463,0.547673453745,-0.123985390221,-1.35606335971,0.0794766890442,1.89413214803,0.159164381954,-0.000534696967589,-0.0102668935329,-0.000788317387789,-0.0136989231212,0.000252073918628,0.000378986872181,0.00121799383469,0.573807234353,0.818976507434,0.00186680916525,0.0,0.818932255112,-0.573748989858,-0.0119501077571,0.0,-0.00871594545049,0.00838600997854,-0.99992685089,0.0,0.661631059818,0.260871605698,0.303184705635,1.0,-0.00142,-0.00186628571429,0.072
0.46506554923,0.547529601664,-0.123990273934,-1.35626979522,0.0794722515658,1.89418356878,0.159152124455,-0.000320440822489,-0.0064316412284,-0.00177370032942,-0.0094953254561,-0.000384244751432,0.00823046749701,-0.00226282711176,0.57382446651,0.81896445451,0.00185762904508,0.0,0.818920015816,-0.573766194837,-0.0119627864261,0.0,-0.00873142021818,0.00838595060146,-0.999926716381,0.0,0.661604206308,0.260836651545,0.303191926074,1.0,-0.00176,-0.00231314285714,0.089
0.465042846328,0.547352239145,-0.123985696706,-1.35648788415,0.0794689490692,1.89432486146,0.159146075891,-0.00424909889041,-0.0147862259569,0.00142761335768,-0.0142167446703,-0.000186501746837,0.00851491408583,0.000115655598807,0.573846609277,0.818948729208,0.00194803779491,0.0,0.818905438691,-0.573787924928,-0.0119183300045,0.0,-0.00864290705016,0.00843471440074,-0.999927075216,0.0,0.661592131326,0.260809802941,0.303225872491,1.0,-0.0021,-0.00276,0.106
0.465028205223,0.547172139408,-0.123977674527,-1.35670541348,0.0794678731183,1.89442811895,0.159136742558,-0.00117995923983,-0.00449781288786,0.0013769500837,-0.0170942124121,0.000267948509355,0.00716106144735,-0.00073052800395,0.573857332536,0.818941059025,0.00201261988524,0.0,0.818898491963,-0.573798264507,-0.0118978321848,0.0,-0.00858895085616,0.00847595281779,-0.999927191423,0.0,0.661569638732,0.26078815436,0.303258604759,1.0,-0.00242,-0.00318057142857,0.122
0.464997037101,0.546945816283,-0.123987594821,-1.3570456089,0.0794587758241,1.89457325572,0.159117322891,-0.000647285305305,-0.0103735279003,-0.00114481748376,-0.025926764751,-0.000321820901113,0.007753953645,0.000578666117518,0.573890639426,0.818917645893,0.00204208867608,0.0,0.818875435958,-0.573831420545,-0.0118856250226,0.0,-0.00856169825681,0.0084934287239,-0.999927276851,0.0,0.661537443705,0.260732768971,0.30326990088,1.0,-0.00278,-0.00365371428571,0.14
0.464964374232,0.546702401833,-0.123986038345,-1.35740505956,0.0794513658857,1.89470176593,0.159056498761,-0.000154325116996,-0.0127924419858,-0.000480821159511,-0.0218589500374,0.000328869289106,0.00989703962193,-0.00388789090385,0.573884588855,0.818921837322,0.00206153652033,0.0,0.818879734518,-0.573825146403,-0.0118923779114,0.0,-0.0085561312058,0.00851316679152,-0.999927156652,0.0,0.661495602188,0.260680118049,0.303282303581,1.0,-0.0031,-0.00407428571429,0.156
0.464920834911,0.546407724044,-0.123983541114,-1.35784713252,0.0794378099059,1.89486219591,0.15894229082,-0.0067589354136,-0.0217261505622,-0.00154501843565,-0.0290126886113,-0.00301966735771,0.00334786867611,-0.0152575681815,0.573846067671,0.818948780577,0.00208142043895,0.0,0.818906793928,-0.573786406793,-0.0118982830425,0.0,-0.00854995824708,0.00853243655028,-0.999927045209,0.0,0.6614454558,0.260612855437,0.303294399297,1.0,-0.00344,-0.00452114285714,0.173
0.464881338888,0.546111728461,-0.123986020888,-1.35834646184,0.0794155786647,1.89504262669,0.158923813244,-0.00077219974816,-0.0222674293785,-2.78397442278e-05,-0.0293782028435,-0.000777757143501,0.00847231701791,-0.00275468502584,0.573887051867,0.818920104122,0.00206438014956,0.0,0.818877828591,-0.573827388804,-0.0119153934789,0.0,-0.00857332246071,0.00852872937418,-0.999926876785,0.0,0.661386720958,0.260538554033,0.303282044345,1.0,-0.00378,-0.004968,0.19
0.464831274429,0.545803930089,-0.123984330703,-1.35888929448,0.0793427497476,1.89521568412,0.158847413921,-0.0014324829655,-0.0141564674788,-5.79350529314e-05,-0.0338652664804,-0.00430107769239,0.0066447434624,-0.000601062542858,0.573862719225,0.818937327924,0.00199482292906,0.0,0.818894499186,-0.573803694321,-0.0119107718817,0.0,-0.00860970469561,0.00846886051537,-0.999927073034,0.0,0.661317914912,0.260442579621,0.303261815668,1.0,-0.00412,-0.00541485714286,0.207
0.464761654936,0.545430795044,-0.123989221537,-1.35953695061,0.0792868783213,1.89543800367,0.158751411662,-0.00310032914975,-0.0228947015274,0.000337503094745,-0.0406241039236,-0.000302673927197,0.00780010399104,-0.00967785142177,0.573878264844,0.818926579686,0.00193419902335,0.0,0.818883063295,-0.573819589932,-0.0119312094534,0.0,-0.00866107001121,0.00843110692482,-0.999926948483,0.0,0.661249165273,0.260331153275,0.303231725596,1.0,-0.00444,-0.00583542857143,0.223
0.464698202187,0.545006145629,-0.123986737779,-1.36024441523,0.0792738792584,1.89566487074,0.15868939487,-0.00484253615642,-0.022161625487,0.000587174918563,-0.0442457179577,0.000376912800241,0.0146536844392,-0.00712189628638,0.57391354118,0.818901929858,0.00190353013385,0.0,0.818857674556,-0.573854662525,-0.0119867435327,0.0,-0.008723785729,0.00843823714915,-0.999926343146,0.0,0.661159657137,0.260225520259,0.303215198038,1.0,-0.00478,-0.00628228571429,0.24
0.464643511423,0.544677192416,-0.123987053535,-1.36079453732,0.0792528318775,1.89585686564,0.158598380619,-0.00307876860853,-0.0257163717302,0.000816428459784,-0.0405543393107,0.000516270208431,0.0185050155652,-0.00298702254493,0.573909066606,0.818905108336,0.00188512882768,0.0,0.818860477731,-0.573850136878,-0.0120118823197,0.0,-0.00875497891702,0.00843754811165,-0.999926076331,0.0,0.661095592022,0.26013781718,0.303202840426,1.0,-0.00504,-0.006624,0.253
0.464563369073,0.544114794843,-0.123995971465,-1.36170774028,0.0792105428703,1.89619504204,0.158486139722,-0.00233017456917,-0.0287446867022,-7.28357044029e-05,-0.0463364886819,-0.000336034137587,0.00969755827278,-0.0110888687671,0.57392871697,0.818891352569,0.00187814443106,0.0,0.818846548941,-0.573869736138,-0.0120250627347,0.0,-0.00876957848006,0.00843960340114,-0.999925931051,0.0,0.660993013751,0.259994762021,0.303195784459,1.0,-0.00544,-0.00714971428571,0.273
0.464481284339,0.543588623684,-0.12399815047,-1.3625500505,0.0791709528584,1.8964752031,0.158381960354,1.8644660394e-05,-0.0358723780044,-0.00449906464109,-0.0468974204679,-9.40749210774e-06,0.0188004510577,-0.00305816311106,0.57394832015,0.818877668803,0.00185370813682,0.0,0.818832400322,-0.573889303308,-0.0120546519179,0.0,-0.00880763156375,0.00843678593569,-0.999925620368,0.0,0.660892892561,0.259858772196,0.303191513602,1.0,-0.00578,-0.00759657142857,0.29
0.464401416779,0.543006588965,-0.124000230168,-1.36346988948,0.079105868936,1.89681341261,0.158278561995,-0.00723568223775,-0.0335060390873,-0.000475556054734,-0.055115475292,-0.00381572190337,0.0179519894592,-0.00330918411281,0.573964335143,0.818866457555,0.00184758640865,0.0,0.818821197939,-0.57390542814,-0.0120479150972,0.0,-0.00880546322012,0.00842807876167,-0.999925712894,0.0,0.660788662743,0.259715662349,0.30319478672,1.0,-0.00614,-0.00806971428571,0.308
0.46432743484,0.542481089511,-0.124005303523,-1.36428341866,0.0790613598747,1.89709787944,0.158163448435,-0.0017770373409,-0.0356784150926,-7.77060862938e-05,-0.0518961408505,-0.00575908734361,0.0170702076962,-0.00994364310829,0.573962305061,0.818867890178,0.00184328644591,0.0,0.818822516292,-0.573903361546,-0.0120567541131,0.0,-0.00881519023512,0.00842960912429,-0.999925614289,0.0,0.660685011361,0.259583210468,0.303201667154,1.0,-0.00646,-0.00849028571429,0.324
0.464248039034,0.541838405803,-0.124005441032,-1.36529484458,0.0790039992223,1.89748351689,0.1580188989,-0.0022108431067,-0.0373270940319,0.00177845211922,-0.059250338816,-0.00613417055149,0.0216397825845,-0.0121689838522,0.573955141531,0.818872868878,0.00186199538229,0.0,0.81882771967,-0.573896098184,-0.0120491032992,0.0,-0.00879826129505,0.00844046072733,-0.999925671848,0.0,0.660579016588,0.259439009888,0.30321055846,1.0,-0.0068,-0.00893714285714,0.341
0.464166541574,0.541134907792,-0.124016161763,-1.36635849355,0.0789475459449,1.89788480282,0.157876866815,-0.00741813395974,-0.0409991863602,-0.00137874775812,-0.0669302989931,-0.00034993144717,0.0223459927049,-0.015805823985,0.573957044948,0.81887145063,0.00189863092024,0.0,0.818826765204,-0.573897828077,-0.0120315591727,0.0,-0.00876284886366,0.00846041085276,-0.999925814212,0.0,0.660458852643,0.259280041032,0.303236797676,1.0,-0.00716,-0.00941028571429,0.359
0.46408604048,0.540517917379,-0.124011696448,-1.36730264893,0.0788884870371,1.89822236805,0.157767254995,-0.0113077003846,-0.0407327614568,0.000355322649731,-0.0665213456453,0.000259650350665,0.0213408934475,-0.0112647048572,0.573966506919,0.818864797265,0.00190778316605,0.0,0.818820203553,-0.573907222469,-0.0120300104404,0.0,-0.00875623010701,0.00846711748926,-0.999925815426,0.0,0.660347512702,0.259138845792,0.303252620394,1.0,-0.00746,-0.00980457142857,0.374
0.463995400638,0.539769067183,-0.124020023627,-1.36844231241,0.0788169727098,1.89865256723,0.157633643606,-0.00325130014367,-0.0426285220062,-0.000596290945303,-0.0732921954281,-0.00509140418214,0.0321533688098,-0.00735757470968,0.573981146345,0.818854466364,0.0019373841018,0.0,0.818810330023,-0.573921801716,-0.0120064925689,0.0,-0.00871983097487,0.00847801371211,-0.999926041181,0.0,0.660219019939,0.25896634049,0.303276924739,1.0,-0.0078,-0.0102514285714,0.391
0.463886892666,0.539021136859,-0.124017627416,-1.36960531273,0.0787508843067,1.89909102517,0.157483945933,-0.00898787139821,-0.047575818502,0.000461244880638,-0.0659161084612,-0.00306543511615,0.0225370192303,-0.0160016044171,0.573996900954,0.81884335287,0.00196673734438,0.0,0.81879953199,-0.573937363376,-0.0119990097691,0.0,-0.00869669278286,0.00849792165044,-0.999926073699,0.0,0.660080420098,0.2587789159,0.303293137171,1.0,-0.00816,-0.0107245714286,0.409
0.463789835729,0.538277534938,-0.124020534743,-1.37073689031,0.0786912725508,1.89952726748,0.157345932381,-0.0061500852842,-0.0442105538488,-7.45453649193e-06,-0.0667207972563,-0.00925371379841,0.0282275217169,-0.00863530364178,0.574007514299,0.818835822662,0.00200398501324,0.0,0.818792456249,-0.573947786932,-0.0119832535639,0.0,-0.00866230130288,0.00851948942926,-0.999926188694,0.0,0.659962133711,0.258616566937,0.303314290258,1.0,-0.00846,-0.0111188571429,0.424
0.463677074047,0.537491754068,-0.124024772377,-1.37199634003,0.0786138600478,1.89999765912,0.157187273369,-0.00745105004008,-0.0485459667308,0.000121235502062,-0.0763490716093,-0.000492768939634,0.021924895255,-0.00623741165991,0.574019528972,0.818827405746,0.00200171412253,0.0,0.818784048557,-0.57395984787,-0.0119800568513,0.0,-0.00866086208739,0.00851592214202,-0.999926231548,0.0,0.659811008922,0.258410354187,0.303313075681,1.0,-0.00882,-0.011592,0.442
0.463563030921,0.536592899913,-0.124032773385,-1.37336603168,0.0785344437656,1.90051680155,0.157019512951,-0.0040774852405,-0.0517261969304,-7.75420776702e-05,-0.0757919017962,0.000164931257954,0.0237397587448,-0.0146725139345,0.574037476995,0.818814732169,0.00203869807115,0.0,0.818771858114,-0.573977639581,-0.0119607910514,0.0,-0.00862367084693,0.00853533525749,-0.999926387467,0.0,0.659664587431,0.258211604521,0.30333855081,1.0,-0.00916,-0.0120388571429,0.459
0.463446170806,0.535791364272,-0.124041690593,-1.37464536738,0.0784582531635,1.90098938518,0.156872406263,-0.00184121828759,-0.0493476465078,-0.000115804796286,-0.0830551647788,-0.00544754510147,0.0287182812826,-0.0067115725265,0.574068893779,0.818792723895,0.00203159845037,0.0,0.81874977568,-0.574009100262,-0.011962631016,0.0,-0.00862892536947,0.00853090937598,-0.999926379906,0.0,0.659519443917,0.25800774315,0.303336608371,1.0,-0.00948,-0.0124594285714,0.475
0.463327301823,0.534891022096,-0.124040338829,-1.37607534852,0.0783832551374,1.90150772981,0.156692166181,-0.00397114286344,-0.0563008601484,-0.000946222354955,-0.0870788336185,-0.00400382536822,0.0281106863162,-0.0115967161151,0.574076016077,0.818787738877,0.00202813475568,0.0,0.81874460045,-0.574016092848,-0.0119812890467,0.0,-0.00864611704373,0.00853885946311,-0.999926163544,0.0,0.659348828894,0.257795247941,0.303336177012,1.0,-0.00982,-0.0129062857143,0.492
0.463193065699,0.533990607589,-0.124047431521,-1.37756633525,0.0782830256497,1.90203764166,0.15651233282,-0.00935075686785,-0.0562891915263,-0.00145253107661,-0.096164789177,-0.00328811760277,0.0283810304009,-0.0155442587355,0.574098362488,0.818772217493,0.00196798127888,0.0,0.818728365923,-0.574038761117,-0.012004601985,0.0,-0.00869950454461,0.00850322815206,-0.999926004128,0.0,0.659173243645,0.257557212467,0.303307835549,1.0,-0.01016,-0.0133531428571,0.509
0.463065672772,0.533113667132,-0.12404264533,-1.37894624279,0.078214561466,1.90257897694,0.156343647762,-0.0087086844986,-0.0590817192926,-0.000192134567999,-0.0850467426572,-0.00354931997954,0.0371118422629,-0.0119224288486,0.574114314964,0.818760963865,0.00199607256753,0.0,0.818717310253,-0.574054426955,-0.012009483183,0.0,-0.00868720898819,0.00852919958775,-0.999925889831,0.0,0.659006894627,0.257333806913,0.30330676979,1.0,-0.0105,-0.0138,0.526
0.462927968933,0.532165545607,-0.124038134185,-1.38050501204,0.0781367026745,1.9031529681,0.156145043196,-0.00997919814799,-0.0540859117526,0.00157516181178,-0.0868169627495,-0.00709163324878,0.0378717214571,-0.018547680815,0.574129763749,0.818750157371,0.00198521627228,0.0,0.818706193269,-0.574069754619,-0.0120346514524,0.0,-0.00871388792157,0.00853492477599,-0.999925608841,0.0,0.658833512812,0.25711501303,0.303292432372,1.0,-0.01082,-0.0142205714286,0.542
0.462781688529,0.531097334096,-0.124045730222,-1.38220603308,0.0780170815496,1.90376416604,0.155922766113,-0.00822630639243,-0.0612155631776,0.00118781236445,-0.0898721260996,-0.00798003943821,0.0295292843461,-0.0112053758389,0.574133260355,0.818747776974,0.00195549347758,0.0,0.818703563215,-0.574073513616,-0.0120342613095,0.0,-0.00873059577414,0.00851040301114,-0.999925672107,0.0,0.658632656748,0.256848489613,0.303288853522,1.0,-0.01118,-0.0146937142857,0.56
0.462660088229,0.530174223867,-0.124054915632,-1.38366874652,0.0779325915632,1.90428418668,0.155728294143,-0.00896478524905,-0.0654073030758,-0.00103130126479,-0.0938589669865,-0.0050861723459,0.0299551075465,-0.0101239695729,0.574142320652,0.818741451876,0.00194358384441,0.0,0.81869701758,-0.574082560812,-0.012047974052,0.0,-0.00874856661399,0.00850862189555,-0.999925530195,0.0,0.658444349867,0.256612063263,0.303293736048,1.0,-0.0115,-0.0151142857143,0.576
0.462515221791,0.529065235511,-0.124052478438,-1.38541678418,0.0778252776034,1.90493194353,0.155498879893,-0.0106390765888,-0.0583466042216,-0.000291597105273,-0.0963214753004,-0.00597615853692,0.0399633532573,-0.0149245400871,0.574131826387,0.818748806421,0.00194546016715,0.0,0.818704393133,-0.574072056354,-0.0120473100412,0.0,-0.008747054806,0.00850966473993,-0.999925534547,0.0,0.658249312595,0.256362894242,0.303293563598,1.0,-0.01184,-0.0155611428571,0.593
0.462378854131,0.527963312054,-0.124052922477,-1.38712826885,0.0777124657962,1.90560125015,0.155256026199,-0.0112404063538,-0.0646103618868,0.000308093781207,-0.0973952136166,-0.00103454168558,0.0422870820651,-0.0177716188752,0.574107455735,0.818765789332,0.00198957040613,0.0,0.818722065065,-0.574047610162,-0.0120111758175,0.0,-0.00869239906772,0.00852477490879,-0.999925882459,0.0,0.658052503498,0.256111358851,0.303312802812,1.0,-0.01218,-0.016008,0.61
0.462246434156,0.526862058425,-0.124053161964,-1.38880297044,0.077609221865,1.90623328559,0.155026476327,-0.0119147626992,-0.0743883394923,-0.000186185238176,-0.106830479939,-0.00341108253734,0.0407927948772,-0.0161457808439,0.574090799015,0.818777348461,0.00203839017423,0.0,0.818734275676,-0.574030763562,-0.011983956762,0.0,-0.00864226006381,0.00854894380938,-0.999926110721,0.0,0.65785477409,0.255865951641,0.303345559619,1.0,-0.0125,-0.0164285714286,0.626
0.462095450492,0.525704431675,-0.124055301707,-1.39063919695,0.077510194491,1.90690189437,0.154774877251,-0.00820385967046,-0.0636619945752,0.000392511187573,-0.106272067986,-0.00546878832954,0.0391794876153,-0.0224486992941,0.574082260906,0.818783341321,0.00203582653346,0.0,0.818740087065,-0.574022090953,-0.0120023260997,0.0,-0.00865886197394,0.00855730005127,-0.999925895617,0.0,0.657632351477,0.255591982259,0.303344108678,1.0,-0.01284,-0.0168754285714,0.643
0.46191878419,0.524437737559,-0.124061327962,-1.39261638033,0.0773739644146,1.90760749124,0.154506257718,-0.0134447551309,-0.0691132831106,-0.00137856241857,-0.109313484122,-0.00562358470837,0.0427524896073,-0.0247920918495,0.574080574435,0.818784557989,0.0020220178544,0.0,0.818741233238,-0.57402057125,-0.0119968195213,0.0,-0.00866229750122,0.00854281490957,-0.999925989719,0.0,0.657395935438,0.255280145376,0.303355219031,1.0,-0.0132,-0.0173485714286,0.661
0.461781055182,0.523391733705,-0.124065554438,-1.39430118547,0.0772668048344,1.90822929619,0.154287796951,-0.00573547881225,-0.0735506107848,0.0016370844863,-0.113079092751,-0.00790780236106,0.0331394713537,-0.0169632955684,0.574078980693,0.818785723194,0.00200257851001,0.0,0.818742176474,-0.574019091104,-0.0120032667525,0.0,-0.00867875224535,0.00853058287028,-0.999925951466,0.0,0.657193195709,0.25502578232,0.303342742833,1.0,-0.0135,-0.0177428571429,0.676
0.461619933477,0.522163794635,-0.124068452375,-1.39625105848,0.0771434760834,1.90899093956,0.154023816175,-0.010803709897,-0.0699427033144,-0.000855452834926,-0.114501462335,-0.00488911561203,0.0491985983896,-0.0140997572777,0.574068200077,0.818793213507,0.00203028973959,0.0,0.81875011151,-0.574008277003,-0.0119791374907,0.0,-0.00864319977418,0.00853930625654,-0.999926184949,0.0,0.656966753504,0.254734624991,0.30334377184,1.0,-0.01384,-0.0181897142857,0.693
0.461447443101,0.520836797173,-0.124073678704,-1.3983809126,0.0770113396394,1.90979993376,0.153731142012,-0.011206751603,-0.0763503806045,-0.00112014261579,-0.119038699592,-0.00558713730607,0.0389524861291,-0.0209280402019,0.574051736565,0.818804755524,0.00203051193184,0.0,0.818761695838,-0.573991853558,-0.0119743216306,0.0,-0.0086393005212,0.00853654987401,-0.999926242181,0.0,0.65671312537,0.254416424899,0.303332568631,1.0,-0.0142,-0.0186628571429,0.711
0.461287872873,0.519601746794,-0.12407446306,-1.4003158835,0.0768898215659,1.9104893195,0.15347430498,-0.0126489203229,-0.0795338415748,9.70966173308e-05,-0.12176588731,-0.00944867913737,0.0441090886846,-0.0168361746163,0.574042660271,0.818811144969,0.00201989231949,0.0,0.818767914304,-0.573982790911,-0.0119835363875,0.0,-0.00865303631707,0.00853304841648,-0.999926153297,0.0,0.656473599224,0.254124916598,0.303338620791,1.0,-0.01452,-0.0190834285714,0.727
0.461098548995,0.518187383852,-0.12408652738,-1.40253501769,0.0767492800828,1.9112730456,0.153173306326,-0.0066775069297,-0.0782086755314,-0.000856759611126,-0.126633153188,-0.00634691204248,0.0493858966593,-0.0260814294736,0.57403937547,0.818813503542,0.00199718006167,0.0,0.818769992263,-0.573979617715,-0.0119935448827,0.0,-0.00867430286423,0.00852016215732,-0.999926078921,0.0,0.656200865631,0.253779321677,0.303343449093,1.0,-0.01488,-0.0195565714286,0.745
0.460930962186,0.516900041921,-0.124090315358,-1.40454472195,0.0766237171725,1.91200463368,0.152890252833,-0.0145861406599,-0.0815070928081,0.000164339877169,-0.124731265259,-0.0116921772038,0.0431491845361,-0.0156312464905,0.574019905069,0.818827139642,0.0020027159463,0.0,0.818783694801,-0.573960120669,-0.0119911596835,0.0,-0.00866937481078,0.00852311960183,-0.999926096455,0.0,0.655954972379,0.253474917331,0.303353624,1.0,-0.0152,-0.0199771428571,0.761
0.460758418088,0.515621065069,-0.124093591662,-1.40658816599,0.076486951773,1.9127931881,0.152602637089,-0.0132493588896,-0.0802725382511,-0.000483050284821,-0.130897362245,-0.0141285654693,0.0465292720248,-0.03162369044,0.573999132721,0.818841675508,0.00201320324193,0.0,0.8187985008,-0.573939438026,-0.0119701072688,0.0,-0.00864633242341,0.00851940301209,-0.99992632764,0.0,0.655713279793,0.253165519814,0.303346449184,1.0,-0.01552,-0.0203977142857,0.777
0.460577389871,0.514229745448,-0.12409679969,-1.40882387755,0.0763557180048,1.91358595493,0.15231499858,-0.0107988585008,-0.0820254009987,-0.00133483822179,-0.13172409664,-0.00422953727742,0.0405197216384,-0.0182206264406,0.573996248024,0.818843799758,0.00197123135995,0.0,0.818799950669,-0.57393660652,-0.012006639127,0.0,-0.00870036767671,0.00850597371691,-0.999925973267,0.0,0.655430764381,0.252830535073,0.30332652924,1.0,-0.01586,-0.0208445714286,0.794
0.460377714245,0.512815644999,-0.12409151009,-1.41110257009,0.076217722087,1.9143715003,0.151981440856,-0.0161869951589,-0.0850375523512,0.000668808319519,-0.135545393381,-0.00449030803156,0.046911099586,-0.017762983903,0.573964844508,0.818865964091,0.00190709815938,0.0,0.81882110474,-0.573905315129,-0.0120596269241,0.0,-0.00878089331705,0.00848353744842,-0.999925459974,0.0,0.65513945106,0.25248201098,0.303300776673,1.0,-0.0162,-0.0212914285714,0.811
0.460177362951,0.511384615514,-0.12409999599,-1.41338847226,0.0760706743309,1.91524640932,0.151664278703,-0.0180118776222,-0.0821119694645,-0.000708388801219,-0.135283485678,-0.0172074273036,0.0466041474995,-0.0209457386389,0.573955291809,0.818872639962,0.00191557516331,0.0,0.818827996624,-0.573895828615,-0.0120431201968,0.0,-0.00876260974068,0.00848090242383,-0.999925642718,0.0,0.654867620507,0.252128957506,0.303291161247,1.0,-0.01654,-0.0217382857143,0.828
0.459974864945,0.509911630876,-0.124098609924,-1.41572760617,0.0759259814708,1.91612434414,0.151338321342,-0.0157340919968,-0.0880869174552,0.00120175188467,-0.137407789042,-0.0126940508221,0.0495831275298,-0.0174354276907,0.573936205486,0.818885998869,0.00192348386672,0.0,0.818841437749,-0.573876690044,-0.012041235471,0.0,-0.00875672517562,0.00848609267409,-0.999925650234,0.0,0.654582052777,0.251775168454,0.303285055998,1.0,-0.01688,-0.0221851428571,0.845
0.459776924804,0.508406946106,-0.124104637284,-1.41809683412,0.0757792466501,1.91696315263,0.151001197186,-0.00540689244417,-0.0822596553846,0.00105581307942,-0.137710173652,-0.00921000868378,0.0445439577253,-0.0156052772571,0.573909770232,0.818904579945,0.00190038911875,0.0,0.818859657088,-0.573850300282,-0.0120599238085,0.0,-0.00878555712333,0.00847762330458,-0.999925469167,0.0,0.654281981793,0.2514140385,0.303283128566,1.0,-0.01722,-0.022632,0.862
0.459571467686,0.50694352322,-0.124109984423,-1.42037081725,0.0756330282671,1.91779104443,0.150692414374,-0.0163064727275,-0.0923575377767,0.00117090070499,-0.140039015428,-0.0114497043119,0.0400745975168,-0.0178669569012,0.573907088192,0.818906436092,0.00191048460137,0.0,0.818861673144,-0.573847601712,-0.0120514383324,0.0,-0.00877284231235,0.00848099178442,-0.999925552237,0.0,0.654002212386,0.251058548794,0.303296162639,1.0,-0.01754,-0.0230525714286,0.878
0.459362668561,0.505351198805,-0.124116187703,-1.4228344609,0.0754800465719,1.91873746557,0.150347119962,-0.00907882658078,-0.0931942897504,0.000594007315289,-0.141496906771,-0.00419688858907,0.0572498516133,-0.0238240489547,0.573885820225,0.818921198815,0.00197037482968,0.0,0.818877272823,-0.573826131918,-0.01201371227,0.0,-0.00870779873951,0.00850815809538,-0.999925889997,0.0,0.65370451987,0.250686516041,0.303318822313,1.0,-0.01788,-0.0234994285714,0.895
0.459134681913,0.503697814451,-0.124122034682,-1.42532101513,0.0753187481048,1.91968441289,0.15000170865,-0.0142161831533,-0.0976062448129,-0.000847480714001,-0.144458968467,-0.00725262206357,0.0510115031575,-0.0190842663522,0.573878159973,0.818926343762,0.00206104366721,0.0,0.818883711964,-0.57381820087,-0.0119534736478,0.0,-0.0086065158027,0.00854775712181,-0.999926429161,0.0,0.653407160917,0.25029904351,0.303372582841,1.0,-0.01822,-0.0239462857143,0.912
0.4589118236,0.502098231478,-0.1241279814,-1.42767682205,0.0751674967157,1.92054526349,0.149689017916,-0.0201110130925,-0.105958961621,-0.000687425895065,-0.14680781276,-0.0122251948195,0.0478482381213,-0.0207407406549,0.573888437793,0.818918919261,0.00214745090982,0.0,0.818877458784,-0.573828168953,-0.011903231183,0.0,-0.00851567734578,0.0085897912723,-0.999926846687,0.0,0.653119770841,0.249925593799,0.303442868134,1.0,-0.01854,-0.0243668571429,0.928
0.458664342172,0.500294028706,-0.124131260563,-1.43040824694,0.0749909668678,1.92152046287,0.149302250522,-0.0119619350001,-0.100742571199,-0.00168343694907,-0.150561127325,-0.00591698099824,0.0580153254058,-0.0222220602403,0.573868081386,0.818933083681,0.00218552532412,0.0,0.818892116276,-0.573807659221,-0.0118835609712,0.0,-0.00847793328732,0.00860947155141,-0.999926998159,0.0,0.652775935704,0.249499597978,0.303486425786,1.0,-0.0189,-0.02484,0.946
0.458399450141,0.498528374036,-0.124125971405,-1.4331821437,0.0748176315439,1.92255047675,0.148903475803,-0.0192932531112,-0.0907461246334,0.000638107816236,-0.155753427675,-0.0127070163645,0.0574920576566,-0.0260521142361,0.573848946792,0.818946444847,0.00220309791625,0.0,0.818905654863,-0.573788404611,-0.0118803227329,0.0,-0.00846539901231,0.00862180602612,-0.999926998076,0.0,0.652432723468,0.249066001004,0.303486768745,1.0,-0.01926,-0.0253131428571,0.964
0.458167918077,0.497042952334,-0.124126623456,-1.4355413326,0.0746736871618,1.92339820227,0.148541560759,-0.0168239111978,-0.0939882114455,0.00102437670623,-0.158769461115,-0.00990470190129,0.0548790732824,-0.0236726651602,0.573823238379,0.818964514717,0.0021821164336,0.0,0.818923351465,-0.573762681794,-0.0119027856913,0.0,-0.00849610570691,0.00861724704294,-0.99992677694,0.0,0.652136192761,0.248688723326,0.303472910094,1.0,-0.01956,-0.0257074285714,0.979
0.45791048484,0.495368799604,-0.124129167482,-1.43825086371,0.0745082331552,1.92432630159,0.14815325893,-0.00760308738995,-0.0940980031964,0.000604473517714,-0.159094859201,-0.0127017056657,0.0531404983858,-0.0210566860569,0.573809669705,0.818974254806,0.00209280153607,0.0,0.818931744284,-0.57374929585,-0.0119704058795,0.0,-0.00860287645929,0.00858276150111,-0.999926160635,0.0,0.651782761885,0.248256593005,0.303430356513,1.0,-0.0199,-0.0261542857143,0.996
0.457618347372,0.493629473814,-0.124135315521,-1.44104365817,0.0743322020838,1.92533936138,0.147765821048,-0.0144010085543,-0.105169200984,0.0022377502925,-0.169103985271,-0.0106024916866,0.0617351043898,-0.0250989423068,0.573828860445,0.818960906158,0.00205426517307,0.0,0.81891785789,-0.573768610379,-0.0119946101716,0.0,-0.00864461037699,0.00856529282976,-0.999925950493,0.0,0.651436513958,0.247794841365,0.303400360752,1.0,-0.0224554285714,-0.0295128489796,1.013
0.457364925707,0.491722773691,-0.124192478232,-1.44405609575,0.0741506868368,1.92646433583,0.147332688375,-0.0197334306211,-0.128827991406,-0.00022614004687,-0.197231892595,-0.00747507136459,0.0670443409031,-0.0337907780327,0.573824979526,0.818963613879,0.00205886290907,0.0,0.818920796053,-0.573764879704,-0.0119724480023,0.0,-0.00862386208969,0.00855630011756,-0.999926206643,0.0,0.65106438064,0.247311333297,0.303392820847,1.0,-0.025756,-0.0338507428571,1.029
0.457004812666,0.489446895618,-0.124205868604,-1.44773684658,0.0739348529084,1.92776033807,0.146806532827,-0.0253123081586,-0.141767136871,-0.00811238501371,-0.221923114989,-0.0125641089963,0.0757166903312,-0.025685902071,0.57382380136,0.81896465665,0.00197054598732,0.0,0.818920442319,-0.573763836309,-0.0120464184381,0.0,-0.00873513109309,0.00852640617224,-0.999925496166,0.0,0.650589878587,0.246716090106,0.303336629713,1.0,-0.0292628571429,-0.038459755102,1.046
0.456553714126,0.48663080707,-0.124224667472,-1.45211048898,0.0736700903888,1.92941786934,0.146172047675,-0.0242776065416,-0.168539711499,-0.000848300542793,-0.252636955228,-0.010392293788,0.101749257879,-0.0324246943029,0.5738328437,0.818958118162,0.0020530682549,0.0,0.818914983001,-0.573772527567,-0.012003504742,0.0,-0.00865254008117,0.00856945860415,-0.999925846215,0.0,0.650056285144,0.246000237343,0.303355959219,1.0,-0.032976,-0.0433398857143,1.064
0.456138140549,0.484030732318,-0.124253927503,-1.45607824762,0.073423403116,1.93086549617,0.145556667277,-0.0300687954796,-0.174309242765,-0.0023003003159,-0.274442757393,-0.0141916145894,0.0946036426493,-0.0467226325319,0.573818949185,0.818967690972,0.00211697922811,0.0,0.81892542069,-0.573758398873,-0.0119667026254,0.0,-0.00858587350996,0.00860053441762,-0.999926154065,0.0,0.649563865164,0.245335774417,0.303398729885,1.0,-0.0360702857143,-0.0474066612245,1.079
0.455581432501,0.480607847092,-0.124315059927,-1.46141768423,0.0730984717106,1.93271836973,0.144767073555,-0.0341259472403,-0.190624728059,-0.00404906158197,-0.305175394384,-0.0178535598098,0.11468870048,-0.0416404283415,0.573845329757,0.818949354274,0.00205901729656,0.0,0.818906230693,-0.573784921518,-0.0120081668583,0.0,-0.0086528140102,0.00857713770033,-0.999925778005,0.0,0.648879539743,0.244424912392,0.303393705602,1.0,-0.0397834285714,-0.0522867918367,1.097
0.455005295737,0.477059678825,-0.124357013787,-1.46685079706,0.0727548284094,1.93469713492,0.143962721799,-0.0337397467924,-0.212120391453,0.00020380296471,-0.321217326715,-0.0241143560175,0.116057425786,-0.0460629136877,0.573859305987,0.818939379621,0.00212986826603,0.0,0.81889725846,-0.573798678329,-0.0119625973953,0.0,-0.00857469158287,0.00860915687595,-0.999926175816,0.0,0.648196977499,0.243509268914,0.303438225062,1.0,-0.0432902857143,-0.0568958040816,1.114
0.454398012553,0.473476754473,-0.124398520286,-1.4723521564,0.0724335729292,1.93671989446,0.143180343546,-0.0430459008905,-0.235217902667,-0.000917669458829,-0.353259259786,-0.0201905077217,0.122259798802,-0.0456271416246,0.57392455641,0.818893403732,0.00222346032398,0.0,0.818852363927,-0.573863397897,-0.0119312005083,0.0,-0.00849458244531,0.00866846159632,-0.999926347209,0.0,0.647508279004,0.242573224838,0.303475221878,1.0,-0.0465908571429,-0.0612336979592,1.13
0.453715606257,0.469381651969,-0.124420913986,-1.47859115092,0.0720478401118,1.93895526975,0.142215381598,-0.0447950062298,-0.253889226238,-0.000239365860409,-0.38241335147,-0.0270407967228,0.13866469838,-0.0615040833333,0.573902386448,0.818908714285,0.00230551494451,0.0,0.818868565114,-0.573840718318,-0.0119100784904,0.0,-0.00843043102363,0.00872330413349,-0.999926413191,0.0,0.646703895291,0.241524453609,0.303529492747,1.0,-0.0500977142857,-0.0658427102041,1.147
0.452985336324,0.465014129863,-0.124424961502,-1.48521947309,0.0716116568911,1.941373338,0.141166169177,-0.0432042503697,-0.262092325041,0.000961602798413,-0.408577074778,-0.0241603625044,0.140267517909,-0.058492854704,0.573838246734,0.818953293125,0.00243252271463,0.0,0.818914814496,-0.57377610855,-0.011842751234,0.0,-0.00830309656595,0.0087880216889,-0.99992691196,0.0,0.645849119572,0.240418467604,0.30359751551,1.0,-0.0536045714286,-0.070451722449,1.164
0.452190465866,0.460397415919,-0.124438717019,-1.49239327393,0.0711381962997,1.9438428502,0.140086537911,-0.0480992896368,-0.275781504544,-0.000971489809001,-0.429904397483,-0.0353050782746,0.151121832965,-0.0643191948766,0.573817503284,0.818968079489,0.0023461893125,0.0,0.818928301805,-0.573755520192,-0.0119074116725,0.0,-0.00840581283761,0.00875421061158,-0.999926350341,0.0,0.64494168336,0.239274532439,0.303574351493,1.0,-0.0569051428571,-0.0747896163265,1.18
0.451401521907,0.455857279122,-0.124458295461,-1.49947167065,0.0706546655598,1.94634847989,0.139008801223,-0.0511290622387,-0.279438889151,-0.00140856663067,-0.45045042728,-0.0310361073792,0.16434367333,-0.0702558465982,0.573792203785,0.818985917387,0.00230670725632,0.0,0.818945625284,-0.573730380982,-0.011927265724,0.0,-0.00844499722025,0.00873300803874,-0.999926205573,0.0,0.643943239688,0.238000902184,0.303549705679,1.0,-0.060412,-0.0793986285714,1.197
0.450427161178,0.450365829786,-0.124503864692,-1.50768863022,0.070088406364,1.94940739838,0.137669842148,-0.0508348889927,-0.307110429052,-0.00615771825214,-0.465163211882,-0.0299455880411,0.172006840197,-0.0715261018415,0.573746621798,0.819017097081,0.0025603840582,0.0,0.818980584973,-0.573684343434,-0.0117397800852,0.0,-0.0081463852015,0.00883273405575,-0.999927807003,0.0,0.642892944644,0.23656756616,0.303675127868,1.0,-0.0641251428571,-0.0842787591837,1.215
0.449449256467,0.444935062384,-0.124544516845,-1.51596978583,0.0695410678736,1.95226843515,0.136455685663,-0.06307392406,-0.324718529005,0.000705788050623,-0.498397598858,-0.03525406439,0.160940184326,-0.0732896220444,0.573805055855,0.818976153271,0.00256225477769,0.0,0.818939522395,-0.573742608117,-0.0117569210025,0.0,-0.00815872027881,0.00884468270399,-0.999927600815,0.0,0.641771597749,0.235119096021,0.303704361927,1.0,-0.067632,-0.0888877714286,1.232
0.448405947119,0.439319256391,-0.124569361391,-1.52475749961,0.0689344526299,1.95519159541,0.135055919409,-0.0671249177906,-0.337053820819,0.00020597778825,-0.525938078992,-0.0329715798513,0.174378895369,-0.0827198171824,0.573752858492,0.81901339263,0.00233815436039,0.0,0.818973555754,-0.573690962755,-0.0119055084199,0.0,-0.00840955472589,0.00874587446335,-0.999926391826,0.0,0.640540267589,0.233578791631,0.303617445872,1.0,-0.0711388571429,-0.0934967836735,1.249
0.447292225225,0.433348055102,-0.124589033319,-1.53367509847,0.0683485390421,1.9584330882,0.133594073771,-0.0645034088076,-0.358520552437,-9.78174463253e-06,-0.522666602948,-0.0379912440953,0.203311571803,-0.0886525684783,0.573715599244,0.819038852003,0.00255284067546,0.0,0.819001725521,-0.57365279384,-0.011806464941,0.0,-0.00820566729032,0.00886450469596,-0.999927041129,0.0,0.639417451913,0.2321067753,0.303712695226,1.0,-0.0744394285714,-0.097834677551,1.265
0.446147536159,0.427652861247,-0.124633567258,-1.54246671754,0.0677091507506,1.96149898235,0.132193471818,-0.071062563275,-0.357757534203,-0.00817090233147,-0.557073237831,-0.0438249604856,0.19074000067,-0.0856224315782,0.573734815334,0.819025484926,0.00252262095467,0.0,0.818988290027,-0.573672469841,-0.0117824041513,0.0,-0.00820308901494,0.00882614242257,-0.999927401635,0.0,0.638149249823,0.230405568115,0.303691990492,1.0,-0.0779462857143,-0.102443689796,1.282
0.445017587233,0.422033382823,-0.124727104775,-1.55109879808,0.0670819811699,1.96433741127,0.130756936629,-0.0785752923134,-0.367642399245,-0.00697612584737,-0.58903777785,-0.0395096119615,0.191949234556,-0.105742435865,0.573742705708,0.819020576565,0.00231294446642,0.0,0.818980797534,-0.573681311604,-0.0118723581326,0.0,-0.00839697425557,0.00870610360137,-0.999926844616,0.0,0.63685185521,0.22867574799,0.303637951277,1.0,-0.0812468571429,-0.106781583673,1.298
0.443505853938,0.414616045674,-0.124796348538,-1.5621832031,0.0663102544647,1.96830446885,0.128987674092,-0.0804998956511,-0.395341353676,-0.000376340459383,-0.580681206789,-0.0388070994483,0.224408267418,-0.09710210123,0.573830792302,0.818958107941,0.00256634869756,0.0,0.818921914905,-0.573768743974,-0.0117078020345,0.0,-0.00811586498911,0.00882010632168,-0.99992816665,0.0,0.635428380218,0.226733954249,0.303752154005,1.0,-0.08496,-0.111661714286,1.316
0.442154533846,0.408205904343,-0.124814187308,-1.57191703949,0.0656476854157,1.97160363599,0.127319927375,-0.0833994755114,-0.409497359149,-0.00399307603855,-0.624995056023,-0.0429252967396,0.202071656348,-0.108327070216,0.573798010181,0.818981130718,0.00254910601623,0.0,0.818944290694,-0.57373557017,-0.0117682268202,0.0,-0.00817560031978,0.00884033115495,-0.999927501424,0.0,0.634042111752,0.224934858072,0.303742237206,1.0,-0.0882605714286,-0.115999608163,1.332
0.440633372566,0.401214072018,-0.124912015485,-1.58261006883,0.0648957748189,1.97517427727,0.125527510352,-0.0960487495204,-0.423083693856,-0.0075794197811,-0.626877885322,-0.0422228100333,0.218880899639,-0.112249405202,0.573866914683,0.818933249745,0.00241735315095,0.0,0.818894564317,-0.573804821197,-0.0118518607547,0.0,-0.00831895411644,0.00878111718359,-0.999926840816,0.0,0.632513011141,0.222886439043,0.30368383203,1.0,-0.0917674285714,-0.120608620408,1.349
0.43893847333,0.393435138274,-0.124957832802,-1.59409757352,0.0640183135035,1.97924619136,0.123574320443,-0.0904116028612,-0.438875444176,-0.000751030318212,-0.657950576051,-0.0489947376327,0.22318791995,-0.1091628442,0.57389154861,0.818915202785,0.002669828337,0.0,0.818880489838,-0.57382927891,-0.0116382528511,0.0,-0.00799887052722,0.00886553597724,-0.99992870763,0.0,0.630905846019,0.220696105578,0.303804503171,1.0,-0.0954805714286,-0.12548875102,1.367
0.437468586497,0.386867491562,-0.124992997139,-1.60416506037,0.06327920142,1.98244399936,0.12183352947,-0.093278348528,-0.444143390813,-0.0031732791111,-0.67745852914,-0.0499916123298,0.209951587808,-0.11688975279,0.573872211278,0.818929583123,0.00240206380102,0.0,0.818890944458,-0.573810434955,-0.0118301615628,0.0,-0.00830989999375,0.00875619785442,-0.999927134626,0.0,0.629390110541,0.218773729291,0.303700064067,1.0,-0.0985748571428,-0.129555526531,1.382
0.435729031305,0.379075893108,-0.125035960821,-1.61560017378,0.0624409359321,1.98631518172,0.119794733081,-0.101327547038,-0.462989993698,0.00176201835632,-0.677518750913,-0.0477868752977,0.229237569852,-0.11611389475,0.573850870823,0.818944005077,0.00257711192424,0.0,0.818907649429,-0.57378845234,-0.0117397005062,0.0,-0.0081355969239,0.00884742436723,-0.999927764963,0.0,0.627718812768,0.216569846562,0.303808559527,1.0,-0.102081714286,-0.134164538775,1.399
0.43374165418,0.37074813723,-0.12507605669,-1.62812676063,0.0614914226608,1.99045875096,0.117566536779,-0.113124882715,-0.461106889499,-0.00348242199139,-0.722754528181,-0.0597697121024,0.224562996306,-0.120556956993,0.573870720577,0.818930336717,0.00249931416055,0.0,0.81889289165,-0.573808501265,-0.0117890959467,0.0,-0.00822047887027,0.00881225724922,-0.999927381288,0.0,0.625852789862,0.214103918732,0.303764676851,1.0,-0.105794857143,-0.139044669388,1.417
0.432044084127,0.363551802487,-0.125191315768,-1.63870865028,0.0606690396052,1.99392550011,0.115695168402,-0.108577082534,-0.485379390423,-0.00592443814531,-0.708740009486,-0.0629916776439,0.242283333959,-0.127840875629,0.573956578766,0.818870090946,0.00252324129901,0.0,0.818833303606,-0.573894633179,-0.0117353234081,0.0,-0.00816178784643,0.00880184954555,-0.999927953737,0.0,0.624272645361,0.211965190328,0.303819004035,1.0,-0.108889142857,-0.143111444898,1.432
0.429895541671,0.354758342093,-0.125212777779,-1.65175603155,0.0596920009938,1.99818231281,0.113227082997,-0.124640961588,-0.494881624657,0.000611363943333,-0.725493980593,-0.0486067067035,0.238183275898,-0.142592491481,0.573884205334,0.818920830776,0.00251767556959,0.0,0.818883550922,-0.573821836973,-0.0117888228022,0.0,-0.0082095734025,0.00882727226849,-0.999927338445,0.0,0.622275574446,0.209378307718,0.303811522543,1.0,-0.112602285714,-0.14799157551,1.45
0.427745220294,0.346220352256,-0.125278074542,-1.6643232088,0.058744104092,2.00224252369,0.110873243674,-0.125511007984,-0.525079021691,-0.011463563821,-0.728062361227,-0.050313821343,0.251210921642,-0.133827819118,0.57391831092,0.818896887017,0.00253134856779,0.0,0.818859490382,-0.573855570122,-0.0118180604229,0.0,-0.00822530277793,0.00885559057202,-0.999926958787,0.0,0.620341854867,0.20681800915,0.303827713831,1.0,-0.116109142857,-0.152600587755,1.467
0.425690369646,0.338033845289,-0.125305015428,-1.67626859106,0.0577808200903,2.00617923058,0.108637718784,-0.129459456622,-0.509029570392,0.00162883300147,-0.743009454157,-0.0619489399623,0.241634453642,-0.144577724678,0.573900778298,0.818908831773,0.00263985114469,0.0,0.818873095631,-0.573837913139,-0.0117324165424,0.0,-0.00809308866975,0.0088951173224,-0.999927686787,0.0,0.618491947028,0.204404701729,0.303877600866,1.0,-0.119409714286,-0.156938481633,1.483
0.423405643887,0.329119761521,-0.125312628588,-1.68932768078,0.0566962491557,2.01024370972,0.1060986191,-0.134935994742,-0.532753003138,-0.000149496607429,-0.75313579387,-0.0712160021846,0.252616080736,-0.14670940014,0.573791803396,0.818985533747,0.00253155488873,0.0,0.818948311721,-0.573729263157,-0.0117958563516,0.0,-0.00820836662569,0.00884174852182,-0.999927220452,0.0,0.616394546643,0.201748474747,0.303868089102,1.0,-0.122916571429,-0.161547493878,1.5
0.420995643075,0.320045864787,-0.125321881913,-1.7025289478,0.0556369133218,2.01451501316,0.10351427799,-0.147477154502,-0.532830716692,0.000879891034684,-0.777804215653,-0.0640578348733,0.253368471214,-0.150617188427,0.573749794806,0.819014663954,0.00262680217683,0.0,0.818978600998,-0.573686823575,-0.0117569751687,0.0,-0.00812232964994,0.00889702815783,-0.999927432693,0.0,0.614295546261,0.199029130569,0.303892197351,1.0,-0.126423428571,-0.166156506122,1.517
0.418617376707,0.311306042471,-0.125363948585,-1.71520214971,0.0546282142355,2.01844633037,0.100938119844,-0.156243922067,-0.55166219574,-0.00310433833288,-0.779081744897,-0.0688278005209,0.246875988319,-0.167403152604,0.573698232101,0.819050819068,0.0026155628713,0.0,0.819014194179,-0.573634854246,-0.0118131548654,0.0,-0.00817535354273,0.00891954090798,-0.999926800013,0.0,0.612234967313,0.196364099716,0.303899755062,1.0,-0.129724,-0.1704944,1.533
0.415825362468,0.301309606645,-0.125444224536,-1.72960724443,0.0533890196777,2.02298234519,0.0979820742492,-0.158779126952,-0.54788074574,-0.00551262246131,-0.819824182715,-0.0622545977919,0.253167589069,-0.16923226336,0.573665233972,0.81907380231,0.00265567385268,0.0,0.819038161381,-0.573602220763,-0.0117358186189,0.0,-0.00808935690506,0.00890770086423,-0.999927604965,0.0,0.609898428968,0.19326867869,0.30393008349,1.0,-0.133437142857,-0.175374530612,1.551
0.413013874598,0.291642640849,-0.125546215876,-1.74346513489,0.0522975080752,2.02716825821,0.0951742389727,-0.16591803854,-0.575881868521,-0.00567470457951,-0.82073165722,-0.0729419704501,0.263085943761,-0.172888493934,0.573803829872,0.818976709301,0.00265731975073,0.0,0.818940415378,-0.57374005107,-0.0118193383735,0.0,-0.00815530909271,0.00895834064153,-0.999926616841,0.0,0.607602929555,0.190222223619,0.303951441903,1.0,-0.136944,-0.179983542857,1.568
0.410468372961,0.283056401121,-0.125631218377,-1.75579468376,0.0512350365003,2.03097306571,0.0925371399813,-0.169582781023,-0.574098251588,-0.00741381462771,-0.826597879759,-0.0744435634413,0.240189551342,-0.178410547865,0.573796841212,0.818981584109,0.00266398330192,0.0,0.81894552423,-0.573733200762,-0.011797863735,0.0,-0.00813397406841,0.00895140648824,-0.999926852719,0.0,0.605411093954,0.187313230635,0.303951540263,1.0,-0.140244571429,-0.184321436735,1.584
0.407262284995,0.272445237423,-0.125699440919,-1.77087176411,0.0499303063205,2.0354932871,0.089288763061,-0.180472242211,-0.603032403574,-0.00482926757611,-0.839640502732,-0.0664913898153,0.268512385667,-0.18045131779,0.573800130139,0.818979255559,0.00267142601109,0.0,0.818943235862,-0.573736399581,-0.011801149624,0.0,-0.00813235896555,0.00895941994852,-0.999926794086,0.0,0.603000450465,0.184136364119,0.303972904685,1.0,-0.143751428571,-0.18893044898,1.601
0.404272570035,0.262914989194,-0.125850150476,-1.78437629406,0.0487367071487,2.03957207861,0.086327723781,-0.192191464431,-0.603159755047,-0.00883097251812,-0.841395643084,-0.0739377269912,0.25760184376,-0.18569250916,0.573908757085,0.818903121439,0.00267640413298,0.0,0.818867452644,-0.573845309974,-0.0117644431245,0.0,-0.00809825315382,0.00894350935628,-0.999927213319,0.0,0.600566391673,0.180822116095,0.303974628517,1.0,-0.147258285714,-0.193539461224,1.618
0.400972271166,0.252581421313,-0.125978032858,-1.79885395824,0.047429172661,2.04381303673,0.0831252215916,-0.193272469804,-0.627113994597,-0.00227247544241,-0.841585681494,-0.0773398360896,0.256695091816,-0.189281797897,0.574008015038,0.818833377913,0.00272851402647,0.0,0.818798672194,-0.573944686893,-0.0117037473608,0.0,-0.00801755721986,0.00895232081291,-0.999927784757,0.0,0.59822118802,0.177659283034,0.304042587083,1.0,-0.150558857143,-0.197877355102,1.634
0.397588219632,0.242200202436,-0.125994747982,-1.81365804832,0.0461014122469,2.04808490294,0.0797341490803,-0.199500784219,-0.617091230051,-0.000971313321156,-0.880054872313,-0.0768235585283,0.245655879526,-0.201767702666,0.573923894638,0.818892833929,0.00257616082215,0.0,0.81885565246,-0.573860587256,-0.011840343306,0.0,-0.00821777333991,0.00890513124628,-0.999926580724,0.0,0.595587570796,0.174301041205,0.303943761219,1.0,-0.154065714286,-0.202486367347,1.651
0.393888495346,0.230873667679,-0.126014864223,-1.82914850122,0.0447389721427,2.05267728906,0.076097582476,-0.205485297865,-0.619859280933,-0.00122876946186,-0.863283882726,-0.0792423471355,0.254911027983,-0.199026972032,0.573884583747,0.818919216105,0.00292385579691,0.0,0.818886448426,-0.573819916771,-0.0116805223721,0.0,-0.00788778939901,0.00909775276864,-0.999927504209,0.0,0.592850475578,0.170733069663,0.304104307606,1.0,-0.157778857143,-0.207366497959,1.669
0.39068057345,0.221414847238,-0.126017484799,-1.84245646811,0.0434497155648,2.0563043782,0.0728960037326,-0.214833601563,-0.638204297553,-0.00122508244436,-0.874087608911,-0.0799008619732,0.238374903084,-0.211913181327,0.573736800589,0.819023559679,0.00269058371654,0.0,0.818987536765,-0.57367272926,-0.0118220653452,0.0,-0.0081391922425,0.0089864814956,-0.999926495649,0.0,0.590235999426,0.167435275938,0.304020128025,1.0,-0.161079428571,-0.211704391837,1.685
0.386851370101,0.210388565529,-0.126125324547,-1.85739948218,0.0420957329725,2.06059787896,0.0692237219693,-0.229643182279,-0.63217570779,-0.00636783482864,-0.894518676324,-0.0821498860326,0.24646460983,-0.224053852916,0.573792215828,0.818983717963,0.00298490668128,0.0,0.818951559282,-0.573727141163,-0.0116729577751,0.0,-0.00784759147184,0.00914252230987,-0.999927412162,0.0,0.58770554689,0.16403881466,0.304162867063,1.0,-0.16438,-0.216042285714,1.701
0.38265714357,0.198683248575,-0.126236679001,-1.8735369147,0.0405261222729,2.0649067289,0.0651525783107,-0.237592139962,-0.656427409451,-0.0109685389752,-0.889903583184,-0.0846708932701,0.249492054465,-0.227116460883,0.573745351457,0.819017091497,0.00283238746461,0.0,0.818982753646,-0.573680585707,-0.0117720734902,0.0,-0.00801679803942,0.00907402363027,-0.999926693835,0.0,0.584689233875,0.160111664084,0.304128203705,1.0,-0.168093142857,-0.220922416327,1.719
0.378726212351,0.188094618264,-0.126354062211,-1.88797264425,0.03916911776,2.06885109517,0.0614429619381,-0.249609065667,-0.665486745854,-0.0122756250164,-0.911765563938,-0.0813576341472,0.245801995847,-0.23531395695,0.573807462076,0.818973359389,0.00289481902062,0.0,0.818939580232,-0.573742177946,-0.0117738726131,0.0,-0.00798176191098,0.00912679355558,-0.999926493857,0.0,0.581997246472,0.156526503269,0.30414324864,1.0,-0.171393714286,-0.225260310204,1.735
0.374345693559,0.176649920756,-0.12652508291,-1.90337403315,0.0377052729832,2.07295732559,0.0573999737646,-0.259276930039,-0.680078570853,-0.00746694601362,-0.909042634389,-0.0918695301869,0.243248509244,-0.236373683783,0.573965534033,0.818862196956,0.00300250553056,0.0,0.818829587372,-0.573899584399,-0.0117524794216,0.0,-0.00790067655518,0.00920423570214,-0.999926427971,0.0,0.579097001873,0.15259450237,0.304203957945,1.0,-0.174900571429,-0.229869322449,1.752
0.369653693666,0.16452448347,-0.126576685123,-1.91997177074,0.0359797088199,2.07716436882,0.0529614906963,-0.267379319836,-0.66893092823,0.00088297484611,-0.920134994613,-0.0951310254208,0.227755967628,-0.249271417392,0.573854264106,0.818941168779,0.00271892396164,0.0,0.818904593901,-0.57378905332,-0.0119220501626,0.0,-0.00820352683173,0.00906823323696,-0.999925231852,0.0,0.575846011785,0.148457249903,0.304083855197,1.0,-0.178613714286,-0.234749453061,1.77
0.365587859323,0.15413333087,-0.12661742752,-1.93359916409,0.034584767186,2.08083408898,0.0491430897691,-0.275407999547,-0.694697435626,-0.00673038240961,-0.922231048505,-0.105040820915,0.241492517395,-0.247605312696,0.573783090045,0.818989951375,0.00302853518602,0.0,0.818958019495,-0.573717472032,-0.0116949344762,0.0,-0.00784066122418,0.00919077577048,-0.999927024173,0.0,0.57322108009,0.144988000373,0.304228685356,1.0,-0.181708,-0.238816228571,1.785
0.360499770009,0.141702469006,-0.126719456725,-1.95029283144,0.0328702399636,2.08489573864,0.0444363318382,-0.288752427078,-0.702393380406,-0.0107715068294,-0.905029274192,-0.081051184635,0.23115760604,-0.268323331874,0.573774141638,0.818996901164,0.0028385161115,0.0,0.818961815732,-0.573708414652,-0.0118720777862,0.0,-0.00809487019031,0.00913670345974,-0.999925494088,0.0,0.569878231858,0.140664596186,0.304152562448,1.0,-0.185421142857,-0.243696359184,1.803
0.355802119753,0.130417375666,-0.126848999912,-1.96504471818,0.0313576827634,2.08862560464,0.0400690626691,-0.297692957999,-0.701653136136,-0.00736011293804,-0.909917355884,-0.093882242302,0.2319793977,-0.280634751189,0.573771969534,0.818997735606,0.00303033824906,0.0,0.818965238252,-0.573705657464,-0.0117687734815,0.0,-0.00790022873856,0.00923451181857,-0.999926152362,0.0,0.566945594485,0.136756521904,0.304234666415,1.0,-0.188721714286,-0.248034253061,1.819
0.350550217561,0.118278011073,-0.127054224233,-1.98089580752,0.0296003833647,2.09244101604,0.0353942791292,-0.314351107503,-0.720541070133,-0.0143605406193,-0.932385806729,-0.108017337242,0.230627616827,-0.281807812516,0.573926747063,0.818889276335,0.00303133802545,0.0,0.818857361443,-0.573861077678,-0.0116975227524,0.0,-0.0078395599714,0.00919593168935,-0.999926985404,0.0,0.563742787826,0.13242193992,0.304272771281,1.0,-0.192228571429,-0.252643265306,1.836
0.344813873617,0.105333871291,-0.127175690249,-1.9978311139,0.0277745474823,2.09637161146,0.0301511165134,-0.317879229669,-0.717119023923,-0.00287796566565,-0.937783745572,-0.103091349716,0.223190735212,-0.297113461695,0.573905341076,0.818904561581,0.00295387998774,0.0,0.818871221838,-0.573839456823,-0.011787567193,0.0,-0.00795799287266,0.00918397190501,-0.999926159779,0.0,0.560230926648,0.127828612209,0.304237741304,1.0,-0.195941714286,-0.257523395918,1.854
0.339607385782,0.0936606552645,-0.127245231385,-2.01279429749,0.0261316721092,2.09986383284,0.0253619286157,-0.332513145044,-0.725946777146,-0.00129118584577,-0.945733743685,-0.099202827498,0.225373359498,-0.303921117227,0.573804556596,0.818974695136,0.00308649586651,0.0,0.818943192323,-0.573738357979,-0.0117085965589,0.0,-0.00781835375448,0.00924628885457,-0.999926687056,0.0,0.557099822128,0.123759662682,0.304301163561,1.0,-0.199242285714,-0.261861289796,1.87
0.334177100225,0.0819214381964,-0.127357807995,-2.02795323084,0.0245305360024,2.10309431179,0.0204150914611,-0.344273149411,-0.748292181248,-0.0078321258455,-0.928120325032,-0.108367369575,0.203555151101,-0.316615983045,0.57378934916,0.818985777205,0.00297093035914,0.0,0.818951415476,-0.573721985165,-0.0119335547967,0.0,-0.00806907894135,0.00928057294266,-0.999924377606,0.0,0.553834264635,0.11956887784,0.304249146203,1.0,-0.202542857143,-0.266199183673,1.886
0.328176402646,0.0692539760656,-0.127514948254,-2.04393326828,0.0227036087922,2.10669582715,0.0150225998032,-0.355184018937,-0.730550138479,-0.00927270140796,-0.955692309461,-0.100142159705,0.203006118879,-0.320096306754,0.57380306857,0.818975480756,0.00315393737645,0.0,0.818944033259,-0.573735663577,-0.0117815801263,0.0,-0.00783944982817,0.00934338491391,-0.999925619326,0.0,0.550425569809,0.115021986692,0.304330171782,1.0,-0.206049714286,-0.270808195918,1.903
0.32183195168,0.0563980359937,-0.127724881987,-2.06003451095,0.0207784944612,2.11002242335,0.00942142001702,-0.377116046912,-0.775069489895,-0.0037974979415,-0.93590229388,-0.112087172857,0.196771428343,-0.333735789587,0.573902589891,0.818905743946,0.00315384692305,0.0,0.818874653887,-0.573835599541,-0.0117368148076,0.0,-0.00780170562861,0.00931857313408,-0.999926146065,0.0,0.546913034426,0.110284492638,0.304388085637,1.0,-0.209556571429,-0.275417208163,1.92
0.31583406492,0.0444096905535,-0.127793675139,-2.07526132013,0.0190831806036,2.11313779084,0.00407459357584,-0.36723202557,-0.752610468703,-0.00301477997438,-0.966711983935,-0.105468427918,0.194313007384,-0.331986416699,0.573878101278,0.818923172608,0.00308368943776,0.0,0.818890081783,-0.573810075659,-0.0119070538402,0.0,-0.00798166390939,0.00935858032717,-0.999924352146,0.0,0.543507268127,0.105946357448,0.304300905245,1.0,-0.20998,-0.275973714286,1.936
0.308870489045,0.0308345516566,-0.127880744124,-2.0919477766,0.017042518488,2.11648440404,-0.00211861361767,-0.388996531913,-0.744450317361,-0.0136545461113,-0.91471223119,-0.114935447405,0.182523990546,-0.345398241274,0.573800956048,0.818976738463,0.00321116744657,0.0,0.818945904782,-0.573733197158,-0.0117715938024,0.0,-0.00779845827756,0.00938450488877,-0.999925554787,0.0,0.539758217804,0.101015251275,0.304388135722,1.0,-0.20998,-0.275973714286,1.954
0.302125210693,0.0181882683036,-0.128024237899,-2.10757487019,0.0151695264405,2.11938754997,-0.00807126058371,-0.404821922438,-0.750624991666,-0.0126816694019,-0.904861870891,-0.10170725782,0.17157369622,-0.346581996626,0.57382746614,0.818958419859,0.00314524196538,0.0,0.818926146832,-0.573759241889,-0.0118762486816,0.0,-0.00792169472571,0.00939081937415,-0.999924526784,0.0,0.536164995207,0.0963038660902,0.304362851079,1.0,-0.20998,-0.275973714286,1.971
0.295564049204,0.00631451433818,-0.128201891327,-2.12195423711,0.013374685657,2.12201627367,-0.0137558932532,-0.41664317605,-0.730668065604,-0.014629388765,-0.894891750392,-0.106092535884,0.148492339932,-0.362698561554,0.573956072436,0.818868045952,0.00320891455732,0.0,0.818836824497,-0.573887869107,-0.0118201286611,0.0,-0.00783771942254,0.00941199323823,-0.999924989455,0.0,0.532843037667,0.0918038147117,0.304419926464,1.0,-0.20998,-0.275973714286,1.987
0.288607745783,-0.00624734844554,-0.128274109669,-2.13706020887,0.0115699794658,2.12472975823,-0.0199530269921,-0.407982174113,-0.740757314109,-0.00352532800995,-0.883859490671,-0.110067528109,0.166550969612,-0.361580123966,0.573876990807,0.818922822947,0.00336992292315,0.0,0.818893327743,-0.57380779088,-0.0117933796528,0.0,-0.00772432844664,0.00952774006188,-0.99992477563,0.0,0.529283744804,0.0871757762777,0.304475988609,1.0,-0.20998,-0.275973714286,2.004
0.281477095007,-0.0186156009731,-0.128338141604,-2.15205859322,0.00960189892445,2.12723546138,-0.0261894321466,-0.430677080426,-0.726779775253,-0.00634863483101,-0.904404418,-0.117939911277,0.138997468692,-0.379341760565,0.573806653411,0.818972720011,0.00321796231189,0.0,0.818941201808,-0.573737941151,-0.0118671717886,0.0,-0.00787277446232,0.00944496589739,-0.999924403163,0.0,0.52567433082,0.082501423934,0.304412006402,1.0,-0.20998,-0.275973714286,2.021
0.274606312544,-0.0303528654006,-0.128491577181,-2.16577568624,0.00784717100535,2.12946018533,-0.0321698246611,-0.436086996442,-0.742703998642,-0.00758885019038,-0.877322833489,-0.112437990057,0.14527905434,-0.373100813033,0.573877079435,0.818922628973,0.0034018165345,0.0,0.818893793622,-0.573808074714,-0.0117471298846,0.0,-0.00766814832739,0.00952731846745,-0.999925212055,0.0,0.522356365162,0.0780600905854,0.304529323351,1.0,-0.20998,-0.275973714286,2.037
0.266663964494,-0.0432695668045,-0.128665772945,-2.18124289543,0.00592239919641,2.13176006427,-0.0390635629712,-0.439823364822,-0.718421810856,-0.00381239673588,-0.846039032573,-0.0927016614717,0.115063142009,-0.393569532609,0.573994265501,0.818841060829,0.00326300066868,0.0,0.818808925978,-0.573923915979,-0.0120011794361,0.0,-0.00795449752781,0.00956056631911,-0.999922657779,0.0,0.518517513749,0.0730205727458,0.304426792944,1.0,-0.20998,-0.275973714286,2.055
0.259161200175,-0.0555239313261,-0.12872292165,-2.19529623945,0.00402782500365,2.13395576988,-0.0456295837282,-0.449480572925,-0.702326576365,-0.00471574915873,-0.846341588404,-0.120682658615,0.131445018198,-0.398317318944,0.57391805858,0.818893391321,0.00352456921235,0.0,0.818865807805,-0.573848207571,-0.011737562642,0.0,-0.00758939087211,0.00962273364666,-0.999924899252,0.0,0.515027187379,0.0684018678057,0.304565133185,1.0,-0.20998,-0.275973714286,2.072
0.251963019644,-0.0668138809551,-0.12880066987,-2.20866379973,0.0022601389281,2.13568201467,-0.0519813810357,-0.451350892795,-0.693076511388,-0.00693032042697,-0.824422575766,-0.111150615194,0.0968842479229,-0.398547279893,0.573823506557,0.818960677919,0.0032769264459,0.0,0.818928566054,-0.573752937985,-0.0120131908908,0.0,-0.00795833800267,0.00957720438816,-0.999922468001,0.0,0.511577903109,0.0640196184307,0.30443424897,1.0,-0.20998,-0.275973714286,2.088
0.244529890998,-0.0782053205959,-0.128995332668,-2.22155615552,0.000526789211818,2.13743880131,-0.0584426855076,-0.473982964169,-0.699832968369,-0.0114551243012,-0.8216683517,-0.111975178931,0.109584722967,-0.414372158923,0.57392184932,0.81889096048,0.00347168828992,0.0,0.818861772217,-0.573851025399,-0.0118804693283,0.0,-0.0077367260101,0.00966147976677,-0.999923396506,0.0,0.508067269965,0.0592602899911,0.304529891198,1.0,-0.20998,-0.275973714286,2.105
0.236132953041,-0.0907840903605,-0.129070960272,-2.23607514009,-0.00138164782445,2.13912988502,-0.0658055538542,-0.465817964915,-0.691074664123,-0.000114712605479,-0.816357715241,-0.107675111796,0.0874543460266,-0.416013058626,0.573872398424,0.818926105605,0.00335421923314,0.0,0.818893902018,-0.57380019514,-0.0121185888715,0.0,-0.00799973115908,0.00970146012043,-0.999920939861,0.0,0.504429222111,0.0546352835634,0.304445107214,1.0,-0.20998,-0.275973714286,2.122
0.228498228231,-0.101996465487,-0.129157210457,-2.24855884,-0.00320659202723,2.14062766456,-0.0724756310562,-0.478909112362,-0.692711001368,-0.00732950998081,-0.78309480048,-0.114303688252,0.0791755391642,-0.417043668205,0.573804655587,0.818973102331,0.00346724483421,0.0,0.818943469987,-0.573733382982,-0.011930847376,0.0,-0.00778191880663,0.00968563976384,-0.999922812082,0.0,0.501119631516,0.0502394397078,0.304531512881,1.0,-0.20998,-0.275973714286,2.138
0.220196580667,-0.113718643771,-0.129348192551,-2.26186379255,-0.00507537435889,2.14193535368,-0.0796610535993,-0.498245491445,-0.685337657821,-0.00734571770865,-0.760493346969,-0.106537256835,0.0694422631732,-0.422645014466,0.573900289603,0.818906820239,0.00329002436923,0.0,0.818873717517,-0.573828263425,-0.0121534256742,0.0,-0.00806476947525,0.00966915516124,-0.999920730324,0.0,0.49748688102,0.0454951765129,0.304441316621,1.0,-0.20998,-0.275973714286,2.155
0.211729833065,-0.125495479576,-0.129475774157,-2.27471324615,-0.00684838298896,2.14328274344,-0.0870289882932,-0.500719290052,-0.690262021443,-0.00194431242026,-0.762589185619,-0.102436172191,0.0646447593568,-0.443845260197,0.573958655033,0.818864885794,0.00353666898642,0.0,0.818835327632,-0.573886066926,-0.0120098006123,0.0,-0.00780490922088,0.00978926698862,-0.999921623751,0.0,0.493975437248,0.0407978802951,0.304544778532,1.0,-0.20998,-0.275973714286,2.172
0.203717065725,-0.13641499155,-0.129591397274,-2.28678626757,-0.00862093821166,2.14428570033,-0.0940799779063,-0.502991615835,-0.67625737304,-0.00793952979101,-0.756648095663,-0.106939319548,0.0615346272145,-0.434296250394,0.573887414637,0.818915273416,0.00342887554692,0.0,0.818883810702,-0.573814631043,-0.0121169580045,0.0,-0.00795537618599,0.00976180832179,-0.9999207064,0.0,0.490573889772,0.0364051180676,0.304507815536,1.0,-0.20998,-0.275973714286,2.188
0.194482984512,-0.148691043634,-0.12978016602,-2.29992183655,-0.0105221350964,2.14551216963,-0.102179131148,-0.513134277886,-0.677021278655,-0.020141796616,-0.73812873048,-0.100780166651,0.0554494829355,-0.45145230666,0.573927222363,0.818886117357,0.00371714042355,0.0,0.818859347352,-0.573854544606,-0.0118776172243,0.0,-0.00759346412494,0.00986089289579,-0.999922548048,0.0,0.486880620843,0.0314263077909,0.304627002472,1.0,-0.20998,-0.275973714286,2.206
0.18560899665,-0.160112137289,-0.129904282924,-2.31236692888,-0.0123949932243,2.14625711686,-0.109960427298,-0.515217716396,-0.676795618852,-0.00235169943484,-0.728797647826,-0.0994065753317,0.0344977072239,-0.456860449143,0.573884132,0.818917149775,0.0035287028093,0.0,0.81888699082,-0.573810963212,-0.0120756641639,0.0,-0.00786431153322,0.0098198299342,-0.99992085864,0.0,0.483238976991,0.0267344723354,0.304559197442,1.0,-0.20998,-0.275973714286,2.223
0.177160238666,-0.170841497512,-0.129967933535,-2.32363775526,-0.0139771243621,2.14703714892,-0.117416332854,-0.540748134452,-0.658824639737,-0.00357491164171,-0.713370509871,-0.0963951356015,0.0461974262512,-0.473829886223,0.573844588488,0.8189437571,0.0037759595692,0.0,0.81891696898,-0.573770693191,-0.0119556033965,0.0,-0.00762457862118,0.00995304730357,-0.999921398236,0.0,0.479938800239,0.0223936277582,0.304655510207,1.0,-0.20998,-0.275973714286,2.239
0.167415280717,-0.182730361701,-0.130181736898,-2.33637650261,-0.015957166691,2.1476630704,-0.125939945846,-0.547807110394,-0.65506461718,-0.0153431066919,-0.699548381259,-0.104916170485,0.0259888723794,-0.480367689978,0.573892127658,0.818911127392,0.00362465818145,0.0,0.818881687702,-0.573817918399,-0.0121047499721,0.0,-0.00783297144287,0.00991517782314,-0.999920163717,0.0,0.476104736082,0.0173780620152,0.3045837221,1.0,-0.20998,-0.275973714286,2.257
0.158629615924,-0.193340795533,-0.130299038102,-2.34728004784,-0.0176149803952,2.14823125691,-0.133683033001,-0.542784881557,-0.659036520311,-0.00603196988078,-0.683255842577,-0.10765805234,0.0367406990945,-0.487830276045,0.573866396212,0.818928117352,0.00385289636317,0.0,0.818902532002,-0.573792487742,-0.0118983608792,0.0,-0.00753328432425,0.00998340827749,-0.999921787535,0.0,0.472596178618,0.0127122918414,0.304697835704,1.0,-0.20998,-0.275973714286,2.274
0.149747735951,-0.203702279809,-0.13043404985,-2.35818550648,-0.019261334226,2.14858908255,-0.141604829898,-0.558073989194,-0.655356933545,-0.0140290160786,-0.684981915699,-0.101706103751,0.0127402407116,-0.48853626341,0.573804274205,0.818972013623,0.00377395125749,0.0,0.81894438353,-0.57372933054,-0.0120622909737,0.0,-0.00771360070989,0.0100122430701,-0.999920124486,0.0,0.469407188969,0.00859625246456,0.304632221583,1.0,-0.20998,-0.275973714286,2.289
0.140043666995,-0.214714000649,-0.130648794781,-2.36944577712,-0.0209676462823,2.14885505697,-0.150105564001,-0.578021605478,-0.645789841314,-0.0171619747965,-0.647283722394,-0.0962320748088,0.0195881157762,-0.502752314041,0.573943141779,0.81887424868,0.00387062720713,0.0,0.818847427086,-0.573867218499,-0.0120852632756,0.0,-0.00767523258771,0.0101059016733,-0.999919477536,0.0,0.465846302072,0.00385824705141,0.304667429917,1.0,-0.20998,-0.275973714286,2.306
0.129768997794,-0.226208997739,-0.130726563813,-2.38117855176,-0.0228368405433,2.1491192826,-0.159264764605,-0.576067692551,-0.630874794034,-0.00510305602673,-0.654144968133,-0.101533246377,0.0115147007287,-0.504704992849,0.573801515488,0.818973357531,0.00389966399817,0.0,0.818947203701,-0.57372588669,-0.0120345915253,0.0,-0.00761881832874,0.0100992802246,-0.999919975871,0.0,0.462082193034,-0.0010178191439,0.304673080235,1.0,-0.20998,-0.275973714286,2.324
0.120389519028,-0.236329290113,-0.130877930952,-2.39147473014,-0.0244960867568,2.14916181886,-0.167601025374,-0.593431358587,-0.631303612552,-0.0112761921683,-0.637174452617,-0.111852706084,0.00398382736216,-0.526167938498,0.573774400913,0.818992625668,0.00384224669828,0.0,0.818965227382,-0.573698341779,-0.0121208860983,0.0,-0.00772277445887,0.010101515086,-0.999919155806,0.0,0.458694991265,-0.00543213974235,0.304640508349,1.0,-0.20998,-0.275973714286,2.34
0.110149285449,-0.247081534746,-0.131078736529,-2.40198322221,-0.0261574095586,2.14922894812,-0.176626291474,-0.598778061458,-0.637320035336,0.000999893107455,-0.61635736677,-0.0924945848381,-0.00245627170447,-0.534298174816,0.57390751301,0.818898020955,0.00411639248509,0.0,0.818875135597,-0.573831689539,-0.0118933293657,0.0,-0.00737744946436,0.0101966788497,-0.999920797353,0.0,0.455204203259,-0.0101840204084,0.304765789166,1.0,-0.20998,-0.275973714286,2.357
0.0999992562976,-0.257603210689,-0.131226840083,-2.41259747317,-0.0278030768418,2.14915854972,-0.185804351849,-0.607432363403,-0.612926554637,-0.0169806271964,-0.620572356808,-0.103491440044,-0.00673659452806,-0.545479959382,0.57379246012,0.818978704543,0.00410379289826,0.0,0.818954626484,-0.573715285485,-0.012034860274,0.0,-0.00750202999971,0.0102665299265,-0.999919155687,0.0,0.451593832525,-0.0147901408775,0.304691789129,1.0,-0.20998,-0.275973714286,2.374
0.0894282196202,-0.268073152569,-0.131441933923,-2.42273129418,-0.0295304107289,2.14901936124,-0.19511037159,-0.626252233265,-0.621316568018,-0.0169459481966,-0.587700059631,-0.100158628417,-0.00346760786544,-0.557950187063,0.573932528953,0.81887984356,0.00424274926703,0.0,0.818858628977,-0.573856304547,-0.0118420599216,0.0,-0.0072626355888,0.0102709529944,-0.999920877694,0.0,0.44808211952,-0.0195585975865,0.304769128578,1.0,-0.20998,-0.275973714286,2.391
0.0788785763689,-0.278366670182,-0.131534580847,-2.43276923948,-0.0311725796164,2.14876930564,-0.204627964662,-0.615145993766,-0.600756848384,-0.00362160897867,-0.598448178768,-0.104420999901,-0.019824743284,-0.562868744163,0.573815023426,0.81896192557,0.00429304770451,0.0,0.818941441512,-0.573738756709,-0.0118110678854,0.0,-0.00720986585824,0.0102933210493,-0.99992102957,0.0,0.444530717652,-0.0241788120043,0.304769206505,1.0,-0.20998,-0.275973714286,2.408
0.068158424139,-0.288547189159,-0.131713920701,-2.44267548697,-0.0328093501305,2.14833626294,-0.214330260943,-0.644594291488,-0.596366680795,-0.0139515174385,-0.579115967173,-0.0961643923845,-0.0302936388421,-0.576546075988,0.57375470666,0.819004265036,0.0042775389492,0.0,0.818982842563,-0.573677455636,-0.0119175242214,0.0,-0.00730671618219,0.0103411657211,-0.999919832882,0.0,0.44072152544,-0.0291136436054,0.304732295219,1.0,-0.20998,-0.275973714286,2.426
0.0576821956937,-0.298093988397,-0.131914917191,-2.45155396834,-0.0343202566117,2.14799034443,-0.223612066182,-0.644669450746,-0.599318905942,-0.00493794953806,-0.547636840256,-0.104947384393,-0.0244755570207,-0.571399301388,0.573921147182,0.818886363581,0.00451522528336,0.0,0.818869370081,-0.573845035067,-0.0116437697309,0.0,-0.00694401833608,0.0103801852157,-0.999922013141,0.0,0.437655124542,-0.0333417104936,0.304849689784,1.0,-0.20998,-0.275973714286,2.441
0.0454222614486,-0.30918636943,-0.132077243957,-2.46215119157,-0.0360998064881,2.14727727275,-0.234789548972,-0.658291392437,-0.578336140759,-0.0135184292323,-0.559500447392,-0.0884193559423,-0.0415535829271,-0.596580816041,0.573784515875,0.81898239028,0.00446325600475,0.0,0.818963795497,-0.573707219152,-0.0117930173764,0.0,-0.00709780802352,0.0104220965016,-0.999920497353,0.0,0.433628616139,-0.0384845924742,0.304801520038,1.0,-0.20998,-0.275973714286,2.46
0.034655542057,-0.318417826843,-0.132320246719,-2.47080858033,-0.0376268603978,2.14663658862,-0.244408971475,-0.683525542682,-0.581240260649,-0.0150518851674,-0.535371490653,-0.0975265100057,-0.0362603773234,-0.60345074311,0.573930940665,0.818879712959,0.00447637722086,0.0,0.818861106339,-0.573853308526,-0.0118159096313,0.0,-0.00710716164369,0.0104472484749,-0.99992016844,0.0,0.430252081034,-0.0429876186797,0.304798508853,1.0,-0.20998,-0.275973714286,2.476
0.0246336133961,-0.326991484204,-0.132391387487,-2.47854484319,-0.0389678976053,2.14611896565,-0.253588374085,-0.660685931285,-0.567625711488,-0.00731062152423,-0.516280783418,-0.089569205387,-0.0368675619181,-0.612806069817,0.57380085624,0.818969641166,0.00469586286192,0.0,0.81895545046,-0.573724931995,-0.011507365913,0.0,-0.00673017930819,0.0104488400719,-0.999922760231,0.0,0.427206122713,-0.0470608271329,0.304918347706,1.0,-0.20998,-0.275973714286,2.491
0.0130757661981,-0.336469992117,-0.132613059505,-2.48744871684,-0.0404461807927,2.14524340595,-0.264148792255,-0.687279737858,-0.556734700015,-0.0143371758924,-0.521752739087,-0.0893571864736,-0.0549778410558,-0.621647445998,0.573804197555,0.818967521518,0.00465708785438,0.0,0.818951208123,-0.573725905222,-0.0117580309568,0.0,-0.00695768748268,0.0105609385734,-0.999920025383,0.0,0.423578683591,-0.0517258503101,0.304836046845,1.0,-0.20998,-0.275973714286,2.508
0.00119775216783,-0.345857496813,-0.132788179325,-2.49602579182,-0.0420427776281,2.14433088744,-0.274865447849,-0.684200343214,-0.544219227661,-0.00117938701735,-0.501095719058,-0.0912994245612,-0.0553057651854,-0.646043858232,0.573854360772,0.81893264058,0.00460974148451,0.0,0.818915758287,-0.573776285196,-0.0117686990521,0.0,-0.00699294608208,0.0105287119253,-0.999920119275,0.0,0.419990254697,-0.0564602825917,0.304832074843,1.0,-0.20998,-0.275973714286,2.525
-0.00993206722472,-0.35459582753,-0.13296700053,-2.50370574246,-0.043389561817,2.14351751282,-0.285138262587,-0.706090462891,-0.535940615284,-0.0176605206167,-0.479824694946,-0.0825556806609,-0.0501294791559,-0.638541025616,0.573795134576,0.81897285932,0.00483178377943,0.0,0.818959908604,-0.573718003881,-0.0115354680563,0.0,-0.00667528243244,0.0105762362735,-0.999921788857,0.0,0.416715457931,-0.0608339658299,0.30494354053,1.0,-0.20998,-0.275973714286,2.541
-0.0221646320399,-0.363603347006,-0.133195989384,-2.51191568386,-0.0449422078957,2.14245403454,-0.296247870331,-0.715038981764,-0.526697539439,-0.00339813386127,-0.478268215763,-0.101195411431,-0.0660609927788,-0.66368455768,0.573873049001,0.818918940089,0.00471594043443,0.0,0.818903719263,-0.573795057912,-0.011690893689,0.0,-0.0068680431849,0.0105711934966,-0.999920536768,0.0,0.413091975093,-0.0655946203362,0.30487988456,1.0,-0.20998,-0.275973714286,2.558
-0.0349946383092,-0.373003972495,-0.133329699024,-2.52036815358,-0.0464047959806,2.14130530913,-0.30817736116,-0.719716745817,-0.514845571501,-0.0110467124451,-0.463356115772,-0.0868664828793,-0.0658690571694,-0.662837537857,0.573718077191,0.819027492619,0.00472029027045,0.0,0.819011375352,-0.573638637011,-0.0118248921071,0.0,-0.00697730519068,0.010650330841,-0.999918940547,0.0,0.409293725153,-0.0704486950821,0.304837283094,1.0,-0.20998,-0.275973714286,2.576
-0.0468197040121,-0.381207927419,-0.133578278128,-2.52742999368,-0.0477729793137,2.14032189039,-0.318914404157,-0.738238702445,-0.503445407807,-0.0110205710121,-0.434467719826,-0.0883300115961,-0.0562022778138,-0.675340630383,0.573894484135,0.818903166042,0.00484485577674,0.0,0.818889735127,-0.573816270639,-0.011629108105,0.0,-0.00674318619905,0.0106414885422,-0.999920640932,0.0,0.405990395107,-0.0749530446097,0.304918331603,1.0,-0.20998,-0.275973714286,2.592
-0.0593207733285,-0.389710907922,-0.133701895762,-2.53490174372,-0.0491494104644,2.13919290149,-0.330582017552,-0.742161202373,-0.501098664757,-0.00734853078037,-0.446738252429,-0.0843130582074,-0.0713488590322,-0.69413988207,0.573741208388,0.819010518513,0.00485214018199,0.0,0.818997032607,-0.573662762219,-0.0116465756897,0.0,-0.00675530591564,0.0106562139858,-0.999920402305,0.0,0.402434429211,-0.0795742106219,0.304904284233,1.0,-0.20998,-0.275973714286,2.609
-0.0729323378569,-0.398563738879,-0.133956231307,-2.54263775059,-0.050637667333,2.13783326113,-0.343112142557,-0.757058842432,-0.481435291692,-0.0123196087931,-0.424933581467,-0.0810773589936,-0.0681853172075,-0.700843120819,0.573821588599,0.818954501997,0.00480156407722,0.0,0.818939479196,-0.573741915774,-0.0117936593244,0.0,-0.00690374474481,0.0106998527189,-0.999918922443,0.0,0.398596074222,-0.0845879391947,0.304866331162,1.0,-0.20998,-0.275973714286,2.627
-0.084186766663,-0.405772002813,-0.134065041967,-2.54883944295,-0.0517704540046,2.13673033397,-0.353692359559,-0.749592065954,-0.473119504166,-0.00971423384931,-0.409365656348,-0.0679230541468,-0.066719456525,-0.71298038361,0.573677804092,0.819055039354,0.0048338909387,0.0,0.819040111203,-0.573597541282,-0.0118280926933,0.0,-0.0069152841098,0.0107448716869,-0.999918359957,0.0,0.395456689749,-0.0886341828455,0.304863739578,1.0,-0.20998,-0.275973714286,2.642
-0.0973896865873,-0.413755985201,-0.134315336006,-2.55546755408,-0.0529933589191,2.13556630895,-0.365878530294,-0.786719186048,-0.464308784375,-0.0192180570005,-0.382847442522,-0.0721652381618,-0.0705977277392,-0.720885380791,0.573855824648,0.818928960165,0.00505940913216,0.0,0.818917860557,-0.573776231954,-0.0116241217555,0.0,-0.00661648862219,0.0108140186814,-0.99991963631,0.0,0.391949751328,-0.0934008307297,0.304953050265,1.0,-0.20998,-0.275973714286,2.659
-0.111317633241,-0.421999571997,-0.134455856726,-2.56244253374,-0.054374744458,2.1341403542,-0.37898151968,-0.774697715512,-0.450786679999,-0.0109435967636,-0.380765472067,-0.0768753456027,-0.0885081582115,-0.717718019209,0.573703297543,0.819036050587,0.00502206411261,0.0,0.819024228088,-0.573623460302,-0.0116698970916,0.0,-0.00667742119158,0.010808458723,-0.999919291376,0.0,0.388161045719,-0.0983049415157,0.30494799655,1.0,-0.20998,-0.275973714286,2.677
-0.123981546135,-0.429072753889,-0.134701212097,-2.56848950959,-0.0555621213276,2.13281872796,-0.390754980542,-0.807491126054,-0.442997720994,-0.00811088848683,-0.374528228845,-0.0639138187851,-0.0737227238419,-0.741901339589,0.573807070435,0.818963608019,0.00498011645478,0.0,0.818949922152,-0.573725243714,-0.0118792522369,0.0,-0.00687158904511,0.0108950746719,-0.999917035864,0.0,0.384739630833,-0.102747567834,0.304887254142,1.0,-0.20998,-0.275973714286,2.693
-0.137415136403,-0.436352538505,-0.134833358511,-2.57459397983,-0.0567510436056,2.13155408891,-0.403452797967,-0.787179720978,-0.414765430128,-0.0166815366636,-0.348099068752,-0.067656824524,-0.0782459892855,-0.74531273189,0.573691745191,0.819044238052,0.00500644724599,0.0,0.819030820067,-0.573609727297,-0.0118803801074,0.0,-0.00685894208927,0.0109163207639,-0.999916890974,0.0,0.38119813208,-0.107370266153,0.304873346505,1.0,-0.20998,-0.275973714286,2.71
-0.151242336025,-0.443476857999,-0.135070722597,-2.58023904141,-0.0579488778013,2.13025984057,-0.416344342862,-0.809999238275,-0.424116688891,-0.015300487496,-0.331443559828,-0.0641203030535,-0.0763108247471,-0.766809268885,0.573830206617,0.818946412031,0.00513956195273,0.0,0.818936131109,-0.573750005884,-0.0116314579326,0.0,-0.0065768436646,0.0108836644342,-0.999919142219,0.0,0.377691242842,-0.112152348954,0.304985425033,1.0,-0.20998,-0.275973714286,2.727
-0.164155308045,-0.449978078021,-0.135192034079,-2.58556758819,-0.0589576062569,2.12900798099,-0.42861642505,-0.805940372701,-0.396581077485,-0.0123123891759,-0.336171951696,-0.0599487786908,-0.0862877375969,-0.775402820696,0.573737836762,0.819010689948,0.00520877329069,0.0,0.81900109586,-0.573657084037,-0.0116405246638,0.0,-0.00654579046562,0.0109448111941,-0.999918678561,0.0,0.374348081918,-0.116491220849,0.30498987802,1.0,-0.20998,-0.275973714286,2.743
-0.179034980537,-0.457020149568,-0.135437073487,-2.59143283996,-0.0601698308186,2.12745584927,-0.442650339229,-0.817854822911,-0.394078580159,-0.0085518188784,-0.318616005476,-0.0634116865564,-0.0825241654672,-0.776716822824,0.573784960354,0.818978062833,0.00514769571682,0.0,0.818966038083,-0.573701707393,-0.0119048856274,0.0,-0.00679672920558,0.0110468449802,-0.999915882306,0.0,0.370480022491,-0.121473182023,0.304917888192,1.0,-0.20998,-0.275973714286,2.761
-0.193042756208,-0.463337254951,-0.135569227137,-2.59653989852,-0.0612364234359,2.12620955275,-0.456106803326,-0.825469034951,-0.364383454685,-0.00570913382971,-0.301025241998,-0.0685123354651,-0.0724836117758,-0.799618132377,0.57360601316,0.819103184027,0.00518290314448,0.0,0.819091939833,-0.57352319391,-0.0118442833536,0.0,-0.00672930460229,0.0110394388872,-0.999916420132,0.0,0.36696445726,-0.126106266706,0.304924875353,1.0,-0.20998,-0.275973714286,2.778
-0.20661783426,-0.469111402543,-0.135770471688,-2.60116277452,-0.0622395319992,2.12498276879,-0.468804993824,-0.83493016177,-0.353340171925,0.000129850905335,-0.284147480531,-0.0621833687178,-0.0749829225563,-0.79207500229,0.573793810827,0.818971444335,0.00521372430934,0.0,0.818960632904,-0.573710902521,-0.0118333842397,0.0,-0.00670016230203,0.0110599705367,-0.999916388943,0.0,0.36358959106,-0.130585364957,0.304931505722,1.0,-0.20998,-0.275973714286,2.794
-0.220893393566,-0.475063201974,-0.135932493509,-2.60573328507,-0.0631809451616,2.12370349615,-0.482540629211,-0.844830690641,-0.345989197954,-0.0114422326238,-0.257934793565,-0.0630374559219,-0.0680823309461,-0.812483114089,0.573702807351,0.819034282011,0.00535542995716,0.0,0.819026161073,-0.573620866131,-0.0116617459336,0.0,-0.00647950808776,0.0110768268826,-0.99991765655,0.0,0.360086727496,-0.135232896903,0.305015790347,1.0,-0.20998,-0.275973714286,2.811
-0.235447970127,-0.48068891878,-0.136119139782,-2.61020613983,-0.0642033203144,2.12242439539,-0.496434961178,-0.84366404753,-0.321714228251,-0.00167727815014,-0.265593328129,-0.0581533208727,-0.0750754940493,-0.830847525111,0.573693942535,0.819040623648,0.0053351677036,0.0,0.819032076143,-0.573611790055,-0.0116927097272,0.0,-0.00651661463543,0.0110779235075,-0.999917403261,0.0,0.356293073916,-0.140207149831,0.305002739975,1.0,-0.20998,-0.275973714286,2.829
-0.24920385719,-0.485703243204,-0.136289787104,-2.61425676547,-0.0650384678281,2.12121119627,-0.509626221683,-0.874439784492,-0.308552040524,-0.0163035157047,-0.243439361531,-0.0503888068843,-0.0765745687119,-0.830426269758,0.57370314692,0.819033936914,0.00537180583224,0.0,0.819024806651,-0.573619072171,-0.0118436917357,0.0,-0.00661914263149,0.0111946209842,-0.99991543013,0.0,0.353117694401,-0.144317370007,0.304959818248,1.0,-0.209795428571,-0.275731134694,2.844
-0.263931159806,-0.490666891065,-0.136400421002,-2.61823925132,-0.0658770677488,2.12000575985,-0.523751775209,-0.855647951941,-0.288864341414,0.0011650708156,-0.223400719984,-0.0483731140192,-0.0666350676023,-0.831803879234,0.573696581261,0.819038440779,0.00538628594471,0.0,0.819028652274,-0.57361102736,-0.0119667433537,0.0,-0.00671171902462,0.0112770193865,-0.999913887123,0.0,0.349564390767,-0.148964835915,0.30491673758,1.0,-0.206288571429,-0.271122122449,2.861
-0.278659930871,-0.495309577686,-0.136508166681,-2.62187700594,-0.0666170228903,2.11892244295,-0.537823331913,-0.874540690498,-0.268966355282,-0.0117965822346,-0.211306577136,-0.0485982427029,-0.0695361309539,-0.814586380172,0.573792782492,0.818970421344,0.00548075050533,0.0,0.818961753977,-0.573706667821,-0.0119604231647,0.0,-0.00665101774175,0.0113515480869,-0.999913449414,0.0,0.346078828253,-0.153588591718,0.304912951646,1.0,-0.202781714286,-0.266513110204,2.878
-0.292287599515,-0.499448850117,-0.136494671862,-2.62506710404,-0.067281074427,2.11785726996,-0.550924464331,-0.842641639048,-0.257476802633,0.00444235830008,-0.188549533364,-0.0247428479139,-0.0710232872255,-0.816771251614,0.573750543392,0.818999847917,0.00550544916098,0.0,0.818991339026,-0.57366406353,-0.0119781348959,0.0,-0.00665194039128,0.0113815957166,-0.999913101708,0.0,0.342854788878,-0.157791715509,0.304922411907,1.0,-0.199481142857,-0.262175216327,2.894
-0.307686895744,-0.503731136997,-0.136534262124,-2.62832674947,-0.0679669776938,2.11678167633,-0.565609241883,-0.857301686743,-0.227629824066,-0.00011895761399,-0.182021301998,-0.0421192731203,-0.0638493775625,-0.814510415781,0.573886009826,0.818904405094,0.00558300493236,0.0,0.818897091652,-0.573799528026,-0.0119332234747,0.0,-0.00656877014444,0.0114204363849,-0.999913208679,0.0,0.339266670442,-0.162543619527,0.304946137007,1.0,-0.195768,-0.257295085714,2.912
-0.320247391457,-0.506985526581,-0.13645390436,-2.63077193882,-0.0684393835056,2.11601274421,-0.577767775527,-0.839364563396,-0.208957038988,0.0020234028399,-0.158231201893,-0.0350174751226,-0.0457784224617,-0.808159547403,0.573795611621,0.818967211592,0.00566121212306,0.0,0.818961616559,-0.573710090515,-0.0118046409008,0.0,-0.00641984292468,0.0114099862552,-0.999914295243,0.0,0.336011247787,-0.166869705481,0.304980416915,1.0,-0.192467428571,-0.252957191837,2.929
-0.335320573153,-0.510579112966,-0.136438120639,-2.63350675574,-0.0690149190814,2.11506999096,-0.592191829301,-0.825932969068,-0.195898458578,0.00999160323974,-0.144054494322,-0.0293587753797,-0.0540765484608,-0.795324900584,0.573934625752,0.818869436957,0.00571292237467,0.0,0.818864543424,-0.573848944432,-0.0117896309728,0.0,-0.00637593675882,0.0114448073601,-0.999914178225,0.0,0.332921309952,-0.170949375248,0.304992193404,1.0,-0.188960571429,-0.248348179592,2.945
-0.349138857927,-0.513612753745,-0.136283322719,-2.63588541987,-0.0694333018849,2.11418927808,-0.605673824666,-0.814652437482,-0.167939587141,0.0126193256983,-0.139521745414,-0.0203194978512,-0.0477503298495,-0.789058707384,0.573785197964,0.818973967902,0.00573876274176,0.0,0.818968568165,-0.573697942515,-0.0119122631448,0.0,-0.00646364148198,0.0115351686601,-0.99991257679,0.0,0.329740878686,-0.175059250016,0.30496235342,1.0,-0.185453714286,-0.243739167347,2.962
-0.363029002081,-0.516319018414,-0.136220522381,-2.63805397499,-0.0698963460269,2.11339673124,-0.619008975071,-0.805259026743,-0.157182221563,0.0154162737932,-0.123788100681,-0.0275462099333,-0.0426257591282,-0.788664599389,0.573873395769,0.818912205456,0.00573343564551,0.0,0.818905763617,-0.573784418554,-0.0120639231097,0.0,-0.00658966471349,0.0116185317094,-0.999910789041,0.0,0.326550795418,-0.179212285823,0.304909644349,1.0,-0.181946857143,-0.239130155102,2.979
-0.375702870429,-0.518566914297,-0.136071760413,-2.6398313576,-0.0702248566814,2.11278990508,-0.631340031101,-0.791153257156,-0.133729705705,0.00424121327597,-0.108022599415,-0.0188738728152,-0.039051096738,-0.771201185873,0.573806405013,0.818958969711,0.00575868017417,0.0,0.818952536567,-0.573716771614,-0.0121060199806,0.0,-0.00661060952708,0.0116628220855,-0.999910135173,0.0,0.323689151646,-0.182965130154,0.304881974312,1.0,-0.178646285714,-0.234792261225,2.995
-0.38919332945,-0.52073963913,-0.135982674719,-2.64144942805,-0.0705769864399,2.11216808808,-0.644333565976,-0.779235413931,-0.11978318108,0.0143198908177,-0.0933150300722,-0.0156030877598,-0.0341802035562,-0.757115933345,0.573906260326,0.81888870679,0.00579975453118,0.0,0.818882942377,-0.573816671656,-0.0120789451266,0.0,-0.0065634422792,0.0116817271913,-0.999910225208,0.0,0.32066237093,-0.186983818104,0.304894730954,1.0,-0.175139428571,-0.23018324898,3.012
-0.402239573415,-0.522679711093,-0.13580091141,-2.64286927213,-0.0708346345221,2.11159816836,-0.657163056294,-0.770248058284,-0.114241895582,0.00793110541769,-0.0772203652534,-0.0185567190575,-0.0353663844702,-0.749579297156,0.573762637541,0.818988992632,0.00584915466151,0.0,0.818984084589,-0.573673254349,-0.0120338412871,0.0,-0.00650020511242,0.0116951582607,-0.999910481297,0.0,0.317751514586,-0.190819403411,0.304917694483,1.0,-0.171632571429,-0.225574236735,3.029
-0.414607036839,-0.524316621293,-0.135725039211,-2.64403825374,-0.07107843664,2.11110603549,-0.669033643017,-0.75699276955,-0.0946681508885,0.00988104314111,-0.0722541306603,-0.019451185047,-0.029129895779,-0.742169550437,0.5739437199,0.818861598108,0.00591915817263,0.0,0.818857894687,-0.573854546207,-0.0119772704497,0.0,-0.00641111442815,0.01172145423,-0.999910748578,0.0,0.31498777026,-0.194478134498,0.304946411601,1.0,-0.168332,-0.221236342857,3.045
-0.428001388499,-0.525814498392,-0.135536424427,-2.6451588125,-0.0712875991795,2.11065183553,-0.682189036533,-0.742374751081,-0.0782131534839,0.0115326393202,-0.0551494095183,-0.0177465111283,-0.0267899283233,-0.729346845835,0.573851880336,0.818925672883,0.00595891174841,0.0,0.818922558238,-0.573762695898,-0.0119565590973,0.0,-0.00637265462811,0.0117414072321,-0.999910760333,0.0,0.31201649929,-0.19839748406,0.304951606027,1.0,-0.164618857143,-0.216356212245,3.063
-0.441365879953,-0.527102027027,-0.135406939236,-2.64611985573,-0.0714891050921,2.11024212678,-0.695106183188,-0.733931498591,-0.0685462012214,0.0122234081151,-0.0481628365127,-0.0138947734012,-0.0158617702464,-0.707191862023,0.573985085356,0.818831954426,0.00600825276763,0.0,0.818829489369,-0.573895688368,-0.0119479334297,0.0,-0.006335361299,0.0117778968962,-0.999910568172,0.0,0.309039880213,-0.202312685838,0.304954013012,1.0,-0.160905714286,-0.211476081633,3.081
-0.45204670675,-0.527951657437,-0.135231342801,-2.64678452887,-0.0715884431557,2.10997148763,-0.705661788222,-0.714357550567,-0.0473407028933,0.00674453266507,-0.0436352018934,-0.00956758755269,-0.0188910688971,-0.69824085453,0.573882976784,0.818903230959,0.00604765934192,0.0,0.818901167463,-0.573793233523,-0.0119561696436,0.0,-0.00632096164005,0.0118141049796,-0.999910232155,0.0,0.306676307592,-0.205410459166,0.304943789325,1.0,-0.157811428571,-0.207409306123,3.096
-0.464253759905,-0.528725300103,-0.135105141588,-2.64739690326,-0.071721250136,2.1096693836,-0.71745182298,-0.710062295011,-0.0443374266566,0.00450691927903,-0.0316488935925,-0.00721653828221,-0.0178182064821,-0.691174864639,0.574043552954,0.818790386074,0.00608686168553,0.0,0.818788442646,-0.573952883606,-0.0120133463755,0.0,-0.00634296282197,0.0118802647682,-0.999909308953,0.0,0.303958796017,-0.208968126946,0.304925379067,1.0,-0.154304571429,-0.202800293878,3.113
-0.475923815716,-0.529253145516,-0.134857278411,-2.64783729385,-0.07178757428,2.10945189198,-0.72902833744,-0.687500732256,-0.0250475318942,0.0114260398279,-0.0252770856006,0.00270981131683,-0.00685715982437,-0.675114391934,0.573891857561,0.818896649181,0.0060959565411,0.0,0.818894530996,-0.573800632947,-0.012055191218,0.0,-0.00637421469535,0.0119105508691,-0.999908749919,0.0,0.301395341705,-0.212334239969,0.304905642918,1.0,-0.150797714286,-0.198191281633,3.13
-0.486874234276,-0.529635612739,-0.134728133401,-2.64813056835,-0.071829115695,2.10925692871,-0.739665661586,-0.685006053066,-0.0230781362625,0.00714841797086,-0.0167328835135,-0.00352320493492,-0.00812025165233,-0.642905964484,0.574022536116,0.818804573198,0.00616001971707,0.0,0.818803028386,-0.573930515609,-0.0120876324894,0.0,-0.00636210795938,0.0119826469595,-0.999907965642,0.0,0.298969582122,-0.215513302811,0.304898550322,1.0,-0.147497142857,-0.193853387755,3.146
-0.498134548538,-0.529854772635,-0.134470001223,-2.64830688145,-0.0718586663861,2.10910057221,-0.750807799789,-0.647924925861,-0.00875902332914,0.0132261672957,-0.00306406201048,-0.00115677179905,-0.00575905898245,-0.641537257494,0.573914604305,0.818880232404,0.00615945165663,0.0,0.818878481764,-0.573822236177,-0.0121169416246,0.0,-0.00638801663945,0.0119981631808,-0.999907614394,0.0,0.296500325117,-0.218752189662,0.304891592106,1.0,-0.143990285714,-0.18924437551,3.163
-0.5098204219,-0.529991600632,-0.134289033017,-2.64842015465,-0.0718757612364,2.10901151353,-0.762281521109,-0.64982933675,-0.00497368232991,0.0057567402455,-0.00226191736143,0.000737809680747,-0.00337597850322,-0.633472021902,0.573947014378,0.818857165559,0.00620596487687,0.0,0.818856074334,-0.573854532899,-0.0121017147341,0.0,-0.00634837697587,0.0120277666488,-0.999907511193,0.0,0.293914330947,-0.222126159367,0.304887022976,1.0,-0.140277142857,-0.184364244898,3.181
-0.519464701446,-0.529994050859,-0.134115005173,-2.64841546958,-0.0718854385695,2.10892422219,-0.771665106977,-0.621599190083,0.00455984372855,0.0115820161439,2.50217386221e-05,0.000247998041753,-0.00468291668758,-0.621338843279,0.574033904933,0.818796131953,0.0062223137396,0.0,0.818795163758,-0.573941160976,-0.012114885256,0.0,-0.00634850144335,0.0120493872768,-0.999907250097,0.0,0.29177629124,-0.224900473252,0.304887013304,1.0,-0.137182857143,-0.180297469388,3.196
-0.530484572241,-0.529852107716,-0.13388641191,-2.64832849527,-0.0718814726144,2.10891695216,-0.782648713226,-0.613286955308,0.0112159146554,0.00851141229788,0.00635540949066,-0.000820262130102,-0.00112267720505,-0.593304522851,0.573909288049,0.818883434507,0.0062286983081,0.0,0.818882632855,-0.573816700809,-0.0120985281528,0.0,-0.00633327510794,0.0120442624378,-0.999907408398,0.0,0.289341351311,-0.228064547158,0.304879950236,1.0,-0.133469714286,-0.175417338776,3.214
-0.540884958306,-0.529664692244,-0.133723496069,-2.64816822435,-0.0718838384667,2.10891604446,-0.792775048325,-0.607099513401,0.0163619269923,0.0140786119675,0.00755141765901,-0.00108011942714,0.000189868750676,-0.601078690593,0.57402689693,0.818800862057,0.00624634272562,0.0,0.81880054725,-0.57393469648,-0.0120571514267,0.0,-0.00628753422034,0.0120358697891,-0.999907798125,0.0,0.287020662481,-0.231057873422,0.304888463897,1.0,-0.129962857143,-0.170808326531,3.231
-0.550175320589,-0.529317586451,-0.133449944282,-2.64789099331,-0.0718667783219,2.10893518455,-0.802051783207,-0.570312658161,0.0227127743316,0.0159947676969,0.020296838962,-0.000409798458665,0.00281908934384,-0.57063918853,0.573868191299,0.818912468224,0.00619800807885,0.0,0.818911655562,-0.57377648708,-0.0120411859898,0.0,-0.00630452741858,0.0119859054479,-0.999908291297,0.0,0.284980534623,-0.233711126153,0.304896362973,1.0,-0.126662285714,-0.166470432653,3.247
-0.559913631476,-0.528859784704,-0.133238792051,-2.64756125684,-0.0718532182167,2.1089696131,-0.811673025696,-0.571335617192,0.0289350504842,0.0115212539657,0.0213047961771,-0.000861985990138,0.000481733894436,-0.570196478667,0.573839838055,0.818932523432,0.00617326710645,0.0,0.818931230597,-0.573747948278,-0.0120697265932,0.0,-0.00634251443263,0.0119818018687,-0.999908100245,0.0,0.28281045292,-0.236500679811,0.304887372615,1.0,-0.123155428571,-0.161861420408,3.264
-0.570067845061,-0.528241947676,-0.133041291643,-2.64708595904,-0.0718123986128,2.10907595108,-0.821567496893,-0.558018614647,0.0395386740057,0.0175814883643,0.0309218484015,0.000848303876411,0.010931981522,-0.552089636317,0.573957554129,0.818850100235,0.00616330297403,0.0,0.818848883787,-0.573866072198,-0.0120409136645,0.0,-0.00632291462734,0.011958017346,-0.999908509101,0.0,0.280557186061,-0.239428693327,0.304891817042,1.0,-0.119442285714,-0.156981289796,3.282
-0.57855661608,-0.527528032306,-0.132777786277,-2.64658835721,-0.0717158734509,2.1092003698,-0.830140405123,-0.530773211011,0.0419861577454,0.0145906287774,0.0266483345827,0.00699959583722,0.013436297636,-0.518823648603,0.573772247237,0.818980085387,0.00614613218785,0.0,0.818978430768,-0.573680474682,-0.0120743449755,0.0,-0.00636285455268,0.0119617040449,-0.999908211647,0.0,0.278700989036,-0.241856633689,0.304874400197,1.0,-0.116141714286,-0.152643395918,3.298
-0.587558751508,-0.526747028061,-0.132570155606,-2.64600463881,-0.0716538575233,2.1093197306,-0.838997412513,-0.523810958012,0.0492763541141,0.0123689575604,0.0322701004503,0.000564092966982,0.00811311428703,-0.507749058844,0.573803934115,0.818958055939,0.00612329224088,0.0,0.818955994177,-0.573712049265,-0.0120959096748,0.0,-0.00639315922048,0.0119556176256,-0.999908091138,0.0,0.276702621452,-0.244447997232,0.304869546227,1.0,-0.112634857143,-0.148034383674,3.315
-0.596779778709,-0.525789087846,-0.132344177055,-2.64527481876,-0.0715065353056,2.10948182074,-0.848057374801,-0.495607315476,0.0552135847386,0.0141495562176,0.036503308289,0.0105356714257,0.00669474140896,-0.501577872598,0.573879981107,0.818904586601,0.00614753852309,0.0,0.818902782359,-0.57378786398,-0.0121023590836,0.0,-0.00638341726492,0.0119797686511,-0.999907864319,0.0,0.274675166594,-0.247108702576,0.304870295603,1.0,-0.108921714286,-0.143154253061,3.333
-0.603980303558,-0.52492008917,-0.132065392463,-2.64465558158,-0.0713498790896,2.10961606872,-0.855393984963,-0.478430802495,0.0589874012332,0.0176511656644,0.0459838710534,0.00731272254741,0.0161086079051,-0.492267997721,0.573673197319,0.819049458494,0.00614769212009,0.0,0.819047213216,-0.573580294694,-0.0121677838449,0.0,-0.00643994570019,0.0120158129029,-0.999907069352,0.0,0.273109304667,-0.249158737825,0.30485203641,1.0,-0.105827428571,-0.139087477551,3.348
-0.612178417116,-0.523955899501,-0.131833798884,-2.6439351351,-0.0711981675063,2.10977365628,-0.863420909309,-0.473561265875,0.0598962101811,0.0181526654591,0.0489795460088,0.013377094766,0.00821400136818,-0.469624611766,0.573754595612,0.818992317529,0.00616398768973,0.0,0.818990060191,-0.573661182018,-0.0122014939459,0.0,-0.00645701365757,0.0120491398571,-0.999906558236,0.0,0.271292789836,-0.251507613764,0.304845431858,1.0,-0.102320571429,-0.134478465306,3.365
-0.620123136678,-0.522928645478,-0.131648265989,-2.64310078241,-0.0710193041577,2.10996510355,-0.871222955596,-0.462809168125,0.0673335317016,0.0013078743558,0.0467370182201,0.0173197648114,0.00940381870939,-0.457641872459,0.573862478977,0.818916391647,0.00620851154413,0.0,0.818915004342,-0.573769381654,-0.0121515119178,0.0,-0.00638894147004,0.0120577721601,-0.999906891444,0.0,0.269543946449,-0.253814717484,0.304868905948,1.0,-0.0988137142858,-0.129869453061,3.382
-0.627120259368,-0.521881040717,-0.131366741164,-2.64229463554,-0.0708392192593,2.11016030459,-0.878279667147,-0.42730998024,0.0627828427793,0.016847583115,0.0506620945648,0.00653379362426,0.0184998221994,-0.433749010073,0.573735775718,0.819005224908,0.00620065605447,0.0,0.819003729226,-0.573642730184,-0.0121513999975,0.0,-0.00639522194773,0.0120502853412,-0.99990694155,0.0,0.268032484975,-0.255827634757,0.304874467182,1.0,-0.0955131428572,-0.125531559184,3.398
-0.634463493077,-0.520817221001,-0.131133017897,-2.64146715929,-0.0706621848589,2.1103611928,-0.885539370171,-0.427585944047,0.0628758271694,0.0112609810009,0.0500490397797,0.0105850569278,0.0123589355228,-0.421813570376,0.573767592837,0.818982807574,0.0062174921874,0.0,0.818981579063,-0.573674554103,-0.0121419121378,0.0,-0.00637732301692,0.01205887944,-0.99990695226,0.0,0.266315582066,-0.25806589569,0.304883163234,1.0,-0.0918000000001,-0.120651428572,3.416
-0.641976698296,-0.519638189799,-0.130886117824,-2.64052259362,-0.0704512276023,2.11059160441,-0.892954254249,-0.407664302042,0.0679659775196,0.00992551763868,0.0599570351957,0.0123707534378,0.0123955927153,-0.410110940036,0.573806836547,0.81895517519,0.00623556439521,0.0,0.818954465821,-0.573714246187,-0.0120951864431,0.0,-0.00632810524154,0.0120471759242,-0.999907406031,0.0,0.264765624169,-0.260114455631,0.304904253304,1.0,-0.0882931428572,-0.116042416327,3.433
-0.648356725496,-0.518538033023,-0.130684021719,-2.63969229945,-0.0702633367592,2.11081341606,-0.899218815866,-0.382191760547,0.0673123764357,0.0176027287214,0.054981858291,0.0124236165293,0.0150725199193,-0.388374315132,0.573883755175,0.818901081416,0.00626109439771,0.0,0.818900646872,-0.573790923632,-0.0121017937431,0.0,-0.00631773448185,0.0120724695225,-0.999907166546,0.0,0.263361454348,-0.261962317561,0.304900637369,1.0,-0.0849925714286,-0.111704522449,3.449
-0.655095400647,-0.517315613726,-0.130366746224,-2.63879705701,-0.0700404973532,2.11105838959,-0.906068239669,-0.374722400876,0.0693906369888,0.0161216725405,0.0476516141814,0.00881521857209,0.0187842628739,-0.356809948169,0.573712063375,0.819021389185,0.00625933678222,0.0,0.819020678211,-0.573618793582,-0.0121389955192,0.0,-0.00635174605062,0.0120910472133,-0.9999067266,0.0,0.261894257656,-0.263886263957,0.304885923581,1.0,-0.0812794285715,-0.106824391837,3.467
-0.661022614673,-0.516266455072,-0.130126952453,-2.63798946869,-0.0698530185517,2.11127013516,-0.911881651773,-0.365301533965,0.0687824733191,0.0130456062897,0.0528718445688,0.00966218867786,0.0123069201201,-0.357867718166,0.573758843495,0.818988579939,0.00626437087648,0.0,0.818987984326,-0.573665635374,-0.0121312498276,0.0,-0.00634182286989,0.0120910891394,-0.999906789079,0.0,0.260587437473,-0.265586349865,0.304890055742,1.0,-0.0779788571429,-0.102486497959,3.483
-0.666627975172,-0.515186995151,-0.12989506376,-2.63714573532,-0.0696428144465,2.11150619124,-0.917452192921,-0.344615099999,0.0652087758954,0.0132347152316,0.055268832709,0.0117173861943,0.0166484995799,-0.340746681215,0.573757875516,0.818989120064,0.00628238819737,0.0,0.818988982465,-0.573665013072,-0.0120932328115,0.0,-0.00630036109311,0.0120840269382,-0.99990713656,0.0,0.259367384993,-0.267208494934,0.304900959739,1.0,-0.0746782857143,-0.0981486040817,3.499
-0.672377820888,-0.514026949865,-0.129715867174,-2.63627127789,-0.0694474770093,2.11172924287,-0.923140946181,-0.331257645455,0.0644010138433,0.0126652651517,0.0483525925525,0.00573823258317,0.0120618587692,-0.328448915347,0.573811180395,0.818951510273,0.00631664279659,0.0,0.818951638406,-0.573717804288,-0.0121178337888,0.0,-0.00630006914268,0.0121266069524,-0.999906622907,0.0,0.258088503354,-0.268880022591,0.304893271164,1.0,-0.0711714285715,-0.0935395918368,3.516
-0.677743057963,-0.512896474302,-0.129436368941,-2.6354425698,-0.0692218060959,2.11194750177,-0.928478850585,-0.31067326072,0.0697076682921,0.0209742900737,0.0456993612592,0.00577669010727,0.013561797245,-0.31515934405,0.573775895421,0.818976123989,0.00633064548532,0.0,0.818976123702,-0.573681864576,-0.0121644549478,0.0,-0.00633074354399,0.0121645527354,-0.99990596825,0.0,0.25691855616,-0.270410162425,0.304877370523,1.0,-0.0676645714286,-0.0889305795919,3.533
-0.682601483387,-0.511901552697,-0.129163681105,-2.63467774971,-0.0690278991402,2.11215025935,-0.933326226324,-0.305812119382,0.0619134318804,0.0213192585623,0.0495823651359,0.00966495771795,0.0131734588937,-0.294061713759,0.573714606145,0.819019137346,0.0063206216497,0.0,0.819019031203,-0.573620683068,-0.0121608135098,0.0,-0.00633442163939,0.0121537797513,-0.999906075959,0.0,0.255859650519,-0.271793412839,0.304880699006,1.0,-0.0643640000001,-0.0845926857144,3.549
-0.68784957497,-0.510746232766,-0.128927645339,-2.63380297642,-0.0688182427077,2.11239243053,-0.938399792663,-0.280970886113,0.0619697573534,0.00857048892083,0.0469426958316,0.0122371791286,0.00933145016203,-0.268246342919,0.573825725718,0.81894121117,0.0063305650402,0.0,0.81894120645,-0.573731677751,-0.0121659041909,0.0,-0.00633123650737,0.0121657036004,-0.999905951128,0.0,0.254706761609,-0.273310333533,0.304876711063,1.0,-0.0606508571429,-0.0797125551021,3.567
-0.692477236876,-0.509677142356,-0.128719880642,-2.63304362279,-0.0686135248189,2.11260505738,-0.943041320276,-0.269662615002,0.061629636868,0.00835801214644,0.0407372242471,0.0101588488874,0.00551463004174,-0.265892555962,0.573794540708,0.818962792799,0.00636521532318,0.0,0.818962802265,-0.573699494698,-0.01222968484,0.0,-0.00636405856488,0.0122304364476,-0.999904953074,0.0,0.253680922333,-0.274637888774,0.304848656348,1.0,-0.0571440000001,-0.0751035428572,3.584
