nelsonifechukwu/NELSON_IML_WORK/CNN-GradCAM/train2dof/data_sample_2022-02-21-10-52-33/robot_state.csv
position_joint1,position_joint2,position_joint3,position_joint4,position_joint5,position_joint6,position_joint7,velocity_joint1,velocity_joint2,velocity_joint3,velocity_joint4,velocity_joint5,velocity_joint6,velocity_joint7,ee_T_00,ee_T_10,ee_T_20,ee_T_30,ee_T_01,ee_T_11,ee_T_21,ee_T_31,ee_T_02,ee_T_12,ee_T_22,ee_T_32,ee_T_03,ee_T_13,ee_T_23,ee_T_33,v_x,v_y,time
0.465069736287,0.547684858568,-0.123970385819,-1.35574224866,0.079496708654,1.89409360659,0.159166822889,0.000125837800822,-0.00072128666682,-0.00148130167825,-0.000820389386505,0.000109043731419,-0.00478672678585,-0.000656983800056,0.573796513191,0.818983452575,0.00210065669841,0.0,0.818942295549,-0.573737360843,-0.0118196546,0.0,-0.00847503947313,0.00850255691593,-0.999927937519,0.0,0.661696118605,0.260909426118,0.303324605161,1.0,0.0,0.0,0.0
0.465069495202,0.54768752277,-0.123961201107,-1.35573652211,0.0794996684411,1.8940939598,0.159169135479,0.000407549128623,0.0016150934136,0.0012329265546,0.000903736380863,-0.00028421938507,-8.8616806857e-05,0.00141571501707,0.573792665355,0.818986131653,0.00210718896495,0.0,0.818944993319,-0.573733421105,-0.0118239725381,0.0,-0.00847486796346,0.00851034442105,-0.999927872724,0.0,0.661695218899,0.260915731128,0.30332517574,1.0,-0.00018,-0.000236571428571,0.01
0.465066952915,0.547683339763,-0.12396391771,-1.35574283957,0.079498579158,1.8940923666,0.159164235716,8.43345391239e-05,-0.00201242037609,-0.000249091170159,-0.0023275742195,-0.00030861037258,0.00286710958636,-0.0016880759233,0.573792671111,0.818986137967,0.00210316403178,0.0,0.818944961842,-0.573733457421,-0.0118243904827,0.0,-0.00847751954226,0.00850728797872,-0.999927876256,0.0,0.661694911558,0.260911496293,0.303325081512,1.0,-0.0005,-0.000657142857143,0.026
0.465066191956,0.547657609692,-0.123961438304,-1.35576630082,0.0795005177882,1.89409493422,0.159170514972,-0.00174216225957,-0.00492824154197,0.000657669807949,-0.0051171565264,0.0101208780213,-3.94374906202e-05,0.000926327178741,0.573798470237,0.818982056934,0.0021101837043,0.0,0.818940922725,-0.573739178432,-0.0118265429848,0.0,-0.00847519460899,0.00851433199004,-0.99992783601,0.0,0.661690246187,0.260910470044,0.303332286777,1.0,-0.00086,-0.00113028571429,0.044
0.465070524749,0.547562707338,-0.123963707238,-1.35586686738,0.0794956380361,1.89411464412,0.159166837829,-0.000812234529319,-0.0147397115246,0.000794909850784,-0.00657026471103,-0.000137686925333,-0.000249200905177,0.000191331205369,0.573797659891,0.818982589809,0.00212367466866,0.0,0.818941610146,-0.573738293774,-0.0118218581757,0.0,-0.0084636254952,0.00852268419745,-0.999927862847,0.0,0.661673296564,0.260901882511,0.303353427092,1.0,-0.00118,-0.00155085714286,0.06
0.465065221105,0.547447166115,-0.123964281707,-1.3560192695,0.0794939018413,1.89414532788,0.159165671029,-0.000278035883678,-0.00987142564897,-0.000599680777906,-0.00907115480504,0.000139046946464,0.0057726329744,0.00162587694007,0.57380931672,0.818974422659,0.00212367036335,0.0,0.818933346258,-0.573749851844,-0.0118333763603,0.0,-0.00847294014684,0.00852941029841,-0.999927726611,0.0,0.661649141603,0.260883268458,0.303365415545,1.0,-0.00148,-0.00194514285714,0.075
0.465052632915,0.547302754818,-0.123968763995,-1.35622684474,0.0794906162948,1.89422191044,0.159159211396,-0.00156025910511,-0.00924166665528,-0.00675149606364,-0.0140647876132,0.000309999017849,0.00529919784104,0.00029632856678,0.573828201391,0.818961150801,0.002139081365,0.0,0.818920215459,-0.573768613277,-0.0118324144512,0.0,-0.00846311294838,0.00854167452866,-0.999927705144,0.0,0.661625135913,0.260854272982,0.303375703975,1.0,-0.00182,-0.002392,0.092
0.465033983061,0.547121152417,-0.123959076895,-1.35642283289,0.0794863568831,1.89433499518,0.159146748279,-0.000126876693347,-0.015172204512,0.00136899304116,-0.0111776059674,-0.000716780706879,0.00632015613407,-0.00114264812238,0.573836512921,0.818955086216,0.00222937225409,0.0,0.818915268691,-0.573776513759,-0.01179160144,0.0,-0.00837779183259,0.00859228385866,-0.999927990038,0.0,0.66161043044,0.260833666566,0.303420548244,1.0,-0.00214,-0.00281257142857,0.108
0.465011626059,0.546912509948,-0.123964366609,-1.35668735106,0.0794848569222,1.89446937571,0.159125647951,-0.00014722276509,-0.0117829030498,0.00195002448683,-0.013129801124,-0.000261411837846,0.00620948424562,0.000775321454238,0.573855820129,0.818941355885,0.0023022219404,0.0,0.818902436227,-0.573795489878,-0.0117593638302,0.0,-0.0083093847748,0.00863364075507,-0.999928204609,0.0,0.661589210372,0.260796048638,0.303454268807,1.0,-0.0025,-0.00328571428571,0.126
0.464983968952,0.546689282564,-0.12396150396,-1.35699877943,0.0794786313173,1.89458202669,0.159114327765,-0.00145946563374,-0.0131876531631,0.00127151061785,-0.0223452289676,0.00049861770485,0.00828836821468,-0.00271384681559,0.573882214631,0.81892279423,0.00232545080639,0.0,0.81888404856,-0.573821660296,-0.0117628266667,0.0,-0.00829861261332,0.00865491822289,-0.999928110126,0.0,0.661550851277,0.260748367742,0.303467857288,1.0,-0.00284,-0.00373257142857,0.143
0.46494632652,0.546431546391,-0.12395655957,-1.35738978491,0.0794696878588,1.89472805016,0.159033548984,-0.00529927851474,-0.0176996840182,0.00289323743545,-0.0199353194787,0.000188218669929,0.0120678662318,-0.00308686240133,0.573863637364,0.818935738188,0.00235145296079,0.0,0.818897179332,-0.573802829424,-0.0117673075997,0.0,-0.00828755793465,0.00867859522792,-0.999927996592,0.0,0.661508433328,0.260695414382,0.303482728886,1.0,-0.00316,-0.00415314285714,0.159
0.46490373869,0.546142563549,-0.123959893385,-1.35784597751,0.0794560058205,1.89488984219,0.158934877166,-0.00395684422471,-0.0217312373134,0.00112058617455,-0.0292604713596,-0.00644350840299,0.0118204277826,5.62937495642e-05,0.573841891876,0.818950968158,0.00235409910882,0.0,0.818912322733,-0.573780949998,-0.011780322477,0.0,-0.00829692901629,0.00868801057738,-0.999927837117,0.0,0.661456263042,0.260623724135,0.303484362424,1.0,-0.0035,-0.0046,0.176
0.464851506914,0.545846115248,-0.123966734249,-1.35835252296,0.0794354329414,1.89507192868,0.158911741599,-0.00284707592968,-0.0172380842734,-0.0011976910915,-0.0290726656699,-0.00389869673998,0.015482837131,0.000307344533877,0.573893391414,0.818914940921,0.00233275137014,0.0,0.818875953825,-0.573832457203,-0.0117995850786,0.0,-0.00832440833744,0.00868210505873,-0.999927660022,0.0,0.6614004427,0.2605380067,0.303469162154,1.0,-0.00384,-0.00504685714286,0.193
0.464784138112,0.545523761263,-0.123966813537,-1.35890339021,0.0793671096685,1.89525472835,0.158816765657,-0.00218554355564,-0.0217337956529,-0.0014900569247,-0.0321531857982,-0.00321786705651,0.00818676753446,-0.00236464285311,0.573883401731,0.818922105547,0.00227445961381,0.0,0.818882631505,-0.573822973342,-0.0117973719845,0.0,-0.00835615240893,0.0086329976517,-0.999927820429,0.0,0.66134028288,0.260433588249,0.303450935345,1.0,-0.00416,-0.00546742857143,0.209
0.46471841503,0.545130159725,-0.123967823982,-1.35957989643,0.0793011451792,1.89546473998,0.158742447549,-0.00125398870146,-0.0245541896158,-0.00057181389448,-0.0408395432329,-0.000492163152837,0.0173763028478,-0.000991228765296,0.573897125391,0.818912696024,0.00219833110661,0.0,0.818872397062,-0.573837159641,-0.0118177174396,0.0,-0.00841635681213,0.00858247196928,-0.999927750446,0.0,0.661258147702,0.26031797467,0.303425717936,1.0,-0.0045,-0.00591428571429,0.226
0.464640671095,0.54468994503,-0.123968657058,-1.36031496628,0.0792874354655,1.89571984794,0.158675214965,-0.000259609207374,-0.0262408481069,-0.00019285196111,-0.0402577388719,-0.000327761985449,0.0120341207765,-0.00418224404292,0.573943638976,0.818880145208,0.00218035877183,0.0,0.818839314855,-0.573883435458,-0.0118627929447,0.0,-0.00846309676744,0.00859410349708,-0.999927256043,0.0,0.661172853467,0.260199708995,0.303409593575,1.0,-0.00486,-0.00638742857143,0.244
0.464581010367,0.54428000039,-0.123979918391,-1.36101198992,0.0792598745839,1.89597053999,0.158552177077,-0.00311536461445,-0.0213487819784,-0.00110614481699,-0.0494498233426,0.000183294662661,0.0138001812371,-0.00545640420085,0.573931189704,0.818888940516,0.00215394654288,0.0,0.818847669712,-0.57387099543,-0.011887864123,0.0,-0.00849891664051,0.00858673542775,-0.999927015532,0.0,0.661092999569,0.260088939915,0.303390050915,1.0,-0.00518,-0.006808,0.26
0.464503686207,0.543723649811,-0.123975348989,-1.36191509435,0.0792179771542,1.89629472364,0.158462233644,-0.00606947660168,-0.0328667043619,-0.000216517399337,-0.0529937329257,-0.000521391748286,0.0222701555676,-0.00706218161161,0.573956807758,0.818871016758,0.00214187843957,0.0,0.818829431072,-0.57389649989,-0.0119128974644,0.0,-0.00852607407285,0.00859148711664,-0.999926743522,0.0,0.660985908534,0.259955799326,0.303381807357,1.0,-0.00556,-0.00730742857143,0.279
0.464439675707,0.54326740978,-0.123981061261,-1.362660305,0.0791716292378,1.89654458434,0.158356319669,-0.00566033463574,-0.036033748674,-0.00283225082308,-0.0499659907804,-0.00192774689698,0.023780282724,-0.0122448931331,0.573959518775,0.818869196486,0.00211110283839,0.0,0.818827233173,-0.573899359355,-0.0119262084323,0.0,-0.00855460885232,0.00857395442391,-0.999926650296,0.0,0.660905826834,0.25984078575,0.303375440814,1.0,-0.00584,-0.00767542857143,0.293
0.464364354303,0.54275546816,-0.123982888285,-1.36349893375,0.0791260358973,1.89683826794,0.158250895939,-0.00815548308726,-0.0299120347963,-0.00253093612892,-0.0561446316307,-0.00185587832698,0.0228567693558,-0.0163150403224,0.573966573087,0.818864330277,0.00208049991511,0.0,0.818821869166,-0.573906439795,-0.0119537374151,0.0,-0.00859464235696,0.00856476942738,-0.999926385714,0.0,0.660798123976,0.259706062949,0.303360167257,1.0,-0.00618,-0.00812228571429,0.31
0.464301244776,0.542152123213,-0.123983941918,-1.36441808941,0.079072536931,1.89717982198,0.15812044314,-0.00461954313669,-0.0381544141173,0.000360817343849,-0.0530131608811,-0.00563677679771,0.0243660298037,-0.0103867804699,0.573948972105,0.81887660863,0.0021033685633,0.0,0.81883442727,-0.573888728315,-0.0119438323856,0.0,-0.00857359051619,0.00857762605946,-0.999926456234,0.0,0.660689894593,0.259577096163,0.303378997175,1.0,-0.00652,-0.00856914285714,0.327
0.464212872558,0.541529985643,-0.123983953724,-1.36537671685,0.0790114276015,1.89753133444,0.157992397343,-0.00418631087021,-0.0378478475278,0.00141483043562,-0.061969672944,-0.00708842350085,0.0266931231287,-0.00563405145943,0.573953374368,0.818873494688,0.00211439117687,0.0,0.818831474444,-0.573893102234,-0.0119361036281,0.0,-0.00856088920268,0.00858226223418,-0.999926525276,0.0,0.660581632859,0.25942705491,0.303393063364,1.0,-0.00686,-0.009016,0.344
0.464134315416,0.540865906823,-0.123986334496,-1.3664022204,0.0789561870893,1.89790961193,0.157867270923,-0.00818478045182,-0.041559622815,-0.000722341058324,-0.0624746354502,-0.002148753293,0.0245163254925,-0.00752956345713,0.573959021009,0.818869492288,0.00213159653052,0.0,0.818827638514,-0.573898619743,-0.0119339668021,0.0,-0.00854920562823,0.00859518353976,-0.999926514251,0.0,0.660461881258,0.259277509435,0.303407274417,1.0,-0.0072,-0.00946285714286,0.361
0.464051219156,0.540159806847,-0.123984669589,-1.36747755638,0.0788923577472,1.89830627203,0.157735221073,-0.00687191822756,-0.045970343278,0.000543859333055,-0.0564246241833,-0.000621254638924,0.0257583217717,-0.0101513054488,0.573960244187,0.818868571058,0.00215599796687,0.0,0.818827008359,-0.57389971619,-0.0119244723257,0.0,-0.0085274131718,0.00860972817705,-0.999926575207,0.0,0.660335936,0.259121815971,0.303428811639,1.0,-0.00754,-0.00990971428571,0.378
0.463956106441,0.539468232945,-0.123992889242,-1.36855985773,0.0788292099166,1.8987266787,0.157598959922,-0.00393720214828,-0.0498340040411,-0.00127421957243,-0.0703887100035,-0.00661719606024,0.0235588396361,-0.00663907123127,0.573975465601,0.81885784064,0.00217913091187,0.0,0.818816619045,-0.573914882239,-0.0119079477941,0.0,-0.00850044441634,0.00861934443427,-0.999926721988,0.0,0.660217873725,0.258953164419,0.303439051946,1.0,-0.00786,-0.0103302857143,0.394
0.463852539561,0.5387185197,-0.123990345343,-1.3697293386,0.0787609707018,1.89917563291,0.157446668586,-0.0072390197532,-0.0451926694233,0.000197787488104,-0.0687537256908,-0.000749384853882,0.0328255931896,-0.0156791530695,0.573980267293,0.818854406109,0.00220482569104,0.0,0.818813497438,-0.573919557954,-0.0118972397068,0.0,-0.00847687777467,0.0086342880991,-0.999926793126,0.0,0.660086661723,0.258776714471,0.303450878396,1.0,-0.0082,-0.0107771428571,0.411
0.463723972932,0.537855208378,-0.123996617718,-1.3710907145,0.0786813121587,1.89969801742,0.157289179719,-0.0106016713539,-0.0436354243782,0.00155610928815,-0.0770341787269,-0.000345873274442,0.024064843472,-0.00746556489682,0.574014938697,0.818830050968,0.0022236648351,0.0,0.818789410037,-0.573954172637,-0.0118851430504,0.0,-0.00845579337927,0.00864312928493,-0.999926895265,0.0,0.659937516199,0.258560510815,0.303458120095,1.0,-0.00858,-0.0112765714286,0.43
0.463624964772,0.537140669871,-0.124002817727,-1.37221201574,0.078616074622,1.90011234506,0.157152125396,-0.00737047652768,-0.044882810441,-0.0014859301699,-0.0760981948087,-0.00115544556217,0.0245130657812,-0.00834555183455,0.57403246424,0.818817749368,0.00222939918461,0.0,0.818777179626,-0.573971669613,-0.0118827398283,0.0,-0.00845034900567,0.00864662607651,-0.999926911059,0.0,0.659809769605,0.258385419725,0.30346505804,1.0,-0.00888,-0.0116708571429,0.445
0.463488534333,0.536150482947,-0.124011577581,-1.37376465427,0.0785334954368,1.90070023536,0.156961977941,-0.00689781621918,-0.0471640322896,-0.00104105709342,-0.0836350442293,-0.00405999390055,0.0297108134651,-0.0130374525711,0.574058053367,0.818799742784,0.00225377081984,0.0,0.818759437449,-0.573997104634,-0.0118766309276,0.0,-0.00843108674812,0.00866333855556,-0.999926929001,0.0,0.659634807437,0.258145550843,0.303476281057,1.0,-0.00928,-0.0121965714286,0.465
0.463395137977,0.53547128459,-0.124018574402,-1.37482193071,0.0784645383986,1.90107902169,0.156837048445,-0.00549458939161,-0.0504709240316,0.000660977536846,-0.084632520879,-0.00975824928792,0.0370832625565,-0.0177856922173,0.574076650245,0.818786714727,0.00224996222973,0.0,0.818746411486,-0.574015767323,-0.0118726342825,0.0,-0.00842980372345,0.00865811731567,-0.999926985041,0.0,0.659512318891,0.257977855968,0.303485409887,1.0,-0.00954,-0.0125382857143,0.478
0.463266380775,0.534466738464,-0.124026661128,-1.3764283286,0.0783820188276,1.90166515209,0.156644826011,-0.00837518504218,-0.0474930689459,-0.00113902632851,-0.0810011020239,-0.00151860906272,0.0274233336365,-0.0153178776931,0.574096376354,0.818772906672,0.00224161957535,0.0,0.818732372442,-0.57403539848,-0.0118916150428,0.0,-0.00844992591472,0.00866238639591,-0.999926778226,0.0,0.659322029531,0.25773717482,0.303480638208,1.0,-0.00992,-0.0130377142857,0.497
0.463140619164,0.533542687639,-0.124020142879,-1.37790994917,0.078301292596,1.90221266455,0.156449144247,-0.00823240004865,-0.0567664795443,0.00120848891531,-0.0893387300266,-2.16053934678e-05,0.0366269180953,-0.00801207496066,0.57409405676,0.818774541816,0.00223842984658,0.0,0.818733832879,-0.574032955474,-0.0119089810525,0.0,-0.00846600100103,0.0086697204112,-0.999926578692,0.0,0.659146305829,0.257518398795,0.303474435789,1.0,-0.01026,-0.0134845714286,0.514
0.463004883469,0.532599390876,-0.124025092394,-1.37943213899,0.0782083616937,1.90279075786,0.156259481713,-0.00774704545369,-0.0549751800796,-0.000392442859738,-0.094692272415,-0.00786903568258,0.0342114345396,-0.0152124323154,0.574111787039,0.818762121869,0.00223398224983,0.0,0.818721385993,-0.574050733061,-0.0119077659941,0.0,-0.00846737162707,0.00866556469737,-0.99992660311,0.0,0.658973218495,0.257281948129,0.303465315411,1.0,-0.0106,-0.0139314285714,0.531
0.462882820103,0.53167810751,-0.124017324308,-1.38090130448,0.0781233548083,1.90332756355,0.156084101545,-0.0116007304735,-0.0629364484936,-0.000358359014543,-0.0899112036526,-0.00872884354705,0.0286692146408,-0.0088094001958,0.574119965893,0.818756404002,0.00222768259624,0.0,0.818715483836,-0.57405883165,-0.011923138572,0.0,-0.00848348852657,0.00866931705611,-0.999926433976,0.0,0.658796413069,0.257066413289,0.303461726453,1.0,-0.01092,-0.014352,0.547
0.462757176064,0.5308018408,-0.124019803655,-1.38233562812,0.0780386187948,1.90382856256,0.155890694414,-0.0117742534906,-0.0617497942142,4.12853619439e-05,-0.100727822393,-0.00757800689629,0.0303395078524,-0.0192620187088,0.574121447315,0.818755495142,0.00217940580294,0.0,0.81871386921,-0.574060431058,-0.0119569543813,0.0,-0.00853887587002,0.00864922023669,-0.999926136566,0.0,0.658622271818,0.256843756884,0.303440048985,1.0,-0.01122,-0.0147462857143,0.562
0.462612890124,0.529714037776,-0.124038577214,-1.38407196271,0.0779348906,1.90445315504,0.15566549878,-0.00363427034731,-0.0654080353744,-0.00276408575492,-0.0977581632279,-0.00131327992187,0.0381505966762,-0.0142102566277,0.574134857099,0.818746156829,0.0021548649909,0.0,0.818704237448,-0.574073966727,-0.0119665873035,0.0,-0.00856071029221,0.00863479823725,-0.999926074517,0.0,0.658416967147,0.256571614454,0.303434685188,1.0,-0.01158,-0.0152194285714,0.58
0.462473848001,0.528636831689,-0.124028694331,-1.38574823286,0.0778247684717,1.9050828249,0.155435781391,-0.0101116738315,-0.0666843566312,0.00447656840032,-0.10120668672,-0.0102515527098,0.035595018437,-0.0109302297878,0.574114943399,0.818760059697,0.00217791460786,0.0,0.818718461245,-0.574053981588,-0.0119521688794,0.0,-0.00853588229515,0.00864518410272,-0.999926197029,0.0,0.658218409322,0.256325917654,0.303449663249,1.0,-0.01192,-0.0156662857143,0.597
0.462340987433,0.527603620468,-0.124026303786,-1.38736423982,0.0777265360047,1.9057091793,0.155201887335,-0.00621934825974,-0.0675229363601,0.000578839623083,-0.103397958801,-0.00906401525025,0.0352192770716,-0.0232463739574,0.574091747069,0.818776227842,0.00221394896223,0.0,0.818735108568,-0.574030651271,-0.0119323216982,0.0,-0.00849919042054,0.00866305194487,-0.999926354935,0.0,0.658031138928,0.256088215304,0.303462076593,1.0,-0.01224,-0.0160868571429,0.613
0.462186536664,0.526437367613,-0.124034674454,-1.38915070939,0.0776101034044,1.90638752568,0.15496002361,-0.0101455322061,-0.0641984624442,-0.000906092248784,-0.109023752047,-0.0103717274415,0.0391871022918,-0.0156411922561,0.574091253,0.818776458352,0.00225640814387,0.0,0.818736010993,-0.574030108408,-0.0118964635704,0.0,-0.00844546069892,0.00867722534375,-0.99992668729,0.0,0.657826286561,0.255812188179,0.303491546241,1.0,-0.01258,-0.0165337142857,0.63
0.462030658931,0.525260101019,-0.124035648498,-1.39098417021,0.077495993781,1.90704948676,0.154714421077,-0.0087188195339,-0.0660526535691,0.000155739524314,-0.107421144563,-0.0127294909229,0.0386721443514,-0.0178538748771,0.574086388382,0.81877985967,0.00225986175414,0.0,0.818739439136,-0.574025212003,-0.011896793256,0.0,-0.00844379965947,0.00868019213938,-0.999926675568,0.0,0.657605399864,0.255533411232,0.303504445068,1.0,-0.01292,-0.0169805714286,0.647
0.461886484746,0.524155224275,-0.124042744397,-1.39275303678,0.0773843575372,1.90767704572,0.15446610413,-0.0109625322581,-0.0686594951157,0.000300241807822,-0.116569520746,-0.0025420801772,0.039801653586,-0.0166792387942,0.574070990719,0.818790751173,0.00222492908008,0.0,0.818749876089,-0.574009956451,-0.0119145793303,0.0,-0.00847857915435,0.00866164153222,-0.999926542133,0.0,0.657388607869,0.255263595106,0.30349411651,1.0,-0.01324,-0.0174011428571,0.663
0.461723560248,0.522960836101,-0.124042458208,-1.39467104732,0.0772660633263,1.90840107832,0.154215857834,-0.00820028822381,-0.066315876515,0.00149595149933,-0.114931684071,-0.011223767103,0.038268809449,-0.0130418521232,0.574070410682,0.818791165079,0.00222226677812,0.0,0.818750257557,-0.574009389484,-0.0119156802274,0.0,-0.00848101498535,0.00866008767218,-0.999926534935,0.0,0.657161249533,0.254974699212,0.303483581512,1.0,-0.01358,-0.017848,0.68
0.461571547948,0.521725878781,-0.124050656309,-1.39662895251,0.0771438286811,1.90916861937,0.153945075674,-0.0134004758775,-0.0697986002521,-8.93013248254e-05,-0.114174589186,-0.0117375992067,0.0518718651288,-0.0212146665268,0.574051055655,0.818804648972,0.00225371354576,0.0,0.818764248979,-0.573990011549,-0.011887730507,0.0,-0.0084402824423,0.00866959124208,-0.999926797231,0.0,0.656932974491,0.254686162259,0.303486274911,1.0,-0.01392,-0.0182948571429,0.697
0.461404599661,0.520548219871,-0.124064804815,-1.39853066865,0.0770316961483,1.90987388278,0.153690876966,-0.00828094257818,-0.0774691522247,-0.00210348038805,-0.118625795697,-0.00906626663033,0.0362255113748,-0.0133581436924,0.574060997862,0.818797730715,0.00223468347283,0.0,0.818757086283,-0.574000031728,-0.0118972323827,0.0,-0.00845888135213,0.00865956674589,-0.999926726931,0.0,0.656707950483,0.25438773294,0.303469947863,1.0,-0.01424,-0.0187154285714,0.713
0.461233664957,0.519145666693,-0.124066320535,-1.40071680473,0.0768885252466,1.91064732638,0.15339003883,-0.00829102669738,-0.0824756310326,0.00536811365427,-0.120168206181,-0.00546112037075,0.0478798001156,-0.0185589376383,0.574033093105,0.81881733042,0.00222133395059,0.0,0.818776522925,-0.573972194905,-0.0119025999024,0.0,-0.00847123425144,0.00865142889313,-0.999926692797,0.0,0.656434414449,0.254062957871,0.30348123481,1.0,-0.0146,-0.0191885714286,0.731
0.461075061512,0.517935873987,-0.124069056786,-1.40257578012,0.0767685830089,1.91132413878,0.153134405964,-0.010146646413,-0.0850832458445,-0.000288211352683,-0.127888917363,-0.00432061886415,0.0405248157458,-0.0143120654014,0.574021708962,0.818825257158,0.00224115645323,0.0,0.818784739313,-0.573960765301,-0.011888543435,0.0,-0.00844846642147,0.00865947344362,-0.999926815789,0.0,0.656209034897,0.25377908397,0.303504197951,1.0,-0.0149,-0.0195828571429,0.746
0.460888689187,0.51651864736,-0.124073854385,-1.40483782088,0.0766248639001,1.91215841001,0.152820864906,-0.00861035172875,-0.0762700276303,-0.0011107934412,-0.127962626892,-0.0100593230158,0.0522373619651,-0.0257487877154,0.57400190808,0.818839177298,0.00222668875182,0.0,0.818798499048,-0.5739410532,-0.0118925316907,0.0,-0.00846024566417,0.00864971182394,-0.999926800685,0.0,0.655933203559,0.253437558912,0.303494248733,1.0,-0.01526,-0.020056,0.764
0.460703500571,0.515136005831,-0.124073018569,-1.40702262364,0.0764948159773,1.91297653798,0.15252542958,-0.00888465531759,-0.0781598149826,0.00107610541947,-0.129525690168,-0.00741099284682,0.0496145940083,-0.016815098213,0.573991339204,0.818846547142,0.002240904411,0.0,0.818805998325,-0.573930371988,-0.0118916827236,0.0,-0.0084515029534,0.00866075561172,-0.999926779024,0.0,0.655668380477,0.25310995573,0.303494787067,1.0,-0.0156,-0.0205028571429,0.781
0.460510200511,0.513728701392,-0.124078464279,-1.40927441166,0.0763589153001,1.91376142299,0.152224867716,-0.0187909861211,-0.0861497681602,-0.000999099266392,-0.136926807108,-0.00391335588496,0.0453753624099,-0.0225939508618,0.573988906747,0.81884838871,0.00219046533064,0.0,0.818807080049,-0.573928037696,-0.0119297991944,0.0,-0.00851169125558,0.00864130729061,-0.999926436754,0.0,0.655384582768,0.252762676015,0.303477620298,1.0,-0.01594,-0.0209497142857,0.798
0.460323748546,0.512346905588,-0.124076226264,-1.4115390175,0.0762292853154,1.91456900068,0.151894099697,-0.0104560322338,-0.0801914307757,-0.000370904643836,-0.133814099011,-0.00386964123642,0.0453246406188,-0.0200269946319,0.573952917548,0.818873771478,0.0021311319833,0.0,0.818831500063,-0.573892105474,-0.0119821817685,0.0,-0.00858901991963,0.00862241219151,-0.99992593863,0.0,0.655096904815,0.252425102576,0.303437826696,1.0,-0.01628,-0.0213965714286,0.815
0.460155513979,0.511160738821,-0.124076490855,-1.41343720323,0.0761140447104,1.91528885029,0.151632092608,-0.0121979594858,-0.0838789753733,0.000836145954036,-0.137350465394,-0.00804490909892,0.0484847376541,-0.0194468620087,0.573944654087,0.818879549931,0.00213627026933,0.0,0.81883732788,-0.573883804001,-0.0119815222816,0.0,-0.00858561796469,0.00862615458054,-0.999925935568,0.0,0.654868277858,0.252135301366,0.303427460359,1.0,-0.01656,-0.0217645714286,0.829
0.459930969544,0.509499456341,-0.124082582203,-1.41606759274,0.0759443686607,1.91627781563,0.151270117637,-0.0147984140157,-0.0879928610156,0.00103183693684,-0.140356365338,-0.00800614698819,0.05305784016,-0.0149442174789,0.573927821042,0.81889132469,0.00214510679005,0.0,0.818849298715,-0.573867017813,-0.0119674041305,0.0,-0.00856916236794,0.00862511142695,-0.999926085723,0.0,0.65454884832,0.251734141708,0.303424257132,1.0,-0.01694,-0.022264,0.848
0.459727364344,0.508005007391,-0.124090818441,-1.41845193212,0.0757885765054,1.91711480766,0.150933922189,-0.014250563674,-0.0952314254727,-0.000587814105002,-0.144324281892,-0.0145748792763,0.0470071649798,-0.0189297689946,0.573906547792,0.818906367069,0.00209362748848,0.0,0.818863677695,-0.573845969161,-0.0119928282896,0.0,-0.00861974970723,0.00859732371201,-0.999925890224,0.0,0.654246795141,0.251364542194,0.303407750882,1.0,-0.01728,-0.0227108571429,0.865
0.459525630255,0.506563027881,-0.124094676035,-1.42072143307,0.075646983802,1.91795046327,0.150626924133,-0.0131574384209,-0.0938998932875,0.000218188476474,-0.143106445072,-0.0121326636606,0.0469080672806,-0.0204812213328,0.573902338797,0.818909306395,0.00209769484315,0.0,0.818866662594,-0.573841736217,-0.0119915624144,0.0,-0.0086164231014,0.00859988366523,-0.999925896881,0.0,0.653967424145,0.25101387179,0.30340844928,1.0,-0.0176,-0.0231314285714,0.881
0.459305232277,0.504956085172,-0.124103505339,-1.42317550775,0.0754972204957,1.91890433961,0.150286719898,-0.0140705765341,-0.0999968090994,-0.00034663857476,-0.147687585312,-0.00675253607151,0.0594204377136,-0.0174366377113,0.573897008817,0.818912812496,0.00218533770529,0.0,0.818871380975,-0.573836115318,-0.0119382191727,0.0,-0.00852249902396,0.00864098514419,-0.999926347481,0.0,0.653677086688,0.250635060971,0.303446432953,1.0,-0.01794,-0.0235782857143,0.898
0.459084590653,0.503289036711,-0.124104268784,-1.42564179251,0.0753414589985,1.91984326464,0.149942163028,-0.0129259890807,-0.0971142172734,-2.30087425257e-05,-0.143933149741,-0.0113706125138,0.0558655891151,-0.0141964948632,0.573880785925,0.818923860741,0.00230233724701,0.0,0.818884012083,-0.573819486977,-0.0118708896919,0.0,-0.00840039057254,0.00869799013127,-0.99992688653,0.0,0.653379920549,0.25025829442,0.303518333724,1.0,-0.01828,-0.0240251428571,0.915
0.45885608688,0.501588030403,-0.12410569589,-1.42816372733,0.0751735164057,1.92076215228,0.149582456483,-0.0133265796597,-0.0980358974796,0.00150325083915,-0.153556543424,-0.00670615575411,0.0532338159268,-0.0165021589628,0.573857761541,0.818939770863,0.0023807810693,0.0,0.818901016611,-0.57379623816,-0.0118215468141,0.0,-0.0083152117113,0.00873367858102,-0.999927287413,0.0,0.65306792988,0.24986670666,0.303585066625,1.0,-0.01862,-0.024472,0.932
0.458616638664,0.499859989021,-0.12410368174,-1.4307830255,0.0750075956313,1.9216772183,0.149219377906,-0.0225582559003,-0.104455018492,-0.00100686330599,-0.155555763044,-0.00914340306642,0.0544068593067,-0.0227932448573,0.573843424924,0.818949754229,0.00240221164428,0.0,0.8189111967,-0.573781735157,-0.0118202884891,0.0,-0.00830203702754,0.00875036131409,-0.999927251033,0.0,0.652733120183,0.249459023807,0.303623275373,1.0,-0.01896,-0.0249188571429,0.949
0.458366804162,0.498194077657,-0.124106190316,-1.43341351165,0.0748455147209,1.92265341462,0.148835300321,-0.0147421027891,-0.0974505766587,0.000575758610356,-0.15687139759,-0.010784085657,0.0576189948575,-0.025429116838,0.573825346625,0.818962396922,0.00241058093836,0.0,0.818923912888,-0.573763589928,-0.0118200962141,0.0,-0.00829727050254,0.00875692177947,-0.999927233164,0.0,0.652408413523,0.249044558338,0.303617748287,1.0,-0.0193,-0.0253657142857,0.966
0.458106535595,0.496505436004,-0.124108476113,-1.43609236122,0.0746769120368,1.92360388034,0.148439116378,-0.0184092250073,-0.0999648255328,0.000717935483825,-0.15616269239,-0.0120113674239,0.0552835153391,-0.0263102499254,0.573805581865,0.818976348255,0.00237531458942,0.0,0.818937327821,-0.573743881414,-0.0118473010942,0.0,-0.00833999774553,0.00874344961901,-0.999926995598,0.0,0.65206911642,0.248615404365,0.303602169894,1.0,-0.01964,-0.0258125714286,0.983
0.457848715152,0.494930443417,-0.124105697676,-1.4386473971,0.0745221054991,1.92448551365,0.148080453534,-0.0190137780801,-0.102714916366,0.00303709612108,-0.157549978456,-0.00484866623307,0.0590694544075,-0.0143578682026,0.5738078802,0.81897496755,0.00229478734774,0.0,0.818934701091,-0.573746289995,-0.0119120513789,0.0,-0.00843920864527,0.00871467772577,-0.999926414367,0.0,0.651739344289,0.248201725494,0.303559680413,1.0,-0.01996,-0.0262331428571,0.999
0.457586333416,0.493292435481,-0.124123657317,-1.44129457088,0.0743503301868,1.92544762722,0.147705188693,-0.0134266090615,-0.115568036929,-0.00159745478225,-0.177107120835,-0.0118622027397,0.0612464863576,-0.0251357677462,0.573808679645,0.818974532935,0.00224954859302,0.0,0.818933758988,-0.57374735479,-0.0119255256676,0.0,-0.00847619245185,0.00868536864295,-0.999926356555,0.0,0.651386927298,0.247739817372,0.30352674148,1.0,-0.0224571428571,-0.0295151020408,1.016
0.457276283074,0.491171935317,-0.124153577993,-1.44465740026,0.0741493944558,1.92669421001,0.147228927127,-0.0191942154906,-0.118985073933,-0.00120226861356,-0.195545653729,-0.011280936233,0.0670473049411,-0.0270603446881,0.573814669511,0.818970350584,0.00224428605069,0.0,0.818929493195,-0.573753349872,-0.011930028814,0.0,-0.00848283656155,0.00868370476749,-0.999926314663,0.0,0.650991785481,0.247227660208,0.303508208474,1.0,-0.0252645714286,-0.0332048653061,1.033
0.456942360532,0.489091338419,-0.124167762358,-1.44803722986,0.0739500800455,1.92788181075,0.146744539541,-0.0265237118626,-0.145229178224,-0.00282100876756,-0.216704116315,-0.0091190429777,0.072412641414,-0.0333120025294,0.5738161714,0.818969545764,0.00215208078148,0.0,0.818927273677,-0.573755014108,-0.012002129583,0.0,-0.00859477694974,0.0086495802243,-0.999925654522,0.0,0.650556366218,0.246677448908,0.30344983367,1.0,-0.0279068571429,-0.0366775836735,1.049
0.456538062728,0.486585671149,-0.124183754382,-1.45192052921,0.0737053785993,1.92937400195,0.1461744779,-0.0222083434293,-0.149888053242,0.000522290037243,-0.235174404443,-0.0140859067371,0.0909547901203,-0.0317593962382,0.573828429054,0.818960714658,0.00224248928411,0.0,0.818919787087,-0.573767067064,-0.0119365812667,0.0,-0.00848908806654,0.00868613575866,-0.999926240494,0.0,0.650060273591,0.24599396104,0.303472958265,1.0,-0.0308794285714,-0.0405843918367,1.067
0.456066682996,0.483681149046,-0.124223374087,-1.45638847398,0.0734280168442,1.93098199835,0.145484995014,-0.0279374561156,-0.164953894131,-0.0052534166734,-0.257399774317,-0.0173573405314,0.0823797443125,-0.0440749955811,0.573813386724,0.818971168281,0.00227368459003,0.0,0.818930629626,-0.573751883007,-0.0119225629822,0.0,-0.00845986739819,0.00870348376515,-0.999926337294,0.0,0.649530773551,0.245283700868,0.303502444761,1.0,-0.0336868571429,-0.044274155102,1.084
0.455615853387,0.480843443419,-0.124280103243,-1.46079756262,0.0731538706549,1.93251688553,0.144836298748,-0.0265848601039,-0.181630369884,-0.00389072609458,-0.288711352372,-0.0181962179068,0.105673504666,-0.0402720998233,0.57383348959,0.818957189847,0.0022347983868,0.0,0.818916155023,-0.573772150907,-0.0119413896746,0.0,-0.00849738545454,0.00868264897759,-0.9999262003,0.0,0.648966593575,0.244533192089,0.303506596026,1.0,-0.0363291428571,-0.0477468734694,1.1
0.454980173076,0.477036264676,-0.12431301453,-1.46663575802,0.072799660003,1.93464052747,0.143980471395,-0.0306073340408,-0.19518688383,-0.000117900055262,-0.300918895002,-0.0149299950287,0.100708516023,-0.0431108538634,0.573864794654,0.818935031721,0.002314774012,0.0,0.818894939427,-0.573803028473,-0.0119125814456,0.0,-0.00842756818251,0.00873193594625,-0.999926361983,0.0,0.648233435604,0.243547765589,0.303550117891,1.0,-0.039632,-0.0520877714286,1.12
0.454499655409,0.474160501624,-0.124340767516,-1.47102175598,0.0725319957697,1.93627901776,0.143356405471,-0.035094717217,-0.211185869145,-0.000946068364771,-0.326106289837,-0.0226140830637,0.113741376886,-0.0527330677577,0.573906521294,0.818905453943,0.00243088874053,0.0,0.818866882965,-0.573844305465,-0.0118527621528,0.0,-0.00831149993237,0.00879312107546,-0.999926797316,0.0,0.647651644093,0.242752614457,0.303598216786,1.0,-0.0421091428571,-0.055343444898,1.135
0.453913554002,0.470742733353,-0.124348928197,-1.47631535018,0.072211415412,1.93812290158,0.142557768887,-0.0337341306414,-0.217526466701,-0.000359796528023,-0.340289348311,-0.017831241528,0.11700653273,-0.0569762063623,0.573904575473,0.818906894468,0.0024048587285,0.0,0.818867650548,-0.57384210875,-0.0119059653884,0.0,-0.00837002908685,0.00880231850063,-0.99992622818,0.0,0.646995244106,0.241915675322,0.303598033174,1.0,-0.0445862857143,-0.0585991183673,1.15
0.453268103259,0.466811332553,-0.124355745721,-1.48217092891,0.0718359726836,1.94036256317,0.141598211722,-0.0405890924045,-0.238047112302,-0.00428291035829,-0.354205086735,-0.0283257454509,0.135995144906,-0.0617644860183,0.573828367834,0.818959479999,0.00266857458979,0.0,0.818923817547,-0.573765078719,-0.0117542501797,0.0,-0.00809527556452,0.00893045342512,-0.999927354119,0.0,0.64626585236,0.240945311681,0.303718850075,1.0,-0.0473937142857,-0.0622888816326,1.167
0.452576283247,0.462711038973,-0.124359256913,-1.48851613753,0.0714200537463,1.94253108914,0.140642378918,-0.042303529146,-0.24582725559,-0.00231944493328,-0.38918140945,-0.021300772091,0.120467621429,-0.0610137304168,0.57379850983,0.818980610611,0.00260316367626,0.0,0.818943839815,-0.573735181933,-0.0118184238609,0.0,-0.00818569100457,0.00891341046739,-0.999926770107,0.0,0.645410313354,0.239881898886,0.303713484666,1.0,-0.0502011428571,-0.065978644898,1.184
0.451833735967,0.458432877883,-0.12437314113,-1.49515465762,0.0709721617936,1.94483494154,0.139658435857,-0.043341081872,-0.250285979096,-0.000173930956665,-0.398483026529,-0.0314668641233,0.143259726957,-0.0586756759688,0.573796392013,0.818982280925,0.00254380505447,0.0,0.818944655013,-0.573733198382,-0.0118581617608,0.0,-0.0082523178392,0.00888757710044,-0.999926452407,0.0,0.644521711001,0.238752595014,0.30369899468,1.0,-0.0530085714286,-0.0696684081633,1.201
0.451030342907,0.45400139129,-0.124380459239,-1.50209404884,0.0705047603876,1.94731532958,0.138566755641,-0.0519013957581,-0.264918982483,-0.00161497039207,-0.421482869716,-0.0356061185992,0.149810848927,-0.0667628905684,0.573756659965,0.81901022889,0.00250739308608,0.0,0.818972089281,-0.573693568316,-0.0118808061063,0.0,-0.00829218609206,0.00887034736526,-0.999926275576,0.0,0.643602730153,0.237564494095,0.303657607582,1.0,-0.055816,-0.0733581714286,1.218
0.450240857275,0.44949335237,-0.124443427974,-1.50878666261,0.070030306468,1.94984931315,0.137506625534,-0.0522634457302,-0.282922363778,-0.00560674884691,-0.422987157636,-0.0257645955025,0.161991019357,-0.0654561624189,0.573755193379,0.819010425421,0.00276550592605,0.0,0.818976336761,-0.573691922278,-0.011665549291,0.0,-0.00796781148189,0.00895822587557,-0.999928129502,0.0,0.642759840902,0.236386006133,0.303786823611,1.0,-0.0584582857143,-0.0768308897959,1.234
0.449339034029,0.444572065205,-0.124474329937,-1.5163810394,0.0695309232627,1.95237466703,0.136384582188,-0.052102389447,-0.288650172827,0.000384461160303,-0.465781038046,-0.0324726097195,0.145925929228,-0.0704539323921,0.573800943495,0.818978787578,0.00264000788322,0.0,0.818942710976,-0.573737714474,-0.0117736158681,0.0,-0.00812782604579,0.00891789880353,-0.999927202113,0.0,0.641708771995,0.235051848824,0.303763914223,1.0,-0.0612657142857,-0.0805206530612,1.251
0.448387737692,0.439498058349,-0.124497772918,-1.52429477651,0.0689685168794,1.9550497162,0.135115798514,-0.0588461644706,-0.301874725446,-0.00267765691584,-0.467201617235,-0.0379987389854,0.159047019108,-0.0664201595895,0.573752770051,0.819013045143,0.00247742731499,0.0,0.818974806434,-0.573690104786,-0.011860733472,0.0,-0.00829297956813,0.00883424932682,-0.99992658857,0.0,0.640612706686,0.233657080728,0.303700575849,1.0,-0.0640731428571,-0.0842104163265,1.268
0.44730908022,0.433830491159,-0.124518267886,-1.53279616897,0.0684164461377,1.95814437057,0.133727504926,-0.0592681299209,-0.319996337072,-0.00466225652173,-0.472097069082,-0.0349115049284,0.175985641557,-0.0705176251114,0.573735123418,0.81902470667,0.00269905943994,0.0,0.818989288575,-0.573671568496,-0.0117568533054,0.0,-0.0080809352505,0.00895599288334,-0.999927241692,0.0,0.639482537096,0.232152473684,0.303791652046,1.0,-0.0670457142857,-0.0881172244898,1.286
0.446340760919,0.429035630504,-0.124546708826,-1.54018301323,0.067879022343,1.96076336002,0.132550593165,-0.0673996140217,-0.316733423837,-0.00146260398832,-0.506550599675,-0.0342893292318,0.172213720012,-0.0852072488251,0.573754415774,0.819011224509,0.00268912797241,0.0,0.818975952556,-0.57369119888,-0.011727930953,0.0,-0.0080627332729,0.00893145527309,-0.999927608099,0.0,0.638484764706,0.230806250965,0.303770994707,1.0,-0.0695228571429,-0.0913728979592,1.301
0.445066078657,0.422669221155,-0.12466463444,-1.55000589501,0.0671562357011,1.96395021555,0.130926580128,-0.068926963007,-0.337443935744,-0.00742476814776,-0.528342665238,-0.0389038263935,0.16990249123,-0.0917957632049,0.573769803357,0.819001301241,0.0024141710165,0.0,0.818962658059,-0.57370782274,-0.0118425391327,0.0,-0.0083141862359,0.00877217615365,-0.999926958949,0.0,0.637097320818,0.228960472057,0.303704939546,1.0,-0.0726605714286,-0.0954967510204,1.32
0.443999235675,0.417420530648,-0.124717010297,-1.55785929979,0.0666068775925,1.96670462729,0.129683801221,-0.0696366243091,-0.359441362085,-0.00299483486928,-0.522412005728,-0.0366393600728,0.190958825821,-0.0881056257866,0.573840270836,0.818951605408,0.00252160022892,0.0,0.818914516224,-0.573778043764,-0.0117693888128,0.0,-0.00819187873545,0.00881889408653,-0.999927557491,0.0,0.63602171244,0.227501362516,0.303768613992,1.0,-0.0751377142857,-0.0987524244898,1.335
0.442725414105,0.411356360337,-0.124726066341,-1.56692197923,0.0659972995533,1.96998799298,0.128107260088,-0.0817187641837,-0.354491210197,-0.000380623032375,-0.548468690491,-0.0355642379311,0.188352572364,-0.0956466771573,0.573804057871,0.818976204564,0.0027615993167,0.0,0.818942167344,-0.573740908768,-0.0116551728195,0.0,-0.00796101997193,0.00894954789529,-0.999928261304,0.0,0.634785395611,0.225834509901,0.303846349425,1.0,-0.0779451428571,-0.102442187755,1.352
0.441479942002,0.405516215087,-0.124788295306,-1.57589061167,0.0653484304798,1.97290436161,0.126666452376,-0.0761529542959,-0.36961719561,-0.0044613353042,-0.572996162079,-0.0425625453176,0.187423288087,-0.0880315256287,0.573870825007,0.818930077396,0.00255957884528,0.0,0.81889326937,-0.573808224441,-0.0117763256474,0.0,-0.00817543728387,0.00885428207604,-0.99992737932,0.0,0.633485817606,0.224137157011,0.303779119091,1.0,-0.0805874285714,-0.105914906122,1.368
0.440080402769,0.39909865234,-0.124848812619,-1.58551149039,0.064677467252,1.97625904735,0.125026997276,-0.0834711935678,-0.389324151693,-0.00276470041727,-0.55963551714,-0.0393348246944,0.208791374528,-0.0974989726272,0.57391524255,0.818898588649,0.00267259785795,0.0,0.818863279103,-0.573852259892,-0.011715837726,0.0,-0.00806056184891,0.00891256169032,-0.999927794187,0.0,0.632136663394,0.222303800131,0.30381908819,1.0,-0.0833948571429,-0.109604669388,1.385
0.438617329035,0.392483780443,-0.124863401576,-1.59540845214,0.063912342483,1.97964707104,0.123341470905,-0.0895209747856,-0.380599179529,0.000125161389433,-0.593975816993,-0.0430094790788,0.191278884858,-0.0895889687359,0.573912270941,0.818900516839,0.00271950091145,0.0,0.818866149665,-0.573849495154,-0.0116504397197,0.0,-0.00798012052478,0.00891340916808,-0.999928431846,0.0,0.630717365871,0.22042112623,0.303851479078,1.0,-0.0862022857143,-0.113294432653,1.402
0.437112641895,0.385764170008,-0.124904875555,-1.60571641679,0.0631574828857,1.98291536384,0.121549302492,-0.0846962854386,-0.397018800088,0.000735246075419,-0.608971227782,-0.0453473689579,0.196631431976,-0.108499401947,0.573887545701,0.81891873501,0.00243664510194,0.0,0.818880214748,-0.573825284547,-0.0118525781765,0.0,-0.00830824971749,0.00879753684413,-0.999926785486,0.0,0.629162257266,0.218450663154,0.303739217811,1.0,-0.0890097142857,-0.116984195918,1.419
0.435557799766,0.378747491902,-0.124918159248,-1.6159247413,0.0624296894547,1.98647200528,0.119721585729,-0.0872125455015,-0.407366078807,0.000291176642861,-0.610094510573,-0.0394997636855,0.206489028199,-0.107572260568,0.57385112701,0.818943293023,0.00274112080269,0.0,0.818908704909,-0.573787723285,-0.0117016465851,0.0,-0.008010317747,0.00895990327316,-0.999927774863,0.0,0.627684674896,0.216507514794,0.303883328976,1.0,-0.0918171428571,-0.120673959184,1.436
0.433878187807,0.371676070199,-0.124943592623,-1.62657370814,0.0616137810117,1.98995221045,0.117820696611,-0.0938547983536,-0.420552249641,-0.00152537511607,-0.634467628887,-0.0452930533727,0.198330978264,-0.103231196418,0.573844972294,0.818947967074,0.00263095024541,0.0,0.818911849945,-0.57378185532,-0.0117690877974,0.0,-0.00812883551821,0.00890831970636,-0.999927279292,0.0,0.626087254084,0.214418357434,0.303837320587,1.0,-0.0946245714286,-0.124363722449,1.453
0.43225865133,0.364803442152,-0.125035352167,-1.63674671108,0.0608253697168,1.99325200096,0.116066873692,-0.0983007175706,-0.446114206224,-0.00654775421011,-0.62665507908,-0.0571755931471,0.218193348505,-0.112738231512,0.573941633894,0.818880351307,0.00259191591458,0.0,0.818843913283,-0.573878850845,-0.0117667809708,0.0,-0.00814829688854,0.00887599095678,-0.999927408386,0.0,0.624556980001,0.212378193921,0.303858146739,1.0,-0.0972668571428,-0.127836440816,1.469
0.430478437551,0.357363619943,-0.125051627817,-1.64768539545,0.0599852397565,1.99691372387,0.113988043664,-0.108682861868,-0.441261012792,-0.00113888885952,-0.646322617,-0.0451757421156,0.206274398055,-0.122688767446,0.57385009924,0.818944130725,0.00270578168692,0.0,0.818909214332,-0.573786965575,-0.0117031500193,0.0,-0.00803183839342,0.00893181532051,-0.999927853521,0.0,0.62290554374,0.21022477758,0.303907719085,1.0,-0.100074285714,-0.131526204082,1.486
0.428568270843,0.349851780568,-0.125084500372,-1.65900403229,0.0591379351208,2.00049296899,0.111899891357,-0.118959219905,-0.441877834458,-0.00487953055853,-0.66248164828,-0.0528885139739,0.208239087386,-0.125097692023,0.573871307666,0.818929892748,0.00250996081419,0.0,0.818891815015,-0.573808221786,-0.0118771550844,0.0,-0.00828648072833,0.00887151569056,-0.999926312508,0.0,0.621142516599,0.207941475905,0.303805003818,1.0,-0.102881714286,-0.135215967347,1.503
0.426627527563,0.342029431287,-0.125156961132,-1.67019063452,0.0582753724395,2.00431764889,0.109796773715,-0.111960947999,-0.455660523596,-0.00188561902517,-0.66400948013,-0.0518471249281,0.225049931878,-0.126323706868,0.573916050951,0.818897367697,0.00286610213542,0.0,0.818864377045,-0.57385218071,-0.0116427489493,0.0,-0.00788964940702,0.00902908327671,-0.99992811196,0.0,0.619465222608,0.205654756932,0.303973759225,1.0,-0.105689142857,-0.138905730612,1.52
0.424608111459,0.334202759195,-0.125152854175,-1.68189299175,0.0573383239973,2.00795022413,0.107541252126,-0.12032746791,-0.464361197994,-0.00567719807652,-0.694073143173,-0.0534721262609,0.214620534192,-0.134321532502,0.573822330931,0.818963797317,0.0026416113404,0.0,0.818927427808,-0.573758749182,-0.0118115461321,0.0,-0.00815773811573,0.00894118905926,-0.999926750541,0.0,0.617584916482,0.203295219283,0.303869053126,1.0,-0.108496571429,-0.142595493878,1.537
0.422507835653,0.326039051421,-0.125153200048,-1.69357017385,0.0563503506878,2.0117118216,0.105253216222,-0.127338758959,-0.480386925572,0.00155614942955,-0.689377954984,-0.0564653111489,0.230643821178,-0.141320922057,0.573741047669,0.819020213744,0.0028011783056,0.0,0.818986334086,-0.573677368938,-0.0116793771266,0.0,-0.00795882658245,0.00899523800659,-0.999927868785,0.0,0.615740764964,0.200899909412,0.303988851589,1.0,-0.111304,-0.146285257143,1.554
0.420165406112,0.317385507833,-0.12516954643,-1.70623232669,0.0553484815862,2.01573597715,0.102814944787,-0.131919372721,-0.488936337675,-0.00190610932353,-0.703726895705,-0.054428696719,0.225521588813,-0.131754862383,0.573765099661,0.819003369218,0.00279973600547,0.0,0.818969143794,-0.573701053547,-0.0117213298262,0.0,-0.00799375102786,0.00901836100654,-0.999927381918,0.0,0.61370895727,0.198269627838,0.303967398109,1.0,-0.114276571429,-0.150192065306,1.572
0.418140298121,0.309998663234,-0.125248001221,-1.71687919275,0.0544713660578,2.01905402345,0.100588455205,-0.136259582317,-0.507865565326,-0.00582231086483,-0.703200890302,-0.0602927333831,0.231013069105,-0.148035516716,0.573713240542,0.819039637012,0.00281736232603,0.0,0.819005710114,-0.573649218166,-0.0117033414324,0.0,-0.00796947626015,0.00902197147177,-0.999927543114,0.0,0.611991459835,0.195988160409,0.304000608886,1.0,-0.116753714286,-0.153447738775,1.587
0.415612894266,0.301009563322,-0.125297415209,-1.72987093073,0.0533841368852,2.02310896059,0.0979281053314,-0.14250922741,-0.509094836335,-0.0072508100532,-0.73956581064,-0.0551810306891,0.221798327376,-0.147204119679,0.573687235469,0.819057832391,0.0028231116803,0.0,0.819024011929,-0.573623232481,-0.0116962362489,0.0,-0.00796064472857,0.00902235140179,-0.999927610035,0.0,0.609869838911,0.193207695225,0.304005594611,1.0,-0.119726285714,-0.157354546939,1.605
0.412931235857,0.291826338885,-0.125383175701,-1.74302433852,0.0523342018016,2.02708143014,0.0952700833529,-0.146700017881,-0.516153041236,-0.0104671274758,-0.711593002678,-0.0643070485149,0.236724957552,-0.147501294737,0.573821349728,0.818963877581,0.00282359971569,0.0,0.81892953553,-0.573756729847,-0.011763404871,0.0,-0.00801389861984,0.00906259654726,-0.999926820709,0.0,0.607692241401,0.190312798651,0.304030327418,1.0,-0.122698857143,-0.161261355102,1.623
0.41081794352,0.284650099589,-0.125446019652,-1.75330054321,0.0514489300253,2.03031946734,0.0930610449161,-0.150554160322,-0.506913894146,-0.00429838688976,-0.744237081261,-0.0703909648286,0.222126390256,-0.154039764109,0.573796248205,0.818981206691,0.00289750479309,0.0,0.818948123801,-0.573731713856,-0.0116892232586,0.0,-0.00791101609036,0.0090803133884,-0.999927479237,0.0,0.606000354566,0.188051655217,0.304046695564,1.0,-0.125010857143,-0.164299983673,1.637
0.407803384274,0.274684643787,-0.125471904975,-1.76756647323,0.0502057887341,2.03450524539,0.0900106764759,-0.166252576947,-0.542852805604,-0.00264715140888,-0.734092703409,-0.0683295411482,0.225632019569,-0.169177317196,0.573770346644,0.81899979616,0.00276949506273,0.0,0.818964719713,-0.573705893105,-0.0117933449076,0.0,-0.00807002680999,0.0090349642946,-0.999926619351,0.0,0.603559255442,0.184897640612,0.304020531944,1.0,-0.128148571429,-0.168423836735,1.656
0.404662082048,0.264547323437,-0.125625240204,-1.78185809202,0.0489325387312,2.03890237318,0.086874555544,-0.16654061016,-0.538499984653,-0.0138983766017,-0.761462889506,-0.0666516268241,0.217079822962,-0.165814350509,0.573851162745,0.818942717582,0.00290090266155,0.0,0.818910016874,-0.573786998214,-0.0116452499269,0.0,-0.00787244396069,0.00905839286064,-0.999927982479,0.0,0.601165973965,0.18161911806,0.30408382649,1.0,-0.131286285714,-0.172547689796,1.675
0.40240467652,0.257568177246,-0.125725535138,-1.79186048921,0.0480370626806,2.04174975777,0.0846819606348,-0.176599970282,-0.539773713168,-0.0114341169629,-0.778795291432,-0.0673011433756,0.211778337843,-0.168089648748,0.573939048358,0.818881747279,0.00272022869902,0.0,0.818846554856,-0.573875336006,-0.011754370519,0.0,-0.00806452257712,0.00897391490398,-0.999927213515,0.0,0.599426389237,0.179291862527,0.304019473113,1.0,-0.133433142857,-0.175369273469,1.688
0.399221558023,0.24768983161,-0.125765145688,-1.80564542201,0.0467634247801,2.04585174268,0.0815445050093,-0.18693596729,-0.539062651163,0.0037649193207,-0.776309927206,-0.069737605818,0.223443792077,-0.183575394644,0.57391736287,0.818896593721,0.0028242325739,0.0,0.818863144554,-0.573853731047,-0.0116530148875,0.0,-0.00792207032251,0.00900070083153,-0.999928111509,0.0,0.597036630857,0.176123922417,0.304083727574,1.0,-0.136405714286,-0.179276081633,1.706
0.395937651164,0.237688679109,-0.125778860581,-1.81965751183,0.045571899192,2.04984607089,0.0782870632852,-0.187931630937,-0.566289814546,-0.00022378757442,-0.783704806686,-0.0713157403635,0.225437482718,-0.184655249992,0.57387872698,0.818923649948,0.00283004897195,0.0,0.818889351825,-0.573814031437,-0.0117657848895,0.0,-0.00801151194287,0.00906980524444,-0.999926774474,0.0,0.59453238792,0.172917337826,0.304081684523,1.0,-0.139378285714,-0.183182889796,1.724
0.393344259172,0.229805085647,-0.125786527517,-1.83052062613,0.0445828718909,2.05307365948,0.0757705904285,-0.182980743701,-0.555504769621,0.000689585965715,-0.786818541967,-0.0745720661413,0.2295480145,-0.188748729088,0.573856104357,0.818938861199,0.00300998530728,0.0,0.818907048473,-0.57379096085,-0.0116587353091,0.0,-0.00782083963084,0.00915551088209,-0.999927502916,0.0,0.59260477376,0.170419433016,0.304152204645,1.0,-0.141690285714,-0.186221518367,1.738
0.389236265065,0.217784074142,-0.125823050764,-1.84719529964,0.0430089549279,2.05767788513,0.0717111235912,-0.200338995866,-0.580068206673,-0.00800012986757,-0.766130230446,-0.0697546482894,0.229380976797,-0.187445750599,0.573739972694,0.819020531485,0.00292568628393,0.0,0.818987382844,-0.573674852096,-0.0117293527608,0.0,-0.00792834073104,0.00912587438676,-0.999926927245,0.0,0.589554587861,0.166496457162,0.304148206947,1.0,-0.145158285714,-0.190779461224,1.759
0.386614922189,0.210259870664,-0.125914361844,-1.85748630879,0.04206609135,2.06061112283,0.0692130975606,-0.203039623051,-0.570656782382,-0.00942221426864,-0.804319286057,-0.0727639977636,0.224355814331,-0.205241443431,0.573798527063,0.818979080778,0.00304343389866,0.0,0.81894750277,-0.573733045202,-0.0116673669295,0.0,-0.00780936119889,0.00918730743416,-0.999927300987,0.0,0.587690579226,0.164011918101,0.304198639319,1.0,-0.147305142857,-0.193601044898,1.772
0.382836416635,0.199771856123,-0.12598246857,-1.87199211091,0.0406576635,2.0644463914,0.0655541184825,-0.214693346157,-0.595322495948,-0.00669116770324,-0.821197729573,-0.0791110051487,0.209242308031,-0.215284291279,0.573739384853,0.819021200191,0.00285285936749,0.0,0.818986788656,-0.573674161244,-0.0118043902947,0.0,-0.00803158883486,0.00910927313983,-0.999926254643,0.0,0.584968779767,0.160492383396,0.304144858638,1.0,-0.150277714286,-0.197507853061,1.79
0.378658919909,0.188520828226,-0.126126655451,-1.88730648925,0.039228033819,2.06868872245,0.0616208855997,-0.218231086227,-0.590074553062,-0.0111812986437,-0.775183847556,-0.0703905143136,0.216028374862,-0.210236132909,0.573834142557,0.818954362215,0.00297931974527,0.0,0.818921479388,-0.573768324105,-0.0117587308519,0.0,-0.0079205771237,0.00918756705845,-0.999926423828,0.0,0.582132602594,0.156675675742,0.304179425208,1.0,-0.153415428571,-0.201631706122,1.809
0.375650223136,0.180735262585,-0.126266864006,-1.89788015751,0.0382241029721,2.07144414167,0.0588482146019,-0.241359118395,-0.598342830427,-0.00930208943101,-0.767634878266,-0.0800540697541,0.217993362817,-0.210484568542,0.573967443022,0.818861077829,0.00294218783275,0.0,0.818827374832,-0.573901348925,-0.0118202719531,0.0,-0.00799078891319,0.0091937722167,-0.99992580817,0.0,0.580136882792,0.153953982953,0.304178193048,1.0,-0.155562285714,-0.204453289796,1.822
0.371009684066,0.168650575455,-0.126325203708,-1.91422041862,0.036530669102,2.075767994,0.0544985441907,-0.235084541624,-0.604246608197,0.000931409943216,-0.807232817071,-0.0880577262695,0.207091930386,-0.229441120789,0.573908810819,0.818902253743,0.00291934584635,0.0,0.818868649742,-0.573843261441,-0.0117810300283,0.0,-0.00797241859357,0.00915197392893,-0.999926338244,0.0,0.577000606051,0.149861519217,0.304177431047,1.0,-0.158865142857,-0.208794187755,1.842
0.367641621159,0.160078133811,-0.126344048899,-1.92569940766,0.0353982798683,2.07871791617,0.051310212853,-0.245397164309,-0.621501490406,-0.00741966191618,-0.774982929491,-0.0779900782458,0.219045753176,-0.229528264953,0.573836744864,0.818952652022,0.00294803182861,0.0,0.818919067907,-0.57377069661,-0.0118107929563,0.0,-0.00798113959981,0.00919184343304,-0.999925902967,0.0,0.574759652224,0.146966051218,0.304193215608,1.0,-0.161177142857,-0.211832816327,1.856
0.363186483259,0.148943501872,-0.126409157882,-1.94053521461,0.033836460288,2.08255188803,0.047205631868,-0.251954768975,-0.614487136783,-0.000884850262848,-0.797175071826,-0.0940003901571,0.201635563005,-0.237514956765,0.573815302945,0.818967519437,0.00299117275724,0.0,0.818934888631,-0.573749559485,-0.0117404461609,0.0,-0.00789901209814,0.00918660026988,-0.999926603298,0.0,0.571852586309,0.1431611329,0.30421702799,1.0,-0.164149714286,-0.21573962449,1.874
0.35906008414,0.138882763234,-0.126492244387,-1.95380156992,0.0325408120195,2.08580339677,0.0434333638076,-0.262081656109,-0.637521181451,-0.0107738029071,-0.842448242164,-0.0836508007741,0.220588402653,-0.245818847731,0.573871664378,0.818927817005,0.0030479930142,0.0,0.818895199658,-0.573804867754,-0.0118056181586,0.0,-0.00791914834669,0.0092710750865,-0.999925664365,0.0,0.569200906549,0.139700955768,0.304253688093,1.0,-0.166792,-0.219212342857,1.89
0.354792455583,0.128766241055,-0.126612634549,-1.96708861509,0.0311151500709,2.08909852362,0.039450280385,-0.275241867817,-0.6475507983,-0.0121498372489,-0.857400026522,-0.089150049195,0.202003751328,-0.246994307496,0.573832137374,0.818955331791,0.00309669970025,0.0,0.818923674635,-0.573765560839,-0.0117406651813,0.0,-0.00783845162321,0.0092733102329,-0.999926279479,0.0,0.566544053446,0.136153043808,0.304287656551,1.0,-0.169434285714,-0.222685061224,1.906
0.349796896874,0.117198773641,-0.126786998803,-1.98211232216,0.0294761810638,2.09274234401,0.0350103851369,-0.278167473218,-0.647699009886,-0.00699543455563,-0.807200896616,-0.0862718573765,0.20746898291,-0.25262040509,0.57397779469,0.818852915472,0.00318448218952,0.0,0.818822897706,-0.573911501595,-0.0116360401697,0.0,-0.00770074272545,0.00928653440419,-0.999927226772,0.0,0.563508926491,0.132056374386,0.304357178695,1.0,-0.172406857143,-0.226591869388,1.924
0.344944233374,0.106296795919,-0.126864990881,-1.99645042347,0.0279333755663,2.0960732374,0.0305667732666,-0.282612992493,-0.64611171523,-0.00337247565963,-0.862461352711,-0.0909227646045,0.191435845969,-0.254291538057,0.573933785272,0.818884177746,0.00307578642219,0.0,0.818852310297,-0.573867339622,-0.0117438212496,0.0,-0.0078518872094,0.00925896886498,-0.999926306966,0.0,0.560530956094,0.128183636081,0.304294897626,1.0,-0.175214285714,-0.230281632653,1.941
0.34029644786,0.0958111254167,-0.1268692737,-2.00980873592,0.0264598109283,2.09920399352,0.0262857138233,-0.291750747527,-0.661522657646,0.00135997093415,-0.835809788494,-0.0838091593206,0.196061965296,-0.276337331909,0.573791515503,0.81898318932,0.00325257579135,0.0,0.818953889062,-0.57372482606,-0.011623186034,0.0,-0.00765325783699,0.00933317481576,-0.999927157093,0.0,0.557739269538,0.124578126975,0.304393903091,1.0,-0.177856571429,-0.23375435102,1.957
0.335494345001,0.0853611615425,-0.126921367163,-2.02346105342,0.0250541268253,2.10214642889,0.0219060418738,-0.306133797436,-0.659787551342,-0.00114891791498,-0.864100371189,-0.09178884508,0.172366604481,-0.280942699703,0.573747423624,0.819014702817,0.00309149743649,0.0,0.818981767739,-0.573679450743,-0.0118953271431,0.0,-0.00796907270303,0.00935697348776,-0.999924467611,0.0,0.554795412815,0.120874861201,0.304289366873,1.0,-0.180498857143,-0.237227069388,1.973
0.330170143019,0.0740127710801,-0.127070135482,-2.0376562787,0.0233662935771,2.105393312,0.017101850285,-0.317336223635,-0.653862582033,-0.0105455558346,-0.828623162163,-0.0958456473781,0.19264220141,-0.283744417671,0.573730318835,0.819025782705,0.00332195957515,0.0,0.818997124097,-0.573663098339,-0.0116235633727,0.0,-0.00761445906861,0.00938964683801,-0.999926924603,0.0,0.55179957685,0.116811488969,0.304433282982,1.0,-0.183306285714,-0.240916832653,1.99
0.324593838647,0.0627145990867,-0.12725745353,-2.05222499911,0.0217374689554,2.10834193747,0.0121813218587,-0.338587087554,-0.665735194067,-0.0143951318839,-0.865644008787,-0.0908894886374,0.163586226357,-0.285652356036,0.573862930843,0.818933863918,0.00306757780055,0.0,0.81890078638,-0.573795227817,-0.0118863577925,0.0,-0.00797413293875,0.00933336168912,-0.999924647943,0.0,0.548601867143,0.112602572446,0.304313807215,1.0,-0.186113714286,-0.244606595918,2.007
0.318876322646,0.0511683864015,-0.127385151192,-2.06651640544,0.0200790964065,2.11142954788,0.00710187182169,-0.33761138105,-0.660618497047,-0.00619169912661,-0.828685955872,-0.0963296135466,0.178382346403,-0.30074169579,0.573896669188,0.818909289151,0.00330698324483,0.0,0.818879881485,-0.573828792725,-0.0117048383097,0.0,-0.00768770662903,0.00942557123836,-0.999926026151,0.0,0.545492860831,0.108420297145,0.304431743643,1.0,-0.188921142857,-0.248296359184,2.024
0.31305712558,0.0396806262412,-0.127448763806,-2.08103018467,0.0184154127847,2.11427957677,0.00192572491879,-0.345282838721,-0.671018940736,-0.00306030701459,-0.827692727228,-0.106495721396,0.1689356376,-0.311976142238,0.573859983018,0.818935514306,0.00317650765739,0.0,0.818903480015,-0.573791441002,-0.0118835833806,0.0,-0.00790938784169,0.00942094751433,-0.999924340804,0.0,0.542214845311,0.104241743716,0.304354762871,1.0,-0.18998,-0.249688,2.041
0.307053065504,0.0281198282438,-0.127519755602,-2.09522816089,0.0166637040405,2.11715419407,-0.00336740767263,-0.353406244111,-0.668253545231,-0.00405543516494,-0.817061127868,-0.097888614685,0.157291167723,-0.310527983598,0.573819281991,0.818963604201,0.00328534798532,0.0,0.818933677574,-0.573751197886,-0.011744852539,0.0,-0.00773378332336,0.00943008651711,-0.999925628266,0.0,0.538826934033,0.099767413265,0.304416922468,1.0,-0.18998,-0.249688,2.059
0.300898147565,0.0166197119472,-0.127661794853,-2.10932641934,0.0149765253098,2.11973333101,-0.00879527869474,-0.369550625954,-0.677736727234,-0.00617629939957,-0.830403720055,-0.103874431431,0.152971481544,-0.320049952348,0.573865135584,0.8189314678,0.00328696053734,0.0,0.818901160361,-0.573796550186,-0.0117964170718,0.0,-0.00777456021483,0.00946143044224,-0.999925015962,0.0,0.535775400221,0.095734600305,0.304439948423,1.0,-0.18998,-0.249688,2.075
0.294202643771,0.00455244941348,-0.127824940537,-2.12402942548,0.013183891794,2.12239916865,-0.0146262553075,-0.373363437088,-0.66638228387,-0.0030899744596,-0.845593081281,-0.0954790485232,0.142928770412,-0.321644324173,0.573971212014,0.818857063154,0.00330224219281,0.0,0.818826710918,-0.573902262023,-0.0118219302064,0.0,-0.00778545667956,0.00948959442638,-0.999924664293,0.0,0.532361006114,0.0911623514029,0.304450837157,1.0,-0.18998,-0.249688,2.093
0.287913718636,-0.00685485413966,-0.127834298104,-2.13763319932,0.0115230657559,2.12484645133,-0.0202264928201,-0.371589532251,-0.679952251663,-0.000176504586515,-0.784770849267,-0.0993149028069,0.152573097172,-0.331775609209,0.573840975965,0.8189475147,0.00349991009895,0.0,0.818919887669,-0.573771567701,-0.0117112159343,0.0,-0.00758286827298,0.00958670614039,-0.999925294797,0.0,0.529152600731,0.0870122789302,0.304548293038,1.0,-0.18998,-0.249688,2.11
0.281838126353,-0.0173789907409,-0.127873518286,-2.15042288181,0.00984654330087,2.12699554755,-0.0255231417476,-0.385565928458,-0.667159374061,0.000487888264741,-0.822002898266,-0.103481521426,0.12015050389,-0.32950260288,0.573783526771,0.818988360384,0.00335810390213,0.0,0.818958881671,-0.57371459017,-0.0117756553441,0.0,-0.00771768004802,0.00950700910899,-0.999925024286,0.0,0.526076801949,0.0830351280307,0.304484050713,1.0,-0.18998,-0.249688,2.126
0.275257804101,-0.0286664544415,-0.12800178071,-2.16362022159,0.00818130950345,2.12912715017,-0.0312951870206,-0.386801123267,-0.676883234315,-0.0103091302076,-0.754529862691,-0.10017931279,0.141234588294,-0.340531830169,0.573808578464,0.818970066502,0.00353445266884,0.0,0.818943023352,-0.573739234099,-0.0116774423452,0.0,-0.00753576665373,0.00959531668631,-0.999925568289,0.0,0.522884855131,0.0787825525509,0.30459899279,1.0,-0.18998,-0.249688,2.143
0.269267224801,-0.0384068563936,-0.128163224723,-2.17527366149,0.0066634261101,2.13093394795,-0.0364094527575,-0.39904229055,-0.655874456715,-0.0055766124916,-0.755953841205,-0.100098319639,0.106887152744,-0.347204944404,0.573967896709,0.818858821133,0.00343969481118,0.0,0.818830214398,-0.573898423131,-0.0117654926767,0.0,-0.00766038952138,0.00956972537198,-0.999924866572,0.0,0.520024904322,0.0749441572335,0.304542632121,1.0,-0.18998,-0.249688,2.158
0.260919230818,-0.0521094160542,-0.128211133817,-2.19120942775,0.00463503494623,2.13336518368,-0.0437576718088,-0.402308253378,-0.658251518211,0.0040965635521,-0.740035545778,-0.106782094778,0.121231336621,-0.352657744778,0.573878303708,0.818920863813,0.00361361945338,0.0,0.818894453363,-0.573808187648,-0.0116955094234,0.0,-0.0075043167317,0.0096711582356,-0.999925074157,0.0,0.516056042048,0.0697836433854,0.304612716486,1.0,-0.18998,-0.249688,2.179
0.255624623625,-0.0604061871943,-0.128275316587,-2.2010301861,0.00331484918467,2.13472687551,-0.0483945082038,-0.397183827337,-0.639183685684,-0.00156191262923,-0.770377519402,-0.0987655815263,0.102199177965,-0.366285949516,0.573841291045,0.818947388227,0.00347777355511,0.0,0.818918792054,-0.5737710992,-0.0118103617413,0.0,-0.00767676674812,0.00962547266831,-0.999924205892,0.0,0.513558315341,0.0665366561612,0.30453876072,1.0,-0.18998,-0.249688,2.192
0.248181692566,-0.0719940481204,-0.128418318147,-2.21441084715,0.00153025871732,2.13648294752,-0.0548899414548,-0.42053158259,-0.650288700617,-0.0114471882497,-0.712431670172,-0.10836005039,0.10840725548,-0.364099356813,0.573866834394,0.818929561033,0.00346083071408,0.0,0.818900340189,-0.57379619251,-0.0118705181291,0.0,-0.00773545564555,0.00964635783275,-0.999923552331,0.0,0.510118565584,0.0620227649355,0.304539177906,1.0,-0.18998,-0.249688,2.21
0.241366306904,-0.0821820076897,-0.12856732485,-2.22608031501,-2.60752898319e-05,2.13799569714,-0.0608023782395,-0.42253000062,-0.633294525255,-0.00777228474553,-0.721480716223,-0.0935780471576,0.0828462552915,-0.375493623764,0.57395602435,0.818866867272,0.00350466798367,0.0,0.818837954068,-0.573884885389,-0.0118865554989,0.0,-0.0077223791596,0.00969230190562,-0.999923209124,0.0,0.507097468774,0.0579623754825,0.30454484003,1.0,-0.18998,-0.249688,2.226
0.234191137791,-0.0929550403203,-0.128606248061,-2.23839784685,-0.00163514141186,2.13939092406,-0.0671138096406,-0.433233217956,-0.641848981775,-0.00287003864128,-0.715597400158,-0.0931241557079,0.0842992987783,-0.368571328202,0.573878876064,0.818921158751,0.00345228312304,0.0,0.818890414679,-0.573806511848,-0.0120549827276,0.0,-0.00789128981902,0.00974532912466,-0.999921374962,0.0,0.503816946727,0.0538013001678,0.304508279874,1.0,-0.18998,-0.249688,2.243
0.227249119515,-0.103059206854,-0.128686358138,-2.24968737951,-0.00329965749465,2.14074428534,-0.0731676066011,-0.435019237862,-0.619485003303,-0.00654959627065,-0.703666736369,-0.109179729537,0.0760349423294,-0.37686371348,0.573824478906,0.818959008158,0.00351529033178,0.0,0.818930097984,-0.573753151337,-0.0118980186409,0.0,-0.00772722941261,0.00970633827959,-0.9999230355,0.0,0.500819126623,0.0498114766325,0.304563529794,1.0,-0.18998,-0.249688,2.259
0.219709280415,-0.113683825515,-0.128878429445,-2.26177538239,-0.00497249353886,2.14190447165,-0.0796685771793,-0.449290253941,-0.626434196928,-0.0121583713294,-0.695791085876,-0.111879389608,0.0709382418339,-0.386945945488,0.573957723648,0.818866401919,0.00333079188224,0.0,0.818833727687,-0.573885401309,-0.0121498752031,0.0,-0.00803778650763,0.00970106622286,-0.999920638502,0.0,0.497510460415,0.0454981753638,0.304465011677,1.0,-0.18998,-0.249688,2.276
0.212063224955,-0.124358689298,-0.128975329945,-2.27336084531,-0.00657283935509,2.14317090418,-0.0863532670828,-0.446505381836,-0.612131366029,-0.00288760998876,-0.684451809471,-0.0864113027195,0.0683706927381,-0.39585769302,0.573972277137,0.818854964241,0.0036220874004,0.0,0.818826817305,-0.573899750867,-0.0119359171647,0.0,-0.00769521812321,0.0098169368593,-0.999922202658,0.0,0.494359001612,0.0412629803838,0.304593068057,1.0,-0.18998,-0.249688,2.293
0.204365317723,-0.13486585014,-0.129025591923,-2.2850105881,-0.00823818396986,2.14415124502,-0.0931234365747,-0.460792330891,-0.609957671184,-0.00805172416633,-0.683475369109,-0.101163171969,0.0484724784966,-0.403434669709,0.573876498173,0.818922525124,0.00352272487543,0.0,0.818892401143,-0.573803494415,-0.0120636664871,0.0,-0.0078580076695,0.0098079761445,-0.999921024541,0.0,0.491079950913,0.0370679507271,0.304549387147,1.0,-0.18998,-0.249688,2.31
0.196522200597,-0.14541420481,-0.129154029505,-2.29623002947,-0.00988057853891,2.14521786022,-0.100019722649,-0.461746600733,-0.616108699636,-0.0105332087542,-0.654140081633,-0.0994274697007,0.0635718657256,-0.409114934773,0.573861000867,0.818932115755,0.0038063591902,0.0,0.818906931919,-0.573788585976,-0.0117831387524,0.0,-0.00746568902888,0.00987912792784,-0.99992333022,0.0,0.487938838615,0.0328359107183,0.304692210817,1.0,-0.18998,-0.249688,2.327
0.188960941452,-0.155137230426,-0.12930986607,-2.30685742491,-0.0114323475354,2.14596609928,-0.106599207277,-0.464426493665,-0.61697499721,-0.00874601761666,-0.662521451495,-0.0968207571902,0.0453186586688,-0.414275041559,0.573932521133,0.818882375611,0.00372330507523,0.0,0.818855411096,-0.573859464185,-0.0119112545916,0.0,-0.00761740925978,0.00988529520821,-0.999922124975,0.0,0.484868294568,0.0287968604298,0.304642261993,1.0,-0.18998,-0.249688,2.343
0.180451716767,-0.166069266509,-0.129350471168,-2.31849824224,-0.013136124789,2.14670573354,-0.114080862689,-0.477879812689,-0.608091415734,-0.00229898237421,-0.632828951329,-0.0911760333824,0.0447919826698,-0.417958763032,0.573849351802,0.818940427329,0.00377423153075,0.0,0.818914041418,-0.573776017064,-0.0119005004849,0.0,-0.00758038336318,0.00992005667728,-0.999922062095,0.0,0.481456545505,0.0243878461262,0.304682033879,1.0,-0.18998,-0.249688,2.361
0.17321191211,-0.175078443164,-0.129431185664,-2.32811489329,-0.0145147046193,2.14732796001,-0.12049553689,-0.48574927312,-0.590799282916,-0.00362943882083,-0.641691629295,-0.092038502562,0.0309666326955,-0.421836804097,0.573801637974,0.818973572255,0.00383602758207,0.0,0.818947671936,-0.573727672674,-0.01191701049,0.0,-0.0075590270093,0.00997969813684,-0.999921630297,0.0,0.478612086242,0.0206772248773,0.304676203845,1.0,-0.18998,-0.249688,2.376
0.164762756175,-0.185259575416,-0.129645836255,-2.33892859934,-0.016174681131,2.14780195139,-0.127854630784,-0.502673106384,-0.592899750104,-0.00805778086313,-0.626326546327,-0.0880070743712,0.0245496731139,-0.43127471999,0.573917951255,0.818892461453,0.00375082718892,0.0,0.818864812936,-0.573843444401,-0.0120360439706,0.0,-0.00770398640543,0.00997931423397,-0.999920527783,0.0,0.475338436176,0.0163420302374,0.304641401914,1.0,-0.18998,-0.249688,2.393
0.156316408508,-0.195423193254,-0.129722864758,-2.34930047286,-0.0177541654756,2.14836580562,-0.135328552078,-0.493596845263,-0.593162448315,-0.0042905876104,-0.60726347314,-0.0960013395775,0.0313673522537,-0.431782986549,0.573858682662,0.818932757201,0.00401228329988,0.0,0.818909745779,-0.573784907952,-0.0117666722122,0.0,-0.00733406691743,0.0100382981805,-0.99992271903,0.0,0.472196484126,0.0121459603794,0.304774356159,1.0,-0.18998,-0.249688,2.41
0.147702296934,-0.205377899144,-0.129832909585,-2.35982462351,-0.0193328267136,2.14863266875,-0.142955674625,-0.505778241931,-0.587057825408,-0.00611164805209,-0.623280544755,-0.0988122250593,0.0113955673745,-0.448895479847,0.573823439732,0.818958155569,0.00386604998804,0.0,0.818931859669,-0.573748323878,-0.0120090369461,0.0,-0.00761690569592,0.0100572920286,-0.999920413645,0.0,0.468894948872,0.00791465836005,0.304682127983,1.0,-0.18998,-0.249688,2.427
0.138899167068,-0.215345337405,-0.130033718474,-2.3699584257,-0.0208608155523,2.14890102479,-0.150673168973,-0.520552891272,-0.582386731019,-0.0079650978952,-0.58159818178,-0.0917406459822,0.0199991787438,-0.443016530183,0.573959884232,0.81886183519,0.00401161590676,0.0,0.818837361235,-0.573884116836,-0.0119642463055,0.0,-0.00749500633678,0.0101520538663,-0.999920377171,0.0,0.465694101622,0.00362196464706,0.304739443587,1.0,-0.18998,-0.249688,2.444
0.129584352649,-0.225744870765,-0.130085643498,-2.3805699148,-0.0225493796855,2.14914664006,-0.158973324804,-0.525518381619,-0.577288909269,-0.00255101800732,-0.591625432088,-0.0864256721325,0.00857395380741,-0.478726099621,0.573823992883,0.818956945596,0.00403650256103,0.0,0.818933164919,-0.573748659893,-0.0119035107526,0.0,-0.00743266797467,0.0101363410429,-0.999921001898,0.0,0.462291186433,-0.000790782286911,0.30474684871,1.0,-0.18998,-0.249688,2.462
0.121095062771,-0.234879852493,-0.130190463893,-2.38994472468,-0.0240315900852,2.14915867439,-0.166511203324,-0.536736360172,-0.571098011728,-0.00658767032641,-0.583743978653,-0.0888115415416,-0.000989077600666,-0.478503842363,0.573789634964,0.818981570923,0.00392277929415,0.0,0.81895540085,-0.573713499848,-0.0120672453918,0.0,-0.00763244709796,0.0101368367832,-0.999919491905,0.0,0.459203346352,-0.00477589923423,0.304682108965,1.0,-0.18998,-0.249688,2.478
0.111867879699,-0.244627168969,-0.130391947637,-2.39945948018,-0.0255852975613,2.14925117324,-0.174643896331,-0.548511803862,-0.568244401793,-0.0112066486502,-0.56464829702,-0.0802588031004,0.00536728115678,-0.475077802557,0.57390606691,0.818898790045,0.00416472429937,0.0,0.8188769923,-0.573830716665,-0.0118121545036,0.0,-0.0072832525266,0.0101896602235,-0.999921559452,0.0,0.455866844619,-0.00933691001617,0.304806496437,1.0,-0.18998,-0.249688,2.496
0.103238432361,-0.253614012643,-0.130469017169,-2.40851465426,-0.0269609649322,2.14920957697,-0.182427644964,-0.544376836634,-0.564404862442,-0.0043345917848,-0.559102408391,-0.0889255617398,-0.013850650563,-0.488587748461,0.573795856954,0.818975981716,0.00417166821186,0.0,0.818953595652,-0.573719552663,-0.011900838681,0.0,-0.00735327499498,0.0102452518642,-0.999920478919,0.0,0.452995669204,-0.0129996829919,0.304763370515,1.0,-0.18998,-0.249688,2.511
0.0932189006354,-0.263652089379,-0.130649152933,-2.41850611189,-0.0285958104182,2.14904786598,-0.191279209285,-0.562984683453,-0.560048892901,-0.011179155313,-0.54604396389,-0.089392481932,-0.00872475964393,-0.481419513772,0.573881846166,0.818915885372,0.00414080027152,0.0,0.818892666366,-0.573805039999,-0.0119717979301,0.0,-0.00742802644856,0.0102614660383,-0.99991976015,0.0,0.449546586552,-0.0175298809068,0.304724934626,1.0,-0.18998,-0.249688,2.529
0.0847193467212,-0.271995810206,-0.130815247682,-2.42640143603,-0.0299184075151,2.1489481708,-0.198840816019,-0.56712219074,-0.554434444084,-0.00501285809495,-0.530314498081,-0.086601218078,-0.00678362535587,-0.498712922215,0.573957445954,0.818861613116,0.00438813172587,0.0,0.818843081844,-0.573881886001,-0.0116762638326,0.0,-0.00704311052799,0.0102950680856,-0.999922200057,0.0,0.446794308477,-0.0213306276157,0.304856148857,1.0,-0.18998,-0.249688,2.544
0.0740487548731,-0.28234269241,-0.130938387786,-2.43660896479,-0.0315847929008,2.14857835881,-0.208554587972,-0.573653913738,-0.555225684055,-0.0113284559704,-0.533212903814,-0.0862902489941,-0.0217365594243,-0.527455616245,0.573783869628,0.818983707111,0.00430178380469,0.0,0.818963136753,-0.573707293076,-0.0118350924182,0.0,-0.00722492222284,0.0103139860597,-0.999920707952,0.0,0.443137426448,-0.025985171121,0.304779617804,1.0,-0.18998,-0.249688,2.563
0.0641065521041,-0.291540260962,-0.131124856221,-2.4454456437,-0.0330144015146,2.14818687957,-0.217373183547,-0.593586412396,-0.544818771513,-0.010386430827,-0.508433334354,-0.0878150768313,-0.0165019262583,-0.523227625942,0.573933511602,0.818878467923,0.00437332060209,0.0,0.818858443508,-0.573856115716,-0.0118640150302,0.0,-0.00720566840929,0.0103904863582,-0.999920054872,0.0,0.439902235487,-0.0302892218178,0.304783193647,1.0,-0.18998,-0.249688,2.58
0.0541648348021,-0.300687297997,-0.131255808872,-2.45393202246,-0.0344512420361,2.14783600618,-0.226367009374,-0.577362109246,-0.532816552531,-0.00306494572908,-0.498666219479,-0.0820697550996,-0.0259206050231,-0.533060547082,0.573893666724,0.818905148354,0.00460045591244,0.0,0.818889462933,-0.57381760759,-0.0115822113066,0.0,-0.00684504165105,0.0104144230968,-0.999922339583,0.0,0.43675934727,-0.034520233692,0.304900365109,1.0,-0.18998,-0.249688,2.597
0.0441205880317,-0.309592917773,-0.131408948178,-2.4625279702,-0.0359004013098,2.14721772657,-0.235434559186,-0.600221994698,-0.522799735634,-0.00995911871629,-0.509231755155,-0.0752644570436,-0.0356255180828,-0.537975737201,0.57387828888,0.818916603489,0.00447805574021,0.0,0.81889812915,-0.573800822127,-0.0117990466647,0.0,-0.00709305971717,0.0104384891515,-0.999920360053,0.0,0.433660831305,-0.0384798112371,0.304813490461,1.0,-0.18998,-0.249688,2.613
0.0343642688772,-0.317944497796,-0.13158899315,-2.47038458189,-0.0372477079756,2.14664314983,-0.24412075605,-0.608016659446,-0.517934249079,-0.0102437210235,-0.478488901522,-0.0852526935666,-0.03449725299,-0.550640484745,0.574022225935,0.818815653856,0.00448954726225,0.0,0.818796957687,-0.573944150988,-0.0118490729377,0.0,-0.00712559420307,0.010477860594,-0.99991971695,0.0,0.430409832991,-0.0427939523275,0.304801424674,1.0,-0.18998,-0.249688,2.63
0.0247735677895,-0.326233813854,-0.131652343967,-2.47784060695,-0.0385007838427,2.14617846932,-0.253008394813,-0.595775001933,-0.507117920254,-0.00341079219838,-0.46265723336,-0.0761671784792,-0.0325594557671,-0.55217271589,0.573823185242,0.818953641223,0.00475736351875,0.0,0.818940053413,-0.573746779795,-0.0115138391452,0.0,-0.00669990748719,0.0105031056041,-0.999922394995,0.0,0.427488149992,-0.0466885645134,0.304933112692,1.0,-0.18998,-0.249688,2.646
0.0136164423938,-0.335281926201,-0.131828959573,-2.48638717396,-0.0399487995102,2.14533236606,-0.26312229753,-0.634523492524,-0.500524861095,-0.0119101654128,-0.470220703952,-0.0836890090736,-0.0501309413847,-0.572176793816,0.573858340713,0.818929613409,0.00465187890696,0.0,0.818913119047,-0.573779884753,-0.0117768505108,0.0,-0.00697539139077,0.0105679320235,-0.99991982815,0.0,0.424006331635,-0.051191178804,0.304836132364,1.0,-0.18998,-0.249688,2.664
0.00412748286866,-0.342837194863,-0.131976846184,-2.49328727411,-0.041164912126,2.14462396527,-0.271591960819,-0.620938746463,-0.498836060852,-9.35272845548e-05,-0.458027940591,-0.0784495310553,-0.0506720892242,-0.577414524929,0.574007387257,0.818825025562,0.00467373399834,0.0,0.818808698342,-0.573928656926,-0.0117880948294,0.0,-0.00697013137016,0.010593551524,-0.999919593735,0.0,0.421137452051,-0.054981193645,0.304841764457,1.0,-0.18998,-0.249688,2.679
-0.00774613392793,-0.352250497013,-0.132119767114,-2.5016524161,-0.0426628923746,2.14373502054,-0.282622925476,-0.639570633186,-0.503474740883,-0.0100924215008,-0.429978505624,-0.0803684147426,-0.0404007265334,-0.58044860375,0.573819185272,0.818956130157,0.00481106997928,0.0,0.818942546588,-0.573741536722,-0.0115974708122,0.0,-0.00673763885317,0.0105950451407,-0.999921171514,0.0,0.417597671446,-0.0596485275528,0.304928411843,1.0,-0.18998,-0.249688,2.698
-0.0175051968424,-0.359497253913,-0.132316727632,-2.50819478707,-0.0438402232001,2.14297429141,-0.29144102084,-0.653545686607,-0.485448399878,-0.0102705092656,-0.443030810349,-0.0876244002027,-0.0568154591596,-0.594380480798,0.573960600733,0.818856845409,0.00484173877816,0.0,0.818843501991,-0.573882587674,-0.0116121364525,0.0,-0.00673021742266,0.0106297398064,-0.99992085327,0.0,0.414743702486,-0.0634706255918,0.304921255841,1.0,-0.18998,-0.249688,2.713
-0.0297131319571,-0.368599066351,-0.132392018276,-2.51640260256,-0.0452968130092,2.14186684956,-0.302781744271,-0.639594602896,-0.482082423834,-0.0112062191085,-0.434900589619,-0.0729419227829,-0.0517605483487,-0.589949707485,0.573751758968,0.81900353914,0.00478213955121,0.0,0.818988745796,-0.573672908865,-0.0117292282624,0.0,-0.00686302768591,0.0106463887962,-0.99991977341,0.0,0.411099288361,-0.0681056390112,0.304883165977,1.0,-0.18998,-0.249688,2.732
-0.0389162473617,-0.375120668559,-0.132545185764,-2.52226030237,-0.0463097430992,2.14102908275,-0.311234881066,-0.666796427241,-0.46940301998,-0.0114222216819,-0.407705461071,-0.0786446767718,-0.0600070347745,-0.60250802478,0.57379318436,0.818974489454,0.00478686808537,0.0,0.818958837045,-0.573712888981,-0.0118613298223,0.0,-0.00696797277215,0.0107264046463,-0.999918192453,0.0,0.408418859666,-0.0715957852166,0.304844509021,1.0,-0.18998,-0.249688,2.746
-0.0516233250001,-0.383907578081,-0.132709817529,-2.52973339382,-0.0477610935111,2.14000453406,-0.322858350163,-0.66238494716,-0.453756960634,-0.00169398794677,-0.395285322586,-0.0785234356808,-0.058188992149,-0.626534242207,0.573847605152,0.818935418874,0.00494496466856,0.0,0.818923751861,-0.573769845219,-0.0115238993393,0.0,-0.00660018479399,0.0106627163474,-0.999921368929,0.0,0.404907547246,-0.0763849273276,0.304970478529,1.0,-0.18998,-0.249688,2.765
-0.0616502381209,-0.390679726133,-0.132867129132,-2.53572355269,-0.048851098403,2.13905288827,-0.332213025843,-0.675318187875,-0.448803285848,-0.00767433516325,-0.399018939763,-0.0853116559458,-0.0649900483574,-0.619356595437,0.573778871145,0.818983668348,0.00493000083757,0.0,0.818971124692,-0.573700070237,-0.0116307021213,0.0,-0.00669714220275,0.010711185688,-0.99992020621,0.0,0.402032989548,-0.0800968650098,0.304932062545,1.0,-0.18998,-0.249688,2.78
-0.0746991799655,-0.399116739529,-0.133075469201,-2.54307415698,-0.0502477699925,2.13775620202,-0.344217615981,-0.681254982263,-0.437650493784,-0.00800739781375,-0.386449190568,-0.0754970106011,-0.0721916933995,-0.631135884071,0.57385290082,0.818932036356,0.00489029156258,0.0,0.818918278493,-0.573773104043,-0.0117484096048,0.0,-0.00681536244891,0.010746814989,-0.999919025123,0.0,0.3983741629,-0.0848864518629,0.304904799717,1.0,-0.18998,-0.249688,2.799
-0.0848824034183,-0.405617593159,-0.133186036884,-2.5486738728,-0.0512889186613,2.13676842204,-0.353808593812,-0.683020226868,-0.430362374779,-0.0135312147962,-0.372097204287,-0.0758647329477,-0.0653334069044,-0.639463170143,0.57371221841,0.819030512957,0.00490471147646,0.0,0.819016739802,-0.573632078485,-0.01177137879,0.0,-0.00682775002533,0.0107706320105,-0.999918684352,0.0,0.395536611872,-0.0885547374251,0.30489956411,1.0,-0.18998,-0.249688,2.814
-0.0990058546546,-0.41408397655,-0.133413368225,-2.55571404795,-0.0525877776236,2.13554416893,-0.36677943158,-0.712377790787,-0.422286492447,-0.0102097134472,-0.347969851371,-0.065837603455,-0.0618902265478,-0.651658284624,0.573933980376,0.818873795433,0.00512252127057,0.0,0.818863911625,-0.573854838197,-0.0115440815007,0.0,-0.00651368762707,0.0108203967767,-0.999920242263,0.0,0.391806571327,-0.093643892712,0.304990799133,1.0,-0.18998,-0.249688,2.834
-0.108050187665,-0.419520428855,-0.133468349988,-2.56030690026,-0.0534206189828,2.13461710987,-0.375340031019,-0.699278041644,-0.421909926789,-0.00509500816312,-0.356276607204,-0.06661326803,-0.0776124193632,-0.662688558519,0.573792579262,0.818972729343,0.00514698724687,0.0,0.818962910614,-0.573712969416,-0.0115726688361,0.0,-0.00652493247072,0.0108557121631,-0.999919786168,0.0,0.389336397525,-0.0968096572738,0.304994711056,1.0,-0.18998,-0.249688,2.847
-0.121589756267,-0.427175315125,-0.133725066842,-2.56688938933,-0.0547262385922,2.13318019807,-0.387982283964,-0.722195187325,-0.398243840173,-0.0168733642803,-0.340738526443,-0.0669877541403,-0.0703459311925,-0.669960963453,0.573836733793,0.818942348207,0.00505768375861,0.0,0.818929858392,-0.57375493085,-0.0118284935526,0.0,-0.00678511392497,0.0109297227812,-0.999917248271,0.0,0.38565131467,-0.101573306291,0.304916790803,1.0,-0.18998,-0.249688,2.866
-0.131629128009,-0.432695125443,-0.133782225224,-2.5714969484,-0.0556008958008,2.13224911656,-0.397348882983,-0.7139641865,-0.387515664213,-0.0035813527815,-0.322218095493,-0.0567794024777,-0.070522341279,-0.669690159127,0.573826778136,0.818949104463,0.0050931222086,0.0,0.818937307846,-0.573745232255,-0.0117830889125,0.0,-0.00672772505776,0.0109326102238,-0.99991760448,0.0,0.383013436992,-0.105030897612,0.304924153356,1.0,-0.18998,-0.249688,2.88
-0.144663946949,-0.439544192803,-0.133964237878,-2.57713453463,-0.0567240937738,2.13097608722,-0.409673743434,-0.737509050534,-0.380177335086,-0.0101116851128,-0.302888586838,-0.0568417903626,-0.0652247296342,-0.675016160624,0.573777863845,0.818983090505,0.00513880623106,0.0,0.818971902916,-0.573696197919,-0.0117661220767,0.0,-0.00668827019495,0.0109598893205,-0.999917570537,0.0,0.379627437841,-0.109525547158,0.304943433329,1.0,-0.18998,-0.249688,2.898
-0.157897638695,-0.446332899878,-0.134093874709,-2.58252412141,-0.0578355025488,2.12973899536,-0.422101374715,-0.726289210891,-0.368123925789,-0.0061541839141,-0.297451157039,-0.0568368099493,-0.0682006558763,-0.693681797306,0.573781431874,0.818979945115,0.00524069059048,0.0,0.818971432774,-0.573701698263,-0.0115282527551,0.0,-0.00643493860932,0.0109068832457,-0.999919812516,0.0,0.376262510755,-0.114036413065,0.305041308796,1.0,-0.18998,-0.249688,2.916
-0.169702542178,-0.452111044091,-0.134271354122,-2.58739968849,-0.0587767833198,2.12852180411,-0.433278037749,-0.74261685268,-0.357499935955,-0.0152933163068,-0.30053727891,-0.0635791221106,-0.0800468087761,-0.708550508841,0.573773492263,0.818985694813,0.00521135001378,0.0,0.818975331623,-0.57369138843,-0.0117619698615,0.0,-0.00664330633864,0.0110168857383,-0.99991724393,0.0,0.373160995124,-0.117998268482,0.304967018735,1.0,-0.18998,-0.249688,2.932
-0.182425065323,-0.458073717458,-0.134410923617,-2.59226919447,-0.0597362277362,2.12726764712,-0.445312281918,-0.741605488842,-0.344967404857,2.75503185944e-05,-0.272669201098,-0.0513829583127,-0.0747623087723,-0.720855132465,0.573775360497,0.818984241348,0.00523402443051,0.0,0.818973598109,-0.573692226085,-0.0118415467873,0.0,-0.00669544999321,0.0110811289432,-0.999916186253,0.0,0.369911871309,-0.122231197452,0.304954008578,1.0,-0.18998,-0.249688,2.949
-0.195972651676,-0.464071193536,-0.134588138932,-2.59713822342,-0.0607250266637,2.12609558168,-0.458207257142,-0.769811449081,-0.325592082426,-0.0139467679261,-0.274513138228,-0.0489164261235,-0.0669530020395,-0.721237432753,0.573760152972,0.818994465924,0.00530080629111,0.0,0.818984803778,-0.573676976135,-0.0118053011339,0.0,-0.00662765337592,0.011114905181,-0.999916263041,0.0,0.366526103694,-0.126723179143,0.304949719843,1.0,-0.18998,-0.249688,2.967
-0.208223648754,-0.469248280843,-0.134713506034,-2.60130602427,-0.0616266972223,2.12496095243,-0.469707639121,-0.756446231434,-0.320414396994,-0.00624878297656,-0.252818187973,-0.0505523600258,-0.0687305898017,-0.713006439542,0.573858359424,0.818925769268,0.00528343147033,0.0,0.818915714796,-0.573774946947,-0.0118367739561,0.0,-0.00666206687147,0.0111195308278,-0.99991598292,0.0,0.363477396202,-0.130741442868,0.304943072636,1.0,-0.18998,-0.249688,2.983
-0.22195068812,-0.474977505313,-0.134899209158,-2.60569129409,-0.0625288781886,2.12374055793,-0.482896240388,-0.768300831375,-0.306191458112,-0.0126199943577,-0.237694422532,-0.0500154302002,-0.0686022477611,-0.7353451531,0.57381179862,0.818957384732,0.00543770718404,0.0,0.818950257544,-0.573729444182,-0.0116510706984,0.0,-0.00642208131314,0.0111389479914,-0.999917336938,0.0,0.360109824181,-0.135220978001,0.305031096668,1.0,-0.18998,-0.249688,3.001
-0.235131355139,-0.480089525,-0.135021831596,-2.60975111353,-0.0634508222617,2.12257825574,-0.4954458867,-0.768174430182,-0.299759183539,-0.00150899288303,-0.239585685379,-0.0573782732948,-0.0751035700666,-0.743595923368,0.573802665344,0.818963976176,0.00540868475963,0.0,0.818956501787,-0.573720457337,-0.0116546949763,0.0,-0.00644182627014,0.0111171866315,-0.999917452111,0.0,0.356870471901,-0.139468235328,0.305029048646,1.0,-0.18998,-0.249688,3.018
-0.247535633293,-0.484672776639,-0.135139461596,-2.613433561,-0.0642170387597,2.1215073477,-0.507381359554,-0.791579052737,-0.280810832725,-0.012724805485,-0.228762987531,-0.0476084796308,-0.0604639764166,-0.753037519699,0.573743426609,0.819005372785,0.00542463582741,0.0,0.818997516459,-0.573660162119,-0.0117402441363,0.0,-0.00650355077073,0.0111788663981,-0.999916364889,0.0,0.353824395518,-0.143417408101,0.304998483843,1.0,-0.18998,-0.249688,3.034
-0.260184360526,-0.488993538985,-0.13527676973,-2.61689835306,-0.0649581289363,2.12041921816,-0.519447452396,-0.781026157875,-0.267401524686,-0.00342799197102,-0.21226323813,-0.0427087616525,-0.0654997804721,-0.763128622336,0.573812592065,0.818956891258,0.00542829161546,0.0,0.81894812469,-0.573727663805,-0.0118862842352,0.0,-0.00662012077673,0.0112662057152,-0.99991461966,0.0,0.350756587408,-0.147431294737,0.304959420853,1.0,-0.18998,-0.249688,3.05
-0.274346694423,-0.49364410319,-0.135433478827,-2.62054736457,-0.0657086790677,2.11935995521,-0.533151228662,-0.791980999226,-0.256912765604,-0.0143737195945,-0.195016138019,-0.037445845494,-0.0603976954197,-0.764189473332,0.573778279288,0.81898023263,0.00553278222024,0.0,0.818972778389,-0.573692895061,-0.0118658044789,0.0,-0.0065438674525,0.0113397572288,-0.999914290179,0.0,0.347370871047,-0.151898546731,0.304956856391,1.0,-0.188629714286,-0.247913338776,3.068
-0.2870400482,-0.497566745825,-0.135505175752,-2.62359081605,-0.0663760194959,2.11837071425,-0.545304090716,-0.770141329507,-0.242557335184,0.00318268141742,-0.186663000129,-0.0400155518769,-0.0601635567043,-0.75144646279,0.573817184982,0.818952813966,0.00555640319612,0.0,0.818945490437,-0.57373140013,-0.0118874345517,0.0,-0.00654749105102,0.0113718245145,-0.999913902278,0.0,0.344354429586,-0.15585734776,0.304958412625,1.0,-0.185987428571,-0.244440620408,3.084
-0.30037456662,-0.501488300724,-0.135526814091,-2.62656647861,-0.0669878969189,2.11736617721,-0.558146068751,-0.796179790759,-0.223649900314,-0.00589041760586,-0.166225643027,-0.0406890629406,-0.051136279251,-0.750239163969,0.573807203454,0.81895936939,0.00562062753282,0.0,0.818952962264,-0.573721324991,-0.0118589102003,0.0,-0.00648741664678,0.0114079773048,-0.999913882031,0.0,0.341219278431,-0.159971820183,0.304985668124,1.0,-0.18318,-0.240750857143,3.101
-0.312217341835,-0.504644448309,-0.135532766272,-2.62896686159,-0.0675118155165,2.11658618345,-0.569435423532,-0.779724913721,-0.205731171673,0.00827780641865,-0.155156119378,-0.0351250150533,-0.0497674039736,-0.755528704978,0.573905249624,0.818890416939,0.00565653607431,0.0,0.818884806819,-0.573819805434,-0.0118004641075,0.0,-0.00641757810172,0.011404619324,-0.999914371009,0.0,0.338483904455,-0.163621010636,0.30500442256,1.0,-0.180702857143,-0.237495183674,3.116
-0.328470150599,-0.508745631344,-0.135513324445,-2.63204916443,-0.0681206235645,2.11560075645,-0.585096198695,-0.789096810991,-0.187071395882,-0.00448081656431,-0.141951803989,-0.0338351280998,-0.0514345782753,-0.737418460247,0.573941304603,0.818864346399,0.00577130554308,0.0,0.818860911415,-0.573856687442,-0.011664344665,0.0,-0.00623973382336,0.0114207655966,-0.999915312332,0.0,0.334751624121,-0.168581534676,0.305044203614,1.0,-0.177234857143,-0.232937240816,3.137
-0.338463633684,-0.511097607778,-0.135466546095,-2.63386312816,-0.0685256379186,2.11496180631,-0.594766125045,-0.750766909771,-0.173764854704,0.00658882417929,-0.136808425937,-0.0303689192177,-0.0536962432725,-0.743266551457,0.573896851302,0.818895591655,0.00575855320405,0.0,0.818891871822,-0.573812068211,-0.0116858692446,0.0,-0.00626530011161,0.0114223358918,-0.999915134528,0.0,0.332438112212,-0.171597373828,0.3050381963,1.0,-0.175088,-0.230115657143,3.15
-0.352847993081,-0.514173495571,-0.135381387861,-2.63628970466,-0.0689607408549,2.1140661388,-0.608745609916,-0.762699061332,-0.15181351565,-0.00467672694485,-0.127468803953,-0.0291581336367,-0.0505137549984,-0.733015632198,0.573844301643,0.818932071843,0.00580741595154,0.0,0.818927983572,-0.573757528952,-0.0118322692032,0.0,-0.00635789851651,0.0115459579882,-0.999913130217,0.0,0.32912310523,-0.175896985499,0.304998711651,1.0,-0.171950285714,-0.225991804082,3.169
-0.363473038571,-0.516239270293,-0.135336901726,-2.63791633956,-0.0693142142854,2.1134830727,-0.618933076769,-0.746638536297,-0.142390733157,0.0125935547571,-0.111568836564,-0.0209385333384,-0.0370297665269,-0.724768835454,0.573927497461,0.818873748929,0.00581015274272,0.0,0.818869283949,-0.573839950887,-0.0118976246418,0.0,-0.00640867811613,0.0115863526256,-0.999912338797,0.0,0.326692616226,-0.179079677027,0.304973189427,1.0,-0.169638285714,-0.22295317551,3.183
-0.376768972806,-0.518591531753,-0.135198337125,-2.6397567137,-0.0696778727889,2.11283775098,-0.631844571844,-0.743629483211,-0.122748491491,0.00792404441779,-0.095612472842,-0.0224678540728,-0.0435661143996,-0.708314779104,0.573883704271,0.818904334428,0.00582511198758,0.0,0.818899826762,-0.573795679512,-0.0119305827217,0.0,-0.00642770556517,0.0116171738705,-0.999911859052,0.0,0.323692157162,-0.183028706643,0.304951814006,1.0,-0.166665714286,-0.219046367347,3.201
-0.390030975654,-0.520760621625,-0.135123362978,-2.64136914369,-0.0700230293531,2.11220847832,-0.644690375635,-0.722623967987,-0.116056036984,0.0111914370235,-0.0853386186871,-0.0155281371223,-0.0343701268754,-0.706335602962,0.573931301098,0.818870640942,0.0058721310581,0.0,0.818866810118,-0.573843201519,-0.0119110980851,0.0,-0.00638408895066,0.0116448694495,-0.999911816324,0.0,0.32070546783,-0.186977504149,0.304964827289,1.0,-0.163693142857,-0.215139559184,3.219
-0.400050075904,-0.5222761239,-0.134999227514,-2.64249978774,-0.070251177727,2.11175803285,-0.654579972831,-0.720644850724,-0.101554095446,0.00922294784028,-0.0771695598199,-0.0194600731377,-0.0237827394535,-0.706142020167,0.573786385214,0.818972114348,0.00588276848848,0.0,0.818968407469,-0.57369824695,-0.0119086487726,0.0,-0.00637804009228,0.0116510463913,-0.99991178297,0.0,0.318293308623,-0.190139344085,0.304970683039,1.0,-0.161216,-0.211883885714,3.234
-0.414508570102,-0.524239887381,-0.134921780792,-2.64389222519,-0.0705649482453,2.11115788656,-0.668496444992,-0.710034014304,-0.0921199864811,0.0073498862842,-0.0688849611249,-0.0164708509564,-0.026541352411,-0.689246825604,0.573961389714,0.81884895177,0.0059551828486,0.0,0.818846585241,-0.573873672406,-0.0118332100533,0.0,-0.00627220975656,0.0116684114801,-0.999912249929,0.0,0.315218964615,-0.19421084278,0.305010099172,1.0,-0.158078285714,-0.207760032653,3.253
-0.424930432274,-0.525448105928,-0.134782906475,-2.6447829559,-0.0707284768139,2.110818042,-0.678795478748,-0.69512464239,-0.0775538556005,0.00734562601373,-0.0574352821976,-0.0179004950493,-0.0271622447026,-0.691640811479,0.573842602416,0.818931903981,0.00599593154475,0.0,0.8189303317,-0.573755250939,-0.0117800994534,0.0,-0.00620702157079,0.0116703978272,-0.999912633532,0.0,0.312910787277,-0.197267149338,0.305022281026,1.0,-0.155601142857,-0.204504359184,3.268
-0.437544538597,-0.526709453605,-0.13472031322,-2.64576048782,-0.0709409005714,2.11038854972,-0.690989941096,-0.691550549456,-0.0642841351882,-6.36384715033e-05,-0.0520047405396,-0.0139084060867,-0.0302722186037,-0.67993547921,0.573995323644,0.818824469359,0.00605010046237,0.0,0.818823164464,-0.573906912837,-0.0118417750511,0.0,-0.00622426053008,0.0117513121581,-0.999911578713,0.0,0.310078294471,-0.200975532256,0.305004344347,1.0,-0.152628571429,-0.20059755102,3.286
-0.449670008876,-0.527744129663,-0.1345276721,-2.64659191551,-0.0711002823664,2.11004998362,-0.702968671769,-0.676070250074,-0.0587817082101,0.00166784015917,-0.0465192904645,-0.0134942683125,-0.0194791065678,-0.647243637527,0.573863972664,0.818916444132,0.00606179091701,0.0,0.818914986648,-0.573774968711,-0.0118859928323,0.0,-0.00625565153211,0.0117852613964,-0.999910983257,0.0,0.307378547472,-0.204492400357,0.304980627053,1.0,-0.149656,-0.196690742857,3.304
-0.459847953645,-0.528445709926,-0.134429461757,-2.64713655224,-0.0712172476197,2.10980105324,-0.712805894413,-0.683324660769,-0.051001744094,0.00404334293093,-0.0381324892432,-0.0129275803659,-0.0154679221503,-0.648198028594,0.573992558498,0.818826045991,0.00609886023876,0.0,0.818824899793,-0.573903057349,-0.0119084485306,0.0,-0.0062509136363,0.011829487218,-0.999910490649,0.0,0.305115551446,-0.207465139247,0.304970571736,1.0,-0.147178857143,-0.193435069388,3.319
-0.471693958972,-0.529064810629,-0.134257473122,-2.64762793752,-0.0713275418084,2.10954565808,-0.724471270117,-0.642896556017,-0.032277509551,0.00983795528342,-0.02507765028,-0.00274523524232,-0.0116034937659,-0.640846067253,0.573944009935,0.818859942527,0.0061167708285,0.0,0.8188587413,-0.57385390116,-0.0119502644851,0.0,-0.00627558091143,0.0118677824714,-0.999909882351,0.0,0.30249695378,-0.210908517067,0.304955786677,1.0,-0.144206285714,-0.189528261225,3.337
-0.480745780077,-0.529435148099,-0.134143816432,-2.64790763883,-0.0713846651613,2.10938172219,-0.733405116581,-0.648840750263,-0.0236604281083,0.00886104407769,-0.0156127011446,-0.00293949091347,-0.0193805527867,-0.635948273412,0.573920017671,0.818876483731,0.00615342254061,0.0,0.818875651357,-0.573829557514,-0.0119604949304,0.0,-0.00626327288606,0.0119034845318,-0.999909535142,0.0,0.300497134072,-0.213541905635,0.304952690501,1.0,-0.141894285714,-0.186489632653,3.351
-0.492985197194,-0.529791686996,-0.133990337991,-2.64818994444,-0.0714632947083,2.10917328581,-0.745304887528,-0.634317126184,-0.0130312709749,0.0120695309248,-0.0124447291732,-0.00358101922812,-0.0128071399195,-0.634659991496,0.574040284329,0.818791946586,0.00618442202648,0.0,0.818791185684,-0.573949036727,-0.012010178507,0.0,-0.0062844153682,0.0119583067633,-0.999908748348,0.0,0.297780569334,-0.217093581304,0.304940520148,1.0,-0.138756571429,-0.182365779592,3.37
-0.502190477252,-0.529944679681,-0.133821969454,-2.64831305915,-0.0714821518985,2.10909031592,-0.754538011408,-0.61542135251,-0.012840025039,0.00486296341796,-0.00852196489846,-0.00190876567291,-0.00630179710096,-0.611022449978,0.57388372899,0.818901494072,0.00620930828589,0.0,0.818901099814,-0.573792490056,-0.0119964152915,0.0,-0.00626114848935,0.011969587378,-0.999908759336,0.0,0.295755930097,-0.219751675019,0.304937560365,1.0,-0.136279428571,-0.179110106123,3.385
-0.512762136505,-0.530050769588,-0.133693647461,-2.64840176652,-0.0715019971022,2.10900702538,-0.764800054247,-0.619523803303,-0.00406172484627,0.00425691403462,-0.00130315546849,-0.00117557187262,-0.00534267013559,-0.590196539892,0.574033317332,0.818796250105,0.00626085517933,0.0,0.818796521635,-0.573941816143,-0.0119914445467,0.0,-0.00622530309231,0.0120100863674,-0.999908497527,0.0,0.293403629961,-0.222808867396,0.304932071138,1.0,-0.133472,-0.175420342857,3.402
-0.522964284243,-0.530008499288,-0.133498981268,-2.64836039279,-0.0715163590113,2.10896165282,-0.774911010634,-0.592715758491,0.00676039751564,0.0125273198078,0.00104909314401,-0.000119604370837,0.00141621824875,-0.598621631878,0.573966955944,0.818842729288,0.00626618529216,0.0,0.818843222529,-0.573875740634,-0.0119648707086,0.0,-0.00620145505835,0.0119986947885,-0.999908782479,0.0,0.291152396527,-0.225749086452,0.304936501415,1.0,-0.130664571429,-0.171730579592,3.419
-0.532957638236,-0.529885298262,-0.133355766441,-2.64824755423,-0.0715251074662,2.10895242794,-0.784788367322,-0.582002697055,0.00936926214889,0.00503759574019,0.00407706984328,-0.000255404637793,0.00938927420171,-0.577675526257,0.573963573225,0.818844913005,0.00629062452585,0.0,0.818845999367,-0.573872790449,-0.0119162327808,0.0,-0.00614764670566,0.0119907671322,-0.99990920985,0.0,0.288932563997,-0.228637564925,0.304945667962,1.0,-0.127857142857,-0.168040816327,3.436
-0.542326351372,-0.529679568187,-0.13322801167,-2.64807953561,-0.0715236341956,2.10893812809,-0.79391741084,-0.585351955441,0.0203502932303,0.00363554635418,0.0149167157308,0.00298985852711,8.73316148207e-05,-0.565917568012,0.574079886271,0.818763190514,0.00631418561384,0.0,0.818764635779,-0.573989082897,-0.0119059150919,0.0,-0.00612396932226,0.0120050093999,-0.999909184251,0.0,0.286837523573,-0.231338652743,0.304948968326,1.0,-0.125214857143,-0.164568097959,3.452
-0.551743205983,-0.529291649323,-0.132996002576,-2.64780383291,-0.0715215205688,2.10896302637,-0.803404519978,-0.552410164551,0.0255509829967,0.0141191280183,0.0174146555654,-0.000431172134798,-0.000400606986148,-0.546068569325,0.573875518706,0.818906763261,0.00627287948027,0.0,0.81890756607,-0.573784726185,-0.0119261532289,0.0,-0.00616724384244,0.0119812665144,-0.999909203056,0.0,0.284755573532,-0.23403739627,0.304940667687,1.0,-0.122407428571,-0.160878334694,3.469
-0.561740768436,-0.528798673552,-0.132824973285,-2.64746917193,-0.0715187148584,2.10899453089,-0.813248031888,-0.555300237787,0.0292373354471,0.0130281771934,0.0221021645463,-0.000369500450602,0.00476059396759,-0.535419369908,0.573901544979,0.818888629804,0.00625903743143,0.0,0.818888891402,-0.573810106404,-0.0119871693106,0.0,-0.00622477756374,0.012005142347,-0.99990856017,0.0,0.282512034807,-0.236908847028,0.304919765256,1.0,-0.119434857143,-0.156971526531,3.487
-0.57047848116,-0.528238796943,-0.13268516095,-2.64703114289,-0.0715092963596,2.10911038846,-0.821776712438,-0.532051135543,0.0442159178184,0.0147993674512,0.0283589456506,0.000650828082335,0.00785820869917,-0.528457339432,0.574002832689,0.818817786116,0.00623923924089,0.0,0.818818127214,-0.573912106637,-0.0119379772899,0.0,-0.0061943724595,0.0119614652667,-0.999909272434,0.0,0.280573772241,-0.239446614443,0.304927750083,1.0,-0.116792571429,-0.153498808163,3.503
-0.57978512696,-0.527465633258,-0.132478066937,-2.64647523807,-0.0714701653555,2.10922752918,-0.831188294372,-0.517016401505,0.0402932800818,0.00831181706976,0.0316710815,0.000756652363304,0.00897567504112,-0.52430642875,0.573819045438,0.818946856134,0.00620458073327,0.0,0.81894651923,-0.573728067698,-0.011977056307,0.0,-0.00624895080502,0.0119541129657,-0.99990902076,0.0,0.278515022557,-0.242133892589,0.304913056035,1.0,-0.11382,-0.149592,3.521
-0.588621207558,-0.526702810587,-0.132302294953,-2.64588459538,-0.0714322651296,2.10935446538,-0.839834953673,-0.515083879761,0.0461986223421,0.006410922683,0.0367728450338,0.00671457664443,0.00879535030376,-0.504014058176,0.573899408641,0.818890776531,0.00617347349955,0.0,0.81889013165,-0.573808729484,-0.0119683397153,0.0,-0.00625849051332,0.0119242491906,-0.999909317677,0.0,0.276549602336,-0.244690574523,0.304917794059,1.0,-0.111012571429,-0.145902236735,3.538
-0.596178208343,-0.525907981323,-0.132149468552,-2.64527082805,-0.0713845051926,2.10948174782,-0.847301906535,-0.498005759881,0.0550137806029,0.0148251061334,0.0412976560783,0.0019082827632,0.0090856093958,-0.488797060666,0.573919958974,0.818876581572,0.00614587217322,0.0,0.818875557845,-0.573829353602,-0.0119766694413,0.0,-0.00628085320015,0.0119065833773,-0.999909387972,0.0,0.274877826943,-0.246889335243,0.304920602229,1.0,-0.108535428571,-0.142646563265,3.553
-0.604749102275,-0.524879195683,-0.131918942853,-2.64452488591,-0.0712553533797,2.10964558819,-0.856051508352,-0.479915598495,0.05707749111,0.0058181289082,0.0409999841664,0.00785608049548,0.0137051905545,-0.491359953002,0.573707687939,0.819025310672,0.00614623293898,0.0,0.819023870283,-0.573616329455,-0.0120396590666,0.0,-0.00633532790371,0.0119413863647,-0.999908629282,0.0,0.272991170375,-0.249361541269,0.304902698779,1.0,-0.105562857143,-0.138739755102,3.571
-0.611970418023,-0.524039541424,-0.131757864418,-2.64387811833,-0.0711628095527,2.10978901144,-0.863083866249,-0.477479116729,0.0516134469219,0.00693605309561,0.0445269158107,0.00262464217151,0.0126974490349,-0.471667025909,0.573824004125,0.818943837443,0.00614412766038,0.0,0.818942345303,-0.573732584175,-0.0120459049904,0.0,-0.00633995548198,0.0119441457127,-0.999908566994,0.0,0.27138196456,-0.251448192614,0.304905231669,1.0,-0.103085714286,-0.135484081633,3.586
-0.619948459238,-0.522996217553,-0.131600864366,-2.64303418304,-0.0710069731748,2.10997664293,-0.870932265139,-0.467397109425,0.069244459815,0.0124135047026,0.0545906481998,0.0107857562747,0.0155846775309,-0.462336434241,0.573932110959,0.818867792144,0.0061820628003,0.0,0.81886700689,-0.573840908551,-0.0120076476137,0.0,-0.0062852763673,0.0119540919576,-0.999908793334,0.0,0.269618416687,-0.253775265725,0.304926131398,1.0,-0.100278285714,-0.131794318367,3.603
