nelsonifechukwu/NELSON_IML_WORK/CNN-GradCAM/train2dof/data_sample_2022-02-21-14-46-56/robot_state.csv
position_joint1,position_joint2,position_joint3,position_joint4,position_joint5,position_joint6,position_joint7,velocity_joint1,velocity_joint2,velocity_joint3,velocity_joint4,velocity_joint5,velocity_joint6,velocity_joint7,ee_T_00,ee_T_10,ee_T_20,ee_T_30,ee_T_01,ee_T_11,ee_T_21,ee_T_31,ee_T_02,ee_T_12,ee_T_22,ee_T_32,ee_T_03,ee_T_13,ee_T_23,ee_T_33,v_x,v_y,time
0.465085432733,0.547878685105,-0.123987454429,-1.3558415618,0.0794605178358,1.89409706133,0.159158887257,-0.000843712173692,0.00111802360326,-0.00099484485221,-0.000339120213448,-0.000137954177368,-0.00229431514805,-0.00353909983116,0.573785280744,0.818991978345,0.00182699485854,0.0,0.818947567068,-0.573727553035,-0.0119299699778,0.0,-0.00872252035963,0.00834161476933,-0.999927164898,0.0,0.661670726228,0.26088990602,0.303140825477,1.0,0.0,0.0,0.0
0.465086377462,0.547886705808,-0.123981457243,-1.35583913268,0.0794619417801,1.89409837351,0.15916204074,-0.000456215441003,0.00344528864966,0.00135504434528,0.0015905784569,0.000381096138804,-0.000509839468732,-0.000967772719932,0.573783166843,0.818993463275,0.00182522935309,0.0,0.818948988972,-0.573725408617,-0.0119354878414,0.0,-0.00872807410915,0.00834331237943,-0.999927102273,0.0,0.661669627563,0.26089450355,0.303136217627,1.0,-4e-05,-5.25714285714e-05,0.003
0.465082563087,0.547878668245,-0.123987465112,-1.35584450688,0.0794625565115,1.89409791438,0.159157361396,-0.000787528498438,0.00175986904297,-0.00253911514503,-6.96401436828e-05,0.000385438470835,0.000376026860523,-0.0004470615654,0.573787095528,0.818990708194,0.00182641687004,0.0,0.818946268559,-0.573729350134,-0.0119326824064,0.0,-0.00872505503511,0.00834271708355,-0.999927133588,0.0,0.661670857828,0.260888039562,0.303139513999,1.0,-0.00036,-0.000473142857143,0.019
0.465085027824,0.547871931914,-0.123987793721,-1.35585105837,0.0794612282349,1.89409816021,0.159158516319,9.92167146979e-05,-0.000602533574236,-0.0010519076445,-0.00290070777172,-0.000327824418718,-3.7884601568e-06,-0.00359016917141,0.573786247872,0.818991302272,0.00182632318273,0.0,0.818946868922,-0.573728510155,-0.011931865747,0.0,-0.00872444856065,0.0083421627417,-0.999927143505,0.0,0.661669090407,0.26088859263,0.303141197837,1.0,-0.00068,-0.000893714285714,0.035
0.465086523141,0.547823914544,-0.123982983163,-1.35589286577,0.0794612250978,1.89410498923,0.159154654187,0.00112881015136,-0.0024680902156,-0.000231933066884,-0.00551962854536,-0.000620996605547,0.00225741348361,-0.00145015834883,0.573780745007,0.81899512485,0.00184093264333,0.0,0.818950821981,-0.573722888725,-0.0119308436342,0.0,-0.00871528537395,0.0083534824809,-0.999927128911,0.0,0.661660646688,0.260888500957,0.303155749904,1.0,-0.00104,-0.00136685714286,0.053
0.465080813974,0.547701817782,-0.123985337291,-1.35604131139,0.0794611268057,1.89412988971,0.159156057856,-0.00075785531556,-0.0099211092327,-0.000500881270735,-0.00869600529776,0.000104172755798,-0.000475142888712,0.00112115386074,0.573796249342,0.818984251692,0.0018457038583,0.0,0.8189399025,-0.573738266926,-0.0119408566845,0.0,-0.00872059054179,0.00836330033671,-0.99992700059,0.0,0.66163684517,0.260869019465,0.303173832405,1.0,-0.00138,-0.00181371428571,0.07
0.465073726875,0.547575765941,-0.123982256346,-1.35623443464,0.0794568120782,1.89416286661,0.159152444413,0.00125736835988,-0.00480464889102,-0.000299613274477,-0.0161419698367,0.000192106443228,0.000520656542757,0.000184578000201,0.573806339687,0.81897723342,0.00182279327919,0.0,0.818932450087,-0.573748324135,-0.0119686945079,0.0,-0.00875643231499,0.00836061832034,-0.999926709791,0.0,0.661603851564,0.260846377641,0.30317396397,1.0,-0.0017,-0.00223428571429,0.086
0.465050316663,0.547415978557,-0.123985284904,-1.35643351814,0.0794515754384,1.89428594469,0.159149083058,0.000170291424848,-0.0127349581646,-0.00520234562545,-0.0175721965379,0.000220546884107,0.00927515576578,0.00118690507227,0.57383493285,0.818957033839,0.00189564431782,0.0,0.81891322151,-0.57377662518,-0.0119275703847,0.0,-0.00868065839352,0.00839698641392,-0.999927065735,0.0,0.661594077246,0.260815131202,0.303203174589,1.0,-0.00202,-0.00265485714286,0.102
0.465028615602,0.54720878003,-0.123980727515,-1.35667080599,0.0794493896549,1.89442206239,0.159134730311,-0.000211995452791,-0.0122893172134,0.00526896405343,-0.00934268235913,0.000211620707306,0.00701609237227,-0.00487908303611,0.573850715917,0.818945743377,0.00199302472684,0.0,0.818903131846,-0.573791936618,-0.0118836453448,0.0,-0.00858864461124,0.00845169530082,-0.99992739938,0.0,0.661577030174,0.260786877468,0.303248665184,1.0,-0.00238,-0.003128,0.12
0.465002877385,0.547009710159,-0.12398071865,-1.35695730984,0.0794441413216,1.89454164786,0.159116046279,-0.000401075444499,-0.0163892266741,-0.000238024306034,-0.023962799649,0.00057135975406,0.00903767215024,-8.31111277292e-05,0.57387120098,0.818931306385,0.00202657566843,0.0,0.81888904092,-0.573812192719,-0.0118765756536,0.0,-0.00856339065916,0.00847532851566,-0.999927415939,0.0,0.66154742726,0.260745736433,0.303263674977,1.0,-0.0027,-0.00354857142857,0.136
0.464964647619,0.546758015755,-0.123977568536,-1.35733953936,0.0794363236827,1.89468044011,0.159082783201,-0.0020782935011,-0.019999517084,0.00140567543447,-0.0261483579578,-0.000257625604762,0.010381128944,-0.00248420437056,0.57389235477,0.818916442198,0.00204272758924,0.0,0.818874228695,-0.573833121283,-0.011886690028,0.0,-0.00856218600737,0.00849458105667,-0.999927262886,0.0,0.661503740915,0.260688361917,0.303271943169,1.0,-0.00304,-0.00399542857143,0.153
0.464926492422,0.546473712544,-0.123982867034,-1.35776645243,0.0794239935599,1.8948330977,0.158936521492,-0.00533372585259,-0.0202821864493,-0.000336289297333,-0.026413984667,1.55902852792e-05,0.00436899738949,-0.0122052859999,0.573828088587,0.818961435603,0.00205879710804,0.0,0.818919318571,-0.573768685599,-0.0118908367735,0.0,-0.00855702819326,0.00850944869548,-0.999927180624,0.0,0.66145557241,0.260621481962,0.303283496415,1.0,-0.00338,-0.00444228571429,0.17
0.464888067748,0.546200396289,-0.123983815226,-1.35822801872,0.0794025920945,1.89498967131,0.158927838528,-0.000706730693801,-0.0135284793841,0.000217022006078,-0.0292527227638,0.000178231105534,0.00964711718408,-0.000278703065067,0.573873182563,0.818929898682,0.00203427648152,0.0,0.818887388427,-0.573813801003,-0.0119127559907,0.0,-0.00858858149311,0.00850241824664,-0.999926969909,0.0,0.661399479379,0.260551474271,0.303270939495,1.0,-0.0037,-0.00486285714286,0.186
0.464832649848,0.545854935496,-0.123985693934,-1.35882430418,0.0793341413563,1.8951869591,0.158861872681,-0.00209339613643,-0.0138644350878,-8.1517722724e-05,-0.0364782033477,-0.00589750118877,0.00359690819569,-0.00081738096804,0.573880905744,0.818924644106,0.0019698221414,0.0,0.818881561261,-0.573822052272,-0.0119158656422,0.0,-0.00862803476288,0.00845150151561,-0.999927061909,0.0,0.661329701324,0.260449786815,0.30324880591,1.0,-0.00406,-0.005336,0.204
0.464767444247,0.545461941986,-0.123980430794,-1.35950261576,0.0792699093352,1.89542277306,0.158749688081,-0.00479222575683,-0.0208816903835,0.00143567649989,-0.0408416138489,-0.000115017016168,0.0166232045743,-0.00482744511466,0.573859528884,0.818939752816,0.00191553329014,0.0,0.81889611842,-0.573801056108,-0.0119265312387,0.0,-0.00866814240827,0.00841293834899,-0.999927040226,0.0,0.661250619192,0.260339954873,0.303224374765,1.0,-0.00442,-0.00580914285714,0.222
0.464722191388,0.545126798668,-0.123983611689,-1.36006745261,0.0792663903735,1.89560424672,0.158705737691,-0.00409646788916,-0.0220259015191,-0.00190423079018,-0.0392313030985,0.000829071195866,0.0231726701867,-0.00594571245494,0.573893268374,0.818916167879,0.00189034459511,0.0,0.818871898593,-0.573834601133,-0.0119754389958,0.0,-0.00872230340573,0.00842073601835,-0.999926503613,0.0,0.661178525204,0.260257284599,0.303208641468,1.0,-0.0047,-0.00617714285714,0.236
0.46464102194,0.544657975819,-0.123991509251,-1.36083514328,0.0792378036468,1.89587335501,0.158602599725,-0.00543453502831,-0.0258493566162,-0.00141411084905,-0.0421783955652,-0.00657198897002,0.0159180840132,-0.00629451854816,0.573915962325,0.818900304503,0.00187253172879,0.0,0.818855650919,-0.573857222154,-0.0120024347698,0.0,-0.0087544001808,0.00842188423615,-0.999926213449,0.0,0.661092556814,0.260127708007,0.30319866653,1.0,-0.00506,-0.00665028571429,0.254
0.46457353157,0.544183343327,-0.123988974848,-1.36161634532,0.0792029992943,1.89615610091,0.158515007717,-0.00329895695566,-0.0329063337708,0.000322982285576,-0.0442935759711,-0.000406332240028,0.0180045454314,-0.00049489518473,0.573932009466,0.818889089312,0.00185871409582,0.0,0.818844110993,-0.573873188314,-0.0120263264592,0.0,-0.00878173041313,0.00842445299944,-0.99992595216,0.0,0.661000643839,0.260011614987,0.303187152997,1.0,-0.0054,-0.00709714285714,0.271
0.464509044349,0.543736394758,-0.123987147095,-1.3623498152,0.0791690824579,1.89640647219,0.158415183005,-0.00282768948632,-0.0283277749574,0.000940014634001,-0.0485408485565,-0.00172618122988,0.0178797534785,-0.00864428336395,0.573933504354,0.818888097153,0.00183407264541,0.0,0.81884265225,-0.57387465198,-0.0120557692431,0.0,-0.00881996794579,0.00842118893273,-0.999925643107,0.0,0.660911757392,0.259900351306,0.303175934692,1.0,-0.0057,-0.00749142857143,0.286
0.4644191666,0.543163358707,-0.123995291443,-1.36326123067,0.0791044342305,1.89673463628,0.158300976458,-0.00633818974899,-0.0300654014088,0.00113333747151,-0.0534470932694,-0.00324813897917,0.02195381911,-0.00337682911167,0.573952726687,0.818874660963,0.00181770815616,0.0,0.818829113064,-0.573894049393,-0.0120519944831,0.0,-0.00882607093117,0.00840582929119,-0.999925718494,0.0,0.66081122549,0.259747380245,0.30317620039,1.0,-0.00606,-0.00796457142857,0.304
0.464347307579,0.542582138104,-0.123999168551,-1.36416972319,0.0790546245734,1.89705273114,0.158181274112,-0.00218504291661,-0.0347099015553,0.00183987270992,-0.0534871347014,0.000240513034046,0.0260931995747,-0.00562553989174,0.573953366146,0.818874225157,0.00181211618869,0.0,0.818828542432,-0.573894654572,-0.0120619423981,0.0,-0.00883742008867,0.0084069667593,-0.999925608691,0.0,0.660702940957,0.259610970302,0.303182583238,1.0,-0.0064,-0.00841142857143,0.321
0.464255955057,0.541978414006,-0.124005197489,-1.3651127051,0.078997984441,1.89741001234,0.15804713393,-0.00585613559126,-0.0366700672964,-0.000342483662043,-0.0562238701561,-0.00143423547228,0.0191560730961,-0.0051317180876,0.573959876153,0.818869632361,0.00182555896606,0.0,0.818824155717,-0.573901133692,-0.0120514589086,0.0,-0.00882105319827,0.00841202759935,-0.999925710647,0.0,0.660600903314,0.259458198132,0.30319184899,1.0,-0.00674,-0.00885828571429,0.338
0.464180962497,0.541277346121,-0.124012908566,-1.36617107445,0.0789386234632,1.8978068642,0.157911454313,-0.00514096542927,-0.0406691845771,-0.000491142865723,-0.0697138033591,-0.0038784796614,0.0232484795,-0.00278553895586,0.573958461323,0.818870546839,0.00185986459224,0.0,0.818825514149,-0.573899565325,-0.0120338356305,0.0,-0.00878694725825,0.00842998866669,-0.999925859676,0.0,0.660478827594,0.259305095798,0.303218415741,1.0,-0.0071,-0.00933142857143,0.356
0.464093054389,0.540625043865,-0.124005915574,-1.36717719517,0.0788762898636,1.89817611278,0.157793845531,-0.00856290670699,-0.0427099255065,0.000471774493277,-0.0628817892867,-0.00222262864964,0.0210859573957,0.000685050804263,0.573968300798,0.818863618673,0.00187365819235,0.0,0.818818732115,-0.573909311058,-0.0120305244811,0.0,-0.00877621789821,0.00843948860592,-0.999925873768,0.0,0.660361977291,0.259155201807,0.303232389609,1.0,-0.00742,-0.009752,0.372
0.463998822757,0.539932764368,-0.124014043135,-1.36822379033,0.0788077560908,1.89856423004,0.157661680649,-0.00603804661963,-0.044928913958,-0.000903945201584,-0.0621633824248,-0.00401195965364,0.0231345319496,-0.00588168503928,0.573982515872,0.8188535994,0.00189766297642,0.0,0.818809110378,-0.573923501885,-0.0120083990075,0.0,-0.00874417572201,0.00844659743064,-0.99992609446,0.0,0.660245858878,0.258988375562,0.303257374906,1.0,-0.00774,-0.0101725714286,0.388
0.463901346293,0.539175389571,-0.124014833469,-1.369393867,0.0787445544495,1.89901154562,0.157518144801,-0.00484602743087,-0.0467246596341,-0.000892144815115,-0.0694849941641,-0.00618990046861,0.0250833613742,-0.00793759959029,0.573993229678,0.818846013403,0.00193016016034,0.0,0.818801892888,-0.573934021389,-0.0119977580046,0.0,-0.00871669955259,0.00846721367893,-0.999926159995,0.0,0.660113362423,0.258814742735,0.303274387036,1.0,-0.00808,-0.0106194285714,0.405
0.463783955754,0.538362846613,-0.124014813789,-1.37065483823,0.0786817358847,1.89949897607,0.157362931393,-0.00636949166718,-0.0443707880732,0.000335364040829,-0.0722302917554,-0.00663916625617,0.0321024519607,-0.00682103833384,0.574015200999,0.818830517981,0.00196945327931,0.0,0.818786805349,-0.573955720793,-0.0119893643306,0.0,-0.00868704568115,0.00849480328623,-0.999926184053,0.0,0.659973978961,0.258621162937,0.303290435883,1.0,-0.00844,-0.0110925714286,0.423
0.463690866509,0.537664390495,-0.124023369887,-1.37175315441,0.0786172872754,1.89991795057,0.157226040224,-0.00558435187949,-0.0489887513963,-0.00153482914951,-0.0707748436692,-0.00245088372728,0.0285733010207,-0.00807705131145,0.574028741166,0.818820991829,0.00198357160222,0.0,0.818777494902,-0.573969230487,-0.0119784471953,0.0,-0.00866986186863,0.00850024040806,-0.999926286987,0.0,0.659851119284,0.258451562098,0.303297526119,1.0,-0.00874,-0.0114868571429,0.438
0.463574786472,0.536833128754,-0.12402119756,-1.37305012171,0.0785419603356,1.90040806102,0.157061538145,-0.00480834931529,-0.0497622501031,0.00055298044639,-0.0765216763681,-0.000812793966441,0.0327126145326,-0.017066613645,0.574038863683,0.818813841622,0.0020056546091,0.0,0.818770594624,-0.573979221452,-0.0119713667517,0.0,-0.0086512832924,0.00851436471168,-0.999926327732,0.0,0.659703748302,0.258254261221,0.303309524363,1.0,-0.00908,-0.0119337142857,0.455
0.463465309825,0.535971531071,-0.124030094114,-1.374403004,0.0784582754004,1.90090228842,0.156902852106,-0.00752692107396,-0.0481813568504,0.00175565465082,-0.0847901137993,-0.000830074152503,0.0255641569578,-0.00887722474445,0.574058694678,0.818799934152,0.00200743589037,0.0,0.818756708,-0.573999040157,-0.0119708773704,0.0,-0.00864965386098,0.0085157517931,-0.999926330016,0.0,0.659535835942,0.258035467231,0.303318906866,1.0,-0.00944,-0.0124068571429,0.473
0.463342901619,0.53506197168,-0.124036085021,-1.37582555361,0.0783817315279,1.901411144,0.15672711473,-0.00985510525397,-0.057372350969,-0.00170655457891,-0.0840694655749,-0.00286466126706,0.0296071929429,-0.0107388256322,0.57407471107,0.818788711326,0.00200479836942,0.0,0.818745394378,-0.574015010126,-0.0119789079817,0.0,-0.00865757695831,0.00851837157522,-0.999926239133,0.0,0.659378203455,0.257828621291,0.303325925529,1.0,-0.00976,-0.0128274285714,0.489
0.463219145258,0.534178460204,-0.124039264145,-1.3772946095,0.0782981483159,1.90194957457,0.156546569707,-0.00716082655823,-0.0536893655229,-0.000661006562069,-0.0817534998538,-0.00189229677463,0.0320856383588,-0.0170617243877,0.574088585443,0.818779080319,0.00196484011273,0.0,0.818735177637,-0.574028988779,-0.0120073245651,0.0,-0.00870363855347,0.00850211538531,-0.999925977615,0.0,0.65920452809,0.257605402637,0.303296778197,1.0,-0.0101,-0.0132742857143,0.506
0.463091178006,0.53325338828,-0.124037525976,-1.37877656951,0.0782187332836,1.90250786029,0.156357957685,-0.010403035766,-0.052063496078,-0.000627497133254,-0.0861182237637,9.10926580806e-05,0.0337507700869,-0.0124264284566,0.57409757462,0.818772763867,0.00197049887834,0.0,0.818728825531,-0.574037845686,-0.0120170239966,0.0,-0.00870823868064,0.00851241245327,-0.999925849958,0.0,0.659032268682,0.257383318056,0.303292178868,1.0,-0.01044,-0.0137211428571,0.523
0.462976432834,0.532414746717,-0.124037554173,-1.3801573016,0.0781297032075,1.90302323476,0.156199373392,-0.0100590414722,-0.0560608397319,-0.000558096336321,-0.101932245166,-0.00339458565796,0.0345940057015,-0.00613898130506,0.574113260906,0.818761831627,0.00194258172672,0.0,0.818717563202,-0.574053683094,-0.0120277816818,0.0,-0.00873291050088,0.00849589831281,-0.999925775238,0.0,0.658869911951,0.257175366278,0.303270963245,1.0,-0.01074,-0.0141154285714,0.538
0.462831321402,0.53130881273,-0.124037181447,-1.38193963427,0.0780385007243,1.90367070428,0.155966322518,-0.00821900869038,-0.0538480164276,-0.000318705916952,-0.101334103485,-0.00244925169423,0.0292734961617,-0.00825383378404,0.574113639574,0.818761604634,0.00192627433457,0.0,0.818716921149,-0.57405393591,-0.0120593777416,0.0,-0.00876813892101,0.00850069030333,-0.999925426221,0.0,0.658654730098,0.256912105859,0.303258283502,1.0,-0.01112,-0.0146148571429,0.557
0.462703009082,0.530332184488,-0.124039312682,-1.38349722482,0.0779339404273,1.9042120438,0.155765680334,-0.00555301828549,-0.0652586121861,-0.000302641587521,-0.0955653791973,-0.00595835549788,0.0409385482964,-0.0110947385034,0.574112257646,0.81876266549,0.00188682859763,0.0,0.818717496034,-0.574052754761,-0.0120765616306,0.0,-0.00880486815738,0.00847824487972,-0.99992529404,0.0,0.658463920968,0.256674137257,0.303252029633,1.0,-0.01144,-0.0150354285714,0.573
0.462569599822,0.52934307433,-0.124038009133,-1.38504996103,0.0778396812224,1.90479354075,0.155549295793,-0.010394349337,-0.0665886097642,-0.000723100895472,-0.0985984672326,-0.00459155838853,0.0370578946029,-0.0163842661224,0.574104137429,0.818768321948,0.00190296151846,0.0,0.818723369933,-0.574044571364,-0.0120673325235,0.0,-0.00878813407029,0.00848606797982,-0.99992537489,0.0,0.658270708115,0.25642124196,0.303264985069,1.0,-0.01178,-0.0154822857143,0.59
0.462431114515,0.528247927593,-0.124042882422,-1.38675628332,0.0777311968217,1.90544208897,0.15531090409,-0.00267304315103,-0.0656757213171,-0.000742710435937,-0.101462271463,-0.00457369727666,0.0431898035796,-0.0139950776646,0.574087334981,0.818780043654,0.00192842676083,0.0,0.818735471154,-0.574027705637,-0.0120485823853,0.0,-0.00875833704749,0.00849597351828,-0.999925552212,0.0,0.658083643007,0.256184249785,0.303275394458,1.0,-0.0121,-0.0159028571429,0.606
0.462284132782,0.527099864734,-0.124045039631,-1.38851190533,0.0776215898071,1.90612060564,0.155066807215,-0.0104436886235,-0.074931799295,-0.000586025210609,-0.105591899943,-0.00256591892273,0.0425448650902,-0.018641620624,0.574074861555,0.818788652413,0.00198567649912,0.0,0.818744887194,-0.574015046301,-0.0120117948292,0.0,-0.00869548052862,0.008521596002,-0.999925882763,0.0,0.657882082695,0.255921264618,0.303306745642,1.0,-0.01244,-0.0163497142857,0.623
0.462142748069,0.525996626288,-0.124041429087,-1.39020993505,0.0775109002469,1.90674866181,0.154846834276,-0.009375022257,-0.0709671884693,-0.000664602482004,-0.106717241376,-0.00482288180418,0.0374253525905,-0.013322149349,0.574069640053,0.818792252544,0.0020105829726,0.0,0.818748842536,-0.57400974951,-0.0119952996717,0.0,-0.00866773109034,0.00853246412288,-0.999926031011,0.0,0.65767955663,0.255668021387,0.303329109665,1.0,-0.01276,-0.0167702857143,0.639
0.461966997923,0.524773267744,-0.124046678266,-1.39216840533,0.0773882815165,1.90743425137,0.154577046259,-0.00888880660121,-0.0668966910261,0.00188411611693,-0.114689343114,-0.0134474726102,0.0392241152965,-0.0114538924381,0.574068436834,0.818793205357,0.00196560241455,0.0,0.818749176907,-0.574008706877,-0.0120223394426,0.0,-0.0087157047522,0.00851114483584,-0.999925795699,0.0,0.657441390282,0.255359716903,0.303317026416,1.0,-0.01312,-0.0172434285714,0.657
0.461815230013,0.523566609836,-0.124052331916,-1.39408395564,0.0772657373236,1.9081379608,0.154317487178,-0.0081068509646,-0.0749598945576,0.00104267902675,-0.11221032697,-0.00705694522187,0.0406114378603,-0.0152568561749,0.57405390547,0.81880341706,0.00195569087126,0.0,0.818759303284,-0.573994262762,-0.0120223334901,0.0,-0.00872154031953,0.00850287129465,-0.999925815205,0.0,0.657209810185,0.255073085673,0.303314871866,1.0,-0.01346,-0.0176902857143,0.674
0.461665960775,0.522420011197,-0.124061399359,-1.39589883146,0.0771708461784,1.9088511713,0.154068907283,-0.00827565235305,-0.0675170723664,-0.00215297768331,-0.11750710304,-0.00235842923963,0.0549531101367,-0.0149062342245,0.574051011544,0.818805344555,0.00199769235787,0.0,0.818761713555,-0.573991126023,-0.0120079375587,0.0,-0.00868567299035,0.00852896692928,-0.999925905159,0.0,0.657000282295,0.25480235422,0.303319080964,1.0,-0.01378,-0.0181108571429,0.69
0.461503178349,0.521166808549,-0.124058107207,-1.39789807388,0.077031238886,1.909625337,0.153796005721,-0.00796941249418,-0.0728779842125,0.00456681835253,-0.117971779683,-0.00694402688789,0.042978419447,-0.0119913294014,0.574027782359,0.818821600032,0.00200980159127,0.0,0.818778288873,-0.573968007684,-0.0119827679122,0.0,-0.00865835407964,0.00852418771606,-0.99992618284,0.0,0.656764721431,0.254506457915,0.303314959532,1.0,-0.01412,-0.0185577142857,0.707
0.461335964835,0.519871031846,-0.124070487123,-1.39994686559,0.0769061463139,1.91036073339,0.153521182705,-0.00784811329531,-0.0740334483229,-0.000675290306243,-0.125265446527,-0.00847082852363,0.0455858243029,-0.0106545085771,0.574023691707,0.818824511866,0.00199173984931,0.0,0.818780960989,-0.573963989725,-0.0119926361151,0.0,-0.0086768445187,0.00851501986449,-0.999926100672,0.0,0.656514023982,0.254192982325,0.30331394932,1.0,-0.01446,-0.0190045714286,0.724
0.461172660597,0.518583267724,-0.124069027628,-1.40190488199,0.0767813636682,1.91105602287,0.153260861128,-0.00564344158764,-0.0821196576804,0.000525990170768,-0.122605569795,-0.00620402039543,0.0417735540426,-0.0128716097777,0.5740132359,0.818831791882,0.00201209247701,0.0,0.818788481078,-0.573953424323,-0.01198485976,0.0,-0.00865890353626,0.00852711044901,-0.999926153162,0.0,0.65627171602,0.253898205776,0.303346154763,1.0,-0.01478,-0.0194251428571,0.74
0.460969271129,0.517068667382,-0.124077355578,-1.40428664095,0.0766219591098,1.91191940392,0.152925553411,-0.00783891459213,-0.0829892054999,-0.00200849655155,-0.128662856493,-0.0105081723922,0.0428313820375,-0.0230096296355,0.57399402613,0.81884528946,0.00199919888929,0.0,0.818801912116,-0.573934371231,-0.0119796968655,0.0,-0.00866227616566,0.00851338621797,-0.999926240893,0.0,0.655982127767,0.253529974112,0.303350346887,1.0,-0.01516,-0.0199245714286,0.759
0.46079849792,0.515800398226,-0.124083310929,-1.40633130115,0.0764990074264,1.91269195876,0.152644585948,-0.0111808770777,-0.082022475169,-0.00218928830093,-0.128259340728,-0.0019356082297,0.049811959506,-0.0201624924695,0.573983005402,0.818853029042,0.00199329890979,0.0,0.818809569877,-0.573923371963,-0.0119832505366,0.0,-0.00866868706714,0.00851047823354,-0.99992621009,0.0,0.655736169564,0.253221021022,0.303333870421,1.0,-0.01548,-0.0203451428571,0.775
0.460630569953,0.51456353504,-0.124081951217,-1.40829728161,0.0763749212895,1.91341866224,0.152383292692,-0.0133934453824,-0.0860061326337,0.000388426584005,-0.132101518198,-0.00383885362231,0.0464245177614,-0.019769047971,0.573986588233,0.818850559192,0.0019761430431,0.0,0.818806848088,-0.573926999342,-0.0119954929772,0.0,-0.00868852156611,0.00850349526327,-0.99992609735,0.0,0.655479598615,0.25289772448,0.303323182539,1.0,-0.0158,-0.0207657142857,0.791
0.460428595745,0.513094957811,-0.124087965933,-1.41069799042,0.0762341775059,1.91424255074,0.152051649994,-0.0127049325543,-0.0850688728714,-0.001393360179,-0.131260197375,-0.00828889035011,0.0499049561277,-0.0139685303054,0.57396147822,0.81886834327,0.0018986339636,0.0,0.818823467163,-0.573902076695,-0.0120533352298,0.0,-0.00878063373029,0.00847295928163,-0.999925551945,0.0,0.655188115497,0.252555656737,0.303286392516,1.0,-0.01614,-0.0212125714286,0.808
0.460237159692,0.511657699746,-0.124095655334,-1.41299740173,0.0761011946693,1.91508417992,0.151733039512,-0.0125538782412,-0.0804737220648,-0.00100809920382,-0.135921181673,-0.0141129072834,0.0495222101274,-0.0190277743712,0.573947334927,0.818878293285,0.00188266238006,0.0,0.81883311464,-0.57388791449,-0.0120722356279,0.0,-0.00880542405182,0.00847057685057,-0.999925354132,0.0,0.654903546536,0.252207400266,0.303271916531,1.0,-0.01648,-0.0216594285714,0.825
0.460030482318,0.510187584409,-0.124091508971,-1.41532213741,0.0759561253362,1.91597186616,0.151408177692,-0.015262142846,-0.0825359681551,0.000572425422304,-0.141854749227,-0.0122890951538,0.0495216591338,-0.0201504997569,0.573929895332,0.818890457394,0.00190812322256,0.0,0.818845613059,-0.573870367427,-0.0120586178597,0.0,-0.00877984075899,0.00848342294822,-0.999925470188,0.0,0.654623913105,0.251854723884,0.303271496307,1.0,-0.01682,-0.0221062857143,0.842
0.459838437952,0.508770482351,-0.124097207996,-1.41755501219,0.0758110433586,1.91677314647,0.151094386258,-0.0116654176111,-0.0889621084576,0.000748774464585,-0.140348006654,-0.00866833952819,0.0513591855815,-0.024512084361,0.573910947992,0.818903777839,0.00189032225679,0.0,0.818858723856,-0.573851522225,-0.0120651442312,0.0,-0.00879559722904,0.00847238835398,-0.999925425272,0.0,0.654345178889,0.251510370194,0.303270017433,1.0,-0.01714,-0.0225268571429,0.858
0.459620472165,0.507245773466,-0.124101116838,-1.41995304074,0.0756568582961,1.91764479327,0.15076585671,-0.0159937797253,-0.0880578538813,0.000743431872601,-0.141323714132,-0.00381148159231,0.0567773124586,-0.0201079945819,0.573907814333,0.818905985576,0.00188529503719,0.0,0.818860841728,-0.573848387678,-0.0120704906863,0.0,-0.00880289303743,0.00847130630766,-0.999925370237,0.0,0.654031363906,0.251115160937,0.303269315197,1.0,-0.0175,-0.023,0.876
0.459416288043,0.505767391827,-0.124108789532,-1.42224680873,0.0755198537913,1.91851341738,0.150450240649,-0.0116599820196,-0.0953342686412,-1.6197594819e-05,-0.142302066362,-0.0109739867217,0.0536221826136,-0.0156092909626,0.573901586819,0.818910249331,0.00192849364629,0.0,0.818865702264,-0.573842004228,-0.0120441994548,0.0,-0.00875663631178,0.00849152597125,-0.999925604886,0.0,0.653772525453,0.25078136615,0.303288075839,1.0,-0.0178,-0.0233942857143,0.891
0.459176938674,0.504019044421,-0.124113245832,-1.42487307888,0.0753534034415,1.91951986775,0.150081054249,-0.0148356841876,-0.0940042985888,0.000581795417627,-0.147069409423,-0.00770662440338,0.0482770655655,-0.0193402933981,0.573888758047,0.818918985124,0.00203373821572,0.0,0.818875896322,-0.573828811528,-0.0119794984854,0.0,-0.00864338757065,0.00854044314207,-0.999926173616,0.0,0.653459055082,0.250375120934,0.303346943693,1.0,-0.01816,-0.0238674285714,0.909
0.458948627363,0.502337303258,-0.124124840708,-1.42736699254,0.0751984116653,1.92045071104,0.149739700699,-0.00674820691937,-0.0984599022605,-0.000516246172596,-0.152824923117,-0.00910152272746,0.0549289744738,-0.0276715015006,0.57389043589,0.818917558193,0.00213245816491,0.0,0.818875810039,-0.573830134607,-0.0119218811876,0.0,-0.00853953348792,0.00858823734875,-0.999926656584,0.0,0.653157606834,0.249983588982,0.303415242331,1.0,-0.0185,-0.0243142857143,0.926
0.458725154575,0.500724177518,-0.124128327743,-1.42980499313,0.0750373107482,1.92130054225,0.149390773135,-0.00927877823169,-0.105124758215,-0.00205328006062,-0.154354582721,-0.0166672463881,0.0553687840846,-0.0273432034457,0.573870673695,0.818931360588,0.00215021392414,0.0,0.818889845336,-0.57381030433,-0.0119122941468,0.0,-0.00852170041636,0.00859707013532,-0.99992673282,0.0,0.652847812964,0.249599434654,0.303454375875,1.0,-0.01882,-0.0247348571429,0.942
0.458463357643,0.49891046572,-0.124130912383,-1.43257901256,0.0748633754946,1.92231962077,0.149007816767,-0.0159911842782,-0.103087358356,-0.0011825028119,-0.156653518537,-0.00321323288949,0.0596665686209,-0.0224351086728,0.573867411837,0.818933517613,0.00219869543577,0.0,0.81889261945,-0.573806833153,-0.0118887736063,0.0,-0.0084746518878,0.00862324122827,-0.999926907322,0.0,0.652504982148,0.249163009992,0.30348755151,1.0,-0.01918,-0.025208,0.96
0.458204889949,0.497230273468,-0.124131702763,-1.43523120196,0.0746935301097,1.9232939678,0.148608635286,-0.0154458054367,-0.100789264519,0.00180728793162,-0.157880431912,-0.0159473934784,0.0589178750099,-0.0191911477599,0.573841269931,0.818951841213,0.00219672451667,0.0,0.818910911206,-0.57378069612,-0.0118902972525,0.0,-0.00847730591959,0.00862223095555,-0.999926893537,0.0,0.652176369784,0.248740274263,0.30348107195,1.0,-0.01952,-0.0256548571429,0.977
0.457956332626,0.4956483562,-0.124129167595,-1.43776298913,0.0745395938492,1.92416100136,0.148239576726,-0.0159674138342,-0.10398761069,-0.000560003677562,-0.1549246589,-0.0155061131851,0.0538951468999,-0.0263507002573,0.57382675065,0.818962190737,0.00213008990828,0.0,0.818920197298,-0.573766251528,-0.0119476342863,0.0,-0.00856265190468,0.00860041139296,-0.999926354246,0.0,0.65184758399,0.248334447196,0.303453441038,1.0,-0.01984,-0.0260754285714,0.993
0.457671814882,0.49395948892,-0.124133595173,-1.44054058976,0.0743652748196,1.92514731053,0.147851303977,-0.0220631900887,-0.109723879815,-0.000139430159877,-0.171020355012,-0.0128875241474,0.0631335847628,-0.0305945239009,0.573837522576,0.818954873444,0.00203957011995,0.0,0.818911607656,-0.573777307851,-0.0120052798126,0.0,-0.00866169012137,0.00855947246772,-0.999925852529,0.0,0.651496207241,0.24787828155,0.303393371629,1.0,-0.0220371428571,-0.0289631020408,1.01
0.457385163523,0.491825350777,-0.124184087196,-1.44390341939,0.0741637911011,1.92640548348,0.147369642081,-0.0152032023306,-0.122714569226,-0.00140071047943,-0.200654633986,-0.00999613854508,0.0753897810016,-0.0265131338438,0.573828586585,0.818961095763,0.00205517545648,0.0,0.818918157633,-0.573768430118,-0.0119827625914,0.0,-0.0086343878256,0.0085592370115,-0.999926090673,0.0,0.651079487054,0.247344290221,0.303388780682,1.0,-0.0261514285714,-0.0343704489796,1.028
0.457069781682,0.489796646093,-0.124188792708,-1.44718414464,0.07397878237,1.92757124389,0.146901538495,-0.0239967627358,-0.138986435665,-0.00100118772193,-0.231497057531,-0.0125537456896,0.0829308072005,-0.0314398251458,0.573820741135,0.818966751842,0.0019908094273,0.0,0.818922672292,-0.573760562212,-0.012050765844,0.0,-0.00872709664782,0.0085454628907,-0.999925403642,0.0,0.650655506118,0.246823457677,0.303339630891,1.0,-0.02958,-0.0388765714286,1.043
0.456639731254,0.487121652824,-0.124210006876,-1.45136947472,0.0737222053032,1.92912375112,0.146284528544,-0.0240278478734,-0.166754701953,3.45786627746e-05,-0.257998640029,-0.020696378457,0.097457161827,-0.0369154524777,0.573821386125,0.818966221195,0.00202293530316,0.0,0.818922549909,-0.573761058287,-0.0120354536589,0.0,-0.00869611593017,0.0085629929021,-0.999925523587,0.0,0.650138593781,0.246134558895,0.303341821975,1.0,-0.0334657142857,-0.0439835102041,1.06
0.45617005919,0.484092281186,-0.124263974642,-1.45598989568,0.0734292358365,1.93084096815,0.145587427016,-0.0247976430384,-0.180003609302,0.00105538181428,-0.285197980511,-0.0186808399713,0.101668830549,-0.0416137352106,0.573817405637,0.818968792251,0.00210931492213,0.0,0.818926399216,-0.573756864461,-0.0119733058282,0.0,-0.00859569539123,0.00859803049994,-0.999926091215,0.0,0.649534624897,0.245317794549,0.303390105381,1.0,-0.03758,-0.0493908571429,1.078
0.455662845434,0.48095407033,-0.124317932147,-1.4608934723,0.0731335748536,1.9325374305,0.144859037922,-0.0323949821122,-0.210403749552,-0.00857911628374,-0.322145519369,-0.0218482688981,0.102941688276,-0.0450247002137,0.573840149596,0.818952991186,0.00205617135329,0.0,0.818909851077,-0.573779774443,-0.0120072124502,0.0,-0.00865371962754,0.0085742046454,-0.999925795322,0.0,0.648942142861,0.244526893217,0.303387657484,1.0,-0.0410085714286,-0.0538969795918,1.093
0.455036616715,0.477092158909,-0.124368671157,-1.46686271238,0.0727654106411,1.93470255898,0.14398193516,-0.0388233628866,-0.224061216958,-0.00438029077829,-0.339239475939,-0.0264808774058,0.127877194684,-0.0506448680358,0.57386167921,0.818937796008,0.00209912016938,0.0,0.818895216226,-0.573801121145,-0.0119852040048,0.0,-0.00861082483082,0.00859697427924,-0.999925970124,0.0,0.648188672742,0.243522908923,0.303411034493,1.0,-0.0451228571429,-0.0593043265306,1.111
0.45436493671,0.473111679115,-0.124403510198,-1.47297533459,0.072402844401,1.93693520614,0.143096067778,-0.0435282525737,-0.241577463831,-0.00393121305334,-0.376354373532,-0.0208547677916,0.132072624666,-0.0515615310499,0.573908014931,0.818905085846,0.00219035972014,0.0,0.818863514034,-0.573846890904,-0.0119598530038,0.0,-0.0085372177033,0.00865762783987,-0.999926077965,0.0,0.647417181163,0.242489654676,0.303449972619,1.0,-0.0490085714286,-0.0644112653061,1.128
0.453728148652,0.469332122044,-0.12442483063,-1.47871823434,0.0720554788242,1.93901222552,0.142207199122,-0.0443964995519,-0.257871982141,0.000177081157519,-0.385431688403,-0.0236308944087,0.155046124604,-0.0657723463288,0.573895974189,0.818913178042,0.00231614760861,0.0,0.81887310645,-0.573834201492,-0.01191182743,0.0,-0.00842582996683,0.00873294893091,-0.999926367785,0.0,0.646635729892,0.241455573879,0.303517676532,1.0,-0.0526657142857,-0.0692177959184,1.144
0.452911912402,0.464454362304,-0.124440250407,-1.48609874451,0.0715719994252,1.94169950414,0.141021831098,-0.044260303907,-0.275576692321,-0.00221976841782,-0.432764939415,-0.0326037197379,0.148972363909,-0.0651565554385,0.573822421007,0.818964349098,0.00244355412272,0.0,0.818925923028,-0.573760146168,-0.0118479603001,0.0,-0.00830120294855,0.00879988450386,-0.999926823354,0.0,0.645732404646,0.240281232708,0.303593701152,1.0,-0.0565514285714,-0.0743247346939,1.161
0.452073450753,0.459563824677,-0.124458653249,-1.49366573902,0.0710711853117,1.94428714935,0.139908915834,-0.0516090270922,-0.294279585957,-0.00488847828173,-0.45187622173,-0.0306365555592,0.162423069423,-0.0673587834777,0.573826384806,0.818961810544,0.00236217516993,0.0,0.818922103173,-0.573764193472,-0.0119157931202,0.0,-0.00840340976822,0.00877220283855,-0.999926212859,0.0,0.644712998231,0.238996273945,0.303585220865,1.0,-0.0604371428571,-0.0794316734694,1.178
0.451235317226,0.454759837655,-0.124479321663,-1.50115357834,0.0705642425678,1.94692892514,0.138751720483,-0.0554633369196,-0.307667347109,0.000619389070964,-0.472306887264,-0.0341270833269,0.168524349383,-0.0707867540572,0.573786125453,0.818990165618,0.00231035908064,0.0,0.818949766149,-0.573724128529,-0.0119436915974,0.0,-0.0084564200216,0.00874536092939,-0.999926001073,0.0,0.643712747556,0.237722534651,0.303554226561,1.0,-0.0640942857143,-0.0842382040816,1.194
0.450206766241,0.448924674133,-0.12451706812,-1.50981778293,0.0699682730221,1.95021677079,0.137366029616,-0.064247635912,-0.32650085935,-0.00334648404638,-0.492899320174,-0.0325230783865,0.191159487401,-0.0686230470408,0.57375229997,0.819012770927,0.00266950173692,0.0,0.818977614909,-0.573689563318,-0.0116917970469,0.0,-0.0080444206908,0.0088946288611,-0.999928083851,0.0,0.642614063077,0.236221718896,0.303720414226,1.0,-0.0682085714286,-0.0896455510204,1.212
0.449227599908,0.443530618197,-0.124549179778,-1.51812473764,0.0694198176729,1.95301464793,0.136117549734,-0.0642458294161,-0.348272265445,-0.00254771541744,-0.527749324368,-0.0346637702662,0.170545156077,-0.0797455374594,0.573776605169,0.818996062074,0.00256993561121,0.0,0.818959285195,-0.573713866287,-0.0117828572159,0.0,-0.0081758633749,0.0088655711334,-0.999927275809,0.0,0.641467854967,0.234770364487,0.30370486798,1.0,-0.0718657142857,-0.0944520816326,1.228
0.448124521576,0.437567896634,-0.124575531239,-1.52745345214,0.0687767371509,1.95612055053,0.134604193941,-0.0694696881054,-0.35615133814,-0.0027739895498,-0.555897003527,-0.0338743276117,0.186513468938,-0.0865712044429,0.57369368072,0.819054850492,0.00233655487995,0.0,0.819014706965,-0.57363150188,-0.0119397122158,0.0,-0.00843912019802,0.00876357898417,-0.999925987728,0.0,0.640156250128,0.233139175951,0.303611417982,1.0,-0.0757514285714,-0.0995590204082,1.245
0.446936023313,0.431209497713,-0.124609571839,-1.5368789049,0.0681341281913,1.95963024951,0.133073217825,-0.0707705257945,-0.379215082793,-0.000991922143847,-0.566690928013,-0.0344626333564,0.202572597648,-0.0906866752163,0.573671561395,0.819069254411,0.0026912871023,0.0,0.819034099893,-0.573608446515,-0.0117149562296,0.0,-0.00805177047207,0.00892496497451,-0.999927754387,0.0,0.638917290274,0.231471338958,0.303766698086,1.0,-0.0796371428571,-0.104665959184,1.262
0.445630437225,0.424725838979,-0.124675377884,-1.54688722115,0.0674152023878,1.96299272634,0.131443877214,-0.0844456925072,-0.393325012596,-0.00563692858587,-0.591474738572,-0.0404940144823,0.194949098289,-0.102786508527,0.573682068198,0.819062439775,0.00252017453624,0.0,0.819025121372,-0.573619639913,-0.0117943278669,0.0,-0.00821482750903,0.00883045067263,-0.99992726723,0.0,0.637521988705,0.229626798621,0.303709253485,1.0,-0.0835228571429,-0.109772897959,1.279
0.444327544304,0.418341375586,-0.124794924973,-1.55667149006,0.0667031139584,1.96624858794,0.129863331787,-0.0783437445688,-0.397404911142,-0.00403439892752,-0.606231623815,-0.0434518181773,0.209531714214,-0.101451007681,0.573754706054,0.819012053578,0.00235377902799,0.0,0.818972850177,-0.573693197142,-0.0118462283679,0.0,-0.00835201760908,0.00872467837144,-0.999927059234,0.0,0.63615346476,0.22777522556,0.303672997708,1.0,-0.08718,-0.114579428571,1.295
0.44286989386,0.411230056075,-0.124837551895,-1.56727798988,0.0659881320174,1.97007795987,0.128058082179,-0.0879560658512,-0.414100221601,-0.000457180575347,-0.630284369878,-0.0459215652771,0.217657043666,-0.123498812154,0.573741813596,0.819020247895,0.00262902489172,0.0,0.818984648682,-0.573679312301,-0.0117020836877,0.0,-0.00807618178244,0.00886727646773,-0.999928070761,0.0,0.634704641164,0.225825180533,0.303773858316,1.0,-0.0910657142857,-0.119686367347,1.312
0.441302217448,0.403975580438,-0.124896169806,-1.57842121174,0.0652061849963,1.97371642646,0.126258637399,-0.0952538257352,-0.424385032045,-0.00472478873546,-0.668878049462,-0.0418563703477,0.216269161313,-0.112096845552,0.573825583583,0.818962307276,0.00238448886673,0.0,0.818923115694,-0.573763540272,-0.0118775981468,0.0,-0.00835933335235,0.00876855156201,-0.999926614332,0.0,0.632995004767,0.223589426858,0.30367716165,1.0,-0.09518,-0.125093714286,1.33
0.439752298661,0.396808098778,-0.124990051108,-1.58896797929,0.0644514435478,1.97747129954,0.12442121942,-0.099059395401,-0.452499602227,-0.000247085831752,-0.672693336,-0.056687174762,0.242187804723,-0.118414200394,0.57386788282,0.818931715509,0.00269170992092,0.0,0.818896950382,-0.573805167359,-0.0116688246204,0.0,-0.00801160775099,0.00890076809284,-0.999928292663,0.0,0.631634387122,0.221688276753,0.303824710251,1.0,-0.0986085714286,-0.129599836735,1.345
0.43780784265,0.388153759891,-0.125023793042,-1.60213427372,0.0634405743366,1.98184619269,0.122182411328,-0.103337560846,-0.458961137556,-0.00176589618944,-0.717719226876,-0.0546420207898,0.225558742523,-0.123094582641,0.573872899224,0.81892872732,0.00252626343759,0.0,0.818891928178,-0.573810898133,-0.0117392524858,0.0,-0.00816417079144,0.00880574513413,-0.999927899985,0.0,0.629705847543,0.219170722511,0.303752649268,1.0,-0.102951428571,-0.135307591837,1.364
0.436098700467,0.380507408423,-0.125079098592,-1.61345564371,0.0625978282745,1.98558031459,0.120145301211,-0.107227449667,-0.487491576686,0.00178640303096,-0.715888250349,-0.0583164631571,0.247054738103,-0.121908404542,0.573832744649,0.818956779918,0.00255356527066,0.0,0.818920292049,-0.573770602411,-0.0117302165499,0.0,-0.00814153643957,0.00882251863617,-0.999927936678,0.0,0.628034213183,0.216979317085,0.30380954476,1.0,-0.106608571429,-0.140114122449,1.38
0.4344030594,0.373273829634,-0.125128254498,-1.6243203946,0.0618097929886,1.98924791822,0.118193947134,-0.112580739978,-0.484311675809,-0.00294466792201,-0.740133876469,-0.0485054694373,0.240289364208,-0.132456200395,0.573837710185,0.818953248542,0.00257020876067,0.0,0.818916810149,-0.573775325993,-0.0117422415869,0.0,-0.00814178127774,0.00884309844141,-0.999927752894,0.0,0.626432235305,0.214857507861,0.303788859794,1.0,-0.110037142857,-0.144620244898,1.395
0.432251234463,0.364264585462,-0.125246172991,-1.63768201015,0.0607654290917,1.99357231086,0.115870991984,-0.11660079783,-0.511663324606,-0.00715319875287,-0.731671482791,-0.0625025547474,0.25243707612,-0.13623676105,0.573965263177,0.818864097952,0.00249251941473,0.0,0.818826923714,-0.573903442138,-0.0117496810312,0.0,-0.00819108419087,0.00878501990883,-0.999927862181,0.0,0.624426706269,0.212161036402,0.303804916522,1.0,-0.114151428571,-0.150027591837,1.413
0.430142350276,0.355572139611,-0.125301659297,-1.65059155337,0.0597879295225,1.99780395267,0.113440495872,-0.125849082671,-0.515833754331,-0.00183265551365,-0.77097706225,-0.0527141600203,0.250820351526,-0.148448253639,0.573913274492,0.818900563974,0.00248326112889,0.0,0.818863085031,-0.573851296774,-0.0117764199441,0.0,-0.00821885255317,0.00879226387919,-0.999927570656,0.0,0.622460945022,0.209590222733,0.303796386917,1.0,-0.118037142857,-0.155134530612,1.43
0.428005862172,0.347161803874,-0.125355305276,-1.66303442569,0.0588646978746,2.00177554446,0.111103196589,-0.13504567983,-0.536108656714,-0.00640331475363,-0.740717928746,-0.0486009267474,0.260242170275,-0.142048834414,0.573945707813,0.818877985609,0.00243229699879,0.0,0.818839271996,-0.573883311281,-0.0118717552039,0.0,-0.00832582462929,0.00880557278183,-0.99992656857,0.0,0.620536887592,0.207054949568,0.303781681306,1.0,-0.121694285714,-0.159941061224,1.446
0.425579516011,0.337465981172,-0.125399809696,-1.67715605743,0.0577319418301,2.0064528982,0.108438915833,-0.134199787654,-0.533959927347,0.00159377316795,-0.788112647433,-0.0698875845557,0.252206966926,-0.157833416219,0.573917557655,0.818897212061,0.00259615012996,0.0,0.818860962116,-0.573854907279,-0.01174806433,0.0,-0.00813080017792,0.00886847712632,-0.999927617481,0.0,0.618357307502,0.204198475803,0.303855031205,1.0,-0.125808571429,-0.165348408163,1.464
0.42319102612,0.328034204176,-0.125386854163,-1.69088652436,0.0565903745604,2.01074888974,0.105762812071,-0.145985430895,-0.568826143659,0.00132066841425,-0.775868444051,-0.0768926643488,0.266395840301,-0.162498585573,0.573768662505,0.819001674759,0.00255451963087,0.0,0.818964812644,-0.573706106284,-0.0117765090385,0.0,-0.00817959459702,0.00884922390587,-0.999927390098,0.0,0.616148256134,0.201429532836,0.303882859247,1.0,-0.129694285714,-0.170455346939,1.481
0.420799709618,0.319045374155,-0.125395410756,-1.70396514171,0.0555462279209,2.01497394177,0.103219134164,-0.154118251295,-0.573473408514,-0.00256899648153,-0.800676480982,-0.0712905824897,0.264569871109,-0.162076154752,0.573743675205,0.819018886955,0.00264667222011,0.0,0.818983077138,-0.573680627221,-0.0117475195396,0.0,-0.00810325181121,0.00890781629724,-0.999927491431,0.0,0.614064173028,0.198735319334,0.303903202201,1.0,-0.133351428571,-0.175261877551,1.497
0.418145092663,0.309214690492,-0.125438658984,-1.71811640333,0.0543781635955,2.01942139763,0.100324424857,-0.162912398791,-0.602221406211,-0.00243490900685,-0.835236982232,-0.0764148233659,0.272342487259,-0.167183519954,0.573650377098,0.819084002328,0.0027182508331,0.0,0.819049125563,-0.573587089018,-0.0117101719678,0.0,-0.0080326155935,0.00894409773472,-0.99992773749,0.0,0.611771942811,0.195762665274,0.303958294278,1.0,-0.137237142857,-0.180368816327,1.514
0.415340039962,0.299259992854,-0.125501427533,-1.73255635991,0.0531551687027,2.02385378082,0.0973722660569,-0.170200487833,-0.599266393025,-0.00318715923857,-0.868598397936,-0.0669660285326,0.255053914904,-0.164794666095,0.57362055444,0.819105182708,0.00262794320123,0.0,0.819069102178,-0.573557560148,-0.0117591647471,0.0,-0.00812487252694,0.00889793699325,-0.999927403947,0.0,0.609393853685,0.192665409632,0.303930900314,1.0,-0.141122857143,-0.185475755102,1.531
0.412546734865,0.289621942727,-0.125616602944,-1.74622311603,0.0520864892086,2.02808853232,0.0945477473717,-0.177773098917,-0.615112407443,-0.00663202054372,-0.864404876225,-0.0652877738117,0.276613758072,-0.185594236465,0.573740298079,0.819020725785,0.002804994821,0.0,0.818986534008,-0.573676197591,-0.0117228124546,0.0,-0.00799222147664,0.00902327662441,-0.999927349798,0.0,0.607153468051,0.189651424204,0.304022511225,1.0,-0.14478,-0.190282285714,1.547
0.409498422618,0.279362384741,-0.125723642526,-1.76111704253,0.0507933643128,2.03253393969,0.0913703063526,-0.183458751252,-0.606337492802,-0.0056004014963,-0.901856107689,-0.0767724419792,0.25117867264,-0.194999255252,0.573713021637,0.819040522644,0.00259576034056,0.0,0.819003487876,-0.573649550167,-0.0118417625853,0.0,-0.00820998473283,0.00891988190229,-0.999926513229,0.0,0.60463216082,0.186364252591,0.303925399741,1.0,-0.148665714286,-0.19538922449,1.564
0.406244834757,0.268748533897,-0.1258200187,-1.77601190108,0.0494947502753,2.03709295541,0.0881120885822,-0.189968349776,-0.625179128523,-0.0112594202232,-0.871449203455,-0.0830320520871,0.267224976702,-0.190687966372,0.573757985117,0.819008420061,0.00278015917746,0.0,0.818974104787,-0.573694193879,-0.0117104440336,0.0,-0.00799614503856,0.00899601234817,-0.99992756409,0.0,0.60213638292,0.182990415026,0.304031179692,1.0,-0.152551428571,-0.200496163265,1.581
0.403026105789,0.258762978738,-0.125970072578,-1.79035361705,0.0482271628759,2.04127806308,0.0849964907397,-0.201197900974,-0.620525336401,-0.00621063612529,-0.909181655396,-0.075966142665,0.251748917259,-0.204092651714,0.573909356496,0.818902981314,0.00258932873495,0.0,0.818866065274,-0.573846103701,-0.0118221533697,0.0,-0.00819547822259,0.00890532932086,-0.999926761941,0.0,0.599670407327,0.179662163995,0.30394182348,1.0,-0.156208571429,-0.205302693878,1.597
0.399300298005,0.24719826455,-0.126073669908,-1.80653663803,0.0467407868874,2.04605957811,0.0813310328334,-0.208436663437,-0.634110315754,-0.00135197249909,-0.90728751775,-0.074908536165,0.26311534994,-0.205327594557,0.573939191356,0.818881854085,0.00265717464143,0.0,0.818846221309,-0.573876125106,-0.0117390707388,0.0,-0.00808817864734,0.0089135017941,-0.999927562802,0.0,0.596865960106,0.175914415938,0.303996365518,1.0,-0.160322857143,-0.210710040816,1.615
0.395459916249,0.235386198844,-0.126099472565,-1.82292112161,0.045310240241,2.05083584791,0.0775057090553,-0.215946625293,-0.67494091154,-0.00263547388328,-0.918146986351,-0.0812943448563,0.274247983725,-0.209862441119,0.573872765845,0.81892784726,0.00282427068998,0.0,0.8188938885,-0.573808560897,-0.0117167281719,0.0,-0.0079747178166,0.00903686319779,-0.999927366852,0.0,0.593958996704,0.172163953607,0.304071105166,1.0,-0.164437142857,-0.216117387755,1.633
0.391954459986,0.224790950542,-0.126115098776,-1.83772402869,0.0439154190013,2.05507959051,0.0739985024223,-0.220034002869,-0.670616250759,-0.00274223367226,-0.941470364577,-0.09154446769,0.263634782689,-0.223891955068,0.573733842604,0.819025249518,0.00280453282039,0.0,0.818991052968,-0.573669745965,-0.0117228249543,0.0,-0.00799256788435,0.00902284241254,-0.999927350948,0.0,0.591279413945,0.168766525112,0.304052424875,1.0,-0.168094285714,-0.220923918367,1.649
0.388226056006,0.213909759181,-0.12618010695,-1.85255194917,0.0425385981122,2.05924297056,0.070396350623,-0.236786247858,-0.697607453242,-0.00827467952891,-0.937434241753,-0.0765704993074,0.257412231045,-0.228091840992,0.573725550682,0.819030523872,0.00295641016472,0.0,0.818998258751,-0.573660886995,-0.0116527162146,0.0,-0.00784810448873,0.00910693114089,-0.999927732919,0.0,0.588585185456,0.165234544714,0.304158766109,1.0,-0.171751428571,-0.22573044898,1.665
0.384111628137,0.202386966565,-0.126305864843,-1.86856061425,0.0410292559291,2.06354969597,0.066433400936,-0.24341981088,-0.684607377441,-0.0045633463636,-0.937527436581,-0.0905986744518,0.241916031476,-0.238411227531,0.573741806175,0.819019762639,0.00277761685504,0.0,0.818984658707,-0.573677177779,-0.0118055664822,0.0,-0.00807569234181,0.00904834683717,-0.999926452602,0.0,0.585606628734,0.161353569884,0.304085187244,1.0,-0.175637142857,-0.230837387755,1.682
0.380049700934,0.191248377539,-0.126417633632,-1.88362665327,0.0395761482598,2.06772898836,0.0625618233616,-0.263886643029,-0.692556916672,-0.00634650837181,-0.959889116647,-0.0876506076946,0.255604741274,-0.249789084316,0.573756930973,0.819008594303,0.00294168656411,0.0,0.818975872898,-0.573692006007,-0.0116939624106,0.0,-0.00788998555644,0.00911883787117,-0.999927294819,0.0,0.582820030014,0.157630585856,0.30416943988,1.0,-0.179294285714,-0.235643918367,1.698
0.375483450298,0.179280636008,-0.126603838671,-1.89980327471,0.0380699065865,2.07200439742,0.058290181021,-0.271580088283,-0.708187846516,-0.00977485298476,-0.944714588608,-0.0963057797517,0.26167407396,-0.257292402983,0.573897523468,0.818909877665,0.00299861998445,0.0,0.81887729714,-0.573831689089,-0.0117435824193,0.0,-0.00789638450162,0.00919529173297,-0.999926544163,0.0,0.579772827834,0.153509335911,0.304208159684,1.0,-0.18318,-0.240750857143,1.715
0.370850504693,0.167245373948,-0.126689848663,-1.91619838883,0.0363866393625,2.07625177889,0.0539357272133,-0.275221667921,-0.716049788434,-0.00503494955349,-0.978675875669,-0.0997317495845,0.247082970563,-0.26546984345,0.573853674621,0.818941162961,0.00284229380236,0.0,0.818906494235,-0.57378833854,-0.0118255298787,0.0,-0.00805369321157,0.00911387209881,-0.999926034945,0.0,0.576598746098,0.149402026449,0.304141228117,1.0,-0.187065714286,-0.245857795918,1.732
0.366339229497,0.155613865616,-0.126715058274,-1.93155353372,0.0348205138536,2.08030460547,0.0496685332306,-0.290256014663,-0.728847457509,-0.000699698724228,-0.960450796012,-0.100736654588,0.25942089854,-0.264010447587,0.573734761644,0.819023652543,0.00307030254663,0.0,0.818992266794,-0.573669013799,-0.0116737500516,0.0,-0.00779989014423,0.00921236761239,-0.999927144344,0.0,0.573617850093,0.145533985849,0.304258545707,1.0,-0.190722857143,-0.250664326531,1.748
0.36101535243,0.142581795819,-0.126835072864,-1.94913731893,0.0329866580872,2.0846049735,0.044754612713,-0.30023331158,-0.731410013551,-0.00950944730966,-0.967339972272,-0.0954913428512,0.237124843352,-0.273532012681,0.573734146011,0.819024992113,0.0028176049692,0.0,0.818989804642,-0.573668693705,-0.0118607190679,0.0,-0.00809800949077,0.00911266471582,-0.999925688031,0.0,0.570103350626,0.140984858832,0.304148624407,1.0,-0.194837142857,-0.256071673469,1.766
0.355765578651,0.12995774966,-0.126986069009,-1.9656357894,0.0312804615613,2.0887555273,0.0398553802817,-0.317846000849,-0.726776009082,-0.00643853471052,-0.969038385006,-0.105817758777,0.23832720879,-0.301493048329,0.573715665513,0.81903724943,0.00301099533466,0.0,0.819004725744,-0.573649691243,-0.0117489508598,0.0,-0.00789572386898,0.00920675382842,-0.999926443909,0.0,0.566821094321,0.136609086363,0.304240966871,1.0,-0.198722857143,-0.261178612245,1.783
0.350557497069,0.117915742698,-0.127183162592,-1.98131673657,0.0295413962698,2.09257659926,0.0352334612952,-0.3334446253,-0.757100833483,-0.00957135878239,-0.963582997485,-0.114531116848,0.244844161101,-0.291888753917,0.573875725226,0.818924873428,0.00307417941309,0.0,0.818893877185,-0.573810347008,-0.0116297238606,0.0,-0.00776002358924,0.00919161988058,-0.999927645461,0.0,0.563662435735,0.132320873171,0.30430009369,1.0,-0.20238,-0.265985142857,1.799
0.344853827004,0.105066239168,-0.127308979308,-1.99815009535,0.0277323688897,2.0964584438,0.0300054291169,-0.331867591791,-0.768371283087,-0.00368586951463,-1.00166144657,-0.111084129804,0.218854353811,-0.312661708479,0.573848486489,0.818944347571,0.00296934976425,0.0,0.818911439016,-0.573782821379,-0.0117505676701,0.0,-0.00791945156276,0.00917485660567,-0.999926549449,0.0,0.560165556543,0.127751897852,0.304252247543,1.0,-0.206265714286,-0.271092081633,1.816
0.339038129639,0.0920230538983,-0.127402462619,-2.01489432267,0.0259013186854,2.10033840335,0.0246529774338,-0.34867219149,-0.758700251229,-0.00650759281551,-0.994169297809,-0.0944315122535,0.218416695536,-0.319759106072,0.573746547469,0.819015335786,0.00308640834315,0.0,0.81898391003,-0.573680449407,-0.011698033231,0.0,-0.0078104068639,0.00923960284226,-0.999926810964,0.0,0.556651567389,0.123199316789,0.304306032155,1.0,-0.210151428571,-0.276199020408,1.833
0.333277503642,0.0795861096448,-0.127530692443,-2.03076023318,0.0241937808704,2.10377465277,0.0194060151574,-0.367973529361,-0.808861786381,-0.00400684497356,-0.978695907011,-0.11404349678,0.222604229324,-0.333664076059,0.573728307914,0.819028020477,0.00311083167453,0.0,0.818996104149,-0.573661172463,-0.0117892959461,0.0,-0.00787135192375,0.00931179111762,-0.99992566342,0.0,0.553251997816,0.118771971321,0.304333667527,1.0,-0.213808571429,-0.28100555102,1.849
0.326907768142,0.0662884305224,-0.127720408233,-2.04773867616,0.0222250111279,2.10747451261,0.0137304005913,-0.370578324405,-0.786092903883,-0.016276899995,-1.00414062265,-0.119857428241,0.210209946826,-0.338348431225,0.573783279037,0.818989670292,0.00306847724976,0.0,0.818957314362,-0.573716416084,-0.0117956801269,0.0,-0.00790025651182,0.00928129460299,-0.999925719,0.0,0.549589549044,0.11393384009,0.304307794236,1.0,-0.217694285714,-0.286112489796,1.866
0.320161106075,0.0527594601865,-0.127924063642,-2.0646043539,0.0202493148492,2.11099395057,0.00778818948676,-0.405688380607,-0.780794696574,-0.00605820102748,-0.993072148538,-0.122359166967,0.209775161501,-0.350115639178,0.573896562514,0.818909969799,0.00315337901937,0.0,0.81887893963,-0.573829653381,-0.0117285136039,0.0,-0.00779524441409,0.00931336861952,-0.999926244945,0.0,0.545686678944,0.10865919243,0.304381685099,1.0,-0.21998,-0.289116571429,1.884
0.313456383912,0.0394414508846,-0.127996922377,-2.0814406939,0.0183466980251,2.11432736649,0.00178587875791,-0.399129439633,-0.796340108456,-0.00334629975938,-0.969717559934,-0.108618533115,0.195833109998,-0.359472821602,0.573840110961,0.818949900432,0.00305524729265,0.0,0.81891633103,-0.573772069672,-0.0119332199617,0.0,-0.00801984814394,0.00934993218541,-0.999924127524,0.0,0.542111104664,0.104128608629,0.304303620236,1.0,-0.21998,-0.289116571429,1.9
0.306499396754,0.0260510911203,-0.128124904433,-2.09793969177,0.016286857441,2.11758437448,-0.00437747893645,-0.407891480036,-0.77927482432,-0.00869290535383,-0.971931694736,-0.125775942842,0.17787768284,-0.366260534545,0.573795859507,0.818980746216,0.00309771556584,0.0,0.818948363807,-0.573728412384,-0.0118335600359,0.0,-0.00791436277103,0.00932709642154,-0.999925181268,0.0,0.538381208423,0.0992091515837,0.304347750626,1.0,-0.21998,-0.289116571429,1.917
0.299376843214,0.0126933915093,-0.128291770114,-2.11410252831,0.0143083580197,2.12063199634,-0.010641775717,-0.416872314028,-0.773913604567,-0.00859071193748,-0.945194029539,-0.114725817927,0.181847050981,-0.370724372167,0.573841178458,0.818948354237,0.00326219236728,0.0,0.81891840533,-0.573773508661,-0.0117197726311,0.0,-0.0077262777026,0.0093969384294,-0.999925998352,0.0,0.534673910516,0.0942734052008,0.304455048575,1.0,-0.21998,-0.289116571429,1.934
0.292479870684,0.000336528199768,-0.128423629838,-2.12923641885,0.0125163588018,2.12327098843,-0.0166936246808,-0.424729861042,-0.7520148482,-0.00254299399416,-0.947124613423,-0.107889720529,0.156343189689,-0.393350823524,0.573899152982,0.818907996591,0.0031940926084,0.0,0.818875997816,-0.573830310946,-0.0119004765785,0.0,-0.00791268062229,0.0094454210539,-0.999924083872,0.0,0.531113296648,0.0896076493702,0.304406857578,1.0,-0.21998,-0.289116571429,1.95
0.285136817617,-0.0127562080014,-0.128480379821,-2.14482240694,0.0105331297899,2.12611495526,-0.0231677380459,-0.436520593884,-0.744495222066,-0.0062011236452,-0.919645451669,-0.118045992601,0.16684870617,-0.378516923635,0.573808238613,0.818970766532,0.00342575066664,0.0,0.818942585897,-0.573739592691,-0.0116904954788,0.0,-0.00760883174485,0.0095137788985,-0.999925794092,0.0,0.52744056133,0.0847740429957,0.304513400491,1.0,-0.21998,-0.289116571429,1.967
0.277583756513,-0.0257311986687,-0.128613598314,-2.16033948073,0.00851950147415,2.12851851925,-0.0298166726291,-0.449003091939,-0.765125535231,-0.00996587861732,-0.881553570778,-0.106354567135,0.157057971989,-0.388301840386,0.573780339154,0.818990685587,0.00333559929211,0.0,0.818960963396,-0.573711540342,-0.0117794657359,0.0,-0.00773374980967,0.00949073418079,-0.999925054731,0.0,0.523453775287,0.0795540735724,0.304515784546,1.0,-0.21998,-0.289116571429,1.985
0.270235085252,-0.0378569438047,-0.128828230654,-2.17465177013,0.00667053027376,2.13083112956,-0.0361086453744,-0.460235353554,-0.760931738794,-0.00825358960521,-0.882051786673,-0.108170580728,0.133483211957,-0.398967699718,0.573970621117,0.81885712892,0.00338753785771,0.0,0.818828055024,-0.573901585728,-0.0117615095035,0.0,-0.00768703055467,0.00952475533139,-0.999925091493,0.0,0.520179301081,0.0751255515797,0.304528338918,1.0,-0.21998,-0.289116571429,2.0
0.261936217214,-0.0514559518135,-0.128910909097,-2.19054769579,0.00465170830889,2.13322976797,-0.043380299179,-0.465519924894,-0.757214112056,-0.00319766739451,-0.870838381179,-0.11785482441,0.13525504739,-0.400117375218,0.573937001138,0.818880224941,0.00349897505279,0.0,0.818852170686,-0.573867058323,-0.0117672781887,0.0,-0.00762819175577,0.00961900486799,-0.999924639878,0.0,0.516215653273,0.0699712054791,0.30456186257,1.0,-0.21998,-0.289116571429,2.018
0.252993764281,-0.065540770899,-0.129027301699,-2.20713632381,0.00240234177193,2.13550633095,-0.0512634473428,-0.473099587654,-0.744854202906,-0.00578527787497,-0.873190218522,-0.111277573082,0.10678050096,-0.41873440737,0.573824322209,0.818959992965,0.00330515732653,0.0,0.818928792958,-0.573754305457,-0.0119321386979,0.0,-0.00787574761033,0.00955382384149,-0.999923345587,0.0,0.511981985493,0.0644968472851,0.30446067056,1.0,-0.21998,-0.289116571429,2.037
0.246243049777,-0.0760235525153,-0.129210297534,-2.21898903073,0.000813627684903,2.13710948795,-0.0571388893961,-0.485237919382,-0.744795380923,-0.0160169754149,-0.866148346486,-0.104671531126,0.112227050779,-0.420690985682,0.573911276465,0.818898277154,0.00349361163585,0.0,0.818869818046,-0.573840933645,-0.011813165053,0.0,-0.00766915080166,0.00964070737273,-0.999924117565,0.0,0.508946845023,0.0604143826774,0.304560929759,1.0,-0.21998,-0.289116571429,2.051
0.23789245959,-0.0884767590203,-0.129317321207,-2.23341359791,-0.00110167049682,2.13883690181,-0.0644173694078,-0.485696701353,-0.737940352146,-0.00496608899228,-0.833381305569,-0.115137816312,0.0866893332088,-0.436974405257,0.573916255681,0.818895356652,0.00335756169842,0.0,0.818863812117,-0.573844780924,-0.0120404116902,0.0,-0.00793327070804,0.00965975974618,-0.999921873077,0.0,0.505145459363,0.0555015157369,0.304464067266,1.0,-0.21998,-0.289116571429,2.068
0.229972329445,-0.100263293864,-0.129392852355,-2.24651502956,-0.00297090351687,2.14040498555,-0.0713948584744,-0.504569304925,-0.74783781342,-0.00996754408908,-0.80269339233,-0.120181067113,0.0886550660958,-0.43041430978,0.573795931456,0.81897899158,0.00351955917932,0.0,0.81895045942,-0.573724998508,-0.0118540290137,0.0,-0.00768908968168,0.00968432467953,-0.999923542955,0.0,0.501454392642,0.0506454517481,0.304575568112,1.0,-0.21998,-0.289116571429,2.085
0.221308792212,-0.112557222433,-0.12957079642,-2.26045456541,-0.00492669969731,2.14180575435,-0.0788941891885,-0.512111316148,-0.724326571545,-0.0135238256303,-0.791629766743,-0.11447015819,0.0735531840439,-0.453776749835,0.573880421143,0.81892045769,0.00336052191256,0.0,0.818888766907,-0.573808715215,-0.012062034549,0.0,-0.00794970314887,0.00967424537117,-0.999921602525,0.0,0.497879063397,0.0459850846576,0.30449162843,1.0,-0.21998,-0.289116571429,2.101
0.21246413706,-0.124899327901,-0.12972174051,-2.27395744882,-0.00679764018436,2.14320400835,-0.0865963877201,-0.519228452952,-0.722624169668,-0.00874227006483,-0.800962529466,-0.100195352111,0.0738533043632,-0.454771501031,0.5739431971,0.818875529278,0.00358063595404,0.0,0.81884689255,-0.573870888701,-0.011946403781,0.0,-0.00772794376894,0.00978873826778,-0.99992222672,0.0,0.494187220426,0.0410592444385,0.304585346911,1.0,-0.21998,-0.289116571429,2.118
0.203020057423,-0.137716902247,-0.12983920775,-2.28816274166,-0.00886635623664,2.14440195919,-0.0949152966413,-0.533573015461,-0.708479970365,-0.00617898421732,-0.765239873527,-0.112221932148,0.058231189162,-0.467112461574,0.573845921935,0.818944242897,0.00345424454007,0.0,0.818913247464,-0.573773213226,-0.0120888301605,0.0,-0.00791827732564,0.00976604052894,-0.999920959545,0.0,0.490186076325,0.0358963412057,0.304527007984,1.0,-0.21998,-0.289116571429,2.136
0.194956290515,-0.148438263479,-0.130009143592,-2.29959844795,-0.0105376289082,2.14547933519,-0.101959665982,-0.543772124615,-0.711175549062,-0.0144866517216,-0.756780023072,-0.110665733335,0.0678762185769,-0.469079299641,0.57390248455,0.818903407137,0.00372758743056,0.0,0.818876998552,-0.573830067487,-0.0118432170913,0.0,-0.00755959462628,0.00984947695368,-0.999922917196,0.0,0.486972960705,0.0315483589278,0.304646073499,1.0,-0.21998,-0.289116571429,2.151
0.185136973436,-0.161090236468,-0.13013945287,-2.31337736647,-0.0125994825825,2.14633431175,-0.110598942805,-0.543523004022,-0.695358283503,-0.00194752795498,-0.747065357254,-0.104523467906,0.0357821549467,-0.484530417056,0.573829139009,0.818955585547,0.00355176396643,0.0,0.818925915914,-0.573756126544,-0.0120415280982,0.0,-0.00782378099083,0.00981860029876,-0.999921188664,0.0,0.482945609371,0.0263643112328,0.304575332934,1.0,-0.21998,-0.289116571429,2.169
0.175716631241,-0.173014241351,-0.13027028443,-2.32591407957,-0.0143918407266,2.1471968363,-0.118920928493,-0.563549158919,-0.694036444277,-0.00533382613439,-0.74062401492,-0.113822114455,0.0530237964759,-0.493629470083,0.573811403498,0.818966877982,0.00380432462396,0.0,0.818940709532,-0.573737739536,-0.0119108104307,0.0,-0.00757202040727,0.00995026673031,-0.999921825294,0.0,0.479268666775,0.021503229776,0.304670187419,1.0,-0.21998,-0.289116571429,2.186
0.166598116962,-0.184086867853,-0.13047183417,-2.33774621581,-0.0162283013495,2.14773668183,-0.126877114398,-0.584750406683,-0.679536555182,-0.0173195203685,-0.733642066302,-0.111293848128,0.0220450389863,-0.508715650884,0.573878867629,0.818920243053,0.00366438377191,0.0,0.818891509705,-0.573804747156,-0.0120645918422,0.0,-0.00777744742001,0.00992453814205,-0.999920504267,0.0,0.475693328855,0.0168230746889,0.304607624323,1.0,-0.21998,-0.289116571429,2.202
0.156824559316,-0.195904956863,-0.130595668022,-2.34982695627,-0.0180856021504,2.14835870125,-0.135533617458,-0.5785252472,-0.689446155392,-0.00174338090697,-0.707514788872,-0.110677263225,0.0295902435176,-0.514786454264,0.573815313741,0.818963526395,0.00393383428478,0.0,0.818939508382,-0.5737418234,-0.0117961262668,0.0,-0.00740373445457,0.00999056255923,-0.999922683699,0.0,0.472026956447,0.0119466281881,0.304750375462,1.0,-0.21998,-0.289116571429,2.219
0.146252517711,-0.20809072123,-0.130789777871,-2.36263838694,-0.0200000356553,2.1486846865,-0.144899383153,-0.597601652115,-0.669673920704,-0.00979903929973,-0.700057343229,-0.102394358383,0.0174450305767,-0.519050084522,0.573823425428,0.818958350639,0.00382664990729,0.0,0.818931260124,-0.573748087246,-0.0120611141967,0.0,-0.00768216503004,0.0100549066816,-0.999919938391,0.0,0.46800339938,0.0067429471383,0.304662164424,1.0,-0.21998,-0.289116571429,2.237
0.136612232943,-0.218955242576,-0.130991994589,-2.3735602535,-0.0217030975832,2.14899938709,-0.153295039339,-0.599257331936,-0.678952170631,-0.0068271010773,-0.682846366257,-0.109007654454,0.0221466572789,-0.525308855587,0.573988757972,0.818841403161,0.00405081381088,0.0,0.818817964683,-0.573913562771,-0.01187897641,0.0,-0.007402323243,0.0101354731748,-0.999921235795,0.0,0.4645493102,0.00206781696509,0.304771174626,1.0,-0.21998,-0.289116571429,2.253
0.127083533747,-0.22961062342,-0.131084360158,-2.38449717296,-0.0234330623924,2.14914393122,-0.161911383614,-0.609698720674,-0.671899279914,-0.0145701828959,-0.673778205966,-0.102104609703,0.00645764457306,-0.541067941861,0.573768644393,0.818995945283,0.00399139348048,0.0,0.818971224807,-0.573693002432,-0.0119674057454,0.0,-0.00751156689229,0.0101355537197,-0.99992042029,0.0,0.461001303602,-0.00243663466834,0.304726604567,1.0,-0.21998,-0.289116571429,2.269
0.115858852605,-0.241505350558,-0.131315980756,-2.39641081531,-0.0254120739112,2.14919109827,-0.171799535359,-0.629030401305,-0.661198059674,-0.0182154155677,-0.652144477982,-0.100208354114,0.00596199224161,-0.555403658688,0.573854571935,0.818935588111,0.00402239938884,0.0,0.818911605462,-0.573779258715,-0.0119118264805,0.0,-0.00744719266622,0.0101298406581,-0.999920959701,0.0,0.457063872464,-0.00771337590097,0.304755507059,1.0,-0.21998,-0.289116571429,2.287
0.105221056453,-0.25261602325,-0.131414124257,-2.40747161676,-0.027106028053,2.14920955345,-0.181335856112,-0.615094796088,-0.651731323022,-0.0116541137532,-0.64962328918,-0.0961555244864,-0.00143797022922,-0.568799351272,0.573777761006,0.818988706888,0.0041624352152,0.0,0.818966395171,-0.573701762613,-0.0118776283892,0.0,-0.00733978840927,0.0102242104342,-0.999920793377,0.0,0.453349992838,-0.0125544875495,0.30477165957,1.0,-0.21998,-0.289116571429,2.304
0.0937456621762,-0.264253946791,-0.131644781935,-2.41906962714,-0.0290096952529,2.14905786012,-0.191584403829,-0.649234951886,-0.645662111143,-0.0176527204755,-0.626911249069,-0.108363178032,-0.00975980033874,-0.571187826975,0.573784515851,0.818984059864,0.00414559508244,0.0,0.818961051637,-0.573707912907,-0.0119487852834,0.0,-0.00740764659947,0.0102513062566,-0.999920015547,0.0,0.449356866557,-0.0177539524092,0.30472363873,1.0,-0.21998,-0.289116571429,2.322
0.0838570798239,-0.273871847202,-0.131846886951,-2.42824085563,-0.0306079512926,2.14891536503,-0.200297488596,-0.653962634615,-0.638301242275,-0.00607215874312,-0.621548479561,-0.109228127309,-0.0167742711066,-0.582999927566,0.573918956049,0.818888871028,0.0043354002314,0.0,0.81886988897,-0.573843906199,-0.0116628966183,0.0,-0.00706290922386,0.0102438833843,-0.999922586087,0.0,0.446146320976,-0.0221781469727,0.304836236868,1.0,-0.21998,-0.289116571429,2.337
0.0734902802871,-0.283956058123,-0.131957777421,-2.43811686999,-0.0321952778164,2.14855362177,-0.20980968135,-0.660013732827,-0.634487396344,-0.0138062245901,-0.608672493903,-0.102999782584,-0.0246592252642,-0.613331950838,0.573693168615,0.819047145228,0.00432077302202,0.0,0.81902716749,-0.573617038097,-0.011778769882,0.0,-0.00716903684915,0.0102964285437,-0.999921291137,0.0,0.442601194049,-0.0266796353499,0.304788307304,1.0,-0.21998,-0.289116571429,2.353
0.0619637823106,-0.294564515797,-0.132221757108,-2.44824726003,-0.0338330396244,2.14809070739,-0.220069474985,-0.688732163731,-0.630483327154,-0.0162401702459,-0.577041725277,-0.101154148525,-0.0221085376063,-0.613988771869,0.573881931054,0.818914166434,0.00445691875888,0.0,0.818895551359,-0.573804730745,-0.0117878683392,0.0,-0.00709598792643,0.0104147961071,-0.999920586335,0.0,0.43887489281,-0.0316712271469,0.304810156013,1.0,-0.21998,-0.289116571429,2.37
0.0497746423738,-0.305654290412,-0.132349888881,-2.45870435144,-0.0356779173862,2.14755926579,-0.231097512766,-0.675420075081,-0.603709904785,-0.00586861167389,-0.586284862577,-0.0937924994258,-0.0384776585002,-0.61248493327,0.57376103637,0.818998536727,0.00451850456417,0.0,0.818981638392,-0.573685018471,-0.0116328181995,0.0,-0.00693519623303,0.0103752298524,-0.999922125797,0.0,0.434958025315,-0.036816996177,0.30485271601,1.0,-0.21998,-0.289116571429,2.388
0.0387053697705,-0.315362912854,-0.132590863546,-2.46795986276,-0.03726140318,2.14684306066,-0.241066743709,-0.703492385983,-0.597090351431,-0.0186344077021,-0.575393259422,-0.100408045459,-0.0437875116836,-0.629686920468,0.573824604224,0.8189543951,0.00444626063747,0.0,0.818935344829,-0.573747014422,-0.011832638482,0.0,-0.00713949998185,0.0104312599163,-0.999920104987,0.0,0.431372572386,-0.0414534596713,0.304788225692,1.0,-0.21998,-0.289116571429,2.404
0.0260229354314,-0.326174786407,-0.13275163637,-2.4777840437,-0.0389962097417,2.14615917388,-0.252558740091,-0.692364970804,-0.596103971873,-0.00175627307576,-0.536392345806,-0.10624448796,-0.0339835791352,-0.639750841622,0.573799806668,0.818970562758,0.00466327188366,0.0,0.818955893677,-0.573723888877,-0.0115278117807,0.0,-0.00676563828092,0.0104338710484,-0.999922677247,0.0,0.427506692234,-0.0466560456118,0.304910956732,1.0,-0.21998,-0.289116571429,2.422
0.0146957518525,-0.335529816058,-0.132958475928,-2.48653320312,-0.0404532143557,2.14534419638,-0.262961627907,-0.722063349947,-0.593274616954,-0.0239625831328,-0.546926436272,-0.0922099097002,-0.0573256930099,-0.652255514434,0.57374684155,0.819007638281,0.00466874174306,0.0,0.818991848364,-0.573669087515,-0.0116994548394,0.0,-0.00690376298046,0.0105363895498,-0.999920658128,0.0,0.423959541958,-0.0512315849144,0.304854170704,1.0,-0.21998,-0.289116571429,2.438
0.00296137535055,-0.344790898498,-0.133167481417,-2.49504415377,-0.0420344289025,2.14442452105,-0.273455294703,-0.726549053731,-0.564223189661,-0.00443132259546,-0.528239492276,-0.100459693629,-0.0611379896368,-0.664719569975,0.5738977372,0.818902320939,0.00459596537777,0.0,0.81888523997,-0.573819670241,-0.0117769565356,0.0,-0.00700705661064,0.0105225395096,-0.999920085467,0.0,0.420400764617,-0.0559289891242,0.304828369057,1.0,-0.21998,-0.289116571429,2.454
-0.0093984660419,-0.354524252912,-0.133344559381,-2.50363093701,-0.0435516076301,2.14350631261,-0.284909587725,-0.737106338811,-0.55978427025,-0.0108152942321,-0.502291495259,-0.0958369050486,-0.0582482284307,-0.680151594148,0.573765435713,0.818993811314,0.00480715213626,0.0,0.818980517554,-0.573688343946,-0.0115474148067,0.0,-0.00669958310296,0.0105626747967,-0.999921769684,0.0,0.416745691338,-0.0607810702637,0.304938873948,1.0,-0.21998,-0.289116571429,2.471
-0.0229155556577,-0.364525321015,-0.133607148748,-2.51271483861,-0.0452544127239,2.14234814334,-0.297229734863,-0.745159871834,-0.545825147503,-0.0105402709366,-0.501195272955,-0.0888336585807,-0.073115249802,-0.68460044636,0.573826701911,0.818951368199,0.00472436227998,0.0,0.818936278813,-0.573748725989,-0.0116840733987,0.0,-0.00685822309877,0.0105737885468,-0.999920576732,0.0,0.412739912207,-0.0660387589527,0.304882787631,1.0,-0.21998,-0.289116571429,2.489
-0.0348920313353,-0.373267145168,-0.133736548941,-2.52058359732,-0.0466158698556,2.14126383863,-0.308351170726,-0.750119686124,-0.539705349252,-0.00879735839103,-0.487076812899,-0.0949455632787,-0.0756317079071,-0.691368216192,0.57369855931,0.819041162088,0.00472067284432,0.0,0.819024993956,-0.573619035893,-0.0118324907827,0.0,-0.00698356365054,0.0106548371015,-0.99991884885,0.0,0.409195279266,-0.0705670081388,0.304835994868,1.0,-0.21998,-0.289116571429,2.505
-0.0472704482514,-0.381881754188,-0.133998007785,-2.52798133938,-0.0480644391884,2.14021623936,-0.319585464071,-0.77040313677,-0.529972343068,-0.0108202889975,-0.451641605455,-0.0870206196094,-0.0593832483648,-0.710023853263,0.573879496448,0.818913664837,0.00484561664902,0.0,0.818900291527,-0.573801358481,-0.0116215508314,0.0,-0.00673675506995,0.0106376514333,-0.999920725109,0.0,0.405729776695,-0.0752794000302,0.304926317805,1.0,-0.21998,-0.289116571429,2.521
-0.0611503311031,-0.391269188534,-0.1341498909,-2.53624321289,-0.0495760739755,2.13895916331,-0.332537737844,-0.774222075168,-0.522731318119,-0.00659515094607,-0.455303020171,-0.0895176677433,-0.0758262775699,-0.716092474291,0.57372921139,0.819018886856,0.00485817571826,0.0,0.819005310272,-0.573650481901,-0.0116693299961,0.0,-0.00677063717756,0.0106741127173,-0.999920107704,0.0,0.401783571784,-0.0804044461543,0.304900275325,1.0,-0.21998,-0.289116571429,2.539
-0.0738524427085,-0.399480262517,-0.134402069611,-2.54339740405,-0.0510024058295,2.13768116817,-0.344236320212,-0.786373735205,-0.506359894986,-0.0113388318982,-0.439069278261,-0.0945656522586,-0.0748914578351,-0.728162534512,0.573794913383,0.818973277075,0.00478703607441,0.0,0.818958125924,-0.573715387198,-0.0117893755914,0.0,-0.00690892032595,0.0106852715631,-0.999919042619,0.0,0.398211469561,-0.0850866934563,0.304869379051,1.0,-0.21998,-0.289116571429,2.555
-0.0880379034201,-0.408498913777,-0.134547192027,-2.55111695505,-0.0523719006993,2.13632677019,-0.357584908042,-0.798948174049,-0.490381858066,-0.0136693954064,-0.419801793543,-0.0767401023251,-0.0680103933348,-0.751344525827,0.573636794681,0.819083386325,0.00489703331947,0.0,0.819069380627,-0.573556484174,-0.0117922043155,0.0,-0.00685020531706,0.0107756597985,-0.999918476598,0.0,0.39428167637,-0.0901727112579,0.304880876143,1.0,-0.21998,-0.289116571429,2.573
-0.0995074261533,-0.415327800209,-0.134798580826,-2.55677167781,-0.0534644782557,2.1353123349,-0.368136963287,-0.819596080961,-0.486949178556,-0.00348916180926,-0.408635218648,-0.0864175598005,-0.0774962774905,-0.761261089668,0.573834028054,0.818944180284,0.00506801024308,0.0,0.818933250002,-0.573754507126,-0.0116122562286,0.0,-0.00660212305054,0.0108140780704,-0.999919730622,0.0,0.391250797454,-0.0943205403929,0.304956589186,1.0,-0.21998,-0.289116571429,2.587
-0.114102668566,-0.423899291973,-0.134939969142,-2.5640747592,-0.0549346458052,2.13377482969,-0.381894557511,-0.818415100359,-0.464782538427,-0.00974041811764,-0.396435559581,-0.08552262502,-0.0926033780643,-0.76951723221,0.573636038429,0.819083503272,0.00496557995379,0.0,0.81907055334,-0.573555761869,-0.0117457898397,0.0,-0.00677287609593,0.0108051767054,-0.999918684847,0.0,0.387259323905,-0.0994389947629,0.304918950162,1.0,-0.21998,-0.289116571429,2.605
-0.128210836454,-0.431724880442,-0.135203118035,-2.570693384,-0.0562394923921,2.132357224,-0.395008811012,-0.829142115716,-0.460103333603,-0.001572291673,-0.379715550101,-0.0787792420086,-0.0812548533295,-0.77380188637,0.573756294474,0.818999238705,0.00497075983498,0.0,0.818985493149,-0.573674607804,-0.0118723743734,0.0,-0.00687199918193,0.0108830392541,-0.999917164111,0.0,0.383481984436,-0.10437194983,0.304882501814,1.0,-0.21998,-0.289116571429,2.622
-0.143220171384,-0.439697296747,-0.135400855766,-2.57729381378,-0.0575584530407,2.13091442433,-0.409222322365,-0.847041762418,-0.437230015763,-0.0176627833066,-0.353028626134,-0.0743452441891,-0.0827478669246,-0.799957167027,0.573654279025,0.819070398435,0.00501970762398,0.0,0.819057314129,-0.573572478277,-0.0118522249143,0.0,-0.00682877191583,0.0109107178474,-0.999917158624,0.0,0.379559148904,-0.109539613787,0.304891913764,1.0,-0.21998,-0.289116571429,2.64
-0.156040481797,-0.446237994646,-0.135579061525,-2.5824492009,-0.0586338031208,2.12973900027,-0.421196136934,-0.836968045231,-0.420353539452,-0.00240221985653,-0.344403091799,-0.0750894957222,-0.0832436812163,-0.806102567683,0.573720118789,0.81902334191,0.0051708416761,0.0,0.819013793725,-0.573640385031,-0.0115698423264,0.0,-0.00650989265317,0.0108730513117,-0.999919695802,0.0,0.376109106529,-0.114215370922,0.305007680234,1.0,-0.21998,-0.289116571429,2.656
-0.171374573267,-0.453720116139,-0.135828180974,-2.58869695562,-0.0598222254154,2.12817781649,-0.435756382417,-0.861805348124,-0.415496809219,-0.0234550390636,-0.34293098729,-0.0722743464396,-0.0898160007969,-0.819325134161,0.573735257268,0.819012602567,0.00519213883205,0.0,0.819001575958,-0.573652542703,-0.0118290206543,0.0,-0.00670976253255,0.0110393086353,-0.999916552894,0.0,0.372316472592,-0.119083203487,0.304935156108,1.0,-0.21998,-0.289116571429,2.673
-0.186074218075,-0.460545046149,-0.1359974805,-2.59425359485,-0.0610246400194,2.12674154118,-0.449731167069,-0.866626513366,-0.392959093533,-0.00661590612458,-0.316920489942,-0.0704503644221,-0.0844554796583,-0.826721434591,0.573643880421,0.819076838105,0.00515544723712,0.0,0.819065058155,-0.573560859312,-0.0118793129374,0.0,-0.00677323773795,0.0110373543645,-0.999916146514,0.0,0.368564719271,-0.123971743948,0.304922920586,1.0,-0.21998,-0.289116571429,2.69
-0.200155080859,-0.466625407024,-0.136253541771,-2.5992274306,-0.062063977156,2.12550298069,-0.463050387861,-0.898920115645,-0.373651844273,-0.0187020220315,-0.301349331645,-0.070812123849,-0.0838078396727,-0.838917508161,0.573744487655,0.819006030296,0.00520885059879,0.0,0.818994492902,-0.573660516329,-0.0119322882235,0.0,-0.00678463471157,0.0111123184947,-0.999915238963,0.0,0.365035561199,-0.128642990138,0.304890317071,1.0,-0.21998,-0.289116571429,2.706
-0.215109038245,-0.47295989549,-0.136391151418,-2.60412986676,-0.0630866138697,2.12415341185,-0.477286055546,-0.875517824031,-0.371318358867,-0.0174302918656,-0.276087957743,-0.0606102494458,-0.0791099897038,-0.847091363832,0.573729097969,0.819016080408,0.00532250670135,0.0,0.819006911778,-0.573646207964,-0.011766624429,0.0,-0.00658394559471,0.0111102385027,-0.999916603653,0.0,0.361356294826,-0.133519618991,0.304968948554,1.0,-0.21998,-0.289116571429,2.723
-0.231216550159,-0.479291504726,-0.136644086373,-2.60910029064,-0.0642515451593,2.12275111743,-0.492662750433,-0.895054711806,-0.347949438367,-0.00837473568052,-0.272294005035,-0.0614637747271,-0.0866731919925,-0.855445115608,0.573740038381,0.819008274436,0.00534431145726,0.0,0.818999813172,-0.573657792291,-0.0116957372302,0.0,-0.00651322505506,0.0110875162814,-0.999917319023,0.0,0.357404073106,-0.138766674215,0.304995831883,1.0,-0.21998,-0.289116571429,2.741
-0.244591584645,-0.484317274604,-0.136750193041,-2.61314321306,-0.0650556551163,2.12156089768,-0.505561276524,-0.897527468074,-0.330667358017,-0.00697346254628,-0.265571316237,-0.0458026889362,-0.0784529322882,-0.859776627688,0.57364084057,0.819077521418,0.00538022658164,0.0,0.819068647897,-0.573556996943,-0.0118181297763,0.0,-0.00659422480317,0.0111863521824,-0.999915687308,0.0,0.354102372067,-0.143010151206,0.304959945088,1.0,-0.218837142857,-0.287614530612,2.756
-0.260906936348,-0.489875999237,-0.136901243243,-2.61762995051,-0.0660319015132,2.12017084718,-0.521137276903,-0.891111703422,-0.3054620073,0.00121460747208,-0.243702835927,-0.0462770275765,-0.0765309870972,-0.852788002623,0.573688826501,0.819044044041,0.00536014644097,0.0,0.819033613245,-0.573602868821,-0.0120181594527,0.0,-0.00676893686726,0.0112850411722,-0.999913410921,0.0,0.350142623187,-0.148175836232,0.304897142102,1.0,-0.214722857143,-0.282207183674,2.774
-0.276178390616,-0.4947670994,-0.136989925665,-2.6214640876,-0.0667581276164,2.11904897145,-0.535777830536,-0.906496461824,-0.285497954904,-0.0114233944543,-0.219123386785,-0.0475186372332,-0.0671687059425,-0.851404676851,0.573744383924,0.8190042178,0.00549727586138,0.0,0.818995444374,-0.573657666785,-0.0120037633505,0.0,-0.00667770693574,0.0113895549794,-0.999912839335,0.0,0.3465262477,-0.152959319226,0.304895625152,1.0,-0.210837142857,-0.277100244898,2.791
-0.291309846236,-0.499337770861,-0.137001267587,-2.62498441037,-0.0675170412804,2.11787101161,-0.550238951713,-0.880948454053,-0.26117309387,0.00211333346674,-0.200421236478,-0.0325807334456,-0.0684936336462,-0.843619710047,0.573777816187,0.81898065882,0.00551770162913,0.0,0.818972002046,-0.573690757688,-0.0120217015783,0.0,-0.00668021526531,0.0114168486381,-0.999912511318,0.0,0.342954055658,-0.157645647521,0.304906647607,1.0,-0.206951428571,-0.271993306123,2.808
-0.306402159946,-0.503543166938,-0.137030325662,-2.62817273736,-0.0681525359059,2.11681505519,-0.564624953813,-0.888456267352,-0.237037173483,-0.00395087150408,-0.179499452191,-0.0429020757145,-0.0579872229928,-0.846724325964,0.57392399258,0.818877496746,0.00562520807063,0.0,0.818870422615,-0.57383680121,-0.0119709416719,0.0,-0.00657490993197,0.0114769481162,-0.999912521284,0.0,0.33944517254,-0.162298962465,0.304936202342,1.0,-0.203065714286,-0.266886367347,2.825
-0.320275628679,-0.507133079734,-0.136957981145,-2.63088061631,-0.0686874652399,2.11595537257,-0.578054875167,-0.863556856956,-0.223736574502,-0.00199570010266,-0.165505695523,-0.0319725440305,-0.0521780105307,-0.833411876775,0.573852055746,0.818927383996,0.00570129451246,0.0,0.818921939612,-0.573765717987,-0.0118534630801,0.0,-0.0064360420858,0.0114712701741,-0.999913489919,0.0,0.336263163953,-0.166526747568,0.30496953446,1.0,-0.199408571429,-0.262079836735,2.841
-0.335032434413,-0.510645486406,-0.136915910747,-2.63355168457,-0.0692382336661,2.11504644754,-0.592163985349,-0.860525981841,-0.203721225014,0.01080103856,-0.155750054929,-0.033898850078,-0.0516519153588,-0.82451867302,0.573963892347,0.818848609905,0.00575771128567,0.0,0.818844042082,-0.573877581256,-0.0118196184402,0.0,-0.0063743794297,0.0114989231782,-0.999913567291,0.0,0.332873202636,-0.171004048912,0.304981989303,1.0,-0.195522857143,-0.256972897959,2.858
-0.348512901518,-0.513597116352,-0.136751660269,-2.63585637061,-0.0696750284166,2.11419789089,-0.605294506656,-0.846045182431,-0.174448109739,0.0120871628192,-0.146855151355,-0.031781995425,-0.058294428875,-0.811216003985,0.57381468623,0.818953185989,0.00575603390763,0.0,0.818947975605,-0.57372729551,-0.011914299841,0.0,-0.00645498432542,0.0115507149282,-0.999912453249,0.0,0.329777398398,-0.175016746646,0.304958340234,1.0,-0.191865714286,-0.252166367347,2.874
-0.366147287641,-0.516979293381,-0.136596670642,-2.63857576262,-0.0702277223123,2.11322403493,-0.622300124258,-0.822065195564,-0.150116016289,0.0167808054366,-0.119768804629,-0.0230961006149,-0.0418982972103,-0.805665647632,0.573827568676,0.818944258028,0.00574200068219,0.0,0.818937743516,-0.573738240452,-0.0120892757574,0.0,-0.00660616478633,0.0116397248976,-0.999910433684,0.0,0.325747354674,-0.180264727791,0.304891326271,1.0,-0.187065714286,-0.245857795918,2.895
-0.376803805184,-0.518851329179,-0.136483828141,-2.6400376198,-0.0704784943587,2.11272203452,-0.632638838246,-0.824703635201,-0.144273735935,0.0161347006463,-0.112232280332,-0.0191902350199,-0.0428342906574,-0.790952101807,0.573816517644,0.818951650093,0.00579187280898,0.0,0.818945599419,-0.57372665401,-0.0121069637827,0.0,-0.00659219308041,0.0116906296272,-0.999909932029,0.0,0.323344196699,-0.183419791382,0.304876371312,1.0,-0.184094285714,-0.241952489796,2.908
-0.390696298315,-0.521059492061,-0.136367251994,-2.64169197299,-0.0708231838518,2.11206709755,-0.646036169657,-0.816145597771,-0.12460403382,0.0204251815272,-0.0969329586898,-0.018364210549,-0.0392814623182,-0.784576145575,0.573896270116,0.818895486996,0.00583090258603,0.0,0.818889885551,-0.573806119675,-0.0121094700892,0.0,-0.00657070932538,0.0117246726049,-0.999909674836,0.0,0.320225693124,-0.187543625708,0.304883338572,1.0,-0.180208571429,-0.23684555102,2.925
-0.404170856312,-0.523041976444,-0.136187637526,-2.64312838289,-0.0710729492678,2.11149319617,-0.65922591013,-0.794437205669,-0.112978190498,0.00734575472007,-0.0823742306052,-0.0139979440559,-0.0299692229814,-0.771259026808,0.573811972812,0.818954062485,0.0059000253275,0.0,0.818949702629,-0.573722162868,-0.0120420637052,0.0,-0.00647704640338,0.0117419303874,-0.999910083428,0.0,0.317222120895,-0.191504891357,0.304913759041,1.0,-0.176322857143,-0.231738612245,2.942
-0.416862252772,-0.524658839353,-0.13605237871,-2.6443029715,-0.0713072204261,2.11098638897,-0.671440672409,-0.781962932936,-0.0956300196068,0.0157586928186,-0.0673012408819,-0.0154583744889,-0.0307810145674,-0.754582776668,0.573938124612,0.818865313781,0.00594759646715,0.0,0.818861681923,-0.573848289334,-0.0120180534265,0.0,-0.00642827279598,0.0117681044641,-0.999910090471,0.0,0.31439288862,-0.195238576756,0.304932670288,1.0,-0.172665714286,-0.226932081633,2.958
-0.430655669667,-0.526144767162,-0.135884456212,-2.64540554845,-0.0715150035946,2.11054023026,-0.684951502751,-0.768784037436,-0.0774808708666,0.00737404720814,-0.0543347857448,-0.0140853391267,-0.0249294879126,-0.742646467182,0.573898058885,0.818892984378,0.00600375272021,0.0,0.81889023424,-0.573808277859,-0.0119829640783,0.0,-0.00636788480823,0.0117936413597,-0.999910175999,0.0,0.311335561634,-0.199282787588,0.304941671646,1.0,-0.168551428571,-0.221524734694,2.976
-0.443546270947,-0.527318424112,-0.135710590302,-2.64632520056,-0.0716807554206,2.11014343595,-0.697469052203,-0.736533471595,-0.0586275101299,0.0183484751399,-0.0506578129135,-0.00736049765349,-0.0205331744258,-0.733385560423,0.573956891261,0.818851471665,0.00604162453865,0.0,0.818848852164,-0.573866268433,-0.0120337095245,0.0,-0.00638685919131,0.0118542360585,-0.999909338449,0.0,0.308464917989,-0.203034926733,0.30492339963,1.0,-0.164665714286,-0.216417795918,2.993
-0.454555895807,-0.528153889452,-0.135524825627,-2.6469714283,-0.0717810200195,2.10987546118,-0.708275043831,-0.737166861306,-0.0531945165419,0.010129808213,-0.0424942201194,-0.010383758139,-0.0136944382091,-0.71554925964,0.573912353634,0.818882417253,0.00607815437058,0.0,0.818880235068,-0.573821514151,-0.0120323486192,0.0,-0.0063654255325,0.0118830227805,-0.999909133435,0.0,0.306033185425,-0.20622824814,0.304916822692,1.0,-0.161237142857,-0.211911673469,3.008
-0.468439719687,-0.528945822821,-0.135308957666,-2.64759637718,-0.071915670132,2.10955791861,-0.721730879375,-0.716341143419,-0.0329014089117,0.0206121050174,-0.0286388255734,-0.00433288320573,-0.0140148576038,-0.697816704511,0.574017053227,0.818808912324,0.00609381696419,0.0,0.818806608196,-0.573925516389,-0.0120825043898,0.0,-0.00639598837217,0.0119254507667,-0.999908433286,0.0,0.302963944623,-0.210259470193,0.304900312016,1.0,-0.156894285714,-0.206203918367,3.027
-0.478921203908,-0.529386008926,-0.135112565246,-2.6479533146,-0.0719438946032,2.10937344952,-0.732135014295,-0.703749110133,-0.0318574816558,0.014010271018,-0.0228915531137,-0.00313224860556,-0.0193226423808,-0.681440376576,0.573909313457,0.818884088948,0.00613968203888,0.0,0.818882158411,-0.573817179913,-0.0121079136688,0.0,-0.00639204588733,0.0119767510906,-0.999907845345,0.0,0.300659417722,-0.213285344175,0.304888025899,1.0,-0.153465714286,-0.201697795918,3.042
-0.491520092585,-0.529758295875,-0.134935561901,-2.64824094277,-0.071982325122,2.10916295828,-0.744331836032,-0.692090354039,-0.015392489391,0.0104474426903,-0.0118458472382,-0.00223228565418,-0.0180456452998,-0.67094079763,0.574080731823,0.81876346728,0.00620039497285,0.0,0.818762031928,-0.573987733139,-0.0121475997698,0.0,-0.00638718322471,0.0120505829635,-0.999906989345,0.0,0.297873761047,-0.216934618495,0.304879675636,1.0,-0.149351428571,-0.19629044898,3.06
-0.502826484443,-0.529920665016,-0.134649752935,-2.64836994157,-0.0719985793265,2.10905057841,-0.755628504287,-0.660772547005,-0.00821301296874,0.0183770271417,-0.00415985399721,-0.0013432325463,-0.00456254691432,-0.656438985279,0.573872850378,0.818909225633,0.0061950523587,0.0,0.818907749081,-0.573779974358,-0.0121402810022,0.0,-0.00638731410653,0.0120403858603,-0.999907111349,0.0,0.295403723441,-0.220181321535,0.304877983506,1.0,-0.145465714286,-0.191183510204,3.077
-0.514169841427,-0.530005962577,-0.13448046975,-2.64843725727,-0.0720085262475,2.10895386841,-0.7666019316,-0.667313568266,-0.00353885361082,0.00610710754014,-0.000160368239749,-0.00108483140028,0.000641194592214,-0.636926588412,0.574048328862,0.818785869727,0.00624200029657,0.0,0.818784968372,-0.573955132554,-0.0121420049311,0.0,-0.00635919639436,0.0120811862554,-0.999906798437,0.0,0.29288565895,-0.223452839157,0.304874560508,1.0,-0.14158,-0.186076571429,3.094
-0.52434530062,-0.52994430574,-0.134218888982,-2.64837977987,-0.0719971877592,2.10892019833,-0.776713862062,-0.623718737714,0.00436207854074,0.00873755044659,0.00896445431301,0.00226840874447,0.000991752597976,-0.625129264236,0.573924008641,0.818873068932,0.00623507692498,0.0,0.818872306916,-0.573831307011,-0.0121046669177,0.0,-0.00633442536344,0.012053122846,-0.999907294345,0.0,0.29065426372,-0.226366081957,0.304881996221,1.0,-0.137922857143,-0.181270040816,3.11
-0.535587906243,-0.529764388407,-0.134009676616,-2.6482531436,-0.0719983193759,2.10891265714,-0.787738537606,-0.626235841451,0.0172681871029,0.0106982131393,0.00529608999172,4.99568760555e-05,-5.78390162392e-05,-0.613431321719,0.573961844246,0.818846488823,0.00624307563954,0.0,0.81884593368,-0.573869294328,-0.0120878792637,0.0,-0.0063155296742,0.0120503305825,-0.999907447526,0.0,0.288157294689,-0.229595963971,0.304878585938,1.0,-0.133808571429,-0.175862693878,3.128
-0.545970790395,-0.529487132534,-0.133778520989,-2.64803240178,-0.0719915078598,2.10892170856,-0.797894834431,-0.592326488756,0.0231281886439,0.0152258999437,0.0147626516117,0.00324881176197,-0.00059129014443,-0.581346648156,0.573999895709,0.818819949705,0.00622547929685,0.0,0.818819338956,-0.573907746555,-0.012063809367,0.0,-0.00630535838237,0.0120223996295,-0.999907847935,0.0,0.285853491555,-0.232569328488,0.304884385659,1.0,-0.129922857143,-0.170755755102,3.145
-0.55522675642,-0.529079937818,-0.133494982509,-2.64773208833,-0.0719593803613,2.10893718126,-0.807203277848,-0.579615921207,0.0277878302098,0.012397913262,0.0204024233283,0.00052112339181,-0.000314327151416,-0.570513834305,0.573787871272,0.818968876699,0.00618099351826,0.0,0.818967549473,-0.573695703624,-0.0120888152504,0.0,-0.00635447636407,0.0119986796955,-0.999907821909,0.0,0.283814347446,-0.235202652329,0.304880773101,1.0,-0.126265714286,-0.16594922449,3.161
-0.565672139086,-0.528534877284,-0.133277021244,-2.64731542109,-0.071910200767,2.10900495946,-0.817341837571,-0.580015368056,0.0360701419833,0.0101765749843,0.0263056994367,0.00389880589995,0.00128408588871,-0.550228772289,0.573930038836,0.818869265331,0.00617929766301,0.0,0.81886798118,-0.57383797132,-0.0120813480873,0.0,-0.00634725120156,0.0119941085031,-0.999907922643,0.0,0.281490600577,-0.238198739397,0.304882440457,1.0,-0.122151428571,-0.160541877551,3.179
-0.574469129725,-0.527883490264,-0.133008295186,-2.6468213552,-0.0718390811053,2.10913992518,-0.826129968826,-0.533771791445,0.0489298796996,0.0212721048342,0.0285169470746,0.0155293263628,0.0128195630858,-0.545011044219,0.573805995091,0.818956468747,0.00614240964142,0.0,0.818954966144,-0.573714608797,-0.012044001958,0.0,-0.0063396452264,0.0119415073193,-0.999908600474,0.0,0.279572139876,-0.240723089823,0.304887363204,1.0,-0.118494285714,-0.155735346939,3.195
-0.582485093036,-0.527204017221,-0.132783002885,-2.64632315624,-0.0717460148935,2.10924856049,-0.834094631462,-0.53441867607,0.0457054761131,0.0163885802313,0.0338134433713,0.00392151402444,0.0129033923855,-0.52771822111,0.573756898699,0.818990911434,0.00613637384486,0.0,0.818989208636,-0.573665320178,-0.0120633106559,0.0,-0.00635963936528,0.0119472616909,-0.999908404768,0.0,0.277810028906,-0.243019800708,0.304880420293,1.0,-0.115065714286,-0.15122922449,3.21
-0.592501833748,-0.526262909977,-0.132541340729,-2.64560980641,-0.0715988736753,2.1093956201,-0.843843706942,-0.516737187926,0.0499876414829,0.0112015980482,0.0384457522844,0.0101216512636,0.0118162690661,-0.515207304392,0.573908322817,0.818884609143,0.00616285736143,0.0,0.818883138052,-0.573816383493,-0.0120793687975,0.0,-0.00635538303412,0.0119793409022,-0.999908048021,0.0,0.275597749247,-0.245899744472,0.304879101263,1.0,-0.110722857143,-0.145521469388,3.229
-0.600423834045,-0.525337007704,-0.13223425456,-2.64495290439,-0.0714255931384,2.10954645114,-0.851803645501,-0.482694438235,0.0596339267257,0.0231766034181,0.0407015085523,0.0130489837555,0.015342257046,-0.491379039107,0.573771273483,0.81898063282,0.00616406464379,0.0,0.818978758525,-0.573678570553,-0.0121423916468,0.0,-0.00640831518112,0.0120154248619,-0.999907277232,0.0,0.27387951509,-0.248155737352,0.30485939647,1.0,-0.107065714286,-0.140714938776,3.245
-0.608125193016,-0.524427660004,-0.131959796142,-2.64430523397,-0.0712801604921,2.10969825041,-0.859466897165,-0.482985939756,0.0565788594353,0.0217020587115,0.0376611017638,0.00976999769423,0.00659479528504,-0.468341098248,0.573706933943,0.819025757058,0.00615711957914,0.0,0.819023412537,-0.573613566691,-0.0122013411573,0.0,-0.00646152976066,0.0120430509805,-0.999906602417,0.0,0.272187396877,-0.250348043149,0.304840527,1.0,-0.103408571429,-0.135908408163,3.261
-0.616190772602,-0.523466976909,-0.131715261441,-2.64351903085,-0.0710915753379,2.10987781929,-0.86729128668,-0.467839995961,0.0550334410759,0.0110245070946,0.0478332400478,0.00365229296639,0.00665885492823,-0.447819507752,0.57385530931,0.818921579362,0.00618690017381,0.0,0.818919981761,-0.573762446024,-0.0121435541313,0.0,-0.00639493067348,0.0120354509094,-0.999907122078,0.0,0.270419288385,-0.252667222111,0.304867158196,1.0,-0.0995228571429,-0.130801469388,3.278
-0.623836818065,-0.52238751219,-0.131451897417,-2.64267881278,-0.0708924354583,2.11007948215,-0.874885996415,-0.435100222181,0.0632295138468,0.0219922723022,0.0461139716407,0.0160432517737,0.010867299661,-0.437129218285,0.573842362726,0.818930507194,0.00620596726719,0.0,0.81892922362,-0.573749539782,-0.0121300948583,0.0,-0.00637315657419,0.0120432421193,-0.999907167288,0.0,0.26875700719,-0.254870754626,0.304876796641,1.0,-0.0956371428572,-0.125694530612,3.295
-0.631080849458,-0.521326014292,-0.131156185142,-2.64186687473,-0.0706935117551,2.11027741336,-0.882170012505,-0.436286034595,0.0624499743564,0.0157784790423,0.0464061855314,0.00958371324648,0.0113390397647,-0.421598235424,0.57372988126,0.819009288817,0.00620927389529,0.0,0.819008013748,-0.573637002317,-0.0121330083135,0.0,-0.00637529999044,0.012046746436,-0.999907111411,0.0,0.26718054611,-0.256941570362,0.304880294119,1.0,-0.0917514285715,-0.120587591837,3.312
-0.638219593557,-0.520276071868,-0.130890692431,-2.64102042329,-0.0705005617484,2.11048312168,-0.889125104769,-0.409791928179,0.0580611698263,0.0168493497067,0.0496967129023,0.0138213068963,0.0101969097459,-0.399860159734,0.573820752667,0.818945593095,0.0062133935347,0.0,0.818944681341,-0.573728422213,-0.0120852533596,0.0,-0.00633248643103,0.0120234262555,-0.999907664155,0.0,0.265618063469,-0.258992115504,0.304903261172,1.0,-0.0878657142858,-0.115480653061,3.329
-0.644994004338,-0.519166919896,-0.130678632949,-2.64016034287,-0.0702872141834,2.11070101964,-0.895818815979,-0.390671936469,0.064223456578,0.0148182687722,0.0473814774609,0.00993479851033,0.0104855333433,-0.376246220162,0.573890629561,0.818896263701,0.00626111012848,0.0,0.818896003859,-0.573798130284,-0.0120742473075,0.0,-0.00629506392141,0.0120567275821,-0.999907499467,0.0,0.2640400301,-0.261065764746,0.304909754653,1.0,-0.0837514285715,-0.110073306123,3.347
-0.651007295141,-0.518106022074,-0.130401988042,-2.63936996872,-0.0700799978951,2.11091039108,-0.901847734757,-0.365488575808,0.0653589974428,0.0247260149148,0.0455472696825,0.00750090147278,0.00826272245317,-0.368282223765,0.573797226461,0.81896168315,0.00626508890662,0.0,0.818961357358,-0.573704504234,-0.0120906524617,0.0,-0.00630759280595,0.0120686809231,-0.999907276308,0.0,0.26282356268,-0.26266942279,0.304903331739,1.0,-0.0803228571429,-0.105567183674,3.362
-0.657500600626,-0.516961296517,-0.130066045656,-2.63852160502,-0.0698437711728,2.11114033396,-0.90826075855,-0.361929947,0.0612938948529,0.0151727768613,0.0435390268881,0.0164312862155,0.0141421092979,-0.349515782352,0.573771629481,0.818979607672,0.0062662844856,0.0,0.818979150196,-0.573678625924,-0.0121133233696,0.0,-0.00632585313973,0.0120824702561,-0.999906994422,0.0,0.26141039147,-0.264507879414,0.304894959475,1.0,-0.0762085714286,-0.100159836735,3.38
-0.663397982061,-0.515872012913,-0.129786477117,-2.63768389058,-0.0696282180598,2.1113757918,-0.914051293696,-0.333163038764,0.066540666316,0.0158112694157,0.0477327236263,0.0165277669369,0.0158189886045,-0.330580440853,0.573797900802,0.818961177266,0.00626945520032,0.0,0.818960903734,-0.573705150038,-0.0120907351716,0.0,-0.00630514536739,0.0120723095868,-0.99990724794,0.0,0.26012860481,-0.26619703326,0.304900850066,1.0,-0.0723228571429,-0.0950528979593,3.397
-0.6686158983,-0.514830560151,-0.129590245514,-2.63688905879,-0.0694217152473,2.11158381652,-0.919183602811,-0.327739936882,0.0683107421115,0.00300626470588,0.0499749751276,0.0106722684904,0.00876621444824,-0.309865906281,0.573859621217,0.818917645265,0.00630652925635,0.0,0.818917813544,-0.573766611378,-0.0120928586115,0.0,-0.00628470037761,0.0121043654584,-0.999906989113,0.0,0.25898585841,-0.267708585026,0.304900160613,1.0,-0.0686657142858,-0.090246367347,3.413
-0.673653949319,-0.513826960484,-0.12938247426,-2.63614309394,-0.0692139895361,2.11178061625,-0.924153818433,-0.307905651891,0.0563807431468,0.0167203076294,0.0471090376536,0.00782126749037,0.011660599123,-0.289237804613,0.573896410271,0.81889156579,0.00634512860523,0.0,0.818892051642,-0.573802859227,-0.0121174833321,0.0,-0.00628217291471,0.0121503894999,-0.999906446793,0.0,0.257873965114,-0.269152555185,0.304890245932,1.0,-0.0650085714286,-0.0854398367348,3.429
-0.678583554353,-0.512804106423,-0.129042072367,-2.63538871045,-0.0689957313841,2.11198962963,-0.929042593477,-0.284082706302,0.0602950704979,0.0206719868852,0.0422443442842,0.0153340912092,0.0169958760206,-0.285930333551,0.573821499676,0.818944212428,0.00632537280598,0.0,0.818944279524,-0.573727744895,-0.0121444914893,0.0,-0.0063167407593,0.012149132103,-0.999906244293,0.0,0.256818015841,-0.270538543645,0.304880978253,1.0,-0.0611228571429,-0.0803328979593,3.446
-0.683008516553,-0.511882811599,-0.128751203405,-2.63467441102,-0.0688114248684,2.11218366278,-0.933450191953,-0.26882968189,0.0556359316256,0.0160688437532,0.0417186833016,0.0145286218392,0.0134566592069,-0.267976324014,0.573745465797,0.818997689762,0.00629853493975,0.0,0.818997512461,-0.573652053342,-0.0121302588472,0.0,-0.00632160818138,0.012118398777,-0.999906586477,0.0,0.255868727189,-0.271794184751,0.304888243246,1.0,-0.0574657142858,-0.075526367347,3.462
-0.687473280315,-0.510903531816,-0.128505964386,-2.63393182962,-0.0685851893738,2.11238340426,-0.937741984675,-0.253905497786,0.0535996715202,0.0125782419985,0.0478893384298,0.00551710428853,0.0159382623411,-0.254299025895,0.573848667579,0.818925167505,0.00632642443769,0.0,0.818925312827,-0.573755026134,-0.0121346157156,0.0,-0.00630764583067,0.0121445359917,-0.99990635754,0.0,0.254901938434,-0.273069626716,0.304886005277,1.0,-0.0535800000001,-0.0704194285715,3.479
-0.691837259464,-0.509950984635,-0.128253518388,-2.63323926733,-0.0683630065239,2.11258996968,-0.942057999275,-0.239866163124,0.0481675880206,0.00918076260662,0.0360814456387,0.0109791459978,0.00793923475771,-0.238577959356,0.5738399437,0.818931063196,0.00635449816078,0.0,0.818931419201,-0.57374587497,-0.012155184159,0.0,-0.00630851223783,0.0121792628791,-0.99990592969,0.0,0.253948676777,-0.274303119755,0.304871405549,1.0,-0.0494657142858,-0.0650120816327,3.497
-0.695490836178,-0.509171000005,-0.128035056029,-2.63265144277,-0.0681825847378,2.11275617114,-0.945528256907,-0.220627028177,0.0472064914553,0.0121783624491,0.0376746191887,0.0121463563114,0.0150066092274,-0.209818561034,0.573942557908,0.818859055809,0.00636661938336,0.0,0.818859568094,-0.573848406599,-0.012155693539,0.0,-0.00630044664865,0.0121902717419,-0.999905846391,0.0,0.25314839863,-0.27533383289,0.304868669113,1.0,-0.0458085714286,-0.0602055510205,3.513
-0.699055624059,-0.508368816947,-0.12775638113,-2.63203912512,-0.0679750980894,2.11293389044,-0.949042982166,-0.206156947302,0.0457719256899,0.0167756626676,0.0337604148757,0.0099108522245,0.0145229003203,-0.191815986152,0.573905768068,0.818884827573,0.00636831611052,0.0,0.818885444866,-0.573811777506,-0.0121416260526,0.0,-0.00628849964252,0.0121833051629,-0.999906006506,0.0,0.252391763999,-0.276332504095,0.304871051864,1.0,-0.0419228571429,-0.055098612245,3.53
-0.702259699087,-0.507619760797,-0.127442684904,-2.63146242542,-0.0677631623015,2.11309814028,-0.952162584519,-0.186982342148,0.0420298956041,0.0214726992472,0.0305206397798,0.0174390732003,0.00565011225624,-0.175752531054,0.573871993389,0.818908586234,0.00635684640979,0.0,0.818909156312,-0.573778261406,-0.0121263080818,0.0,-0.00628303849441,0.0121648625329,-0.99990626538,0.0,0.251731424494,-0.277219965815,0.304876458354,1.0,-0.0380371428572,-0.0499916734695,3.547
-0.705047785887,-0.506982392376,-0.127149391711,-2.63096262979,-0.067575714871,2.11324066269,-0.954909194428,-0.173501679115,0.0374732214638,0.0153472671298,0.0294876282302,0.00763651324159,0.00886210958136,-0.172102412305,0.573802842879,0.818957176631,0.00633934144075,0.0,0.81895768244,-0.573709523296,-0.0121014112211,0.0,-0.00627371779938,0.012135710186,-0.999906678147,0.0,0.251159285681,-0.277986070694,0.304885891584,1.0,-0.0343800000001,-0.0451851428572,3.563
-0.707741811095,-0.506344502398,-0.126880768306,-2.63046516221,-0.0673790539215,2.11336929148,-0.95746692783,-0.156631542811,0.0390174493317,0.00917631581209,0.0282471304905,0.0174394390967,0.00597276723587,-0.14084572994,0.573832663021,0.818936259618,0.00634227359027,0.0,0.818936864181,-0.573739440783,-0.0120918764872,0.0,-0.00626378419649,0.0121328689267,-0.999906774904,0.0,0.250603667492,-0.278729005409,0.304892162141,1.0,-0.0304942857143,-0.0400782040817,3.58
