nelsonifechukwu/NELSON_IML_WORK/CNN-GradCAM/train2dof/data_sample_2022-02-21-09-02-35/robot_state.csv
position_joint1,position_joint2,position_joint3,position_joint4,position_joint5,position_joint6,position_joint7,velocity_joint1,velocity_joint2,velocity_joint3,velocity_joint4,velocity_joint5,velocity_joint6,velocity_joint7,ee_T_00,ee_T_10,ee_T_20,ee_T_30,ee_T_01,ee_T_11,ee_T_21,ee_T_31,ee_T_02,ee_T_12,ee_T_22,ee_T_32,ee_T_03,ee_T_13,ee_T_23,ee_T_33,v_x,v_y,time
0.465085879596,0.547607084281,-0.123993234796,-1.35573020627,0.0794588382725,1.8940886821,0.159168023486,-0.00145544806994,0.00188208095402,-0.0046170982484,7.95221078765e-05,-0.000370849551112,9.68538314341e-05,-0.00126850479786,0.573789369716,0.818988333355,0.00214847149428,0.0,0.818948259939,-0.57373049813,-0.0117392486966,0.0,-0.00838182548035,0.00849550666715,-0.999928783148,0.0,0.661703119916,0.260902876765,0.303385693472,1.0,0.0,0.0,0.0
0.465088618545,0.547597182885,-0.123988148931,-1.35573549599,0.0794573106054,1.89409274773,0.159166488994,0.00228251147018,-0.000325964417763,-0.00130771301542,-0.00143884699192,-0.000180002962385,0.000199976528431,0.00445080118757,0.573782209779,0.818993328364,0.00215655688612,0.0,0.818953347833,-0.573723295843,-0.0117363018947,0.0,-0.00837484726885,0.00850036437584,-0.999928800335,0.0,0.661701183464,0.260907164502,0.303390372162,1.0,-6e-05,-7.88571428571e-05,0.004
0.465082926997,0.547603768805,-0.12398537366,-1.35573581121,0.0794619402936,1.89409180891,0.159169282506,-0.0017401629885,0.000791011824625,0.00105592922207,-0.000386394459686,0.000158419391192,0.00024680411512,-0.00043756616434,0.573788469343,0.818988952406,0.00215294854128,0.0,0.818948868815,-0.573729511444,-0.0117449932404,0.0,-0.00838397101264,0.00850246016506,-0.999928706059,0.0,0.661701337199,0.26090556603,0.303385391518,1.0,-0.00044,-0.000578285714286,0.023
0.465081537186,0.547584220136,-0.12398838529,-1.35573977226,0.0794595473676,1.89409397216,0.159169282507,-0.000937728185048,-0.00150489017725,-0.000297327258841,0.00124985504564,-0.000371112836758,0.00889409725844,0.00230127578335,0.573791271994,0.818986952895,0.00216658096908,0.0,0.818947082042,-0.573732297868,-0.0117334606703,0.0,-0.00836667480779,0.00850703627236,-0.999928812009,0.0,0.661702566588,0.260902451733,0.303397638219,1.0,-0.00076,-0.000998857142857,0.039
0.465087128739,0.547499509357,-0.123987739172,-1.35582427323,0.0794576287502,1.8941036613,0.159171963313,-0.000133402232405,-0.00226739315646,0.00307376859745,-0.00678197239826,4.7198004187e-05,0.000160360446465,0.000668196103064,0.573792456679,0.818986091297,0.00217849083216,0.0,0.818946316943,-0.573733377833,-0.0117340541717,0.0,-0.00836031521945,0.0085171427949,-0.999928779168,0.0,0.661685866185,0.260897954743,0.303418242731,1.0,-0.0011,-0.00144571428571,0.056
0.465089755811,0.547375601771,-0.123986011056,-1.35596542579,0.0794597559328,1.89413491536,0.159169164184,0.00177768524707,-0.00220896445041,0.000273208051299,-0.00596724635447,2.74494694314e-05,0.00418784696922,0.00151118152819,0.573795067739,0.818984209026,0.00219829612884,0.0,0.818944562838,-0.573735781528,-0.0117389477546,0.0,-0.00835293251389,0.00853619733249,-0.999928678383,0.0,0.661661811022,0.260888032821,0.303441491189,1.0,-0.00142,-0.00186628571429,0.072
0.465071513504,0.547220417771,-0.123988551814,-1.35617821215,0.0794536753122,1.89420329087,0.159167520123,0.00122987323155,-0.0115957189192,-0.00429134480079,-0.0125930110086,-0.000243819108077,0.00422127165993,0.00181530745564,0.57382063645,0.818966259977,0.00221113186216,0.0,0.818926721709,-0.573761238178,-0.0117393755133,0.0,-0.00834565138322,0.00854721545609,-0.99992864506,0.0,0.661636444073,0.260854930268,0.303456144545,1.0,-0.00176,-0.00231314285714,0.089
0.46505499881,0.547057430112,-0.123987020601,-1.35637631919,0.0794510562871,1.89430491939,0.159149275118,0.000323381509262,-0.00869363534638,0.000190695025569,-0.011270543091,-0.000134019309889,0.00356808843786,0.00106408026208,0.573828667868,0.818960463286,0.00227297345931,0.0,0.818921676122,-0.573768982295,-0.0117128235425,0.0,-0.00828833730239,0.00858270640912,-0.999928817774,0.0,0.661619696789,0.260830001054,0.303486070102,1.0,-0.00208,-0.00273371428571,0.105
0.465032724635,0.546845934951,-0.123985681119,-1.35660032221,0.07944703465,1.89442768264,0.159136053659,0.000571380698977,-0.0175886731855,0.000213419971886,-0.0124938492859,-0.00168259959037,0.00304235034023,0.00065885852886,0.573846746088,0.818947513869,0.0023724319859,0.0,0.818909984093,-0.573786657837,-0.0116643105818,0.0,-0.00819134604059,0.00863650119195,-0.999929153839,0.0,0.661604122477,0.260799925373,0.303539862147,1.0,-0.00242,-0.00318057142857,0.122
0.46499945669,0.546616087446,-0.123986283865,-1.35693602116,0.0794364967007,1.89457356947,0.159105386426,-0.00228361431632,-0.015550480456,-0.000286093581765,-0.0207363864305,-8.21908184487e-05,0.00553419867824,-0.00164257528942,0.573865406472,0.8189343255,0.00241094868407,0.0,0.818897242402,-0.573805121206,-0.0116505865058,0.0,-0.00815780756301,0.00866035452841,-0.999929221713,0.0,0.661571691864,0.260748940071,0.30355553279,1.0,-0.00278,-0.00365371428571,0.14
0.464959157753,0.546358431903,-0.12398707312,-1.35733283714,0.0794249782126,1.89471055552,0.158995021727,-0.00262123268028,-0.00821063957993,9.28017008255e-05,-0.0203732520766,-0.00422833235361,0.0159785196098,-0.00415860571984,0.573829281328,0.818959595053,0.00242579110578,0.0,0.818922590658,-0.573768826382,-0.0116563837856,0.0,-0.00815442102691,0.00867547649712,-0.999929118251,0.0,0.661526093855,0.260680888241,0.303565580436,1.0,-0.00314,-0.00412685714286,0.158
0.464920707687,0.546079693743,-0.123989239161,-1.35777616022,0.0794064563523,1.8948737348,0.158957016129,-0.00185964967691,-0.0161406466947,-0.000137295973736,-0.0254287902477,9.96856836874e-05,0.00785716166325,-0.00143663730709,0.573849428483,0.818945498014,0.00241901096696,0.0,0.818908332575,-0.573788917714,-0.0116690894732,0.0,-0.00816850387434,0.00867741562969,-0.99992898648,0.0,0.661475823751,0.260617962633,0.303561592473,1.0,-0.00346,-0.00454742857143,0.174
0.464870983305,0.545774436185,-0.123989243325,-1.35828613043,0.0793714241394,1.8950451149,0.158917553217,-0.00502966233717,-0.0165528801448,-6.10712406363e-05,-0.0319687901114,-0.000213123961022,0.0107222793385,0.00157971401383,0.57387698206,0.818926281579,0.0023878236395,0.0,0.81888872284,-0.573816592884,-0.0116843586943,0.0,-0.00819861344167,0.00866091310474,-0.999928883132,0.0,0.661415906763,0.260534500122,0.303549808762,1.0,-0.0038,-0.00499428571429,0.191
0.464818836391,0.545485870199,-0.123991374299,-1.35879798255,0.0792904082469,1.89522135949,0.158831678848,-0.00286926529693,-0.0167786507443,-0.00233383667863,-0.035524167892,-0.00315164403255,0.014151367875,-0.0137359925864,0.573857937081,0.818939825198,0.00231897717303,0.0,0.818901794259,-0.573798243656,-0.0116693546691,0.0,-0.00822603262051,0.00859573185977,-0.999929220386,0.0,0.661359736044,0.260440647343,0.303525700526,1.0,-0.0041,-0.00538857142857,0.206
0.464764885225,0.545104976285,-0.123992087623,-1.35945911397,0.0792673858503,1.89543012999,0.158746579497,-0.0027358663526,-0.0183402760795,-0.00241170718859,-0.0403183455542,0.000238024559695,0.018332269013,-0.00315430362946,0.573863577196,0.818936017887,0.00226721781258,0.0,0.818897116868,-0.573803868361,-0.0117209018145,0.0,-0.00829789006684,0.00858298202227,-0.999928736181,0.0,0.66127502977,0.260341516119,0.303498761527,1.0,-0.00444,-0.00583542857143,0.223
0.464696053148,0.544689972365,-0.123994945386,-1.36015337846,0.0792483841025,1.89566235131,0.158691202676,-0.00716319925667,-0.0230077351414,-0.000574371978434,-0.0470426938694,-0.00177827811325,0.0107689952907,-0.00282678542615,0.573910183391,0.818903435814,0.00223855172098,0.0,0.81886393847,-0.573850346196,-0.0117633900601,0.0,-0.0083486475943,0.008584363901,-0.99992830182,0.0,0.661192347219,0.260230067436,0.30348227904,1.0,-0.00478,-0.00628228571429,0.24
0.464634558939,0.544251583621,-0.123995870302,-1.36088181186,0.0792177146374,1.89591948583,0.158565679767,-0.00328062623449,-0.0263812608247,-0.000356883667942,-0.040905004296,-4.26944752641e-05,0.0175067551622,-0.00345932508903,0.573890839857,0.818917049533,0.00221738885958,0.0,0.818877136259,-0.573830941744,-0.0117912217352,0.0,-0.00838378759017,0.00858280842951,-0.999928021162,0.0,0.661105606642,0.260120649325,0.30346812378,1.0,-0.00512,-0.00672914285714,0.257
0.464566560567,0.543788721785,-0.12399883587,-1.3616269305,0.0791802105727,1.89618192141,0.158501737879,-0.00173159327601,-0.0310683262624,-0.000121423804283,-0.0445740424318,-0.00734018101584,0.0144344822253,-0.000430493621692,0.573927720988,0.818891240221,0.00220333209558,0.0,0.818851070566,-0.573867797533,-0.0118077131193,0.0,-0.00840497332526,0.00858113993942,-0.999927857628,0.0,0.661019177561,0.26000334959,0.303463814899,1.0,-0.00544,-0.00714971428571,0.273
0.464484143003,0.543243732349,-0.124004414328,-1.36250712013,0.0791358887447,1.89648530602,0.158355759732,-0.00681294377066,-0.0335218331156,-0.000570128602042,-0.0495845083622,-0.00131170674541,0.0155782700541,-0.00320162764024,0.573916677278,0.818899042316,0.00218012339493,0.0,0.818858478035,-0.573856751457,-0.0118308350426,0.0,-0.00843734340199,0.0085752911631,-0.999927635191,0.0,0.660916605649,0.259861731221,0.303456899652,1.0,-0.0058,-0.00762285714286,0.291
0.46439954452,0.542671349875,-0.124008441843,-1.36344507202,0.0790709892973,1.89682037849,0.158256706983,-0.0066132276166,-0.0292617712915,-0.000796047830111,-0.0486305980134,-0.000964059678425,0.0200334205637,-0.00313931947966,0.573942517113,0.818881018011,0.00214762495539,0.0,0.818840099799,-0.573882786106,-0.0118400031382,0.0,-0.0084632317736,0.00855420733157,-0.999927597001,0.0,0.660808988699,0.259711902624,0.303444466217,1.0,-0.00616,-0.008096,0.309
0.464334680303,0.542068951657,-0.124019057749,-1.3643554354,0.0790185959492,1.897161726,0.158129184016,-0.00616005454045,-0.0424672512229,-0.000741598613545,-0.0504857403586,-0.0060487943835,0.0181665667952,-0.00618546386675,0.573935266076,0.818886027978,0.00217495697317,0.0,0.818845493374,-0.57387545668,-0.0118222291684,0.0,-0.00843306622199,0.00856631288722,-0.999927748229,0.0,0.660705314145,0.259577425937,0.303467095866,1.0,-0.0065,-0.00854285714286,0.326
0.464254969562,0.541529234272,-0.124006327814,-1.36520946115,0.078968269806,1.89746853022,0.158027164826,-0.00388272616832,-0.0374839272153,0.00132047060748,-0.06095680668,-0.00366176269216,0.0176209494499,-0.0119850962467,0.57394201485,0.818881305496,0.00217209565046,0.0,0.818840639477,-0.573882120225,-0.0118349536694,0.0,-0.00844505804757,0.00857134237098,-0.999927603922,0.0,0.660604335534,0.259450530354,0.303468380815,1.0,-0.0068,-0.00893714285714,0.341
0.464173684534,0.540825668252,-0.124012227826,-1.36628673269,0.0789010798065,1.89786639933,0.157882406917,-0.00644205429682,-0.0411322347752,0.0028973495686,-0.0633606854377,-0.010259585992,0.0288511951514,-0.0132340679203,0.573935952813,0.818885506343,0.0021900847435,0.0,0.818845111858,-0.573876026449,-0.0118209963036,0.0,-0.00842336758926,0.00857800011654,-0.999927729785,0.0,0.660479789558,0.259290908731,0.303487656084,1.0,-0.00716,-0.00941028571429,0.359
0.464080766267,0.540119624462,-0.12401731948,-1.36735277984,0.0788511749589,1.89826003867,0.15774027349,-0.00270178066409,-0.0486212751042,2.0639115625e-05,-0.0680597607575,-0.000257454414522,0.0224366731543,-0.00887497824947,0.573944908553,0.818879133153,0.00222578860461,0.0,0.818839090871,-0.573884727211,-0.0118156691076,0.0,-0.00839842048587,0.0086042715018,-0.99992771391,0.0,0.660358724323,0.259127952567,0.303513549564,1.0,-0.0075,-0.00985714285714,0.376
0.463990191632,0.539400174984,-0.124025777406,-1.36849954897,0.0787756352664,1.89869626357,0.157607910192,-0.00362184859767,-0.0417402403087,2.91233825883e-05,-0.0716606982903,-0.00694781242075,0.0289977145196,-0.0149081565513,0.573959989324,0.818868561652,0.00222627364493,0.0,0.818828627237,-0.573899908301,-0.0118034473868,0.0,-0.00838797523797,0.00859780866308,-0.999927857177,0.0,0.660229233632,0.258953937434,0.303514153689,1.0,-0.00784,-0.010304,0.393
0.463886994598,0.538690817562,-0.124021210689,-1.36960100044,0.0787165941577,1.89911643743,0.157475718711,-0.00467214997536,-0.0445908869989,0.000244230948552,-0.071247296301,-0.00031355259173,0.0261495207262,-0.00461518841445,0.573978198925,0.818855720769,0.00225446757581,0.0,0.818816072577,-0.573917924163,-0.0117984115062,0.0,-0.00836747850653,0.00861819119959,-0.999927853439,0.0,0.660105901462,0.25878597925,0.303527287448,1.0,-0.00816,-0.0107245714286,0.409
0.463772763584,0.537912501163,-0.124032188322,-1.37079649329,0.0786549682014,1.89957898317,0.157322559197,-0.00973162641278,-0.0445888989393,-0.00118206318243,-0.0702470917243,-0.00209099690712,0.0265820433052,-0.00540760028631,0.574003642693,0.818837771869,0.00229530771482,0.0,0.818798633035,-0.573943186039,-0.0117798404536,0.0,-0.00832856243787,0.00864123252052,-0.999927979481,0.0,0.659977399899,0.258593929807,0.303548432905,1.0,-0.0085,-0.0111714285714,0.426
0.463684878365,0.537154961002,-0.124032562913,-1.37198677234,0.0785743036015,1.9000233238,0.157169840494,-0.0046701295438,-0.0474232657369,0.000218700507639,-0.0711526528922,-0.00333886025875,0.0262260118043,-0.0141802710825,0.573994841021,0.818843929963,0.00229950953455,0.0,0.818804915964,-0.573934442391,-0.0117691261967,0.0,-0.00831746996175,0.00863843374807,-0.999928095993,0.0,0.659837491866,0.258421471577,0.303555294923,1.0,-0.00882,-0.011592,0.442
0.463560180986,0.536268836636,-0.124033659015,-1.37336101118,0.0784992161613,1.90055196368,0.157005931896,-0.00992471840874,-0.0505784042835,0.00107768188421,-0.0807273196576,-0.00163252037237,0.0310640924863,-0.0166258092745,0.574019144619,0.81882678748,0.00233679656492,0.0,0.818788209238,-0.573958551416,-0.0117557037801,0.0,-0.00828482029793,0.00866150726384,-0.999928167442,0.0,0.659684230264,0.258210782806,0.303572588831,1.0,-0.00918,-0.0120651428571,0.46
0.463461175305,0.535509709601,-0.124042078608,-1.37456315271,0.0784277897691,1.90098336717,0.156848691865,-0.00608454259133,-0.0479584257544,-0.000387651849521,-0.0833184248763,-0.00325220352684,0.0300642562361,-0.0111174134838,0.574024225519,0.818823258027,0.00232541015799,0.0,0.818784528614,-0.573963671174,-0.0117620906512,0.0,-0.00829653217092,0.00865590148952,-0.999928118878,0.0,0.659542692868,0.258025573035,0.303573803618,1.0,-0.00948,-0.0124594285714,0.475
0.463339068665,0.534602114623,-0.124048507624,-1.37598639304,0.0783428839925,1.90150925326,0.156679333131,-0.00680679790783,-0.0497765511368,-0.000606811805856,-0.0840322055945,-0.00589929455094,0.0331785217941,-0.00630917679147,0.574045374585,0.818808411332,0.00233245598255,0.0,0.818769778653,-0.573984796483,-0.0117579705868,0.0,-0.008288890531,0.00865951982097,-0.999928150924,0.0,0.659378524491,0.257806229384,0.30358251429,1.0,-0.00982,-0.0129062857143,0.492
0.46321692497,0.533701015536,-0.124049986802,-1.3774630861,0.0782619842382,1.90204513593,0.156506570611,-0.00512425216349,-0.0551905677411,0.000297355944918,-0.0878093713787,-0.000842674149588,0.0251140386735,-0.00832341240887,0.574064176433,0.818795317359,0.00230141422199,0.0,0.818756179035,-0.574003607102,-0.0117866545933,0.0,-0.00832999790173,0.00865075983071,-0.999927885144,0.0,0.659202042578,0.257584649913,0.303561749201,1.0,-0.01016,-0.0133531428571,0.509
0.463089827847,0.532830322437,-0.124044272502,-1.37886185295,0.078187220953,1.90257350426,0.15632730476,-0.00349995598431,-0.0520636157639,0.00124178370779,-0.0926761528008,-0.00205080739312,0.0307217692365,-0.0159072767784,0.57408398997,0.818781403495,0.00230925352973,0.0,0.818742318963,-0.574023338274,-0.0117885180278,0.0,-0.00832681423288,0.00865844975725,-0.999927845103,0.0,0.659032593663,0.257355178285,0.303557723372,1.0,-0.0105,-0.0138,0.526
0.462961937961,0.531855071363,-0.124052398236,-1.38041340544,0.0780876033556,1.90315813966,0.156128627671,-0.00752189033541,-0.0573470253946,0.000572269764708,-0.0839355333021,-0.00652243062966,0.0264442752903,-0.0136941088931,0.574079768441,0.81878436885,0.00230731320892,0.0,0.81874527204,-0.574019138129,-0.0117879376563,0.0,-0.0083274974845,0.00865648496521,-0.999927856424,0.0,0.658861366426,0.257136517228,0.303555497834,1.0,-0.01082,-0.0142205714286,0.542
0.462821730199,0.530838619989,-0.124055332777,-1.38203131779,0.0779965250628,1.9037301599,0.155932978735,-0.00523051536708,-0.0645459284586,-0.00264711174042,-0.0922512881342,-0.00180702193056,0.0392194369005,-0.00994052833517,0.574099978873,0.818770260075,0.00228525197578,0.0,0.81873077208,-0.574039322396,-0.0118121164319,0.0,-0.00835974609829,0.0086525084961,-0.999927621752,0.0,0.658666562787,0.256887824412,0.303551407065,1.0,-0.01116,-0.0146674285714,0.559
0.462692344977,0.529873362786,-0.124060926819,-1.38357697128,0.0778910220422,1.90427472735,0.155724420235,-0.00974151245135,-0.0615031523573,-0.00139048342099,-0.0931703157699,-0.00523726664795,0.0389348719143,-0.00892936221708,0.574094586334,0.818774147182,0.00224694222209,0.0,0.818734230306,-0.574034150431,-0.0118237543302,0.0,-0.00839132435771,0.00862776797315,-0.999927571025,0.0,0.658479980866,0.256648468131,0.303543094341,1.0,-0.01148,-0.015088,0.575
0.462550892421,0.528825083883,-0.124059464919,-1.38523988192,0.0777909613522,1.90489122361,0.155500934086,-0.0138270267101,-0.0635234652651,0.000444910413801,-0.101594509915,-0.00316491190898,0.0381214928656,-0.00727545395077,0.574087337223,0.818779193558,0.00226016313282,0.0,0.818739390916,-0.574026791429,-0.0118236790221,0.0,-0.00838374959655,0.00863847531014,-0.999927542118,0.0,0.658271644124,0.256386360145,0.303551748036,1.0,-0.01184,-0.0155611428571,0.593
0.46241499647,0.527718024617,-0.124056358259,-1.38694543614,0.0776870379983,1.90555659333,0.155248248928,-0.0141419085467,-0.0693038223711,0.000594838122834,-0.100084753834,-0.0059740659629,0.0396064550493,-0.0095770676057,0.574056487699,0.818800699271,0.00230449696049,0.0,0.818761509684,-0.573995812687,-0.0117959391158,0.0,-0.00833591208302,0.00865853549198,-0.999927768558,0.0,0.658085845143,0.256150969665,0.303568412925,1.0,-0.01216,-0.0159817142857,0.609
0.462274537659,0.526575740957,-0.124067339713,-1.3887037701,0.0775733561723,1.90622691581,0.155009356805,-0.00729217257847,-0.0662132991374,-0.00103126980004,-0.100715692146,-0.000762513023652,0.0423138268161,-0.019324281068,0.574048103409,0.818806467083,0.00234336020941,0.0,0.818767901999,-0.573987406485,-0.0117612394769,0.0,-0.00828527921285,0.00867035226889,-0.999928086984,0.0,0.657882351866,0.255885532484,0.303593828447,1.0,-0.0125,-0.0164285714286,0.626
0.462113738084,0.525407969789,-0.124065243362,-1.39054063117,0.0774659391418,1.90688951699,0.154768735869,-0.0125737356641,-0.0720418183291,0.000360361728502,-0.102689389099,-0.00214953667116,0.0308967950956,-0.014724229207,0.574051258921,0.818804262827,0.00234055731868,0.0,0.818765566796,-0.573990473299,-0.0117741280838,0.0,-0.00829740841376,0.00867548781886,-0.999927941866,0.0,0.657660884551,0.255605873364,0.303598435817,1.0,-0.01284,-0.0168754285714,0.643
0.461965219335,0.524228097978,-0.124076075281,-1.3924138929,0.077343265805,1.90755726971,0.154521083513,-0.00837490809898,-0.0718703030097,-0.000310723868995,-0.111399778017,-0.00988906461033,0.0412631702514,-0.00869566951598,0.574045253583,0.818808556244,0.0023112683622,0.0,0.818769543728,-0.573984646706,-0.0117816174544,0.0,-0.00832041681754,0.00865574437147,-0.999927921779,0.0,0.657432256247,0.25532054653,0.3035947657,1.0,-0.01318,-0.0173222857143,0.66
0.461815297931,0.523118552693,-0.124078024024,-1.39422564872,0.0772251533709,1.90823012462,0.154269209982,-0.00741832270333,-0.0730531671767,0.000137395720371,-0.118480976539,-0.00472728901351,0.0458927600274,-0.0203871645485,0.574028580604,0.818820333951,0.00227953041496,0.0,0.818780957262,-0.57396814718,-0.0117922410442,0.0,-0.00834750961657,0.00863568574773,-0.999927869406,0.0,0.657214758233,0.255046948044,0.303570819655,1.0,-0.0135,-0.0177428571429,0.676
0.46164922323,0.521879470974,-0.124083983603,-1.39616367104,0.0771152333411,1.90897287231,0.154009682352,-0.0124601024736,-0.0737348540229,-0.000827477621445,-0.117047507723,-0.0105189601108,0.0429500906321,-0.0127417449327,0.57403058508,0.818818820416,0.00231810836973,0.0,0.818779912161,-0.573969970039,-0.0117760704984,0.0,-0.00831210359688,0.00865801189905,-0.999927971288,0.0,0.656988882748,0.254753176232,0.303583691183,1.0,-0.01384,-0.0181897142857,0.693
0.461457980415,0.520493255429,-0.12409007866,-1.39841051661,0.0769734356884,1.90983184772,0.153706302107,-0.0149689041344,-0.0743674077405,-0.00051596836776,-0.111999842888,-0.00289083669786,0.0419887399457,-0.0152527272834,0.574025014902,0.818822750396,0.00230924276307,0.0,0.818783797696,-0.573964507849,-0.0117721392075,0.0,-0.00831403208882,0.00864843945263,-0.999928038093,0.0,0.656724712746,0.254410866104,0.303562656802,1.0,-0.01422,-0.0186891428571,0.712
0.461316200009,0.519335689775,-0.124098949189,-1.40021695561,0.0768585840953,1.91047984838,0.153465804892,-0.00668937599355,-0.0795091954645,-0.000272463567415,-0.118810533315,-0.0159980059858,0.0391522544506,-0.016804922131,0.574015472122,0.818829454461,0.00230416436243,0.0,0.818790463981,-0.573955014857,-0.011771317545,0.0,-0.00831637494881,0.00864371262376,-0.999928059482,0.0,0.656502205757,0.25413882039,0.303572045064,1.0,-0.01452,-0.0190834285714,0.727
0.461138773968,0.517999076363,-0.124097901333,-1.40232337729,0.0767218261752,1.91123304885,0.15317947323,-0.00895785123749,-0.0793638146951,0.0022016851221,-0.121439226461,-0.0128606448703,0.0457543374831,-0.0172885309964,0.574000254691,0.818840172935,0.00228597976096,0.0,0.818800943531,-0.573939865814,-0.0117810102625,0.0,-0.00833491003624,0.00863423151205,-0.999927987068,0.0,0.656241847497,0.253819558196,0.303572794071,1.0,-0.01486,-0.0195302857143,0.744
0.460972158922,0.516715610655,-0.124111737466,-1.40431873825,0.0765924163521,1.91196001594,0.152892000926,-0.0158753067306,-0.0753242880456,-0.000641016557034,-0.12502137304,-0.00548813363564,0.050272601809,-0.0240019298696,0.573981686872,0.818853172633,0.00229165991466,0.0,0.818814101719,-0.573921366456,-0.0117677037856,0.0,-0.00832094919383,0.00863105609852,-0.999928130755,0.0,0.656000645446,0.253510638912,0.303586911004,1.0,-0.01518,-0.0199508571429,0.76
0.460787899946,0.515348080097,-0.124115855831,-1.40650425224,0.0764605126008,1.91279425964,0.152603480459,-0.0104675907868,-0.0819005613903,0.000900669945106,-0.128141125538,-0.00931915079924,0.0426627296577,-0.0229907455795,0.573979265467,0.818854838872,0.00230273130047,0.0,0.818815915532,-0.573918907267,-0.0117614307421,0.0,-0.0083094834268,0.00863649669552,-0.999928179126,0.0,0.655739665879,0.253181225972,0.30357814199,1.0,-0.01552,-0.0203977142857,0.777
0.460572636476,0.513782390132,-0.124118597261,-1.40900216661,0.0763004917272,1.91367775041,0.152250935849,-0.0132922812622,-0.0838728916843,3.7750951011e-05,-0.134858868116,-0.00809632725131,0.0442278541004,-0.0209778054156,0.573956776539,0.818870729471,0.00225698503198,0.0,0.818831185844,-0.573896568768,-0.0117883140036,0.0,-0.00835799023894,0.00861423828726,-0.999927966855,0.0,0.655427672667,0.252796773452,0.303563317426,1.0,-0.0159,-0.0208971428571,0.796
0.460378792409,0.512387019974,-0.124121679557,-1.41128366816,0.0761737251954,1.91446917328,0.151942037449,-0.011446695495,-0.0846388854666,-0.00034287530618,-0.131053441245,-0.00756230073664,0.0424384880379,-0.0187620448394,0.573950108092,0.818875604618,0.00218276968653,0.0,0.818834875341,-0.573889965008,-0.0118533492798,0.0,-0.00845391170318,0.00859072444261,-0.999927362777,0.0,0.655136124768,0.252448790898,0.303523761488,1.0,-0.01624,-0.021344,0.813
0.460199578786,0.511104678774,-0.12412448925,-1.41329975347,0.0760435703034,1.91523686814,0.15164881049,-0.0127235405065,-0.0912845444333,0.000633109072292,-0.135816096192,-0.0137269062116,0.0459275755066,-0.0190394545021,0.573929136629,0.81889024141,0.00220579992482,0.0,0.818849879796,-0.57386897465,-0.0118330550887,0.0,-0.00842429539084,0.00859771962678,-0.999927552608,0.0,0.654895711117,0.252138417981,0.303528802855,1.0,-0.01654,-0.0217382857143,0.828
0.460021001123,0.509821496052,-0.124125309157,-1.41535836928,0.0759221431447,1.91602629026,0.151364357439,-0.0154892924798,-0.0857058717259,0.00034643504131,-0.140148575608,-0.0112617169041,0.0536328978218,-0.0176609418096,0.5739179029,0.818898083102,0.00221745882612,0.0,0.818857835383,-0.573857658042,-0.0118313414168,0.0,-0.00841631911825,0.00860616788425,-0.999927547099,0.0,0.654647716555,0.251827499364,0.303515697551,1.0,-0.01684,-0.0221325714286,0.843
0.459811382005,0.508234558835,-0.124131233564,-1.4178750108,0.0757644515207,1.91691851784,0.151021583669,-0.0123440725691,-0.0863759380039,0.000213004507125,-0.140456350876,-0.0127287622378,0.0524887297032,-0.0155584768388,0.573901084481,0.818909962973,0.00218281387834,0.0,0.818869218984,-0.573840931785,-0.0118547083244,0.0,-0.00845551359997,0.00859103446335,-0.999927346569,0.0,0.654328880214,0.25144421643,0.303505725872,1.0,-0.0172,-0.0226057142857,0.861
0.459587899199,0.50661159584,-0.12413206004,-1.42041886888,0.075604918007,1.91784257702,0.150655470608,-0.00912876626722,-0.0896398685532,-0.0010815557135,-0.141580633397,-0.0102405183586,0.0554041905147,-0.0207528742998,0.573873417591,0.818929349259,0.00218366799581,0.0,0.818888579294,-0.573813227266,-0.0118584070698,0.0,-0.00845834285425,0.00859357082791,-0.999927300846,0.0,0.654012174343,0.251054012373,0.303509988604,1.0,-0.01756,-0.0230788571429,0.879
0.459367286563,0.505013854855,-0.124140817572,-1.42287400877,0.0754487861515,1.91879132516,0.150317160218,-0.0130088094,-0.0927117042637,-0.000617574437254,-0.140792238788,-0.0143005338091,0.0565585756541,-0.018159460444,0.573868016975,0.818932941292,0.00225469751979,0.0,0.818893203661,-0.573807659849,-0.0118083613195,0.0,-0.00837665463629,0.00862296338819,-0.999927735469,0.0,0.653720815733,0.25067347934,0.303540601349,1.0,-0.0179,-0.0235257142857,0.896
0.459154188316,0.503457953384,-0.124138428422,-1.42520163232,0.0752976021109,1.91967008246,0.150001078344,-0.0174307520088,-0.09240015865,0.000899411065946,-0.145891441342,-0.00783033460092,0.0558339989659,-0.0173490713233,0.573860742876,0.818937793023,0.0023421880866,0.0,0.818899249352,-0.573800112037,-0.0117557533908,0.0,-0.00828344243262,0.00866434825543,-0.999928154244,0.0,0.65343930247,0.250315130922,0.303595606588,1.0,-0.01822,-0.0239462857143,0.912
0.458924107089,0.501763938313,-0.124144644777,-1.42770437058,0.0751334604459,1.92059768528,0.149647412015,-0.0129101010968,-0.0969720304927,0.00128173224064,-0.146067559334,-0.0112933325059,0.058476856977,-0.0199267276985,0.573847620728,0.818946708008,0.0024381404432,0.0,0.81890950088,-0.573786732645,-0.0116945162911,0.0,-0.00817837043866,0.00870765437194,-0.99992864296,0.0,0.653134952607,0.249923036496,0.303667560513,1.0,-0.01856,-0.0243931428571,0.929
0.458698758664,0.500147812874,-0.12414473696,-1.43015511217,0.0749814746282,1.92145487195,0.149303261731,-0.0162135913955,-0.0978209321079,-0.000934962230198,-0.154522560325,-0.0112491000948,0.0567393184693,-0.0189824150949,0.573834081325,0.818956130433,0.00245976370433,0.0,0.818919109101,-0.573773015353,-0.011694721172,0.0,-0.00816627478592,0.00872534507138,-0.999928587605,0.0,0.652822695587,0.249540117022,0.303703045399,1.0,-0.01888,-0.0248137142857,0.945
0.45845372511,0.498468827083,-0.124145145068,-1.43276817162,0.0748168966998,1.9224257668,0.148923108736,-0.0148963738844,-0.0954060790336,0.00191689247055,-0.14958833498,-0.00492241522192,0.0569231884108,-0.0217435862546,0.573812208532,0.818971368839,0.00248862694488,0.0,0.818934714356,-0.573751032948,-0.0116804415447,0.0,-0.0081382516068,0.0087405712387,-0.999928683095,0.0,0.652500230922,0.249131455488,0.303714450146,1.0,-0.01922,-0.0252605714286,0.962
0.458191594243,0.496799379308,-0.124150776905,-1.43542866553,0.074653776877,1.92339214071,0.148528386888,-0.0139599181921,-0.0954748992157,-0.000645034753815,-0.152978604253,-0.0100137283512,0.0535568365466,-0.0213600130806,0.573798472509,0.818981059578,0.00246655636961,0.0,0.81894405463,-0.573737309643,-0.0116996500332,0.0,-0.00816679360138,0.0087333811369,-0.999928513213,0.0,0.652169285406,0.248702919347,0.303695835332,1.0,-0.01956,-0.0257074285714,0.979
0.457926825163,0.495131303599,-0.124145149091,-1.43814860796,0.0744844974744,1.92431834885,0.148137690184,-0.0157712056743,-0.0872739708942,1.38489618751e-05,-0.163584735477,-0.0106231166832,0.0557314165712,-0.0255064905773,0.57378253422,0.818992535428,0.00236161759491,0.0,0.818953972304,-0.573721555183,-0.0117777445721,0.0,-0.00829113359941,0.008692087588,-0.999927849756,0.0,0.651813044278,0.248268749195,0.303643564655,1.0,-0.0199,-0.0261542857143,0.996
0.457629269555,0.493322813376,-0.124151156429,-1.44108155175,0.074297047366,1.92538913526,0.147737486874,-0.0186394913048,-0.101382178694,-0.000685660137991,-0.162986265282,-0.0148707892879,0.0616924446995,-0.032134563786,0.573799605419,0.81898072421,0.00230934955303,0.0,0.818941473795,-0.57373881519,-0.0118059876364,0.0,-0.0083440734773,0.0086656600146,-0.999927638769,0.0,0.651448091348,0.247789914755,0.303599920946,1.0,-0.0210497142857,-0.0276653387755,1.014
0.457355570416,0.491577579603,-0.124153311028,-1.44386698071,0.0741198478828,1.92640985011,0.14734172636,-0.0188326970209,-0.108317948669,0.00145233962202,-0.173323793679,-0.0116553431436,0.0676893779975,-0.0289261247562,0.573792746536,0.818985587922,0.0022886020848,0.0,0.818946044004,-0.573732012559,-0.0118195463989,0.0,-0.00836715497011,0.00865637827681,-0.99992752629,0.0,0.651098533049,0.247343937737,0.303577218393,1.0,-0.0223662857143,-0.0293956897959,1.03
0.457018244849,0.4895253135,-0.124162472541,-1.4472025948,0.0739092017146,1.9275766201,0.146863256193,-0.0230792072352,-0.115358472506,-0.00155360867579,-0.188611779754,-0.00971061044416,0.0724264946267,-0.0214731483646,0.573792796096,0.818985834328,0.00218568526892,0.0,0.818944843607,-0.57373235691,-0.0118858178482,0.0,-0.00848048136185,0.00861011810921,-0.999926970984,0.0,0.65066975886,0.246796099367,0.303518385469,1.0,-0.0238474285714,-0.0313423346939,1.048
0.456725739945,0.487652830361,-0.124177329314,-1.45009491574,0.0737241619045,1.92866061618,0.146452310556,-0.0176529249816,-0.128588955384,-0.00379104452177,-0.19613666944,-0.00289406260671,0.0812115456346,-0.0321789096021,0.573800018901,0.818980645835,0.00223314987392,0.0,0.818940358279,-0.573739477451,-0.0118510969191,0.0,-0.00842473496916,0.00862914233173,-0.999927278227,0.0,0.650314992014,0.246322773149,0.303537442695,1.0,-0.0250817142857,-0.0329645387755,1.063
0.456349806724,0.485420829742,-0.124194173649,-1.45350124131,0.0735141475949,1.92996348679,0.145937640257,-0.021816554898,-0.127944427974,-0.00206394669822,-0.201491316477,-0.0150905114808,0.0786872804442,-0.0311707421874,0.57381032375,0.818973131663,0.00233856239631,0.0,0.818934284241,-0.57374944471,-0.0117881165028,0.0,-0.00831256185501,0.00867943897517,-0.99992778172,0.0,0.649908416656,0.245748806606,0.303579622212,1.0,-0.0264805714286,-0.0348030367347,1.08
0.455989088424,0.483223032034,-0.12423316515,-1.45688774337,0.0733109700652,1.93112312149,0.145421526594,-0.0229551668812,-0.139441083655,-0.00262555921854,-0.219739692141,-0.0182975412428,0.0785092324557,-0.0374197328264,0.573822348242,0.818964775603,0.00231427781243,0.0,0.818925517831,-0.573761462011,-0.0118121910274,0.0,-0.00834608564102,0.00867348734071,-0.999927554112,0.0,0.649475868011,0.245165573817,0.303594646437,1.0,-0.0277971428571,-0.0365333877551,1.096
0.455585749484,0.480751611408,-0.12425981146,-1.46071810065,0.0730736535493,1.93248815361,0.144859074748,-0.024096622527,-0.146319562475,-0.000320227702184,-0.22819504535,-0.0112047401962,0.0952444714697,-0.0298910890134,0.57383416449,0.818956489173,0.00231676643816,0.0,0.818917217544,-0.573773219162,-0.0118165427646,0.0,-0.00834809656613,0.00867814295088,-0.999927496931,0.0,0.648989837324,0.244521616536,0.303604409879,1.0,-0.029196,-0.0383718857143,1.113
0.455121675909,0.478043381836,-0.124267871918,-1.46488247266,0.0728148052188,1.93402935963,0.14423781465,-0.028071352502,-0.149119998958,0.000866946768213,-0.239216532015,-0.0136286479587,0.0862970298869,-0.038827469291,0.573843672613,0.818949620812,0.00238848807923,0.0,0.818911234633,-0.573782403391,-0.0117851708502,0.0,-0.00828114820616,0.00871897331216,-0.999927698431,0.0,0.64847210939,0.243821472628,0.303632425852,1.0,-0.0306771428571,-0.0403185306122,1.131
0.454691490855,0.475530025574,-0.124288667368,-1.46873106142,0.0725783981009,1.93545259003,0.143695187959,-0.0221661599187,-0.159869968347,-0.00159903075855,-0.239099111093,-0.0180206413837,0.0878274854797,-0.0397801887858,0.573888723335,0.818917835455,0.00246148395827,0.0,0.818880388743,-0.573827166197,-0.0117490071074,0.0,-0.00820916315653,0.00875845225728,-0.999927946981,0.0,0.647994076692,0.243166617278,0.303664337203,1.0,-0.0319937142857,-0.0420488816327,1.147
0.454165302436,0.472399363573,-0.12428824672,-1.47355749061,0.0722761258388,1.93712201461,0.142991688448,-0.0251312718888,-0.166037677668,0.00196631549152,-0.252359438732,-0.0152004803357,0.0863633213957,-0.0317177742109,0.57389225024,0.818915412692,0.00244517279526,0.0,0.818877486975,-0.573830469087,-0.0117898674464,0.0,-0.00825194838891,0.00876857933496,-0.999927506054,0.0,0.647358324349,0.24236143777,0.303676777338,1.0,-0.0335571428571,-0.0441036734694,1.166
0.453735614076,0.46985211835,-0.124288587473,-1.47746874466,0.0720281547577,1.93856637393,0.142387489632,-0.0249705871969,-0.169578861945,0.0016534948704,-0.264656907637,-0.0137603180876,0.103232456004,-0.0356904400199,0.573868773551,0.818931659405,0.00251294011379,0.0,0.818894564048,-0.573806689274,-0.0117610891208,0.0,-0.00818974406105,0.00880732435665,-0.99992767695,0.0,0.646859814911,0.241712458377,0.303700165571,1.0,-0.0347914285714,-0.045725877551,1.181
0.453211402817,0.466661452839,-0.124291364332,-1.48228554617,0.071706820489,1.94038270486,0.141604380877,-0.0292640303604,-0.173020050443,-0.000119791507649,-0.280253571278,-0.0185775331375,0.0977640077556,-0.0376649092793,0.573799310675,0.818979851634,0.00266469279441,0.0,0.818944874722,-0.573736851996,-0.0116646358489,0.0,-0.00802442377651,0.00887556739823,-0.999928413901,0.0,0.646251259622,0.240916216771,0.303767034889,1.0,-0.0362725714286,-0.047672522449,1.199
0.452702145875,0.463746185167,-0.124299883458,-1.4868282547,0.0713988569984,1.94190710816,0.140931811871,-0.0310320877419,-0.181182257192,-0.00324804588276,-0.285010532239,-0.0231561184546,0.0957289794791,-0.045939928962,0.573800224309,0.818979512775,0.00257043555613,0.0,0.818943196139,-0.573737973137,-0.0117271726933,0.0,-0.00812971421471,0.00883426511871,-0.999927929156,0.0,0.645638380873,0.240138640299,0.30374732425,1.0,-0.0375891428571,-0.0494028734694,1.215
0.452101427438,0.460380949099,-0.124296021472,-1.49212219804,0.0710455958316,1.94375917457,0.140151839645,-0.0329156474837,-0.188755771941,0.00134739097375,-0.297953942542,-0.0161737924672,0.0995701694846,-0.0418903275857,0.573800513878,0.818979529661,0.00249943413057,0.0,0.81894214879,-0.573738370191,-0.0117807642823,0.0,-0.00821434167805,0.00880687011625,-0.999927479185,0.0,0.644932244024,0.239242041294,0.303706019444,1.0,-0.0390702857143,-0.0513495183673,1.233
0.451544022127,0.457311523671,-0.124304147563,-1.49690987111,0.0707239049853,1.94546293674,0.139411967995,-0.0363848980061,-0.194870866328,-2.35073182535e-05,-0.30562808002,-0.0252734060074,0.102820308933,-0.0432315123827,0.573790232616,0.818986797978,0.00247802197341,0.0,0.818949120631,-0.573728150802,-0.0117937990433,0.0,-0.00823741334577,0.00879670997646,-0.999927378821,0.0,0.644301850824,0.238417795984,0.303687023522,1.0,-0.0403868571429,-0.0530798693878,1.249
0.450902589701,0.453967662472,-0.124336007817,-1.50221629406,0.0703594302916,1.94728767033,0.138589691067,-0.0340414294344,-0.203420368965,-0.000973819992595,-0.309949888218,-0.0229777035518,0.102466038074,-0.0462980459162,0.573808404161,0.818974461377,0.00234389156933,0.0,0.818935051118,-0.573746845285,-0.0118611330552,0.0,-0.00836932579707,0.00872568078849,-0.999926905769,0.0,0.643595061032,0.237470334296,0.303618815983,1.0,-0.0417857142857,-0.0549183673469,1.266
0.450228623668,0.450169496175,-0.124394652496,-1.50788002592,0.0699800394079,1.94941226945,0.137695240766,-0.0407900833687,-0.213837800385,-0.00171183467735,-0.318599601713,-0.0256618314974,0.115473256399,-0.0520120791679,0.573822640439,0.818963821675,0.00256573735628,0.0,0.818927699459,-0.573760680935,-0.0116983320731,0.0,-0.00810854764382,0.00881409088806,-0.999928279057,0.0,0.642841271197,0.236411095081,0.30372841433,1.0,-0.0433491428571,-0.0569731591837,1.285
0.449665624018,0.447144286856,-0.12441610371,-1.51245276325,0.0696668627325,1.95094251675,0.137014193527,-0.0378968929586,-0.222322062448,-0.00230404738293,-0.330017326983,-0.0181691700811,0.112640422412,-0.0596394149358,0.573863020987,0.818935664324,0.00252145660832,0.0,0.818898882621,-0.573801124806,-0.0117318419423,0.0,-0.00816096626061,0.00879745763617,-0.999927999092,0.0,0.642257594919,0.235649502633,0.303745965013,1.0,-0.0444188571429,-0.0583790693878,1.298
0.448989095291,0.443442824643,-0.124423090314,-1.51815240123,0.0692761719465,1.95291134048,0.136151521031,-0.0357052655903,-0.224162455136,-0.00123261560788,-0.339818341402,-0.0198940795267,0.117991057637,-0.0577928792603,0.573862407532,0.818936196796,0.0024879107737,0.0,0.818898893568,-0.573800542418,-0.0117595295343,0.0,-0.00820289777269,0.00878586846506,-0.999927757882,0.0,0.641478019451,0.234660988879,0.303738600855,1.0,-0.0458177142857,-0.0602175673469,1.315
0.448230356567,0.439464424723,-0.124425431544,-1.52429793733,0.0688457644908,1.95510124901,0.135132913055,-0.0435180975854,-0.224897768724,-0.00111972873822,-0.344408590481,-0.02517523383,0.124725323805,-0.044998834443,0.573804248125,0.818976936824,0.00249172331056,0.0,0.818939731625,-0.573742428254,-0.0117511228661,0.0,-0.00819444899496,0.00878358455128,-0.999927847221,0.0,0.640650287957,0.233583384326,0.303724099744,1.0,-0.0472988571429,-0.0621642122449,1.333
0.447463238988,0.435590463728,-0.124435438805,-1.53024584057,0.0684496922864,1.95721414096,0.134184835824,-0.0458086180033,-0.230192445731,-0.00162918767621,-0.34697758206,-0.0266591075629,0.122303383744,-0.0604163877721,0.573814976107,0.818969332108,0.00252054807209,0.0,0.818932399276,-0.573752939198,-0.0117489182269,0.0,-0.00817598926164,0.00880603325523,-0.999927800883,0.0,0.639850313132,0.232519224584,0.303722085861,1.0,-0.0486977142857,-0.0640027102041,1.35
0.446661310083,0.431560224115,-0.124460011859,-1.53630810585,0.0680121467155,1.95939286242,0.133221383132,-0.0508770341105,-0.236761465793,-0.00158952088696,-0.361678813627,-0.0211963071214,0.126684812773,-0.047978900465,0.573841897615,0.818950156863,0.00261992683874,0.0,0.818914806663,-0.573779818851,-0.0116621528145,0.0,-0.00804761567139,0.0088378989389,-0.99992856116,0.0,0.639045001774,0.23141207555,0.303774194421,1.0,-0.0500965714286,-0.0658412081633,1.367
0.445940590745,0.427970817754,-0.124493956424,-1.5419290999,0.0675946226687,1.96117480784,0.132341897781,-0.0492396819552,-0.243687154058,-0.00171075025013,-0.371934237655,-0.0309640227195,0.116276028097,-0.059479265203,0.573860284337,0.818937988185,0.00238588953658,0.0,0.818899563971,-0.573799018363,-0.011787177598,0.0,-0.00828410592918,0.0087181648408,-0.99992768098,0.0,0.638238192026,0.230376169215,0.303699010665,1.0,-0.0513308571429,-0.0674634122449,1.382
0.445110714483,0.423763196183,-0.124533890302,-1.5482963743,0.0671389760002,1.96336721959,0.131264815512,-0.0550641424612,-0.249623435795,-0.00222248929196,-0.374068996639,-0.0222831990374,0.130716152479,-0.0674224229305,0.573830375938,0.818958923421,0.00239338675781,0.0,0.818920727717,-0.573769223559,-0.0117671879942,0.0,-0.00826375105256,0.00871253167911,-0.999927898506,0.0,0.637358645833,0.229210180065,0.303720795847,1.0,-0.0527297142857,-0.0693019102041,1.399
0.444226103814,0.419492569244,-0.124544929521,-1.55477994385,0.0666975097997,1.96560283292,0.130240182847,-0.0539470368633,-0.24971028791,-0.000193453539544,-0.382461537874,-0.0313693758441,0.136986641215,-0.0515589661221,0.573873284256,0.818928808208,0.00240989740856,0.0,0.818890650293,-0.573811877896,-0.011780430742,0.0,-0.00826466547059,0.0087340850941,-0.999927702918,0.0,0.636457367368,0.228020423829,0.303728744438,1.0,-0.0541285714286,-0.0711404081633,1.416
0.44337421682,0.415338374779,-0.124566795577,-1.56088961492,0.0662800418873,1.96786213579,0.129221709357,-0.0511753460556,-0.259865153328,-0.00236805072039,-0.386804063426,-0.0291001442048,0.134026080082,-0.0680103868312,0.57389117958,0.818915501609,0.00265746614629,0.0,0.818880731642,-0.57382906695,-0.0116316881827,0.0,-0.00800059247969,0.00885164149537,-0.999928816948,0.0,0.635641905124,0.226893418529,0.303832957565,1.0,-0.0554451428571,-0.0728707591837,1.432
0.442451194689,0.410904213978,-0.124565594401,-1.56768300683,0.0658000564332,1.97011317094,0.128062669184,-0.0556662598482,-0.25770826838,-0.000883456459845,-0.398842192678,-0.0239872354199,0.125187985495,-0.0623343392675,0.57384062779,0.818951229036,0.00256227606816,0.0,0.818914939044,-0.57377854499,-0.0117154095691,0.0,-0.00812432644949,0.00882123396821,-0.99992808799,0.0,0.634659569449,0.225651784758,0.303796500669,1.0,-0.056844,-0.0747092571429,1.449
0.441502619842,0.406362219859,-0.124594858244,-1.57460803686,0.0653035704659,1.97240059066,0.126951999538,-0.0532969706932,-0.264958414587,-0.000101560436106,-0.40439577042,-0.0280846558676,0.135503559296,-0.0655207137827,0.573870076375,0.818930881127,0.00246865947007,0.0,0.818893237644,-0.57380818552,-0.0117804275536,0.0,-0.00823097737719,0.00878217249007,-0.999927559605,0.0,0.633657230095,0.22436408842,0.3037692721,1.0,-0.0582428571429,-0.076547755102,1.466
0.44050597367,0.401776776213,-0.12458829895,-1.58157398977,0.0648308936966,1.97483740928,0.125761296487,-0.0588188793398,-0.272590237583,0.000486390969448,-0.403118273541,-0.0336772856321,0.160104022246,-0.0712449319064,0.573852985538,0.81894270064,0.00252011097123,0.0,0.818905449053,-0.573790608441,-0.011787708733,0.0,-0.00820760003835,0.00882831442804,-0.999927345444,0.0,0.632668680327,0.223078137687,0.30375878659,1.0,-0.0596417142857,-0.0783862530612,1.483
0.439529963631,0.397272779441,-0.124606296668,-1.58810845135,0.0643461051349,1.97719411541,0.1246163479,-0.0628945064388,-0.275492570104,-4.62212567077e-05,-0.412240736,-0.0255540619524,0.131429684172,-0.075956384685,0.573856183329,0.818939658011,0.00276844604125,0.0,0.818905992583,-0.573793322788,-0.0116165802446,0.0,-0.00792491497895,0.00893351545366,-0.99992869147,0.0,0.631708703575,0.221751045123,0.303883652443,1.0,-0.0610405714286,-0.0802247510204,1.5
0.438335569236,0.391895279792,-0.124622269921,-1.59630659503,0.0637316580247,1.97981247546,0.12327842646,-0.0654758663027,-0.280801510117,5.4637511969e-05,-0.431236197106,-0.0343195318996,0.131573392183,-0.0684307860431,0.57388622928,0.818919204583,0.00258439726371,0.0,0.81888293161,-0.57382376685,-0.0117377944038,0.0,-0.00812947320138,0.00885264781913,-0.999927768537,0.0,0.630546152099,0.220274717941,0.303827188392,1.0,-0.0625217142857,-0.0821713959184,1.518
0.437328143717,0.387296145447,-0.124632392278,-1.60326988767,0.063207514748,1.98211755695,0.122044886517,-0.0643856851813,-0.283934373601,-0.000659975005602,-0.433067544428,-0.0365874020363,0.149149351604,-0.0768283634245,0.573825463753,0.818961994684,0.00251700484365,0.0,0.818924783418,-0.57376318849,-0.0117791994132,0.0,-0.00820270985028,0.00882061203649,-0.999927453546,0.0,0.629512795328,0.218964345753,0.30379963353,1.0,-0.0638382857143,-0.0839017469388,1.534
0.436149200549,0.381999540407,-0.124631622344,-1.61103539984,0.0626469429539,1.98479701098,0.120625666778,-0.0657956673049,-0.298216474708,0.000583423802653,-0.426113605215,-0.0347268574168,0.154924540739,-0.0814379874474,0.573761920575,0.819005964266,0.00268996189264,0.0,0.818970944767,-0.573698967591,-0.011697568709,0.0,-0.00803730492245,0.00891479175852,-0.999927961514,0.0,0.628384895438,0.217490585323,0.303882807786,1.0,-0.0653194285714,-0.0858483918367,1.552
0.435125258639,0.377586944751,-0.124650379886,-1.61766350067,0.0621573118663,1.9870567074,0.119472322364,-0.067116860621,-0.29323138025,-0.000663108091049,-0.445047527056,-0.0312272294949,0.145294732242,-0.0793818516911,0.573776923079,0.818995379401,0.00271255653393,0.0,0.818960655842,-0.573713891724,-0.0116859542781,0.0,-0.00801466549919,0.00892677983514,-0.99992803628,0.0,0.627413429391,0.216208036345,0.303874906506,1.0,-0.0665537142857,-0.0874705959184,1.567
0.433900441998,0.372454660402,-0.124696117981,-1.62546167105,0.0615288003302,1.98951993706,0.118089590851,-0.0685706697159,-0.30138847027,-0.00231937768547,-0.456938477248,-0.0351973422808,0.142848733156,-0.0794766466866,0.573784652443,0.818990634529,0.00250201454787,0.0,0.818953285248,-0.573722499081,-0.0117795387008,0.0,-0.00821202794287,0.00880812113672,-0.99992748717,0.0,0.626230569692,0.21465535872,0.303803894755,1.0,-0.0679525714286,-0.0893090938775,1.584
0.432726972639,0.36753506164,-0.12475744294,-1.63280785228,0.0609652771372,1.99189247035,0.116853574285,-0.0807258189128,-0.307605486862,0.000399270334225,-0.458107959444,-0.0456636343642,0.152338467837,-0.0783872821582,0.573881699759,0.818922847919,0.00243120104581,0.0,0.818884629306,-0.573819854635,-0.0118103858283,0.0,-0.0082768827225,0.00876880628783,-0.999927297982,0.0,0.62512529849,0.213181378902,0.303791733084,1.0,-0.0692691428571,-0.091039444898,1.6
0.431452218115,0.362184450728,-0.124767920357,-1.64048073875,0.0603625686471,1.99459869131,0.115402958934,-0.0763244806723,-0.318835690277,0.00492712610782,-0.455403691285,-0.0386599342034,0.152429458065,-0.090725448564,0.573843095826,0.818948976659,0.00272431679725,0.0,0.818915029652,-0.573780712448,-0.0116023762252,0.0,-0.00793874654905,0.00888909860549,-0.999928977593,0.0,0.624012079292,0.211660546972,0.303930092761,1.0,-0.070668,-0.0928779428571,1.617
0.430107451907,0.356848298154,-0.124787678514,-1.6484907691,0.0597734218844,1.99713322235,0.113919632401,-0.0812311188874,-0.319527263941,-0.00406211360099,-0.47620920578,-0.0398127600087,0.145374521127,-0.0885215032214,0.573853692042,0.818941928541,0.00260858358677,0.0,0.8189060177,-0.573791198909,-0.0117192632073,0.0,-0.00810076967325,0.00886149786768,-0.999927923096,0.0,0.622775774977,0.210048631249,0.303878627344,1.0,-0.0720668571429,-0.0947164408163,1.634
0.42882271655,0.351757068704,-0.124823222808,-1.65615692677,0.0591884365175,1.99955061287,0.112536324165,-0.0832580400265,-0.319114640189,-0.000853034397333,-0.481047658361,-0.0330437422439,0.145494015356,-0.09553139716,0.573892324115,0.818915304822,0.00246388938937,0.0,0.818877239206,-0.573830064614,-0.0118267052072,0.0,-0.00827137534191,0.00880504780332,-0.999927025079,0.0,0.621582980167,0.208497652801,0.30381197811,1.0,-0.0733834285714,-0.0964467918367,1.65
0.427405070944,0.346179972359,-0.124847304349,-1.664178966,0.0586040171173,2.00228314691,0.110974513031,-0.0865620928438,-0.329646081084,-0.000314040350255,-0.47031538836,-0.0426282579646,0.171520908196,-0.0942287412948,0.57389429893,0.818913153975,0.00270680681467,0.0,0.818878181155,-0.573831078417,-0.0117117365217,0.0,-0.00803779997255,0.00893801594602,-0.999927750211,0.0,0.62038214137,0.206860221473,0.303914872298,1.0,-0.0747822857143,-0.0982852897959,1.667
0.425969464302,0.340553105322,-0.124850702781,-1.67237466096,0.0579422569811,2.00491038817,0.109481154023,-0.0866898076563,-0.333935087964,-0.0055515753172,-0.489591077255,-0.0394704124317,0.147168213807,-0.0917014846829,0.573924484617,0.818891913478,0.00273256260979,0.0,0.818857305946,-0.573861203973,-0.011695211621,0.0,-0.00800915675472,0.00894991947271,-0.999927873574,0.0,0.619103568036,0.205192400405,0.303950812895,1.0,-0.0761811428571,-0.100123787755,1.684
0.424528787032,0.334889360737,-0.124846064524,-1.68081275503,0.057250771304,2.00749534322,0.107843525478,-0.0758896467196,-0.334504152078,0.0012094759689,-0.50537505016,-0.0412755576761,0.155000462701,-0.0958290486344,0.573826712174,0.818961010772,0.00255227989617,0.0,0.818923805863,-0.573763817776,-0.0118164505035,0.0,-0.00821296451587,0.00887088850031,-0.999926924606,0.0,0.617737516299,0.203498218154,0.303884918974,1.0,-0.07758,-0.101962285714,1.701
0.423035509047,0.329094432271,-0.124837913759,-1.68913979625,0.0565648342307,2.01021378551,0.106221228593,-0.0873022005713,-0.347884542995,0.0035899462861,-0.48273886653,-0.0471671070978,0.162835149226,-0.0918607211333,0.573774280869,0.81899733158,0.00268186118607,0.0,0.818962004733,-0.573711131082,-0.0117268826829,0.0,-0.00806582730275,0.00892509792737,-0.99992763991,0.0,0.616429898803,0.201800962564,0.303959038848,1.0,-0.0789788571429,-0.103800783673,1.718
0.421487118031,0.323311490223,-0.124851033196,-1.69758085781,0.0559011952599,2.01300299391,0.104543899816,-0.0913289088604,-0.337830103274,-0.00814486705395,-0.504460644053,-0.041102036148,0.153914924381,-0.103708461694,0.573744802989,0.819017666525,0.00277666417308,0.0,0.818983562955,-0.57368131495,-0.0116798710551,0.0,-0.00797325389275,0.00897548044088,-0.99992793139,0.0,0.615105308407,0.20005724991,0.303969988519,1.0,-0.0803777142857,-0.105639281633,1.735
0.419864090071,0.317418160031,-0.124886687777,-1.70625866575,0.0551818434095,2.01561757707,0.102912950667,-0.0943987996772,-0.350105196731,-0.00218844795743,-0.514093381201,-0.0450370787386,0.151072337989,-0.0966064624329,0.573812897652,0.818970510672,0.00260922179222,0.0,0.818934043777,-0.573749790843,-0.0117879749051,0.0,-0.00815712042012,0.00890104396384,-0.999927113745,0.0,0.613688897091,0.198217661643,0.303917458043,1.0,-0.0817765714286,-0.107477779592,1.752
0.418316008469,0.311779144055,-0.124920225978,-1.71440279355,0.0545058861434,2.01817787472,0.101190285175,-0.0994476832028,-0.350112520483,-0.000601327760949,-0.504553983985,-0.0363937651219,0.167697493032,-0.10553183481,0.57373426742,0.819025528044,0.00263091274998,0.0,0.818989409058,-0.573671163312,-0.0117682256551,0.0,-0.00812935496869,0.0089066954849,-0.999927289538,0.0,0.612376022756,0.196488704215,0.303938373717,1.0,-0.0830931428571,-0.109208130612,1.768
0.416597197704,0.305716137426,-0.124940093466,-1.72302234596,0.0537722708371,2.02099174542,0.0994438870153,-0.105998877096,-0.354692317612,-0.00190805796464,-0.513752965988,-0.0373650710039,0.166664378083,-0.106404647241,0.573755286165,0.819010214471,0.0028083964349,0.0,0.81897682117,-0.573692025513,-0.0116263988779,0.0,-0.00791113711322,0.00897089211755,-0.999928465944,0.0,0.611009886272,0.194629236373,0.304020573114,1.0,-0.084492,-0.111046628571,1.785
0.414828598673,0.29964268677,-0.124989296426,-1.73196241563,0.0530324653669,2.02360230754,0.097644432822,-0.106823610593,-0.355136622391,-0.0038486034091,-0.528286755861,-0.0427101670919,0.150904938816,-0.0976439339037,0.573797095982,0.818981676682,0.0025793028904,0.0,0.818944879616,-0.573734165781,-0.0117956799859,0.0,-0.00818076908551,0.00888080479914,-0.999927100504,0.0,0.609511316319,0.192682481518,0.303932812339,1.0,-0.0858908571428,-0.112885126531,1.802
0.413025981814,0.293467779297,-0.125069555603,-1.74081279295,0.0523409534079,2.02634561417,0.0958296361072,-0.103777217655,-0.371695275428,-0.00159137642786,-0.506598726174,-0.0392518065144,0.166878032477,-0.106817598535,0.573887109689,0.81891842601,0.00263510456784,0.0,0.818882082002,-0.57382366428,-0.0118019061532,0.0,-0.00815287002007,0.00893097367483,-0.999926881537,0.0,0.608063406112,0.190728856226,0.303953832364,1.0,-0.0872897142857,-0.11472362449,1.819
0.41127386412,0.287532081849,-0.125080625747,-1.74913382567,0.0516301264958,2.02903857478,0.0940280693457,-0.114309284539,-0.372071123986,-0.00020821631957,-0.529062081055,-0.0517707128524,0.16021784726,-0.108401135438,0.573862388224,0.818934980252,0.00286433265087,0.0,0.818901964267,-0.573798528191,-0.0116434044263,0.0,-0.0078917932561,0.00902749331249,-0.999928109398,0.0,0.606716200218,0.188900768355,0.304055055248,1.0,-0.0886062857143,-0.11645397551,1.835
0.40938054226,0.281265317676,-0.125115687699,-1.75825543225,0.0508214263848,2.03165171834,0.0921071738074,-0.112556857152,-0.375241819858,-0.00214848658132,-0.53254274037,-0.0515761836884,0.159470663576,-0.119532089608,0.573855829979,0.818940359457,0.00263077033894,0.0,0.818904090071,-0.573792548027,-0.0117877052214,0.0,-0.00814406793367,0.00891896367164,-0.999927060462,0.0,0.605148810507,0.186881765255,0.303975049576,1.0,-0.0900051428571,-0.118292473469,1.852
0.407215454076,0.274086047257,-0.125131340064,-1.76840317682,0.0499411947663,2.03478928713,0.0899411604443,-0.119237551639,-0.385910656998,-9.64053063229e-05,-0.525708252544,-0.0438172243359,0.174667032444,-0.115115399369,0.573854026919,0.818941257316,0.00274221723158,0.0,0.818906573215,-0.573790495691,-0.0117148752361,0.0,-0.00802049088983,0.00896842071508,-0.999927616958,0.0,0.603444584419,0.184641096088,0.304023632477,1.0,-0.0915685714286,-0.120347265306,1.871
0.405323741525,0.268020706477,-0.12516974006,-1.7769736562,0.0491966182542,2.03742244969,0.0880221808302,-0.120667750803,-0.389704734343,-0.00389495297701,-0.538424067315,-0.0408531231471,0.163364797557,-0.122221972917,0.57384310396,0.818948634758,0.00282357333025,0.0,0.818915130036,-0.573779430594,-0.0116585473462,0.0,-0.00792779576943,0.00900261724603,-0.99992804888,0.0,0.602002519096,0.182702720622,0.304054131007,1.0,-0.0928851428571,-0.122077616327,1.887
0.403264876527,0.261514393535,-0.12526674573,-1.78630790257,0.0483698506924,2.04003013388,0.0860238975026,-0.12392729044,-0.390679294893,-0.00307486034279,-0.559990096246,-0.0499505537119,0.154837151626,-0.120079730191,0.573934221064,0.818885480517,0.00261277466872,0.0,0.818848980127,-0.573870998551,-0.0117971041745,0.0,-0.00816123884162,0.0089104012208,-0.999926996801,0.0,0.600369977633,0.1805513854,0.303992423064,1.0,-0.094284,-0.123916114286,1.904
0.401413115664,0.255663242681,-0.125282399449,-1.79443391992,0.0476457692813,2.04246829163,0.0842037577753,-0.123715828605,-0.408837456276,-0.000251260684065,-0.537410190477,-0.0401471712526,0.163149325302,-0.123233126494,0.573934605939,0.818884840063,0.00272648523351,0.0,0.818849935174,-0.57387110158,-0.0117255847939,0.0,-0.00803740728922,0.00896247370022,-0.999927534449,0.0,0.5989726892,0.178701303576,0.304058969082,1.0,-0.0955182857143,-0.125538318367,1.919
0.399162049995,0.248633075697,-0.12525202781,-1.80430327895,0.0467570446204,2.04540104213,0.0819554562915,-0.128081370686,-0.390128333168,0.00174170853769,-0.563431283763,-0.0487667910397,0.15511551595,-0.127999780305,0.573855299012,0.818940233291,0.00278154531613,0.0,0.818905990946,-0.573791552139,-0.0117038279118,0.0,-0.00798886216658,0.00899430095756,-0.999927637698,0.0,0.597242495745,0.176487923789,0.304076722779,1.0,-0.0969994285714,-0.127484963265,1.937
0.397120060001,0.242380047972,-0.125271030797,-1.81323047914,0.0459902655029,2.04792849967,0.0799184530508,-0.127647244537,-0.392745042911,0.000162969265354,-0.56361632523,-0.0527009039581,0.157722889625,-0.128843720278,0.573828549832,0.818959370333,0.00266308893767,0.0,0.818922964648,-0.573764541111,-0.0118396045925,0.0,-0.00816832638539,0.00897494061726,-0.999926361731,0.0,0.595640491874,0.174461888783,0.304005819607,1.0,-0.098316,-0.129215314286,1.953
0.39487564733,0.235513672492,-0.12526116264,-1.82254447125,0.0451831105554,2.05070259184,0.077721571703,-0.13859458731,-0.412622806262,0.00221128343138,-0.543604007195,-0.0464385980977,0.173478404521,-0.122494051729,0.573801466771,0.81897741351,0.00293594838044,0.0,0.818944493989,-0.573736412927,-0.0117128624443,0.0,-0.00790826155565,0.00912541210389,-0.999927090469,0.0,0.594004635643,0.172317171253,0.304142435391,1.0,-0.0997148571428,-0.131053812245,1.97
0.392600674258,0.228695588555,-0.12525484695,-1.83210614578,0.0442494859006,2.05339779354,0.0754739406846,-0.133763233241,-0.406826771969,0.00315709954402,-0.572772196395,-0.0541189317424,0.151182913981,-0.130276409059,0.573710401781,0.819041525727,0.00284621220958,0.0,0.819007598636,-0.57364585363,-0.0117360508628,0.0,-0.00797974880699,0.00906433839939,-0.99992707803,0.0,0.592269633914,0.170115726926,0.304114408611,1.0,-0.101113714286,-0.132892310204,1.987
0.390348045566,0.222241593664,-0.125290009372,-1.84122988968,0.0433868936289,2.05585266201,0.0733084419714,-0.143072351216,-0.403839756707,-9.32828074484e-05,-0.572978857879,-0.0585217788827,0.152175492748,-0.135553981755,0.573708787991,0.819043340129,0.00264205848903,0.0,0.819006432975,-0.573644624442,-0.011876636533,0.0,-0.00821203551291,0.00897776649938,-0.999925978351,0.0,0.590591752064,0.167950402007,0.304034735386,1.0,-0.102430285714,-0.134622661224,2.003
0.387752527762,0.214823923764,-0.125367261177,-1.85120821603,0.0425099555118,2.05889317462,0.0708407981074,-0.147167248867,-0.406662029633,-0.00147229992619,-0.560120355751,-0.0480720382505,0.168324537947,-0.139428673594,0.573783157283,0.818989908384,0.00302742203519,0.0,0.818958361641,-0.573718011847,-0.0116443841266,0.0,-0.00779989671016,0.00916086045366,-0.999927617504,0.0,0.588846020517,0.165525168179,0.304184354855,1.0,-0.103911428571,-0.136569306122,2.021
0.385363487602,0.208248817823,-0.125417105123,-1.86035250159,0.0416394457141,2.06132697444,0.0685965189084,-0.148345374617,-0.415972033032,-0.00119880537318,-0.570340705859,-0.0578219903511,0.152444689327,-0.133571322333,0.573821851951,0.818963283106,0.00289310357285,0.0,0.818929722026,-0.573756846963,-0.0117446944114,0.0,-0.00795868873974,0.0091087861748,-0.999926841968,0.0,0.587150770859,0.163290528374,0.304142128476,1.0,-0.105228,-0.138299657143,2.037
0.382813572224,0.20121007578,-0.1255040275,-1.87016983149,0.0406552815986,2.0638841051,0.0661491920909,-0.153321193494,-0.421139339523,-0.00148593913051,-0.564645242289,-0.0618680211899,0.15504010972,-0.155035249698,0.573818725527,0.818966259895,0.0026612571609,0.0,0.818929624845,-0.573754499283,-0.0118655385772,0.0,-0.00819072517725,0.00898822360362,-0.999926059195,0.0,0.585304395123,0.16088346292,0.304066740107,1.0,-0.106626857143,-0.140138155102,2.054
0.380145144435,0.194010211788,-0.125536117493,-1.8798011721,0.0397721871722,2.06670954305,0.0637024602599,-0.161337163855,-0.418373643738,-0.00125612875836,-0.573746765304,-0.057955103297,0.157800295745,-0.143829684952,0.573897101854,0.818910259102,0.00297504993568,0.0,0.818877951872,-0.57383202274,-0.011681460383,0.0,-0.00785904013747,0.00914033503705,-0.999927342242,0.0,0.583562089496,0.158498327046,0.304183166342,1.0,-0.108025714286,-0.141976653061,2.071
0.377394334216,0.186855555972,-0.125658650656,-1.88968823084,0.0388499248403,2.06924789084,0.0611199944408,-0.164162307254,-0.425979792061,-0.00856022560241,-0.583790941258,-0.0551966982925,0.149943605612,-0.141971992494,0.573984658353,0.818849466105,0.00281260305965,0.0,0.818814427126,-0.573919431689,-0.0118392043644,0.0,-0.00808047419751,0.0090986968134,-0.999925957085,0.0,0.581689189045,0.155982797915,0.304115721973,1.0,-0.109424571429,-0.14381515102,2.088
0.374787154877,0.179991611418,-0.125729516024,-1.89885080287,0.0379521522618,2.07173473425,0.0586765516915,-0.161423497527,-0.428131853884,-0.00121577806497,-0.560089306297,-0.0511717592567,0.162725395926,-0.153255208034,0.574013041717,0.818829119008,0.00294086799904,0.0,0.81879597118,-0.573947605621,-0.0117494885756,0.0,-0.0079330719689,0.00915250675941,-0.999926646304,0.0,0.579972853049,0.153658421235,0.304190618158,1.0,-0.110741142857,-0.145545502041,2.104
0.371992178896,0.172668519511,-0.125703240221,-1.90870378527,0.036919435513,2.07439660052,0.0560788091687,-0.166152358418,-0.427570674153,0.00365990630284,-0.58860742365,-0.057360897164,0.15171634143,-0.164269844053,0.573942830917,0.818878140786,0.00299404135886,0.0,0.818846125716,-0.573877734816,-0.0116668241024,0.0,-0.00783564441732,0.00914792534598,-0.999927456438,0.0,0.578088890036,0.151226267069,0.30421930929,1.0,-0.11214,-0.147384,2.121
0.369147920422,0.165360717819,-0.125705168285,-1.91875730267,0.0359235755742,2.0768360263,0.0533678049695,-0.164404267074,-0.433490814844,-0.00214390391885,-0.598356624777,-0.0624275304419,0.148316840656,-0.155274512206,0.573851115112,0.818943307046,0.00273942166904,0.0,0.818907142339,-0.57378598539,-0.0118946246995,0.0,-0.00816933881079,0.00906925022948,-0.999925502527,0.0,0.576086266651,0.148740774384,0.304112217162,1.0,-0.113538857143,-0.149222497959,2.138
0.366220628152,0.157810651667,-0.125708829019,-1.92851941946,0.0349547512732,2.07953573604,0.0506274201164,-0.174926081324,-0.441270316889,-0.000778858347969,-0.57791170116,-0.065826433587,0.165027635011,-0.155143133704,0.573801543705,0.818976687455,0.00311781139739,0.0,0.818945989866,-0.573735714279,-0.0116422825872,0.0,-0.00774610741522,0.00923385664221,-0.999927364218,0.0,0.574227007616,0.146265853058,0.304289801257,1.0,-0.114937714286,-0.151060995918,2.155
0.36318754758,0.150376557509,-0.125721935248,-1.93856425912,0.0339118488759,2.08196298166,0.0478564439434,-0.180818078049,-0.435648989826,-0.00219180569091,-0.594778108563,-0.0601961076075,0.128229207438,-0.157984996648,0.573786137062,0.818988126321,0.00294359688628,0.0,0.818954775031,-0.573720446026,-0.0117759571434,0.0,-0.00795572053025,0.0091677301925,-0.999926326903,0.0,0.572217844528,0.14369188079,0.304228848381,1.0,-0.116336571429,-0.152899493878,2.172
0.360063354012,0.142851271937,-0.125760416129,-1.94867717274,0.0329163955013,2.0843857475,0.0450355008568,-0.192713986003,-0.446156515001,-0.00164652092831,-0.579843682974,-0.0549484383909,0.144062682312,-0.171054234801,0.57383559567,0.818953908604,0.00281986252963,0.0,0.818918125551,-0.573769418839,-0.011937526976,0.0,-0.0081584905675,0.00915959079072,-0.999924767634,0.0,0.570182477315,0.141069613985,0.304173874041,1.0,-0.117735428571,-0.154737991837,2.189
0.356918244134,0.135211713585,-0.125816376565,-1.95855017017,0.0318863297785,2.08707347135,0.042059003211,-0.184925361953,-0.442602781276,-0.00728837794838,-0.597917954847,-0.0651033071093,0.157505764594,-0.177930681411,0.573778964216,0.818992448513,0.00313311403643,0.0,0.818961520384,-0.573712575337,-0.011689992812,0.0,-0.00777665863828,0.00927355034673,-0.99992675974,0.0,0.568381691013,0.138623968083,0.304295813938,1.0,-0.119052,-0.156468342857,2.205
0.35363185182,0.127582339426,-0.125900815533,-1.96872703909,0.0307639300827,2.08937425544,0.0390841482185,-0.189336558871,-0.442395255426,-0.00540695467291,-0.608842402703,-0.0670648875355,0.144497382292,-0.169158639142,0.573785205861,0.818988921206,0.002903683658,0.0,0.818954834878,-0.573719409973,-0.0118221805003,0.0,-0.00801648952152,0.0091615544311,-0.999925898163,0.0,0.566177646564,0.135738958456,0.304235064084,1.0,-0.120533142857,-0.158414987755,2.223
0.35046706877,0.120271006559,-0.12602236183,-1.97817677556,0.0297536794326,2.09173866674,0.0363085912506,-0.191435827538,-0.478182145446,-0.00451900419491,-0.578332708756,-0.0680656491204,0.15807246547,-0.183382041652,0.573928071423,0.818888281614,0.00304925706332,0.0,0.818856553759,-0.573862287498,-0.0116947105267,0.0,-0.00782695846688,0.00920900409071,-0.999926963815,0.0,0.564291062651,0.133147129352,0.304308118405,1.0,-0.121849714286,-0.160145338775,2.239
0.347221914168,0.113010708686,-0.126057478786,-1.9876804928,0.028763269417,2.09407836191,0.0333420002912,-0.203253265943,-0.449826424225,0.000994122309165,-0.607447466062,-0.0716857402673,0.133123463691,-0.185566938542,0.573902492088,0.818906004407,0.00310361447603,0.0,0.818874923753,-0.573836459635,-0.011675775876,0.0,-0.00778054562758,0.00924240688469,-0.999927017849,0.0,0.56223663173,0.130413428458,0.304306738217,1.0,-0.123248571429,-0.161983836735,2.256
0.343737994727,0.105221559329,-0.126071550025,-1.99791694293,0.0276139976626,2.09632061882,0.0302137701571,-0.209087970623,-0.457101909626,0.00180865815276,-0.598900358797,-0.0711861281893,0.137670737994,-0.188671724444,0.573872479491,0.818927722336,0.00291715148603,0.0,0.818893870307,-0.573806691025,-0.011809208726,0.0,-0.00799716133326,0.00916599383684,-0.999926012247,0.0,0.560196053669,0.127814715083,0.30424973333,1.0,-0.124565142857,-0.163714187755,2.272
0.340245040868,0.0972792077038,-0.126066361256,-2.00793199268,0.0265635543493,2.0987665537,0.0269727791268,-0.207921007871,-0.464906488622,-0.000371292588638,-0.59563599121,-0.0645549413191,0.136227216006,-0.189608893529,0.573762579413,0.81900360255,0.00321688923497,0.0,0.818973882878,-0.573696062069,-0.0116341923535,0.0,-0.00768307668706,0.00930999172784,-0.999927144539,0.0,0.558124763843,0.125123441813,0.304379555199,1.0,-0.125964,-0.165552685714,2.289
0.336605298543,0.0894086967432,-0.126089641631,-2.01820447329,0.0255147910001,2.1009807106,0.0237161616729,-0.215561337622,-0.463058675723,-0.00544995655899,-0.603919275995,-0.0561865587866,0.111592833779,-0.192974271451,0.573776440342,0.81899433225,0.00310276522919,0.0,0.818961982174,-0.573708938487,-0.0118352251954,0.0,-0.00791305056068,0.00933199981551,-0.999925145904,0.0,0.55591911804,0.122324968523,0.304311962416,1.0,-0.127362857143,-0.167391183673,2.306
0.332403559511,0.0804756699549,-0.126208005896,-2.02957618854,0.0242045244317,2.10350377436,0.0198800094232,-0.21869303566,-0.478694228648,-0.00524912434576,-0.581458106123,-0.0647058257182,0.139628002459,-0.202569079001,0.573744733331,0.81901647345,0.00312155311219,0.0,0.818984710064,-0.573677574168,-0.0117827195137,0.0,-0.00785962768889,0.00931695691611,-0.999925707524,0.0,0.553507187852,0.119090324141,0.304346238503,1.0,-0.128926285714,-0.16944597551,2.325
0.329257710555,0.0738531519558,-0.126249964354,-2.03791600204,0.0232560303093,2.10542640877,0.017124620233,-0.228724699804,-0.468836461255,-0.000870208124811,-0.603125954684,-0.0688815672001,0.133583194514,-0.198327082938,0.573782421312,0.818989547231,0.00325598217504,0.0,0.818959954544,-0.573715311803,-0.0116653657054,0.0,-0.00768595372698,0.00936008100455,-0.99992665481,0.0,0.551738417529,0.116730212666,0.304402138638,1.0,-0.130078285714,-0.170960032653,2.339
0.325294899928,0.0658007660128,-0.126354468625,-2.04834188361,0.0220803287938,2.10747109173,0.013608067562,-0.236985672527,-0.467846025127,-0.00941599363741,-0.611282765797,-0.069050999887,0.116283566721,-0.208399775359,0.573831081901,0.818956464369,0.00299095515355,0.0,0.818922497885,-0.57376379229,-0.011907981237,0.0,-0.00803617116137,0.00928270894282,-0.999924622793,0.0,0.549433646699,0.113741301608,0.304296422944,1.0,-0.131477142857,-0.172798530612,2.356
0.321245828424,0.0576385241226,-0.126475082566,-2.05841184223,0.0208909678151,2.10972924136,0.0100229777463,-0.241155187525,-0.479400796821,-0.00464913569717,-0.589860019638,-0.0736461919578,0.1439354285,-0.213390272573,0.573888695738,0.818915219618,0.00322100651125,0.0,0.818885153124,-0.573821663137,-0.0116855384771,0.0,-0.00772133065463,0.009344012747,-0.999926532541,0.0,0.547281292559,0.110752918403,0.304413774394,1.0,-0.132876,-0.174637028571,2.373
0.316926426103,0.049024278902,-0.12646727471,-2.06928813437,0.0196715146666,2.11195440297,0.00621241947285,-0.239600329877,-0.484153833073,0.000542909858244,-0.62076193562,-0.0615114755523,0.110551382722,-0.209769079704,0.573860188821,0.818935277198,0.00320036681212,0.0,0.81890440819,-0.573792585369,-0.0117637631694,0.0,-0.00779756403206,0.00937173027878,-0.999925681572,0.0,0.544857250419,0.107655764539,0.304387792222,1.0,-0.134357142857,-0.176583673469,2.391
0.312770799054,0.0408365210498,-0.126469688965,-2.07962103616,0.0184830565487,2.11393965816,0.0025021868126,-0.251581543734,-0.48448036209,0.00088435136117,-0.592627006344,-0.0703660375163,0.123208283108,-0.227608107718,0.573785693379,0.81898794083,0.00307859528583,0.0,0.818954773136,-0.573717686946,-0.0119097499674,0.0,-0.00798785082602,0.00935505456068,-0.999924335734,0.0,0.542510207261,0.104696741501,0.304333447746,1.0,-0.135756,-0.178422171429,2.408
0.308969469512,0.0334759273956,-0.126532607692,-2.08851785338,0.0174035028634,2.11589466955,-0.000874982779176,-0.251652593814,-0.491745210432,-0.00502170882777,-0.592701648332,-0.076419606866,0.130655421022,-0.224918971917,0.573772443792,0.81899609777,0.00336474127558,0.0,0.818967724972,-0.573704747475,-0.0116393762897,0.0,-0.0076023820873,0.00943414952213,-0.999926597611,0.0,0.540559930712,0.102019869888,0.30446154625,1.0,-0.136990285714,-0.18004437551,2.423
0.304333545295,0.0246784661889,-0.12664562573,-2.09950838443,0.0160913700781,2.1178542535,-0.00498077180363,-0.262466563683,-0.49100051021,-0.00348777522067,-0.623933086157,-0.0843504568573,0.110509341543,-0.238870205157,0.573786688412,0.818986871988,0.00317594304414,0.0,0.818955315387,-0.573718736966,-0.0118215546727,0.0,-0.00785975137606,0.00938418681959,-0.999925077866,0.0,0.53801864609,0.0987383520506,0.304397177393,1.0,-0.138471428571,-0.181991020408,2.441
0.300079212376,0.0167752588306,-0.126762924652,-2.10909647385,0.0149492525197,2.11968137023,-0.00867304788113,-0.262795959388,-0.502711052511,-0.00952093322882,-0.591550329007,-0.0723272450017,0.122185201325,-0.221332664328,0.57388716714,0.818916051259,0.00328135401032,0.0,0.818885960549,-0.57381895055,-0.0117619091267,0.0,-0.00774926226,0.00943724513572,-0.99992544089,0.0,0.535830852904,0.0957849308898,0.304455365439,1.0,-0.139788,-0.183721371429,2.457
0.295447560748,0.00841261177194,-0.12685028821,-2.11935024476,0.0137121493545,2.1215497912,-0.0127443876258,-0.277057805633,-0.483734662333,-0.00177006604558,-0.611521505482,-0.0707034968844,0.0959998458442,-0.237120871109,0.573912897175,0.818898107693,0.00325922906042,0.0,0.818867459275,-0.573844425395,-0.0118070523256,0.0,-0.00779863252732,0.00944527807806,-0.999924981212,0.0,0.533450190626,0.09262498365,0.304440924801,1.0,-0.13998,-0.183973714286,2.474
0.290787400809,8.5523596415e-05,-0.126862003722,-2.12959659532,0.0125021989596,2.12329192676,-0.0168409985022,-0.270632368325,-0.490414938321,-0.000235524162791,-0.591843506158,-0.0767509408252,0.0977640200502,-0.244063910514,0.573879955399,0.818921632368,0.00314701972033,0.0,0.818888565373,-0.573810750489,-0.0119786069641,0.0,-0.0080039007209,0.00945152286539,-0.999923300203,0.0,0.531014103206,0.0895187844133,0.304378525991,1.0,-0.13998,-0.183973714286,2.491
0.286413512309,-0.00782266553101,-0.126851986275,-2.1388839722,0.0113243152887,2.1250696103,-0.0207102103084,-0.273157365875,-0.485337021177,0.00012985424369,-0.589037288205,-0.0773391672838,0.107393146221,-0.23835724939,0.573775955295,0.818993396464,0.00342294828099,0.0,0.818965021538,-0.573707125807,-0.0117121389159,0.0,-0.00762854148356,0.00952360196652,-0.999925550409,0.0,0.528708867287,0.0864783615482,0.304511720592,1.0,-0.13998,-0.183973714286,2.508
0.281347820257,-0.0165826113283,-0.126870507812,-2.14951404994,0.0099799563762,2.12676937851,-0.0251320563551,-0.284327891111,-0.486162595507,-0.000662291958989,-0.596102218801,-0.0826005137996,0.081625799897,-0.250014623792,0.573742278393,0.81901758316,0.00327770657919,0.0,0.818986759055,-0.573673261298,-0.0118500913404,0.0,-0.00782525120735,0.00948347927962,-0.999924411675,0.0,0.526273387807,0.0833560247654,0.304458832665,1.0,-0.13998,-0.183973714286,2.525
0.276771582262,-0.0243486378234,-0.126961416914,-2.15876989452,0.00882422378711,2.12822660731,-0.0291490826392,-0.281803560014,-0.489809527745,-0.0083594318634,-0.554793487947,-0.0705741471116,0.0956870917081,-0.253694354012,0.573762854693,0.819003236775,0.00326061759645,0.0,0.818971823531,-0.573693452827,-0.0119046775081,0.0,-0.00787952614997,0.00950099861374,-0.999923819145,0.0,0.524026649698,0.0803840124215,0.304463741042,1.0,-0.13998,-0.183973714286,2.541
0.271817885035,-0.0325975469497,-0.127097043947,-2.16838539769,0.00755769532053,2.12995137703,-0.0333666679125,-0.292991452144,-0.470736619553,-0.00438005451685,-0.581473937479,-0.076952981459,0.0908430244207,-0.25697944305,0.573907378912,0.818901019113,0.00349116414729,0.0,0.818873722132,-0.573838550898,-0.0116572555108,0.0,-0.00754291906722,0.00954919138692,-0.999925955917,0.0,0.52173809378,0.0771979699292,0.304561884277,1.0,-0.13998,-0.183973714286,2.558
0.266821970111,-0.0407793364929,-0.127130029183,-2.17818076497,0.00638169268397,2.13129488856,-0.0377439567578,-0.29453053334,-0.477882690339,-0.000327857257704,-0.580790199446,-0.0674743232392,0.0887829369,-0.263173684713,0.573900021816,0.818906789047,0.003344056539,0.0,0.818876120004,-0.57382988217,-0.0119127376204,0.0,-0.00783665302361,0.00957527277765,-0.99992344758,0.0,0.519275023151,0.0740652572925,0.304489336725,1.0,-0.13998,-0.183973714286,2.575
0.262128095428,-0.048428377998,-0.127131166799,-2.18706998517,0.00525700168856,2.13271416054,-0.0418134187128,-0.291935536188,-0.486976146472,-0.00172711735502,-0.550543553962,-0.0718702654129,0.0933836005868,-0.2487827408,0.573885271257,0.818916423831,0.0035118534808,0.0,0.818888361164,-0.573815070441,-0.0117840479204,0.0,-0.00763514292895,0.00963869305357,-0.999924397236,0.0,0.516946887384,0.0709969370642,0.304555109479,1.0,-0.13998,-0.183973714286,2.592
0.257048388185,-0.0565460204045,-0.127131527124,-2.19645784263,0.00396939372843,2.13411031395,-0.0463143982542,-0.297463899408,-0.472933517104,-0.00158991595801,-0.558945158609,-0.0695554887598,0.070450493747,-0.267754192233,0.573754972758,0.81900760183,0.00353924884647,0.0,0.818980305916,-0.573685219466,-0.0117164153687,0.0,-0.00756556416246,0.00962111191988,-0.999925095417,0.0,0.514723105885,0.0680846334039,0.304582896552,1.0,-0.13998,-0.183973714286,2.608
0.251896914826,-0.0645658103947,-0.127191802935,-2.20600624994,0.00277536105586,2.13527902303,-0.0507728315422,-0.303011387227,-0.462872924561,-0.00272306656104,-0.562194473162,-0.0721035560762,0.0711209535014,-0.263255207024,0.573795455266,0.818980165744,0.00331821258215,0.0,0.818948398883,-0.573724500741,-0.012019322693,0.0,-0.00793999990384,0.0096142627223,-0.999922258155,0.0,0.512246824804,0.0649503774737,0.304463356817,1.0,-0.13998,-0.183973714286,2.625
0.246637931608,-0.0726502024261,-0.12735214685,-2.21510784704,0.00152690461315,2.13661895202,-0.0552911609072,-0.310232643308,-0.474013740466,-0.0147649962806,-0.523852680118,-0.0803470336474,0.0791633292219,-0.262041234665,0.573925746168,0.818887957652,0.00353519428239,0.0,0.818860019726,-0.573855234242,-0.0117976746642,0.0,-0.00763243091571,0.00966600459503,-0.9999241543,0.0,0.509953248588,0.0617568165206,0.304573851501,1.0,-0.13998,-0.183973714286,2.642
0.241324858522,-0.0806479802718,-0.127434048336,-2.22430472686,0.000341233261278,2.13776259159,-0.0599696273589,-0.307272295575,-0.475979928715,-0.00214710035521,-0.545514125922,-0.0707489803357,0.0574482760759,-0.272783160241,0.573923135442,0.818889803709,0.00353141446629,0.0,0.818861188388,-0.573851843239,-0.0118812063349,0.0,-0.00770303833007,0.00971082440259,-0.999923178594,0.0,0.507556513179,0.0586058007089,0.304559981403,1.0,-0.13998,-0.183973714286,2.659
0.236043418862,-0.0885477245025,-0.127415669061,-2.23350918274,-0.000858066775814,2.13880355797,-0.0645783775202,-0.308806309039,-0.45662057507,0.0018425721456,-0.537282424303,-0.0724534896675,0.0565618003279,-0.273217560686,0.573854857046,0.81893833624,0.00336918120154,0.0,0.818906427061,-0.573782718083,-0.0120997127706,0.0,-0.00797589425851,0.0097027098894,-0.999921118155,0.0,0.505102222547,0.0555477243219,0.304464780816,1.0,-0.13998,-0.183973714286,2.676
0.2309888509,-0.0960869284284,-0.127426826624,-2.24176486528,-0.00201957874771,2.13990548728,-0.0690591224325,-0.316298713902,-0.472245273142,-0.000706542626216,-0.520192923457,-0.0765716184727,0.0706993934293,-0.282580281592,0.573745647585,0.819013748369,0.00362750068337,0.0,0.818986511624,-0.573674209819,-0.0118212380404,0.0,-0.00760089923057,0.0097534457894,-0.99992354539,0.0,0.502949116561,0.0526535731423,0.304604689654,1.0,-0.13998,-0.183973714286,2.692
0.225505918506,-0.103971675492,-0.127467971253,-2.25066129069,-0.00325617352725,2.14083384554,-0.0737587701754,-0.32428150269,-0.459020332673,-0.00308844082944,-0.520864014744,-0.0670263625336,0.0494754790398,-0.268714737669,0.573785035897,0.818986419534,0.00356708582471,0.0,0.818958099943,-0.573713424459,-0.0118862960687,0.0,-0.00768837806009,0.00974166020295,-0.999922991484,0.0,0.500548884754,0.0495272081266,0.304593176937,1.0,-0.13998,-0.183973714286,2.709
0.219895811942,-0.111801698748,-0.127616583643,-2.25958272643,-0.00448445485611,2.14169165365,-0.0786155397076,-0.334876179936,-0.460886265583,-0.0129321178168,-0.521383278676,-0.0828445339857,0.0500394456761,-0.289198050423,0.573882456513,0.818918778163,0.00342166315572,0.0,0.81888757909,-0.573810140833,-0.0120748495434,0.0,-0.00792508859982,0.00973168914121,-0.999921240497,0.0,0.498111408281,0.0463152766092,0.304516679468,1.0,-0.13998,-0.183973714286,2.726
0.214281049623,-0.119692784519,-0.127673317367,-2.26806868994,-0.00569788010974,2.14272037402,-0.0834818334362,-0.329125592401,-0.453932566015,-0.000522418825658,-0.500191991746,-0.0688372353244,0.0585819506143,-0.289396531205,0.573903925463,0.818902439603,0.00371828619065,0.0,0.818876556709,-0.573832383239,-0.0117612805195,0.0,-0.00749781264009,0.00979485103253,-0.999923918955,0.0,0.495836809221,0.0431954290948,0.304663684249,1.0,-0.13998,-0.183973714286,2.743
0.209010211151,-0.126948290065,-0.127679438819,-2.27621325544,-0.00677520825669,2.14342646381,-0.0881508548376,-0.329558096961,-0.452984225985,-0.00233855076156,-0.508647718952,-0.0742545801415,0.0310826729307,-0.285122035468,0.573834071424,0.818951762036,0.00363549607297,0.0,0.818923686596,-0.573761385474,-0.0119421510928,0.0,-0.00769428655505,0.00983019629154,-0.999922079562,0.0,0.49341059585,0.0401264669734,0.30460667507,1.0,-0.13998,-0.183973714286,2.76
0.203228745413,-0.13473101991,-0.12771605514,-2.28481854189,-0.00801597848379,2.14412547447,-0.0931689000275,-0.336912941559,-0.459452779735,-0.00771678319476,-0.501642114968,-0.0701646635197,0.0374226591503,-0.295254287729,0.573809420867,0.818969399759,0.00355213801083,0.0,0.818939908368,-0.573736627593,-0.0120189659198,0.0,-0.00780532389868,0.00980577224247,-0.99992145879,0.0,0.491131118418,0.0371732286384,0.304579650651,1.0,-0.13998,-0.183973714286,2.776
0.197434119956,-0.142512101167,-0.127794616963,-2.2930923763,-0.0091899946867,2.14496351333,-0.0982700808581,-0.348911386892,-0.461230563902,-0.0114900651673,-0.479488423225,-0.0674011742913,0.0503889283201,-0.297445146987,0.573800611588,0.8189744095,0.00381072518975,0.0,0.818949272897,-0.57372817845,-0.0117818748704,0.0,-0.00746287727659,0.00988142787773,-0.999923328484,0.0,0.488829795231,0.0340529338302,0.304695035187,1.0,-0.13998,-0.183973714286,2.793
0.191500031884,-0.150128738939,-0.127938479934,-2.3014197321,-0.0103863454893,2.14559391648,-0.103363576747,-0.353983270949,-0.447379486068,-0.00525326653288,-0.489226520823,-0.0746532062586,0.0293644594269,-0.30304920365,0.573946856794,0.818872078523,0.00377776302661,0.0,0.81884608257,-0.573873946073,-0.0118547028267,0.0,-0.00753967053056,0.00989756643963,-0.999922592777,0.0,0.486445716779,0.0308579952434,0.304668738768,1.0,-0.13998,-0.183973714286,2.81
0.185606910966,-0.157767881702,-0.127952872975,-2.30975266714,-0.0116322872438,2.14608733847,-0.108580328603,-0.348653659966,-0.449304958179,0.00129738575939,-0.487365645127,-0.0715586156345,0.0244259932198,-0.304667372588,0.573823277148,0.818959351245,0.00362967128337,0.0,0.818930900985,-0.573750232668,-0.0119831893507,0.0,-0.00773136908599,0.0098488725796,-0.999921609748,0.0,0.484004322751,0.0277699167456,0.304621529784,1.0,-0.13998,-0.183973714286,2.827
0.180025696299,-0.164915053564,-0.127958215527,-2.31729733644,-0.0126917067134,2.14663725346,-0.113486105258,-0.352950626602,-0.44319618993,-0.00538443339794,-0.460878960814,-0.0572485803304,0.0370510179729,-0.305804373594,0.573781164778,0.81898821546,0.00377157589933,0.0,0.81896186066,-0.573707935514,-0.0118921156104,0.0,-0.00757586537786,0.00991243960792,-0.999922171874,0.0,0.481808891027,0.0248991726911,0.304682241011,1.0,-0.13998,-0.183973714286,2.843
0.173942763113,-0.172484642981,-0.127984186759,-2.32528604226,-0.0138081361401,2.14718097817,-0.118879312502,-0.353616511418,-0.432824263312,-0.00122912728672,-0.479927714281,-0.0562637736712,0.0253672887637,-0.313285955768,0.573732562699,0.819021736377,0.00388442296909,0.0,0.818996770659,-0.573658843114,-0.0118561489251,0.0,-0.00748225414932,0.0099837807928,-0.999922166968,0.0,0.479313637603,0.0216179688008,0.304713548191,1.0,-0.13998,-0.183973714286,2.861
0.167732833966,-0.179961749095,-0.128138417043,-2.33332601813,-0.0150390639323,2.14751290921,-0.124237144526,-0.366073752612,-0.453048249421,-0.00700014063551,-0.460810647667,-0.070812183687,0.0201635810385,-0.329107074738,0.573851239785,0.818939185598,0.00375656635392,0.0,0.818911936991,-0.573777143484,-0.0119906618302,0.0,-0.0076643384844,0.00995734489616,-0.999921051483,0.0,0.477030004414,0.0185917944935,0.304664722107,1.0,-0.13998,-0.183973714286,2.877
0.161477504799,-0.187442465165,-0.128234070552,-2.34119900781,-0.0161938908068,2.1479139672,-0.129714109724,-0.360762897806,-0.444255528363,-0.000944101648087,-0.456769145538,-0.0578617515384,0.027940448637,-0.325766513852,0.573897311959,0.818906703995,0.00379899717948,0.0,0.818879832596,-0.573822823772,-0.0119972324337,0.0,-0.00764480996663,0.00999629407868,-0.999920812357,0.0,0.474650308933,0.0154369637678,0.304669388271,1.0,-0.13998,-0.183973714286,2.894
0.155292500369,-0.194914841642,-0.128235111528,-2.34880032906,-0.01735718687,2.14834423486,-0.135248127521,-0.368134003987,-0.431830449508,-0.00138954557337,-0.445298216021,-0.0783604864441,0.0182643845109,-0.330103940395,0.573757196533,0.819003929612,0.00399870075886,0.0,0.818980886043,-0.573683679066,-0.011751237036,0.0,-0.00733046108153,0.0100174091742,-0.999922954959,0.0,0.472348912064,0.0123916553132,0.304778647554,1.0,-0.13998,-0.183973714286,2.911
0.149284235076,-0.201803666565,-0.128280982706,-2.35616176007,-0.0184732595686,2.14852190403,-0.140522573593,-0.370474764875,-0.420289632181,-0.00244490915741,-0.456505040808,-0.070799652242,0.0073022742469,-0.321887191547,0.573741462515,0.819015811932,0.0038184943291,0.0,0.818989369077,-0.573667155462,-0.011964739187,0.0,-0.00760891229498,0.00999216560131,-0.99992112743,0.0,0.470041014165,0.00944212676126,0.304684104392,1.0,-0.13998,-0.183973714286,2.927
0.142842606232,-0.209144780041,-0.128422700966,-2.36381259158,-0.01957628102,2.14872290618,-0.146180803132,-0.381937119726,-0.435339404058,-0.00993275548008,-0.4430987255,-0.0673260034127,0.0123776248886,-0.336216814844,0.573836525646,0.818949190994,0.00382247377598,0.0,0.818921881637,-0.573760986335,-0.0120842557842,0.0,-0.00770335348773,0.0100648885517,-0.999919674956,0.0,0.467632163835,0.00628294486422,0.304654258352,1.0,-0.13998,-0.183973714286,2.944
0.136302753652,-0.216504571632,-0.12854924525,-2.37112175901,-0.0206774759794,2.14898503638,-0.151899939435,-0.382335599763,-0.428584116166,-0.00912910467077,-0.426348525108,-0.063970594586,0.0154935297786,-0.334446942613,0.573951007661,0.818867735628,0.00407667174681,0.0,0.818844680711,-0.573875793775,-0.0118620862884,0.0,-0.00737411847879,0.0101466127068,-0.999921331219,0.0,0.465336285598,0.00311757061056,0.304775563841,1.0,-0.13998,-0.183973714286,2.961
0.129831412014,-0.223734667576,-0.128544430432,-2.378550893,-0.0218558798474,2.14911772969,-0.157718546604,-0.383552928037,-0.427332490693,0.000103253912339,-0.445441601014,-0.0748434969802,0.000786796786143,-0.344724437731,0.573779848171,0.818987935667,0.00402417265107,0.0,0.818964222364,-0.573704875574,-0.011877084283,0.0,-0.00741864410046,0.0101106797044,-0.999921365846,0.0,0.462945286919,6.67029545564e-05,0.304756140112,1.0,-0.13998,-0.183973714286,2.978
0.122754944578,-0.231314943938,-0.128598000824,-2.38638640939,-0.0230790089768,2.14913465764,-0.16393471396,-0.393211392156,-0.420442391179,-0.00547900956677,-0.438353669054,-0.0720783711062,0.00105465468203,-0.356726847299,0.573789236667,0.818982002028,0.00389090486751,0.0,0.818955683534,-0.573713575635,-0.0120444360591,0.0,-0.00763205835377,0.0100976408387,-0.999919891459,0.0,0.460373192394,-0.00325394482563,0.304685449269,1.0,-0.13998,-0.183973714286,2.996
0.116031382397,-0.238532637028,-0.128747551081,-2.39356833146,-0.0241748583685,2.14915910755,-0.169878866096,-0.404975425896,-0.425125300079,-0.01148891667,-0.414469085577,-0.0663576539122,0.00380717517692,-0.351308797382,0.573875051346,0.818921380306,0.00399314680277,0.0,0.818896313326,-0.573798888596,-0.0120170865075,0.0,-0.00754993123213,0.010166475068,-0.999919817447,0.0,0.458001800449,-0.00641147127981,0.304726394789,1.0,-0.13998,-0.183973714286,3.013
0.109177986544,-0.245668514051,-0.128855094481,-2.40051044386,-0.0252965858088,2.14925744465,-0.175924418114,-0.394065039765,-0.422732686933,-0.000372982688834,-0.414012826475,-0.0611557132346,0.00264027885434,-0.351481824922,0.573939128662,0.818875465247,0.00419474774531,0.0,0.818854271511,-0.573863973854,-0.0117715097619,0.0,-0.00723232516719,0.0101912133774,-0.999921913273,0.0,0.455706191169,-0.00958320412754,0.304828874359,1.0,-0.13998,-0.183973714286,3.03
0.103220728239,-0.25186179191,-0.128850547199,-2.40682570053,-0.0262331281061,2.14921722535,-0.181301143,-0.403207564665,-0.406542407243,0.000294318519528,-0.42197940072,-0.0677628771711,-0.0106256082053,-0.363565810389,0.573823901064,0.818956476214,0.00414337245763,0.0,0.818933797373,-0.573747796244,-0.0119016270438,0.0,-0.00736980562004,0.0102227826202,-0.999920587187,0.0,0.453567947372,-0.0122587365545,0.304764108553,1.0,-0.13998,-0.183973714286,3.045
0.0966752338498,-0.258452980396,-0.128896632808,-2.41345384342,-0.0272723628672,2.1491375212,-0.187129375255,-0.410402301747,-0.4100439695,-0.00298242079838,-0.408026419147,-0.0574019493253,-0.00603170931611,-0.35425293111,0.573814295082,0.818963401462,0.00410471995942,0.0,0.818939730322,-0.57373765475,-0.011982008299,0.0,-0.0074579374584,0.0102371629995,-0.999919786614,0.0,0.451016959635,-0.0155615370003,0.304721705927,1.0,-0.13998,-0.183973714286,3.063
0.0892546414337,-0.265851450071,-0.129059335049,-2.42057109862,-0.0284272791716,2.14904541839,-0.19371043969,-0.41988525965,-0.408691730689,-0.0145997013168,-0.385977006449,-0.0701141013732,-0.00169552280184,-0.373709147417,0.573899041632,0.818903213958,0.00426181695483,0.0,0.818882315839,-0.573822855086,-0.0118250026949,0.0,-0.00723814409578,0.0102764821057,-0.999920998472,0.0,0.448834577936,-0.018549181231,0.30479699248,1.0,-0.13998,-0.183973714286,3.079
0.0825834395692,-0.272367878374,-0.129142391843,-2.42679181742,-0.0294456475491,2.14896784349,-0.19965473309,-0.409856090746,-0.398155368238,-0.00379844411928,-0.396578040694,-0.0572000178744,-0.0126306847047,-0.365528535071,0.573924969009,0.818884225058,0.0044161974728,0.0,0.818866253212,-0.573849613867,-0.011637307094,0.0,-0.0069955086721,0.0102954144099,-0.99992253065,0.0,0.446521191103,-0.0216794317042,0.304873358001,1.0,-0.13998,-0.183973714286,3.096
0.0750973563825,-0.279567769814,-0.129150819997,-2.43401597182,-0.0306041775578,2.14866350006,-0.206458468789,-0.422145547926,-0.395846231956,-0.00411967667404,-0.388168640658,-0.0599334091009,-0.0238811318702,-0.38029494865,0.573756081074,0.819003485196,0.00424235424683,0.0,0.818982097082,-0.573679647904,-0.0118630999764,0.0,-0.00728230814225,0.0102811358732,-0.999920629967,0.0,0.444068845784,-0.0247414008638,0.304765964613,1.0,-0.13998,-0.183973714286,3.113
0.0682691787251,-0.28598563753,-0.129202678301,-2.44021550233,-0.0316246683627,2.14845293295,-0.212526219491,-0.424026612282,-0.401720439745,-0.00581012059518,-0.389216553885,-0.063623476458,-0.00993893143694,-0.383855114352,0.573773888392,0.818990888122,0.00426580285286,0.0,0.818969986898,-0.573697630141,-0.0118294815013,0.0,-0.00724109598696,0.0102812100503,-0.999920928498,0.0,0.441830183639,-0.0276878623929,0.304769101157,1.0,-0.13998,-0.183973714286,3.129
0.0609111806208,-0.292770264886,-0.129381701834,-2.4465949545,-0.0325846384691,2.14820369244,-0.219110943196,-0.435151547241,-0.397180849318,-0.00799094195468,-0.365743322618,-0.0582310309733,-0.00553230087759,-0.391618107124,0.573918821007,0.818888189611,0.00447958824347,0.0,0.818870138938,-0.573841938009,-0.0117419179955,0.0,-0.00704487800653,0.0104073091526,-0.999921025687,0.0,0.439491660285,-0.0308725519683,0.304832619947,1.0,-0.13998,-0.183973714286,3.146
0.054006219755,-0.299097188776,-0.129433565209,-2.45249022145,-0.033533560993,2.14794471014,-0.225357688859,-0.418863681904,-0.401571597232,0.000108079990838,-0.375314457281,-0.0558297213238,-0.0215282409813,-0.401936543556,0.573872082928,0.818920095241,0.00463216446277,0.0,0.818904725338,-0.573795787375,-0.0115841318365,0.0,-0.00682869336516,0.0104413122607,-0.999922170944,0.0,0.437169542176,-0.0339687982413,0.304905180698,1.0,-0.13998,-0.183973714286,3.163
0.0465816662193,-0.305685770372,-0.129462242115,-2.45889634768,-0.0346589934493,2.14748779455,-0.231983294949,-0.439254656301,-0.385720153763,-0.00231639683274,-0.379597229974,-0.0704544964574,-0.0260495180995,-0.391579300853,0.573849489843,0.818936959792,0.0044458738862,0.0,0.818918500236,-0.573772769914,-0.0117492713695,0.0,-0.00707112734184,0.0103833216677,-0.999921089781,0.0,0.434868791294,-0.0368922746857,0.304824923653,1.0,-0.13998,-0.183973714286,3.179
0.039067007527,-0.312261979866,-0.129564744313,-2.46512805248,-0.0356566640551,2.14707585183,-0.238774396578,-0.441374952487,-0.392694287786,-0.00932079161973,-0.355918079237,-0.0543373826924,-0.0197896057335,-0.401405855946,0.573868178893,0.818923685842,0.00447849564322,0.0,0.818905200689,-0.573790687983,-0.0118010833999,0.0,-0.00709460421164,0.0104399306142,-0.999920334047,0.0,0.432475428998,-0.0400189040707,0.304809804195,1.0,-0.13998,-0.183973714286,3.196
0.0314207480191,-0.318782935899,-0.129701476504,-2.47117645755,-0.0366539194721,2.14665593621,-0.245660412724,-0.444011060243,-0.38478103523,-0.00300223445215,-0.349118214049,-0.0601706256547,-0.0258134735615,-0.407108307346,0.573944956464,0.818869341885,0.00457545325868,0.0,0.818852236819,-0.573867312656,-0.0117502605268,0.0,-0.00699635974045,0.0104908248827,-0.999920493611,0.0,0.430114783896,-0.043188967132,0.304838677044,1.0,-0.13998,-0.183973714286,3.213
0.0238579500056,-0.325263402093,-0.129699695804,-2.47699405161,-0.037677269478,2.14627596343,-0.252619021498,-0.455067903967,-0.372591340705,0.000235853385522,-0.344129362466,-0.0649767133379,-0.025685662729,-0.410621645472,0.573777642236,0.818985722688,0.00472760028982,0.0,0.818972197447,-0.573702029637,-0.011457220457,0.0,-0.00667119453555,0.0104458712538,-0.999923186518,0.0,0.427829968671,-0.0462489297219,0.304946876906,1.0,-0.13998,-0.183973714286,3.23
0.0161066393993,-0.331600686878,-0.129743948507,-2.48300505547,-0.0386556787839,2.14569071042,-0.259631644282,-0.456912599607,-0.367075863925,-0.00102979764587,-0.352477204393,-0.0619514060447,-0.0332218048216,-0.418950248949,0.57376721983,0.818993532359,0.00463878247251,0.0,0.818977763681,-0.573690181532,-0.0116509704379,0.0,-0.00688097795575,0.0104842064655,-0.999921363687,0.0,0.425398892567,-0.0493533785802,0.304875022605,1.0,-0.13998,-0.183973714286,3.247
0.00822789240843,-0.337918677041,-0.129920303425,-2.48886291461,-0.0396166318181,2.14511260459,-0.266730886431,-0.463237735474,-0.36961175489,-0.00577137990363,-0.341451203102,-0.0539985513492,-0.0286335945968,-0.414307177457,0.573904082135,0.818897438678,0.00467293659103,0.0,0.818881294447,-0.573825665631,-0.0117591653515,0.0,-0.00694823321258,0.0105754169718,-0.999919938101,0.0,0.422845613567,-0.0527176153151,0.304847286356,1.0,-0.13998,-0.183973714286,3.265
0.000385497033481,-0.344186461301,-0.129966491568,-2.49455833855,-0.0405543960003,2.14455071939,-0.273909362584,-0.459487272868,-0.366662323665,-0.00103371762545,-0.332315644669,-0.0593921784969,-0.0402712106598,-0.434830085109,0.573851937494,0.818933632905,0.00473345888348,0.0,0.818918385754,-0.573773503322,-0.0117214018525,0.0,-0.0068832494393,0.0106028698092,-0.999920096822,0.0,0.420622817477,-0.0556191111469,0.304867614776,1.0,-0.13998,-0.183973714286,3.281
-0.0076060899915,-0.350343183094,-0.13002008026,-2.50004993666,-0.0415731375617,2.14394281383,-0.281159763637,-0.476641260962,-0.365888920495,-0.00619070206645,-0.313715806632,-0.0597044859498,-0.0393723318411,-0.431340851439,0.573838761085,0.818942759285,0.00475186187561,0.0,0.818928481825,-0.573761403392,-0.0116077790616,0.0,-0.00677980220758,0.0105526317581,-0.999921335028,0.0,0.41828432527,-0.0587571027828,0.304914538565,1.0,-0.13998,-0.183973714286,3.298
-0.0161321856178,-0.356835947513,-0.130173980655,-2.50582545474,-0.0425669858446,2.14330096422,-0.288985286353,-0.479152988543,-0.350286465442,-0.0171858628622,-0.330365766015,-0.0584705859872,-0.0400955413441,-0.443787895303,0.573866513656,0.818922651019,0.00486446835121,0.0,0.818910129012,-0.573789284858,-0.0115240654605,0.0,-0.0066462663822,0.0105970416999,-0.999921761865,0.0,0.415789272312,-0.0620970061188,0.304956299184,1.0,-0.13998,-0.183973714286,3.316
-0.0237467270995,-0.362517703294,-0.130261910973,-2.51105149593,-0.0434473453864,2.14258141393,-0.295988649639,-0.474843667157,-0.351178705632,0.00114551360241,-0.321955928971,-0.0605782629776,-0.0468003764215,-0.445989212081,0.573839399985,0.818942085352,0.00479069572771,0.0,0.818927401507,-0.573760505035,-0.0117277799998,0.0,-0.00685579260462,0.010653299351,-0.99991974944,0.0,0.413485657355,-0.0650174368364,0.304891374528,1.0,-0.13998,-0.183973714286,3.332
-0.0304460967698,-0.367456878929,-0.130279027393,-2.51546046493,-0.0442546693874,2.14203170927,-0.302148194498,-0.483277825114,-0.348240545982,-0.00198921809954,-0.309809684049,-0.0558248597234,-0.0462173024435,-0.449174606004,0.573760986389,0.818997115596,0.00477514871581,0.0,0.818982519645,-0.573682604456,-0.011689686088,0.0,-0.00683453102226,0.0106180535778,-0.999920269884,0.0,0.411527484432,-0.0675577943673,0.304894874496,1.0,-0.13998,-0.183973714286,3.346
-0.0392318037561,-0.373646697616,-0.130371302724,-2.52095803068,-0.0452009621822,2.14127385969,-0.310132120591,-0.485885569376,-0.339490997956,-0.00862582315129,-0.306576204014,-0.0507706306755,-0.0491005606845,-0.439681113642,0.573846661502,0.818936897537,0.0048076852697,0.0,0.818922477419,-0.573767777704,-0.0117158076241,0.0,-0.00683614387167,0.0106604038694,-0.999919808248,0.0,0.40901717063,-0.0708850893734,0.304893657039,1.0,-0.13998,-0.183973714286,3.364
-0.0475923364865,-0.379436597478,-0.130525930394,-2.52594156,-0.046054752574,2.14057826829,-0.317776373013,-0.483902239502,-0.333565759302,-0.00432390011914,-0.286809941909,-0.049716038319,-0.0413826682082,-0.447405624726,0.573967780844,0.818851113067,0.00495863726342,0.0,0.818839041099,-0.573889021084,-0.0116087532705,0.0,-0.0066602612825,0.0107235825971,-0.999920319673,0.0,0.406689172827,-0.0740532474259,0.304953180529,1.0,-0.13998,-0.183973714286,3.381
-0.055931411922,-0.385184728199,-0.130565163795,-2.53096110514,-0.0469702537969,2.13985222746,-0.32554906217,-0.501682426445,-0.335650402764,-0.00301786804084,-0.297048465756,-0.0607082632557,-0.039639126168,-0.455881005138,0.573846970384,0.818935677863,0.00497564120298,0.0,0.818924179461,-0.573768750607,-0.0115479878032,0.0,-0.00660231889819,0.0107016567444,-0.999920938839,0.0,0.404327157645,-0.0771391463983,0.304968414935,1.0,-0.13998,-0.183973714286,3.398
-0.0644602589829,-0.390839789237,-0.130627779625,-2.53602859305,-0.0479282598767,2.13900356715,-0.333389031782,-0.50305157007,-0.32812696172,-0.00572984792287,-0.293457992431,-0.0477890366936,-0.0561500444498,-0.468941569696,0.573821112616,0.818954578075,0.00484527264989,0.0,0.818940608181,-0.573742053362,-0.0117082610703,0.0,-0.00680872841468,0.0106866436759,-0.999919715209,0.0,0.401881202848,-0.0802716480907,0.304902629504,1.0,-0.13998,-0.183973714286,3.415
-0.0735098207814,-0.396785008374,-0.130790080538,-2.54110595533,-0.0488152106517,2.1381814905,-0.341771975103,-0.499365080761,-0.322000191329,-0.0085396821865,-0.275409466147,-0.0468332439157,-0.0389812658637,-0.471016785687,0.573879679881,0.818912816229,0.00496581686746,0.0,0.818900544231,-0.573800441397,-0.0116489918756,0.0,-0.00669024964067,0.01075183687,-0.999919816067,0.0,0.39937369786,-0.0836023468683,0.304939946426,1.0,-0.13998,-0.183973714286,3.433
-0.0820442508993,-0.402175128404,-0.130829746286,-2.54579971994,-0.0496487556095,2.13735960814,-0.349721434736,-0.515068259472,-0.316721539363,-0.00496412393275,-0.277065496058,-0.0569832677642,-0.0443205840656,-0.472671194114,0.573816642081,0.818957076029,0.00495134263283,0.0,0.818944216843,-0.573736820748,-0.0117122636066,0.0,-0.00675120355791,0.0107757726557,-0.999919148719,0.0,0.397010920033,-0.0866726355352,0.304918830617,1.0,-0.13998,-0.183973714286,3.45
-0.0902932427428,-0.407259521185,-0.130875316971,-2.55012639477,-0.0504821948858,2.13655558525,-0.35733656907,-0.514118188316,-0.317623648049,-0.00466410007661,-0.264238182698,-0.0481296494064,-0.047995534024,-0.478816674846,0.573822572191,0.818953001016,0.00493808378226,0.0,0.818940156544,-0.5737430905,-0.0116890121081,0.0,-0.00673968985441,0.010751621102,-0.999919486371,0.0,0.394631214425,-0.0898195371656,0.304934987395,1.0,-0.13998,-0.183973714286,3.467
-0.0996030173368,-0.412915229297,-0.131052816065,-2.55483236895,-0.0513693430173,2.13574858872,-0.36601878227,-0.510880432609,-0.319667631909,-0.0017261375684,-0.263798993914,-0.0491351888326,-0.0468927154955,-0.489616786047,0.573856790404,0.818928246544,0.00506537465328,0.0,0.818917873053,-0.573778244316,-0.0115234736756,0.0,-0.00653062205057,0.0107611566406,-0.999920771103,0.0,0.392286902685,-0.0929941835893,0.304993514111,1.0,-0.13998,-0.183973714286,3.484
-0.107843621307,-0.417832478845,-0.131101071787,-2.55903551014,-0.0520678748695,2.13489913785,-0.373774247637,-0.521454526575,-0.313071125462,-0.00413612739427,-0.268015181538,-0.0509739744653,-0.0555456860369,-0.490467725933,0.573792869505,0.818972835166,0.00509755497085,0.0,0.818962175248,-0.573713079441,-0.0116191605921,0.0,-0.00659136983668,0.010841904945,-0.99991950023,0.0,0.390034758789,-0.0958778768455,0.304976642487,1.0,-0.13998,-0.183973714286,3.5
-0.116283579219,-0.422702356313,-0.131152267542,-2.56315891147,-0.0528221887102,2.1340247368,-0.381562040427,-0.527623181426,-0.302122448409,-0.00306264837773,-0.251481179283,-0.0425232413353,-0.0525015504971,-0.480857609352,0.573844708461,0.818936586461,0.00508574761804,0.0,0.818925358226,-0.573764266003,-0.0116863858339,0.0,-0.00665251675529,0.0108712276666,-0.999918776916,0.0,0.387761863068,-0.0988229150841,0.304967246999,1.0,-0.13998,-0.183973714286,3.516
-0.125784953785,-0.427941764427,-0.131306501794,-2.56758833796,-0.0536647188577,2.13313316284,-0.390421393089,-0.522461307637,-0.290657074583,-0.0108258126041,-0.241610504505,-0.0489820796811,-0.0477911793473,-0.488185605192,0.573910322873,0.818890437208,0.00511273417874,0.0,0.818879328942,-0.57382940472,-0.0117134884394,0.0,-0.00665835465305,0.0109094143056,-0.999918322161,0.0,0.385253096243,-0.102158541586,0.304953994033,1.0,-0.13998,-0.183973714286,3.534
-0.134694384104,-0.432822871269,-0.131328245809,-2.57170203475,-0.0544209208667,2.13227231744,-0.398909192269,-0.531259305982,-0.2884544098,-0.00417876678616,-0.243651066444,-0.0464610242851,-0.0611164178181,-0.490080466112,0.573747362492,0.81900463327,0.00511093108235,0.0,0.818993318163,-0.573666178728,-0.0117391264407,0.0,-0.0066825593017,0.0109213215086,-0.999918030709,0.0,0.382896207264,-0.105207871269,0.304939849409,1.0,-0.13998,-0.183973714286,3.551
-0.142826727629,-0.437055557877,-0.131391817168,-2.57527255591,-0.0551084267234,2.13143146886,-0.406451339066,-0.53970092609,-0.279817675687,-0.00403049190409,-0.240826147114,-0.0406656614218,-0.0576965204285,-0.502465680969,0.57380749116,0.818962779805,0.00506707841355,0.0,0.818950246679,-0.573725394252,-0.0118495719549,0.0,-0.00679737769776,0.0109492690788,-0.999916951133,0.0,0.380764747522,-0.107993225331,0.304910929225,1.0,-0.13998,-0.183973714286,3.566
-0.152035489026,-0.441858815469,-0.13153608788,-2.57906569185,-0.0558314683307,2.13058620709,-0.415074331149,-0.529991958876,-0.285279188904,-0.00729233775751,-0.217006388825,-0.0508722047857,-0.0427723848762,-0.504102887358,0.573894782032,0.818900667632,0.00521752909483,0.0,0.81889104589,-0.573813737518,-0.0116617536533,0.0,-0.00655605420631,0.0109654185467,-0.999918385544,0.0,0.378427560763,-0.111165208821,0.304996388968,1.0,-0.13998,-0.183973714286,3.583
