nelsonifechukwu/NELSON_IML_WORK/CNN-GradCAM/train2dof/data_sample_2022-02-22-09-12-38/robot_state.csv
position_joint1,position_joint2,position_joint3,position_joint4,position_joint5,position_joint6,position_joint7,velocity_joint1,velocity_joint2,velocity_joint3,velocity_joint4,velocity_joint5,velocity_joint6,velocity_joint7,ee_T_00,ee_T_10,ee_T_20,ee_T_30,ee_T_01,ee_T_11,ee_T_21,ee_T_31,ee_T_02,ee_T_12,ee_T_22,ee_T_32,ee_T_03,ee_T_13,ee_T_23,ee_T_33,v_x,v_y,time
0.465076549262,0.547826340457,-0.123993921535,-1.35584164128,0.0795406044615,1.89410313152,0.159150937063,-1.44262592472e-05,0.000735103335535,-0.000534268385096,-0.00064350499804,-0.000149120228814,0.000116751522999,-0.00143358021722,0.573811747678,0.818973220787,0.00192061493981,0.0,0.818929333463,-0.573752949655,-0.0119602030225,0.0,-0.00869329487663,0.00843591532896,-0.999926628287,0.0,0.661672622966,0.260894371023,0.303178758003,1.0,0.0,0.0,0.0
0.465079046086,0.54782329138,-0.12399354761,-1.35583913562,0.0795463449476,1.89410512414,0.159151749402,1.29002625068e-05,0.00080078444383,-0.000354609470524,0.000652661827327,0.000146364381308,0.000184578500638,-0.0010001819106,0.573811500209,0.818973371578,0.00193022676061,0.0,0.818929560507,-0.573752613951,-0.0119607613963,0.0,-0.00868823971348,0.00844410476839,-0.999926603099,0.0,0.661672617269,0.260897644473,0.303182281825,1.0,-0.00018,-0.000236571428571,0.01
0.465074056012,0.547817656099,-0.123994880539,-1.35584231199,0.0795425405471,1.89410305362,0.159154756023,-0.000616395712742,-0.00377572116142,-0.000987742892723,0.00127755454839,0.000111614646581,-0.000316348436105,0.00268714036796,0.573818121235,0.818968736769,0.00192842911024,0.0,0.8189249388,-0.573759277258,-0.0119575613228,0.0,-0.00868658204244,0.00844086657671,-0.999926644841,0.0,0.661673447051,0.260892511186,0.303184619399,1.0,-0.00054,-0.000709714285714,0.028
0.465073652235,0.547796767848,-0.123994451194,-1.35586511102,0.0795458714536,1.89410836371,0.159157241103,-0.000472531524839,-0.00288799363816,-0.000330009206217,-0.00661242643827,0.000108978899075,-2.35487384258e-05,0.00126788751724,0.573822314888,0.818965784678,0.00193426062894,0.0,0.818922013731,-0.573763398139,-0.0119601540458,0.0,-0.00868531621086,0.00844717452457,-0.999926602569,0.0,0.661669652405,0.260890961918,0.303189019011,1.0,-0.00084,-0.001104,0.043
0.465072242755,0.547709268674,-0.123989618185,-1.35596123031,0.0795409413908,1.89413218638,0.159152019318,-0.000798408481797,-0.00654791582397,0.000784918796953,-0.00653428836837,-7.52777086338e-05,0.00266024650879,-8.20203496942e-05,0.573819769639,0.818967530776,0.00194997620478,0.0,0.818923917434,-0.573760740913,-0.0119572798993,0.0,-0.00867397120272,0.00845836859963,-0.999926606419,0.0,0.661654218975,0.260883388327,0.303207156019,1.0,-0.00122,-0.00160342857143,0.062
0.46506587806,0.547594042407,-0.123991775393,-1.35612016146,0.0795409019427,1.89416022486,0.159150817284,-0.00127548735859,-0.0111116379982,-0.000792048693015,-0.011622678036,-0.000449483654244,0.000445225238044,-0.000687625459236,0.573834161914,0.818957463701,0.00194272226398,0.0,0.818913638238,-0.573775047513,-0.0119747593002,0.0,-0.00869230029936,0.00846261065593,-0.999926411361,0.0,0.661628574675,0.26086247101,0.303215644308,1.0,-0.0015,-0.00197142857143,0.076
0.465041753539,0.547429935349,-0.123994515609,-1.3563542125,0.0795395075828,1.89424572709,0.159149143382,-0.000797335644678,-0.0116467101459,0.00110091708911,-0.0128197898603,0.000191644915188,0.00915715471944,0.00172557817737,0.573867175675,0.818934283629,0.00196231516535,0.0,0.818890612154,-0.573807875282,-0.0119764139891,0.0,-0.00868207127172,0.00847995560305,-0.999926353284,0.0,0.661603299016,0.26082487976,0.303228008326,1.0,-0.00188,-0.00247085714286,0.095
0.465020465781,0.547253489141,-0.123990041704,-1.35655073542,0.0795320291766,1.89437084505,0.159140345305,-0.00297543868522,-0.016341616372,0.0011838383332,-0.0113840145961,-4.83430283999e-05,0.00519388304853,-0.000860680541536,0.573883580878,0.81892256195,0.00205427104739,0.0,0.8188801051,-0.573823910468,-0.0119264474354,0.0,-0.00858821239287,0.00852675821908,-0.999926765819,0.0,0.661592805565,0.260799679279,0.303270158248,1.0,-0.0022,-0.00289142857143,0.111
0.46499841365,0.547050188143,-0.123992699074,-1.35680047237,0.0795306921552,1.89448638994,0.159122772871,0.000621940620241,-0.0154007039761,-0.000598687499137,-0.016232500394,-0.000168754483752,0.00625622460346,0.000219469311761,0.573902820571,0.818908911245,0.00212002970214,0.0,0.818867237403,-0.573842805634,-0.0119007912282,0.0,-0.00852926441007,0.00856608544195,-0.999926934245,0.0,0.661570384785,0.260764218627,0.303305410865,1.0,-0.00254,-0.00333828571429,0.128
0.46497184224,0.54684080841,-0.123991491652,-1.35712601058,0.0795237527888,1.89461658723,0.159104463602,-0.00254780462538,-0.0113164172892,0.00527748342742,-0.023475011712,0.000268997111679,0.0107466335713,-0.00209775833824,0.573925197992,0.818893180421,0.00213847422339,0.0,0.818851640124,-0.573864998269,-0.0119038703272,0.0,-0.00852096678007,0.00858318951259,-0.999926858317,0.0,0.661534242206,0.26071916363,0.303310015701,1.0,-0.00286,-0.00375885714286,0.144
0.464928572042,0.546546887293,-0.123989990219,-1.35754041615,0.0795151313116,1.89477288949,0.159016524867,-0.00323243482019,-0.014114251395,0.000577123890305,-0.0226821450785,-0.00229795200164,0.0127436866411,-0.00368592693816,0.57390844993,0.818904810523,0.00217928945057,0.0,0.818863650052,-0.573847934213,-0.011900332952,0.0,-0.00849482270362,0.00861440840621,-0.999926812299,0.0,0.661489508186,0.260655297745,0.303334436675,1.0,-0.00322,-0.004232,0.162
0.464898268181,0.54628735269,-0.123995030099,-1.35795397425,0.0795068708295,1.89491481121,0.158932597053,-0.00327585350911,-0.0159241573503,-0.000901094726903,-0.0323290995986,0.000252420463112,0.0123351031826,0.00833193499366,0.573888949539,0.818918481478,0.0021774279542,0.0,0.81887715019,-0.573828295212,-0.0119183644473,0.0,-0.00851086300449,0.00862302967083,-0.999926601591,0.0,0.661439258586,0.260594946109,0.303333860628,1.0,-0.00352,-0.00462628571429,0.177
0.464845856188,0.545965426492,-0.123990249762,-1.35851115801,0.079486313259,1.89510707271,0.158903563532,-0.00119742812294,-0.0205834461793,-0.00240726873662,-0.0327263369532,-0.00142478491511,0.0176185164241,-0.00413373374674,0.573930434138,0.818889485668,0.00214800703368,0.0,0.81884760443,-0.573869726311,-0.0119534448498,0.0,-0.00855603882671,0.00861950215802,-0.999926246471,0.0,0.661371875194,0.260510848753,0.303313111137,1.0,-0.00388,-0.00509942857143,0.195
0.464790237601,0.545613542146,-0.12399017095,-1.35910176218,0.0794160835257,1.89530596687,0.158806838372,0.000231274068267,-0.0207149018499,0.000167097000634,-0.0357535426973,-0.0137473280727,0.0131175460611,-0.0123363337042,0.573910988895,0.818903250985,0.00209505447445,0.0,0.818860952781,-0.573850775648,-0.0119488158206,0.0,-0.00858284073203,0.00857328006903,-0.999926414149,0.0,0.66130356813,0.260410745154,0.303298279866,1.0,-0.00422,-0.00554628571429,0.212
0.464730112219,0.545250462498,-0.123994945434,-1.35974587583,0.0793480307906,1.89550841001,0.15871809273,-0.000540809419948,-0.022146119304,-0.00097353744639,-0.042972174893,-0.000468288418378,0.00518243049023,-0.00384299134992,0.57390862146,0.818905121606,0.00201070192731,0.0,0.81886195037,-0.573848984067,-0.0119664791402,0.0,-0.00864573825447,0.00851431677585,-0.9999263761,0.0,0.661226059459,0.260299239159,0.303266353736,1.0,-0.00454,-0.00596685714286,0.228
0.46466949451,0.544816364735,-0.123993118523,-1.36044662514,0.0793351479698,1.89574081858,0.158663970286,-0.00240556291199,-0.0289462489485,0.000911242565041,-0.0403326486176,-0.00293150217837,0.00360634548276,-0.00139223176086,0.57394819606,0.818877416006,0.00199817316781,0.0,0.81883376114,-0.573888291767,-0.0120102910509,0.0,-0.00868839519386,0.00852962075487,-0.999925875932,0.0,0.661138836055,0.260196420461,0.303260193011,1.0,-0.00488,-0.00641371428571,0.245
0.464598357224,0.544378841117,-0.124001163389,-1.36119523958,0.0793115553357,1.89600454009,0.158543148084,-0.00488142800901,-0.0249377393471,-0.00163196868326,-0.0427462152696,0.000340791940576,0.00956640216368,-0.00743383120932,0.57394861449,0.818877197979,0.0019670933445,0.0,0.818832947121,-0.573888657024,-0.0120482757953,0.0,-0.0087373339868,0.00852597619172,-0.999925480586,0.0,0.661052446754,0.260075684051,0.303236663365,1.0,-0.00522,-0.00686057142857,0.262
0.464529579183,0.543902991382,-0.124004120379,-1.3619633712,0.0792798230774,1.89628382016,0.158450501999,-0.0013421054496,-0.0289969647968,-0.00175184568494,-0.0507794144686,-0.000478016812615,0.0144198380957,-0.00873453595955,0.57396551201,0.818865364818,0.00196270868282,0.0,0.81882092198,-0.573905440012,-0.0120660910791,0.0,-0.00875426342986,0.00853279136007,-0.99992527438,0.0,0.66096426092,0.259957389836,0.30323208554,1.0,-0.00554,-0.00728114285714,0.278
0.464442894131,0.543331996293,-0.124007046052,-1.36286240319,0.0792286081266,1.89658816079,0.158350415446,-0.000907400156262,-0.0347165126853,-0.000926387731728,-0.0498892016773,-0.00407158305931,0.0146955130938,-0.00688000695497,0.573992828418,0.818846262004,0.00194397204709,0.0,0.818801513431,-0.573932775263,-0.0120829625442,0.0,-0.00877854845549,0.00852742528,-0.999925107248,0.0,0.660859060937,0.259811544614,0.303234603127,1.0,-0.0059,-0.00775428571429,0.296
0.464368302027,0.542776745566,-0.12400770119,-1.36374929702,0.0791741436588,1.89690786826,0.158233232382,-0.00190526645376,-0.0380171741728,0.000518684015711,-0.0580556942626,-0.0054998326899,0.0180571420703,-0.000868911683933,0.573993208379,0.81884602212,0.00193279443908,0.0,0.818801116666,-0.573933193597,-0.0120899766594,0.0,-0.00879070365839,0.00852230281772,-0.999925044133,0.0,0.660755685719,0.259676766034,0.303232944567,1.0,-0.00624,-0.00820114285714,0.313
0.464289629633,0.542256083352,-0.124008305768,-1.36456197073,0.079133787109,1.89720296337,0.158122164196,-0.00111689022518,-0.0387449163861,-0.000305330277354,-0.0562984257261,-0.00236753150576,0.0166609910623,-0.0142171581555,0.574001853064,0.818839941926,0.0019414137147,0.0,0.818795039302,-0.573941692854,-0.0120980874024,0.0,-0.00879230819123,0.00853410881437,-0.999924929334,0.0,0.660656171272,0.259539789285,0.303242617724,1.0,-0.00656,-0.00862171428571,0.329
0.464206042271,0.54158672355,-0.124014421109,-1.3655742633,0.0790727097108,1.89757510422,0.15799208021,-0.0112984200831,-0.0400495706983,-0.000254494996036,-0.0579350415216,-0.000662627597877,0.021721574549,-0.00440584155621,0.574007572918,0.818835879059,0.00196374646503,0.0,0.818791307458,-0.5739473524,-0.0120821523601,0.0,-0.00876638154431,0.00854330997264,-0.999925078398,0.0,0.660548583211,0.259393535051,0.303263885427,1.0,-0.0069,-0.00906857142857,0.346
0.464110271637,0.540930416358,-0.124007064408,-1.36660414611,0.0790064301448,1.89796276978,0.157842567235,-0.00558853897612,-0.0425212446459,0.00109195729004,-0.0588473906548,-0.00387823083527,0.0249929199176,-0.00877389254091,0.574006416519,0.818836693959,0.00196196899085,0.0,0.818792130048,-0.573946234016,-0.0120795335772,0.0,-0.00876526938393,0.00854033897894,-0.999925113527,0.0,0.660439364192,0.259242349632,0.303263957089,1.0,-0.00722,-0.00948914285714,0.362
0.464038879686,0.540255830119,-0.124019681457,-1.36763790539,0.0789496538823,1.89832862232,0.157721280064,-0.00703379542051,-0.0411263544901,0.00189070341428,-0.06532193648,-0.00154677335732,0.0250450832527,-0.00922727426891,0.574007867729,0.818835630963,0.00198094721214,0.0,0.818791263237,-0.573947551983,-0.0120756664478,0.0,-0.00875119463968,0.00855367450407,-0.999925122819,0.0,0.660308798238,0.259083816668,0.303287882421,1.0,-0.00756,-0.009936,0.379
0.463932650308,0.53951421296,-0.124020163095,-1.36878235034,0.0788853014368,1.89877469649,0.157582009035,-0.00845789291951,-0.0404521200483,4.28928487699e-05,-0.0716809433274,-0.00157513864472,0.0305839734005,-0.00948967293189,0.574027436311,0.818821819884,0.00201904532679,0.0,0.818777934254,-0.573966938184,-0.0120579911918,0.0,-0.00871464881155,0.00857493262676,-0.99992525992,0.0,0.660183950522,0.258907138547,0.303305892998,1.0,-0.0079,-0.0103828571429,0.396
0.463833038212,0.538757886644,-0.12402680509,-1.36994823282,0.0788201845025,1.89922487282,0.157433744328,-0.00634677201124,-0.0422595660536,0.0014388346979,-0.0703625095241,0.000122169190885,0.0230727670324,-0.0145498633232,0.574037261366,0.818814819441,0.00206420144834,0.0,0.818771515573,-0.573976561117,-0.0120357582055,0.0,-0.0086704208656,0.00859924858926,-0.999925435583,0.0,0.66004765179,0.258722221217,0.303329352117,1.0,-0.00826,-0.010856,0.414
0.463724691473,0.538020496045,-0.124029928223,-1.37109348143,0.078753938671,1.89967011527,0.157295292405,-0.0109757074505,-0.0453033560001,-0.000447980892928,-0.0720216487009,-0.00750890463913,0.0297632210048,-0.0063141322798,0.574062588213,0.818797009704,0.00208533323457,0.0,0.818754005465,-0.574001818848,-0.0120223706094,0.0,-0.0086470625177,0.00860913387949,-0.999925552791,0.0,0.659930331302,0.25854897255,0.303338931766,1.0,-0.00856,-0.0112502857143,0.429
0.463617365558,0.537156507706,-0.12402963115,-1.37243999842,0.0786703119563,1.90016631897,0.157129766058,-0.00594182788928,-0.0527999795462,0.00467043876492,-0.0775890168406,-0.00458048879198,0.0313530367459,-0.0161358103747,0.574066529614,0.818794220774,0.00209535350099,0.0,0.818751350284,-0.574005720446,-0.0120169132875,0.0,-0.00863680054057,0.00861424706682,-0.999925597444,0.0,0.659772323981,0.258349969929,0.303351092343,1.0,-0.00892,-0.0117234285714,0.447
0.463503821661,0.536358538996,-0.124036802452,-1.37368559304,0.0786049800379,1.90063676583,0.156967872718,-0.00820867901179,-0.0505820804338,-0.000933441574156,-0.0772608905965,-0.00436123492558,0.0304986146721,-0.0170793095688,0.574083118094,0.818782532609,0.00211771460458,0.0,0.818739901682,-0.574022160622,-0.0120116364738,0.0,-0.00861946897137,0.00862970131591,-0.999925613738,0.0,0.659632847652,0.258154862738,0.303362561019,1.0,-0.00924,-0.012144,0.463
0.463388758529,0.535483327914,-0.12404497145,-1.37508823974,0.0785237504563,1.9011379727,0.156797571906,-0.00777519200064,-0.0517486932325,-0.00163578618292,-0.0854239946495,-0.00924084128746,0.038603669581,-0.00999893337174,0.574098868375,0.818771547963,0.00209486959178,0.0,0.818728581837,-0.574037968085,-0.0120277753906,0.0,-0.00864563204642,0.00862042782074,-0.999925467858,0.0,0.659466277443,0.257940083277,0.303356331752,1.0,-0.00958,-0.0125908571429,0.48
0.463270467009,0.534589939752,-0.124041825762,-1.37652365015,0.0784480126927,1.90165567174,0.15662812548,-0.00512691543936,-0.0520888808189,-0.000134744443584,-0.0917520723045,-0.00846157903467,0.0313666079417,-0.0120427528885,0.574113185279,0.818761546548,0.00208021261655,0.0,0.818718232734,-0.574052189772,-0.0120534521154,0.0,-0.00867491950662,0.00862331981034,-0.999925189265,0.0,0.659293457694,0.25772811521,0.303348236883,1.0,-0.00992,-0.0130377142857,0.497
0.46313251785,0.533622734083,-0.124040385535,-1.37809177114,0.078360650195,1.90223031765,0.156431563743,-0.0114636152663,-0.0540000156181,0.000527929074873,-0.0869410515005,-0.00283346456952,0.0243230596328,-0.0115030423861,0.574126662379,0.818752144983,0.00206095423899,0.0,0.818708470634,-0.574065639536,-0.0120759478405,0.0,-0.00870425276766,0.00862061029523,-0.999924957715,0.0,0.659108789941,0.257489417343,0.303333849524,1.0,-0.01028,-0.0135108571429,0.515
0.463011695725,0.532782758505,-0.124045964707,-1.3794354558,0.0782835108803,1.90274735239,0.156262965754,-0.00671403956138,-0.062222219639,0.00279340502155,-0.0942856613656,-0.0113670109561,0.0344881964133,-0.00954081515916,0.574144412819,0.818739671501,0.00207133778586,0.0,0.818696133983,-0.574083344268,-0.012070664305,0.0,-0.00869377858685,0.00862626678956,-0.999925000055,0.0,0.658957783797,0.257280663941,0.30333160501,1.0,-0.01058,-0.0139051428571,0.53
0.462879685248,0.531803491847,-0.124046315484,-1.38100842422,0.0781962527399,1.90331565438,0.156062913567,-0.00485618346346,-0.0622795244675,-0.00060361641935,-0.09671989423,-0.0042324970632,0.0285105834024,-0.0145182753549,0.574151334973,0.818734862711,0.00205329754137,0.0,0.81869097297,-0.574090227892,-0.0120933005183,0.0,-0.0087225966231,0.00862456684837,-0.999924763747,0.0,0.65876911185,0.257044061039,0.303322527123,1.0,-0.01092,-0.014352,0.547
0.462746380344,0.530804589687,-0.124051614327,-1.38263698084,0.078097195563,1.90389010351,0.15585137,-0.00992525192827,-0.0581358029095,-0.00190358636701,-0.0999188468021,-0.00484223260249,0.0278963672451,-0.0134070193503,0.574152976595,0.818733832966,0.00200427688329,0.0,0.8186892588,-0.574092040058,-0.0121232820968,0.0,-0.00877527076559,0.00860166406665,-0.999924500149,0.0,0.658570875778,0.256795934895,0.3033012992,1.0,-0.01126,-0.0147988571429,0.564
0.462612610877,0.529825875652,-0.124052067851,-1.38416623185,0.077995127115,1.90444772612,0.155650609461,-0.0079724746023,-0.0670031382458,-0.00156102129228,-0.0995579503725,-0.00356304152287,0.0306606156722,-0.0143156532006,0.574154041265,0.818733084787,0.0020049127608,0.0,0.818688575716,-0.57409315747,-0.0121164945284,0.0,-0.00876933708165,0.00859829901591,-0.999924581147,0.0,0.658390697273,0.256560246,0.303311238156,1.0,-0.01158,-0.0152194285714,0.58
0.462476966253,0.528762514141,-0.124052098858,-1.38584389197,0.0778971633074,1.90508354304,0.155410637856,-0.00793135848975,-0.0621211633447,-0.00102530496966,-0.103745166059,-0.00309423747171,0.0431238567912,-0.0154001517077,0.574132983298,0.81874780131,0.00202539887294,0.0,0.818703545238,-0.574071998093,-0.0121075563837,0.0,-0.00875047886427,0.00860971446847,-0.999924648129,0.0,0.658182170622,0.256297062179,0.303316845259,1.0,-0.01194,-0.0156925714286,0.598
0.462329988186,0.527579765016,-0.124053135381,-1.38766958351,0.0777792119349,1.90579406981,0.155166740835,-0.00683267549111,-0.0683009537106,0.000805083707368,-0.102739095376,-0.00523097482953,0.035416679597,-0.0134147398763,0.574122104243,0.818755303722,0.00207580064807,0.0,0.818711788494,-0.574060983635,-0.0120723382384,0.0,-0.00869282216293,0.00863064486036,-0.999924970591,0.0,0.657983175283,0.256043642167,0.303342012084,1.0,-0.01228,-0.0161394285714,0.615
0.462189334035,0.526484518838,-0.124055588892,-1.38935780423,0.077673621241,1.90643063908,0.154927905755,-0.00809016879974,-0.0665922882059,-0.00028122918337,-0.107508167392,-0.0073383400356,0.0400262854526,-0.0145526371809,0.574106246414,0.818766335287,0.00211019653874,0.0,0.818723308199,-0.574045019702,-0.0120501813034,0.0,-0.00865510160917,0.00864591790855,-0.99992516586,0.0,0.657785604765,0.255789777037,0.303364483889,1.0,-0.0126,-0.01656,0.631
0.462032856151,0.525305353593,-0.124053881467,-1.39119132059,0.0775567701107,1.90708498515,0.154687364215,-0.00609504606046,-0.0731495965634,0.000648833890736,-0.104472574937,-0.00548574870066,0.0385650326778,-0.0108056129034,0.574103332884,0.818768383281,0.0021082247885,0.0,0.818725312215,-0.574042096716,-0.0120532666771,0.0,-0.00865879060104,0.00864604403277,-0.999925132831,0.0,0.657562869719,0.255511227461,0.303377956945,1.0,-0.01294,-0.0170068571429,0.648
0.461866600125,0.524065321859,-0.124064840032,-1.39319372448,0.0774389437114,1.90780074601,0.154413812824,-0.00726258008577,-0.0647454861996,0.00104617192281,-0.114003468297,-0.00674654910243,0.0376386049508,-0.0212857405104,0.574099061946,0.818771481659,0.00206755802463,0.0,0.818727821173,-0.574037942435,-0.0120806615192,0.0,-0.00870461196793,0.00862842984652,-0.999924887143,0.0,0.657319110065,0.2552036649,0.3033593167,1.0,-0.0133,-0.01748,0.666
0.461726328795,0.522991750102,-0.124071130184,-1.39488764945,0.0773317307843,1.90845345219,0.154192111696,-0.00942087569431,-0.0759977212637,-0.000398962226833,-0.115740064465,-0.0121942349294,0.0518211707494,-0.0120161382062,0.57409896987,0.818771490926,0.00208934001701,0.0,0.818728198442,-0.574037839865,-0.0120599494774,0.0,-0.00867514960749,0.00863437239813,-0.999925091891,0.0,0.657122087135,0.254947779795,0.303364517531,1.0,-0.0136,-0.0178742857143,0.681
0.461547417718,0.521688838387,-0.124071641338,-1.3969537927,0.0772069172724,1.90926328473,0.153902456115,-0.0107784201723,-0.0731195932076,0.00015319989496,-0.118253938534,-0.00608011998424,0.0472852853223,-0.022952707413,0.574085902042,0.818780557965,0.00212647063068,0.0,0.818737779926,-0.574024645561,-0.0120374794635,0.0,-0.00863557386305,0.00865173567205,-0.999925284376,0.0,0.656883699995,0.254636531453,0.303366876416,1.0,-0.01396,-0.0183474285714,0.699
0.461375792834,0.520341726654,-0.124078419892,-1.39910645087,0.0770769556083,1.91005395127,0.153606241048,-0.00784914991381,-0.0749339472524,-0.000919804863151,-0.119901475499,-0.00668588837192,0.0458433858635,-0.0147387178148,0.57406852384,0.818792780441,0.00211176101874,0.0,0.818749784593,-0.574007306086,-0.0120478085156,0.0,-0.00865265896978,0.00864543798077,-0.999925191149,0.0,0.656621309621,0.254314688051,0.303357257948,1.0,-0.01432,-0.0188205714286,0.717
0.461212645375,0.519097741826,-0.124086494885,-1.40104277447,0.0769535813519,1.91074746083,0.153345172152,-0.012328508954,-0.0806094030001,4.86997088822e-05,-0.120271479202,-0.00525945975356,0.0399744088129,-0.0145474533703,0.574063617882,0.818796228395,0.0021085284071,0.0,0.818753215593,-0.5740024397,-0.0120464963654,0.0,-0.00865349194607,0.00864198608483,-0.99992521378,0.0,0.656384950961,0.254016527299,0.303369377416,1.0,-0.01464,-0.0192411428571,0.733
0.46104207357,0.517728665624,-0.124090779995,-1.40315990751,0.0768111531619,1.91150814075,0.153055749714,-0.00443148840063,-0.0834465431776,0.000640316425598,-0.122475817441,-0.00594543343665,0.0439361286687,-0.0110294118197,0.57404296632,0.818810698518,0.00211180286035,0.0,0.818767805417,-0.573981853767,-0.0120357492444,0.0,-0.00864303013053,0.00863827970523,-0.99992533629,0.0,0.656123888967,0.253697427385,0.303388532971,1.0,-0.01498,-0.019688,0.75
0.460863611815,0.516482259386,-0.124094014619,-1.40516167656,0.0766741808199,1.91225353117,0.152782306971,-0.0135864164588,-0.0778733989123,0.000212638984759,-0.126871826855,-0.014081265987,0.0469877885919,-0.0129756701518,0.57403642026,0.81881533665,0.00209274523973,0.0,0.818772312438,-0.573975506605,-0.0120318370949,0.0,-0.00865083478762,0.00862036052307,-0.99992542344,0.0,0.655884590556,0.253385717827,0.303374840365,1.0,-0.0153,-0.0201085714286,0.766
0.460692708385,0.515176013531,-0.124104947868,-1.40723552904,0.0765666356228,1.91303005485,0.152499979245,-0.0143606536942,-0.0819497114183,-0.000618653217374,-0.130477011131,-0.0019966264015,0.0419958103644,-0.01910419002,0.574033660323,0.818817235332,0.0021068556595,0.0,0.818774252751,-0.573972545029,-0.0120410749923,0.0,-0.00865032897633,0.00863718781292,-0.999925282606,0.0,0.65563351063,0.25307356038,0.30337143235,1.0,-0.01562,-0.0205291428571,0.782
0.46050137955,0.513760046207,-0.124106142129,-1.40950099313,0.0764219779463,1.91381317213,0.152187387155,-0.0129411267906,-0.0846181390451,-0.000608716160812,-0.137462511543,-0.010330516092,0.0521742159587,-0.015017037114,0.574014988247,0.818830475096,0.00204773627498,0.0,0.818786651182,-0.573954059427,-0.0120790899588,0.0,-0.0087155882241,0.00861040358477,-0.99992494692,0.0,0.655345262768,0.252727025116,0.303353547424,1.0,-0.01596,-0.020976,0.799
0.460284425182,0.512187777114,-0.124111735019,-1.41205979338,0.0762693805521,1.91472295669,0.15182865622,-0.0141429962764,-0.0846199591146,-0.000438315504987,-0.134172558982,-0.00384983212754,0.0529140841743,-0.0237539264252,0.573999332986,0.818841589809,0.00199083703023,0.0,0.818796827217,-0.573938462721,-0.0121302782162,0.0,-0.00879032759578,0.00859302809132,-0.99992444215,0.0,0.655006570292,0.252317962977,0.303318325543,1.0,-0.01636,-0.0215017142857,0.819
0.460114356646,0.510912076825,-0.124106803875,-1.41407897413,0.0761478446187,1.91549033729,0.151544698751,-0.00683425083635,-0.086917154475,6.60061239596e-05,-0.139893935775,-0.0046429226226,0.0465717592682,-0.0149225126957,0.573971952479,0.818860751287,0.00200366429673,0.0,0.818816175328,-0.573911047777,-0.0121213515001,0.0,-0.00877594288417,0.00859811406363,-0.999924524782,0.0,0.654777370174,0.252036778782,0.303314887544,1.0,-0.01664,-0.0218697142857,0.833
0.459930324101,0.509506162168,-0.124112754988,-1.41631623817,0.0760044303792,1.91632465417,0.151223933193,-0.0121913465812,-0.0841653350431,-0.000224245407652,-0.136965604547,-0.00270170554116,0.0505304748724,-0.0190753818985,0.573942149908,0.818881649281,0.00199998284577,0.0,0.818837075988,-0.573881314911,-0.012117189626,0.0,-0.00877496038543,0.00859239140041,-0.999924582596,0.0,0.654502331943,0.251699269927,0.30330661954,1.0,-0.01696,-0.0222902857143,0.849
0.459707000705,0.507898042078,-0.124119190588,-1.4188217655,0.075839415547,1.91721975003,0.150880204419,-0.0132646356623,-0.0897994647764,-0.00112936393811,-0.141346808638,-0.0115390822743,0.0556660902269,-0.0241761300289,0.573933385695,0.818887813174,0.00199126119781,0.0,0.818843168936,-0.573872632242,-0.0121166642338,0.0,-0.00877962740733,0.00858485404146,-0.99992460637,0.0,0.654190839718,0.251307368846,0.303316869952,1.0,-0.01732,-0.0227634285714,0.867
0.459496192638,0.506452620768,-0.124116388863,-1.42111214394,0.0756970276268,1.91806487887,0.150567166526,-0.0171604371379,-0.0941827843589,-0.00156658617218,-0.144127314038,-0.0143245933861,0.0659435270861,-0.0251147407929,0.573932184072,0.81888863558,0.00199937648556,0.0,0.818844074069,-0.5738713723,-0.0121151688701,0.0,-0.0087737581004,0.00859062831329,-0.999924608295,0.0,0.653894722936,0.250924996552,0.303316065629,1.0,-0.01766,-0.0232102857143,0.884
0.459270813111,0.504839957338,-0.124123073045,-1.42357075447,0.0755486177538,1.9190213785,0.150234206799,-0.0124450261042,-0.0996484247258,-0.000466335356337,-0.145584795626,-0.0135735883636,0.0638470667022,-0.0238019749557,0.573931576433,0.818888854598,0.00208237621427,0.0,0.818845408496,-0.573870435207,-0.0120692783993,0.0,-0.00868855070139,0.00863225037749,-0.999924993857,0.0,0.653618905844,0.250571857008,0.303350581774,1.0,-0.01798,-0.0236308571429,0.9
0.459022278711,0.503057691354,-0.124131497614,-1.42619115005,0.0753851466103,1.92000867822,0.149864941002,-0.0118113168908,-0.102034719685,-0.000678316904807,-0.145319436587,-0.0148080562122,0.0588167582437,-0.0206343181702,0.573929223134,0.818890176079,0.00220754508614,0.0,0.818848438114,-0.573867629556,-0.0119969182048,0.0,-0.00855748455352,0.00869319416206,-0.999925596149,0.0,0.653306338033,0.250157674288,0.303433953781,1.0,-0.01834,-0.024104,0.918
0.458815961628,0.501564955712,-0.124140500748,-1.42843007689,0.0752388235775,1.92081208293,0.149550726665,-0.00750632385259,-0.0990691488145,-0.000204992720945,-0.155895582055,-0.0131251624139,0.0487036954421,-0.015766618146,0.57392210834,0.818895042233,0.00225172513823,0.0,0.818853937475,-0.573860392344,-0.0119677099395,0.0,-0.00850828627592,0.00871253505931,-0.999925847649,0.0,0.653028726129,0.249802652115,0.303480223843,1.0,-0.01864,-0.0244982857143,0.933
0.458557700124,0.499745735585,-0.124137939799,-1.43117442084,0.0750600811711,1.92179266167,0.149155236693,-0.0141482009256,-0.093320798267,0.000267225908309,-0.154976561227,-0.010261589755,0.0626741636355,-0.0257108525164,0.573899211897,0.818910963003,0.0022969890694,0.0,0.818870437458,-0.573837304153,-0.0119457909203,0.0,-0.00846460410102,0.00873678464894,-0.999926006798,0.0,0.652684374258,0.249371742015,0.303528150204,1.0,-0.019,-0.0249714285714,0.951
0.458307743793,0.498069892278,-0.124141539255,-1.43381184923,0.0748958294293,1.92278133091,0.148777817471,-0.0140158220895,-0.096187035995,-0.000936844102736,-0.159685297506,-0.0110721331471,0.0545180115377,-0.0203919674677,0.573887268965,0.818919276343,0.00231694942387,0.0,0.818879012399,-0.573825284052,-0.0119353816643,0.0,-0.00844475254174,0.00874703325086,-0.99992608505,0.0,0.652360950065,0.248956359424,0.303527310938,1.0,-0.01934,-0.0254182857143,0.968
0.458060710962,0.496486370389,-0.124141550299,-1.43632210944,0.0747461649668,1.92367148101,0.148397182021,-0.0181538490278,-0.0936843739113,-0.00614905254735,-0.16191513955,-0.00783162640586,0.0624337439448,-0.0313832409406,0.573864508527,0.818935302484,0.00228978147807,0.0,0.818894524389,-0.573802470846,-0.0119678435103,0.0,-0.00848717067974,0.00874317848191,-0.999925759626,0.0,0.652042649851,0.248554721294,0.303513402164,1.0,-0.01966,-0.0258388571429,0.984
0.457788740979,0.494803075935,-0.12414391208,-1.43907120734,0.0745777279734,1.92461312788,0.148010317428,-0.0110100246878,-0.103603610368,-0.000351832420085,-0.162952354346,-0.00280727886743,0.056377838145,-0.0226154781736,0.573865045046,0.81893521162,0.0021854391051,0.0,0.818892876547,-0.573803239185,-0.0120435186709,0.0,-0.00860901522404,0.0087011624242,-0.999925084509,0.0,0.651685918362,0.248109134621,0.303459365891,1.0,-0.01998,-0.0262594285714,1.001
0.45749146533,0.492736091805,-0.124194878191,-1.44223667462,0.0743924668559,1.92576030648,0.147567034312,-0.015124394947,-0.144816710388,-0.00190282309756,-0.210475257324,-0.00849004499363,0.0707800051268,-0.0325881173333,0.57389122921,0.818916762363,0.00222266910004,0.0,0.818874971408,-0.573829323249,-0.0120181480495,0.0,-0.00856659511833,0.00871736568901,-0.999925307702,0.0,0.651295951011,0.247585506597,0.303492641453,1.0,-0.0305588571429,-0.0401630693878,1.018
0.457161709832,0.490061952316,-0.124248982119,-1.4464462916,0.0741729730061,1.92737569813,0.146924016056,-0.0267050645913,-0.17606531298,-0.00024152568216,-0.291487612949,-0.0121921500957,0.111502197776,-0.0415005067812,0.573826232521,0.818962100379,0.00229780650601,0.0,0.818921173768,-0.573763906156,-0.011993250076,0.0,-0.00850378256032,0.00876393264067,-0.999925436804,0.0,0.650769966771,0.24694927801,0.303491047865,1.0,-0.0405154285714,-0.0532488489796,1.034
0.456606285496,0.486344254814,-0.124288943576,-1.45235429606,0.0738307676674,1.92959291225,0.146061618768,-0.038298934984,-0.241519111042,-0.00606361635404,-0.369215512864,-0.021897920655,0.13809252767,-0.0517693744347,0.573805535803,0.818976535065,0.00232142113066,0.0,0.818935797051,-0.573742992213,-0.0119952530444,0.0,-0.00849209516902,0.00878420658738,-0.999925358231,0.0,0.650032290674,0.246008504993,0.303456073291,1.0,-0.0510942857143,-0.0671524897959,1.051
0.45590664236,0.481718105344,-0.124425090858,-1.45966771449,0.0733931227859,1.932183941,0.144935335734,-0.043122832134,-0.302611116119,-0.00658782814262,-0.469290629846,-0.0271345934144,0.162024267981,-0.0655662502537,0.573796634981,0.818983043089,0.0022234474485,0.0,0.818941116585,-0.573734589664,-0.0120339141824,0.0,-0.00858006814076,0.00872606000336,-0.99992511635,0.0,0.649039996382,0.244692533108,0.303419783866,1.0,-0.0622954285714,-0.0818739918367,1.069
0.455091682429,0.476481876466,-0.124551862436,-1.46786847885,0.0728953169946,1.93506375577,0.143725770485,-0.0484508080669,-0.34244469808,-0.0114369631693,-0.535974627088,-0.0338849739823,0.185665185778,-0.076028326238,0.573841340112,0.818951961229,0.00213271647744,0.0,0.818908849858,-0.573779672774,-0.0120801339711,0.0,-0.00866950695988,0.00867874775712,-0.999924756662,0.0,0.647977883086,0.243288381493,0.30339170582,1.0,-0.072252,-0.0949597714286,1.085
0.453998338478,0.469690876528,-0.124671530381,-1.47834537113,0.0722869046239,1.93884373631,0.142175821631,-0.0618274284143,-0.395812294942,-0.00326671628105,-0.594861844474,-0.030065380503,0.221502878459,-0.0895067168469,0.573880985219,0.818923937038,0.00222419679386,0.0,0.81888176345,-0.573818664748,-0.0120641774753,0.0,-0.00860352372529,0.00874492461507,-0.999924750005,0.0,0.646709457561,0.241614747321,0.303431720425,1.0,-0.0828308571429,-0.108863412245,1.102
0.452790247079,0.462398921221,-0.124731779921,-1.48948575962,0.0715864109862,1.94295799869,0.140365812037,-0.0782790295334,-0.440602536584,-0.00637334942592,-0.684962692904,-0.0451346027312,0.243859599071,-0.104739267148,0.573768354975,0.819002229173,0.00244342775239,0.0,0.818962949515,-0.573705186052,-0.0119496326447,0.0,-0.00838513004025,0.00885756839977,-0.999925613771,0.0,0.645283463662,0.239744514744,0.303516639379,1.0,-0.0934097142857,-0.122767053061,1.119
0.451454892789,0.454853217309,-0.124839800653,-1.50134166375,0.0708180487277,1.94695189978,0.138605209058,-0.0913941696402,-0.482114537889,-0.012556202018,-0.758997450372,-0.0501228407409,0.251838810109,-0.115816723304,0.573838099171,0.818954160331,0.00216011968395,0.0,0.818910815948,-0.573775721533,-0.0121344057884,0.0,-0.00869826534184,0.0087322978489,-0.999924040692,0.0,0.643681393668,0.237668990674,0.303414486686,1.0,-0.103366285714,-0.135852832653,1.135
0.449804227008,0.445263210111,-0.124984465051,-1.51561599027,0.0698343329662,1.9521567316,0.136355820263,-0.0950655784929,-0.552303654817,-0.00400720224529,-0.822619021775,-0.0558659706128,0.292384469722,-0.122251914041,0.57383194696,0.818957363118,0.00254576966538,0.0,0.818919988372,-0.573768984445,-0.0118301325034,0.0,-0.00822784885641,0.00887346047364,-0.999926779421,0.0,0.641828443161,0.235162279919,0.303652037676,1.0,-0.114567428571,-0.150574334694,1.153
0.448041977345,0.435595050393,-0.125052120861,-1.53042414504,0.0688728347478,1.95723228522,0.133969824071,-0.107375623074,-0.582720440749,-0.00719117045138,-0.891500572854,-0.0589506363406,0.30582711006,-0.144171395088,0.573763304341,0.819005604734,0.00249737989976,0.0,0.818966975399,-0.573699867034,-0.0119290683533,0.0,-0.00833738784472,0.00888990449722,-0.999925726023,0.0,0.639785929447,0.232570562259,0.303654558848,1.0,-0.125146285714,-0.16447797551,1.17
0.446330503384,0.426347349932,-0.12515013459,-1.54425598705,0.0679158600333,1.96217972195,0.131706536042,-0.115663230692,-0.618477847954,-0.00862952502611,-0.945693516294,-0.0700745758875,0.331920870938,-0.160003340906,0.573717824306,0.819036589811,0.00276939076569,0.0,0.819001934526,-0.573653851472,-0.0117403933112,0.0,-0.00802729457202,0.00900398265615,-0.999927242772,0.0,0.637915509865,0.230101119647,0.303801882199,1.0,-0.134480571429,-0.176745893878,1.185
0.444018082491,0.414571254634,-0.12528571771,-1.56195891015,0.0666287976417,1.96836564454,0.128765939321,-0.134737549418,-0.677693913821,-0.0092674113578,-1.01757193972,-0.0796634426126,0.372134484676,-0.167370478591,0.573689179504,0.819056138721,0.00291784941336,0.0,0.819024112091,-0.573625503874,-0.0115772198691,0.0,-0.00780879050654,0.00903168868062,-0.999928723155,0.0,0.635473383895,0.226848328889,0.303907363691,1.0,-0.145681714286,-0.191467395918,1.203
0.441613983962,0.402797380387,-0.125382591516,-1.57987579365,0.0654184707754,1.97441970228,0.125758873135,-0.14804255798,-0.7184628197,-0.00641037920796,-1.07508783219,-0.0762855963532,0.352974336022,-0.18318662269,0.573661153266,0.819076025562,0.00284472931962,0.0,0.819042347065,-0.573596921137,-0.0117026781904,0.0,-0.00795380829686,0.0090434997611,-0.999927473393,0.0,0.632899948022,0.223552932101,0.303864095814,1.0,-0.156260571429,-0.205371036735,1.22
0.43925857278,0.391698570776,-0.125509356573,-1.59630135028,0.0642649635037,1.9800979433,0.122938050574,-0.158375445601,-0.734350742471,-0.0134073391184,-1.12281095575,-0.0867492526142,0.384001959058,-0.1902295868,0.573699786559,0.819047971242,0.00311810971944,0.0,0.819017957251,-0.573634781435,-0.0115529272786,0.0,-0.00767389320824,0.00918187654633,-0.99992839969,0.0,0.630567125986,0.220431803747,0.304009280674,1.0,-0.165594857143,-0.217638955102,1.235
0.436025561797,0.377087662256,-0.125663070368,-1.61822730904,0.0625698918699,1.98738048262,0.119043661717,-0.173779276655,-0.782437161342,-0.00714161010488,-1.18024562273,-0.0886420763474,0.391536701078,-0.205114182047,0.573621088484,0.819103540664,0.00299723517448,0.0,0.819072474051,-0.573557085492,-0.0115455114356,0.0,-0.00773803280561,0.00907787644374,-0.999928854973,0.0,0.627333988946,0.216196559225,0.303993596975,1.0,-0.177418285714,-0.233178318367,1.254
0.432990795588,0.364134448539,-0.125807270021,-1.63748949078,0.0611506007038,1.99371932917,0.115614615599,-0.197681984548,-0.855351505447,-0.0127949106648,-1.20283227298,-0.0945883200822,0.403993897793,-0.212932335057,0.573703028317,0.819046168548,0.0029926557869,0.0,0.819014800681,-0.57363874589,-0.0115798264521,0.0,-0.00776785873091,0.00909458598473,-0.99992847188,0.0,0.624452236713,0.212379435427,0.304008007444,1.0,-0.187374857143,-0.246264097959,1.27
0.429665571829,0.350720040395,-0.12600569001,-1.65760311916,0.0595950749765,2.00022580532,0.111891194924,-0.214146900677,-0.826325686959,-0.0142519383764,-1.28113140628,-0.0952884075542,0.408424124102,-0.237899403553,0.573779389956,0.818993476324,0.00276483311967,0.0,0.818959185071,-0.573715900227,-0.0116904197986,0.0,-0.00798830262786,0.00897218016117,-0.999927840899,0.0,0.621389420038,0.208273509402,0.303896437196,1.0,-0.197331428571,-0.259349877551,1.286
0.425865752145,0.335699713412,-0.126166699263,-1.67943750355,0.057923694454,2.00737252376,0.107715972187,-0.221650596494,-0.872446082754,-0.00478673804611,-1.31425488542,-0.10430128733,0.428308455274,-0.252502698117,0.573849927169,0.818943287914,0.00298314770413,0.0,0.818911827493,-0.573785692366,-0.0115820952167,0.0,-0.00777354133162,0.00908949443558,-0.999928474015,0.0,0.61782518079,0.203494791077,0.304012615295,1.0,-0.208532571429,-0.274071379592,1.304
0.421638458843,0.319234634632,-0.126300581046,-1.70334759939,0.0559544132264,2.01499714039,0.103038849047,-0.24609517589,-0.926905339801,-0.0117046040185,-1.34868828002,-0.11420273018,0.417064658194,-0.253442292291,0.573737176854,0.819021934758,0.00307720360747,0.0,0.818991994632,-0.573673015331,-0.0114948297498,0.0,-0.00764935630292,0.00911539178897,-0.999929195984,0.0,0.614229785682,0.198840413916,0.304093410465,1.0,-0.219111428571,-0.287975020408,1.321
0.417849791283,0.305030583578,-0.126417076211,-1.72382060921,0.0542662374642,2.0214872011,0.0988427512943,-0.257585842886,-0.967117991483,-0.00426839216061,-1.38130159368,-0.119600727274,0.428748430328,-0.289096919403,0.573596528764,0.819119946024,0.00320672987205,0.0,0.819091809026,-0.573532150338,-0.0114117402425,0.0,-0.0075085659356,0.00917251736161,-0.999929740713,0.0,0.610914998342,0.194544891025,0.304158974127,1.0,-0.228445714286,-0.300242938775,1.336
0.412872171238,0.287412673595,-0.12657716148,-1.74911139984,0.0521745281901,2.02922227579,0.0936223064773,-0.28320311366,-0.990760717108,-0.00815641544656,-1.41869912585,-0.11426221036,0.440739805743,-0.292046449843,0.57359561879,0.819120540406,0.00321765309922,0.0,0.819092114207,-0.573530682464,-0.0114634905985,0.0,-0.00754470309498,0.00921113960616,-0.999929113669,0.0,0.606715744454,0.189080973488,0.30418743095,1.0,-0.239646857143,-0.314964440816,1.354
0.407796406772,0.270303468625,-0.126762471092,-1.77356509989,0.050078992757,2.03657670829,0.0883267310008,-0.310721449796,-1.03874368176,-0.0109133905255,-1.46183026789,-0.131680397591,0.453379460378,-0.326812125728,0.573551306893,0.819151759439,0.00316863861396,0.0,0.819122457495,-0.573486232568,-0.0115190096558,0.0,-0.00761879309082,0.00920242326573,-0.999928632152,0.0,0.602573229064,0.183660602976,0.304172724439,1.0,-0.250225714286,-0.328868081633,1.371
0.402585139011,0.25371056657,-0.126984843526,-1.79698214595,0.0480048213932,2.04351728617,0.0831952088787,-0.332003868728,-1.06944790623,-0.0153418181084,-1.46065348198,-0.1295924156,0.446750678429,-0.327618095973,0.573707275721,0.819042437535,0.00319283599247,0.0,0.819013561459,-0.573642242933,-0.0114939188567,0.0,-0.00758260770585,0.00920929815949,-0.999928843912,0.0,0.598556327976,0.178276674894,0.304206519402,1.0,-0.260182285714,-0.341953861224,1.387
0.396723598671,0.235589198348,-0.127185275208,-1.82236853844,0.045730682921,2.05081722726,0.0773381674857,-0.351954273431,-1.09609987089,-0.0124209115347,-1.48546235975,-0.134965432705,0.44447673958,-0.346634477066,0.573711464782,0.819039582269,0.00317249996023,0.0,0.819010043966,-0.573646011463,-0.011556310668,0.0,-0.00764533110983,0.00922847492945,-0.999928189503,0.0,0.59406814972,0.172391396488,0.304220062919,1.0,-0.270761142857,-0.355857502041,1.404
0.390539440199,0.217016033307,-0.12734303402,-1.84818230493,0.0433573661631,2.05816429935,0.0711328162464,-0.373969302128,-1.09434373337,-0.00613302714015,-1.49863169179,-0.142850761234,0.434890739557,-0.36589797516,0.573574970347,0.819135026297,0.0032107610799,0.0,0.819105630255,-0.573508986501,-0.0115825639532,0.0,-0.00764643071303,0.00927359979948,-0.999927763613,0.0,0.589394983436,0.166367787759,0.30422327711,1.0,-0.28134,-0.369761142857,1.421
0.384257424407,0.199060571743,-0.127547050728,-1.87283352022,0.0409854972408,2.06489002552,0.0650137787117,-0.389772044163,-1.10682466926,-0.00715807388521,-1.50687475211,-0.137517161668,0.410290305937,-0.386288509731,0.573537799806,0.819161228139,0.00316566074087,0.0,0.819131104917,-0.573471793784,-0.0116224606555,0.0,-0.00770540035378,0.00925918996122,-0.999927444471,0.0,0.584829379605,0.160414486349,0.304244270207,1.0,-0.291296571429,-0.382846922449,1.437
0.376583067851,0.178291838966,-0.127908210363,-1.90093636698,0.0382834464208,2.07246758367,0.0576860562117,-0.440491327475,-1.15756937377,-0.0202459488147,-1.55935130275,-0.136951041107,0.433767359658,-0.413036964663,0.573662372293,0.819073414464,0.00331228546774,0.0,0.819045044737,-0.573595702671,-0.0115728764846,0.0,-0.00757926867152,0.0093520148328,-0.999927544628,0.0,0.579564176542,0.15335566089,0.304329742677,1.0,-0.302497714286,-0.39756842449,1.455
0.368898463749,0.158229918511,-0.128181265012,-1.92784372305,0.0355375663178,2.0794408589,0.0504049464582,-0.463703566911,-1.19505723893,-0.0140251028677,-1.55831574545,-0.15724647792,0.431241858001,-0.437963413204,0.57364809585,0.81908333358,0.00333191841331,0.0,0.819055313837,-0.573581485315,-0.0115507350596,0.0,-0.00755003322698,0.00935526277208,-0.999927735417,0.0,0.574360940134,0.14652160588,0.304374813762,1.0,-0.313076571429,-0.411472065306,1.472
0.360764332634,0.137788290586,-0.128454801396,-1.9550374539,0.0326810362971,2.0863043653,0.0427547273053,-0.496050354338,-1.22499100393,-0.0172322448687,-1.62565638227,-0.165398595351,0.416533471161,-0.463593821991,0.573590157479,0.819123902049,0.00333335216053,0.0,0.81909601573,-0.573523692719,-0.0115342015951,0.0,-0.00753632887505,0.0093464199306,-0.999927921493,0.0,0.568970629233,0.139505637192,0.304383386047,1.0,-0.323655428571,-0.425375706122,1.489
0.35253772523,0.118152038031,-0.128783555677,-1.98076205771,0.0299673851401,2.09253509937,0.0350951617507,-0.524976072706,-1.24119095896,-0.0261124182894,-1.55987208763,-0.169702736085,0.397126497829,-0.481132492022,0.573609749877,0.819109889678,0.00340446457343,0.0,0.819082652724,-0.573542726181,-0.0115367306059,0.0,-0.0074973885892,0.00940630013161,-0.999927652724,0.0,0.563764406696,0.132634637554,0.304429669282,1.0,-0.333612,-0.438461485714,1.505
0.343164579895,0.0968364049548,-0.129205335596,-2.00834229064,0.0268411687166,2.09899802542,0.0264735778954,-0.557158689624,-1.27204610617,-0.0215660378104,-1.63727807686,-0.182405796475,0.398110066204,-0.521834532319,0.573642180293,0.819087042181,0.00343703671088,0.0,0.819060971136,-0.573575994979,-0.0114214905603,0.0,-0.00738393533271,0.00936717172051,-0.999928864266,0.0,0.55807159412,0.125020621119,0.304484008132,1.0,-0.344190857143,-0.452365126531,1.522
0.333893266719,0.0764292954609,-0.129541824383,-2.03444514693,0.0239942555749,2.10474671046,0.0179416088075,-0.592135319315,-1.30053712205,-0.0248409282995,-1.65058622575,-0.187921729818,0.377810810602,-0.547063372487,0.573620179837,0.819102222301,0.0034907888132,0.0,0.819075834275,-0.573552552727,-0.011532296748,0.0,-0.0074441223821,0.00947456130865,-0.99992740623,0.0,0.552496537575,0.117770914962,0.304509779713,1.0,-0.34998,-0.459973714286,1.538
0.323434261056,0.0548643880625,-0.129986801728,-2.06183524561,0.0207255743772,2.11056368969,0.00857921917509,-0.624403174246,-1.30045148779,-0.0279328648723,-1.57052121068,-0.189213545021,0.34491373387,-0.565349495902,0.573742093488,0.819017304373,0.00337819474291,0.0,0.818989679485,-0.573675072768,-0.0115569322549,0.0,-0.0075274863147,0.00939758606861,-0.999927508535,0.0,0.546542795158,0.109825900144,0.304467873209,1.0,-0.34998,-0.459973714286,1.555
0.3125831469,0.0335089798131,-0.130325325349,-2.08853284457,0.017593901618,2.11585779936,-0.000975261497241,-0.647710738663,-1.28177044038,-0.0234596141287,-1.57224453962,-0.194441816253,0.325565432618,-0.568774941076,0.573916807454,0.818895041065,0.0033401709923,0.0,0.818865910524,-0.573848628832,-0.0117097681408,0.0,-0.00767246623731,0.00945576696114,-0.999925858118,0.0,0.540561078643,0.101943415068,0.304442386839,1.0,-0.34998,-0.459973714286,1.572
0.302030431155,0.0135649350087,-0.130621815154,-2.11289437116,0.0145212887099,2.12049015037,-0.0102795513889,-0.662449159833,-1.26230031812,-0.0191024347815,-1.50352770223,-0.194784188322,0.30339618244,-0.590680184572,0.573961109695,0.818863614383,0.00343110752842,0.0,0.818836164691,-0.573893254736,-0.0116023473519,0.0,-0.00753179563146,0.00946899339783,-0.99992680243,0.0,0.53499436467,0.0945332704031,0.304527061504,1.0,-0.34998,-0.459973714286,1.588
0.289791510607,-0.00861532795558,-0.13098226056,-2.13963880518,0.0111553664672,2.12524655666,-0.0210851424984,-0.680149111385,-1.25719411164,-0.0135553996048,-1.46181638244,-0.190403846943,0.275307939695,-0.600526199391,0.574019245498,0.818822309505,0.00356063967373,0.0,0.818796367818,-0.573950764491,-0.0115661095269,0.0,-0.00742709964666,0.00955479225529,-0.999926769387,0.0,0.528717879595,0.0862107896204,0.304602503532,1.0,-0.34998,-0.459973714286,1.606
0.277945540925,-0.0292844107476,-0.131213124169,-2.16424948487,0.00794043599758,2.12928528743,-0.0315621518147,-0.707294635265,-1.21960592961,-0.0156969355002,-1.41933937615,-0.200799913733,0.248157346753,-0.617443246984,0.573911099245,0.818897924227,0.00360371482917,0.0,0.818872431336,-0.573842361205,-0.0115599561378,0.0,-0.00739860230471,0.00958555440988,-0.999926686228,0.0,0.522763697653,0.0784591107897,0.304643684366,1.0,-0.34998,-0.459973714286,1.623
0.26630744448,-0.0485090381646,-0.131559302029,-2.18691799777,0.00498709857489,2.13267985991,-0.0416890239046,-0.733799880209,-1.18520307218,-0.0144210747285,-1.37981284596,-0.175560448267,0.200774593791,-0.646307294838,0.574070281595,0.818786366096,0.0035979697546,0.0,0.818759837614,-0.574000298444,-0.0116932714188,0.0,-0.00750920007518,0.00965881871034,-0.999925156767,0.0,0.517144966796,0.0710319866798,0.304632242957,1.0,-0.34998,-0.459973714286,1.639
0.253777641162,-0.0687109377085,-0.131762094017,-2.2104166053,0.00177666426761,2.1359936922,-0.0527998088717,-0.739562922584,-1.16562752397,-0.0157347262364,-1.36271146475,-0.181116329938,0.170036834612,-0.660589317819,0.573861362457,0.818932823909,0.00359353644201,0.0,0.818905983756,-0.573791097181,-0.0117266135696,0.0,-0.00754151474513,0.00967240515902,-0.999924782238,0.0,0.511165833494,0.0633326432682,0.304620629823,1.0,-0.34998,-0.459973714286,1.656
0.240649749498,-0.0887334072018,-0.132145540578,-2.23328253337,-0.00141458793755,2.1389353869,-0.0642600481628,-0.776690771641,-1.15709158093,-0.0134923959676,-1.34215677224,-0.18552474671,0.163159474743,-0.670082100347,0.573955303445,0.818866652639,0.00366902485752,0.0,0.818840657908,-0.573884603624,-0.011712624883,0.0,-0.00748562517698,0.00972705717305,-0.99992467205,0.0,0.505225037083,0.0554460036446,0.304644498229,1.0,-0.34998,-0.459973714286,1.673
0.228156778729,-0.107362353314,-0.132360685052,-2.2541347669,-0.00440998725646,2.14128016278,-0.0753143630016,-0.784101420327,-1.14977097573,-0.020030562234,-1.30477224163,-0.193197122605,0.14129638775,-0.69684380913,0.573773399892,0.818993741922,0.0037527549325,0.0,0.818968951248,-0.573702611585,-0.0116583554998,0.0,-0.00739529727241,0.0097628320084,-0.999924995532,0.0,0.499639792254,0.048218272222,0.304711289619,1.0,-0.34998,-0.459973714286,1.689
0.213452545417,-0.127981122564,-0.132775119416,-2.27713004385,-0.00775305645871,2.14351704671,-0.0881586245243,-0.823762176679,-1.13996607003,-0.019095347518,-1.27695614048,-0.180698725524,0.102492769764,-0.728702168948,0.57386588552,0.818929243768,0.00368592444519,0.0,0.818902666188,-0.573794101,-0.0118110063116,0.0,-0.00755756226997,0.00979653556507,-0.999923452642,0.0,0.493313969887,0.0398946508171,0.304662641934,1.0,-0.34998,-0.459973714286,1.707
0.199228257316,-0.147228790863,-0.133078753869,-2.29819737605,-0.0109460154025,2.14534484491,-0.100726972936,-0.853390370182,-1.11166469784,-0.0199309175098,-1.22666085593,-0.192986614905,0.110508668245,-0.744137234183,0.573737163958,0.819019450195,0.00368154830559,0.0,0.818992855786,-0.573665465024,-0.0118060709538,0.0,-0.00755757012744,0.0097889318943,-0.999923527049,0.0,0.487367275712,0.0321227494378,0.304653730026,1.0,-0.34998,-0.459973714286,1.724
0.185371783478,-0.165115330729,-0.133505964721,-2.31753893613,-0.0138747477942,2.14658901155,-0.112837538969,-0.871662096908,-1.11584200281,-0.0140620454671,-1.1796157993,-0.169780014656,0.0724044607348,-0.760837873351,0.573878531419,0.818920773699,0.00359784401404,0.0,0.818891796054,-0.573805453617,-0.0120114385327,0.0,-0.00777210365696,0.00983954109359,-0.999921385828,0.0,0.481726607701,0.024710146773,0.304605447645,1.0,-0.34998,-0.459973714286,1.74
0.169417832253,-0.18505899278,-0.133911301305,-2.33874018446,-0.0171488134864,2.14770355057,-0.126958280816,-0.899407783014,-1.09245883404,-0.0319460528952,-1.15783630701,-0.189486737501,0.0458649665363,-0.794519591381,0.573836799441,0.818950127878,0.00357247208533,0.0,0.818919731033,-0.573762455314,-0.012160012289,0.0,-0.00790884553363,0.00990362108772,-0.999919681,0.0,0.475373367116,0.0164576155489,0.304572835321,1.0,-0.34998,-0.459973714286,1.758
0.154747474947,-0.202572868554,-0.134311566324,-2.35686243781,-0.0200584596122,2.14850443909,-0.139915217037,-0.912917821634,-1.08671958831,-0.0316896794436,-1.12154475951,-0.172039001375,0.0355237055686,-0.81962375164,0.573871104144,0.818925333544,0.00374176559623,0.0,0.818897679732,-0.57379678432,-0.012024447339,0.0,-0.00770025973483,0.00996479788925,-0.999920701257,0.0,0.469816268126,0.00906978840475,0.304647126368,1.0,-0.34998,-0.459973714286,1.774
0.139697947495,-0.219855315901,-0.134772177957,-2.37444377649,-0.0228870526025,2.14895979111,-0.153220860176,-0.954057860055,-1.08494750976,-0.0331598554948,-1.09271033492,-0.192958667947,0.0370147851782,-0.834496144321,0.573987561805,0.818842797444,0.00393686016172,0.0,0.818817727046,-0.573912566668,-0.0119433076175,0.0,-0.00752042269169,0.010079074962,-0.999920924619,0.0,0.46425388649,0.00167101796873,0.304730116774,1.0,-0.34998,-0.459973714286,1.79
0.123425735186,-0.237864791802,-0.135132524133,-2.39273946891,-0.0259751905812,2.14908745346,-0.167761187317,-0.962875566694,-1.06194943622,-0.0210332786805,-1.05762873287,-0.176281237268,0.0058042176775,-0.865254987875,0.573840561716,0.81894621659,0.00385369477928,0.0,0.818919648143,-0.57376534199,-0.0120286789165,0.0,-0.0076398716775,0.0100586038981,-0.999920225242,0.0,0.458265402816,-0.00607111748443,0.304697204698,1.0,-0.34998,-0.459973714286,1.807
0.105570265988,-0.256567556051,-0.135629299601,-2.41127104161,-0.0290632259481,2.14908590167,-0.183715590111,-0.996040831892,-1.03369039232,-0.0188897219606,-1.03078321464,-0.172857384251,-0.00978517815425,-0.899749248496,0.573863411278,0.818929179603,0.00406581997943,0.0,0.818905564548,-0.573787673857,-0.0119217693216,0.0,-0.00743031043813,0.0101711856438,-0.999920665588,0.0,0.451681342986,-0.0148147358281,0.304745168731,1.0,-0.34998,-0.459973714286,1.826
0.0882904319323,-0.274018978536,-0.136098900055,-2.42821085326,-0.0320325743345,2.14886810116,-0.199193016182,-1.04244286557,-1.03054909509,-0.0376596697106,-0.984062180752,-0.179649175411,-0.0231354522668,-0.918239971229,0.57390093036,0.818901671635,0.00430362952271,0.0,0.818882490736,-0.573826290207,-0.0116448243323,0.0,-0.00706656640149,0.0102073389039,-0.999922933966,0.0,0.446151159412,-0.0221769839817,0.30483945309,1.0,-0.34998,-0.459973714286,1.842
0.0705928968157,-0.291017780795,-0.13651430019,-2.44475742277,-0.0348544240223,2.14813832508,-0.215210432379,-1.04957456956,-0.998557395784,-0.0240037930655,-0.964755312484,-0.165682072249,-0.0487270053297,-0.956442256716,0.573809707971,0.818965763612,0.00427129607254,0.0,0.818944620261,-0.573732980408,-0.0118711010119,0.0,-0.00727158187968,0.0103099064427,-0.999920411796,0.0,0.440147050234,-0.0299261266302,0.304766802135,1.0,-0.34998,-0.459973714286,1.859
0.0534182829097,-0.306687778218,-0.137015966178,-2.45957266699,-0.0376092590113,2.1473856298,-0.230715850932,-1.07643978478,-0.951958129264,-0.0270928249864,-0.944639707501,-0.176548417644,-0.0530469016074,-0.974395444249,0.573831336707,0.818950134194,0.00436137807553,0.0,0.818930990279,-0.573755494786,-0.0117222977456,0.0,-0.00709774932981,0.0102984877288,-0.999921778493,0.0,0.434599129592,-0.0373319852992,0.304806187436,1.0,-0.34998,-0.459973714286,1.875
0.0358857817817,-0.322081620167,-0.137516406445,-2.47395084268,-0.0401581568862,2.14631079071,-0.2465588519,-1.12103117116,-0.941514415704,-0.0410530174499,-0.857471570995,-0.155946676678,-0.0656951907039,-1.00562603804,0.573948132111,0.818867608021,0.0044865444665,0.0,0.818849391328,-0.573870843115,-0.0117761048408,0.0,-0.00706850983783,0.0104328784477,-0.999920592455,0.0,0.42899772401,-0.0446846537792,0.304818695429,1.0,-0.34998,-0.459973714286,1.891
0.016878011464,-0.338102057506,-0.137950530075,-2.48863070344,-0.0429164515384,2.14503931344,-0.263984768871,-1.12745558186,-0.951279557393,-0.0177212564346,-0.823983688061,-0.164054165445,-0.0853443549511,-1.03742722694,0.573792081034,0.818976366088,0.00459417370802,0.0,0.81896016451,-0.573715397673,-0.0116463866005,0.0,-0.0069025000748,0.0104452507632,-0.999921623043,0.0,0.423075633903,-0.0524402297478,0.304867586757,1.0,-0.34998,-0.459973714286,1.908
-0.00272579954765,-0.35370303062,-0.138494507379,-2.50264799682,-0.0456357536876,2.143497125,-0.281840884439,-1.16163941135,-0.926167634948,-0.0318554007891,-0.816333664394,-0.150073771452,-0.0855394872762,-1.0558292047,0.573871568733,0.818920081818,0.00469777568635,0.0,0.818905690946,-0.573795278632,-0.011540990311,0.0,-0.00675571728931,0.0104702830442,-0.999922363715,0.0,0.417144250656,-0.0602969473846,0.304933472105,1.0,-0.34998,-0.459973714286,1.925
-0.0215422492432,-0.367901504333,-0.138983742504,-2.51533139094,-0.0480412394697,2.14192890581,-0.299171441028,-1.18678790861,-0.884612565502,-0.027792805767,-0.785704273197,-0.161334163696,-0.103426037917,-1.08785517171,0.573865343529,0.818923797522,0.00480918391582,0.0,0.818910566609,-0.573788286987,-0.0115426389822,0.0,-0.00669321721306,0.0105624153694,-0.999921815056,0.0,0.411556267439,-0.0676418979412,0.304945354179,1.0,-0.34998,-0.459973714286,1.941
-0.0419140625133,-0.382479448176,-0.139493402892,-2.52815863393,-0.0505904838807,2.14004437475,-0.317997742163,-1.22265004847,-0.869215421544,-0.0459243626379,-0.732002785324,-0.142123222318,-0.106272055499,-1.1195979734,0.573830573011,0.818947978646,0.00484031522334,0.0,0.81893485712,-0.57375296584,-0.0115750112437,0.0,-0.00670231588621,0.0106062023927,-0.999921290619,0.0,0.405624596125,-0.0754225851692,0.304955203091,1.0,-0.34998,-0.459973714286,1.958
-0.0640195316815,-0.397394912698,-0.139969483961,-2.54112273515,-0.0531706396245,2.13803879522,-0.338525562034,-1.2389261872,-0.802114141486,-0.0163528483298,-0.706924175933,-0.131509896996,-0.121703048709,-1.15161864578,0.573754752074,0.819000580271,0.00492756423106,0.0,0.818988707743,-0.573677090235,-0.0115256075689,0.0,-0.00661277589329,0.0106486965955,-0.999921435142,0.0,0.39935430324,-0.0836472286185,0.304962436285,1.0,-0.34998,-0.459973714286,1.976
-0.0840724907516,-0.410095983137,-0.140501869566,-2.55204961776,-0.0554241559367,2.13599239824,-0.357248043355,-1.25930343967,-0.789517048042,-0.0347032005244,-0.654746138714,-0.132673577715,-0.112180818975,-1.19149063409,0.573736994754,0.819013075225,0.00491836994634,0.0,0.819000043503,-0.573657699635,-0.011684147085,0.0,-0.00674813836863,0.0107319792587,-0.999919640396,0.0,0.39373974302,-0.0909873515901,0.304932040255,1.0,-0.34998,-0.459973714286,1.992
-0.105884428169,-0.423113711428,-0.141002925768,-2.56294490505,-0.0578048221195,2.13395640656,-0.377681803457,-1.28608473495,-0.74085147924,-0.0200692001155,-0.632131247738,-0.14192481972,-0.124323107121,-1.2168617398,0.573662646358,0.81906467405,0.00499747914028,0.0,0.819053899508,-0.573585112614,-0.0114706228632,0.0,-0.00652882804131,0.010673678146,-0.999921720436,0.0,0.387850276373,-0.0988206712735,0.304992049978,1.0,-0.34998,-0.459973714286,2.009
-0.128093031275,-0.435436070665,-0.141530235924,-2.57345360411,-0.0599606615517,2.1315889059,-0.398497824497,-1.31332400289,-0.704192182871,-0.0184873596593,-0.604177623186,-0.130082991133,-0.134051032843,-1.23308851964,0.573723109734,0.81902265162,0.00494331786382,0.0,0.819008472282,-0.573641404251,-0.0118915331283,0.0,-0.00690387611452,0.0108712758833,-0.999917072489,0.0,0.381820737889,-0.106590871418,0.304872377126,1.0,-0.34998,-0.459973714286,2.026
-0.150697270156,-0.447323906183,-0.142101845112,-2.58297421577,-0.0620821554396,2.12947023869,-0.419874867274,-1.35506891251,-0.674844324617,-0.0445175268844,-0.542551887696,-0.130328199127,-0.117015697584,-1.26744355568,0.573728593472,0.819017364532,0.00517730902324,0.0,0.819007968491,-0.573648952989,-0.0115573865497,0.0,-0.00649586743794,0.0108712697804,-0.999919806384,0.0,0.375963330875,-0.114426629083,0.305004302963,1.0,-0.34998,-0.459973714286,2.043
-0.172365580166,-0.457809589518,-0.142551616005,-2.59163698244,-0.0640095590534,2.12724491086,-0.44044130813,-1.37301380766,-0.639184404905,-0.044579180362,-0.526500481519,-0.119333794335,-0.143483897099,-1.28567124547,0.573680938385,0.819051005909,0.00513590834905,0.0,0.819039435848,-0.5735987357,-0.0118169298238,0.0,-0.00673284735144,0.010985870379,-0.999916986264,0.0,0.369956596792,-0.12220511788,0.304934605971,1.0,-0.34998,-0.459973714286,2.06
-0.197030601426,-0.468799680436,-0.142959942811,-2.60055342863,-0.0659466643822,2.12493327458,-0.463986412898,-1.38340443721,-0.588029766045,-0.0215789320594,-0.466060326082,-0.0956055724298,-0.118660714994,-1.30680077822,0.573549294981,0.819142798296,0.00519895458294,0.0,0.819131339307,-0.573465734467,-0.0119015653524,0.0,-0.0067677895394,0.0110849744677,-0.999915656626,0.0,0.364055903963,-0.129891423254,0.304902430077,1.0,-0.340400571429,-0.447383608163,2.077
-0.217587838905,-0.477175845684,-0.14321491927,-2.60703520632,-0.0673844767914,2.12313396568,-0.483396329324,-1.36484964507,-0.53875801678,-0.0178914448127,-0.419873231927,-0.0826167657732,-0.122685120348,-1.29349310477,0.573688931657,0.819044008,0.00535439591748,0.0,0.819035637604,-0.573606593408,-0.0116981722311,0.0,-0.00651012640853,0.011096766651,-0.999917236587,0.0,0.359038190632,-0.136601096126,0.30499350976,1.0,-0.331066285714,-0.435115689796,2.092
-0.242007578069,-0.486261378969,-0.1433420416,-2.61417166612,-0.0688639251694,2.12102717612,-0.506553990363,-1.33945214605,-0.483214572007,-0.00858831756634,-0.388956346725,-0.071480324882,-0.121155799733,-1.26558686583,0.573770144085,0.818986359609,0.00546913453855,0.0,0.818979218269,-0.573686961475,-0.0117071421729,0.0,-0.00645054276725,0.0111965317483,-0.999916510602,0.0,0.353116716282,-0.144374412481,0.305010697573,1.0,-0.319865142857,-0.420394187755,2.11
-0.264826891603,-0.49381484493,-0.143295305297,-2.62013717961,-0.0700835108635,2.11916433191,-0.528165815987,-1.34492126279,-0.426306622691,-0.00194107248427,-0.333780494851,-0.0668976635032,-0.0980233478471,-1.27531164323,0.573856078584,0.818925971354,0.00549558151854,0.0,0.818918424977,-0.573771491664,-0.0118167461121,0.0,-0.00652395788906,0.0112817617559,-0.999915076307,0.0,0.347680636584,-0.151495585138,0.304985561758,1.0,-0.309286285714,-0.406490546939,2.127
-0.285803228273,-0.500144617502,-0.143168178653,-2.62500906688,-0.0710282609076,2.11762800337,-0.548133010848,-1.30125317265,-0.381067925874,0.0266347915271,-0.290038135321,-0.0608635870414,-0.107809493455,-1.21382431355,0.573900415701,0.818894222984,0.00559565214638,0.0,0.818888222046,-0.573815896718,-0.0117534407025,0.0,-0.00641407402817,0.0113277362364,-0.999915267433,0.0,0.342786687672,-0.157954996416,0.305013470887,1.0,-0.299329714286,-0.393404767347,2.143
-0.307566561055,-0.505940010171,-0.14302391497,-2.62947348893,-0.0717702935623,2.11616488618,-0.568905608168,-1.2708268336,-0.323995365737,0.00211932750399,-0.247682482487,-0.0556315660281,-0.0744308095653,-1.18291717014,0.574027059743,0.818804117445,0.00578781820565,0.0,0.818800292875,-0.573941265477,-0.0117580216166,0.0,-0.00630577021297,0.0114887110121,-0.999914119703,0.0,0.337783009023,-0.164585085671,0.305022736698,1.0,-0.288750857143,-0.379501126531,2.16
-0.328831511154,-0.511038420008,-0.142699700589,-2.63334727623,-0.0724356600662,2.11489049915,-0.58927140478,-1.24173546217,-0.283718039376,0.0120928737083,-0.223166945002,-0.0369819679181,-0.07152229798,-1.20356619995,0.574016593279,0.818810742834,0.00588769569532,0.0,0.818808730795,-0.573931403335,-0.0116513321235,0.0,-0.00616122108081,0.0115091761996,-0.999914785478,0.0,0.332963231627,-0.170964304858,0.305053281081,1.0,-0.278172,-0.365597485714,2.177
-0.348266917255,-0.515081204432,-0.142331301941,-2.6365831549,-0.0729806298556,2.1136764209,-0.607965874761,-1.19696044668,-0.236011263652,0.0264112222214,-0.197748239253,-0.0215916064787,-0.0677547750178,-1.14701566755,0.573935680704,0.818867621513,0.00586513033595,0.0,0.818863802077,-0.573847794306,-0.0118966179917,0.0,-0.00637618593362,0.0116308604018,-0.9999120298,0.0,0.328532994369,-0.176700920466,0.30498288737,1.0,-0.268215428572,-0.352511706123,2.193
-0.368435676076,-0.518722704861,-0.141907569741,-2.63952582351,-0.073471873777,2.11264396458,-0.627281583436,-1.16406259231,-0.195341715747,0.0203002798611,-0.161015663533,-0.00349043814717,-0.059610888288,-1.12756390153,0.57393288143,0.818869609977,0.00586143076033,0.0,0.818864582555,-0.573842910419,-0.012077106439,0.0,-0.00652616060142,0.0117313924162,-0.99990988777,0.0,0.323735220391,-0.182950811246,0.304902806582,1.0,-0.257014285714,-0.337790204082,2.211
-0.389043619033,-0.521894556269,-0.141427167952,-2.64201186205,-0.0738182423365,2.11170831626,-0.64707035401,-1.12649138721,-0.163546717853,0.0352728098759,-0.122614373381,-0.0223488291892,-0.0494071192519,-1.08852597457,0.573981928708,0.818835093951,0.00588058943158,0.0,0.818829815011,-0.57389096604,-0.0121507221231,0.0,-0.00657474712576,0.0117897238646,-0.999908883405,0.0,0.319417729845,-0.188624584728,0.304878824314,1.0,-0.246435428572,-0.323886563265,2.228
-0.406674353441,-0.524274505418,-0.14094063075,-2.64379608476,-0.0740000980805,2.11099390102,-0.664111416315,-1.09953667713,-0.144158416924,0.0266221681909,-0.10281173671,-0.0108505468766,-0.0469292988288,-1.04427517976,0.573935498952,0.818867161562,0.00594656703226,0.0,0.818862775296,-0.573844318234,-0.012132624023,0.0,-0.00652272927432,0.0118329938276,-0.999908712963,0.0,0.315539456956,-0.193718247969,0.304892497119,1.0,-0.236478857143,-0.310800783674,2.244
-0.42479569747,-0.526272696401,-0.140438550844,-2.64528520037,-0.0741379529351,2.11039193751,-0.681648337681,-1.04061804398,-0.107193942963,0.0338234288073,-0.078086673968,-0.00162012402118,-0.0336229345025,-1.01091390562,0.573910757934,0.818884062559,0.00600673914282,0.0,0.818880697548,-0.573819755512,-0.0120846294094,0.0,-0.006449249007,0.0118545297994,-0.999908934509,0.0,0.311581090703,-0.198946372926,0.304909046388,1.0,-0.2259,-0.296897142857,2.261
-0.442275439464,-0.527831488795,-0.139960178436,-2.64646918263,-0.0742230869521,2.10991221844,-0.698429742747,-1.01178590262,-0.0859756623064,0.0360096869642,-0.0625021040939,-0.00109755792902,-0.0281866340901,-0.974983039009,0.574037505632,0.818794797418,0.00606372404962,0.0,0.818792306399,-0.573946476062,-0.0120560565196,0.0,-0.00639130635795,0.0118857880505,-0.999908935476,0.0,0.307761377506,-0.203969843448,0.304912440302,1.0,-0.215321142857,-0.282993502041,2.278
-0.457938143791,-0.528875542187,-0.13941004776,-2.64726150381,-0.0742290642876,2.10955241843,-0.713595512057,-0.979987956872,-0.0572625724295,0.0296419442621,-0.0484656714224,-0.000649289088448,-0.0176788421598,-0.929209223691,0.574006210084,0.818816655012,0.00607479727477,0.0,0.818814414184,-0.573915337304,-0.0120369278703,0.0,-0.00636974032561,0.0118836317165,-0.999909098721,0.0,0.304372265536,-0.208432141127,0.3049174509,1.0,-0.205364571429,-0.269907722449,2.294
-0.4757677485,-0.529697910976,-0.138715733602,-2.64787984313,-0.0742104334148,2.10922313191,-0.730786508166,-0.913672865915,-0.0356381725496,0.0409801201736,-0.0220640314235,0.00375347531138,-0.023546013783,-0.896622926522,0.574010406827,0.818814021045,0.00603313314477,0.0,0.818811426881,-0.573920060801,-0.0120149040874,0.0,-0.0063755585363,0.0118369062392,-0.999909615867,0.0,0.300530177233,-0.213490533783,0.304926739935,1.0,-0.193541142857,-0.254368359184,2.313
-0.490043807465,-0.53007125296,-0.138181061057,-2.64817852401,-0.0741926756935,2.10902608712,-0.744532695614,-0.882238202855,-0.0176995312889,0.0324451517702,-0.0116465861849,-0.000465711790348,-0.0150712894317,-0.839125031988,0.574057227207,0.818781577258,0.0059812654676,0.0,0.818778323645,-0.573967117256,-0.0120229754945,0.0,-0.00641126457744,0.0117994336636,-0.999909830461,0.0,0.297445900824,-0.217542485024,0.304924414476,1.0,-0.183584571429,-0.241282579592,2.329
-0.503452788517,-0.530221348225,-0.137492837409,-2.6483165036,-0.074065619139,2.10890637569,-0.757666329235,-0.820694350256,-0.0098920552316,0.0387944485059,-0.00564612448627,0.00383188739163,-0.00164898831886,-0.811152742715,0.573843568278,0.818931813321,0.00591533422708,0.0,0.818927796205,-0.573753949075,-0.0120173801463,0.0,-0.00644759267786,0.011740553969,-0.999910289947,0.0,0.294585263409,-0.221287507615,0.304924355262,1.0,-0.173628,-0.2281968,2.345
-0.517208153699,-0.530226438114,-0.136881136306,-2.64835478733,-0.0739238411643,2.10884070972,-0.770857849721,-0.797131338233,0.00179480601504,0.0359747323998,-0.00210299212369,0.0115594207187,-0.00404860200223,-0.763436412064,0.573932369383,0.818869787804,0.0058866711632,0.0,0.818865490863,-0.573843019411,-0.0120101560617,0.0,-0.00645685310563,0.0117136347205,-0.999910545904,0.0,0.291617804676,-0.225139853382,0.30491927673,1.0,-0.163049142857,-0.214293159184,2.362
-0.530656641023,-0.530019715522,-0.136097521795,-2.6482436054,-0.0736111616486,2.10882507399,-0.783951759024,-0.733357762917,0.0140235537318,0.0446103423495,0.00678880377785,0.0098245473399,0.00320640266118,-0.716741062396,0.573810071621,0.818955436286,0.00589423317996,0.0,0.818951200803,-0.573720648417,-0.0120122930257,0.0,-0.00645601369199,0.01172008971,-0.999910475685,0.0,0.288757664271,-0.228841811983,0.304913669496,1.0,-0.151848,-0.199571657143,2.38
-0.541418404304,-0.529731705027,-0.135571941558,-2.6480559754,-0.0733517129957,2.10883697713,-0.794217323623,-0.708112041968,0.0194341256959,0.0358841079249,0.0159154179763,0.0163119319635,-0.000192698523005,-0.670857097742,0.573967288567,0.818844896135,0.00594429389338,0.0,0.818841217289,-0.573877453669,-0.0120198144805,0.0,-0.00643119131679,0.0117666397183,-0.999910088942,0.0,0.286442308871,-0.231825179028,0.304908674069,1.0,-0.142513714286,-0.187303738776,2.395
-0.552610059689,-0.529246582057,-0.134803327303,-2.64773623546,-0.0729687627939,2.10888835639,-0.805103001196,-0.64026800921,0.0282377037056,0.0413980835041,0.022646312982,0.0304072005208,0.00516820200364,-0.625017903265,0.573857486335,0.818921695847,0.0059655971684,0.0,0.818918121206,-0.573767268206,-0.0120407473891,0.0,-0.00643768882611,0.0117952357502,-0.999909710212,0.0,0.284087486801,-0.234870317437,0.304901395538,1.0,-0.131934857143,-0.173400097959,2.412
-0.563754876307,-0.528614854741,-0.134092624741,-2.64733853153,-0.0725868622458,2.10899049941,-0.815772560579,-0.611979273462,0.0324377803643,0.0324727960172,0.0212321178251,0.0201090057538,-0.00115701768236,-0.560846455234,0.57393115254,0.818869814578,0.0060004847867,0.0,0.818866384412,-0.573840202704,-0.0120835897688,0.0,-0.00645169172214,0.0118489720143,-0.999908984626,0.0,0.281724340255,-0.237914658671,0.304878667156,1.0,-0.120733714286,-0.158678595918,2.43
-0.572889495984,-0.527979795625,-0.133427865054,-2.64686122162,-0.0722433448075,2.10912946565,-0.824531667463,-0.545038087349,0.0464289648976,0.0453416182867,0.0251374583304,0.0197560549767,0.000621905467349,-0.538511601279,0.573942960663,0.818861562289,0.00599721708515,0.0,0.818858451607,-0.57385268843,-0.0120280968693,0.0,-0.00640795041923,0.0118145408911,-0.999909673318,0.0,0.279825726205,-0.240411737906,0.304892620181,1.0,-0.110777142857,-0.145592816327,2.446
-0.58164211061,-0.52721722465,-0.132662650802,-2.64635921755,-0.0718263324727,2.10924069167,-0.833013471083,-0.509272901961,0.0459163973948,0.045753347158,0.0298482425198,0.0229397971497,0.00111859583157,-0.470487008124,0.573830940793,0.818940058326,0.00599826298071,0.0,0.818936473756,-0.573739791219,-0.0121016868698,0.0,-0.00646923855362,0.0118567469749,-0.999908779091,0.0,0.278022668689,-0.242757057055,0.304871163213,1.0,-0.100198285714,-0.13168917551,2.463
-0.589806411695,-0.526509312649,-0.131961505166,-2.64585355833,-0.0714312368138,2.10935848009,-0.84067818746,-0.462854562656,0.0404771218466,0.038709394552,0.0333267127825,0.0296105688765,0.00493736036492,-0.430578570991,0.573941719964,0.818862368114,0.00600591984387,0.0,0.81885878126,-0.573850326987,-0.0121179813582,0.0,-0.00647658453979,0.0118732438637,-0.999908535784,0.0,0.276332626854,-0.244945757053,0.304869997291,1.0,-0.0896194285715,-0.117785534694,2.48
-0.59708841686,-0.52576435146,-0.13127299577,-2.64533317139,-0.0710093933133,2.10949426299,-0.847624852829,-0.407633042398,0.0427086473351,0.0431676445423,0.0346499133464,0.0304506804359,0.00415716152005,-0.386745687865,0.573938871109,0.818864171723,0.0060321969077,0.0,0.818860738232,-0.573847016453,-0.0121424869998,0.0,-0.00648161415275,0.0119088037755,-0.999908080311,0.0,0.274848764292,-0.246885697941,0.304862935164,1.0,-0.0790405714287,-0.103881893878,2.497
-0.603064433814,-0.525116384701,-0.130550695638,-2.64490713138,-0.0705868272152,2.10960535496,-0.85339528523,-0.363599524428,0.0355662346612,0.0431213141056,0.0212995187509,0.0292540423896,0.00394182436244,-0.352703737486,0.573800754935,0.818960890455,0.00604155961964,0.0,0.818957208353,-0.573708207581,-0.0121955050082,0.0,-0.00652167486315,0.0119457987744,-0.999907378535,0.0,0.273658885002,-0.248426651295,0.304846979946,1.0,-0.0690840000001,-0.0907961142858,2.513
-0.608876598377,-0.524543000236,-0.129840254517,-2.64445710905,-0.0701665277928,2.10973036739,-0.858735426441,-0.325852981941,0.0382845720071,0.0373014476348,0.0231140137002,0.0221995584987,0.00728800497806,-0.290296684472,0.573888746366,0.818899187359,0.00604769702761,0.0,0.818895952713,-0.573796827938,-0.0121394307641,0.0,-0.00647094520266,0.0119193468063,-0.99990802379,0.0,0.272508506546,-0.249929110678,0.304869904432,1.0,-0.0585051428572,-0.0768924734695,2.53
-0.613496805207,-0.524008872495,-0.129157902272,-2.64404955927,-0.0697188399539,2.10985835835,-0.863009249399,-0.274086976344,0.0386314712015,0.0436683986753,0.0221840961408,0.0270340900712,0.00420421682923,-0.256092920352,0.573902830603,0.818889055525,0.00608298180462,0.0,0.818886572372,-0.573811294436,-0.0120882946576,0.0,-0.00640861191736,0.0119190081188,-0.999908429277,0.0,0.271637332815,-0.251096466077,0.30488729434,1.0,-0.0485485714287,-0.0638066938777,2.546
-0.617694649771,-0.523513539808,-0.12846717555,-2.64367910577,-0.0692784620109,2.10996747851,-0.866770732923,-0.229447326717,0.0196968903852,0.0431545258197,0.0192974319721,0.0303777094018,0.00278565744573,-0.205209850751,0.573985478044,0.81883091012,0.00611216232127,0.0,0.81882901969,-0.573894195296,-0.0120513907566,0.0,-0.00636043924272,0.0119223687088,-0.9999086968,0.0,0.270816776018,-0.252187120065,0.304902780444,1.0,-0.0373474285715,-0.0490851918369,2.564
-0.621237733937,-0.523132145684,-0.127659863995,-2.64339626011,-0.068809455057,2.11003326919,-0.869953089394,-0.182002222397,0.0149342458593,0.0470500458898,0.0135901192586,0.0231155140166,0.000739315678029,-0.163348878745,0.573918666405,0.818877795397,0.00610470789055,0.0,0.818875848457,-0.573827505749,-0.0120451384675,0.0,-0.00636056959206,0.0119121570053,-0.999908817678,0.0,0.27024255866,-0.252937440206,0.304914574716,1.0,-0.0267685714287,-0.0351815510205,2.581
-0.623448751106,-0.522900384214,-0.126948113691,-2.64322315412,-0.0684372071971,2.11009403184,-0.871821816063,-0.135498742922,0.0139376259562,0.0497431574382,0.00976971765684,0.0275409219259,0.00312545518348,-0.105924821361,0.573862190217,0.818917680501,0.0060635059218,0.0,0.818915456756,-0.573771701369,-0.0120106741996,0.0,-0.00635680773604,0.0118581988308,-0.999909482961,0.0,0.269890175719,-0.253410383576,0.304930290887,1.0,-0.0198781818182,-0.0261256103896,2.597
-0.625547314166,-0.52267646188,-0.126364185331,-2.64304602513,-0.0681004178611,2.11014123315,-0.873696969532,-0.106254257044,0.00995084704386,0.0265982388536,0.00984571489802,0.016680279875,-0.000163116719726,-0.0971652679029,0.573785742939,0.818971287202,0.00605795672596,0.0,0.818969176573,-0.573695639113,-0.0119811680478,0.0,-0.00633693126826,0.0118361311234,-0.999909870589,0.0,0.269575564975,-0.253833971494,0.30494733174,1.0,-0.0195381818182,-0.0256787532468,2.614
-0.627248107706,-0.522461327924,-0.126009814415,-2.64285314526,-0.0679186562488,2.11018498323,-0.875280181614,-0.0953436001674,0.0120625328707,0.0208982394393,0.00908098919775,0.00942793437586,0.00805138412369,-0.100674464543,0.573718703781,0.819018460464,0.00602969752715,0.0,0.819016259484,-0.573629247158,-0.0119415412324,0.0,-0.00632165357406,0.0117897328604,-0.999910515444,0.0,0.269281932865,-0.254245599523,0.304968315691,1.0,-0.0191981818182,-0.0252318961039,2.631
-0.628743406398,-0.52223807439,-0.125848288818,-2.64267227669,-0.0677809750407,2.11025083273,-0.876741391493,-0.0913207280657,0.0169024836618,0.00549503220211,0.0144759664144,0.00701326136908,-0.000178982145448,-0.0871203020213,0.5737004505,0.819031034421,0.00605843645847,0.0,0.819029416879,-0.573611274569,-0.0119023894721,0.0,-0.00627335968419,0.0117906708889,-0.999910808542,0.0,0.268995764662,-0.254648803724,0.304978084969,1.0,-0.0188781818182,-0.0248113246753,2.647
-0.630308252721,-0.521992336488,-0.125727200755,-2.64250514318,-0.0677274993961,2.11027966582,-0.878170109814,-0.0919582372304,0.0171050667588,0.0054947609476,0.00653004490712,0.000730809628109,0.000208427427861,-0.0885676899593,0.573757987771,0.818990856757,0.00604110240492,0.0,0.818988789502,-0.573668449476,-0.0119423467939,0.0,-0.00631520456992,0.0117998391951,-0.999910436982,0.0,0.268665608445,-0.255079115112,0.304969151331,1.0,-0.0185381818182,-0.0243644675325,2.664
-0.631775483931,-0.521769690559,-0.125675553143,-2.64234410571,-0.0676869425796,2.11030015388,-0.879631917824,-0.0833397677139,0.0129060968745,0.00350833972385,0.0121679622506,0.000939690390868,0.000451486109888,-0.0833547246937,0.573751738126,0.818995176158,0.00604907664535,0.0,0.818993003949,-0.573661778812,-0.0119737176401,0.0,-0.00633641491502,0.0118243204156,-0.999910013598,0.0,0.268341534168,-0.255497203733,0.304963539232,1.0,-0.0181981818182,-0.0239176103896,2.681
-0.633082554133,-0.521552004902,-0.125608394097,-2.64219413728,-0.0676553753493,2.11034065609,-0.880924083511,-0.0838349450978,0.0147721883354,0.00239221563299,0.0100251178318,0.00116112548009,0.00013370864299,-0.0718067643016,0.573737872367,0.819004962522,0.00603921166883,0.0,0.819002549295,-0.573647746868,-0.0119930672755,0.0,-0.00635812386143,0.0118272343652,-0.99990984133,0.0,0.268061068269,-0.255869489623,0.304956775198,1.0,-0.0178781818182,-0.023497038961,2.697
-0.634490881419,-0.521305984754,-0.12557679089,-2.64204122752,-0.067617525178,2.11037536181,-0.882354609002,-0.0823084287554,0.0134053927369,0.0024271106124,0.00772037143693,0.00659522406781,0.00120616491142,-0.0816591660013,0.573721752318,0.819016138633,0.00605495475833,0.0,0.819013598925,-0.573630948004,-0.0120418922443,0.0,-0.00638931766377,0.0118680143036,-0.999909159302,0.0,0.267746210955,-0.256275267614,0.304939583171,1.0,-0.0175181818182,-0.0230238961039,2.715
-0.635647264224,-0.521119368005,-0.125575719426,-2.64191256083,-0.0675935507262,2.11039741281,-0.883547839413,-0.0764853229442,0.00988797026721,0.000263237242213,0.00430848628859,0.00187665293558,-2.70871168635e-05,-0.0750965126798,0.573707932993,0.819025674745,0.00607442428838,0.0,0.819023184635,-0.573616669253,-0.0120700740291,0.0,-0.0064014327454,0.0119000206601,-0.999908701416,0.0,0.267481310889,-0.25661454327,0.304931380036,1.0,-0.0172181818182,-0.0226296103896,2.73
-0.636877860468,-0.520936117081,-0.125575779347,-2.64177148316,-0.0675681239914,2.11042506315,-0.884723144854,-0.0758927472429,0.0111190630748,0.00116914972342,0.0143478565441,0.000445304972785,-1.61772018817e-05,-0.0719876039044,0.573779235367,0.818975590789,0.00609242595241,0.0,0.81897328959,-0.573687794,-0.0120752993886,0.0,-0.00639434815703,0.0119183196384,-0.999908528801,0.0,0.267182491605,-0.257000813185,0.304931768146,1.0,-0.0168781818182,-0.0221827532468,2.747
-0.638313559862,-0.520728034692,-0.12556922224,-2.6415821991,-0.0675366087988,2.11047544952,-0.886193680585,-0.0792526198684,0.0151942182341,-0.000131918053956,0.00786804969514,0.00158498522075,0.000730790692367,-0.0772047827089,0.57374860191,0.818996975362,0.00610270891882,0.0,0.818995044906,-0.573657565247,-0.0120358279868,0.0,-0.0063565639609,0.0119038570314,-0.999908941995,0.0,0.26686820599,-0.257427062718,0.304944418607,1.0,-0.0164981818182,-0.0216833246753,2.766
-0.639573925744,-0.520547259911,-0.125541084567,-2.64141974177,-0.0675122861455,2.1105236029,-0.887446793682,-0.0706724086995,0.00984910319308,6.20219233605e-05,0.00832517470644,-0.000110003775155,0.0015580464506,-0.0728997872814,0.573766404245,0.818984456285,0.00610906087133,0.0,0.818982836359,-0.573675764471,-0.011999079488,0.0,-0.00632256115375,0.011888113575,-0.999909344879,0.0,0.266607848366,-0.257780145599,0.304956614583,1.0,-0.0161781818182,-0.0212627532468,2.782
-0.640790435577,-0.520371114036,-0.125509474543,-2.64126512563,-0.067488064263,2.11055122587,-0.888655659999,-0.0687397219202,0.011777065887,0.0024835549465,0.00934183843493,-0.000262224784123,1.38359948863e-06,-0.0738202571664,0.573768626745,0.818982896645,0.00610940806216,0.0,0.818981364681,-0.573678142034,-0.0119858483189,0.0,-0.00631149242476,0.0118808238252,-0.999909501449,0.0,0.266339290529,-0.258135093768,0.304965211445,1.0,-0.0158381818182,-0.0208158961039,2.799
-0.64182054854,-0.520197963269,-0.125460983257,-2.64114015363,-0.0674614559997,2.11056588574,-0.889764828494,-0.0686159849246,0.00718097690074,0.00159576675761,0.00696061516867,0.00387928020677,0.00125542340566,-0.0677643584789,0.573687501816,0.819039739487,0.00610756105578,0.0,0.819038008113,-0.573596712236,-0.0120124884997,0.0,-0.00633555048898,0.0118939681553,-0.999909193038,0.0,0.266113442855,-0.258426911384,0.30496072513,1.0,-0.0155381818182,-0.0204216103896,2.814
-0.642954856898,-0.519993062011,-0.125404368734,-2.64098488596,-0.0674375990092,2.11062198388,-0.890895629834,-0.0670230848478,0.0183705867678,0.00268796898247,0.0123235277439,0.00705483597187,0.00357879011731,-0.0608550995121,0.573668591536,0.819053099859,0.00609209298836,0.0,0.819051261831,-0.573578048693,-0.0119999771842,0.0,-0.00633444966003,0.0118739750699,-0.999909437631,0.0,0.265874725584,-0.258757692254,0.304962040934,1.0,-0.0151981818182,-0.0199747532468,2.831
-0.644228870685,-0.519773859293,-0.125350773562,-2.64083141321,-0.067405038437,2.11065787421,-0.89216756239,-0.0614582074618,0.0114694112054,0.00110193311698,0.00931196967846,0.000592795270091,-0.000461999665371,-0.0638156739684,0.57365435415,0.819063086705,0.00609006273991,0.0,0.819061083279,-0.57356356263,-0.012021995773,0.0,-0.00635385721591,0.0118848324256,-0.999909185505,0.0,0.265595581909,-0.259121625212,0.304955474236,1.0,-0.0148181818182,-0.0194753246753,2.85
-0.645297104705,-0.51959393866,-0.125320616596,-2.64069260754,-0.0673831551999,2.11068016526,-0.893252661411,-0.0640134582669,0.00616185713532,0.00231238282091,0.0120127301846,0.000567576294154,0.00238190396614,-0.0703239415306,0.573635793311,0.819076081567,0.00609065988201,0.0,0.819074003801,-0.573544849632,-0.0120344778993,0.0,-0.00636400892214,0.0118923374165,-0.999909031713,0.0,0.265358644753,-0.25943190062,0.30495496313,1.0,-0.0144981818182,-0.0190547532468,2.866
-0.64646789198,-0.519414524806,-0.12530488942,-2.64055925283,-0.067354926114,2.11073248553,-0.894397407249,-0.0620064786519,0.00594066106214,0.000953222864187,0.00527518900024,0.00380448502551,0.0091602971105,-0.0625036697308,0.573665034332,0.819055517257,0.00610204373846,0.0,0.819053664991,-0.57357418079,-0.0120208109572,0.0,-0.00634585897541,0.0118940492157,-0.999909126705,0.0,0.265095668953,-0.259774477078,0.304954376895,1.0,-0.0141381818182,-0.0185816103896,2.884
-0.647361571284,-0.519281080012,-0.125300831066,-2.64044069407,-0.0673397679268,2.11075990084,-0.895283961764,-0.0617370930102,0.00952128918357,0.00107428331051,0.0108959733773,7.37740845767e-05,7.79826560789e-05,-0.0644731153167,0.573680586232,0.819044578414,0.00610822832318,0.0,0.819042913552,-0.573589903895,-0.0120031167116,0.0,-0.00632759139556,0.0118890850559,-0.999909301509,0.0,0.264894297262,-0.260040783165,0.304961570729,1.0,-0.0138581818182,-0.0182136103896,2.898
-0.648417474502,-0.519124331841,-0.125270517807,-2.64029425156,-0.067317264759,2.11078866825,-0.896350785426,-0.0652453311838,0.00664635804655,-0.000114560183258,0.009076042858,0.00362316864256,0.000610584926517,-0.0664885141777,0.57366727103,0.819053918135,0.00610640950435,0.0,0.819052385464,-0.573576892201,-0.0119785433303,0.0,-0.00630869892421,0.011873396134,-0.999909607306,0.0,0.264662907231,-0.260350324849,0.304973590338,1.0,-0.0135181818182,-0.0177667532468,2.915
-0.649471571122,-0.518932431412,-0.125253488798,-2.6401392136,-0.0672953906878,2.11083509989,-0.897397469764,-0.0602523126055,0.0150003022519,0.00534568949551,0.00664990285731,-0.000638666896763,0.00098317674353,-0.0536824337351,0.573678677277,0.819045913614,0.00610848033844,0.0,0.819044504736,-0.573588469884,-0.011963000465,0.0,-0.00629461394564,0.0118662639989,-0.999909780737,0.0,0.264432669801,-0.260666239997,0.304977756599,1.0,-0.0131581818182,-0.0172936103896,2.933
-0.650413138261,-0.518772775829,-0.125237004622,-2.64001938426,-0.0672787562707,2.1108626206,-0.898331498097,-0.0565065484845,0.00869274136801,-0.00170042732536,0.0103255371729,0.000127466511822,-0.000111679360083,-0.066654012716,0.573686560209,0.819040372835,0.00611107223276,0.0,0.819038951784,-0.573596253904,-0.0119699569318,0.0,-0.00629871111786,0.011872438195,-0.999909681646,0.0,0.264220491868,-0.260941731239,0.304976158737,1.0,-0.0128381818182,-0.016873038961,2.949
-0.651444585644,-0.518587520825,-0.125220665815,-2.63990307942,-0.0672661553767,2.11088664274,-0.899410703861,-0.0585765887664,0.00901652970604,-0.00136869995613,0.00681994772995,0.00454505149324,0.000546755551194,-0.0484960985253,0.573647495285,0.819067711827,0.00611404098929,0.0,0.819066075583,-0.573556706977,-0.0120089388013,0.0,-0.00632950667193,0.0118969302762,-0.999909196075,0.0,0.263982228398,-0.261239388826,0.304963218305,1.0,-0.0124781818182,-0.0163998961039,2.967
-0.652420604257,-0.518417797564,-0.125213204407,-2.63977878675,-0.0672520835771,2.11092063538,-0.900349684703,-0.0606773209678,0.0122591763423,0.000480737967282,0.00788915652038,0.00528201468653,0.00546907641853,-0.0507495033887,0.573685093019,0.819041348246,0.00611807264156,0.0,0.819039724763,-0.573594205067,-0.0120151602236,0.0,-0.00633174392127,0.0119040920336,-0.999909096674,0.0,0.263760070767,-0.26152772039,0.304960260584,1.0,-0.0121381818182,-0.015953038961,2.984
-0.653309109945,-0.518266595394,-0.125220248224,-2.63965620188,-0.067247359875,2.11096425673,-0.901212173233,-0.0553859762885,0.0104464426986,-0.000596516358754,0.00772470132713,0.00242034425483,0.0021671651089,-0.05888493366,0.573719790275,0.81901703827,0.00611883734505,0.0,0.819015548497,-0.573629124667,-0.011996064193,0.0,-0.00631515924242,0.0118940313542,-0.99990932128,0.0,0.263558040062,-0.261798140882,0.304963814672,1.0,-0.0118181818182,-0.0155324675325,3.0
-0.654202750239,-0.518097495873,-0.12520717958,-2.63953586073,-0.0672314763484,2.11100625233,-0.902133510758,-0.0502412922438,0.0103675867152,0.00101915018884,0.00951720147846,-9.52462902521e-06,0.00210406354912,-0.0527492238731,0.573700964595,0.819030208685,0.00612106081341,0.0,0.81902873311,-0.573610265829,-0.0119976737807,0.0,-0.00631547553249,0.0118966307512,-0.999909288358,0.0,0.263358637458,-0.262063143663,0.304960091505,1.0,-0.0114781818182,-0.0150856103896,3.017
-0.655081609022,-0.517938030896,-0.125184940233,-2.63942089582,-0.0672236526318,2.11101544194,-0.902991032641,-0.0538198761746,0.0113567464606,0.0010205058621,0.00657706504658,-0.000117330475497,-0.000298255751729,-0.0484705158877,0.573712077316,0.819022466649,0.0061154204291,0.0,0.819020727366,-0.573621042266,-0.0120289200061,0.0,-0.00634414403855,0.0119100220774,-0.99990894746,0.0,0.263157957714,-0.262317074768,0.30495487951,1.0,-0.0111381818182,-0.0146387532468,3.034
-0.655883016628,-0.517795986802,-0.125156130354,-2.63931545402,-0.0672150179088,2.11105021258,-0.903734250994,-0.0512523299465,0.0101548878357,0.00211536801592,0.00463844456769,0.000143861702219,0.00679302288155,-0.0462975158811,0.573749617529,0.818996273278,0.0061014460405,0.0,0.81899431047,-0.573658556258,-0.0120385693265,0.0,-0.00635951912777,0.0119044033361,-0.999908916701,0.0,0.262969814502,-0.262563965849,0.304950914563,1.0,-0.0107981818182,-0.0141918961039,3.051
-0.656765946152,-0.5176444118,-0.125126165996,-2.63919414573,-0.0672043411927,2.11109210899,-0.904588239594,-0.0489500454319,0.00707076487227,0.000141462668552,0.00620805252124,7.74344693755e-06,0.0066273018054,-0.0468307393811,0.573761801924,0.818987812596,0.00609133595326,0.0,0.818985898833,-0.573671119288,-0.0120121317145,0.0,-0.00634348809499,0.0118810493352,-0.999909296299,0.0,0.262787644571,-0.262809576833,0.304957630044,1.0,-0.0104581818182,-0.013745038961,3.068
-0.657469402025,-0.517517199075,-0.125130528755,-2.63909768507,-0.0671900245663,2.1111175298,-0.905327811019,-0.0461081432109,0.00780946335701,-0.0001969914925,0.00112046967911,0.000550074359105,-0.000335427585787,-0.0519458489079,0.573746480735,0.818998463326,0.00610244334106,0.0,0.81899667553,-0.573655719527,-0.0120128192225,0.0,-0.00633790098195,0.011890422489,-0.999909220312,0.0,0.262626182321,-0.263020210493,0.304956639079,1.0,-0.0101581818182,-0.0133507532468,3.083
-0.658198758669,-0.517368143906,-0.125127627885,-2.63898204169,-0.0671777891045,2.11113621931,-0.906070671853,-0.0448142396035,0.00809896025112,0.000511863911895,0.00366891733264,-0.000412147357657,0.000537739865074,-0.0394242845616,0.573747416999,0.818997774195,0.00610690199093,0.0,0.818995918023,-0.573656399595,-0.0120319726959,0.0,-0.00635101772509,0.0119050702675,-0.999908962794,0.0,0.262449388816,-0.26325256902,0.304953040847,1.0,-0.00981818181819,-0.0129038961039,3.1
-0.658963881508,-0.517213653068,-0.125110328636,-2.63888593906,-0.0671559174254,2.11116738767,-0.906798319745,-0.0410162846738,0.00764653846442,0.000633848705601,0.00599768489415,0.000281396269805,0.000667422657431,-0.0383802741075,0.573777531116,0.818976620782,0.00611443370947,0.0,0.818974769615,-0.573686300681,-0.0120458310578,0.0,-0.00635760956236,0.011919423629,-0.999908749907,0.0,0.262289601513,-0.263461216091,0.304945686447,1.0,-0.00949818181819,-0.0124833246753,3.116
-0.659704245399,-0.517071571757,-0.12508964151,-2.63880800426,-0.0671417327536,2.11119556893,-0.907520367422,-0.04330288995,0.00740252737463,0.00129394350142,0.00305817555227,0.000443578319877,0.00112101536199,-0.0446206875221,0.573788158126,0.818969162428,0.00611616610261,0.0,0.818967130795,-0.573696537742,-0.0120775892192,0.0,-0.00638247269208,0.0119391465428,-0.999908356212,0.0,0.262119304676,-0.263671148003,0.304931606698,1.0,-0.00915818181819,-0.0120364675325,3.133
-0.6604046176,-0.516923815037,-0.125061751489,-2.63873014424,-0.0671271992813,2.11121355701,-0.908220180299,-0.0385425709074,0.00771373174783,-0.000958284018798,0.00512710802451,0.00326327159445,0.000635537589885,-0.0476236182775,0.573774039742,0.818979072302,0.00611370187568,0.0,0.818976665364,-0.573681792722,-0.0121313309209,0.0,-0.00642811045222,0.0119678523433,-0.999907720695,0.0,0.261951143659,-0.263879664308,0.30491294243,1.0,-0.00879818181819,-0.0115633246753,3.151
-0.66110158403,-0.516769616448,-0.125012255984,-2.63864567764,-0.0671078083291,2.11124733947,-0.908954625027,-0.0381460830922,0.0112448417326,0.00196418310346,0.00821702181732,0.000847872630915,0.000894024925259,-0.0327365296974,0.573726351191,0.81901253048,0.00610702601359,0.0,0.819009869921,-0.573633834468,-0.0121574597398,0.0,-0.00645403937658,0.0119770001916,-0.999907444138,0.0,0.261809050842,-0.264061208659,0.304900261872,1.0,-0.00845818181819,-0.0111164675325,3.168
-0.661696526018,-0.516663167222,-0.124997412246,-2.63857683912,-0.0670927168555,2.11126286141,-0.909539810786,-0.0362692473994,0.00491819863986,0.00193074224703,0.0069210338129,-0.000354143493321,0.000104981406719,-0.0331439717105,0.573733382789,0.819007549947,0.00611436872143,0.0,0.819004855435,-0.57364059084,-0.0121764615747,0.0,-0.00646528835216,0.0119939710815,-0.999907168043,0.0,0.261663695782,-0.264238541949,0.304893116627,1.0,-0.00811818181819,-0.0106696103896,3.185
-0.66230384804,-0.516562069875,-0.124983527464,-2.63849624083,-0.0670740355173,2.11128542883,-0.910141873147,-0.0329207563826,0.00406840149452,-0.000209752666075,0.0072089182657,0.00185376103742,-0.000162578677536,-0.0336412904768,0.573740519569,0.81900252389,0.00611792192599,0.0,0.818999916719,-0.573647786151,-0.0121696655059,0.0,-0.00645757872392,0.0119930386614,-0.999907229047,0.0,0.261536054903,-0.264406779094,0.304895544729,1.0,-0.00779818181819,-0.010249038961,3.201
-0.662910615482,-0.516464722588,-0.124974641551,-2.63841032579,-0.0670547350794,2.11130597005,-0.910706533964,-0.0348552098905,0.00242401458461,0.00034434587511,0.00779346191095,0.000612034883957,0.000163932424358,-0.0342214544238,0.57378317039,0.818972586725,0.00612555895411,0.0,0.818970153499,-0.573690531721,-0.0121576474697,0.0,-0.00644272886576,0.0119927343639,-0.99990732849,0.0,0.261392639233,-0.264596326809,0.304900877585,1.0,-0.00743818181819,-0.0097758961039,3.219
-0.66346353594,-0.516400920797,-0.124972797,-2.63832268741,-0.0670355509071,2.11132393749,-0.911237792428,-0.0328828867995,0.0018898023902,-0.000644669017563,0.00545355450142,0.000523600173685,0.00058349402927,-0.0351660122212,0.573810290244,0.818953520384,0.00613426138928,0.0,0.8189514943,-0.573718155114,-0.0121109610753,0.0,-0.0063991002831,0.0119732871438,-0.999907841709,0.0,0.261276875386,-0.264751494877,0.30491849987,1.0,-0.00713818181819,-0.00938161038962,3.234
-0.66396031168,-0.516343416665,-0.12496994789,-2.63824775935,-0.0670212544078,2.11134120787,-0.911743221644,-0.0346794398216,0.00298890257438,0.00102917424523,0.00412775212603,0.000361972984417,-0.000429875309398,-0.0361846050108,0.573810995,0.818952984537,0.00613987272037,0.0,0.818951268484,-0.573719279274,-0.0120729176001,0.0,-0.00636471108911,0.0119560596045,-0.999908267338,0.0,0.261165635803,-0.264900143538,0.304932871993,1.0,-0.00683818181819,-0.00898732467533,3.249
-0.664572392403,-0.516262728398,-0.124947962178,-2.63815302872,-0.0669914759665,2.11136561606,-0.912360276612,-0.0288948558329,0.00482810909883,-0.000614840517691,0.00622936181602,0.00324810074069,0.00104906675079,-0.0294314853395,0.573808744034,0.818954503958,0.00614757017008,0.0,0.818953154329,-0.573717496733,-0.0120296242172,0.0,-0.0063248681379,0.0119375053795,-0.99990874184,0.0,0.261034486817,-0.265078926516,0.304948754273,1.0,-0.00643818181819,-0.00846161038962,3.269
-0.665064595069,-0.51618467974,-0.124904438939,-2.63808543375,-0.0669715505628,2.111392321,-0.912838626566,-0.0289354499207,0.00641576392714,0.00412409086312,0.00301996218922,0.000466099502526,0.000161567370411,-0.0249669808072,0.573801140979,0.818959898521,0.00613857698808,0.0,0.818958560971,-0.573710177409,-0.0120106057511,0.0,-0.00631456194913,0.0119191689414,-0.999909025721,0.0,0.260933186634,-0.265216017656,0.304953978098,1.0,-0.00609818181819,-0.00801475324676,3.286
-0.665549083427,-0.51608468219,-0.124845774082,-2.63802075603,-0.0669445817637,2.11141190244,-0.913327635225,-0.0282340399976,0.008095942388,0.000938616444334,0.00392220815316,0.000193587151926,0.000214226708786,-0.0284106519553,0.573770714761,0.818981274244,0.00613076022437,0.0,0.818979761496,-0.573679652399,-0.0120230438794,0.0,-0.00632967726812,0.0119196685172,-0.999908924197,0.0,0.260835615275,-0.265344929244,0.304949527513,1.0,-0.00573818181819,-0.00754161038962,3.304
-0.665966118512,-0.515995679564,-0.124812310277,-2.63796919718,-0.0669199190209,2.11142478716,-0.913760775017,-0.0245940951827,0.00500362503244,-0.000149876460473,0.00264584409544,0.00018007586654,-0.000266863911276,-0.0255862929752,0.573747066665,0.818997808514,0.00613514824367,0.0,0.81899621279,-0.573655726812,-0.0120439791447,0.0,-0.00634465175469,0.0119350906692,-0.99990864533,0.0,0.260746311001,-0.265457709238,0.304942006115,1.0,-0.00539818181819,-0.00709475324676,3.321
-0.666310246154,-0.515897769183,-0.124781248548,-2.63793297773,-0.0668996512661,2.11144873052,-0.914125728273,-0.0236149054388,0.00533596721522,0.00216942358316,0.0021160202301,0.00197594913448,0.00121257105472,-0.0241586415514,0.573718709916,0.819017653309,0.00613778146209,0.0,0.81901586466,-0.573626937765,-0.012078766722,0.0,-0.00637204907244,0.0119569850614,-0.999908209537,0.0,0.260673450654,-0.265549845077,0.304925111003,1.0,-0.00509818181819,-0.00670046753247,3.336
-0.666691393731,-0.515827735584,-0.12476474181,-2.63790802732,-0.0668747207467,2.11145957703,-0.914518056918,-0.0231042929755,0.0113281903603,0.00329813896414,0.000811107946744,0.000179826275135,-5.43195428092e-05,-0.0169910800367,0.573709943211,0.819023673674,0.0061538543617,0.0,0.819021885256,-0.573617709693,-0.0121087365377,0.0,-0.00638750501722,0.0119872747445,-0.999907748257,0.0,0.260583939549,-0.265649962066,0.304911926629,1.0,-0.00475818181819,-0.00625361038962,3.353
-0.667102551105,-0.515771989867,-0.124745336604,-2.637886339,-0.0668499270548,2.11145734631,-0.914937661924,-0.0216241368989,-0.000811406685805,-0.00115801257087,0.000258016619482,0.000389687679558,-8.5017812006e-05,-0.0164977460636,0.573701089412,0.819029752814,0.00617016318161,0.0,0.819027955752,-0.573608369869,-0.0121405359636,0.0,-0.00640432622796,0.0120188062449,-0.999907262151,0.0,0.260484588708,-0.265754783264,0.304901485203,1.0,-0.00437818181819,-0.00575418181819,3.372
-0.667407003131,-0.515729418634,-0.124723886345,-2.63786230614,-0.0668339110914,2.11146482107,-0.915234951913,-0.021303233039,0.00121164283254,0.000327454793325,0.00131306677127,9.63015033074e-06,-0.00075776195678,-0.0136101299398,0.573699854306,0.819030587425,0.00617421511156,0.0,0.819028784707,-0.573607007028,-0.012149000399,0.0,-0.00640895327477,0.0120269712147,-0.999907134329,0.0,0.260415549857,-0.265834443326,0.304897840762,1.0,-0.00407818181819,-0.0053598961039,3.387
-0.667744106314,-0.51569241159,-0.124709021068,-2.63782377551,-0.0668134635233,2.11147361049,-0.915554258428,-0.0150606226775,0.000753414637498,-0.00122425932112,0.00058759999056,0.000345950084089,0.00279274065489,-0.0158393214371,0.573714537035,0.819020238863,0.00618265551087,0.0,0.819018625525,-0.573621797662,-0.0121355342566,0.0,-0.00639286527953,0.0120262739793,-0.999907245702,0.0,0.260340338455,-0.265927626837,0.304902794858,1.0,-0.00371818181819,-0.00488675324676,3.405
-0.668029734778,-0.515652596621,-0.12467068711,-2.63777427103,-0.0667916476496,2.11148179071,-0.915833186685,-0.0143412918493,0.00321443482688,0.00659626734019,0.00223407974972,0.00246017534568,0.00184156943873,-0.0167247087878,0.573704554197,0.819027261984,0.00617863426676,0.0,0.819025727579,-0.573612082173,-0.0121154302394,0.0,-0.00637885120267,0.0120113691863,-0.999907514357,0.0,0.260286458799,-0.266004920725,0.304912196433,1.0,-0.00337818181819,-0.0044398961039,3.422
-0.668250897633,-0.51560780751,-0.124651406424,-2.63773448963,-0.0667741656182,2.11148506029,-0.916038330456,-0.0160566660573,0.00210736501266,0.00196832684707,0.00454941050529,0.000468557273822,-0.000569898742537,-0.0119861715202,0.573713474565,0.819020988357,0.0061819603783,0.0,0.819019496881,-0.573620985012,-0.0121151220912,0.0,-0.00637655983625,0.012013986175,-0.999907497532,0.0,0.260242002122,-0.266066641561,0.304914476074,1.0,-0.00309818181819,-0.0040718961039,3.436
-0.668507151531,-0.515581584169,-0.124623050874,-2.63769301613,-0.0667553461181,2.1114926233,-0.916282538072,-0.0180719856004,0.00114409571824,0.00193402939007,0.00272294611011,-9.66848181115e-05,-4.62586792419e-05,-0.0157218564086,0.573713246079,0.819021159298,0.00618051750659,0.0,0.819019808983,-0.573621064628,-0.0120902278651,0.0,-0.00635699980209,0.0119985211507,-0.999907807772,0.0,0.260191796725,-0.266136775846,0.304924956889,1.0,-0.00273818181819,-0.00359875324676,3.454
-0.668705219352,-0.515568593721,-0.124606122605,-2.63767295693,-0.0667454686563,2.11150083876,-0.916470873226,-0.0156209036726,-0.000817408357427,0.00192973731994,-0.00159950275916,0.00177624909792,8.98893959591e-05,-0.0142089506684,0.573714379413,0.819020375667,0.00617915841484,0.0,0.819019115104,-0.573622406635,-0.0120735496702,0.0,-0.00634410160922,0.0119878487166,-0.999908017699,0.0,0.260149266453,-0.266189856384,0.304930377223,1.0,-0.00243818181819,-0.00320446753247,3.469
-0.668912694748,-0.515548843232,-0.124581371643,-2.63765085183,-0.0667264683792,2.11151099528,-0.916653792559,-0.0105765395678,0.0012727479274,0.00382853656483,-0.000241863488373,-0.000129135846645,0.00157079520424,-0.00950214384066,0.573725027693,0.819012890882,0.00618256169925,0.0,0.819011779626,-0.573633236332,-0.0120566127202,0.0,-0.00632812019779,0.0119810019982,-0.999908201029,0.0,0.260104688675,-0.266246340319,0.304935808891,1.0,-0.00207818181819,-0.00273132467533,3.487
-0.669136001718,-0.515532530442,-0.124552208914,-2.63763134382,-0.0667084817245,2.11152192969,-0.916866276279,-0.00783418536194,0.000438897573274,0.000312927709893,0.000380695468448,-0.00043954919478,-0.000302814355186,-0.00889957880379,0.57372289569,0.81901439583,0.00618104244591,0.0,0.819013353817,-0.573631280011,-0.0120427473788,0.0,-0.00631766581315,0.0119717866959,-0.999908377514,0.0,0.260061836045,-0.266299853984,0.304939053041,1.0,-0.00169818181819,-0.0022318961039,3.506
-0.6693027917,-0.515525181808,-0.124522394038,-2.63762146395,-0.0666976630714,2.11152784467,-0.917001420513,-0.0142650924338,-0.00273463793345,0.00271203258167,0.00097161387558,0.000951944812072,-0.000270612164812,-0.00343916263628,0.573732727288,0.819007553201,0.00617513883659,0.0,0.819006501091,-0.573641261539,-0.0120333341946,0.0,-0.00631319871185,0.0119616267965,-0.99990852732,0.0,0.260028040167,-0.26633902488,0.304942038288,1.0,-0.00139818181819,-0.00183761038962,3.521
-0.669458220699,-0.515494983948,-0.124494951125,-2.63759797239,-0.0666858327479,2.11153739885,-0.917121992882,-0.00725917514634,0.00221862961572,0.00226227652432,0.000240145948027,-0.00028296804668,-0.000636652689369,-0.00632851465516,0.573748036116,0.818996869976,0.00616967781225,0.0,0.8189957776,-0.573656649023,-0.0120296386954,0.0,-0.00631308128555,0.0119551518278,-0.999908605498,0.0,0.25999995527,-0.266379322474,0.304943026535,1.0,-0.00105818181819,-0.00139075324676,3.538
-0.669595439494,-0.515466895511,-0.124464342462,-2.6375875966,-0.0666707454182,2.11155000624,-0.917173278264,-0.00776655189246,0.00158151273623,0.000929288387872,-6.45952632714e-05,-0.000127270096118,0.000411075567387,-0.0039048882858,0.573812811791,0.818951507935,0.00616697468446,0.0,0.81895038341,-0.573721428309,-0.012030756986,0.0,-0.00631460262665,0.0119540789295,-0.999908608719,0.0,0.25997291387,-0.266415464562,0.304941428041,1.0,-0.000698181818187,-0.000917610389618,3.556
-0.669664795328,-0.515450837825,-0.124467235421,-2.63758079203,-0.0666667812257,2.11155413231,-0.917213670814,-0.00644404530349,0.000577379100047,0.000436101964211,-0.000781866247046,-8.22313477009e-05,0.00145857281572,-0.0081227947447,0.573828024833,0.818940803257,0.00617297150605,0.0,0.818939681777,-0.573736470207,-0.0120418962796,0.0,-0.00632006301015,0.0119654992511,-0.999908437624,0.0,0.259957945296,-0.266430134007,0.304935285764,1.0,-0.000418181818187,-0.000549610389618,3.57
