nelsonifechukwu/NELSON_IML_WORK/CNN-GradCAM/train2dof/data_sample_2022-02-22-16-21-41/robot_state.csv
position_joint1,position_joint2,position_joint3,position_joint4,position_joint5,position_joint6,position_joint7,velocity_joint1,velocity_joint2,velocity_joint3,velocity_joint4,velocity_joint5,velocity_joint6,velocity_joint7,ee_T_00,ee_T_10,ee_T_20,ee_T_30,ee_T_01,ee_T_11,ee_T_21,ee_T_31,ee_T_02,ee_T_12,ee_T_22,ee_T_32,ee_T_03,ee_T_13,ee_T_23,ee_T_33,v_x,v_y,time
0.465075836592,0.547746193383,-0.123976553377,-1.35583127233,0.0795034337574,1.89410919352,0.159169459309,0.000186072366997,-0.0016168774554,0.00100390496764,-0.00120346642773,0.00043262222276,8.11789723033e-05,0.00249918976519,0.573804851829,0.818977891108,0.00198816355638,0.0,0.818935161826,-0.573746044535,-0.011892182602,0.0,-0.00859889920715,0.00845213184936,-0.999927307558,0.0,0.661676628819,0.260900642855,0.303240352347,1.0,0.0,0.0,0.0
0.465073096608,0.547743714688,-0.123984678413,-1.35582876667,0.0795028234058,1.89410486664,0.159163107784,-0.0032794128519,-0.000462861911871,-0.000618793624994,-0.000352096445364,0.000182887311737,0.000201129252376,0.000878353931564,0.573807238205,0.818976222838,0.00198663291875,0.0,0.818933517416,-0.573748479942,-0.0118879231925,0.0,-0.00859626432094,0.00844845931804,-0.999927361249,0.0,0.661679021297,0.260894065053,0.303243192837,1.0,-0.00014,-0.000184,0.008
0.465072678664,0.547739851845,-0.123987339313,-1.35583448999,0.0795010450681,1.89410849874,0.159162793644,0.000765798122963,-0.00328346824238,-0.00151955307519,-0.00202669107836,-0.000100356133926,-0.000140903519798,0.00168343494166,0.573809042138,0.81897495894,0.0019866280355,0.0,0.81893228216,-0.573750311888,-0.0118846011856,0.0,-0.00859352776502,0.00844656807601,-0.999927400749,0.0,0.66167935599,0.260891578729,0.303243605574,1.0,-0.0005,-0.000657142857143,0.026
0.465069494381,0.547732450111,-0.123979660904,-1.35584748252,0.0795028234057,1.89410768954,0.159162396523,4.61944861782e-05,7.46979260504e-05,0.00128949286515,-0.000799319268034,0.000122885726506,0.000114941263043,0.000901647738114,0.573807121634,0.818976309261,0.0019846745838,0.0,0.818933536964,-0.573748330775,-0.0118937744358,0.0,-0.00860218137967,0.00845021174376,-0.999927295556,0.0,0.66167537834,0.260892702418,0.303242343974,1.0,-0.0008,-0.00105142857143,0.041
0.46506722477,0.547645095586,-0.1239792872,-1.35592178824,0.0795022444666,1.89412227651,0.159160367837,-0.0011160787164,-0.00697759368109,0.00161330214922,-0.00527727585489,2.02250555398e-05,0.000471061954973,0.00108999303163,0.573810907353,0.818973590148,0.00201200007269,0.0,0.818931121324,-0.57375195249,-0.0118853877674,0.0,-0.00857959490382,0.0084678176464,-0.999927340668,0.0,0.661664105192,0.260884646583,0.30327011321,1.0,-0.00114,-0.00149828571429,0.058
0.46506598012,0.547533040213,-0.123979661983,-1.35608347578,0.0795000598094,1.89414574353,0.159157247118,-0.0006630729346,-0.00769910819189,0.000474284629243,-0.00911686903505,-0.00247724146604,0.00165802284216,0.00057319843518,0.573817844765,0.818968770382,0.0019952616713,0.0,0.818925967976,-0.573758843858,-0.0119077693427,0.0,-0.00860745790711,0.00846702515219,-0.99992710792,0.0,0.661635207484,0.26086711941,0.303274581146,1.0,-0.00146,-0.00191885714286,0.074
0.465050289437,0.547386871092,-0.123979670754,-1.35628155099,0.0794934390104,1.89420217011,0.159153970334,0.000181268287063,-0.00759198727511,-0.00042250943824,-0.0121518108179,-0.00430445549853,0.00713539653065,0.000150076016422,0.573837206867,0.81895518507,0.00200293849195,0.0,0.818912413362,-0.573778103703,-0.011911920679,0.0,-0.00860625265149,0.0084758976724,-0.999927043126,0.0,0.661609373651,0.26083790025,0.303288733951,1.0,-0.0018,-0.00236571428571,0.091
0.465024316738,0.547201596857,-0.123979978007,-1.35649629289,0.0794951577165,1.89434375073,0.159143710654,-0.0013065758375,-0.011886882736,0.000276077793887,-0.0123367526223,0.000258134764083,0.00252518105616,0.00112266001068,0.573863116178,0.818936774195,0.00210491398217,0.0,0.818895287905,-0.573803552841,-0.0118632666367,0.0,-0.00850762198759,0.00853175956446,-0.999927412089,0.0,0.661600022132,0.260807395578,0.303330070534,1.0,-0.00214,-0.00281257142857,0.108
0.465000983932,0.54701685472,-0.123985009769,-1.35672594657,0.0794886270354,1.8944558343,0.159126336609,-0.00220949092385,-0.0125676777777,-0.000288451482122,-0.0144698109071,1.17408609907e-05,0.00584989588877,-0.00286272970427,0.573882756617,0.818922855349,0.00216461210638,0.0,0.818882145484,-0.573822953096,-0.0118320416257,0.0,-0.00844758784379,0.00856293173334,-0.999927654613,0.0,0.6615821973,0.260770776218,0.303361504382,1.0,-0.00246,-0.00323314285714,0.124
0.464963392339,0.546772348431,-0.123983203686,-1.35707585212,0.0794814480135,1.89459563763,0.159107815808,-0.00164526399221,-0.0155127969487,-0.000769079545105,-0.0180805765467,0.000495774039104,0.00996519982163,-0.00194494338807,0.573914828455,0.818900280279,0.00220171299453,0.0,0.818859936443,-0.573854756654,-0.0118266501856,0.0,-0.00842154581791,0.00859054986994,-0.999927637391,0.0,0.661546061608,0.260716963544,0.303380200658,1.0,-0.00282,-0.00370628571429,0.142
0.46492716272,0.546499016913,-0.123982753045,-1.35747147841,0.0794737203755,1.8947316241,0.159025771673,-0.00235188112576,-0.0192457160776,9.34702567487e-05,-0.0246172797092,0.000633561356775,0.00910701355674,-0.00727307744555,0.573896980428,0.81891272948,0.00222356738004,0.0,0.818872506918,-0.573836658698,-0.0118344179893,0.0,-0.00841555308717,0.00861272076555,-0.999927497125,0.0,0.661499395725,0.260657867992,0.303397245893,1.0,-0.00316,-0.00415314285714,0.159
0.464888138896,0.546236959029,-0.123987492791,-1.35789469155,0.0794560517918,1.89489146522,0.158926230904,-0.00367883449957,-0.0156366152866,-0.000449035262067,-0.0238249116741,-0.000522377734813,0.0108944363641,-0.00180232717862,0.573869768993,0.818931793275,0.00222555629882,0.0,0.818891546745,-0.573809391843,-0.0118390625989,0.0,-0.00841850174068,0.00861673525746,-0.999927437718,0.0,0.661453306541,0.260590504976,0.303395386962,1.0,-0.00348,-0.00457371428571,0.175
0.464839428973,0.545917838498,-0.123986422624,-1.35843642061,0.0794266337712,1.89507785242,0.158900458512,-0.00171603143341,-0.017533441714,-0.00100087869291,-0.0328271650107,-0.00195489594474,0.00547693707251,-0.000349801055126,0.573910249194,0.818903505483,0.00219578674164,0.0,0.818862814554,-0.573849926193,-0.0118617052001,0.0,-0.00845370266971,0.00860576798637,-0.999927235187,0.0,0.661388615866,0.260506675744,0.303379596772,1.0,-0.00384,-0.00504685714286,0.193
0.464781247477,0.545590289815,-0.123975025802,-1.35899561515,0.0793773092937,1.89526389929,0.15880789495,-0.00268610267642,-0.0222681189506,0.00300670311644,-0.0380962871681,-0.00014023061664,0.0120637852746,-0.00116060808289,0.573892190858,0.818916279473,0.00215113643875,0.0,0.818875051207,-0.573832092654,-0.0118796823498,0.0,-0.0084942376874,0.00857933407063,-0.999927118821,0.0,0.661321225262,0.260417354972,0.303361030946,1.0,-0.00416,-0.00546742857143,0.209
0.464724884251,0.545233054534,-0.123988789552,-1.35962288933,0.079329892936,1.89545961858,0.158745680696,-0.00362896782246,-0.0192572437195,-0.00107789822747,-0.0449546280662,-0.00578111013766,0.00958502386738,-0.00329255991558,0.573919294704,0.818897471117,0.00207890985611,0.0,0.818855399258,-0.57385958258,-0.0119063633269,0.0,-0.00855725322999,0.00853578254359,-0.999926954249,0.0,0.661246032759,0.26030794248,0.303332728748,1.0,-0.00448,-0.005888,0.225
0.464659913816,0.544809880476,-0.123984260984,-1.36032408926,0.0793061610633,1.89569348395,0.158659267644,-0.00104618822468,-0.0258887713101,-0.000130568871998,-0.0401610749789,0.000156318571277,0.0142159894319,-0.0160256322071,0.573931268751,0.818889145328,0.00205263641083,0.0,0.818846496222,-0.573871429496,-0.0119475911204,0.0,-0.00860596898159,0.0085380546473,-0.99992651676,0.0,0.661159839883,0.260201956422,0.303318636502,1.0,-0.00482,-0.00633485714286,0.242
0.464597167902,0.544356180308,-0.123989243391,-1.36109893147,0.0792721609325,1.8959730545,0.15855183018,-0.00109591725446,-0.0222945267006,0.000924528557541,-0.0471377148842,-0.000841598613279,0.0154879911288,-0.00667808728471,0.573932363746,0.81888845439,0.00202188349921,0.0,0.818845290726,-0.573872540256,-0.011976823378,0.0,-0.00864754545678,0.00852966055563,-0.999926229703,0.0,0.661068717346,0.260085035527,0.303295324345,1.0,-0.00518,-0.006808,0.26
0.464528449283,0.54388383896,-0.123991839844,-1.36185565002,0.0792357028617,1.89624327334,0.158473814244,-0.000543771520803,-0.0273519698607,-0.00225599119698,-0.0484306780063,-0.00140536851247,0.0174494436909,-0.00937205843263,0.57395899566,0.818869808303,0.0020137656651,0.0,0.818826448221,-0.573899113784,-0.0119917385335,0.0,-0.0086641411151,0.00853185505664,-0.999926067321,0.0,0.660981435955,0.259966921323,0.303292883799,1.0,-0.0055,-0.00722857142857,0.276
0.464453271063,0.543355851367,-0.123992387065,-1.36269453336,0.0791928282431,1.8965350175,0.158360051553,-0.0031087421776,-0.0379792860615,1.11137282573e-05,-0.0543301770446,-0.00452878446083,0.0144057279426,-0.00989412508732,0.573962970397,0.818867051603,0.00200182749066,0.0,0.818823432156,-0.573903036676,-0.0120099269951,0.0,-0.00868584586212,0.0085325609071,-0.999925872996,0.0,0.660882456982,0.259837130945,0.303292443703,1.0,-0.00584,-0.00767542857143,0.293
0.464369392554,0.542773250955,-0.123998219341,-1.36363166236,0.0791261311729,1.89686784092,0.158238112988,-0.00258184793003,-0.0315706957787,-0.00111735935678,-0.052770993868,-0.00597247139056,0.0179601288599,-0.00232803919689,0.573970182211,0.818862059303,0.00197602311557,0.0,0.818818195018,-0.573910447528,-0.0120128525477,0.0,-0.008702976424,0.00851318675172,-0.99992588918,0.0,0.660775146234,0.25968652398,0.303287509356,1.0,-0.0062,-0.00814857142857,0.311
0.464303434262,0.542247095233,-0.124002044191,-1.36443844506,0.0790792634465,1.8971655422,0.158124939825,-0.00720163969234,-0.0341945300188,-0.000560078875799,-0.0559711651366,-0.00525597571795,0.0165353690951,-0.00858308831914,0.573966524966,0.818864587199,0.00199071638771,0.0,0.818820909235,-0.573906722884,-0.0120057873412,0.0,-0.00868879586314,0.00852112430037,-0.999925944891,0.0,0.660683033151,0.259564489332,0.303301536061,1.0,-0.0065,-0.00854285714286,0.326
0.464220343796,0.541585992015,-0.123996421613,-1.36545787997,0.0790244854104,1.89754328496,0.158001056428,0.000645050019327,-0.0374652240131,0.000592436693567,-0.0555437239679,-0.00744452580568,0.0174610971587,-0.00272858462466,0.573971163821,0.818861283492,0.00201206397936,0.0,0.81881778673,-0.573911174925,-0.0120059290474,0.0,-0.00867661151851,0.00853873523955,-0.999925900461,0.0,0.660563983569,0.259417299259,0.303316330927,1.0,-0.00686,-0.009016,0.344
0.464126638325,0.540964097975,-0.123999600779,-1.36641441566,0.0789733908386,1.89789432011,0.157874425,-0.00355877893915,-0.0411922791182,0.000614539620783,-0.059348143698,-0.000999497490172,0.0231182323294,-0.0055141178021,0.573985815599,0.818850971607,0.00202896289041,0.0,0.818807639598,-0.573925698393,-0.0120037061255,0.0,-0.0086649393068,0.00855145200774,-0.999925893002,0.0,0.660457479612,0.259263739733,0.30333122451,1.0,-0.00718,-0.00943657142857,0.36
0.464044614461,0.540297013252,-0.124002054936,-1.36742425646,0.0789047246372,1.89826386189,0.157743723893,-0.00734453282294,-0.0416074590666,0.000104054976995,-0.0642413938149,-0.00178485403636,0.0266635185343,-0.00419283159515,0.573985213663,0.818851347942,0.00204728391477,0.0,0.818808324781,-0.573925088404,-0.0119861199522,0.0,-0.008640029225,0.00855635347065,-0.999926066622,0.0,0.660341163859,0.259111008033,0.30335414739,1.0,-0.0075,-0.00985714285714,0.376
0.463949654997,0.539550053217,-0.124005199584,-1.36857289388,0.0788465271619,1.89870192262,0.157606313298,-0.000842016085641,-0.0443667169802,-0.000903899229467,-0.0676391253681,-0.000119667395496,0.0264588155862,-0.00327817489389,0.574000749765,0.81884036775,0.00208286159544,0.0,0.818797733678,-0.573940399355,-0.0119764858265,0.0,-0.0086115574418,0.00858011939176,-0.999926108585,0.0,0.660211274515,0.258940253004,0.303373345344,1.0,-0.00784,-0.010304,0.393
0.463850063294,0.538894560372,-0.124008420865,-1.36959399445,0.0787824013592,1.89908778101,0.157483184191,-0.0100302615422,-0.0425145263726,0.000353124611962,-0.0702859303553,-0.0022667103524,0.0279100396219,-0.00729330294359,0.574023075512,0.818824680576,0.00209717918849,0.0,0.818782274981,-0.573962704484,-0.0119644030116,0.0,-0.00859321128143,0.00858514185099,-0.999926223308,0.0,0.660099390087,0.258775845264,0.303383964848,1.0,-0.00814,-0.0106982857143,0.408
0.463740141753,0.538056332864,-0.124014113387,-1.37087101476,0.0787214202571,1.89958313284,0.15731745699,-0.00540530146371,-0.0532540061584,-0.000242170595228,-0.0715922266187,-0.000105634394882,0.022756095323,-0.00861698523553,0.574035693996,0.818815692162,0.00215201949633,0.0,0.818773908402,-0.573975002005,-0.0119470036058,0.0,-0.0085473531951,0.00862018988539,-0.999926314825,0.0,0.65995777253,0.258583150751,0.303411334355,1.0,-0.0085,-0.0111714285714,0.426
0.463631126745,0.537208873407,-0.124017319365,-1.37220656467,0.0786261196437,1.90007726782,0.157156995794,-0.00535383105757,-0.0482553969391,1.15192655821e-05,-0.0683128254663,-0.00314356492629,0.0304253208176,-0.00651118621234,0.574043906859,0.818809946365,0.00214747137078,0.0,0.81876823604,-0.573983366249,-0.0119338938293,0.0,-0.00853914252494,0.00860902613444,-0.999926481154,0.0,0.659803393529,0.258380062049,0.303416965259,1.0,-0.00886,-0.0116445714286,0.444
0.463517756767,0.53641402245,-0.124013776932,-1.37345660364,0.0785723043744,1.90054884377,0.157008739451,-0.00969667888711,-0.0492140799786,0.00242781999343,-0.0806279029544,-0.00334681891325,0.032218438555,-0.0102753185411,0.574067337707,0.818793451456,0.00217313878129,0.0,0.818751864212,-0.574006475792,-0.0119456058732,0.0,-0.00853375243056,0.00863700987851,-0.999926285848,0.0,0.659659942123,0.258192656768,0.303423896492,1.0,-0.00918,-0.0120651428571,0.46
0.463410410742,0.535553619777,-0.124024026796,-1.37481144108,0.0784847467414,1.90103781201,0.156839025793,-0.00773082662839,-0.0483093709674,0.000499714511897,-0.0776117718035,-0.00916239477549,0.0247707248561,-0.00834899158643,0.574074377498,0.818788543479,0.00216265326175,0.0,0.81874688731,-0.57401362603,-0.0119431383633,0.0,-0.00853767680117,0.00862708144573,-0.999926338057,0.0,0.6595005372,0.257985393756,0.303428966194,1.0,-0.00952,-0.012512,0.477
0.463285063505,0.534649688629,-0.124025093364,-1.37625306176,0.0784067543052,1.9015646,0.156668351097,-0.00813842520288,-0.0567367530074,0.000563185674689,-0.0843856813067,-0.00901767676501,0.0286927777823,-0.0109041475889,0.574096195293,0.81877326028,0.0021572438386,0.0,0.818731429238,-0.574035357849,-0.011958328381,0.0,-0.00855298994873,0.00863160034185,-0.999926168194,0.0,0.659331341484,0.257765982601,0.303426283367,1.0,-0.00986,-0.0129588571429,0.494
0.463155555592,0.533747421639,-0.12403007415,-1.37774043239,0.0783246894347,1.90210743706,0.156488869638,-0.00791792583396,-0.0500750820371,-0.000433644359078,-0.0942613604411,-0.00177966753886,0.0331510702717,-0.00692090699935,0.574118284163,0.818757862211,0.00212267735899,0.0,0.818715497925,-0.574057503816,-0.0119859363588,0.0,-0.00859520624799,0.00861938001709,-0.999925911614,0.0,0.659156479625,0.257536552585,0.303402000329,1.0,-0.0102,-0.0134057142857,0.511
0.463033311764,0.532872857915,-0.12403150395,-1.37915269991,0.0782457606914,1.90264088991,0.156304111502,-0.00820102466407,-0.0580492724457,-0.000637330168502,-0.0901012315426,-0.00891280066192,0.0321290155222,-0.0123756280721,0.574124278167,0.818753664586,0.00212057704969,0.0,0.818711215134,-0.574063447895,-0.0119937861243,0.0,-0.00860277619896,0.00862223001888,-0.999925821944,0.0,0.658993277176,0.257322412791,0.303392814735,1.0,-0.01052,-0.0138262857143,0.527
0.462896553717,0.531907616226,-0.124026240596,-1.38069989856,0.0781515759723,1.90321902257,0.15611233121,-0.0129961318428,-0.0619462289747,-0.000273730936239,-0.0947232563129,-0.00617430572097,0.0345055748608,-0.0099498877164,0.574130629848,0.818749210235,0.00212073385797,0.0,0.818706715608,-0.574069750794,-0.0119992476355,0.0,-0.00860709108078,0.00862556072296,-0.999925756087,0.0,0.658801759171,0.257073684735,0.303390445169,1.0,-0.01088,-0.0142994285714,0.545
0.462751814001,0.530836274387,-0.124037065862,-1.38241789673,0.0780600364668,1.90382034186,0.15589027114,-0.00644927833598,-0.0581700370781,-0.00185412272753,-0.100146771103,-0.00829985270268,0.0316234401123,-0.0129150470432,0.5741463888,0.81873824364,0.0020879489304,0.0,0.818695195574,-0.574085520132,-0.0120307613978,0.0,-0.00865154977794,0.00861697787254,-0.99992544641,0.0,0.65861755124,0.256838269869,0.303378100831,1.0,-0.0112,-0.01472,0.561
0.462627217844,0.529929516492,-0.124036726572,-1.38387141551,0.0779641490772,1.90434618373,0.155701983144,-0.00802944151076,-0.0585977884792,2.19188360526e-05,-0.096317526719,-0.001362677604,0.0266176194484,-0.00429238417578,0.574150530853,0.818735403645,0.00206243565394,0.0,0.818692062259,-0.574089809448,-0.012039301612,0.0,-0.00867314615824,0.00860103670702,-0.999925396569,0.0,0.65842206274,0.256584421967,0.303368859613,1.0,-0.01154,-0.0151668571429,0.578
0.462476322132,0.528810545886,-0.124045635507,-1.38563382859,0.0778494151118,1.90500384864,0.155455689968,-0.00728624334992,-0.0582696718333,0.00099209414047,-0.102626857943,-0.00453911038821,0.0347955420728,-0.0124156711167,0.574141631418,0.8187416388,0.00206467175797,0.0,0.818698414026,-0.57408098836,-0.012027991366,0.0,-0.00866269534274,0.00859627958431,-0.99992552807,0.0,0.658226694151,0.256327613868,0.303375598506,1.0,-0.01188,-0.0156137142857,0.595
0.462341628313,0.527700072664,-0.124042938771,-1.38735432157,0.0777508533792,1.90567284036,0.155209029452,-0.00840468942646,-0.0649739332551,-0.00120562132962,-0.0986560854919,-0.00497923310518,0.0395071821418,-0.0106353692807,0.574114898585,0.81876025008,0.00211731268292,0.0,0.818717672521,-0.574053997463,-0.0120053155126,0.0,-0.00861418917173,0.0086260778885,-0.999925690502,0.0,0.658025941785,0.25608032518,0.303396397236,1.0,-0.01222,-0.0160605714286,0.612
0.462206769906,0.526613610394,-0.124041067377,-1.38902947228,0.0776417069265,1.9063080465,0.154984784725,-0.00901366724094,-0.06243131051,0.000167988100164,-0.107530543241,-0.00552885854561,0.0460877992502,-0.00873626505032,0.57410153116,0.818769531412,0.00215249908756,0.0,0.818727474671,-0.57404054738,-0.0119799450674,0.0,-0.0085733573184,0.00864018129885,-0.999925919662,0.0,0.657828746363,0.255833562586,0.303418671436,1.0,-0.01254,-0.0164811428571,0.628
0.462052958059,0.525433556603,-0.124046504836,-1.39086239358,0.07752665999,1.90696868193,0.154732786355,-0.0112836256536,-0.0742311251239,0.000886327448219,-0.108490169195,-0.00575581974885,0.0340642008751,-0.00856485224635,0.574092629407,0.818775763089,0.00215627940642,0.0,0.818733765844,-0.574031641401,-0.0119767373995,0.0,-0.00856865466978,0.00864134179665,-0.999925949943,0.0,0.657608377828,0.255553401669,0.303433863269,1.0,-0.01288,-0.016928,0.645
0.46189468438,0.524248075009,-0.124059802418,-1.3927284152,0.077404650038,1.90763964745,0.154483582676,-0.0094367432218,-0.0668652218701,0.00125713362615,-0.109114115089,-0.0115006520365,0.0444188893862,-0.0140968007554,0.574091376741,0.818776687581,0.00213867418541,0.0,0.818734517345,-0.574030518736,-0.0119791722839,0.0,-0.00858076795692,0.0086283120074,-0.999925958586,0.0,0.657370877055,0.25524856384,0.303435089851,1.0,-0.01324,-0.0174011428571,0.663
0.461739865138,0.523059493613,-0.124061611439,-1.39465107295,0.0772965579089,1.90835830749,0.15422378027,-0.00799165145721,-0.0705998103451,-0.00129427649626,-0.117774447238,-0.00854187430798,0.0459593745219,-0.0181678004521,0.574084383829,0.818781614223,0.0021296373449,0.0,0.818739259405,-0.574023497218,-0.0119915241915,0.0,-0.00859614316042,0.00862793059363,-0.999925829818,0.0,0.657153330543,0.254977346524,0.303420782991,1.0,-0.01356,-0.0178217142857,0.679
0.46158176182,0.521817636723,-0.124059528213,-1.3966072634,0.0771788880679,1.9091262687,0.153955277593,-0.00812217553728,-0.0742520480455,0.000559521977961,-0.116433950878,-0.00737897591448,0.0437863737803,-0.0151016008773,0.574065784076,0.818794538816,0.00217385842905,0.0,0.818752774279,-0.574004730523,-0.0119670735196,0.0,-0.00855093405366,0.00864990660029,-0.999926027585,0.0,0.65692470249,0.254691844985,0.303428876533,1.0,-0.0139,-0.0182685714286,0.696
0.46141206177,0.520558208726,-0.124059870246,-1.39862136677,0.0770439990638,1.90987902851,0.153690961668,-0.012542746706,-0.0724685347214,0.00131354795013,-0.122300335022,-0.0115316477365,0.0398653141779,-0.0115409393222,0.574059675536,0.818798848686,0.00216361165461,0.0,0.818757038259,-0.573998753533,-0.0119620293038,0.0,-0.00855275009594,0.00863855725014,-0.999926110167,0.0,0.65668359626,0.254386948355,0.303420146187,1.0,-0.01424,-0.0187154285714,0.713
0.461254046299,0.519305423111,-0.124065256498,-1.40056731958,0.0769215129143,1.91056988487,0.153418829669,-0.0095685756171,-0.0793693810719,-0.000322323439738,-0.11799238056,-0.00696900648072,0.0437426272483,-0.0178128160843,0.574040339539,0.818812416192,0.00215929902932,0.0,0.818770538778,-0.573979426852,-0.0119653366313,0.0,-0.00855813774907,0.00863672261584,-0.999926079918,0.0,0.656442857594,0.254092660844,0.303433600098,1.0,-0.01456,-0.019136,0.729
0.461066553343,0.517881199632,-0.124062792093,-1.40278544244,0.0767797455264,1.91137296986,0.153123534428,-0.00892811229433,-0.0761130992969,-0.00127188628179,-0.129232706403,-0.00960720115933,0.0447625402496,-0.0185243656235,0.574029602866,0.818819929773,0.00216437994117,0.0,0.818778107024,-0.573968658938,-0.0119639841568,0.0,-0.00855422711023,0.00863999433203,-0.999926085117,0.0,0.656170703754,0.253758095759,0.303446927729,1.0,-0.01492,-0.0196091428571,0.747
0.460879878544,0.516543026522,-0.124071638745,-1.40492384408,0.0766380876159,1.91215846951,0.152834330162,-0.0110037399523,-0.0749980673464,-3.81545926294e-05,-0.126776432488,-0.00492947504593,0.0436762025777,-0.0158459798379,0.57402678786,0.818821960874,0.00214245432477,0.0,0.818779947325,-0.573966030416,-0.0119641417685,0.0,-0.00856697095969,0.00862210251027,-0.99992613045,0.0,0.655913172246,0.253424685484,0.303436260878,1.0,-0.01526,-0.020056,0.764
0.460704596704,0.515234791395,-0.124080805167,-1.40697422086,0.0765121016628,1.91293050252,0.152547946177,-0.013371120049,-0.0802325403652,-0.0010897996671,-0.127825530716,-0.00589535894227,0.0453114114438,-0.0173843334609,0.574016616311,0.818829034309,0.00216417931734,0.0,0.818787341847,-0.573955809104,-0.0119484278219,0.0,-0.00854174077875,0.00863076490804,-0.999926271563,0.0,0.655668613805,0.253110251972,0.303444932326,1.0,-0.01558,-0.0204765714286,0.78
0.460516716286,0.513840416112,-0.124078731885,-1.4092178122,0.0763805277023,1.91372683222,0.152244436937,-0.012553117732,-0.0803399698852,0.000341325458588,-0.128684872512,-0.00298776753397,0.0417498019996,-0.0189657905278,0.574002882921,0.818838770523,0.00212254288689,0.0,0.818796380183,-0.573942093332,-0.011987835542,0.0,-0.00859805334793,0.00861914853898,-0.999925889132,0.0,0.655385422779,0.252773165727,0.303423415566,1.0,-0.01592,-0.0209234285714,0.797
0.460321632964,0.512447369746,-0.12408200705,-1.41150267221,0.0762413227851,1.91452248935,0.151922051747,-0.0187621047809,-0.0747442888052,-0.000300967290388,-0.132733753681,-0.00656206145963,0.0532731734178,-0.019489431926,0.57398302753,0.818852898023,0.00204019801267,0.0,0.818809314048,-0.573922469386,-0.0120438060535,0.0,-0.00869135734423,0.00858363865848,-0.999925387944,0.0,0.655094794163,0.252422143207,0.30338102942,1.0,-0.01626,-0.0213702857143,0.814
0.460148493691,0.511159204791,-0.124089990769,-1.41353629546,0.0761209495922,1.91529663619,0.151626761371,-0.0125589869192,-0.0913651767537,0.00022067887531,-0.136239184575,-0.0086463871996,0.0505704921962,-0.0189279492804,0.573964190108,0.818866046315,0.00206241774619,0.0,0.818822739851,-0.573903527192,-0.0120336644564,0.0,-0.00867049735097,0.00859581251945,-0.999925464464,0.0,0.65483243057,0.252094658819,0.303381599298,1.0,-0.01658,-0.0217908571429,0.83
0.459935799897,0.509594104477,-0.124094012346,-1.41602516688,0.0759671497813,1.91622643314,0.151282971965,-0.0133914784583,-0.0896894363585,-7.07069544017e-05,-0.142525364018,-0.012498570435,0.0482582513399,-0.0222282921616,0.573946623792,0.818878351764,0.00206517572796,0.0,0.818835087266,-0.57388595729,-0.0120314084209,0.0,-0.00866725141891,0.00859659010104,-0.99992548592,0.0,0.654546345531,0.251734611972,0.303374258467,1.0,-0.01692,-0.0222377142857,0.847
0.459727390962,0.508097885679,-0.124092227049,-1.41839492951,0.075812619463,1.91706541408,0.15095785915,-0.00898074833606,-0.0907827571464,0.00152862189573,-0.143645379038,-0.00617950839026,0.0530737844384,-0.0181139325593,0.573930838689,0.818889498922,0.00203171305581,0.0,0.818845768967,-0.573870288743,-0.0120517734566,0.0,-0.00870329853444,0.00858070929237,-0.999925309222,0.0,0.654247119893,0.251369803639,0.303365804869,1.0,-0.01726,-0.0226845714286,0.864
0.459525678717,0.506661946659,-0.124106053191,-1.42065260414,0.075665729568,1.91789854731,0.150640218561,-0.00898130340324,-0.090116671267,-0.00107734386878,-0.140906133415,-0.0131724018484,0.0465268125319,-0.0143212086406,0.573922942169,0.81889503001,0.00203302208121,0.0,0.818851414191,-0.573862483317,-0.0120398762353,0.0,-0.00869288707591,0.00857486929143,-0.999925449887,0.0,0.65397247218,0.251013626489,0.303368025949,1.0,-0.01758,-0.0231051428571,0.88
0.459308703423,0.50506919692,-0.12411524745,-1.42311103051,0.0755211279098,1.91884480614,0.150301905424,-0.0155335565677,-0.085676680041,-0.00128658950656,-0.139797014476,-0.0133371510813,0.0601361636779,-0.0239397408343,0.573918317427,0.81889809893,0.00210128351076,0.0,0.818855378894,-0.573857574973,-0.0120041244094,0.0,-0.00862448324641,0.00861019996164,-0.999925738615,0.0,0.65367816418,0.250636452847,0.303393447174,1.0,-0.01792,-0.023552,0.897
0.459065896109,0.503305001314,-0.124109977157,-1.42573933038,0.0753509420491,1.91983787215,0.149931681681,-0.0117515368036,-0.0982281259103,0.000371627406128,-0.146456212428,-0.0145958707024,0.0495033414464,-0.0230317491559,0.573899275873,0.818911162392,0.00220820362522,0.0,0.818869894878,-0.573838152973,-0.0119422089912,0.0,-0.00851262065119,0.00866202333365,-0.999926249601,0.0,0.653360406983,0.250232157888,0.303460628784,1.0,-0.01828,-0.0240251428571,0.915
0.458835362811,0.501617737421,-0.124117045335,-1.42826149203,0.0751847041688,1.92075661813,0.149588678314,-0.0170471975668,-0.0964863951406,0.00142731249898,-0.148713689697,-0.00881991649265,0.0467748902957,-0.0210107454063,0.57389616885,0.818913160407,0.00227376175972,0.0,0.818872830593,-0.573834868272,-0.0118986626681,0.0,-0.00843937015427,0.00869068597055,-0.999926621812,0.0,0.653049615131,0.249836007965,0.303517863564,1.0,-0.01862,-0.024472,0.932
0.458600449795,0.499887289951,-0.124117772566,-1.43086419268,0.0750186089119,1.92167854231,0.149221658431,-0.009720548168,-0.103112196411,0.00089289611015,-0.15373366614,-0.0153854715329,0.0545205430865,-0.0213737809058,0.573876012261,0.818927168163,0.00231574971203,0.0,0.818887347298,-0.573814509018,-0.0118814383666,0.0,-0.00840138364393,0.00871497839879,-0.999926730268,0.0,0.652719696853,0.24943210573,0.303566324103,1.0,-0.01896,-0.0249188571429,0.949
0.458345813864,0.498216886248,-0.124123462393,-1.43349173365,0.0748562079897,1.92266286804,0.148838291847,-0.0117726354612,-0.0970041564984,-0.000107759009524,-0.153522085887,-0.00679642982561,0.0640014861901,-0.0291792874311,0.573864546604,0.818935144934,0.0023361173697,0.0,0.818895588062,-0.573802963664,-0.0118710422857,0.0,-0.00838130403059,0.00872557450057,-0.999926806368,0.0,0.65239933417,0.249013540798,0.303566139079,1.0,-0.0193,-0.0253657142857,0.966
0.458100803334,0.496632717103,-0.124123705328,-1.43601225854,0.0747055837124,1.92355642435,0.14847290732,-0.01316222003,-0.105851822275,-0.000264286448855,-0.157748792696,-0.011882260867,0.0598350944976,-0.0186877705623,0.57385305574,0.818943290607,0.00230306067878,0.0,0.818903148814,-0.573791444335,-0.0119062241234,0.0,-0.00842920813744,0.00871857459689,-0.99992646475,0.0,0.65207898886,0.248611947938,0.30354815902,1.0,-0.01962,-0.0257862857143,0.982
0.457827128093,0.494971131083,-0.124123828787,-1.43873743916,0.0745331802313,1.92449991952,0.148073398698,-0.0136058259683,-0.0979880930352,0.000929568365639,-0.159885721101,-0.0072763052453,0.0598838226189,-0.0256413564163,0.573840740161,0.818952205902,0.0021991544012,0.0,0.818910572334,-0.573779409567,-0.0119754155343,0.0,-0.00854562798438,0.00867305908656,-0.999925872397,0.0,0.651728143247,0.248168583971,0.303490535523,1.0,-0.01996,-0.0262331428571,0.999
0.457496288098,0.492679288122,-0.124189315066,-1.44220885917,0.0743363030367,1.92574202448,0.147582106082,-0.0159888358536,-0.166050761927,-0.00441684119211,-0.235475949758,-0.0104075148292,0.0838210917539,-0.0382076086096,0.573877726435,0.81892614891,0.00225047428338,0.0,0.81888521662,-0.573816214508,-0.0119457469755,0.0,-0.00849148941985,0.00869844570795,-0.999926113095,0.0,0.651301076416,0.24758584382,0.30354337969,1.0,-0.0353491428571,-0.0464588734694,1.017
0.457135532406,0.489472405044,-0.124254509561,-1.44717873711,0.0740781452576,1.92769197575,0.146833257574,-0.0240892843453,-0.226224393417,-0.00384309740498,-0.359571424324,-0.0178277596205,0.13880044688,-0.0518129917002,0.573787255685,0.818989065072,0.0024173139461,0.0,0.818950246031,-0.573725032051,-0.0118671405439,0.0,-0.00833234524138,0.00878904307271,-0.999926659683,0.0,0.650682885031,0.246856163976,0.303579531687,1.0,-0.0507182857143,-0.0666583183673,1.033
0.456506582417,0.485063994023,-0.124301505159,-1.4541144659,0.0737045729029,1.93036447272,0.14576603562,-0.047751662229,-0.300542621833,-0.00445337903581,-0.476827561504,-0.0317577832618,0.178079949163,-0.0763179260668,0.573707129001,0.819044776165,0.00255571356416,0.0,0.819007497776,-0.57364410948,-0.0118279815005,0.0,-0.00822173472283,0.00887911683026,-0.999926779501,0.0,0.649823404617,0.245776385605,0.303574066578,1.0,-0.0660874285714,-0.0868577632653,1.049
0.455597680425,0.479045928033,-0.124477597682,-1.46375880969,0.073125610992,1.93368561111,0.144299108669,-0.0616408878321,-0.387314832616,-0.0106221390709,-0.613646975769,-0.0410548885383,0.209246673625,-0.0873174603583,0.573693002184,0.819055494253,0.00227672582486,0.0,0.819014513086,-0.573631005812,-0.0119767870049,0.0,-0.0085038163998,0.0087358385782,-0.999925682354,0.0,0.648568440417,0.24415234342,0.303450695357,1.0,-0.0824171428571,-0.108319673469,1.066
0.454580859898,0.472529249159,-0.124634078245,-1.47403648491,0.0725161154119,1.93722420186,0.142822919973,-0.0720561506861,-0.456393328613,-0.00408762570195,-0.722182436015,-0.031747335461,0.244380596412,-0.100781027042,0.573757743561,0.819010676905,0.00207598646502,0.0,0.818966675051,-0.573696183692,-0.0121252165052,0.0,-0.00873986453468,0.00865726727417,-0.999924330383,0.0,0.647122361749,0.242298920088,0.303371275572,1.0,-0.0977862857143,-0.128519118367,1.082
0.453137190092,0.463333088369,-0.12477180252,-1.48803441033,0.0716736660101,1.94243299812,0.140574594756,-0.0870897652962,-0.531432452114,-0.00825222047738,-0.795768195705,-0.0507007715906,0.300682795401,-0.139510509113,0.573640036486,0.81909216472,0.00242510513487,0.0,0.819052891883,-0.573577215858,-0.0119283128474,0.0,-0.0083795638728,0.00882901717679,-0.999925912938,0.0,0.645438371125,0.240082410005,0.303519502665,1.0,-0.114116,-0.149981028571,1.099
0.451453911452,0.453484587864,-0.124920858975,-1.50344662895,0.0707035389953,1.94779087325,0.138195260591,-0.10207432713,-0.606631540601,-0.0140193537966,-0.938827469264,-0.0615813210819,0.32310948276,-0.149485309263,0.573629393699,0.819100147473,0.00223919517835,0.0,0.819058054176,-0.573566924811,-0.0120678727785,0.0,-0.00860063366892,0.00875668598422,-0.999924671938,0.0,0.643377599385,0.237428415064,0.303427825386,1.0,-0.130445714286,-0.171442938775,1.116
0.449590519678,0.442874196754,-0.125091867786,-1.51947531238,0.0696014042562,1.95354761627,0.135689822215,-0.121218712537,-0.667891522253,-0.00903222356576,-1.0485515907,-0.0613398589851,0.360333312546,-0.170687644495,0.57365094828,0.819084405174,0.00246447537533,0.0,0.819046073527,-0.573588426268,-0.0118572168906,0.0,-0.00829862666605,0.00882059241648,-0.999926662283,0.0,0.641271170685,0.234595912851,0.303574567187,1.0,-0.145814857143,-0.191642383673,1.132
0.44732823116,0.430443088498,-0.125254943614,-1.53835576209,0.0683646409998,1.96005456104,0.132623847411,-0.137488035411,-0.753775733229,-0.00996348647711,-1.1461049268,-0.0723007978577,0.395087806204,-0.18006377001,0.573602462154,0.81911824404,0.00250291681463,0.0,0.819080063312,-0.573539425984,-0.0118795466071,0.0,-0.00829539159564,0.0088643971132,-0.999926301755,0.0,0.638678344168,0.231241271812,0.303642484212,1.0,-0.162144571429,-0.213104293878,1.149
0.444540264655,0.416076505539,-0.125446633633,-1.55995965761,0.0668477097857,1.96753627968,0.129046464011,-0.164764236653,-0.835736617893,-0.0114676771288,-1.21870766183,-0.0897042942512,0.436687924977,-0.195367357126,0.573592764357,0.819124568412,0.00265122656989,0.0,0.819088743025,-0.573529637105,-0.0117530129371,0.0,-0.00810678071775,0.00891320462549,-0.999927414811,0.0,0.635695754431,0.227277526637,0.303772991756,1.0,-0.179434857143,-0.235828669388,1.167
0.441931301633,0.403229551162,-0.125596813385,-1.57937011677,0.0654953857399,1.97426787541,0.12578317236,-0.181214129895,-0.854486773316,-0.00916973129277,-1.32387815815,-0.0763039161726,0.438803576047,-0.230497357215,0.573586080031,0.819128793887,0.00278831860503,0.0,0.819094657457,-0.573522364586,-0.0116955695458,0.0,-0.00798116835856,0.00899248589542,-0.999927715462,0.0,0.632777118964,0.223436378411,0.303824757342,1.0,-0.194804,-0.256028114286,1.183
0.438402250769,0.386601523174,-0.12581164963,-1.60400095881,0.0637499968817,1.98272208609,0.121523821004,-0.201022494074,-0.931485961881,-0.00880031476776,-1.41418077808,-0.110967078825,0.476737808928,-0.243234666203,0.57362525301,0.819100254478,0.0030966310698,0.0,0.819070439443,-0.573560895228,-0.0115005042473,0.0,-0.00764410663971,0.00913351447816,-0.999929070758,0.0,0.629441178331,0.21898567428,0.303999832618,1.0,-0.211133714286,-0.27749002449,1.2
0.434705719449,0.369861348956,-0.12601784856,-1.62874063431,0.0619039138872,1.99095743783,0.117038481474,-0.233280315235,-1.00914746529,-0.0154775856235,-1.50858350863,-0.110099105698,0.495842695041,-0.271705946279,0.57353208022,0.819164967861,0.00323346405302,0.0,0.819137139452,-0.573467587085,-0.0114026415776,0.0,-0.0074865018314,0.0091886081481,-0.999929758418,0.0,0.625776867359,0.214182470836,0.304126889951,1.0,-0.227463428571,-0.298951934694,1.217
0.430800088983,0.353373070768,-0.126210610749,-1.65315539126,0.0600120767719,1.99894148224,0.112611654107,-0.252865203938,-1.03669552164,-0.0130461818793,-1.55350092054,-0.122228048375,0.486810217458,-0.285888280007,0.573570327777,0.819138302496,0.0032042750351,0.0,0.819110323705,-0.573506191994,-0.0113873721901,0.0,-0.0074903053638,0.00915628984779,-0.999930026393,0.0,0.622075923708,0.209303741352,0.304149043656,1.0,-0.242832571429,-0.319151379592,1.233
0.426169578251,0.334906352723,-0.126474566826,-1.68029879356,0.0579670527142,2.00774142597,0.107437762972,-0.276284668007,-1.09621644168,-0.015184646863,-1.66852508424,-0.121165023515,0.523272985024,-0.309812958739,0.573643740169,0.819086622853,0.0032726943529,0.0,0.819059158535,-0.5735789428,-0.0114034248097,0.0,-0.00746338784266,0.00922221109756,-0.999929621856,0.0,0.617886065914,0.203723206349,0.304174717508,1.0,-0.259162285714,-0.340613289796,1.25
0.421185694973,0.315527814451,-0.126671936686,-1.70854177523,0.055656799941,2.01669783147,0.101900910195,-0.306761111707,-1.15149654028,-0.0149406267276,-1.69553247047,-0.145612787923,0.527122334294,-0.33544530632,0.573541044478,0.819158586892,0.00325986525621,0.0,0.819131129231,-0.573476510406,-0.0113856066365,0.0,-0.00745730486797,0.00920054696981,-0.99992986681,0.0,0.613369521109,0.197880541469,0.304193483722,1.0,-0.275492,-0.3620752,1.267
0.416020099848,0.296551482932,-0.126868973407,-1.73604649957,0.0533533428809,2.02521672258,0.096220674808,-0.337985533167,-1.20097310224,-0.01451456277,-1.77461771684,-0.147481698312,0.515975197964,-0.365334119914,0.573378981525,0.819272383817,0.00317041966824,0.0,0.819243731049,-0.57331468205,-0.0114337825286,0.0,-0.0075498794828,0.00915341325083,-0.999929604695,0.0,0.608852738379,0.192039780658,0.304166125753,1.0,-0.290861142857,-0.382274644898,1.283
0.409979732006,0.27554275381,-0.127126265955,-1.76602924773,0.0508713053018,2.03429279009,0.0898877617809,-0.368901194078,-1.2315152964,-0.0156818020351,-1.77149293365,-0.151492634142,0.518872176304,-0.387895662498,0.573370802672,0.819277830113,0.00324139330905,0.0,0.819249386821,-0.573305428104,-0.0114923975547,0.0,-0.00755730365419,0.00924509268811,-0.99992870517,0.0,0.603522563097,0.185084244628,0.304228399135,1.0,-0.308151428571,-0.404999020408,1.301
0.402879230269,0.252355530454,-0.127506118776,-1.79857425069,0.047990111749,2.04407229574,0.082679273786,-0.41529115616,-1.31155896063,-0.0242839884815,-1.81104690597,-0.164178836407,0.559730106048,-0.398320966568,0.573496968594,0.819188632599,0.00345805368962,0.0,0.819163655356,-0.573431792518,-0.011297432165,0.0,-0.00727191008811,0.00931193428395,-0.999930201166,0.0,0.59827077311,0.178029039126,0.304363183644,1.0,-0.324481142857,-0.426460930612,1.318
0.396481550916,0.232444961216,-0.12781056846,-1.82632361187,0.0454720387516,2.05220271149,0.0762261259119,-0.431767291628,-1.34590229757,-0.0171471244795,-1.87130375394,-0.167142374515,0.57455658358,-0.449183440629,0.573499891843,0.819185958749,0.003603601816,0.0,0.819163066489,-0.57343461144,-0.0111965978726,0.0,-0.00710580256457,0.00937336564928,-0.9999308214,0.0,0.593056174326,0.171122229375,0.304418869449,1.0,-0.339850285714,-0.44666037551,1.334
0.388240250533,0.20774480541,-0.128104669427,-1.86039883222,0.0423239900124,2.06181534121,0.0679347259864,-0.470891177626,-1.38813757394,-0.0179575636488,-1.90294539645,-0.182648153902,0.530520685887,-0.470050952424,0.573346233107,0.819292859789,0.00374883733837,0.0,0.819271526983,-0.573280203743,-0.0111678096795,0.0,-0.00700070728209,0.00947451971629,-0.999930609379,0.0,0.587191910328,0.16354198809,0.304508245741,1.0,-0.35618,-0.468122285714,1.351
0.379642617591,0.183732087079,-0.1285030667,-1.89331210791,0.0391177055369,2.07062877935,0.0595325870437,-0.516429294163,-1.42426141204,-0.0291725297364,-1.95100191894,-0.187259906475,0.507234208155,-0.512342964822,0.573317579659,0.819313643419,0.00358517266816,0.0,0.819289875218,-0.573251532353,-0.0112928261229,0.0,-0.00719729935978,0.00941185261554,-0.999929805493,0.0,0.581010534338,0.155454654652,0.304462680405,1.0,-0.372509714286,-0.489584195918,1.368
0.370751946523,0.160428176729,-0.128981869417,-1.92461981384,0.0359963673042,2.07877229726,0.0510949631438,-0.557184308423,-1.48918624373,-0.025941882354,-1.94592967906,-0.208206944512,0.500788342223,-0.54223399852,0.57346612887,0.819209494465,0.0036263092361,0.0,0.819186082678,-0.573399724461,-0.0112988865006,0.0,-0.00717696856029,0.00945033270796,-0.999929588688,0.0,0.575013175275,0.147421939734,0.304520716539,1.0,-0.387878857143,-0.509783640816,1.384
0.360051717062,0.133488401474,-0.12947188789,-1.96036496055,0.0322428994283,2.08786063533,0.040985682521,-0.620077504919,-1.51826932706,-0.0324826911382,-2.00621418852,-0.207219015244,0.513810018001,-0.582938378226,0.573459433202,0.819213683653,0.00373709632158,0.0,0.819192056839,-0.573393223996,-0.0111951591344,0.0,-0.0070285371665,0.00948155178338,-0.999930347495,0.0,0.567955892046,0.138129110695,0.30456979815,1.0,-0.405169142857,-0.532508016326,1.402
0.349019414678,0.107372734509,-0.130074814242,-1.99453112179,0.0285137541021,2.09598349994,0.0307254237364,-0.666588671308,-1.54103824704,-0.0398007083322,-2.04769793423,-0.236044997182,0.466576886176,-0.624795026686,0.573555618664,0.819146563155,0.00368880354857,0.0,0.819124335053,-0.573489543543,-0.0112166872104,0.0,-0.00707275668762,0.00945516476743,-0.999930285556,0.0,0.560980073526,0.128885294348,0.304579913357,1.0,-0.421498857143,-0.553969926531,1.419
0.338594970148,0.0838540947349,-0.130528928237,-2.0248532588,0.0251248426467,2.10280668218,0.0210209623625,-0.703897925525,-1.58019900175,-0.030077092973,-2.05363055336,-0.221386011714,0.442444962656,-0.658064339451,0.573472256881,0.819205104182,0.00364894119023,0.0,0.819181876889,-0.573405650235,-0.011303086117,0.0,-0.00716736033809,0.00947133515066,-0.99992945889,0.0,0.554576493886,0.120538957551,0.304578122438,1.0,-0.42998,-0.565116571429,1.434
0.325213272571,0.0557525391288,-0.131115212878,-2.06044346281,0.0209375459047,2.11044076502,0.00890783244625,-0.773372903529,-1.56413086339,-0.0431763382259,-1.94602135257,-0.243458772457,0.399502431639,-0.673325701391,0.573556330268,0.819146174737,0.00366433129717,0.0,0.819123217815,-0.573489766993,-0.011286633372,0.0,-0.00714408359632,0.00947524128897,-0.999929588457,0.0,0.54687956465,0.110291943697,0.304607853516,1.0,-0.42998,-0.565116571429,1.452
0.312713819224,0.0309434516506,-0.131595652833,-2.09134609394,0.0172485421398,2.11651917323,-0.0021320395439,-0.783207510677,-1.58040120339,-0.0265249076192,-1.91137232715,-0.239445967097,0.374456653774,-0.702704882568,0.57375880677,0.819004290874,0.00368104391853,0.0,0.818980867256,-0.573691266766,-0.0113761331526,0.0,-0.00720545784426,0.00954204483802,-0.999928512824,0.0,0.539520604275,0.100579279713,0.304649715848,1.0,-0.42998,-0.565116571429,1.469
0.298937585907,0.00490662679047,-0.132077436101,-2.1229483708,0.0132015349139,2.12241467963,-0.0143516452097,-0.83689372268,-1.53699818735,-0.0333647980034,-1.84665394955,-0.238326118407,0.328632754754,-0.721858897577,0.573805555117,0.818971052852,0.00378766519788,0.0,0.818949519605,-0.573738417986,-0.0112542866039,0.0,-0.00704394152827,0.00955986282338,-0.99992949347,0.0,0.532677038958,0.0914806033266,0.304757051783,1.0,-0.42998,-0.565116571429,1.485
0.283792821027,-0.0222289838287,-0.132529359482,-2.15541513216,0.00902402664063,2.12803926869,-0.0277915209086,-0.847079755479,-1.49370539911,-0.0254012051452,-1.79029698708,-0.248568885835,0.287704263288,-0.767592613821,0.573773453406,0.818992602025,0.00398608769245,0.0,0.818973577002,-0.573705771464,-0.0111675808237,0.0,-0.00685945662823,0.00967234813383,-0.999929694297,0.0,0.524956182392,0.0813241338812,0.304851369811,1.0,-0.42998,-0.565116571429,1.503
0.269695622883,-0.0459238185131,-0.133034499422,-2.18331925953,0.00531362482504,2.13236182516,-0.0401035017684,-0.897188272202,-1.47366041699,-0.0489083008407,-1.72426740287,-0.22097844736,0.246336498513,-0.774992411693,0.573957395571,0.818863320361,0.00406417733018,0.0,0.818844960978,-0.573889022013,-0.0111833445283,0.0,-0.00682537528947,0.00974688208424,-0.999929203765,0.0,0.518106059996,0.0721988517518,0.304898078047,1.0,-0.42998,-0.565116571429,1.519
0.255175686117,-0.069308888528,-0.133427173528,-2.21048457952,0.00155722088445,2.13614498898,-0.0528840173075,-0.916589469333,-1.44332472894,-0.0270594224485,-1.70339314751,-0.237174525142,0.199985881234,-0.823525754961,0.573908968853,0.818897363579,0.00404354972846,0.0,0.818878411503,-0.573840186487,-0.0112398598078,0.0,-0.00688407277313,0.00976201987998,-0.99992865371,0.0,0.51120956986,0.063178231312,0.304900162884,1.0,-0.42998,-0.565116571429,1.535
0.239152335597,-0.0938399953896,-0.133970794334,-2.23840419828,-0.00238321996318,2.13958740959,-0.066984111852,-0.955123233385,-1.4141755451,-0.026388928754,-1.61178928664,-0.223148972541,0.169856095617,-0.834270757635,0.573960945591,0.81886065016,0.0041006655247,0.0,0.81884194598,-0.573891318802,-0.0112857701814,0.0,-0.00688826938288,0.00983557762844,-0.99992790398,0.0,0.503907743923,0.0535369107143,0.304933000668,1.0,-0.42998,-0.565116571429,1.552
0.221636446232,-0.119330336148,-0.134422047733,-2.2669966435,-0.0066188663832,2.14268330679,-0.0823795954259,-0.992507776175,-1.39032531151,-0.035025526527,-1.54054880986,-0.216606450432,0.171622358864,-0.85857853865,0.57386925679,0.818925100565,0.00406234861251,0.0,0.818905849958,-0.573799666331,-0.0113092317849,0.0,-0.00693057293342,0.00981689048821,-0.999927795303,0.0,0.496172896517,0.0434464508009,0.304913976102,1.0,-0.42998,-0.565116571429,1.57
0.205429609221,-0.141591344305,-0.134903257247,-2.2916792962,-0.0103311950987,2.14485248634,-0.0966746504959,-1.02029668531,-1.38863054517,-0.0288930586708,-1.49669655436,-0.223320513656,0.128740910983,-0.910560615787,0.573829012547,0.818954074219,0.00390327812368,0.0,0.818931694927,-0.573758375263,-0.0115305143256,0.0,-0.00720356186128,0.00981325075473,-0.999925901658,0.0,0.489251667471,0.0344196875059,0.304811586705,1.0,-0.42998,-0.565116571429,1.586
0.187595845413,-0.164874731991,-0.135469218293,-2.31705377997,-0.0142485878838,2.14665527574,-0.112434916143,-1.05982129741,-1.34196719188,-0.029832258837,-1.445523481,-0.216279299234,0.097363276597,-0.918535404509,0.573812621515,0.818966303337,0.00374383361717,0.0,0.818940506962,-0.573740686324,-0.0117820972237,0.0,-0.007501295363,0.00982688229321,-0.999923578556,0.0,0.481899537353,0.0248136048258,0.304694185964,1.0,-0.42998,-0.565116571429,1.603
0.169204132211,-0.187907280958,-0.135989153632,-2.34163861152,-0.0181787477686,2.14787296665,-0.128774847023,-1.10157548933,-1.31971509128,-0.0370714435938,-1.40716007499,-0.231609661891,0.0549721257037,-0.977416305226,0.57367300366,0.819064968399,0.00355095951943,0.0,0.819035230702,-0.573599945146,-0.0120474353961,0.0,-0.00783095287654,0.00981983846161,-0.999921120364,0.0,0.474501965184,0.0152753296859,0.304592155652,1.0,-0.42998,-0.565116571429,1.62
0.150076309783,-0.210681404179,-0.136628571164,-2.36531122453,-0.0219809441415,2.14868763321,-0.145794735257,-1.12904258319,-1.32782195192,-0.0372432197315,-1.37665323126,-0.213471712584,0.0255303438714,-1.01306810497,0.573679854894,0.819059891179,0.00361464423988,0.0,0.819029756001,-0.573605004119,-0.0121780513856,0.0,-0.00790132754358,0.00994699545207,-0.999919309897,0.0,0.467142661448,0.00566862981132,0.304576263905,1.0,-0.42998,-0.565116571429,1.637
0.13022081634,-0.233037881787,-0.137330351589,-2.3880064013,-0.0259242981348,2.14906034286,-0.163349419979,-1.18414454894,-1.3208516373,-0.037852046539,-1.33079942017,-0.231221934151,0.0242043791768,-1.05161511126,0.57378505681,0.818986069499,0.00364327458638,0.0,0.818956697755,-0.573710569814,-0.0121184234985,0.0,-0.00783478573451,0.00993724576258,-0.999919930434,0.0,0.45982426005,-0.00400664664545,0.30460537316,1.0,-0.42998,-0.565116571429,1.654
0.11092100723,-0.253641581205,-0.138043493179,-2.40841640174,-0.029330283551,2.1490186,-0.180559213867,-1.21977140929,-1.25076362026,-0.046490655929,-1.2695443177,-0.218195841407,-0.0238878104738,-1.0963541864,0.573968346516,0.818856314084,0.00392695603169,0.0,0.818830090353,-0.573892024132,-0.0120819978296,0.0,-0.00763991855592,0.0101503895056,-0.999919297362,0.0,0.452987546218,-0.0130927034226,0.30468387812,1.0,-0.42998,-0.565116571429,1.67
0.0910913345378,-0.273950692441,-0.138669218452,-2.42808006615,-0.0329189647086,2.14883807524,-0.198386178468,-1.25220892972,-1.26358125381,-0.0521716045936,-1.21656665286,-0.222418004099,-0.00878983625743,-1.12592404605,0.573897162496,0.818904732771,0.00422284574863,0.0,0.818884686824,-0.57382303422,-0.0116508362678,0.0,-0.00711789584145,0.0101446009082,-0.999923208367,0.0,0.446191824181,-0.0221295068219,0.304821448344,1.0,-0.42998,-0.565116571429,1.686
0.0680691745296,-0.296045215873,-0.139371672536,-2.44919930434,-0.0367080961331,2.14791705663,-0.219186385529,-1.29450829799,-1.23166737752,-0.0406541990717,-1.13423926268,-0.216326266333,-0.0321539463972,-1.16556127292,0.573874842593,0.818919476216,0.0043935649656,0.0,0.818901526324,-0.573800027741,-0.0116002262957,0.0,-0.00697875790563,0.0102551725397,-0.999923061227,0.0,0.438500258167,-0.0322603147794,0.30488086476,1.0,-0.42998,-0.565116571429,1.704
0.0455913727088,-0.316372997065,-0.140143083143,-2.4683304023,-0.0402871827719,2.14669774128,-0.239522481324,-1.32577755509,-1.17063289702,-0.0461885019783,-1.11720387072,-0.199637229209,-0.0878433283411,-1.22834351595,0.573948257006,0.818867479004,0.00449410845559,0.0,0.818850674428,-0.573872896226,-0.0115852866373,0.0,-0.00690790042533,0.0103295576882,-0.999922787594,0.0,0.431199647782,-0.0418798021482,0.304897619297,1.0,-0.42998,-0.565116571429,1.721
0.0238202818533,-0.334940359225,-0.140821898959,-2.48544599589,-0.0435928481438,2.14530771858,-0.259398664339,-1.37284636813,-1.1484648125,-0.0390930392143,-1.06848636164,-0.205150595088,-0.0925220525025,-1.27845420717,0.573898378377,0.81890178463,0.00461143433612,0.0,0.818886983413,-0.573823421044,-0.0114689476245,0.0,-0.00674592253074,0.0103584534284,-0.999923594567,0.0,0.424365135582,-0.0509049301078,0.304935694182,1.0,-0.42998,-0.565116571429,1.737
1.63222356806e-05,-0.354073822593,-0.141588751348,-2.5027739671,-0.0470296089852,2.14336090163,-0.281205413496,-1.40674003883,-1.12251694493,-0.0312111470884,-0.986170258001,-0.206593361718,-0.113225301492,-1.31235130947,0.573891286339,0.818906587867,0.0046409818896,0.0,0.818891774885,-0.573815640856,-0.0115159991042,0.0,-0.00676758983219,0.0104095938531,-0.999922917071,0.0,0.417053437628,-0.0605009316699,0.304953562837,1.0,-0.42998,-0.565116571429,1.754
-0.0274531047251,-0.37459852822,-0.142470915493,-2.52125581088,-0.0507992452968,2.14092661542,-0.306528152909,-1.45794815335,-1.05632936093,-0.0319925561703,-0.961808998226,-0.19776424041,-0.142595711487,-1.34877603978,0.573854320558,0.818933003966,0.0045498014692,0.0,0.818915631257,-0.573776872933,-0.0117488668258,0.0,-0.00701109892876,0.010468243078,-0.999920627039,0.0,0.408812610782,-0.0712361661519,0.304859632633,1.0,-0.42998,-0.565116571429,1.773
-0.0482272477144,-0.389260314552,-0.143208560618,-2.53394958986,-0.053382806403,2.13906151869,-0.325696114158,-1.4970855749,-1.03514655234,-0.0446729312463,-0.913806728711,-0.19213783416,-0.127822535182,-1.36708251499,0.573991979172,0.818835202328,0.00478185900366,0.0,0.81882114213,-0.573914237191,-0.0116246484548,0.0,-0.00677442483568,0.0105881460792,-0.999920996045,0.0,0.402397311655,-0.0797302942004,0.304929343806,1.0,-0.42998,-0.565116571429,1.788
-0.0756193429836,-0.407229299128,-0.144070547238,-2.54950682599,-0.0567163285329,2.13630078621,-0.351207247593,-1.52550019167,-0.980163764203,-0.0424555355264,-0.846595061776,-0.194248635473,-0.159017864937,-1.43479242067,0.573989017607,0.818837444247,0.00475336384391,0.0,0.818821697614,-0.573909328817,-0.0118261031115,0.0,-0.00695579011443,0.0106804163902,-0.999918769546,0.0,0.39502174004,-0.0893266628431,0.304877162969,1.0,-0.42998,-0.565116571429,1.805
-0.102190998401,-0.423340320616,-0.144867517644,-2.56292673828,-0.0596774055106,2.13376481017,-0.376104414517,-1.57986581837,-0.910070456762,-0.0409969489651,-0.763782144677,-0.177015482663,-0.155026309765,-1.48402832239,0.573985569769,0.818838600519,0.00496577264154,0.0,0.818826823409,-0.573907111808,-0.0115761471981,0.0,-0.00662923156975,0.0107108555002,-0.999920662284,0.0,0.387795113099,-0.0989450799434,0.304979081078,1.0,-0.42998,-0.565116571429,1.822
-0.126125835924,-0.436694699375,-0.145599406403,-2.57426304182,-0.0621719287055,2.13123387368,-0.398630333221,-1.59167186674,-0.867020382143,-0.0383176155471,-0.731265870715,-0.185186058217,-0.157591015619,-1.5129240846,0.574004897332,0.818825341743,0.00491776975431,0.0,0.818810499513,-0.573922715784,-0.011951112712,0.0,-0.00696358824825,0.0108869283414,-0.999916488128,0.0,0.381272453637,-0.107377016086,0.30486682986,1.0,-0.42998,-0.565116571429,1.837
-0.157115709946,-0.45270061979,-0.146404195576,-2.58714902187,-0.0652576063854,2.12827018026,-0.42802605269,-1.64026139518,-0.786923432833,-0.0274921659355,-0.674455609525,-0.172138011366,-0.169103096157,-1.57297542452,0.573863887671,0.818923298373,0.00506129538646,0.0,0.818912219033,-0.573784280891,-0.0116242601015,0.0,-0.00661541305693,0.0108157079651,-0.999919625156,0.0,0.373212492755,-0.118074564568,0.304984088405,1.0,-0.428691428572,-0.563423020408,1.856
-0.183588202874,-0.464899222507,-0.146901404898,-2.59714830744,-0.0675156541067,2.12564652749,-0.453241970468,-1.64901542497,-0.722307348239,-0.00381674361398,-0.608420151954,-0.154956391476,-0.1584093725,-1.58729308569,0.573721236902,0.819023322986,0.00504832985548,0.0,0.819010379076,-0.573638952874,-0.0118784515769,0.0,-0.00683294178567,0.0109497652967,-0.999916703304,0.0,0.366408582434,-0.126907234856,0.304910869682,1.0,-0.413322285714,-0.54322357551,1.872
-0.211709714083,-0.476520982564,-0.147187758599,-2.60630411109,-0.0695506802539,2.12310728211,-0.479747772417,-1.62378938316,-0.65773049867,4.19858688913e-05,-0.506662202273,-0.123517219458,-0.142738538275,-1.54227790508,0.573848662594,0.818933230122,0.00517918357429,0.0,0.818922335502,-0.573766466821,-0.0117896933389,0.0,-0.00668345846501,0.0110070607836,-0.99991708456,0.0,0.359489850792,-0.136082457422,0.304968098801,1.0,-0.396992571429,-0.521761665306,1.889
-0.239365597119,-0.486812508839,-0.147295042766,-2.61439406738,-0.071232156076,2.1207192692,-0.505865712816,-1.62118239608,-0.578291761617,0.0140454823041,-0.451955329376,-0.0999671565045,-0.154630470599,-1.52623584442,0.57398821859,0.818834522505,0.00531945253267,0.0,0.818825028489,-0.573904810529,-0.0118147396209,0.0,-0.00662158476418,0.0111374366499,-0.999916052536,0.0,0.352787181484,-0.144871657846,0.304984479849,1.0,-0.380662857143,-0.500299755102,1.906
-0.268023199581,-0.496199033772,-0.147169686033,-2.62177827933,-0.07256733489,2.11846926131,-0.533070122326,-1.57722004955,-0.490170896597,0.00806084043259,-0.382424263047,-0.06552455972,-0.108319765733,-1.49613460209,0.57407562461,0.81877186225,0.00552826540201,0.0,0.818764175735,-0.573989900162,-0.0118981488649,0.0,-0.00656882746756,0.0113570015639,-0.999913930807,0.0,0.345994071407,-0.153749078853,0.304968857649,1.0,-0.363372571429,-0.477575379592,1.924
-0.289715998883,-0.502497799561,-0.14689295931,-2.62665033877,-0.0734810262909,2.11690042826,-0.553685329529,-1.53262199605,-0.431396737828,0.0381150859332,-0.33612691607,-0.0651301208744,-0.123830957467,-1.46211556049,0.574074201433,0.818772403698,0.00559545289663,0.0,0.818765600554,-0.573988244324,-0.0118799675673,0.0,-0.00651539085808,0.011401566761,-0.999913773261,0.0,0.340961277168,-0.16035309572,0.304981321489,1.0,-0.349924571429,-0.459900865306,1.938
-0.316808489483,-0.509392117837,-0.146512948494,-2.63182531238,-0.0743927157471,2.11521872703,-0.579527936649,-1.50054211333,-0.366142717162,0.0294892780226,-0.269815031194,-0.0535794083187,-0.100954008424,-1.42306148018,0.574120609201,0.818738631897,0.00577283573091,0.0,0.818735282931,-0.574036073378,-0.0116563221681,0.0,-0.0062297852523,0.0114187789265,-0.999915397053,0.0,0.334820747383,-0.168537242652,0.305058243329,1.0,-0.332634285714,-0.437176489796,1.956
-0.34297488896,-0.515041568416,-0.145926077399,-2.63621958312,-0.0750213433394,2.11363524914,-0.604507326659,-1.4414512532,-0.278842285522,0.039387423172,-0.23022453355,-0.0371745172169,-0.0898270310461,-1.35949758518,0.574137706734,0.81872603109,0.00585889265568,0.0,0.818722873435,-0.574051164384,-0.011784060651,0.0,-0.00628473405654,0.0115627056063,-0.999913399229,0.0,0.328913447685,-0.176255693691,0.305030923477,1.0,-0.315344,-0.414452114286,1.974
-0.363947973052,-0.518886607695,-0.145348149095,-2.63929762505,-0.0753929998997,2.11254263203,-0.624590386332,-1.37499083934,-0.235897386009,0.0511096138784,-0.192044767561,-0.031949716525,-0.0710802792643,-1.327125067,0.574109547513,0.818745457984,0.00590333689753,0.0,0.818741822918,-0.574020905159,-0.0119404667722,0.0,-0.00638768712931,0.0116886698316,-0.99991128229,0.0,0.324220684858,-0.182354584287,0.30497090983,1.0,-0.300935428572,-0.395515134694,1.989
-0.386750688396,-0.522363131301,-0.144616121333,-2.64201282294,-0.0756731797345,2.11154501999,-0.64640692889,-1.3251664207,-0.177855257035,0.0473446327308,-0.143486919592,-0.0200623182589,-0.0513969155573,-1.25768774482,0.574112397245,0.818743184846,0.00594133809253,0.0,0.818739694701,-0.574022960927,-0.0119874747163,0.0,-0.00640432204677,0.0117467933444,-0.999910494747,0.0,0.319212825645,-0.18894569597,0.304948631021,1.0,-0.284605714286,-0.37405322449,2.006
-0.409764962969,-0.525215244379,-0.143718662478,-2.64424065572,-0.0757817109592,2.11066842033,-0.668538050199,-1.27059960203,-0.142233394479,0.0409010061998,-0.116680468071,-0.00100631646863,-0.0451949199945,-1.21120791508,0.574018023866,0.818809122355,0.00597296632712,0.0,0.818805632875,-0.573927721878,-0.0120437757021,0.0,-0.00643362632275,0.0118042700708,-0.999909629747,0.0,0.314211441658,-0.195513017087,0.304930742581,1.0,-0.267315428572,-0.35132884898,2.024
-0.427995395503,-0.5269793649,-0.142912554808,-2.64565883685,-0.0758133255591,2.11012750384,-0.686076726567,-1.18982233578,-0.103843374254,0.0503782161352,-0.0889014593233,-0.000815005622164,-0.0392040025793,-1.15698421848,0.573915168845,0.81888143673,0.00594293280791,0.0,0.818877371704,-0.573824677855,-0.0120762617094,0.0,-0.0064789497748,0.0117975101146,-0.99990941688,0.0,0.310284738041,-0.200676066238,0.304907121025,1.0,-0.252906857143,-0.332391869388,2.039
-0.447686936919,-0.528456409389,-0.142053758511,-2.64685404145,-0.0758028612036,2.10962733118,-0.704968820655,-1.12695824238,-0.0722215836948,0.0517910400038,-0.0588130691749,0.00350135210083,-0.0241195021126,-1.08038657836,0.573895644521,0.818895396508,0.0059047166263,0.0,0.818890564667,-0.573804833734,-0.0121244704773,0.0,-0.00654064404463,0.0117937245971,-0.999909059883,0.0,0.306045041595,-0.206239535541,0.304883987595,1.0,-0.236577142857,-0.310929959184,2.056
-0.46731568755,-0.529517691217,-0.141096723239,-2.64771054908,-0.0757115672133,2.10922079557,-0.723710953557,-1.06474239773,-0.0557543005342,0.0603594934627,-0.0448370121553,0.00159316946904,-0.0278966900722,-1.00695522699,0.573933783511,0.818869134355,0.00583950738481,0.0,0.818863325345,-0.573843018651,-0.0121569424877,0.0,-0.00660411157575,0.0117592648357,-0.999909048564,0.0,0.301838910042,-0.211741030095,0.304873114875,1.0,-0.219286857143,-0.288205583674,2.074
-0.483614926921,-0.530038375495,-0.140195035992,-2.64814844775,-0.0754207804963,2.10898531835,-0.739340880982,-0.999766976133,-0.0261223648577,0.048405823786,-0.0210565587463,0.0215977515273,-0.0127814134285,-0.939177779775,0.573943665384,0.818861938064,0.00587726615011,0.0,0.818856462384,-0.573852450317,-0.0121739960037,0.0,-0.00659626537875,0.0118000524445,-0.999908619848,0.0,0.298387127619,-0.216261488461,0.304868249999,1.0,-0.203917714286,-0.268006138776,2.09
-0.499753095558,-0.530262592954,-0.139159959551,-2.64830532565,-0.0750448208733,2.10883293465,-0.754820728149,-0.915876930519,-0.00712835599668,0.0677405798033,-0.00674462775396,0.0294445796999,-0.000917088639199,-0.886206144088,0.573903446222,0.818890056725,0.00588696118796,0.0,0.818885044738,-0.573812802462,-0.0121201541251,0.0,-0.00654718605543,0.0117767694362,-0.999909216907,0.0,0.295014421936,-0.220705442361,0.30489350924,1.0,-0.187588,-0.246544228572,2.107
-0.514747792941,-0.530297177105,-0.138143653124,-2.64834187862,-0.074587661748,2.10878924831,-0.769097073365,-0.865591880621,-0.00295719509326,0.0600991853748,-0.00139244346008,0.0289958235109,-0.000659966985521,-0.811034535627,0.57396756993,0.818844723365,0.00594092480785,0.0,0.818840883375,-0.573877534624,-0.0120386821769,0.0,-0.00644857224973,0.0117747119717,-0.999909881976,0.0,0.291880670784,-0.224796488797,0.304912965606,1.0,-0.171258285714,-0.225082318368,2.124
-0.527601898123,-0.53010110967,-0.137044578144,-2.6482653376,-0.0740994310108,2.10878371297,-0.781450068887,-0.7771509452,0.0238260428599,0.0643621274758,0.0077567297013,0.0319865435473,-0.00233461358756,-0.742028597988,0.573815722925,0.818951200775,0.00593243411363,0.0,0.818947199558,-0.573725661872,-0.0120455861488,0.0,-0.00646128195195,0.011770523647,-0.999909849241,0.0,0.289227282102,-0.228228967442,0.304904944044,1.0,-0.155889142857,-0.20488287347,2.14
-0.540914721253,-0.529766261979,-0.135927530377,-2.64805395715,-0.0735302792446,2.10879695769,-0.794052140686,-0.717521459445,0.0166942433007,0.05695860645,0.00921630764436,0.0347622178664,-0.000136852691054,-0.68230144513,0.573864831182,0.818916502216,0.00597200400988,0.0,0.818913023553,-0.573774607698,-0.0120377040027,0.0,-0.00643141402328,0.011798793999,-0.999909708611,0.0,0.286470932636,-0.231780211041,0.304909456389,1.0,-0.138598857143,-0.182158497959,2.158
-0.551458019982,-0.529270823081,-0.134827329575,-2.64777751325,-0.0729780539574,2.10887746455,-0.804109274733,-0.634784921284,0.0314330740238,0.0626142944835,0.0218008909392,0.0370658262225,0.00562296285374,-0.611178290255,0.573738585375,0.819005030212,0.00596179847793,0.0,0.819001174483,-0.57364798424,-0.0120753167673,0.0,-0.00646989606002,0.0118110225142,-0.999909315984,0.0,0.284340876894,-0.234538743769,0.304889929488,1.0,-0.123229714286,-0.161959053061,2.174
-0.561610603012,-0.52871206518,-0.133758545343,-2.64745688755,-0.0724060366877,2.10898546057,-0.813607234586,-0.576421642598,0.0330475491025,0.0591953074544,0.0220702299392,0.0277232180542,0.00654457012419,-0.536057300195,0.573783127534,0.818973744679,0.0059728539709,0.0,0.818969798839,-0.573692042509,-0.0121101549365,0.0,-0.00649144512325,0.0118404175542,-0.99990882867,0.0,0.28228655359,-0.237185530125,0.304868593143,1.0,-0.1069,-0.140497142857,2.191
-0.570642368568,-0.52814001669,-0.132755043208,-2.64707662822,-0.0718288729118,2.10908321808,-0.821861578057,-0.505329524735,0.0385342321184,0.0603462496462,0.0294312841671,0.0271748665004,0.0133827458072,-0.462288934104,0.573979197805,0.818836115891,0.00600355741013,0.0,0.81883249873,-0.573887808161,-0.0121189755822,0.0,-0.0064782112167,0.0118721763745,-0.999908537921,0.0,0.280476375542,-0.2395273215,0.304866648114,1.0,-0.0905702857144,-0.119035232653,2.208
-0.578573587408,-0.527503327649,-0.131579195164,-2.64671002778,-0.0711561532359,2.10919913816,-0.829275277688,-0.41585261853,0.0343347157779,0.0642516601665,0.0247529825038,0.0363827240202,0.0023344889016,-0.383381090654,0.573880715676,0.818905031712,0.00601831486668,0.0,0.818901134491,-0.573788417071,-0.0121873403588,0.0,-0.00652716065031,0.0119227140285,-0.999907618265,0.0,0.278953631395,-0.241496699993,0.304840476818,1.0,-0.0732800000001,-0.096310857143,2.226
-0.584344981603,-0.527093850023,-0.130639116963,-2.64641756982,-0.0706292030266,2.10926375819,-0.834406076409,-0.358556231596,0.0257102953369,0.0666455005716,0.0211002664087,0.0339909986042,0.000553266001093,-0.324279742663,0.573982287997,0.818833851309,0.00601696911522,0.0,0.818830017313,-0.573890121639,-0.0121769427035,0.0,-0.00651793924419,0.0119164537872,-0.999907753044,0.0,0.277861380739,-0.242904867645,0.304852970511,1.0,-0.0588714285716,-0.0773738775512,2.241
-0.589615719368,-0.526636168457,-0.129536283054,-2.64610936514,-0.0699698153957,2.10939272728,-0.839016655163,-0.277481852235,0.0204963998199,0.0661574904008,0.0125815756757,0.0383587774499,0.002124004858,-0.247056873247,0.574042022767,0.818791843332,0.00603492272456,0.0,0.818788527901,-0.573950286178,-0.0121310541643,0.0,-0.00646918712781,0.0119052895781,-0.999908202636,0.0,0.276941942509,-0.244129783739,0.304864339396,1.0,-0.0425417142858,-0.0559119673471,2.258
-0.593615651105,-0.526243831518,-0.128438482499,-2.64588955847,-0.0693080083409,2.10944856607,-0.842434923207,-0.204745827496,0.0176918348928,0.0696000913516,0.0115390547718,0.0387644240892,0.00195647066269,-0.175950313764,0.574037200391,0.818795060615,0.00605707693149,0.0,0.818791638233,-0.57394463819,-0.0121882055444,0.0,-0.00650334087904,0.011956197526,-0.999907373659,0.0,0.276296011419,-0.24497091783,0.304852768078,1.0,-0.0262120000001,-0.034450057143,2.275
-0.596442626659,-0.526016275602,-0.127344752918,-2.64575157515,-0.0686963962038,2.10947546881,-0.844672008828,-0.150712258073,0.0113537469909,0.0571759601525,0.00576492014064,0.0262736216176,0.000126207975565,-0.101680216735,0.574015687509,0.818810289478,0.00603715492915,0.0,0.818806545345,-0.573923106195,-0.0122006711841,0.0,-0.00652529802675,0.0119468686433,-0.999907342115,0.0,0.275909985914,-0.245471831395,0.304861444835,1.0,-0.0197697560976,-0.0259831080139,2.292
-0.59850752095,-0.525869700615,-0.126573326017,-2.64559367684,-0.0683232045081,2.10950122314,-0.846428699749,-0.116759342254,0.0081292654343,0.0443015874116,0.0138977322301,0.0193710569225,0.00227745544377,-0.108899926365,0.5738901335,0.818898785381,0.00596999779574,0.0,0.818894684188,-0.573798823342,-0.0121306818432,0.0,-0.00650834822258,0.0118507062448,-0.999908596905,0.0,0.275630926058,-0.24586641901,0.304900580118,1.0,-0.0194297560976,-0.0255362508711,2.309
-0.600261064914,-0.525671934876,-0.126084900141,-2.6454048355,-0.0681200530135,2.1095962591,-0.848088527007,-0.095661745132,0.0092701919722,0.0219993681152,0.0103331412051,0.00997350904132,0.00200894907747,-0.0905116718132,0.573718085056,0.819019902329,0.00589112644333,0.0,0.819015550214,-0.573628555138,-0.0120231501182,0.0,-0.00646800541485,0.0117230485326,-0.999910363502,0.0,0.275373329535,-0.246272970989,0.30493394067,1.0,-0.0190897560976,-0.0250893937282,2.326
-0.601756896215,-0.525437830633,-0.125894801372,-2.6452443239,-0.0679764243543,2.10966553478,-0.849504603547,-0.0932331321076,0.0100086927207,0.00609737288509,0.0105063326534,0.011890385319,0.000369767981421,-0.0831715902253,0.573718885574,0.819019188814,0.00591232543834,0.0,0.819015157318,-0.573629349326,-0.0120120180321,0.0,-0.00644671398973,0.0117340316644,-0.999910372173,0.0,0.275100508692,-0.246671233709,0.304931691713,1.0,-0.0187697560976,-0.0246688222997,2.342
-0.603365507407,-0.525251221813,-0.125778286219,-2.64514251529,-0.0679018883802,2.10966151176,-0.851026003581,-0.0937336442627,0.0126158012475,0.00490910848131,0.00469254216829,0.000238575968962,-0.000638782975024,-0.0861853373638,0.573745399957,0.819000530051,0.00592407845561,0.0,0.818996146967,-0.573654892413,-0.0120881167389,0.0,-0.00650192260957,0.011787525749,-0.999909385514,0.0,0.27475316848,-0.247100733273,0.304912078583,1.0,-0.0184297560976,-0.0242219651568,2.359
-0.604956157929,-0.525100077009,-0.125729222121,-2.64502757334,-0.0678604780584,2.10967701287,-0.852481817035,-0.0811122311753,0.0110490566007,0.000237494640082,0.00585646509354,0.00316232967179,-0.00057413373592,-0.082698242165,0.573844919053,0.818930698927,0.00593852959503,0.0,0.81892642894,-0.573754192916,-0.0120986360903,0.0,-0.00650081341539,0.011806186988,-0.999909172562,0.0,0.274400072098,-0.247549934361,0.304911455903,1.0,-0.0180697560976,-0.0237488222997,2.377
-0.606246436607,-0.524947801966,-0.125678366288,-2.64487393613,-0.0678315858223,2.10971511127,-0.853848411154,-0.0721561840832,0.0108811477004,0.00287476395025,0.00970744185072,0.00307489556158,0.00511199536269,-0.0836675150414,0.57376672144,0.818985514995,0.00593485447393,0.0,0.81898150484,-0.573676586616,-0.0120505435258,0.0,-0.00646465800348,0.011774963603,-0.999909775144,0.0,0.274133000348,-0.24792974322,0.304929962856,1.0,-0.0177497560976,-0.0233282508711,2.393
-0.607601807798,-0.524817893446,-0.12568547644,-2.64474836032,-0.0677924220286,2.10975111417,-0.85515579374,-0.0813475167813,0.00800904922288,-0.00127012942996,0.00746157898343,0.00516589019559,0.000500796401802,-0.0749311940822,0.573834247051,0.818937938647,0.00597130276923,0.0,0.818934626709,-0.573744355729,-0.0120099270105,0.0,-0.00640950701192,0.0117820408683,-0.999910046821,0.0,0.273831579815,-0.248332241025,0.304942353769,1.0,-0.0174097560976,-0.0228813937282,2.41
-0.608976906009,-0.524706574838,-0.125690778321,-2.64460737092,-0.0677748489182,2.10976466973,-0.856504030522,-0.081097979979,0.00767601014288,-0.000585723259087,0.0101970450462,-0.000170691070238,0.00106273983505,-0.0817214192132,0.573874636753,0.818909507476,0.00598888622512,0.0,0.818906733746,-0.573785235751,-0.0119587441146,0.0,-0.00635691714874,0.0117673857509,-0.999910555118,0.0,0.273523633964,-0.248742739473,0.304966673282,1.0,-0.0170697560976,-0.0224345365854,2.427
-0.610207881687,-0.524604544567,-0.125691435,-2.64449245773,-0.0677553599954,2.1097750605,-0.857693154113,-0.0724036435964,0.0062642262566,-0.00013917778237,0.00853803971302,0.000320280287255,0.00245763258478,-0.0723548859027,0.573923561684,0.81887508861,0.00600678765016,0.0,0.818872725019,-0.573834407453,-0.0119281157493,0.0,-0.00632085710533,0.0117648477565,-0.999910813584,0.0,0.273245575622,-0.249105514779,0.304982383634,1.0,-0.0167497560976,-0.0220139651568,2.443
-0.611466310807,-0.52445666587,-0.125683245389,-2.64438816099,-0.0677347013848,2.10979973191,-0.858934357528,-0.070247969943,0.00537378935972,0.000823813626178,0.00547712495791,0.000203288627854,0.000207723051583,-0.0800169034832,0.573946282346,0.818859052821,0.00602191787406,0.0,0.818856799701,-0.573856901716,-0.0119392142889,0.0,-0.00632093626809,0.011783782928,-0.999910590115,0.0,0.272960879658,-0.249471915512,0.304977882731,1.0,-0.0164097560976,-0.0215671080139,2.46
-0.612700493465,-0.524288136898,-0.125645715897,-2.64429739498,-0.0677053850337,2.10982147062,-0.860239330464,-0.0778170313546,0.0117737639675,0.00317088840894,0.00281253890101,0.000723195196185,0.00197588730913,-0.0803159889233,0.573879334997,0.818905896737,0.00603225110316,0.0,0.818903459184,-0.573789332217,-0.0119863952865,0.0,-0.00635461079446,0.0118188033997,-0.999909963351,0.0,0.27268442668,-0.249819806674,0.304960105733,1.0,-0.0160697560976,-0.0211202508711,2.477
-0.613822507816,-0.524119851706,-0.125532435864,-2.64419379538,-0.0676841221388,2.10984676552,-0.861366847081,-0.0711297771563,0.0135386501986,0.00665899140478,0.0111548908563,0.0026107552351,0.000368477564843,-0.0726529010616,0.573809438781,0.81895515451,0.00599414461887,0.0,0.818952052867,-0.573719297418,-0.0120187260763,0.0,-0.00640396452761,0.0118056027999,-0.999909804423,0.0,0.272454334511,-0.25012434575,0.30495034369,1.0,-0.0157497560976,-0.0206996794425,2.493
-0.614951574481,-0.5239309454,-0.125447738829,-2.6440856256,-0.0676638635617,2.1098794301,-0.862570795336,-0.0632432954331,0.00984424103154,0.00379946755231,0.00357074946882,0.000573406294857,0.00341599856711,-0.0690166546647,0.573702803127,0.819030039413,0.00596951630977,0.0,0.81902637339,-0.573612339648,-0.0120594525363,0.0,-0.00645298990916,0.0118079603582,-0.999909461398,0.0,0.272217907479,-0.250438898339,0.304935032572,1.0,-0.0154097560976,-0.0202528222997,2.51
-0.616145692544,-0.523742731546,-0.125373567255,-2.64396897057,-0.067636182484,2.10990947733,-0.863820908833,-0.0635156252208,0.00873620807425,0.00628596882888,0.00480259566808,-0.00040620978869,0.000616877247135,-0.0635917473129,0.573622619326,0.819086295205,0.00595638357878,0.0,0.819082248193,-0.573531845133,-0.0120929820557,0.0,-0.00648914514187,0.0118158035859,-0.999909134762,0.0,0.271964856862,-0.250774269392,0.30492335188,1.0,-0.0150497560976,-0.0197796794425,2.528
-0.617145895806,-0.52359458307,-0.125357379617,-2.64387989811,-0.0676129790468,2.10991823887,-0.864781305225,-0.0645955180842,0.0116323859821,0.00157116478131,0.00277308142466,0.000714315536743,-0.00138373190261,-0.0659091467145,0.573658541144,0.819061040799,0.00596963304046,0.0,0.819056868986,-0.573567160893,-0.0121368946827,0.0,-0.00651699758865,0.011852130435,-0.999908523689,0.0,0.271738468818,-0.251061056078,0.304910628028,1.0,-0.0147497560976,-0.0193853937282,2.543
-0.618365991327,-0.523454408959,-0.125367313063,-2.64379414275,-0.0675921683642,2.10992783651,-0.865990956277,-0.0638464088461,0.00393313810897,-0.00119736802036,0.00142983897643,0.000128182801949,-0.000732946995126,-0.0724363781802,0.573687682937,0.819040427472,0.00599729217976,0.0,0.819036346287,-0.573595683302,-0.0121738432302,0.0,-0.00653097459894,0.0118962132287,-0.999907909,0.0,0.271450354776,-0.251412845301,0.304898766336,1.0,-0.0143897560976,-0.0189122508711,2.561
-0.619519340577,-0.523350725523,-0.125372838987,-2.64370157597,-0.0675743146842,2.10993888604,-0.867104581599,-0.0692410963832,0.00649466014773,0.000291964972326,0.00915284177122,0.000596524523209,-0.000735952999203,-0.0653777938171,0.573736564613,0.819006035232,0.00601793822094,0.0,0.819002250881,-0.573644513283,-0.0121668538523,0.0,-0.00651269488269,0.0119095031748,-0.999907870026,0.0,0.271181944401,-0.2517480205,0.304903612011,1.0,-0.0140497560976,-0.0184653937282,2.578
-0.620564755713,-0.52329927209,-0.125377235301,-2.64358814038,-0.0675533697781,2.10996343408,-0.868105784543,-0.0698755841844,0.00880448690758,-0.000259297104054,0.00720264109425,0.00051837151175,0.00698640156935,-0.0589601392936,0.573790347011,0.818968229472,0.00603520456106,0.0,0.818965257498,-0.573699288453,-0.0120739529937,0.0,-0.0064259150624,0.0118707690845,-0.999908892078,0.0,0.270949156624,-0.252060988125,0.304938287958,1.0,-0.0137297560976,-0.0180448222997,2.594
-0.621679625671,-0.523188165566,-0.125354114747,-2.6434118138,-0.0675356160607,2.11004022391,-0.869203992976,-0.0602815246573,0.0054183039955,0.00129237177886,0.00326648147563,-6.81696771514e-05,0.00318625199703,-0.0594452560034,0.573803931952,0.81895878071,0.00602578427773,0.0,0.818956640559,-0.573714682008,-0.0119260820929,0.0,-0.00631001022593,0.0117783156156,-0.999910723541,0.0,0.270725970106,-0.252408570453,0.304984765607,1.0,-0.0133697560976,-0.0175716794425,2.612
-0.62260744022,-0.523081759121,-0.125315253465,-2.6432341718,-0.0675123169156,2.11012949867,-0.870187310722,-0.0575709211545,0.00799691131083,0.0028502580859,0.00958097456857,0.0047137199934,0.00114391786308,-0.0663919696627,0.57374966408,0.818996914812,0.00601027427065,0.0,0.818995623308,-0.573662456145,-0.0117602004264,0.0,-0.00618381822424,0.0116700240508,-0.999912781662,0.0,0.270555860459,-0.252703375116,0.305035011666,1.0,-0.0130497560976,-0.0171511080139,2.628
-0.62350148792,-0.522947201641,-0.125269719969,-2.64307793481,-0.0674901300921,2.11013711883,-0.871068476484,-0.0544720844181,0.0064533917509,0.0024566760952,0.00453669111631,0.00475313246303,-0.000123450837527,-0.0461597584094,0.573745380207,0.818999999209,0.00599890730653,0.0,0.818998787186,-0.573658643546,-0.0117257909978,0.0,-0.00616221643143,0.0116409403469,-0.999913254036,0.0,0.270376387828,-0.252970648799,0.305058372896,1.0,-0.0127297560976,-0.0167305365854,2.644
-0.62445047925,-0.522813303691,-0.125215415025,-2.64293581269,-0.0674722301779,2.11014004975,-0.872029028864,-0.0586867254159,0.00744196968217,0.00139153713471,0.00596648781266,0.00016252067333,0.000309163370156,-0.0593727289918,0.573712376111,0.819023238923,0.005982516403,0.0,0.819021934438,-0.573625932373,-0.0117092920565,0.0,-0.00615857432764,0.0116178016042,-0.999913545587,0.0,0.270180156233,-0.253246971181,0.305075358614,1.0,-0.0123897560976,-0.0162836794425,2.661
-0.625332862866,-0.522709811916,-0.125183092998,-2.64278923464,-0.0674589723947,2.11016705865,-0.872948300536,-0.0544783731524,0.00426315347005,0.00140719514632,0.00755299235866,0.000295151670995,0.00124250532456,-0.0612281434149,0.573672252424,0.819051437869,0.0059695749293,0.0,0.819050438069,-0.57358675555,-0.0116344599845,0.0,-0.00610526960878,0.0115639724683,-0.999914496456,0.0,0.270001111909,-0.25351543028,0.305107065137,1.0,-0.0120697560976,-0.0158631080139,2.677
-0.626198607592,-0.522662674508,-0.125174521355,-2.64262739993,-0.0674503727536,2.11022614784,-0.8737959613,-0.0561766199929,0.00212519396996,0.00153240676354,0.0125955622629,-1.71182336616e-06,0.0029667743775,-0.0478651488804,0.573692401258,0.819037409238,0.00595801209897,0.0,0.819037350589,-0.573609018447,-0.0114568406367,0.0,-0.00596612646755,0.0114527573611,-0.999916616365,0.0,0.269830636593,-0.253794166852,0.305168584425,1.0,-0.0117497560976,-0.0154425365854,2.693
-0.627205709474,-0.522679654445,-0.125162438608,-2.64235457156,-0.0674441533833,2.11037332577,-0.874787927048,-0.0579342178619,-0.0013495421991,-6.73505599527e-05,0.0214182728534,0.000132443320338,0.0114796606297,-0.0555493184895,0.573711459825,0.819024325434,0.0059213271149,0.0,0.819026404204,-0.573633267067,-0.0110168521468,0.0,-0.00562650800738,0.0111704326483,-0.999921778862,0.0,0.269666215115,-0.254151299825,0.305311764397,1.0,-0.0113697560976,-0.0149431080139,2.712
-0.628050694632,-0.522757825928,-0.125146142631,-2.64201180637,-0.0674312671554,2.11049611095,-0.875607806375,-0.0560127610977,-0.00561475523416,0.00290558909576,0.0237995512158,0.00252394492767,0.00924926152003,-0.0529920503075,0.573741531676,0.819003572393,0.00587793663961,0.0,0.819008130998,-0.573669572825,-0.0104713644999,0.0,-0.00520419172896,0.0108221429681,-0.999927896206,0.0,0.269557874232,-0.254478214713,0.305507323498,1.0,-0.0110497560976,-0.0145225365854,2.728
-0.628968838028,-0.522863068551,-0.125123774436,-2.64164486785,-0.0674161686285,2.11056159015,-0.876521115709,-0.0526903726297,-0.00544970690581,0.00239033585337,0.0153414164691,0.000237180415545,0.00111540233873,-0.0476851652681,0.573752682874,0.818996066557,0.00583513151685,0.0,0.819002867864,-0.573686689239,-0.00993136053613,0.0,-0.00478630008458,0.01047733592,-0.999933656181,0.0,0.269428976061,-0.254821863706,0.305719153543,1.0,-0.0106897560976,-0.0140493937282,2.746
-0.629714515842,-0.522874633821,-0.125127624971,-2.6413944045,-0.0673936741518,2.11057199865,-0.877206219629,-0.0487600795204,0.000991387924955,-0.000644013171638,0.0189434348737,0.000259874109039,-0.000119846469757,-0.0389674758506,0.573826215017,0.818944584041,0.00583010556244,0.0,0.818952627276,-0.573763111069,-0.00965575245194,0.0,-0.00456251451253,0.0103155027557,-0.999936384909,0.0,0.269300522921,-0.255085754751,0.305838231194,1.0,-0.0103897560976,-0.0136551080139,2.761
-0.630552483043,-0.522845639798,-0.125121933395,-2.64121797978,-0.0673792465354,2.1105899302,-0.877972054594,-0.0486849133135,0.0046691203302,0.000226277370549,0.00456884724024,4.30407587648e-05,0.00409392270054,-0.0451894499767,0.573895752779,0.818895903207,0.00582336276971,0.0,0.818904642246,-0.573834414797,-0.00948673830665,0.0,-0.00442709040221,0.0102133742666,-0.999938042009,0.0,0.269132599053,-0.255354908288,0.305909567371,1.0,-0.0100497560976,-0.0132082508711,2.778
-0.631357345406,-0.522835265103,-0.125178654169,-2.64111691332,-0.0673657819384,2.11071661022,-0.878790299585,-0.0393817061187,0.0105122887881,-0.0135668959429,0.00233964149446,0.000469248151781,0.0168233949667,-0.0418880790064,0.573935370239,0.818867973561,0.0058463293195,0.0,0.81887791066,-0.573876190284,-0.00926458632429,0.0,-0.00423148530143,0.0101048982709,-0.999939990981,0.0,0.268959759527,-0.255625277293,0.30596131172,1.0,-0.00968975609756,-0.0127351080139,2.796
-0.632142836635,-0.522504201769,-0.125085164208,-2.64101764506,-0.0672385169133,2.11063912203,-0.879568422675,-0.0522524984183,0.0165773388552,-0.013218769671,0.00449421751614,0.024678762488,-0.00950027530143,-0.0473706369425,0.573935501127,0.818867379064,0.00591632933419,0.0,0.818876747123,-0.573872988725,-0.00956100065989,0.0,-0.0044340553236,0.0103323411547,-0.999936788942,0.0,0.268793487989,-0.255811652424,0.305880326224,1.0,-0.00934975609756,-0.0122882508711,2.813
-0.632788616971,-0.522482249034,-0.125027400654,-2.64101908486,-0.0672160439599,2.11065259414,-0.880255070819,-0.0337817582052,0.00364669646601,0.00486736535245,0.000499432617716,0.00695632967178,-0.0128133537873,-0.0303834782084,0.573870714836,0.81891281067,0.00591253539382,0.0,0.818922113456,-0.573808169342,-0.00956576133971,0.0,-0.00444094889643,0.0103316151942,-0.999936765851,0.0,0.26864390337,-0.255971188133,0.305874134618,1.0,-0.00900975609757,-0.0118413937282,2.83
-0.633530738096,-0.522380900645,-0.125001531428,-2.64094561842,-0.067232462785,2.11064015948,-0.880980461214,-0.0379400781615,0.000296537475715,0.00123738769327,0.00788084628155,-0.000394967174954,-0.0015161339245,-0.0343131554205,0.573863033254,0.818918381106,0.00588651450014,0.0,0.818927243498,-0.573800208188,-0.00960405339888,0.0,-0.00448733901096,0.010332237236,-0.999936552318,0.0,0.268470858304,-0.256181610296,0.30586981602,1.0,-0.00864975609757,-0.0113682508711,2.848
-0.634118325926,-0.522278089036,-0.124997648572,-2.64088435158,-0.0672368473609,2.11066355166,-0.881569582908,-0.0375960080138,0.0132408760027,-0.00181024687624,0.00497834454885,-0.00318396975455,-0.00073265992791,-0.0417031319463,0.57386049341,0.818920217689,0.00587861077339,0.0,0.818928927159,-0.57379754056,-0.00961985501285,0.0,-0.00450484808987,0.0103348181353,-0.999936446919,0.0,0.268336489861,-0.256355919246,0.305861965225,1.0,-0.00834975609757,-0.0109739651568,2.863
-0.634747548479,-0.522141535735,-0.12494317867,-2.64078607531,-0.067214270719,2.11069219879,-0.882227610477,-0.0395121419936,0.0054133520911,-0.00107010585289,0.00323998240609,0.000635406693031,0.00326598322082,-0.0333163759495,0.573813134592,0.818953503797,0.00586447687765,0.0,0.818962037726,-0.573750185738,-0.00962559250263,0.0,-0.00451825499876,0.0103262741529,-0.999936474699,0.0,0.268213255152,-0.25653686363,0.305860207446,1.0,-0.00800975609757,-0.0105271080139,2.88
-0.635294681612,-0.5220749695,-0.124905364097,-2.6407396148,-0.0672029454604,2.11070851741,-0.882816677722,-0.0350085111216,0.00641068617647,0.00220421769026,0.00388697490828,0.00282118588969,-4.18249668614e-05,-0.0357453504949,0.573759292064,0.818991296063,0.00585479663641,0.0,0.818999723975,-0.573696381964,-0.00962602466162,0.0,-0.00452484188334,0.0103182965836,-0.999936527266,0.0,0.268093921836,-0.256686937883,0.305859158881,1.0,-0.00768975609757,-0.0101065365854,2.896
-0.635862332254,-0.521990536612,-0.124860639009,-2.64067442427,-0.0672073758497,2.11071749096,-0.88337612802,-0.0351144129709,0.00123909698386,0.000562679095241,0.00447177407738,0.000754276922025,-0.00959036485042,-0.0299554432729,0.573735876786,0.819007899922,0.0058267019791,0.0,0.819015997274,-0.573673005015,-0.00963464723492,0.0,-0.0045483181339,0.01030010322,-0.999936608329,0.0,0.267972118218,-0.256845970254,0.305859580275,1.0,-0.00734975609757,-0.00965967944251,2.913
-0.636413884728,-0.52190889078,-0.124851371942,-2.64060672024,-0.0672003101081,2.11072307674,-0.883914753932,-0.0331602698893,0.00765720120834,0.00107123745567,0.00783308978545,0.00062548335423,-0.00574601570439,-0.0291604226936,0.573746431879,0.819000512278,0.00582577855736,0.0,0.819008575928,-0.573683507826,-0.00964014031745,0.0,-0.00455321444331,0.010302557066,-0.999936560766,0.0,0.267847860954,-0.257007512987,0.305861046354,1.0,-0.00700975609757,-0.00921282229966,2.93
-0.636982538842,-0.521835724483,-0.124845675737,-2.64055048447,-0.06719096228,2.11074070195,-0.884427020134,-0.0342806594318,0.00867772977786,0.000987758116078,0.00653964165919,0.00137750814565,0.0017443613483,-0.0287332524591,0.573795499702,0.818966116898,0.00582844719572,0.0,0.818974228632,-0.573732602067,-0.00963644455794,0.0,-0.00454803896855,0.0103028949294,-0.999936580838,0.0,0.267717992395,-0.257173031455,0.305861362454,1.0,-0.00666975609757,-0.0087659651568,2.947
-0.637492899801,-0.521786207693,-0.12485873341,-2.64047992088,-0.0671846335471,2.11075812205,-0.884910648147,-0.0340275946819,0.00435797495827,-0.00128613862321,-0.00260098444742,-0.00157557076582,0.00766479081337,-0.0302657684106,0.573832835185,0.818939909756,0.00583509843371,0.0,0.818948279122,-0.573770331246,-0.00959531165365,0.0,-0.00451006413126,0.0102849467286,-0.999936937608,0.0,0.267602530742,-0.257331319195,0.30587644319,1.0,-0.00634975609757,-0.00834539372823,2.963
-0.638008988587,-0.521640903546,-0.124829486881,-2.6404327377,-0.067173275172,2.11075552102,-0.88541342752,-0.027669096174,0.00987138825951,0.00337184898022,0.00457964326457,0.00015527531132,-0.00042816126855,-0.0285474458444,0.573830721121,0.818941407478,0.00583279662522,0.0,0.818949308356,-0.573767220194,-0.00969300131536,0.0,-0.00459142103336,0.0103391057565,-0.999936008825,0.0,0.267484340972,-0.25747099217,0.305844895679,1.0,-0.00600975609757,-0.00789853658537,2.98
-0.638423922985,-0.521634018616,-0.124817314228,-2.64036903625,-0.0671646657448,2.11078789307,-0.885858838394,-0.0283155410322,-0.00163563703467,-0.000730397183078,0.00138181896138,-0.000147194097677,0.00101068493675,-0.0325223834922,0.57380377708,0.81896032986,0.00582669935447,0.0,0.818968582522,-0.573741246742,-0.00960153789138,0.0,-0.00452034791736,0.0102814803693,-0.999936926819,0.0,0.267400649808,-0.257598874159,0.305874430502,1.0,-0.00568975609757,-0.0074779651568,2.996
-0.63883023638,-0.521490881586,-0.124758777462,-2.6403214095,-0.0671522334205,2.11080054311,-0.886259533466,-0.026574178226,0.00662647764686,0.00618763557648,0.00650940337026,-8.19122294261e-05,0.0104729135894,-0.0199837290462,0.573775072237,0.818980572662,0.00580818245319,0.0,0.818988263908,-0.573711793652,-0.00968237092405,0.0,-0.00459753942791,0.0103125348884,-0.999936255096,0.0,0.267319603409,-0.257704788499,0.305845879293,1.0,-0.00536975609757,-0.00705739372823,3.012
-0.639280647249,-0.52145657804,-0.12471620353,-2.64030560873,-0.0671413095468,2.11080649797,-0.886719221421,-0.022566306701,0.00156207683143,0.00338666769439,-0.000915368695376,0.000121884387876,-0.00159712631584,-0.0250897542093,0.573742845693,0.819003215174,0.00579891809872,0.0,0.819010763484,-0.573679508884,-0.00969212494185,0.0,-0.00461124978316,0.0103103621908,-0.999936214369,0.0,0.26721750526,-0.257818916498,0.305841964186,1.0,-0.00498975609757,-0.0065579651568,3.031
-0.639634681031,-0.521361106771,-0.124708195572,-2.64026695827,-0.0671289580935,2.11082288012,-0.887061036245,-0.0228358852964,0.000454922832543,-0.000983019892726,0.0014314413114,0.000569753699273,-0.000123397152641,-0.0165234099016,0.573754661074,0.818994898238,0.00580452045914,0.0,0.819002329488,-0.573690906031,-0.00973013522734,0.0,-0.00463901982458,0.0103368252331,-0.99993581271,0.0,0.267138512844,-0.257920985177,0.305826000851,1.0,-0.00466975609757,-0.00613739372823,3.047
-0.640034005175,-0.52130875434,-0.124715264172,-2.64025902207,-0.0671087541401,2.11080960974,-0.887428554109,-0.0263077477746,0.00238469978882,-0.00198451456761,0.000427058507522,0.00207134435587,-0.000908907406021,-0.0239941949391,0.573794922121,0.818966506732,0.00583053181946,0.0,0.818973960604,-0.573730489436,-0.00978387683756,0.0,-0.00466760342733,0.0103891926088,-0.999935136974,0.0,0.267034338713,-0.258026456413,0.305809039639,1.0,-0.00432975609757,-0.00569053658537,3.064
-0.640420753466,-0.521307517148,-0.12471816224,-2.64024055988,-0.0671014084211,2.11081894282,-0.887773263354,-0.0269006362019,0.000780906045987,0.000234846453159,0.00109972931187,0.00128397557731,-0.00164378911953,-0.0212893910464,0.573835382047,0.818938103529,0.00583813329544,0.0,0.818945774344,-0.573771215238,-0.00975490384694,0.0,-0.00463899893598,0.0103790233966,-0.999935375693,0.0,0.266940285185,-0.258135555213,0.305817724414,1.0,-0.00396975609757,-0.00521739372823,3.082
-0.640707149094,-0.521290503204,-0.124720662401,-2.64020809756,-0.0670866802095,2.11082444686,-0.888047003149,-0.017606441557,-0.00126773798773,-0.000841553961608,0.00386538312391,0.000596602841099,0.000882064906662,-0.0240689187827,0.57385664273,0.818923111331,0.00585134370097,0.0,0.81893102427,-0.573792646889,-0.00973256208924,0.0,-0.00461285084898,0.0103771420882,-0.999935516185,0.0,0.266871004842,-0.258225548993,0.305826446124,1.0,-0.00364975609757,-0.00479682229966,3.098
-0.640998327636,-0.521268643997,-0.124684927552,-2.64016357195,-0.0670683964216,2.1108359559,-0.88834055813,-0.0134977940809,-0.000434631002559,0.0077105967245,0.00427996940401,0.00544680296469,0.00068222944923,-0.0131386249137,0.573838032278,0.818936204966,0.00584395486151,0.0,0.818944212198,-0.573774458481,-0.00969510200264,0.0,-0.00458664631191,0.0103494905259,-0.999935923308,0.0,0.266820912677,-0.258300245131,0.3058407172,1.0,-0.00330975609757,-0.0043499651568,3.115
-0.64122527292,-0.521254715256,-0.124598517858,-2.64012593624,-0.0670562997658,2.11085392516,-0.888606804869,-0.0163037577192,-0.00422353735372,0.00568622180284,-0.00172305837332,0.000903920962859,0.00543194525584,-0.0146823254933,0.573751570914,0.818997044255,0.00580717450622,0.0,0.819004859574,-0.573688602906,-0.0096526572014,0.0,-0.00457407595299,0.0102945295754,-0.999936548232,0.0,0.266793278618,-0.258352316243,0.305856310471,1.0,-0.00296975609757,-0.00390310801394,3.132
-0.641423220311,-0.521178627787,-0.124569572502,-2.64007811291,-0.0670430364509,2.11085970844,-0.888819941784,-0.0169340631852,0.00413051646161,-0.00164909485043,0.00448101431174,0.00267241050485,0.000263020634873,-0.0128637065241,0.573726829697,0.819014418631,0.00580119478377,0.0,0.819022073768,-0.57366367167,-0.00967374732076,0.0,-0.00459509230793,0.0103015933014,-0.999936379127,0.0,0.266759880797,-0.258409084672,0.305851241241,1.0,-0.00264975609757,-0.00348253658537,3.148
-0.641637220493,-0.52114606363,-0.124552401415,-2.64004445307,-0.0670265405386,2.11087801828,-0.889046110633,-0.00915989710909,0.00119315764345,0.00337879308006,0.0023056997908,0.00503726248032,0.00563185022268,-0.0183109342626,0.573713411841,0.819023803008,0.00580328196109,0.0,0.819031576739,-0.573650464453,-0.00965234885312,0.0,-0.00457653618581,0.0102909513004,-0.999936573807,0.0,0.2667197343,-0.258471248232,0.305856555309,1.0,-0.00230975609757,-0.00303567944251,3.165
-0.641844017579,-0.521075093162,-0.124545555014,-2.64003354779,-0.0670139301613,2.11088350423,-0.88923660229,-0.0127151181761,0.00541550280418,0.00079851912945,0.000687700805088,0.0010332009799,0.000771142078221,-0.0155439224845,0.573728107618,0.819013443171,0.00581251539853,0.0,0.81902107144,-0.573664575457,-0.00970496287169,0.0,-0.00461414971564,0.0103287814334,-0.999936010901,0.0,0.266670724749,-0.258525978399,0.305836016335,1.0,-0.00196975609757,-0.00258882229966,3.182
-0.642021929659,-0.521058068902,-0.124539004534,-2.64005099776,-0.0670006621793,2.11087447787,-0.889392222558,-0.0101704647316,0.00154234264057,0.00102380988022,0.000640409811782,0.00275912174396,-0.000845664073029,-0.00728019207245,0.573746636191,0.819000368319,0.0058258951128,0.0,0.819007945378,-0.573682615024,-0.00974625708224,0.0,-0.0046400627325,0.0103635361329,-0.99993553139,0.0,0.266621478216,-0.258564660086,0.305821190992,1.0,-0.00164975609757,-0.00216825087109,3.198
-0.642204441177,-0.521063701569,-0.124531470196,-2.64004551703,-0.0669873640589,2.11087996205,-0.889547156409,-0.0112473484543,-0.000494019899176,0.000930842044836,0.000207436699344,-0.000738347593926,0.000366568671247,-0.00450548790188,0.573769760421,0.818984114646,0.00583342821601,0.0,0.818991856918,-0.573705895585,-0.00972782472099,0.0,-0.00462035071362,0.0103592613143,-0.999935666963,0.0,0.266579352586,-0.258612544512,0.305826417662,1.0,-0.00128975609757,-0.00169510801394,3.216
-0.642355612327,-0.521051264895,-0.124495723822,-2.64003493665,-0.0669730836922,2.1108783729,-0.889645247858,-0.00911814949845,0.000567376707829,0.00274769361714,0.000468104186634,0.000171072642656,5.54985931576e-05,-0.00238293228913,0.573794522076,0.818966806512,0.00582779279598,0.0,0.818974481685,-0.573730659647,-0.00973013002003,0.0,-0.00462515915298,0.0103561082762,-0.999935677393,0.0,0.266551170324,-0.258645770201,0.305827368673,1.0,-0.000949756097566,-0.00124825087109,3.233
-0.642483019902,-0.521061558567,-0.124469996272,-2.64001983444,-0.0669625716451,2.11089027534,-0.889699933731,-0.0094618042995,-0.000138242746811,0.00275946792146,3.12940953707e-05,0.00105964790385,-0.000423446344326,0.00124456684297,0.573840962965,0.818934316418,0.00582078322789,0.0,0.818942097373,-0.573777525058,-0.00969225415397,0.0,-0.00459757345327,0.0103288957453,-0.999936086073,0.0,0.266530316993,-0.258678643512,0.30583967023,1.0,-0.000629756097566,-0.000827679442515,3.249
-0.64254706521,-0.521053848666,-0.124472480563,-2.64002688334,-0.0669503375923,2.11088796548,-0.889748415864,-0.0038350084258,-0.00179546353647,0.0031248926209,0.00147638096303,-0.000297901323329,-0.000594633142135,-0.00292504438918,0.573857944307,0.81892233627,0.00583213635249,0.0,0.818930225564,-0.573794431209,-0.00969449698278,0.0,-0.00459268118034,0.0103395759172,-0.999935998177,0.0,0.266513909259,-0.258694993153,0.305838699503,1.0,-0.000289756097566,-0.000380822299658,3.266
-0.642565056287,-0.521051254708,-0.124460519092,-2.64001817173,-0.0669366697988,2.11088913252,-0.889773595814,-0.00220478535033,0.000433026549838,0.00124377734072,0.000971640538328,6.34574536696e-05,-5.01309686423e-05,-0.00210253911022,0.573852240435,0.818926284616,0.00583895658452,0.0,0.818934220907,-0.573788643911,-0.0096995282017,0.0,-0.00459296004098,0.0103480165826,-0.999935909582,0.0,0.266513420049,-0.258695872651,0.30583677355,1.0,0.0,0.0,3.283
-0.642556904631,-0.521056265905,-0.124454931303,-2.64002115277,-0.0669248741081,2.11088943595,-0.889782666984,0.000967333457802,-0.000330916045348,0.000214267645404,-4.87233438094e-05,-3.05463443542e-05,-0.000474776181541,-0.000708193011044,0.573839028789,0.818935488594,0.00584649131946,0.0,0.818943517214,-0.573775432209,-0.00969618006609,0.0,-0.00458606117208,0.0103521920284,-0.999935898027,0.0,0.266517252409,-0.258690632136,0.305837428236,1.0,0.0,0.0,3.299
-0.642562785146,-0.521055890956,-0.124439592278,-2.64002189451,-0.0669193662422,2.11089382672,-0.889782950084,-0.000125782523035,-0.00159458486196,0.00140807024706,0.000458978620676,7.60773208342e-05,0.000469866634102,-0.000540510664514,0.573834597094,0.818938598252,0.00584588500089,0.0,0.81894665436,-0.573771080269,-0.00968873890127,0.0,-0.00458037068888,0.0103474007665,-0.999935973701,0.0,0.266519201719,-0.258690098841,0.305838825793,1.0,0.0,0.0,3.317
-0.642561899118,-0.521048095553,-0.12442275568,-2.64001363781,-0.0669125335451,2.11088998763,-0.889793152003,-0.000904183395701,0.00166504210483,0.00397681093,0.00196144114431,0.000658162313008,-0.000347579442775,0.000340563961032,0.573817366383,0.818950712158,0.00584020493978,0.0,0.818958676025,-0.573753802924,-0.00969574621207,0.0,-0.00458958683499,0.0103466732672,-0.999935938971,0.0,0.266525658732,-0.258685466809,0.305838653308,1.0,0.0,0.0,3.333
-0.642562551143,-0.521050601202,-0.124423151092,-2.64001836933,-0.0669077486244,2.11089320186,-0.889794048833,-0.00124528174498,0.000400207755444,-0.000890920057465,0.00098890506021,0.000141162297311,-0.000257926976324,0.00101035579026,0.573819247359,0.818949362062,0.00584471048253,0.0,0.818957379348,-0.573755678243,-0.00969429713355,0.0,-0.00458579091681,0.0103495423254,-0.999935926695,0.0,0.266525302476,-0.25868452535,0.305837692381,1.0,0.0,0.0,3.35
-0.642568211985,-0.521045311493,-0.124420373247,-2.64001582642,-0.0669054551102,2.11089098579,-0.88979908741,-0.00105220801444,0.00370955509006,0.00092503558349,0.00132858434108,0.000746059308747,-0.000613573781731,-0.00248707480606,0.573818907176,0.81894959574,0.00584536620917,0.0,0.818957597796,-0.573755285429,-0.00969909045291,0.0,-0.00458934480679,0.0103528278772,-0.999935876379,0.0,0.266524761678,-0.258685439769,0.305836777963,1.0,0.0,0.0,3.366
-0.642556959612,-0.52105310686,-0.124414142582,-2.64001531234,-0.0669023418461,2.11089495309,-0.88980144689,-0.000901302385295,-9.39483306656e-05,0.00103450805937,6.17053393979e-05,-0.000246098751922,-6.1099484542e-05,0.000827267785483,0.573804653726,0.818959590941,0.00584419960889,0.0,0.818967636808,-0.573741165828,-0.00968666072692,0.0,-0.00458001398903,0.0103446605137,-0.999936003688,0.0,0.266530215818,-0.258681558791,0.305840373184,1.0,0.0,0.0,3.384
-0.642565713132,-0.521047740135,-0.124411131613,-2.64001539167,-0.0669029520353,2.11089496617,-0.889806264338,-0.00229952559606,-0.00162642576611,-0.000492843239953,-0.00203870669961,-0.00034402863092,0.00018565582581,-0.00149670594671,0.573805505855,0.818959006672,0.00584240894029,0.0,0.818967008869,-0.57374196926,-0.00969216157254,0.0,-0.00458553608911,0.0103463550478,-0.999935960847,0.0,0.266528415515,-0.258683185024,0.30583843177,1.0,0.0,0.0,3.399
-0.642562146015,-0.521042093171,-0.124402830085,-2.64002032056,-0.0669007907774,2.11089475578,-0.889799637004,0.00230662208921,0.00149372764512,0.000746193324355,-0.000371967048422,-3.15778995256e-05,-1.47238105567e-05,0.00125118190231,0.573802846956,0.818960880179,0.00584092998172,0.0,0.818968817713,-0.573739206317,-0.00970286808838,0.0,-0.00459518732965,0.0103512721483,-0.999935865653,0.0,0.266530030601,-0.258678811931,0.305834287112,1.0,0.0,0.0,3.417
-0.642560420475,-0.521046677656,-0.124402158725,-2.64001530925,-0.0668968388898,2.11089332694,-0.889812174648,0.000616121592404,0.000893928946817,-0.00022497102707,-6.27364675983e-05,-0.000198149641702,0.000314356214875,0.000264867096619,0.573794595643,0.818966651816,0.00584227059071,0.0,0.81897463702,-0.573731026382,-0.00969536933782,0.0,-0.00458838060285,0.0103480211967,-0.999935930558,0.0,0.266533016815,-0.258678308218,0.30583737701,1.0,0.0,0.0,3.435
-0.642562926082,-0.52105243729,-0.124393337128,-2.64001462049,-0.0668975509604,2.11089332551,-0.889801162948,-0.0002697930134,-0.00173382688477,0.000241810913254,0.000784751433379,-0.000245987802317,0.00127168921528,0.000498474170863,0.573796071298,0.818965618191,0.00584223283372,0.0,0.818973630405,-0.573732563785,-0.00968941977853,0.0,-0.0045835106837,0.0103445848009,-0.999935988449,0.0,0.26653208828,-0.258679591547,0.305839589323,1.0,0.0,0.0,3.451
-0.642560420476,-0.521039986776,-0.124392990535,-2.64001777774,-0.0668975509604,2.11089332549,-0.889800827474,0.0013543005438,0.00303171382025,0.000708988404103,-0.0010283175289,6.57349986098e-05,-0.000190397267838,0.00171177009551,0.573794992469,0.818966399566,0.00583865573328,0.0,0.818974308896,-0.573731353081,-0.00970374984878,0.0,-0.00459731373445,0.0103498713825,-0.999935870378,0.0,0.26653320584,-0.258676266086,0.305834779899,1.0,0.0,0.0,3.467
-0.642560411809,-0.521052672268,-0.124395449993,-2.64001014391,-0.0668916075807,2.11089542453,-0.889804984961,0.00146004867655,-0.000543348258824,-0.000255192962554,0.00144071964969,0.000154150688535,0.000250816456078,0.00137355621423,0.573796142603,0.818965560738,0.00584328330659,0.0,0.818973623012,-0.573732718785,-0.00968086293719,0.0,-0.0045758986259,0.0103405357977,-0.999936065192,0.0,0.266535576352,-0.258678635661,0.305843053863,1.0,0.0,0.0,3.485
-0.642565710189,-0.521049829561,-0.124394975046,-2.6400167846,-0.0668927923024,2.11089332554,-0.889809178154,-4.90139963351e-05,0.00109701428508,-0.000170919091295,-0.000299745339121,0.000340285703053,-0.000378931422076,0.000639313684221,0.573795914328,0.818965720469,0.005843312229,0.0,0.818973729991,-0.573732370615,-0.00969244000677,0.0,-0.00458536701838,0.0103472009031,-0.99993595287,0.0,0.266532273844,-0.258678040065,0.305838814213,1.0,0.0,0.0,3.501
-0.642562934996,-0.521047544822,-0.124403469986,-2.6400149649,-0.0668920451517,2.11089415254,-0.889805117438,0.000626493781097,0.00264418513486,-0.00192758779555,0.000926633470856,-2.32853470546e-05,2.2207125978e-05,0.000811029965784,0.573803398318,0.81896044437,0.00584786604873,0.0,0.818968503945,-0.573739839095,-0.00969192875136,0.0,-0.00458224077351,0.0103506790456,-0.999935931204,0.0,0.266531723188,-0.258679635669,0.305838671984,1.0,0.0,0.0,3.518
-0.642565737679,-0.521045015199,-0.124393371725,-2.64001232046,-0.0668907182873,2.11089496811,-0.889801950891,-6.98674536074e-05,-3.53098620521e-05,0.000551861976247,0.00113882285693,9.56848149982e-05,0.00044797904714,0.0018458334328,0.573801829786,0.818961574066,0.00584356390419,0.0,0.818969592821,-0.573738298902,-0.00969109431712,0.0,-0.00458404569953,0.0103466680085,-0.999935964443,0.0,0.266533985169,-0.258678765839,0.305839252762,1.0,0.0,0.0,3.535
-0.642568130788,-0.521048924751,-0.124397925978,-2.64000943425,-0.0668907182813,2.11089333857,-0.889812176728,-5.84516684518e-05,-0.00058028976698,-0.00103008474226,0.00161580870562,0.000420693273094,-0.000446948418414,-0.00183148853061,0.573798758035,0.81896371191,0.00584557554061,0.0,0.818971775387,-0.573735272436,-0.00968582383425,0.0,-0.00457861351736,0.0103452742439,-0.999936003752,0.0,0.266532873385,-0.258680977263,0.305841759467,1.0,0.0,0.0,3.551
-0.642563639126,-0.521054215479,-0.12439802569,-2.64000934333,-0.0668914303581,2.11089495309,-0.889812498544,0.000421757756057,-0.000532505913361,0.000460273043416,0.00164241919365,8.29669409185e-06,7.98034355708e-05,-0.000593488473778,0.573794562638,0.818966657767,0.00584467742506,0.0,0.818974743322,-0.573731152739,-0.00967889861708,0.0,-0.00457350978906,0.0103405416803,-0.99993607606,0.0,0.266534343616,-0.258680208201,0.305843885686,1.0,0.0,0.0,3.569
