nelsonifechukwu/NELSON_IML_WORK/CNN-GradCAM/train2dof/data_sample_2022-02-22-09-14-38/robot_state.csv
position_joint1,position_joint2,position_joint3,position_joint4,position_joint5,position_joint6,position_joint7,velocity_joint1,velocity_joint2,velocity_joint3,velocity_joint4,velocity_joint5,velocity_joint6,velocity_joint7,ee_T_00,ee_T_10,ee_T_20,ee_T_30,ee_T_01,ee_T_11,ee_T_21,ee_T_31,ee_T_02,ee_T_12,ee_T_22,ee_T_32,ee_T_03,ee_T_13,ee_T_23,ee_T_33,v_x,v_y,time
0.465072685886,0.547811534194,-0.123981755406,-1.35584545268,0.0795388936699,1.89410193216,0.159141280764,9.10539211458e-05,-0.0012257461838,0.000259753053261,0.000638372468075,-0.000170238702784,3.49104874538e-05,0.00123068552524,0.573798224192,0.818982669712,0.00193171614595,0.0,0.818938874529,-0.57373932985,-0.0119602704237,0.0,-0.00868711992905,0.00844490196701,-0.999926606096,0.0,0.661670213367,0.260898241283,0.303186922717,1.0,0.0,0.0,0.0
0.465072597746,0.547811529159,-0.123977177071,-1.35584795544,0.0795389068673,1.8941050844,0.15913780427,-0.000274896355135,0.000806524199314,0.00129292898322,-0.000342089634719,-1.7114767594e-05,-0.00271283456626,-0.00136993715795,0.573792412714,0.818986737377,0.00193339457884,0.0,0.8189429415,-0.57373349005,-0.0119619339137,0.0,-0.00868757927213,0.0084471693987,-0.999926582953,0.0,0.661669239079,0.260900751838,0.303185857369,1.0,-0.00028,-0.000368,0.015
0.465071931437,0.547808338863,-0.123979085663,-1.3558532399,0.0795382965157,1.89410683441,0.15913669418,-0.000659050580359,0.00127871819972,-8.86652244662e-05,-0.00134979281488,-0.000231243324374,-0.000260099229982,-7.11518301382e-05,0.573793516164,0.818985966457,0.00193247426103,0.0,0.818942170759,-0.573734609091,-0.0119610277714,0.0,-0.00868735378295,0.00844590745805,-0.999926595572,0.0,0.661669107411,0.260898640879,0.303185816373,1.0,-0.00058,-0.000762285714286,0.03
0.465072622492,0.547781553882,-0.123987457029,-1.35587516443,0.079537788228,1.89411109998,0.159141382529,0.000748380172652,-0.00148236630861,-0.0012778327114,-0.00259343551005,-0.000347986096905,0.00314894066129,-0.000822305300003,0.573803683759,0.818978827257,0.0019390487502,0.0,0.8189351492,-0.573744778768,-0.0119539592782,0.0,-0.00867768752688,0.00844734368441,-0.999926667373,0.0,0.661667413216,0.260892212246,0.303195002891,1.0,-0.00094,-0.00123542857143,0.048
0.46506915909,0.547680175851,-0.123980269639,-1.35599199233,0.0795361506741,1.89413715982,0.159141235342,-0.000858644099403,-0.0108472412512,-0.00371507011797,-0.0130013620419,0.000440616588933,0.00446462535977,-0.00156090575417,0.57380732473,0.818976240531,0.00195408124295,0.0,0.818932650578,-0.573748250876,-0.011958483816,0.0,-0.00867273039981,0.00846228946333,-0.999926584007,0.0,0.661647854455,0.260883051007,0.303213237638,1.0,-0.00128,-0.00168228571429,0.065
0.465060955026,0.547563238246,-0.123979425224,-1.35617304284,0.0795335671852,1.89417375675,0.159131814029,-0.00471278502105,-0.00215319565154,0.000949999890688,-0.0139642384763,0.000100935331093,0.00404541019687,-0.00206472293903,0.573814983644,0.818970916116,0.0019364925011,0.0,0.818926973473,-0.573755863079,-0.0119820115642,0.0,-0.00870201260205,0.00846146662227,-0.999926336566,0.0,0.661618820532,0.260860217052,0.303213049343,1.0,-0.0016,-0.00210285714286,0.081
0.465054626829,0.547391653424,-0.123985188464,-1.35638628523,0.0795327805752,1.89427089101,0.159136425162,0.000598812259311,-0.0145252626527,-0.000776873226577,-0.0147228922169,0.00053199734804,0.00531181555886,0.0010428337098,0.573839775936,0.818953419546,0.00198873524659,0.0,0.818910106864,-0.573780381686,-0.0119606591916,0.0,-0.00865429209808,0.00849226088622,-0.999926489665,0.0,0.661596857001,0.260836115574,0.303241723785,1.0,-0.00194,-0.00254971428571,0.098
0.465033157954,0.547198479591,-0.123977343441,-1.3565986086,0.0795274348389,1.89439388987,0.159129891124,-0.00361472223251,-0.00736201605713,0.00306495562261,-0.00953883104408,8.05259424812e-05,0.00191067050982,0.000737148387488,0.573857207154,0.818940971733,0.00208267029591,0.0,0.818898844176,-0.57379738295,-0.0119160911204,0.0,-0.00856370935401,0.00854379556321,-0.999926830543,0.0,0.661581910838,0.260811291754,0.303287908882,1.0,-0.00228,-0.00299657142857,0.115
0.465013481925,0.546985473604,-0.123982065016,-1.356872177,0.0795243578273,1.89452966262,0.159111659188,-0.000378797221802,-0.0116047222375,0.000445281482217,-0.0205487327663,-0.00017212817637,0.0107435070646,-0.00234331867161,0.573876363143,0.818927368231,0.00215227516295,0.0,0.818886102317,-0.573816209341,-0.0118851264831,0.0,-0.00849820859327,0.00858322663462,-0.999927051675,0.0,0.661558264627,0.260774598926,0.303320512557,1.0,-0.00262,-0.00344342857143,0.132
0.46498135236,0.546765590125,-0.123979607214,-1.35720680704,0.0795204746577,1.89465104103,0.159097993542,-0.00473802945805,-0.0142250909656,0.000322153639598,-0.0263795234611,0.000270620545953,0.00200675214186,0.00116610220323,0.573907244306,0.818905683979,0.00216854372047,0.0,0.818864473382,-0.573846862977,-0.0118953346338,0.0,-0.00849690872504,0.00860272776061,-0.999926895136,0.0,0.661517302718,0.260721637605,0.303327197504,1.0,-0.00296,-0.00389028571429,0.149
0.464943370956,0.546465922255,-0.123982854335,-1.3576320831,0.0795083040783,1.89480909759,0.158999674115,-0.00195531495217,-0.0191166816058,-0.00029259481876,-0.0215085064527,-8.70585935765e-05,0.00824640803461,-0.00731189735167,0.573880834032,0.818924101328,0.00220261123592,0.0,0.818883224511,-0.573820207832,-0.0118903573952,0.0,-0.00847356054946,0.00862749571615,-0.999926879871,0.0,0.661472719101,0.260660756082,0.303351038112,1.0,-0.0033,-0.00433714285714,0.166
0.464905106448,0.546213558711,-0.123984662254,-1.3580483185,0.0795009885169,1.89495771726,0.158928623017,-0.00479565989793,-0.0176735961942,-0.0016759601924,-0.0335738247672,0.000362887858363,0.00900791824217,-0.00205281496814,0.573876591451,0.818927084579,0.00219882449879,0.0,0.818885994477,-0.573815814146,-0.0119116071906,0.0,-0.0084931809994,0.00863654539991,-0.999926635289,0.0,0.661424275749,0.26059720478,0.303344582387,1.0,-0.0036,-0.00473142857143,0.181
0.464857245309,0.545879845677,-0.123982147023,-1.35863181744,0.0794761119337,1.89515135212,0.158894396578,-0.000538953635992,-0.0228168109849,0.000410278225046,-0.034346104289,8.93335075725e-05,0.00727421564902,-0.00422565724111,0.57391195311,0.818902416133,0.00215634652627,0.0,0.818860628356,-0.573851198015,-0.0119507642749,0.0,-0.00854925230154,0.00862459978791,-0.999926260563,0.0,0.661351000908,0.260511228379,0.303319833657,1.0,-0.00396,-0.00520457142857,0.199
0.464786577846,0.545524215479,-0.12397827753,-1.35923842313,0.0793718790965,1.89535337669,0.158800433755,-0.00483228915969,-0.0218794584455,0.000745445255425,-0.0365614109213,-0.0130709501906,0.0161334978305,-0.00565601379696,0.573896279355,0.818913602633,0.00207818809695,0.0,0.818871344772,-0.573836396956,-0.0119271597835,0.0,-0.00857493851188,0.0085468858587,-0.9999267079,0.0,0.661284681638,0.260396222784,0.303300115073,1.0,-0.0043,-0.00565142857143,0.216
0.464727034384,0.545158241445,-0.123982516441,-1.35989914596,0.0793373500203,1.89555881821,0.158722914727,-0.00532224168387,-0.0237983233364,0.00129879457233,-0.0441808058433,-0.00149198114986,0.0100150737351,-0.000673486016904,0.573912076919,0.818902717234,0.00200364029748,0.0,0.818859394338,-0.573852410116,-0.011977086866,0.0,-0.00865844186725,0.00851465841274,-0.99992626327,0.0,0.661201861564,0.260289109894,0.303262631682,1.0,-0.00462,-0.006072,0.232
0.464657789137,0.544727852113,-0.123983538568,-1.36061478852,0.0793202765419,1.89580068389,0.158646843824,-0.00156419170587,-0.0223416933022,0.00157798370761,-0.0391780681705,-0.000762439766036,0.0225395121917,0.00102153392159,0.573942495233,0.818881454606,0.00198049737726,0.0,0.818837555874,-0.573882654072,-0.012020954473,0.0,-0.00870733123644,0.00852120629674,-0.999925782959,0.0,0.661116114683,0.260177082938,0.303247658705,1.0,-0.00496,-0.00651885714286,0.249
0.464580422885,0.544241963009,-0.123994935113,-1.36142749197,0.0792922988819,1.8960908906,0.158519428614,-0.00308913969749,-0.0287881129951,-0.000598568055294,-0.0458972966534,-0.00506251972923,0.0213479247193,-0.00714254876691,0.573947363434,0.818878097785,0.00195751792197,0.0,0.818833735292,-0.573887460556,-0.0120516997157,0.0,-0.00874564632981,0.00852008702673,-0.999925458115,0.0,0.661024150651,0.260044406007,0.303230244941,1.0,-0.00532,-0.006992,0.267
0.464518492351,0.543787991254,-0.12398994707,-1.3621497238,0.0792655768858,1.89634417654,0.158455716085,-0.000772191637966,-0.0325042237644,0.000318569113208,-0.0452720303762,-0.00237638137543,0.0192163538873,-0.00302904604581,0.573975468538,0.818858404419,0.00195497599107,0.0,0.818813802749,-0.5739153726,-0.012076772049,0.0,-0.00876734431477,0.00853269650162,-0.999925160582,0.0,0.660936857525,0.25993945165,0.303229508297,1.0,-0.00562,-0.00738628571429,0.282
0.464436585695,0.543248235051,-0.124000951963,-1.36300659501,0.0792099503976,1.89663666214,0.158336157613,-0.00604369204881,-0.0304915469308,-0.00157011307964,-0.0442866792426,-0.00616660367474,0.0180925219067,-0.00755638525602,0.573985080266,0.818851727077,0.00192966229681,0.0,0.818806842148,-0.573925139797,-0.0120845381078,0.0,-0.00878813239583,0.00851652923704,-0.999925115926,0.0,0.660839010031,0.259795161143,0.303229208425,1.0,-0.00596,-0.00783314285714,0.299
0.464356207672,0.542653185382,-0.123998842733,-1.36394706389,0.0791613203229,1.89697915364,0.158210225497,-0.00661262284384,-0.033520316664,0.00045455058368,-0.0495842033801,-0.00187716488575,0.0171316494553,-0.00157607669588,0.573985635331,0.818851332786,0.00193187208835,0.0,0.818806372587,-0.573925584168,-0.012095244918,0.0,-0.00879562594765,0.00852449013853,-0.999924982202,0.0,0.660729402742,0.259654817085,0.303232087538,1.0,-0.00632,-0.00830628571429,0.317
0.464283981972,0.542121138298,-0.124001792416,-1.36477261401,0.0791178568709,1.89728377871,0.158097522138,-0.00771561214134,-0.0355851744485,6.2544566996e-05,-0.0585711894908,-0.000157601080483,0.0188997375719,-0.00139287209247,0.573986293971,0.818850844931,0.00194293358691,0.0,0.818805973595,-0.573926140145,-0.0120958738541,0.0,-0.00878978538216,0.00853391573746,-0.999924953162,0.0,0.660629377797,0.259519581782,0.303241394623,1.0,-0.00664,-0.00872685714286,0.333
0.464200004748,0.54144750066,-0.12400739726,-1.36578980752,0.0790421905012,1.89766465857,0.157963819166,-0.00391270382156,-0.0407532264286,-0.00092976160759,-0.0586928326936,-0.00100578287574,0.024873480017,-0.00386018111158,0.573988319242,0.818849368753,0.00196661301044,0.0,0.818804971528,-0.573928222188,-0.0120648778786,0.0,-0.00875079140601,0.00853553582093,-0.999925281348,0.0,0.660522031754,0.259371002021,0.303267221248,1.0,-0.00698,-0.00917371428571,0.35
0.464115541997,0.540758623416,-0.124002719274,-1.36685137349,0.0789889036234,1.89805433643,0.157837651826,-8.26197792109e-05,-0.0445382947161,0.000678821058895,-0.0628416653264,-0.00483904528876,0.0269519270177,-0.0088575328217,0.573995500651,0.818844283032,0.00198803396603,0.0,0.818800030224,-0.57393517758,-0.0120693554949,0.0,-0.00874208843181,0.00855572274544,-0.99992518495,0.0,0.660396616086,0.259218781283,0.303282549839,1.0,-0.00732,-0.00962057142857,0.367
0.464030028285,0.540070941721,-0.124005461728,-1.36790169579,0.0789256392154,1.89843482369,0.157704440054,-0.00886123044648,-0.0489116677806,5.9702164181e-05,-0.0683647092622,-0.000375805080104,0.0249137908303,-0.010546982754,0.573999557986,0.818841402457,0.00200298645795,0.0,0.818797338311,-0.573939163246,-0.0120624445454,0.0,-0.00872780467426,0.00856404270211,-0.999925238504,0.0,0.660274266821,0.259060657188,0.303301703895,1.0,-0.00764,-0.0100411428571,0.383
0.463929290484,0.539336094141,-0.12401163717,-1.3690476231,0.0788594145457,1.89887484501,0.157558668094,-0.00381292001369,-0.0434187714209,-0.00121705143134,-0.069221095687,-0.00117181564748,0.0132685276135,-0.00751053105312,0.574012822392,0.818832045822,0.00202666375661,0.0,0.818788308335,-0.573952341307,-0.0120483585539,0.0,-0.00870254122626,0.00857548599225,-0.999925360623,0.0,0.660147623052,0.258883326004,0.303313855584,1.0,-0.00798,-0.010488,0.4
0.46381985095,0.538565660076,-0.124012303629,-1.37023772353,0.0787912770143,1.89933615182,0.157414201168,-0.00669418830443,-0.0474061244411,0.000990439638448,-0.0708553515967,-0.00499857979642,0.0269395725541,-0.00609740152648,0.574032270326,0.818818321899,0.00206282538403,0.0,0.818775048163,-0.573971624253,-0.0120308752124,0.0,-0.00866726468786,0.00859526605083,-0.999925497187,0.0,0.660016803894,0.258699816925,0.303331661674,1.0,-0.00832,-0.0109348571429,0.417
0.463713947065,0.537789721851,-0.1240232541,-1.37146113785,0.0787239109613,1.89980797618,0.157261508502,-0.001655935101,-0.0444767455786,-0.00202383618354,-0.0722788556572,-0.00837922116764,0.0260277425875,-0.0109537816788,0.574051279283,0.818804944343,0.00208297234388,0.0,0.818761944624,-0.573990556489,-0.0120194009415,0.0,-0.00864610492844,0.00860537665372,-0.999925593413,0.0,0.659881651163,0.258509640026,0.303338623872,1.0,-0.00866,-0.0113817142857,0.434
0.463603181074,0.536956110747,-0.124023703327,-1.37275859251,0.0786475528865,1.90028628994,0.157095659329,-0.00743467680355,-0.0522299845534,-0.000321170490054,-0.0766244459293,-0.00841839353395,0.0285678687031,-0.0150563391654,0.574057510944,0.818800542187,0.00209598305513,0.0,0.818757680834,-0.573996701184,-0.0120164057345,0.0,-0.00863611844321,0.00861437604516,-0.999925602224,0.0,0.659731227605,0.258313322943,0.303351128762,1.0,-0.009,-0.0118285714286,0.451
0.463484265125,0.536114479327,-0.124024478712,-1.37407507931,0.0785750546198,1.90078128222,0.156941969392,-0.00990934788577,-0.0491631400538,0.00316207392608,-0.086699240672,-0.000363952643537,0.0329105171196,-0.00517923161639,0.574082646697,0.818782868037,0.00211581486492,0.0,0.818740205165,-0.574021690095,-0.0120134361215,0.0,-0.00862203805883,0.00862917403951,-0.99992559614,0.0,0.659581595897,0.258111054253,0.303361549105,1.0,-0.00934,-0.0122754285714,0.468
0.46336325066,0.535275616623,-0.124030860913,-1.37540589465,0.0785003912175,1.90126598984,0.156777545365,-0.0126859938977,-0.0537535748301,-0.00112478039532,-0.0841462051073,-0.00502233104791,0.0289245425117,-0.00682987735571,0.574104654993,0.818767449857,0.00211070390311,0.0,0.818724672489,-0.574043669282,-0.0120217850753,0.0,-0.00863157628011,0.00863001428936,-0.999925506598,0.0,0.659428141702,0.257901382354,0.303362328888,1.0,-0.00966,-0.012696,0.484
0.463243849489,0.534376657395,-0.12403641006,-1.37687772734,0.0784231852799,1.90179026032,0.156602399285,-0.00423888398495,-0.0609380134753,-0.000382308321771,-0.0866019292552,-0.000139160811619,0.0321760335919,-0.0122486525754,0.574122885409,0.818754761865,0.00207346901026,0.0,0.818711363943,-0.574061921396,-0.0120565275374,0.0,-0.00868120686892,0.00861966697455,-0.999925166194,0.0,0.659250579597,0.257679596115,0.303341648573,1.0,-0.01,-0.0131428571429,0.501
0.463113534741,0.533453756947,-0.124038866161,-1.37835947305,0.0783376264397,1.90233449877,0.1564127263,-0.00381715001258,-0.054665454181,0.000798954452619,-0.0846310228585,-0.00237286664629,0.0319984010052,-0.0147977191906,0.574134195054,0.81874686115,0.00206163248002,0.0,0.818703255626,-0.574073227735,-0.0120687748988,0.0,-0.00869791101586,0.00861712749152,-0.99992504292,0.0,0.659077519693,0.257451575689,0.30333456457,1.0,-0.01034,-0.0135897142857,0.518
0.462991164208,0.532565007082,-0.124037268267,-1.3797979598,0.0782590150877,1.90287416563,0.156235120856,-0.00461599262637,-0.058573068756,0.000786267452829,-0.0912649783626,-0.0034353867813,0.0318701115557,-0.017606135143,0.574145479661,0.818738961222,0.00205632277689,0.0,0.818695189578,-0.574084437964,-0.012082696361,0.0,-0.00871223909933,0.00862089304235,-0.999924885725,0.0,0.658908993305,0.257236661178,0.303323291388,1.0,-0.01066,-0.0140102857143,0.534
0.462848400622,0.531533681722,-0.124037871114,-1.38146323536,0.0781624928053,1.90348618572,0.156030245731,-0.00639176950411,-0.0579523025341,0.000467561401308,-0.094968925217,-0.00580791082476,0.030225243658,-0.0183498952353,0.574159997027,0.818728825392,0.00203842768141,0.0,0.818684750569,-0.574098962465,-0.0120998918524,0.0,-0.00873643923029,0.00861626941781,-0.999924714431,0.0,0.658712115564,0.256984026018,0.303310717044,1.0,-0.01102,-0.0144834285714,0.552
0.462722728443,0.530583294339,-0.124038008104,-1.38299473379,0.0780694344564,1.90402661327,0.155825610697,-0.00229651923728,-0.0552655460875,1.7106500125e-05,-0.0966851844389,-0.00578023502225,0.0317190922702,-0.0105221194003,0.574158721109,0.818729806767,0.00200334396366,0.0,0.818685197543,-0.574097765533,-0.0121264106313,0.0,-0.00877830754942,0.00860275809809,-0.999924464082,0.0,0.658512452489,0.256737881114,0.303299991698,1.0,-0.01136,-0.0149302857143,0.569
0.462592777797,0.529607805327,-0.124043119248,-1.38455139045,0.0779682120605,1.90459962083,0.155623225386,-0.00936733299528,-0.0553966158681,0.0018687836589,-0.0970872970237,-0.00737008854427,0.035815633963,-0.0131518497016,0.574155314888,0.818732226629,0.0019905691669,0.0,0.818687521949,-0.574094485996,-0.0121247456108,0.0,-0.00878431431385,0.00859130668193,-0.999924509786,0.0,0.658341230309,0.256515483844,0.303294401788,1.0,-0.01166,-0.0153245714286,0.584
0.462451101026,0.528442248851,-0.124046804511,-1.38633906422,0.0778585195549,1.90528275036,0.155377534946,-0.00840042690596,-0.0701730357118,-0.000491168605158,-0.102439788119,-0.00537581602897,0.040334842277,-0.0169295370054,0.574140280797,0.818742647334,0.00204017263956,0.0,0.818698635807,-0.574079281114,-0.012094197964,0.0,-0.00873098291464,0.00861421862229,-0.999924779758,0.0,0.658133212207,0.256251783153,0.303323617831,1.0,-0.01202,-0.0157977142857,0.602
0.462304004411,0.527332706854,-0.12404245539,-1.38807867136,0.0777559886818,1.90595375423,0.155127678239,-0.0106542619361,-0.0665642431248,0.00152872761225,-0.103140199214,-0.0107626755409,0.0433782374061,-0.0128184633577,0.574119798978,0.818756919232,0.00207618232952,0.0,0.818713346275,-0.574058614762,-0.0120793356392,0.0,-0.00869835675257,0.008634950181,-0.999924885291,0.0,0.657931172469,0.255994514955,0.303334699169,1.0,-0.01236,-0.0162445714286,0.619
0.462163066777,0.526237069403,-0.12404745464,-1.38977802715,0.0776440480936,1.90659039391,0.15490238054,-0.00690697564091,-0.0674012287263,0.000335230436859,-0.107821801355,-0.00298001006811,0.0406600568497,-0.0125028979139,0.574115848235,0.818759635036,0.0020975564763,0.0,0.818716437456,-0.574054668674,-0.0120573344717,0.0,-0.00866811357159,0.0086397771158,-0.999925106225,0.0,0.657731894452,0.255736658764,0.303352168859,1.0,-0.01268,-0.0166651428571,0.635
0.461993625737,0.525046872832,-0.124052128175,-1.39162369422,0.0775293310453,1.9072454955,0.154655208059,-0.0106620916317,-0.0697778589269,-8.66254861232e-05,-0.110767169834,-0.0077905917454,0.041256194054,-0.0126221186493,0.574123787144,0.818754073073,0.00209565344875,0.0,0.818710832823,-0.574062596934,-0.0120604278626,0.0,-0.00867165513071,0.0086400790477,-0.999925072909,0.0,0.657511261888,0.25544497786,0.303367825951,1.0,-0.01302,-0.017112,0.652
0.461839824095,0.52385240645,-0.124062054731,-1.39351705993,0.0774155892233,1.90792900402,0.154393842983,-0.00679875047313,-0.0690982612014,0.000297109134219,-0.114499668498,-0.00225054969241,0.0399659957357,-0.0123840339668,0.57411374866,0.818761150053,0.0020807845746,0.0,0.818717694784,-0.574052602625,-0.012070317671,0.0,-0.00868839465575,0.00863347669703,-0.999924984626,0.0,0.657281737821,0.255157028393,0.303366126028,1.0,-0.01336,-0.0175588571429,0.669
0.461685931737,0.522704973707,-0.124070486633,-1.39532635374,0.0772989752279,1.90862993488,0.154154471718,-0.0144233282617,-0.0777737705382,0.00010580956455,-0.11144436875,-0.00609550020464,0.0458552296776,-0.0134647695668,0.574115482461,0.818759869292,0.00210621392189,0.0,0.818716868245,-0.574054349422,-0.0120432745587,0.0,-0.00865163521166,0.00863878957314,-0.999925257468,0.0,0.657073491184,0.254879978638,0.303372516674,1.0,-0.01368,-0.0179794285714,0.685
0.461513339289,0.521399484465,-0.124069846297,-1.39743529238,0.0771719976975,1.9094505906,0.153866555443,-0.0144744084279,-0.0810449382859,0.000495597351675,-0.116125851359,-0.0049908225853,0.0482679870222,-0.0168027826788,0.574099494617,0.818771048612,0.00211828642084,0.0,0.818728210355,-0.574038317673,-0.0120363746155,0.0,-0.00863922382387,0.00864454386838,-0.999925315048,0.0,0.656825319989,0.254568903885,0.303357158666,1.0,-0.01404,-0.0184525714286,0.703
0.461356327905,0.520103800286,-0.124076970235,-1.39946439198,0.0770398019486,1.91019002708,0.153583728236,-0.00669363957878,-0.0757334090603,0.000542706562273,-0.121528015785,-0.0130506517285,0.0432003824269,-0.0245577095317,0.574073932789,0.81878897466,0.00211697143034,0.0,0.81874618241,-0.574012827853,-0.0120295116548,0.0,-0.00863462899963,0.00863925767454,-0.999925400422,0.0,0.656576845863,0.254266639502,0.303365674498,1.0,-0.01438,-0.0188994285714,0.72
0.461178313088,0.518766746855,-0.124076586699,-1.40155176671,0.0769137338631,1.91093541826,0.153314458101,-0.0147329267934,-0.0810482681613,0.0017613823993,-0.122915449161,-0.0146789172432,0.0437792693736,-0.00935608947793,0.574075741483,0.818787714075,0.00211405356375,0.0,0.818744800973,-0.574014565876,-0.0120405956038,0.0,-0.00864536066185,0.00864325062278,-0.999925273187,0.0,0.656319448318,0.253950032526,0.303375396237,1.0,-0.01472,-0.0193462857143,0.737
0.461019044408,0.517505608194,-0.124086866148,-1.40354261748,0.076782663298,1.91164179968,0.153044469491,-0.00855235154336,-0.0785911706055,-0.00137683764822,-0.124022519694,-0.00404690981388,0.0385884375577,-0.0195754934762,0.574062327909,0.818797188115,0.00208693815941,0.0,0.818753977467,-0.574001325461,-0.0120478069761,0.0,-0.00866697207143,0.00862504709655,-0.999925243285,0.0,0.656072302077,0.253646587792,0.303374351311,1.0,-0.01504,-0.0197668571429,0.753
0.460831972291,0.516135949783,-0.124087295195,-1.40569580324,0.076647534655,1.91244995163,0.152735455805,-0.0081800395762,-0.0847615355615,-0.000158460855802,-0.126629772573,-0.00813166972062,0.0436262378375,-0.0200788999855,0.574040241598,0.818812627043,0.0021046905856,0.0,0.818769665131,-0.573979183496,-0.0120365807175,0.0,-0.00864782219147,0.00863290471924,-0.999925341277,0.0,0.655814187079,0.253319056915,0.303380304211,1.0,-0.01538,-0.0202137142857,0.77
0.460653309474,0.514850435127,-0.124090407201,-1.40777502038,0.0765182536186,1.9132201883,0.152462832537,-0.0128156830359,-0.0812797550409,-0.000166208800531,-0.131264023159,-0.0121032774498,0.0468067221764,-0.0150318349707,0.574040327025,0.818812628107,0.00208084165976,0.0,0.818769349368,-0.573979364786,-0.0120494081313,0.0,-0.00867201432818,0.00862074153204,-0.999925236697,0.0,0.655561202956,0.253001588518,0.303358904048,1.0,-0.0157,-0.0206342857143,0.786
0.460457118241,0.513439979663,-0.124093660562,-1.41002548847,0.0763893099058,1.91400016669,0.15214445785,-0.0140244951521,-0.0810021582477,-0.00268930741161,-0.126921599565,-0.00602341632084,0.0494272354635,-0.0206675932437,0.574025879052,0.818822872251,0.00203493443076,0.0,0.818778804906,-0.573964929109,-0.0120944487515,0.0,-0.00873539845223,0.00860885350463,-0.999924787399,0.0,0.655276389771,0.252654686434,0.303344008748,1.0,-0.01604,-0.0210811428571,0.803
0.460257412902,0.511928162061,-0.124096536263,-1.41245771426,0.0762414322243,1.91486539669,0.151799334034,-0.00997997920049,-0.083102162095,0.000983113050386,-0.131331050711,-0.00528971155154,0.0466815623044,-0.0144655545449,0.573996245254,0.818843761692,0.00198778129252,0.0,0.81879897542,-0.573935404761,-0.0121299593641,0.0,-0.00879185276454,0.00859030980581,-0.999924452097,0.0,0.654968905075,0.252288258667,0.303320531752,1.0,-0.0164,-0.0215542857143,0.821
0.460079454359,0.510645840692,-0.124094351257,-1.41451356142,0.0761111377051,1.91565942304,0.151519482025,-0.00639348903901,-0.0899768022174,0.00144380831355,-0.135469222033,-0.00539289494685,0.05593911279,-0.01826303844,0.573978764836,0.818855949138,0.00201469113594,0.0,0.818811539949,-0.573917833115,-0.0121132068442,0.0,-0.00876287302883,0.00860254147976,-0.999924601326,0.0,0.654707319786,0.251960543999,0.303314206239,1.0,-0.01672,-0.0219748571429,0.837
0.459869218227,0.509063022909,-0.124094466234,-1.41701081733,0.0759534794692,1.91657697932,0.151170508925,-0.0090238233188,-0.0925528596224,0.00101226162101,-0.141668314906,-0.00592134942079,0.0522734854167,-0.0205930145347,0.573957608339,0.818870814698,0.00199989149471,0.0,0.818826212379,-0.573896744524,-0.0121205382322,0.0,-0.00877759279442,0.00859440418222,-0.999924542194,0.0,0.654412396389,0.251602288203,0.303307380251,1.0,-0.01706,-0.0224217142857,0.854
0.45964760435,0.507548670704,-0.124100709002,-1.4193949699,0.0758018588212,1.91742719916,0.150830738736,-0.0149480460591,-0.0890497428381,-0.00139239643513,-0.142684717871,-0.00999523812986,0.0479673618835,-0.024579899654,0.573947838049,0.818877712114,0.00197957160896,0.0,0.81883282865,-0.573887049866,-0.0121325851541,0.0,-0.00879922247468,0.0085845745189,-0.999924436527,0.0,0.654117032905,0.251223922028,0.303305807291,1.0,-0.0174,-0.0228685714286,0.871
0.45943253925,0.50597739159,-0.124106292319,-1.42182503526,0.0756440801852,1.91833663378,0.15050784537,-0.0120427227346,-0.0933020410847,-7.53056182219e-05,-0.140880500959,-0.00891267583048,0.052088817279,-0.015222285429,0.573946548264,0.818878527471,0.0020159080352,0.0,0.818834204643,-0.573885684502,-0.0121042691507,0.0,-0.00875519390014,0.00859806349027,-0.999924707107,0.0,0.65382155194,0.250848588484,0.303326715658,1.0,-0.01774,-0.0233154285714,0.888
0.459217127434,0.504439379101,-0.124112662929,-1.42416262717,0.0755022536728,1.91924105221,0.150179307658,-0.0139123272351,-0.0939723058798,0.000363317740915,-0.150433610695,-0.00661355273314,0.0539112290341,-0.0253969337233,0.573940899517,0.818882266275,0.00210350743848,0.0,0.818839136102,-0.573879706582,-0.0120539811729,0.0,-0.00866379799391,0.00864087337446,-0.999925134153,0.0,0.653544804895,0.250485352999,0.303367400187,1.0,-0.01806,-0.023736,0.904
0.458976053476,0.502664714904,-0.124115977159,-1.42678558584,0.0753361694804,1.92022521415,0.149816771809,-0.0123580152874,-0.0944043910684,0.000150529676441,-0.150524800334,-0.00974249947027,0.0600336862574,-0.0150074341123,0.573933532402,0.818887130194,0.00221704496238,0.0,0.818845544423,-0.573871927797,-0.0119888184123,0.0,-0.00854535376207,0.00869636972202,-0.999925672279,0.0,0.653227639844,0.2500780367,0.303443658621,1.0,-0.01842,-0.0242091428571,0.922
0.458765543103,0.501145940818,-0.124119412987,-1.42904814978,0.0751922661301,1.92102662612,0.149499456597,-0.0129728690171,-0.104231148595,-0.00127367449586,-0.152917517704,-0.00188384653848,0.0533577379425,-0.0273273131698,0.573925028391,0.81889295692,0.00226578783956,0.0,0.818851989537,-0.57386320759,-0.0119659979513,0.0,-0.00849878279537,0.00872309854087,-0.999925836371,0.0,0.652944052394,0.249721360656,0.303496352373,1.0,-0.01872,-0.0246034285714,0.937
0.458512368076,0.499342901968,-0.124117078785,-1.43180176116,0.0750128675149,1.92202145807,0.149107895409,-0.0137732766039,-0.0978410930203,-0.000744168403662,-0.154210388075,-0.00821994278451,0.0592451182141,-0.0162061587232,0.573901610812,0.818909272573,0.0023002831349,0.0,0.818868756298,-0.573839654731,-0.0119481177662,0.0,-0.00846459371825,0.00874084231029,-0.999925971424,0.0,0.65259841457,0.249293203726,0.303529693848,1.0,-0.01908,-0.0250765714286,0.955
0.458260497114,0.497669573803,-0.12411920391,-1.43444182673,0.0748549170541,1.92300342137,0.148724589963,-0.0185851773139,-0.100678117084,0.000335250063416,-0.159198156077,-0.0111498246916,0.0526305008913,-0.0253157207519,0.573887117077,0.818919390008,0.00231439473951,0.0,0.818878981844,-0.5738250276,-0.0119497989372,0.0,-0.00845802727435,0.0087532133961,-0.999925918771,0.0,0.652272472912,0.248877678393,0.303525084569,1.0,-0.01942,-0.0255234285714,0.972
0.458013836379,0.496092984316,-0.124119579059,-1.43696631108,0.0747031114922,1.92388669593,0.148350642053,-0.0126424197219,-0.0947973109942,0.000714587743353,-0.155214207216,-0.00534765127855,0.0488286215551,-0.020331999399,0.573869726805,0.818931721189,0.00226265089924,0.0,0.818890466029,-0.573807672717,-0.0119960943214,0.0,-0.00852581987199,0.008737226839,-0.999925482855,0.0,0.651948997574,0.24847354006,0.303498876898,1.0,-0.01974,-0.025944,0.988
0.457742607872,0.494426818314,-0.124119914235,-1.43971057445,0.0745295911412,1.92483684264,0.147957918788,-0.0184963791846,-0.0940167576425,0.000625980959488,-0.160646194538,-0.0101196691105,0.0599718296112,-0.0243818006106,0.573861630043,0.81893769371,0.00215181008659,0.0,0.818894844251,-0.573799891142,-0.0120692123026,0.0,-0.00864939102213,0.00868833130832,-0.999924847643,0.0,0.651594016717,0.24802976208,0.30343576517,1.0,-0.0226222857143,-0.0297321469388,1.005
0.457414174892,0.491937293023,-0.124206580435,-1.44344521674,0.0743163548295,1.92623750923,0.147424581989,-0.015365618732,-0.154583770452,-0.0100368434623,-0.234225072289,-0.0185508679912,0.0906397969816,-0.0288798325233,0.573886438868,0.818919974691,0.00227535409378,0.0,0.818878970672,-0.57382441827,-0.0119797866853,0.0,-0.00850499661749,0.00873844497963,-0.999925649542,0.0,0.651144299906,0.247415611061,0.303514929169,1.0,-0.0345125714286,-0.0453593795918,1.023
0.457051016089,0.489152753373,-0.12423223107,-1.44787735851,0.0740866093981,1.92791416883,0.14675472872,-0.0283987672845,-0.204638208403,-0.00376884511808,-0.327843720478,-0.0208362602701,0.118950977835,-0.0491790339027,0.573814231467,0.818970458418,0.00231579473075,0.0,0.818929657058,-0.573751720147,-0.011996971325,0.0,-0.00849663748198,0.00878067492065,-0.999925350663,0.0,0.650580733692,0.246752019725,0.303488179242,1.0,-0.0444211428571,-0.0583820734694,1.038
0.456365032437,0.484507520792,-0.124320264688,-1.45517753283,0.0736596448471,1.93065995118,0.145650375838,-0.0362883963323,-0.266674782738,-0.00260086319432,-0.414760863486,-0.0295720940521,0.150415271432,-0.0668587469488,0.573782275361,0.818992650027,0.00238465624372,0.0,0.81895282885,-0.573719575061,-0.0119524144569,0.0,-0.00842097775338,0.00881117418217,-0.999925722413,0.0,0.649677926637,0.245567762164,0.303480856002,1.0,-0.056972,-0.0748774857143,1.057
0.455621672151,0.479687306576,-0.124457603654,-1.46283513419,0.0731984739904,1.93330319234,0.144488692618,-0.0497905468256,-0.324511348262,-0.0119228088336,-0.507007750482,-0.0346919941743,0.172824389827,-0.0816402163933,0.573789025642,0.818988425196,0.0022046199482,0.0,0.818946224712,-0.573727031602,-0.0120466236012,0.0,-0.00860136083625,0.00871785344762,-0.999925004999,0.0,0.648688519166,0.244266437608,0.303412365482,1.0,-0.0675411428571,-0.0887683591837,1.073
0.454778457681,0.474352485091,-0.124590120333,-1.47115533807,0.0726912830496,1.93624938809,0.143301831197,-0.0548714013128,-0.371316992395,-0.0133713288063,-0.577577519591,-0.0347644607088,0.205424249236,-0.0718507135225,0.573869203242,0.818932378659,0.0021549140695,0.0,0.818889609833,-0.57380749046,-0.0120630718085,0.0,-0.00864250065062,0.00868742940893,-0.999924915058,0.0,0.647624451314,0.242845823877,0.303404917153,1.0,-0.0774497142857,-0.101791053061,1.088
0.453596821495,0.467031074858,-0.124703873466,-1.48231867429,0.0720393796514,1.9403915615,0.141562729084,-0.068025365773,-0.435402086801,-0.00144593803465,-0.64506968253,-0.0311645902371,0.237500730029,-0.106618544664,0.573853434692,0.818942697528,0.00241672465159,0.0,0.818903239441,-0.573790539721,-0.0119435280216,0.0,-0.00839453293461,0.00883306828751,-0.999925751604,0.0,0.646216310703,0.24096624324,0.303511313826,1.0,-0.08934,-0.117418285714,1.106
0.452179125379,0.458773083582,-0.124765061358,-1.49516252059,0.0712267756287,1.94491062346,0.139568526188,-0.0878214448825,-0.480844422194,-0.00416737428007,-0.748726213726,-0.0513044217177,0.263496426507,-0.107060386369,0.573806533853,0.818975729001,0.00235879557739,0.0,0.818935108218,-0.573743452981,-0.0120202158718,0.0,-0.00849108501659,0.00882914890546,-0.999924970988,0.0,0.644516734937,0.238783325262,0.303481155533,1.0,-0.101230285714,-0.133045518367,1.124
0.450823714054,0.451067530881,-0.124908563882,-1.50695297703,0.0704324340288,1.94897593444,0.137698956476,-0.0913242937624,-0.543159868739,-0.0134891482799,-0.786690836788,-0.0632980036237,0.286605735682,-0.123831024756,0.573813880949,0.818970731764,0.00230595864847,0.0,0.818929683902,-0.573751288059,-0.0120157886,0.0,-0.00851769642973,0.00878341338422,-0.999925147447,0.0,0.642951708754,0.236686176618,0.303519725783,1.0,-0.111138857143,-0.146068212245,1.139
0.449149519235,0.441514835297,-0.125018139906,-1.52143008149,0.0694785071921,1.9541703421,0.13547854032,-0.105387588813,-0.569476573634,-0.00349585996931,-0.89743877781,-0.0494079061418,0.30647316628,-0.136023023338,0.573837471308,0.818953599049,0.00251118069532,0.0,0.818915404279,-0.573774242817,-0.0118922586298,0.0,-0.00829851697582,0.00888083915825,-0.999926129928,0.0,0.641025852725,0.234167491869,0.303625410271,1.0,-0.122368571429,-0.160827265306,1.156
0.447256200988,0.43110615279,-0.125115719653,-1.53705743111,0.0684336836443,1.95965960853,0.132891854701,-0.110649612125,-0.632497063862,-0.00455180488117,-0.932863421614,-0.056486952401,0.345275666216,-0.160853216303,0.573739528621,0.819021533099,0.00272553110123,0.0,0.818986111836,-0.573675491824,-0.0117866704595,0.0,-0.00809012227482,0.00899482405097,-0.999926818853,0.0,0.63890018193,0.231405119996,0.303769582642,1.0,-0.133598285714,-0.175586318367,1.173
0.445131819835,0.420064439876,-0.125235761412,-1.55385918644,0.0672303938121,1.96542926097,0.130126300342,-0.129195251556,-0.670226032424,-0.0103172762376,-1.01836866839,-0.067944576357,0.338658365518,-0.168391369197,0.573684564811,0.819060190128,0.00267804889733,0.0,0.819024457682,-0.573621046812,-0.011771969868,0.0,-0.00810592273053,0.00894695721314,-0.999927120331,0.0,0.636562911882,0.228357314314,0.303783652846,1.0,-0.144828,-0.190345371429,1.19
0.442759678992,0.408181241289,-0.125373194934,-1.57160302565,0.0659667669278,1.97170359733,0.127167380638,-0.149101251895,-0.691346027045,-0.0103772203153,-1.06990653022,-0.0750192532815,0.361350918539,-0.171611906361,0.573687823122,0.81905689075,0.00297291404109,0.0,0.819025581344,-0.573623973879,-0.0115490517713,0.0,-0.00775414495997,0.00906061746556,-0.999928886695,0.0,0.634112696512,0.225078324923,0.3039312511,1.0,-0.156057714286,-0.20510442449,1.207
0.440609769841,0.397839987823,-0.125485639782,-1.58709076143,0.0649427311118,1.97694162398,0.124541477248,-0.155658774037,-0.781485742955,-0.0108777996089,-1.11599039305,-0.0698105866082,0.397975131828,-0.194223883574,0.573719340818,0.819034472994,0.00306543954465,0.0,0.819003733715,-0.573654450291,-0.0115845898872,0.0,-0.00772982425926,0.00915708600854,-0.999928196218,0.0,0.631890833831,0.222178872925,0.30399014716,1.0,-0.165305714286,-0.217258938775,1.221
0.437588438894,0.383978311689,-0.125621985543,-1.60806124207,0.0633619296793,1.98393203936,0.120904587016,-0.176949941334,-0.817560776941,-0.0104607974675,-1.18184992377,-0.0848818774607,0.384827405882,-0.215567127725,0.573670241214,0.819069404468,0.002917517951,0.0,0.819036946019,-0.573606075241,-0.0116317841802,0.0,-0.00785388373162,0.00906253791087,-0.999928090873,0.0,0.628646730467,0.217940575902,0.303949095601,1.0,-0.177856571429,-0.23375435102,1.24
0.434254943717,0.36922640583,-0.125784216354,-1.63003063821,0.061716125103,1.99125181787,0.116958197392,-0.194310026304,-0.840727948951,-0.00613755562706,-1.24193737156,-0.0930648717268,0.403997859377,-0.211836167549,0.573645328609,0.819086842692,0.00292027311242,0.0,0.819054560172,-0.573581318564,-0.011612293357,0.0,-0.00783661347894,0.0090533751539,-0.999928309374,0.0,0.625558630164,0.213891807828,0.303957121069,1.0,-0.189086285714,-0.248513404082,1.257
0.430736921501,0.35464870603,-0.125978884436,-1.6515748095,0.0600389446541,1.99835078564,0.113022529914,-0.215890255179,-0.837777730085,-0.0149653963818,-1.28837918143,-0.0998562818118,0.415789327292,-0.249022525975,0.573728892214,0.819028200819,0.00295150880241,0.0,0.818996797561,-0.573665320158,-0.0115365911116,0.0,-0.00775576454211,0.00903632587279,-0.999929093952,0.0,0.62232487441,0.20953066769,0.304001873537,1.0,-0.200316,-0.263272457143,1.274
0.426885101082,0.339362920292,-0.126163589671,-1.6739633983,0.0583782203996,2.00558588051,0.108805524751,-0.231878556116,-0.907932693425,-0.00289297327878,-1.33203159937,-0.0966613804168,0.432341969094,-0.257307104725,0.573846383627,0.818945513922,0.00305288830005,0.0,0.818914858896,-0.573781809092,-0.0115601183117,0.0,-0.00771556380849,0.00913396353602,-0.999928517838,0.0,0.618880474205,0.204925370496,0.30406696765,1.0,-0.211545714286,-0.278031510204,1.291
0.422830379282,0.323536168559,-0.12629986002,-1.69711011555,0.0564921530643,2.01304485114,0.104278350372,-0.241667600353,-0.93679651373,-0.00920980965124,-1.37034045264,-0.125157816916,0.436593318541,-0.274921433084,0.573745647506,0.819015955203,0.00308933529664,0.0,0.81898608042,-0.573681338033,-0.0115008422667,0.0,-0.00764722654093,0.00912885655767,-0.999929089438,0.0,0.615227910595,0.200163585725,0.304082643311,1.0,-0.222775428571,-0.292790563265,1.308
0.41846877105,0.307086424763,-0.1264550631,-1.72089763163,0.0545377726615,2.02058322393,0.0994917826911,-0.267380361218,-0.985913269737,-0.0158010525464,-1.41209889707,-0.12982305487,0.470715558414,-0.287762114515,0.573649584187,0.819082858398,0.00318944225686,0.0,0.8190544291,-0.573585165758,-0.0114300785339,0.0,-0.00753290966352,0.00916936314368,-0.999929586547,0.0,0.611390822547,0.195176921692,0.304138233033,1.0,-0.234005142857,-0.307549616327,1.325
0.41399675246,0.291090167547,-0.126590511272,-1.74389003391,0.0526156757167,2.02759069374,0.0947463090377,-0.289419197832,-1.0460898255,-0.0104921747706,-1.43937544098,-0.118659453221,0.459119217362,-0.288169005078,0.573598420417,0.819118838333,0.00315082287833,0.0,0.819089604648,-0.573533755445,-0.0114890306107,0.0,-0.00760392452839,0.00917107264773,-0.999929033361,0.0,0.607574391286,0.190234825145,0.304160779479,1.0,-0.244574285714,-0.321440489796,1.341
0.408233182413,0.271441245399,-0.126803651946,-1.77195283899,0.0502549176894,2.03610255128,0.0886972772716,-0.310679155177,-1.05807346373,-0.0173343067208,-1.47207802018,-0.128001150045,0.456319606384,-0.326597967022,0.573545946062,0.81915544947,0.00318500559143,0.0,0.81912623961,-0.573480676812,-0.0115266563353,0.0,-0.00761573081543,0.00922016618278,-0.999928492033,0.0,0.602841214208,0.184052230556,0.304172003576,1.0,-0.257125142857,-0.337935902041,1.36
0.403254492134,0.255525813686,-0.127008277777,-1.79450147763,0.048268897614,2.04277908667,0.083749442352,-0.340991180933,-1.06654662597,-0.0112058791177,-1.49459131878,-0.131227265994,0.441098154518,-0.328631764494,0.573659726029,0.819075879757,0.00315734592343,0.0,0.819046261276,-0.573594467223,-0.0115479852238,0.0,-0.0076477872474,0.00921080375031,-0.999928333654,0.0,0.598970482384,0.178892457848,0.304171420572,1.0,-0.267033714286,-0.350958595918,1.375
0.397229042818,0.236881125214,-0.127209970343,-1.82066175296,0.0459241331157,2.05030830987,0.077748638022,-0.362477820377,-1.09135693088,-0.00996608821617,-1.52490795109,-0.120799329579,0.433412825094,-0.35521292174,0.573681415167,0.819060849174,0.00311546862236,0.0,0.819030275498,-0.573615793356,-0.0116222343854,0.0,-0.00773238403188,0.00921930049381,-0.999927604747,0.0,0.594354024091,0.172832635627,0.304175842008,1.0,-0.278263428571,-0.36571764898,1.392
0.391260662902,0.218862897979,-0.127382766374,-1.84567509541,0.0436311763886,2.05744638241,0.0717556443876,-0.381171921662,-1.10442404825,-0.0102432556134,-1.55428786585,-0.141771851097,0.440502366663,-0.377860092767,0.573569457208,0.819138987396,0.00318496261459,0.0,0.819109034486,-0.573503287999,-0.0116239054697,0.0,-0.00769515578,0.00927612739719,-0.999927366381,0.0,0.589840050833,0.166993778331,0.304201549109,1.0,-0.288832571429,-0.379608522449,1.408
0.384008555557,0.198018858363,-0.127633910935,-1.87422800897,0.0408899734128,2.06529345628,0.0646696428997,-0.418009196105,-1.16557453678,-0.00831877328514,-1.58963170494,-0.144045560427,0.438566084314,-0.399177508823,0.573524174964,0.819170567989,0.00321685759318,0.0,0.819141019617,-0.573457897898,-0.011609316121,0.0,-0.00766542527081,0.00929346238701,-0.999927433773,0.0,0.584566471276,0.160105621765,0.304261508798,1.0,-0.300722857143,-0.395235755102,1.426
0.377436351687,0.180217709703,-0.127939585108,-1.89839689147,0.0385453169485,2.07173722882,0.0583763116028,-0.455087402071,-1.16725420375,-0.0217735336221,-1.56229532744,-0.146626028929,0.425805762296,-0.424307230567,0.573604677556,0.819114162239,0.00322645418085,0.0,0.819084508443,-0.573538079875,-0.0116355431016,0.0,-0.0076804916774,0.00931711996912,-0.999927098004,0.0,0.580020653528,0.154044395567,0.304294650993,1.0,-0.310631428571,-0.40825844898,1.441
0.368606213151,0.157125026681,-0.128289307697,-1.92930402935,0.0354174898894,2.07986238584,0.050002612014,-0.475116198631,-1.23011108635,-0.021199103158,-1.58329702934,-0.16514840242,0.450638862585,-0.460284622252,0.573624544061,0.81909959886,0.00338769821016,0.0,0.819072337571,-0.573557810955,-0.0115191240724,0.0,-0.00749241338951,0.00938260283017,-0.999927912655,0.0,0.574077996855,0.146178476816,0.304388241667,1.0,-0.323182285714,-0.424753861224,1.46
0.360700408689,0.13729367821,-0.128558796037,-1.95565940993,0.0326418263117,2.08648341924,0.0425804093435,-0.50986341999,-1.26457753174,-0.0143554945846,-1.61809806089,-0.163285445121,0.43470656335,-0.477879128172,0.573566855469,0.819139920654,0.00340581835998,0.0,0.819112996913,-0.573500204853,-0.0114960959687,0.0,-0.00746381731409,0.00938371036422,-0.999928116122,0.0,0.568511474952,0.138927080828,0.304409142988,1.0,-0.334412,-0.439512914286,1.477
0.352219651576,0.117040929108,-0.128908953035,-1.98221913737,0.0298263890733,2.0929117939,0.0346651316197,-0.544724038068,-1.2780208194,-0.027197102009,-1.68165073967,-0.184240450727,0.423480774276,-0.493646438033,0.573583187262,0.819128400892,0.00342593688196,0.0,0.81910148974,-0.57351616204,-0.0115199082139,0.0,-0.00747159767319,0.00941399692271,-0.999927773337,0.0,0.563464345991,0.132275048619,0.304431225475,1.0,-0.344320571429,-0.452535608163,1.492
0.342003860436,0.0937085714797,-0.129343937796,-2.01235505184,0.0264006014587,2.09993036186,0.0252208009226,-0.568458760031,-1.31581249656,-0.017603470758,-1.69710400439,-0.192041683063,0.394176854902,-0.551848649948,0.57354451759,0.819155316859,0.00346411677333,0.0,0.819129645795,-0.573478331802,-0.0114005804631,0.0,-0.00735239174964,0.00937648169383,-0.999929009443,0.0,0.557212366913,0.123997357033,0.304495551926,1.0,-0.356210857143,-0.468162840816,1.51
0.331751649294,0.0714035036379,-0.129734604234,-2.04087315963,0.0232110463979,2.10621011709,0.0158021039097,-0.609377445315,-1.31967301016,-0.0283449075408,-1.65259029381,-0.208059856729,0.368782511069,-0.56106541898,0.573512517416,0.819177612187,0.00348983661595,0.0,0.81915165013,-0.573445466411,-0.0114724906884,0.0,-0.00739691895568,0.00943850415886,-0.99992809753,0.0,0.551108895927,0.116015962827,0.304501826199,1.0,-0.35998,-0.473116571429,1.527
0.321479579235,0.0505792106952,-0.130174424449,-2.06723922336,0.0200833223112,2.11163333403,0.006719703066,-0.65037630603,-1.30744653783,-0.0227920475224,-1.65239064356,-0.208980754197,0.329928169273,-0.575892940743,0.57374020903,0.819018832903,0.00332728032877,0.0,0.81899040553,-0.573673170521,-0.0115998265044,0.0,-0.00759185107672,0.00938047815237,-0.999927182562,0.0,0.545331242827,0.108281470712,0.304453446553,1.0,-0.35998,-0.473116571429,1.543
0.310243514441,0.0285829246449,-0.130532572244,-2.09451075138,0.0168555321947,2.11698041092,-0.00318077823431,-0.666299285098,-1.30047305825,-0.0224185818945,-1.58019219137,-0.185828772215,0.298665413835,-0.586322549218,0.573908955492,0.818900370293,0.00338249042864,0.0,0.818871875005,-0.573840744776,-0.011678992358,0.0,-0.00762306710752,0.00947268696344,-0.999926075792,0.0,0.53919465091,0.100174463667,0.304490985078,1.0,-0.35998,-0.473116571429,1.56
0.298605268187,0.0069363406509,-0.130921883631,-2.12097863128,0.0134699519156,2.12194192597,-0.0134349527541,-0.689461527789,-1.26252861059,-0.0287345716841,-1.52710422119,-0.194310618761,0.27054386454,-0.610334158065,0.573994765404,0.818840174563,0.00339480671462,0.0,0.818812363611,-0.573927157052,-0.0116051065257,0.0,-0.00755450113444,0.00944116187934,-0.999926894315,0.0,0.533109999746,0.0920357845254,0.304526345833,1.0,-0.35998,-0.473116571429,1.577
0.287342013096,-0.0133128302917,-0.131198892705,-2.14525980222,0.0104712976983,2.12622568872,-0.0233770960176,-0.700928891833,-1.26966224666,-0.00993863710019,-1.51432241938,-0.182790345287,0.258312166608,-0.632798353398,0.574029629022,0.818814767737,0.00362050291103,0.0,0.818789381936,-0.573960680138,-0.0115686034504,0.0,-0.00739465940411,0.00960533542022,-0.999926525573,0.0,0.527373899838,0.0844809831578,0.304616101065,1.0,-0.35998,-0.473116571429,1.593
0.274278778162,-0.0357528784729,-0.131542818493,-2.17190891265,0.00690084450616,2.13051133873,-0.0348415165925,-0.733796087721,-1.23985553934,-0.0284773163933,-1.47347207943,-0.199252405195,0.217643124412,-0.641398298552,0.574026331085,0.818817127389,0.00360971130718,0.0,0.81879181186,-0.573957688103,-0.011545042224,0.0,-0.00738159887147,0.00958294479292,-0.999926836907,0.0,0.520892989988,0.075955022142,0.304644761193,1.0,-0.35998,-0.473116571429,1.611
0.261519388891,-0.0567498260338,-0.131834158562,-2.19640735773,0.00363543498446,2.13415407368,-0.0460579682385,-0.752505540198,-1.22354928193,-0.00909862037075,-1.43032256749,-0.203272565885,0.216004520054,-0.672130928497,0.574000753588,0.818834561019,0.00372068046168,0.0,0.818810427939,-0.573931449338,-0.0115291570166,0.0,-0.00730519734237,0.00966446284765,-0.999926613432,0.0,0.514774202381,0.0679379639779,0.304696500129,1.0,-0.35998,-0.473116571429,1.628
0.249195007868,-0.0762909989119,-0.132109559,-2.21888208292,0.000573065519736,2.13718030334,-0.0569467582037,-0.780302375865,-1.24550419034,-0.0258547983532,-1.3982999693,-0.202622446046,0.193038274263,-0.683774637273,0.573911829164,0.818896495968,0.00380632878562,0.0,0.81887312201,-0.573841817968,-0.0115379765199,0.0,-0.00726431777323,0.00973886904888,-0.999926189334,0.0,0.509004672094,0.060427850727,0.304736626538,1.0,-0.35998,-0.473116571429,1.644
0.235641576549,-0.0966636486488,-0.132423586418,-2.24210609743,-0.00268953886658,2.13997256789,-0.0688686694751,-0.800008057851,-1.21758442968,-0.00822681439139,-1.33811193785,-0.200935588595,0.178347518042,-0.704453749192,0.573861956135,0.818931592778,0.00377472544184,0.0,0.818907207935,-0.573791246096,-0.0116334688302,0.0,-0.00736125247065,0.00976734310346,-0.999925202688,0.0,0.502882692298,0.0524136920398,0.304712644457,1.0,-0.35998,-0.473116571429,1.661
0.221731157654,-0.116789561837,-0.132746949651,-2.26474043968,-0.00601280261233,2.14232391139,-0.0810829470918,-0.831332310432,-1.18675868963,-0.0308975007773,-1.29172657605,-0.181944641042,0.12359252947,-0.728445634423,0.573790666335,0.818982150462,0.00364079020223,0.0,0.818955529718,-0.573719747454,-0.0117574923299,0.0,-0.00754052829554,0.0097281719245,-0.999924248683,0.0,0.496735924133,0.0444240210217,0.304664397779,1.0,-0.35998,-0.473116571429,1.678
0.208144612088,-0.135566084108,-0.133092149012,-2.28558113684,-0.00906977744391,2.14426076533,-0.093016433823,-0.853651728096,-1.15539859131,-0.0163255140265,-1.29575157818,-0.194139766414,0.107941467166,-0.753951872901,0.573787650252,0.818984519496,0.00358275679261,0.0,0.818956294625,-0.5737158443,-0.0118938805342,0.0,-0.00768556766704,0.00975887088002,-0.999922845268,0.0,0.49093628434,0.0368484936129,0.304605941584,1.0,-0.35998,-0.473116571429,1.694
0.193294827302,-0.15532175445,-0.133528712505,-2.30700019035,-0.0123384958141,2.14597994066,-0.106105785272,-0.895909628507,-1.14886265177,-0.0355249011591,-1.25287263645,-0.19417914968,0.0902689370961,-0.777746419046,0.573790670993,0.81898216207,0.00363744332882,0.0,0.818954614329,-0.573718627384,-0.0118753173853,0.0,-0.00763895118713,0.00979303587552,-0.999922868462,0.0,0.484825543231,0.0287784708694,0.304624854221,1.0,-0.35998,-0.473116571429,1.711
0.178062396483,-0.174781563536,-0.133902198068,-2.32779952303,-0.015472508928,2.14722492862,-0.119554692251,-0.901404092687,-1.1347630243,-0.0234480890156,-1.22663164705,-0.190055939468,0.0697131608804,-0.809335713731,0.573778936937,0.818990248596,0.00366757866073,0.0,0.818961923804,-0.573705288248,-0.0120148448673,0.0,-0.00773608045549,0.00989766275177,-0.999921091552,0.0,0.478687226232,0.0207897310375,0.304618460562,1.0,-0.35998,-0.473116571429,1.728
0.163135863804,-0.192907647182,-0.134381571837,-2.34677599306,-0.0185442032266,2.14813241845,-0.132612792782,-0.950823400946,-1.14291169301,-0.0244639565621,-1.16051679825,-0.190944542965,0.0654987538034,-0.825253965762,0.573936175177,0.818879834045,0.00371902123146,0.0,0.818852392396,-0.57386258725,-0.011968179621,0.0,-0.0076664413987,0.00991449155294,-0.999921461183,0.0,0.472943236204,0.0131171612314,0.304659338007,1.0,-0.35998,-0.473116571429,1.744
0.147024279676,-0.211862587556,-0.13477055582,-2.36648770689,-0.0215927103227,2.14869029337,-0.146992305587,-0.957823696676,-1.11138247548,-0.0300620321411,-1.13383774843,-0.176287575061,0.0165795280409,-0.850871669914,0.573859046809,0.818933835231,0.00373025609018,0.0,0.818904748367,-0.573783121403,-0.0121938343255,0.0,-0.00784573658202,0.0100524601089,-0.999918692926,0.0,0.466765986408,0.00514403593025,0.304616758813,1.0,-0.35998,-0.473116571429,1.761
0.130367243571,-0.23055481866,-0.135261599298,-2.38541101736,-0.0248295857203,2.1490413212,-0.161713363494,-0.984852369576,-1.09673484348,-0.0168323046427,-1.09893898583,-0.188676755111,0.00406760574421,-0.878770212168,0.573917350074,0.818892629524,0.00380571888871,0.0,0.818865352527,-0.573842189497,-0.0120591411627,0.0,-0.00769140784022,0.0100375149329,-0.999920042073,0.0,0.460678676468,-0.00293372141131,0.304675404578,1.0,-0.35998,-0.473116571429,1.778
0.113258203582,-0.249005519844,-0.13576321791,-2.40368046337,-0.0278636352559,2.14914636247,-0.177006292316,-1.02124425291,-1.09216824734,-0.0357420171885,-1.0618660873,-0.173380184532,0.00554467435573,-0.906615559644,0.573950609121,0.818867902874,0.00409912600425,0.0,0.818845067132,-0.573875217605,-0.0118632859657,0.0,-0.00736221901774,0.0101656850352,-0.999921225187,0.0,0.454619885528,-0.0109799247085,0.304786887658,1.0,-0.35998,-0.473116571429,1.795
0.0967942728983,-0.265900454128,-0.136136907247,-2.42041885051,-0.030754695002,2.14895826588,-0.191776240566,-1.03386121413,-1.05965823728,-0.026869438127,-1.01676123942,-0.180604981127,-0.0057502758937,-0.924518629882,0.573851359548,0.818937350948,0.00412059081698,0.0,0.818914818619,-0.573775943359,-0.0118504671015,0.0,-0.00734063558235,0.0101750154395,-0.999921288967,0.0,0.448874188245,-0.0184797255599,0.304765213888,1.0,-0.35998,-0.473116571429,1.811
0.0776733261028,-0.284571072427,-0.136677007226,-2.43852646598,-0.0338771842135,2.14844479613,-0.208980057509,-1.0730207823,-1.03655879424,-0.0225072049616,-0.992433606975,-0.160009026491,-0.0407425310734,-0.963469690724,0.573882432971,0.818914769905,0.00427781011814,0.0,0.818894121797,-0.573806255163,-0.01181294729,0.0,-0.00721930180167,0.0102825144615,-0.999921072674,0.0,0.442431197701,-0.0269944306387,0.304782239493,1.0,-0.35998,-0.473116571429,1.829
0.0591037252599,-0.301976804669,-0.137241488947,-2.4549558386,-0.0368799521007,2.1476719899,-0.22578305785,-1.09354602354,-1.02489977909,-0.0383086652817,-0.953448116646,-0.178599991992,-0.0455836941727,-0.997541039626,0.573876799203,0.818917721192,0.00446454428919,0.0,0.818900481113,-0.573801460138,-0.0116031580991,0.0,-0.00694040338139,0.0103149992926,-0.999922712809,0.0,0.436354501933,-0.0350725912931,0.304874456148,1.0,-0.35998,-0.473116571429,1.846
0.0412637224556,-0.317831296869,-0.137674514487,-2.47005918165,-0.0396059925635,2.14659301856,-0.24194652722,-1.12814736805,-0.988926182457,-0.0370393673985,-0.926189530195,-0.162706707914,-0.0683814889094,-1.0289070914,0.573833152222,0.818948827877,0.00436779468213,0.0,0.818928960362,-0.573756121249,-0.0118329248889,0.0,-0.00718464935965,0.0103672377486,-0.999920447433,0.0,0.430535109321,-0.0425770073532,0.304780474466,1.0,-0.35998,-0.473116571429,1.862
0.0217420647379,-0.334330922331,-0.13823914169,-2.48523760615,-0.0424082231127,2.14538671861,-0.259701621723,-1.16118803634,-0.950638353756,-0.0286963630096,-0.888889835454,-0.161106072249,-0.0804411615706,-1.05782836355,0.573897357411,0.818902771798,0.004562937545,0.0,0.818885830768,-0.573820251377,-0.0117073557845,0.0,-0.00696901430842,0.010455546751,-0.999921054075,0.0,0.424469283689,-0.0506376155814,0.304831538465,1.0,-0.35998,-0.473116571429,1.879
0.001735007114,-0.350438217894,-0.138771264502,-2.49984386357,-0.0452843368493,2.14379157123,-0.277950062335,-1.17764560264,-0.962723368696,-0.0242319342145,-0.830456994946,-0.178205090561,-0.0931127880903,-1.08430255867,0.573887893961,0.818909465268,0.00455189638578,0.0,0.81889252304,-0.573811037549,-0.0116908424896,0.0,-0.00696194722284,0.0104369478346,-0.999921297608,0.0,0.418342588532,-0.0586899359374,0.304857021034,1.0,-0.35998,-0.473116571429,1.896
-0.0187381744649,-0.366093456575,-0.139346152363,-2.5137439465,-0.047902014577,2.14213275477,-0.296798210177,-1.21833101284,-0.921924272618,-0.0444718661649,-0.806012570015,-0.159409555487,-0.102482648154,-1.11676261063,0.573918328438,0.81888680351,0.00478562658417,0.0,0.818873057799,-0.573841003097,-0.0115829735685,0.0,-0.00673908518938,0.010566704945,-0.999921461655,0.0,0.412264056147,-0.0667282023126,0.304926088702,1.0,-0.35998,-0.473116571429,1.913
-0.0395834575984,-0.381190773981,-0.139813194342,-2.52706077899,-0.0505736670146,2.14018534253,-0.316122265492,-1.24336652559,-0.886834416716,-0.0384264101551,-0.748522892746,-0.149807095668,-0.115841943859,-1.13711097509,0.573756394875,0.819000380567,0.00476685150251,0.0,0.818986156859,-0.57367878621,-0.0116220491962,0.0,-0.00678395174271,0.0105724139919,-0.999921097918,0.0,0.406147339969,-0.0746853979004,0.304930335106,1.0,-0.35998,-0.473116571429,1.93
-0.0610105224666,-0.395769451553,-0.140349061641,-2.53969151525,-0.0530763657875,2.13826979313,-0.335988935838,-1.26400115885,-0.84420405551,-0.0235890966265,-0.740632305388,-0.13209343532,-0.11231222435,-1.19172587532,0.573761502981,0.818995844572,0.00492860749831,0.0,0.818984003489,-0.57368386587,-0.0115226285994,0.0,-0.00660964959473,0.0106478964091,-0.999921464333,0.0,0.400067060758,-0.082703710318,0.304964572884,1.0,-0.35998,-0.473116571429,1.947
-0.0816109640984,-0.408909688025,-0.140858210729,-2.5510283265,-0.055448745993,2.13614098534,-0.355188381763,-1.29036057252,-0.79408252264,-0.0300086670686,-0.694557177743,-0.140822295043,-0.125359362894,-1.20054059088,0.573712601102,0.819030521987,0.0048582189782,0.0,0.819016689062,-0.573633469777,-0.0117069334587,0.0,-0.00680162976458,0.0106955835909,-0.999919667935,0.0,0.394275197117,-0.0902491245564,0.304924080524,1.0,-0.35998,-0.473116571429,1.963
-0.103951135302,-0.422384005512,-0.141431121357,-2.56223121249,-0.0578707702005,2.13408216258,-0.376105260751,-1.31839712471,-0.778276127455,-0.0188960574313,-0.648627419897,-0.154399572497,-0.130086265231,-1.23694131312,0.573695251366,0.819041570513,0.00504095550394,0.0,0.819031709738,-0.573618169896,-0.0114017766631,0.0,-0.00644706952016,0.0106700529655,-0.999922289613,0.0,0.388245337493,-0.0983048947254,0.305026737018,1.0,-0.35998,-0.473116571429,1.98
-0.125409612002,-0.434358738526,-0.142006119292,-2.57244556004,-0.0599703641963,2.13182805097,-0.396242588022,-1.3523950814,-0.719569839069,-0.0302774382269,-0.629868501773,-0.131235244699,-0.132774359197,-1.26980827004,0.5737717001,0.818988110622,0.00502570640166,0.0,0.818975582331,-0.573690624362,-0.0117817641176,0.0,-0.00676605435855,0.0108761830551,-0.99991796121,0.0,0.382413288585,-0.105848893876,0.304915157407,1.0,-0.35998,-0.473116571429,1.996
-0.148617706728,-0.446579366559,-0.142555986265,-2.58232755253,-0.062166070655,2.12958439813,-0.41815836821,-1.37964499955,-0.690236334546,-0.0443121582233,-0.56457688974,-0.129062153651,-0.12006984843,-1.29658610517,0.573762952912,0.818993229022,0.00518763756269,0.0,0.818983814463,-0.573683020161,-0.0115780364283,0.0,-0.00650639912403,0.010891849271,-0.999919513956,0.0,0.37636657246,-0.113885705416,0.305006288147,1.0,-0.35998,-0.473116571429,2.013
-0.172273394613,-0.458027277645,-0.143070686259,-2.59176778527,-0.0643047715996,2.12719076086,-0.440628448275,-1.39995199064,-0.662065595481,-0.0372721215448,-0.531068582542,-0.119471580109,-0.155789928884,-1.33460465146,0.573676926188,0.819053821681,0.0051350220087,0.0,0.819042371472,-0.573594941744,-0.0117976031291,0.0,-0.00671757861386,0.0109740245871,-0.999917219035,0.0,0.370207017307,-0.121885772064,0.304941344202,1.0,-0.35998,-0.473116571429,2.03
-0.194760554124,-0.468019322689,-0.143406015381,-2.5999545341,-0.0661143001065,2.12506503784,-0.462081319824,-1.42322443328,-0.592720132843,-0.0146928900907,-0.488053209974,-0.100229552373,-0.12714956474,-1.3270441147,0.573535888142,0.819152665692,0.00512271450027,0.0,0.819139943075,-0.573452168087,-0.0119629209569,0.0,-0.00686195896858,0.0110575974529,-0.999915317943,0.0,0.364489929901,-0.129311757975,0.304875247598,1.0,-0.349682857143,-0.459583183674,2.046
-0.218635839433,-0.477743284824,-0.143680287998,-2.6075379813,-0.0677408877582,2.12298301611,-0.484645736739,-1.3936053352,-0.550685496424,-0.0130192187964,-0.434037814575,-0.085017265546,-0.122839574714,-1.33856570408,0.57367944102,0.819050879717,0.00531998943048,0.0,0.819041547893,-0.57359634871,-0.0117863681218,0.0,-0.00660223577981,0.0111191035309,-0.999916384514,0.0,0.358651512276,-0.137085248566,0.304955703125,1.0,-0.338453142857,-0.444824130612,2.063
-0.242270202832,-0.486541048659,-0.143804074172,-2.6144107697,-0.0691678843282,2.12094869338,-0.507077993596,-1.37199791069,-0.503272038751,-0.00916451765664,-0.387291565039,-0.0691706899917,-0.116713553647,-1.32615794451,0.573745037411,0.81900406507,0.0054516370626,0.0,0.818996406984,-0.573661417935,-0.0117562672803,0.0,-0.00650116201271,0.0112101870078,-0.999916029774,0.0,0.352925467034,-0.144603549671,0.304988632804,1.0,-0.327223428572,-0.430065077551,2.08
-0.265596848913,-0.494243215451,-0.143753962117,-2.62047709411,-0.070393226211,2.11904826795,-0.52916962136,-1.36057263675,-0.436903756209,-0.000519347961705,-0.332044817116,-0.0707363135557,-0.0989518007671,-1.30977050526,0.573841465289,0.81893617949,0.00550032176269,0.0,0.818928420344,-0.573756390119,-0.0118572363045,0.0,-0.00655460123584,0.0113087613964,-0.99991457091,0.0,0.347374017236,-0.151876522435,0.304969633047,1.0,-0.315993714286,-0.41530602449,2.097
-0.288348207155,-0.501059340407,-0.143578760661,-2.625681769,-0.0713847132817,2.1173790214,-0.550841895489,-1.3127848744,-0.375400747361,0.0246309849962,-0.292346226808,-0.0553439859491,-0.0999129284469,-1.26231967684,0.573867593008,0.818917048126,0.00562146648932,0.0,0.81891128315,-0.573782814297,-0.0117617706281,0.0,-0.00640653696647,0.0113533999239,-0.999915024687,0.0,0.342082341738,-0.158864502852,0.305016859763,1.0,-0.304764,-0.400546971429,2.114
-0.31057720065,-0.506908456662,-0.143403449235,-2.63013362306,-0.0721404795607,2.11591387958,-0.572047122409,-1.29880092671,-0.329472179725,0.0195454505432,-0.242704691662,-0.0461068106362,-0.083018580069,-1.25348301877,0.573992561748,0.818828127338,0.00581238668516,0.0,0.818824976853,-0.573907337523,-0.0116949612636,0.0,-0.00624051201285,0.0114723690468,-0.999914716743,0.0,0.336993190094,-0.16562686198,0.305050783581,1.0,-0.293534285714,-0.385787918367,2.131
-0.331043024501,-0.511705645979,-0.143151650472,-2.63376544302,-0.0727403027108,2.11471701347,-0.59159940526,-1.27729031792,-0.284640028719,0.00393641987528,-0.219127754195,-0.034893476505,-0.0755014091826,-1.22012303642,0.574087249257,0.818760682665,0.00596000533705,0.0,0.818759893367,-0.574002337362,-0.0115888142832,0.0,-0.00606752531833,0.0115330258947,-0.99991508362,0.0,0.332363027294,-0.171778780987,0.305083084823,1.0,-0.282965142857,-0.371897044898,2.147
-0.35326388098,-0.516198893807,-0.142626997208,-2.63739542367,-0.0733609319238,2.11337468016,-0.612997495138,-1.21707884607,-0.232989047718,0.0323226732278,-0.196760064347,-0.0314454622939,-0.068111633277,-1.16919030383,0.573905962452,0.818888395532,0.00587271887772,0.0,0.818884851391,-0.573818375565,-0.0118667151041,0.0,-0.00634776349938,0.0116196827933,-0.999912340593,0.0,0.327315636054,-0.178299559329,0.304992055375,1.0,-0.271074857143,-0.356269812245,2.165
-0.373635434373,-0.51971043741,-0.142198482895,-2.64023625571,-0.0737625351568,2.112382819,-0.632540402357,-1.17166307285,-0.196553708705,0.0246455192803,-0.1511779571,-0.0163406285233,-0.0517293135077,-1.12532648622,0.573939241452,0.818864773004,0.00591418252168,0.0,0.81886067697,-0.57384949111,-0.0120291382192,0.0,-0.00645651121473,0.0117471121366,-0.999910155374,0.0,0.322749040203,-0.184261072401,0.304920434215,1.0,-0.259845142857,-0.341510759184,2.182
-0.391053335018,-0.522270567796,-0.141736879722,-2.64226374422,-0.0740755041219,2.11159174399,-0.649281153672,-1.14036416167,-0.162397223406,0.0379754569584,-0.129351771762,-0.0240719679907,-0.0427763769431,-1.10684722751,0.573911486509,0.818884448901,0.00588318814193,0.0,0.81887926762,-0.573820641503,-0.0121393306785,0.0,-0.00656494071443,0.0117847490048,-0.999909006482,0.0,0.318889604417,-0.189321847859,0.304883885728,1.0,-0.249936571429,-0.328488065306,2.197
-0.411265561068,-0.524868535842,-0.141203231294,-2.64421361117,-0.0742467083304,2.11081137466,-0.668714654836,-1.11797014854,-0.129056385706,0.0176044840595,-0.095778192648,-0.0117643673024,-0.0438695504813,-1.07388708469,0.573980937594,0.818835016192,0.00598718947202,0.0,0.818831197097,-0.573889639607,-0.0121201944227,0.0,-0.00648857851325,0.011859486413,-0.99990862129,0.0,0.314453050989,-0.195166311949,0.304897506824,1.0,-0.238046285714,-0.312860832653,2.215
-0.429502349803,-0.526762296965,-0.140586745538,-2.64565515698,-0.0743722949336,2.11024775115,-0.686341945465,-1.05943092917,-0.0994039550088,0.0391060863562,-0.0787886571813,-0.00419179903796,-0.027911870629,-1.03203477911,0.573904115506,0.818888839515,0.00599012718139,0.0,0.818885310303,-0.5738132815,-0.0120794638274,0.0,-0.006454647853,0.0118379090758,-0.999909096583,0.0,0.310485179391,-0.200390442438,0.304903489758,1.0,-0.226816571429,-0.298101779592,2.232
-0.446086226949,-0.528128555331,-0.140100978286,-2.64667815237,-0.0744011158799,2.10979079524,-0.702298662602,-1.01905528094,-0.0776810335832,0.0373779048253,-0.0571371549523,0.00235696821847,-0.0333397120776,-0.985179093104,0.574000862146,0.818820522862,0.00605875373833,0.0,0.818817897609,-0.573909732432,-0.0120671652315,0.0,-0.00640378810021,0.0118878081218,-0.999908831602,0.0,0.306874274357,-0.20514403354,0.304911707197,1.0,-0.216247428572,-0.284210906123,2.248
-0.462894035027,-0.529172128928,-0.1395420905,-2.64745809067,-0.0744110088085,2.10943938502,-0.718465596815,-0.986200704716,-0.0536063747063,0.0306862022094,-0.0403447002268,-0.00114073439852,-0.0225865167562,-0.941291508473,0.574080254313,0.818764738951,0.00607542252621,0.0,0.81876261175,-0.57398956031,-0.0120215288882,0.0,-0.00635569722431,0.0118758798239,-0.999909280181,0.0,0.303234061828,-0.209940956916,0.304923042558,1.0,-0.205017714286,-0.269451853061,2.265
-0.478825907431,-0.529815922222,-0.138825575967,-2.64795281962,-0.0743806443097,2.10916827356,-0.733889461219,-0.91609020476,-0.0307968345743,0.0406417258606,-0.0262250698432,-0.00285682803326,-0.00999715251185,-0.896088192471,0.573974336715,0.818839605204,0.00599238209282,0.0,0.818836582286,-0.573884356147,-0.0120060060065,0.0,-0.0063921819486,0.0117981481577,-0.999909967802,0.0,0.299817842465,-0.214434531298,0.304928889341,1.0,-0.193788,-0.2546928,2.282
-0.493166764709,-0.530137113409,-0.13824573341,-2.64818504313,-0.0743338407783,2.10898052189,-0.747711329102,-0.870512537741,-0.0105377422389,0.0447115258527,-0.0054991898083,0.00429691924424,-0.00721168986897,-0.85208515241,0.57399652139,0.818824452232,0.00593774034336,0.0,0.818820894877,-0.573907086083,-0.0119893935597,0.0,-0.00640962076081,0.0117440421675,-0.999910493112,0.0,0.296734779256,-0.218496326726,0.304939759563,1.0,-0.183218857143,-0.240801926531,2.298
-0.507409657939,-0.530221017629,-0.137460483769,-2.64830429562,-0.0741821603274,2.10886322841,-0.761577382433,-0.830691466606,-0.00152803566671,0.0470046076092,-0.00950984225548,0.000704287716773,-0.00351085315397,-0.793347319066,0.57380936478,0.818956281163,0.00584545433036,0.0,0.818951418335,-0.573720155403,-0.0120210063555,0.0,-0.00649114866861,0.0116851341105,-0.999910657324,0.0,0.293700153204,-0.222454443567,0.304926843713,1.0,-0.171989142857,-0.22604287347,2.315
-0.523325092157,-0.530115557606,-0.136622763192,-2.64826820346,-0.073904180058,2.10883115916,-0.776902506807,-0.752689399082,0.00574366256535,0.0537941803597,0.00697342969652,0.0220350965634,0.0101189202155,-0.75288427461,0.573822836175,0.818946928483,0.00583334488532,0.0,0.818942083062,-0.57373398842,-0.0119967504937,0.0,-0.006478038464,0.011661405523,-0.999911019361,0.0,0.290303195399,-0.226872919647,0.304924109561,1.0,-0.158777714286,-0.208679281633,2.335
-0.533650281946,-0.529908857091,-0.136007063606,-2.64816552431,-0.0736203267574,2.1088293788,-0.786900301944,-0.727950063769,0.0188264794862,0.0445611105805,0.00745140962136,0.0216103810041,0.00156880321117,-0.699062839936,0.57378391893,0.818973973184,0.00586451416485,0.0,0.81896933897,-0.57369460145,-0.0120196919671,0.0,-0.00647949952069,0.0116997885074,-0.999910561518,0.0,0.288105695384,-0.229701935855,0.304911416554,1.0,-0.149529714286,-0.196524767347,2.349
-0.546960203199,-0.529482582064,-0.135262039532,-2.64789260786,-0.073230945148,2.10885156954,-0.799609801,-0.673135802497,0.035098649908,0.0483605132864,0.0157012707785,0.0282128781272,0.00221143290588,-0.653034347452,0.573932033353,0.818869704091,0.00593091169301,0.0,0.818865684355,-0.573841957175,-0.0120476583664,0.0,-0.00646218088474,0.0117713837613,-0.999909833306,0.0,0.285260326171,-0.233359849357,0.304901336688,1.0,-0.136978857143,-0.180029355102,2.368
-0.556536551785,-0.529024129747,-0.134554290174,-2.64761158072,-0.0728537512594,2.1089184802,-0.808904423613,-0.631613493848,0.0345557687444,0.0483507246808,0.0175378253365,0.0125998025109,0.0036480577874,-0.595280488287,0.57384063567,0.818933520599,0.00596327050186,0.0,0.818929682567,-0.573750004477,-0.0120770143562,0.0,-0.00646896995562,0.0118140082706,-0.999909286704,0.0,0.283251965627,-0.235943624452,0.304885877759,1.0,-0.127070285714,-0.167006661225,2.383
-0.567409392721,-0.528409496871,-0.133852884927,-2.64716944993,-0.0724466848155,2.10902814779,-0.819164940925,-0.587983952716,0.0360628068888,0.0343246809423,0.0280624184685,0.0219491126234,0.00822222553066,-0.54724287963,0.574045858606,0.818789281077,0.00601766662065,0.0,0.818786260919,-0.573955154496,-0.0120534832463,0.0,-0.00641551562532,0.0118466629761,-0.99990924475,0.0,0.28095515823,-0.23891443214,0.30488993103,1.0,-0.11518,-0.151379428572,2.401
-0.576033983711,-0.527725040244,-0.133085533462,-2.64669326771,-0.0720307136861,2.10916027927,-0.827542443147,-0.519367158366,0.0463176269111,0.0556267323129,0.02969636175,0.0270052684742,0.00611768074938,-0.507930860748,0.573911001641,0.818883805613,0.00601847167073,0.0,0.818880779064,-0.573820291035,-0.0120536375513,0.0,-0.0064171309735,0.01184635405,-0.999909238044,0.0,0.279194799429,-0.241229774696,0.304887304806,1.0,-0.104610857143,-0.137488555102,2.417
-0.584472826576,-0.527009858964,-0.132316131201,-2.64619593837,-0.0716291647601,2.1092826366,-0.835575421514,-0.485142251349,0.0386049513791,0.0477712475875,0.0310743291423,0.0304739465142,0.002898516747,-0.453634938445,0.573899424696,0.818892048421,0.00600085551584,0.0,0.818888662701,-0.573808552652,-0.0120768333569,0.0,-0.00644640470115,0.0118451483199,-0.999909064029,0.0,0.277462758703,-0.24348503639,0.30488198268,1.0,-0.0933811428572,-0.122729502041,2.434
-0.591717441136,-0.526342329178,-0.131624266022,-2.64573180266,-0.0712256598996,2.1093964902,-0.84236303442,-0.430717089461,0.042684668244,0.0427630274431,0.0310524550457,0.0231868583636,0.0164114969716,-0.40888729729,0.573983071037,0.818833317566,0.00601490713415,0.0,0.818829937941,-0.573891795816,-0.0121031536337,0.0,-0.00645868393568,0.0118724199082,-0.999908661352,0.0,0.275981958005,-0.245407250282,0.304876062027,1.0,-0.0828120000001,-0.108838628572,2.45
-0.598431383415,-0.525624645348,-0.130852194599,-2.64524522937,-0.0707584704393,2.109533756,-0.848780422246,-0.367183631412,0.0439785001413,0.0459053656559,0.0245336322196,0.0270273523706,0.00360367530314,-0.3543480853,0.573906800448,0.818886625914,0.00603532941411,0.0,0.81888328827,-0.573815039875,-0.0121328935753,0.0,-0.00647242610832,0.0119056097483,-0.999908177863,0.0,0.274649180649,-0.247157704726,0.304865765005,1.0,-0.0715822857144,-0.0940795755103,2.467
-0.604309531092,-0.524996497747,-0.13003201479,-2.64484334522,-0.070301000214,2.10963893609,-0.854349587882,-0.336832845681,0.0336675245643,0.0439218636324,0.0230607008273,0.0194610792611,0.00381050682974,-0.312815492356,0.573797642169,0.818963184068,0.0060262662311,0.0,0.818959322257,-0.573705200572,-0.0121950082436,0.0,-0.00653008822849,0.0119329636313,-0.999907476883,0.0,0.273499132999,-0.248638758209,0.304847933629,1.0,-0.0603525714287,-0.0793205224491,2.484
-0.609204016928,-0.524520381758,-0.12931916626,-2.64447288996,-0.0698618780519,2.1097445439,-0.858746598301,-0.290411154999,0.028377218196,0.0488003433202,0.0163937157491,0.0265143163235,0.0160082037673,-0.250914540065,0.57390833997,0.818885465623,0.00604635476712,0.0,0.818882182954,-0.573816367134,-0.0121447170179,0.0,-0.0064757596016,0.0119214360983,-0.999907967714,0.0,0.272559327562,-0.249867101732,0.304868667183,1.0,-0.0497834285715,-0.0654296489797,2.5
-0.613457407479,-0.524023300376,-0.12855167614,-2.64412488474,-0.0693783307732,2.1098716465,-0.862624374369,-0.235037482746,0.0285106149723,0.0461391008192,0.0204290781266,0.0277142642275,0.00605884514341,-0.216259164872,0.573898286496,0.818892323987,0.00607168619844,0.0,0.818889522603,-0.573806483164,-0.0121167879762,0.0,-0.0064384957217,0.0119260736837,-0.999908153052,0.0,0.271787991682,-0.250897774065,0.304874527092,1.0,-0.0385537142858,-0.0506705959185,2.517
-0.61730063296,-0.523623934353,-0.127721782999,-2.64381352336,-0.0688534430523,2.10994901464,-0.865930649723,-0.184286021921,0.0144389722998,0.0426226916806,0.0162024165045,0.0316838852231,0.000855612047121,-0.149527994794,0.573984018179,0.818832026379,0.006099700916,0.0,0.818829817722,-0.573892497892,-0.0120779706137,0.0,-0.00638937957245,0.0119274087331,-0.999908452184,0.0,0.271149652438,-0.251741977326,0.304896454809,1.0,-0.0266634285715,-0.0350433632655,2.535
-0.61956215057,-0.523422269209,-0.127033156835,-2.64364762604,-0.0684626398911,2.10999592307,-0.867856143971,-0.13646936766,0.0131904337404,0.0337638527381,0.00885542105945,0.0262607397293,0.0111515829288,-0.11760420552,0.573954657297,0.818852671017,0.00609109477623,0.0,0.81885064179,-0.573863724933,-0.0120332268354,0.0,-0.00635810401109,0.0118944524562,-0.999909044121,0.0,0.270769119795,-0.252245178343,0.304918963187,1.0,-0.0198623529412,-0.0261048067227,2.551
-0.621550570269,-0.523244803519,-0.126457614722,-2.643482662,-0.0681409098168,2.11003391073,-0.869603440709,-0.10657503503,0.0079249792527,0.0362505988415,0.00470672279341,0.0208226446367,0.000236491880025,-0.103746373161,0.573890576355,0.818897691878,0.00607647179141,0.0,0.81889582299,-0.57380037547,-0.0119794449293,0.0,-0.00632337975178,0.0118511160941,-0.999909778888,0.0,0.270457226918,-0.252664999601,0.304946090953,1.0,-0.0195223529412,-0.0256579495798,2.568
-0.62331113702,-0.523043466037,-0.126028158158,-2.64326859218,-0.0679325487756,2.11008005193,-0.871272610354,-0.0923884581329,0.0142995190964,0.0107714435331,0.0118708339815,0.0122659196944,0.00616545158761,-0.0891526873813,0.573761300398,0.818988608098,0.00603132420951,0.0,0.818986689686,-0.573672316904,-0.0119004972874,0.0,-0.00628648901019,0.0117678456153,-0.999910994972,0.0,0.270174052733,-0.253080175704,0.304983833374,1.0,-0.0191623529412,-0.0251848067227,2.586
-0.624593754424,-0.522852245683,-0.125851882409,-2.64311140885,-0.0678168579325,2.11017235154,-0.872505292289,-0.0865838823672,0.0160629537937,0.0122875874022,0.00980199778195,0.00534855058279,0.00255239035326,-0.0925400818292,0.573739060951,0.819004167418,0.00603411899024,0.0,0.819002711246,-0.573650870765,-0.0118314979174,0.0,-0.00622868840961,0.0117303781639,-0.999911796945,0.0,0.269926537868,-0.253449164168,0.304996167352,1.0,-0.0188623529412,-0.0247905210084,2.601
-0.626222767278,-0.522593103379,-0.125734640852,-2.6429414723,-0.0677492001112,2.11018981892,-0.874086528715,-0.0893445295146,0.0207350659818,0.00310942240236,0.0083730623858,0.00191247074336,-2.75071462171e-05,-0.0808477139558,0.573729149975,0.819011137571,0.00603041503551,0.0,0.819009274967,-0.573640303337,-0.0118893568607,0.0,-0.00627834745491,0.0117604628768,-0.999911132984,0.0,0.269598553879,-0.25387129756,0.304983647786,1.0,-0.0185223529412,-0.0243436638656,2.618
-0.627679722214,-0.52239110153,-0.125684926101,-2.64278993525,-0.0677215683336,2.11019144001,-0.875510357957,-0.0823175747961,0.00789559186525,0.00438925556271,0.00841983829767,0.00387356893324,0.000531208241509,-0.0856411447151,0.573740933682,0.819002884209,0.00603022182214,0.0,0.819000768321,-0.573651616414,-0.0119294332152,0.0,-0.00631111522313,0.0117833873234,-0.999910656813,0.0,0.269272601615,-0.25428492541,0.304979674755,1.0,-0.0181823529412,-0.0238968067227,2.635
-0.629003642553,-0.522168882573,-0.125625989753,-2.6426343077,-0.0676799605015,2.1102168056,-0.876836679273,-0.0799396678473,0.0151442255979,0.00541642139056,0.008977960645,0.00218415170016,0.00767362251466,-0.0850804667697,0.57372331295,0.819015200535,0.00603393498634,0.0,0.819012922635,-0.573633591979,-0.0119616725937,0.0,-0.00633564585891,0.0118047884358,-0.999910249253,0.0,0.26898741369,-0.254662814949,0.304972377306,1.0,-0.0178623529412,-0.0234762352941,2.651
-0.630370907449,-0.521941915479,-0.125593591817,-2.64249089553,-0.0676464364305,2.11026638167,-0.878135820061,-0.0794868954674,0.015487862027,0.000299007128156,0.00815849190836,0.00213588125067,0.000494435247415,-0.0792358785654,0.573778229496,0.818976660099,0.00604321694699,0.0,0.818974336092,-0.573688148053,-0.0119871809741,0.0,-0.00635042176486,0.0118274507781,-0.999909887716,0.0,0.268685222697,-0.255058913997,0.304959199097,1.0,-0.0175223529412,-0.0230293781513,2.668
-0.631785825082,-0.521724878689,-0.125593811333,-2.64234321369,-0.0676172836246,2.1102933585,-0.879612243372,-0.0746455222384,0.0140189093047,-0.00150084916589,0.00408651717597,0.0049883462894,0.00225820869388,-0.0836467619283,0.57374837727,0.818997385989,0.00606862620959,0.0,0.818995151356,-0.573657746035,-0.0120199571538,0.0,-0.00636312156559,0.0118668348263,-0.999909340348,0.0,0.268360534959,-0.25547325636,0.304948887951,1.0,-0.0171623529412,-0.0225562352941,2.686
-0.633018837604,-0.521543817809,-0.125593122319,-2.6422011133,-0.0675864946968,2.11032755451,-0.880825080211,-0.0839767874349,0.0119514211993,-0.000648750634717,0.00559476033477,0.00609491189322,0.000494885125367,-0.0686214853227,0.573785031798,0.818971539233,0.00609115030816,0.0,0.818969597839,-0.573694297853,-0.0120165439064,0.0,-0.0063468714571,0.011883608742,-0.999909244415,0.0,0.268082764478,-0.2558382413,0.304949886418,1.0,-0.0168423529412,-0.0221356638656,2.702
-0.634306813936,-0.521351354411,-0.125586715499,-2.64205749488,-0.0675623958803,2.11035885016,-0.882078787539,-0.0763964211303,0.0112745627312,0.000510700731531,0.00512354465129,0.00189291353558,0.000824150604995,-0.0736748937402,0.573826452577,0.818942407086,0.00610598887681,0.0,0.81894058531,-0.573735509204,-0.0120262259865,0.0,-0.00634568599425,0.0119016378438,-0.999909037506,0.0,0.267790687357,-0.256216869009,0.304947257713,1.0,-0.0165023529412,-0.0216888067227,2.719
-0.635540293716,-0.521165917822,-0.125553764924,-2.64191647037,-0.0675362407667,2.11038379177,-0.883356622565,-0.071741177352,0.0130357405371,0.00845470595964,0.0107390416566,0.00272803244105,0.000992758598177,-0.0676856764219,0.573785401599,0.818971136179,0.00611047606241,0.0,0.818969290008,-0.573694292442,-0.0120377632666,0.0,-0.00635315773637,0.0119116144082,-0.999908871262,0.0,0.26751646915,-0.256573103086,0.304946111341,1.0,-0.0161623529412,-0.0212419495798,2.736
-0.636654865733,-0.520989400363,-0.12549651847,-2.64177588627,-0.0675118205452,2.11042300669,-0.884450601306,-0.0703233132091,0.0113969779896,0.00599059905496,0.00934278064104,0.000266307950923,0.00297706154001,-0.0653634845906,0.573779507805,0.818975360995,0.00609765585943,0.0,0.81897342231,-0.573688593947,-0.0120282012601,0.0,-0.00635276716322,0.0118955825129,-0.999909064598,0.0,0.267279776339,-0.256894096912,0.304949826571,1.0,-0.0158423529412,-0.0208213781513,2.752
-0.637815601222,-0.52081591328,-0.125425344948,-2.64163154672,-0.0674799566409,2.11046139209,-0.885688319195,-0.0682593299389,0.00969800992475,0.00811441426724,0.00825071854391,0.00425657116388,0.00194797083341,-0.0736258123679,0.573687153502,0.819040148126,0.00608543883913,0.0,0.819038160317,-0.573596516452,-0.0120114594841,0.0,-0.00634740324301,0.0118752552678,-0.999909340283,0.0,0.267035291524,-0.257224259166,0.304956616515,1.0,-0.0155023529412,-0.0203745210084,2.769
-0.638977777241,-0.5206249375,-0.125376022554,-2.64146230788,-0.0674545256317,2.11049861135,-0.886882436161,-0.0734493543477,0.0196723756989,0.00384908106212,0.0132438230846,0.000496462716955,0.000175775257919,-0.0717176099621,0.573645661671,0.819069284173,0.00607531657853,0.0,0.819067312291,-0.573555351991,-0.011989288606,0.0,-0.00633564967847,0.0118539248414,-0.999909667925,0.0,0.266789970598,-0.25756591781,0.304967657623,1.0,-0.0151623529412,-0.0199276638656,2.786
-0.6400332444,-0.520439401256,-0.125354547771,-2.64132359847,-0.0674294118874,2.11054349756,-0.887945433739,-0.0652276647091,0.0137250294073,-0.000467188043839,0.0107964005017,0.000505548893346,0.00228592842191,-0.0618226749311,0.57364230581,0.819071596655,0.00608041434999,0.0,0.819069713947,-0.573552018351,-0.0119846919428,0.0,-0.00632900869523,0.0118554378168,-0.999909692044,0.0,0.266559982735,-0.25787845759,0.304966808881,1.0,-0.0148423529412,-0.019507092437,2.802
-0.641145732011,-0.520256234347,-0.125350632676,-2.64119205742,-0.0674048709355,2.11056135013,-0.889067338532,-0.0664581728577,0.00552108410779,-0.000106957416168,0.00580391043225,0.000760908216593,0.00271986990898,-0.0654173097137,0.57364927684,0.819066582358,0.00609817571367,0.0,0.819064743791,-0.573558563027,-0.0120111264302,0.0,-0.00634037344784,0.0118852035462,-0.999909266684,0.0,0.266305156642,-0.258204363235,0.304960840177,1.0,-0.0145023529412,-0.0190602352941,2.819
-0.642242703355,-0.520075851467,-0.125338910437,-2.64107129135,-0.0673803106022,2.1105803468,-0.890195151539,-0.0653356592259,0.0112145791356,-0.000806375676691,0.00934664956191,0.000274682360938,-0.000463199287469,-0.0614143185093,0.573632656926,0.819078107895,0.00611350778497,0.0,0.819076238992,-0.573541450394,-0.0120443472165,0.0,-0.00635903343806,0.0119166892915,-0.999908773444,0.0,0.266053387991,-0.258521636567,0.304951272341,1.0,-0.0141623529412,-0.0186133781513,2.836
-0.64326074741,-0.519918030952,-0.125329565576,-2.64095748872,-0.067355729086,2.11061655085,-0.891155473308,-0.0648820368065,0.0122591540837,0.000659124649289,0.00492919796103,-0.000392869969989,0.00370393981324,-0.0681907817261,0.573687586747,0.81903955533,0.00612425659407,0.0,0.819037729443,-0.573596140556,-0.0120586976507,0.0,-0.0063638229389,0.0119341521393,-0.999908534702,0.0,0.265806235366,-0.258835364612,0.30494350816,1.0,-0.0138223529412,-0.0181665210084,2.853
-0.644381819277,-0.519739513384,-0.12528577867,-2.64081092838,-0.0673321175825,2.11066952098,-0.892291558739,-0.061641919002,0.0106656127203,0.00364373390923,0.0113850919137,0.000518950752188,0.00137950768753,-0.069394416468,0.573664187361,0.819055991203,0.00611803185713,0.0,0.819054344495,-0.573573261325,-0.0120183841666,0.0,-0.0063347120339,0.0119057463812,-0.999909058178,0.0,0.265582321402,-0.259146834048,0.304954722907,1.0,-0.0134823529412,-0.0177196638656,2.87
-0.645412789865,-0.519571153305,-0.125243472087,-2.64066737932,-0.0673130355994,2.11069937266,-0.893316387606,-0.0647907967383,0.00993742921881,0.00111337445728,0.00712458341531,0.000246735086325,0.000671817009312,-0.0558065587626,0.57365481475,0.819062633352,0.00610762324544,0.0,0.819060928099,-0.573564079302,-0.0120079097424,0.0,-0.00633223878635,0.011891139744,-0.999909247656,0.0,0.265359964289,-0.259447293601,0.304961550143,1.0,-0.0131423529412,-0.0172728067227,2.887
-0.646353919796,-0.519412062752,-0.125208284106,-2.64053644271,-0.0672946050749,2.11071791472,-0.89423904023,-0.0563607493743,0.00762921334832,0.0018791148653,0.0108600054964,-0.000183192743105,0.00140164899832,-0.0566409633676,0.573659686886,0.819059265333,0.00610167306211,0.0,0.819057461039,-0.573568935023,-0.0120124599834,0.0,-0.00633930858012,0.0118889137776,-0.999909229328,0.0,0.265154512928,-0.259720721607,0.304964915448,1.0,-0.0128223529412,-0.0168522352941,2.903
-0.647390168534,-0.519238075595,-0.125189589174,-2.64042189368,-0.0672797211305,2.11075167449,-0.895263773233,-0.0573580632962,0.0108799925545,0.00395295184683,0.00203738299926,0.0057245821469,0.0019666105917,-0.0564667080901,0.573668339769,0.819053192105,0.00610338846701,0.0,0.81905128276,-0.573577340068,-0.0120323759377,0.0,-0.00635451294217,0.0119018104275,-0.999908979395,0.0,0.264918461757,-0.260020843492,0.30495624908,1.0,-0.0124623529412,-0.016379092437,2.921
-0.648289995688,-0.519094177363,-0.125173338893,-2.64032936323,-0.0672672838099,2.11079612022,-0.8961601203,-0.0530050986555,0.00668261097785,-0.000225736981025,0.00592094025289,-0.000419641098157,0.00440870424421,-0.0569796273075,0.573669924307,0.819052080373,0.00610364506062,0.0,0.819050161912,-0.573578899849,-0.0120343184535,0.0,-0.00635593391767,0.0119031472039,-0.999908954451,0.0,0.264714138027,-0.260281791922,0.304949499854,1.0,-0.0121423529412,-0.0159585210084,2.937
-0.649162424083,-0.518949667301,-0.125172421745,-2.64023063181,-0.0672596245823,2.11082086014,-0.897010846704,-0.0559566563131,0.00431953233254,0.00134124448465,0.00349767552394,0.00329647695066,0.00570531644415,-0.0475770105371,0.573695573445,0.819034080745,0.00610823125381,0.0,0.8190321151,-0.573604323796,-0.0120507700239,0.0,-0.00636640606393,0.011916540413,-0.999908728304,0.0,0.264511223029,-0.260537988392,0.304943289735,1.0,-0.0118223529412,-0.0155379495798,2.953
-0.650120140105,-0.518783882502,-0.125159374964,-2.64011048894,-0.0672472903338,2.11084854404,-0.897946307701,-0.0510107837324,0.00557031586342,0.00107526083708,0.00218198996552,0.000114843674689,-4.42522874063e-05,-0.0488135896945,0.573716155284,0.819019656747,0.0061091675784,0.0,0.819017622167,-0.573624745464,-0.0120637005826,0.0,-0.00637616097395,0.0119248854112,-0.99990856666,0.0,0.264293790228,-0.260818993142,0.304939508064,1.0,-0.0114623529412,-0.0150648067227,2.971
-0.650898658767,-0.518643882686,-0.125141574873,-2.64000478588,-0.0672429240039,2.11088186676,-0.898743709488,-0.0504163216609,0.00815095363709,0.000785118585218,0.0022638288492,-4.11216326308e-05,0.00449278629072,-0.0451006240551,0.573695471801,0.819034214455,0.00609984330191,0.0,0.819032082288,-0.573604151172,-0.0120612123121,0.0,-0.00637977294231,0.0119156596624,-0.999908653604,0.0,0.264121326942,-0.261049785553,0.304939242251,1.0,-0.0111623529412,-0.0146705210084,2.986
-0.651769080067,-0.518507549604,-0.125133799825,-2.63989392127,-0.0672321703617,2.1109090532,-0.899603593841,-0.053209615451,0.00733225229018,-0.000749255429838,0.00844835655512,0.000357998897586,2.72511861279e-05,-0.0474167580275,0.573708944298,0.819024765656,0.00610142399629,0.0,0.819022694096,-0.573617688799,-0.0120548975481,0.0,-0.00637349761778,0.0119134366358,-0.999908720112,0.0,0.263923331027,-0.261306790027,0.304941909804,1.0,-0.0108223529412,-0.0142236638656,3.003
-0.652714216064,-0.518350919112,-0.125131868823,-2.63976567458,-0.0672184132601,2.11094071592,-0.900511193651,-0.0490716098188,0.00890452934157,-3.0254837738e-05,0.00458153656091,0.000748133896312,0.00167920350968,-0.0431836063401,0.573750854001,0.818995367631,0.00610673670308,0.0,0.818993417062,-0.573659663769,-0.0120465710633,0.0,-0.00636301988073,0.0119133369636,-0.99990878803,0.0,0.263708771678,-0.261589076104,0.304945237838,1.0,-0.0104423529412,-0.0137242352941,3.022
-0.653478823959,-0.518217825931,-0.125144650395,-2.63966382401,-0.0672107579546,2.11096317443,-0.901255171678,-0.048320303516,0.00953708872912,-0.00196882742414,0.00729302949907,-0.000137872912359,3.84898808448e-05,-0.0429958204152,0.57378542389,0.81897107765,0.0061162247476,0.0,0.818969214626,-0.573694118137,-0.012051191317,0.0,-0.00636085744317,0.0119240272707,-0.999908674363,0.0,0.263530450054,-0.261819751863,0.304944100743,1.0,-0.0101223529412,-0.0133036638656,3.038
-0.654255785798,-0.518090322902,-0.125134352398,-2.63955906067,-0.0671976887874,2.11098331357,-0.902039694058,-0.0445452609906,0.00586921872444,0.000367370167713,0.009462852233,0.000556763467839,-1.89437591304e-05,-0.0440727038366,0.573782946693,0.818972792815,0.00611895537934,0.0,0.81897097365,-0.57369164528,-0.0120493716009,0.0,-0.00635783634075,0.0119252003848,-0.999908679587,0.0,0.263354663068,-0.262048509042,0.304946691751,1.0,-0.00978235294118,-0.0128568067227,3.055
-0.655057769499,-0.517936129388,-0.125124139841,-2.63945239829,-0.0671832966119,2.1110082645,-0.90283217726,-0.0437562770151,0.00318729504092,0.000173631703901,0.00598127714367,-0.000245805133095,0.000577526825031,-0.0464522984153,0.573795278688,0.818964120518,0.00612326388618,0.0,0.818962239486,-0.573703734849,-0.0120673865195,0.0,-0.00636993986801,0.011939161182,-0.999908435956,0.0,0.263172817188,-0.2622843334,0.304940714866,1.0,-0.00942235294118,-0.0123836638656,3.073
-0.655644414772,-0.517808297399,-0.125096801146,-2.63937690598,-0.067166523253,2.11104428938,-0.903387571905,-0.0428270268842,0.00539342952099,0.00157373140809,0.00638187014488,0.000320070617079,0.00466457501608,-0.0413312935,0.573816473496,0.818949288986,0.00612076094723,0.0,0.818947253047,-0.573724707051,-0.012087354833,0.0,-0.0063874218425,0.0119487337386,-0.999908210089,0.0,0.263034169591,-0.262464171428,0.304928381802,1.0,-0.00912235294118,-0.0119893781513,3.088
-0.656391686534,-0.517662150002,-0.125039765615,-2.63928700742,-0.0671530762195,2.11107166968,-0.904103854901,-0.040083233359,0.00301253477473,0.00133457131775,0.0101528771097,0.000311065384192,0.00716129096182,-0.0391581906588,0.57380817724,0.818955242071,0.00610197650367,0.0,0.818952860645,-0.573716306816,-0.0121061238897,0.0,-0.00641369368011,0.0119440539559,-0.999908097831,0.0,0.262885592037,-0.26266070954,0.304922305886,1.0,-0.00878235294118,-0.0115425210084,3.105
-0.657043038195,-0.517531397415,-0.12499920516,-2.63922162769,-0.0671358547761,2.11110140164,-0.904771821659,-0.0383789842763,0.0092144429121,0.00206305118063,0.00371626930864,0.00126307392126,0.000990585718894,-0.0361274413241,0.573776754456,0.818977295076,0.00609697446645,0.0,0.818974646182,-0.573684536743,-0.0121378792962,0.0,-0.00644303162994,0.0119579307222,-0.999907743362,0.0,0.262741598795,-0.262840178757,0.304907319987,1.0,-0.00844235294118,-0.0110956638656,3.122
-0.657620251348,-0.517413433351,-0.124971426236,-2.63914800255,-0.0671212362336,2.11111175632,-0.905403087417,-0.0352696534251,0.00490192784686,0.00197516173673,0.00218431789639,0.000176505571953,0.00071459024223,-0.0428600954479,0.573722962381,0.819014985426,0.00609614507898,0.0,0.819012124982,-0.573630387746,-0.0121681669925,0.0,-0.0064691015969,0.0119742040896,-0.999907380291,0.0,0.262613053773,-0.263002745892,0.304898832952,1.0,-0.00812235294118,-0.010675092437,3.138
-0.658274609579,-0.517302279791,-0.124962204545,-2.63906033844,-0.067104451341,2.11113895461,-0.906060845879,-0.0392539324894,0.00465744078385,-0.00143933984499,0.00160647783458,0.00494487213665,0.00170035961719,-0.0347461082182,0.573725353255,0.819013265844,0.00610215581121,0.0,0.819010528598,-0.573632834138,-0.0121602855367,0.0,-0.0064591625976,0.0119746245204,-0.999907439509,0.0,0.262466210912,-0.263195441626,0.304900230627,1.0,-0.00776235294118,-0.0102019495798,3.156
-0.658902275777,-0.517216062256,-0.124955063353,-2.63900076617,-0.0670898500318,2.11116273464,-0.906642933242,-0.0400960651885,0.00299313026839,7.72349125928e-05,0.0035124463291,0.00228857059286,-0.000284876206312,-0.039037321946,0.57376698913,0.818984039401,0.00611001570738,0.0,0.818981407924,-0.57367443196,-0.0121592142192,0.0,-0.00645316683046,0.0119807756663,-0.999907404539,0.0,0.262319228493,-0.263374406392,0.30489771433,1.0,-0.00742235294118,-0.00975509243698,3.173
-0.659478074981,-0.51714806506,-0.124959649313,-2.63893284412,-0.0670784468581,2.11119057432,-0.907161669144,-0.0359415785741,0.00713606326442,-0.000729305698748,0.00146913383208,0.00486183482877,0.00497217807,-0.0342033775557,0.573825282698,0.818943140757,0.00611751947346,0.0,0.818940805976,-0.573733049543,-0.0121281107712,0.0,-0.00642253367697,0.0119695333707,-0.99990773641,0.0,0.262185859662,-0.263545606698,0.30490577443,1.0,-0.00710235294118,-0.00933452100841,3.189
-0.660043429538,-0.517090160568,-0.124962328232,-2.63884304664,-0.0670645666884,2.11121377055,-0.907720818625,-0.0288354017404,0.00590815714698,0.00127652088629,0.0055254758082,0.000123455679348,0.00369024475113,-0.033299902029,0.573842590004,0.818930970385,0.0061232788115,0.0,0.818929081245,-0.573751020518,-0.0120695172718,0.0,-0.00637098668568,0.0119407640394,-0.999908410147,0.0,0.26206024718,-0.263718519657,0.304927142571,1.0,-0.00676235294118,-0.00888766386555,3.206
-0.660511612735,-0.51703367098,-0.12495646042,-2.63876028766,-0.067049568593,2.11121972794,-0.908165637029,-0.0297809709705,0.00278701111887,0.000650743157885,0.00357757070939,7.35653956018e-05,0.00317692030904,-0.0330989271166,0.573868039418,0.81891310547,0.00612747297351,0.0,0.81891149275,-0.573776862923,-0.0120343474311,0.0,-0.00633940465991,0.0119242149836,-0.999908808365,0.0,0.261957882994,-0.263859710528,0.304944565733,1.0,-0.00646235294118,-0.00849337815127,3.221
-0.661013727051,-0.516983917871,-0.124943777691,-2.63867386361,-0.0670320760385,2.11123748672,-0.908677016899,-0.0272439956617,0.0051814546257,0.00120166305054,0.00431429469286,-0.000139825628233,0.000737516551415,-0.0272067029475,0.573863118616,0.818916543739,0.00612881592548,0.0,0.818915311005,-0.573772621014,-0.0119766304732,0.0,-0.00629143518513,0.0118921566745,-0.999909493131,0.0,0.261851048813,-0.264010762487,0.304967306635,1.0,-0.00612235294118,-0.00804652100841,3.238
-0.661526391527,-0.516877132064,-0.124910386019,-2.63858173888,-0.0670086369964,2.1112474475,-0.909187930377,-0.0328017998172,0.00662054729369,0.000987421072441,0.00207780212061,0.00023222459981,-0.00012032963933,-0.0299738494389,0.573855594607,0.818921823595,0.00612782826829,0.0,0.818920570307,-0.573765088156,-0.0119778980466,0.0,-0.00629314934721,0.0118920173841,-0.999909484,0.0,0.261745271996,-0.264158839091,0.304971429101,1.0,-0.00574235294118,-0.00754709243698,3.257
-0.661912693799,-0.516791629789,-0.12486559536,-2.63852944585,-0.0669876265511,2.11126531657,-0.909591502791,-0.0237164715632,0.00351366602501,0.00331806740945,-0.000182876698584,0.00011169611569,0.00249361208423,-0.0227954201603,0.573811940569,0.818952452671,0.00612241988204,0.0,0.818951015295,-0.573721251377,-0.0119961313116,0.0,-0.00631182028612,0.0118977144336,-0.999909298545,0.0,0.261665136732,-0.264268685154,0.304965296128,1.0,-0.00540235294118,-0.00710023529412,3.274
-0.662329008826,-0.516686975217,-0.124819441915,-2.63849642407,-0.0669619632919,2.11128731293,-0.910021069409,-0.0210949915103,0.00854373041467,0.0015926562975,5.29010878886e-05,-6.31340216637e-05,0.00215437455561,-0.0235512652907,0.573790747935,0.818967292656,0.00612356466165,0.0,0.818965610809,-0.573699570211,-0.0120365424341,0.0,-0.00634457030828,0.0119216750885,-0.999908805887,0.0,0.261578906973,-0.264368989141,0.304945623128,1.0,-0.00506235294118,-0.00665337815127,3.291
-0.662661676005,-0.516621010099,-0.124780595406,-2.63849508718,-0.0669407624759,2.11130243404,-0.910352837708,-0.0209592370406,0.00189591698478,0.00382877570969,-0.000409909011456,0.000248968053182,2.64053344766e-05,-0.0245617450688,0.573773312374,0.818979478039,0.00612759820568,0.0,0.818977547706,-0.573681556168,-0.0120828543002,0.0,-0.00638044247705,0.0119514147883,-0.999908222608,0.0,0.261502679552,-0.264446821782,0.304924115994,1.0,-0.00476235294118,-0.00625909243698,3.306
-0.662996047096,-0.516539390517,-0.124740322329,-2.63848402924,-0.0669141376206,2.11131286672,-0.910691480679,-0.0189456026133,0.00510901058312,0.000838965161788,0.000370030569232,0.000287656871394,-0.000515099124884,-0.0282921174493,0.573753469974,0.818993320218,0.00613547326595,0.0,0.818991120548,-0.573660987622,-0.0121393016373,0.0,-0.00642244895179,0.0119900954091,-0.999907490602,0.0,0.261427908527,-0.264525809781,0.304900886613,1.0,-0.00444235294118,-0.00583852100841,3.322
-0.663329204798,-0.516490754308,-0.124726022708,-2.63846582898,-0.0668941361585,2.1113149468,-0.911020243458,-0.0146837923319,0.0066650585647,-0.0003319438474,0.00186381469089,0.000167409863779,2.41942742302e-05,-0.0139219321519,0.57375652163,0.818991083379,0.00614866929989,0.0,0.81898888275,-0.573663656272,-0.0121641401047,0.0,-0.00643517806807,0.0120151778448,-0.999907107678,0.0,0.261348120898,-0.264611975532,0.304891739939,1.0,-0.00410235294118,-0.00539166386555,3.339
-0.663642455154,-0.51644595415,-0.124713225397,-2.63843713172,-0.0668664177088,2.11132753741,-0.911347239273,-0.0122909312933,0.00502047190617,8.29313497791e-05,0.00342555120579,0.000791760751758,5.64851709895e-05,-0.018331567308,0.573749532843,0.81899584978,0.00616591494436,0.0,0.818993859556,-0.573656563826,-0.0121635394098,0.0,-0.00642489441457,0.0120289031257,-0.999907008787,0.0,0.261278048074,-0.26469675773,0.304889641767,1.0,-0.00376235294118,-0.0049448067227,3.356
-0.66394184697,-0.516395461782,-0.124693368098,-2.63837573787,-0.0668443854575,2.11133281833,-0.911657844359,-0.0177690000762,0.00325916853393,0.0033315835832,0.00418512466753,0.00126617114846,1.21706351523e-05,-0.0150820041232,0.573738708894,0.819003396708,0.0061706562556,0.0,0.819001584199,-0.573645938007,-0.0121445373855,0.0,-0.0064067688245,0.0120217999055,-0.999907210515,0.0,0.261218801168,-0.264784294991,0.304899834167,1.0,-0.00340235294118,-0.00447166386555,3.374
-0.664196508441,-0.5163681728,-0.124666117066,-2.63832313147,-0.0668234144106,2.11134340572,-0.911901742453,-0.0125265348517,-6.84047781363e-07,0.000525275368344,0.00584416608139,0.00203837688211,0.000815942477645,-0.0119469478426,0.57373965704,0.819002740843,0.00616954884805,0.0,0.819001158443,-0.573647350426,-0.0121064742731,0.0,-0.00637621302346,0.0119990630702,-0.999907678935,0.0,0.261172270424,-0.264857520751,0.304915219713,1.0,-0.00308235294118,-0.00405109243698,3.39
-0.664453762042,-0.516339668467,-0.124639492439,-2.63828043252,-0.0668031304784,2.11134635032,-0.912163962336,-0.0104199213528,0.000954583160742,-0.000423430726459,0.00281141260443,0.00246377906851,-0.000399182982287,-0.0102756226899,0.573727430499,0.819011294888,0.00617099997826,0.0,0.819009853126,-0.573635349368,-0.0120869077649,0.0,-0.00635953269194,0.0119889311445,-0.999907906696,0.0,0.261121368901,-0.264927935123,0.304924989143,1.0,-0.00272235294118,-0.00357794957984,3.408
-0.664670158702,-0.516334713974,-0.124611061827,-2.63826192103,-0.0667834004633,2.1113555341,-0.912370470582,-0.0118861625163,-0.00066637363549,-0.000910380504634,0.000913423111282,0.00358580474477,-0.000439043690135,-0.0148014533985,0.573724621188,0.819013253363,0.00617225729074,0.0,0.819011985062,-0.573632831611,-0.0120619121496,0.0,-0.0063383785177,0.0119755992422,-0.999908200777,0.0,0.261077648701,-0.264982351294,0.304933033475,1.0,-0.00238235294118,-0.00313109243698,3.425
-0.664851988187,-0.516327160381,-0.124580937555,-2.63825419785,-0.0667692573966,2.11135447487,-0.912538401427,-0.0122255002056,-0.00161920664501,0.00197965947159,0.00130299295021,-0.000638212998398,-0.000320584890108,-0.00611774635214,0.573725956662,0.819012326226,0.00617114599648,0.0,0.819011092427,-0.573634264188,-0.0120543905636,0.0,-0.00633283559057,0.0119703842492,-0.999908298343,0.0,0.261035813447,-0.265029018284,0.304937432788,1.0,-0.00206235294118,-0.00271052100841,3.441
-0.665053841477,-0.516317333186,-0.124558556478,-2.63825353776,-0.0667531514613,2.1113592416,-0.912721394854,-0.0111928220368,0.00162172944238,0.00130493811611,-0.000753251687197,0.000276313864033,0.000454996645329,-0.00727672921607,0.573727531341,0.819011192166,0.00617525625338,0.0,0.819009950878,-0.573635705299,-0.0120633689523,0.0,-0.00633780873334,0.0119789138406,-0.999908164685,0.0,0.260992457,-0.265070542531,0.304931996346,1.0,-0.00172235294118,-0.00226366386555,3.458
-0.665205539615,-0.516304106284,-0.124538975951,-2.63824466199,-0.0667339040098,2.11136092785,-0.912853030604,-0.0127104081508,0.00215530551247,0.00160693396504,0.00111950506652,0.00100457032545,-7.82790502614e-05,-0.00410108442039,0.573742102559,0.819000933502,0.00618203652999,0.0,0.818999751244,-0.573650188419,-0.012067132653,0.0,-0.00633678849004,0.0119867392223,-0.999908077372,0.0,0.260958537272,-0.265110544005,0.304930298226,1.0,-0.00140235294118,-0.00184309243698,3.474
-0.665364564039,-0.51627925562,-0.124512670952,-2.63823325863,-0.0667208282976,2.11136959144,-0.912985237939,-0.0031832109674,1.6527680504e-05,0.000209640435729,0.00052545201247,-0.000212949511385,-0.000223840124399,-0.0124534429866,0.573748234053,0.818996649139,0.00618057609985,0.0,0.818995448827,-0.573656326821,-0.0120673278204,0.0,-0.00633769648622,0.0119857024855,-0.999908084045,0.0,0.260928569741,-0.265144573835,0.304929139025,1.0,-0.00108235294118,-0.00142252100841,3.49
-0.665501268743,-0.516243112819,-0.12448632337,-2.63822834267,-0.0667072564049,2.11137581493,-0.913055363851,-0.00756061983207,0.00128467086989,0.000494731026627,-0.00125867762897,0.00199084122895,0.000825139498015,-0.00282833556531,0.573790233904,0.818967226854,0.00618026830219,0.0,0.818965875803,-0.573698041809,-0.0120912362997,0.0,-0.00635684082765,0.0119994931748,-0.999907797118,0.0,0.26090069108,-0.265174734656,0.304919194093,1.0,-0.000702352941182,-0.000923092436982,3.509
-0.665561510872,-0.516221452945,-0.124468790451,-2.63822511639,-0.0666863587557,2.11138142484,-0.913097629155,-0.000423548069991,0.00120128785704,0.00389934297901,-0.000976071975964,0.00019292721021,0.000548815754801,-0.00092135447056,0.573801670903,0.818959142292,0.00618971945366,0.0,0.818957836823,-0.573709288049,-0.0121021160659,0.0,-0.0063601615051,0.0120135649728,-0.999907607033,0.0,0.26089163753,-0.265185841108,0.304913570518,1.0,-0.000382352941182,-0.000502521008411,3.525
-0.665566612688,-0.516202690627,-0.124463515318,-2.63821410989,-0.0666758843241,2.1113857587,-0.913136967188,-0.000175947037458,-0.000240906714826,-0.00118736945163,0.00188027223114,0.000203958298833,0.000303655889213,-0.003287374074,0.573774948211,0.818977823955,0.00619512526406,0.0,0.818976565274,-0.573682502377,-0.012104499134,0.0,-0.00635940383503,0.0120191521799,-0.999907544708,0.0,0.260895159638,-0.265188141161,0.304912147476,1.0,-4.23529411821e-05,-5.56638655536e-05,3.542
-0.665559558501,-0.516193205364,-0.124422849344,-2.63822154372,-0.0666619773422,2.11138780027,-0.91315018246,0.000881674914547,0.000654757143486,0.000625785197761,0.000303854334358,2.29301328309e-05,0.000268302842012,-0.000396899201037,0.573735100262,0.819005790466,0.00618844172363,0.0,0.819004355853,-0.573642525097,-0.0121188033488,0.0,-0.00637553952833,0.0120215750346,-0.999907412829,0.0,0.260905754401,-0.265174322143,0.304906406629,1.0,0.0,0.0,3.56
-0.665562332515,-0.516195442183,-0.124395928459,-2.63821689422,-0.0666553248637,2.11138980255,-0.913156698517,9.27743023745e-05,-9.71797558434e-05,0.00208825908019,0.000918198060929,0.0020923957383,0.000825025241376,-0.0012925640368,0.573715950805,0.819019270539,0.0061797394407,0.0,0.819017785422,-0.573623537127,-0.0121099842215,0.0,-0.0063735891582,0.0120092388382,-0.999907573501,0.0,0.260913015467,-0.265170099583,0.304910149591,1.0,0.0,0.0,3.575
