nelsonifechukwu/NELSON_IML_WORK/CNN-GradCAM/train2dof/data_sample_2022-02-21-16-01-52/robot_state.csv
position_joint1,position_joint2,position_joint3,position_joint4,position_joint5,position_joint6,position_joint7,velocity_joint1,velocity_joint2,velocity_joint3,velocity_joint4,velocity_joint5,velocity_joint6,velocity_joint7,ee_T_00,ee_T_10,ee_T_20,ee_T_30,ee_T_01,ee_T_11,ee_T_21,ee_T_31,ee_T_02,ee_T_12,ee_T_22,ee_T_32,ee_T_03,ee_T_13,ee_T_23,ee_T_33,v_x,v_y,time
0.465060654327,0.547863301649,-0.12389618135,-1.35586015041,0.0795085879377,1.89409237145,0.159169566045,0.000104800417664,0.000201537418237,-3.7734786308e-05,-0.000153267872278,0.00013614208084,-4.93465361091e-05,0.000476970482492,0.573764241836,0.819006619814,0.00187039922899,0.0,0.818961829793,-0.573705425188,-0.0120147140073,0.0,-0.00876724091877,0.00842556106645,-0.999926069971,0.0,0.661648736553,0.260931799455,0.30313953709,1.0,0.0,0.0,0.0
0.465059945358,0.547863379618,-0.123901200496,-1.3558597611,0.0795035718135,1.89409395983,0.159161484047,-0.00480079337968,-0.000659315512537,-0.000510900929242,3.85593321509e-06,-0.000136782269808,0.00022930779304,-0.00223190103831,0.573760371187,0.819009336843,0.00186802578695,0.0,0.818964590417,-0.573701636922,-0.0120074284155,0.0,-0.00876267524065,0.00841939565765,-0.999926161924,0.0,0.661650760387,0.260927766171,0.303139961788,1.0,-0.00012,-0.000157714285714,0.007
0.465052188515,0.547861990756,-0.123899049836,-1.35586080732,0.0795088118833,1.8940939854,0.159168310523,-0.00207515999978,0.000959745653311,0.000808097835101,0.000136241626225,-9.91076956283e-05,-0.000621475043999,-0.00119045531429,0.573772255756,0.81900100243,0.00187174915561,0.0,0.818956244896,-0.573713446577,-0.0120123712483,0.0,-0.00876446517786,0.00842540822322,-0.999926095592,0.0,0.661651798236,0.260924623706,0.303140388549,1.0,-0.00044,-0.000578285714286,0.023
0.465057386481,0.547844276885,-0.123897336363,-1.35587553191,0.0795052318404,1.89409516746,0.159159703245,-0.000555987684267,-0.000601649448234,0.0006518419252,-9.81479167905e-05,-6.47798282394e-05,5.76805106298e-05,-0.00233889289789,0.573759584226,0.819009872842,0.00187472584115,0.0,0.818965163853,-0.573700773091,-0.0120095899724,0.0,-0.00876060976065,0.00842611473378,-0.999926123425,0.0,0.661647579248,0.260927040739,0.303145968684,1.0,-0.0008,-0.00105142857143,0.041
0.465056674467,0.547783701754,-0.123899768894,-1.35593061159,0.079506180827,1.89410409893,0.159169583595,-0.000330975739117,-0.00847033042668,-0.000597962713615,-0.00373502390389,0.000334804847645,-6.38779499339e-05,0.00177602518279,0.57377317197,0.819000319255,0.00188973227216,0.0,0.818955766628,-0.573714256508,-0.0120062936716,0.0,-0.00874916045308,0.00843665877708,-0.999926134762,0.0,0.661639030392,0.260920184287,0.303163524049,1.0,-0.00112,-0.001472,0.057
0.465059102308,0.547655883689,-0.123901429271,-1.35610051774,0.07950323647,1.89413183601,0.159161995501,0.000327294750496,-0.00874886635674,-0.00056479369943,-0.0109179169186,0.000138585313766,0.00190312739381,0.00133053246627,0.573774584989,0.818999345124,0.00188287243046,0.0,0.818954595963,-0.573715595834,-0.0120221358096,0.0,-0.00876605685046,0.00844014551429,-0.999925957354,0.0,0.6616088992,0.26090374543,0.303175663311,1.0,-0.00146,-0.00191885714286,0.074
0.465041803632,0.54752740308,-0.123896710836,-1.35628771185,0.0795019925198,1.89418048516,0.159152258216,-0.00106124638716,-0.00595380351407,0.00131501874913,-0.00835776102915,-0.000166411162986,0.00522529926178,-0.00108711081266,0.57378747418,0.818990317422,0.00188184604433,0.0,0.818945409192,-0.573728347661,-0.0120393834707,0.0,-0.00878063912317,0.0084493392871,-0.999925751765,0.0,0.661582572596,0.260877600054,0.303181648664,1.0,-0.00178,-0.00233942857143,0.09
0.465018393721,0.547356775988,-0.123899500779,-1.35648223097,0.0794949778783,1.8943119071,0.159148533829,-0.00438990229097,-0.0102369328187,7.4456224043e-05,-0.0135949265763,-0.00016290156482,0.0102701435477,0.000516548931257,0.573814919756,0.818970871739,0.00197383128366,0.0,0.818927225023,-0.573755454534,-0.0119843819104,0.0,-0.00868253040065,0.00849340484437,-0.999926235149,0.0,0.661575843223,0.260847461521,0.303221421712,1.0,-0.0021,-0.00276,0.106
0.465001299979,0.547155288442,-0.12389592915,-1.35672567877,0.0794952190649,1.89443381611,0.159130016012,-0.00221733820538,-0.0147254997988,0.000438504998425,-0.0166428237893,1.08813327235e-05,0.00441559308102,-0.00142244001507,0.573825092472,0.818963555119,0.00205074093833,0.0,0.818920806548,-0.573765200184,-0.0119563607222,0.0,-0.00861534577046,0.00854041864983,-0.999926415826,0.0,0.661553280813,0.260820303998,0.303258737321,1.0,-0.00244,-0.00320685714286,0.123
0.464960951168,0.546936850121,-0.123899745341,-1.35704642425,0.0794902483627,1.89456932648,0.159104916152,-0.00273775312234,-0.0104335282357,-0.00211953597386,-0.0187527191642,0.000147552354794,0.00664940027908,-0.00134116651321,0.573856976405,0.818941126663,0.00208532808637,0.0,0.818898743779,-0.573796852088,-0.0119485092391,0.0,-0.00858873628649,0.00856457282936,-0.999926438145,0.0,0.66152418067,0.260764602796,0.303272675769,1.0,-0.00278,-0.00365371428571,0.14
0.464922581653,0.546681454104,-0.123899749251,-1.35744386409,0.0794826497757,1.89471176019,0.159024055105,-0.00346338927047,-0.0111785823389,-0.000385563624195,-0.0281381664338,0.000129964685432,0.00861833402537,-0.0137421580703,0.573842373414,0.818951334365,0.0020950698463,0.0,0.818908918704,-0.5737820512,-0.0119619182653,0.0,-0.00859428091766,0.00858009214376,-0.999926257458,0.0,0.661478569383,0.260703838697,0.30327674383,1.0,-0.00312,-0.00410057142857,0.157
0.464883514087,0.546384723555,-0.123896959345,-1.3578815141,0.0794710181894,1.89486741225,0.158950868138,-0.00518018432728,-0.0209665408009,0.00081265157661,-0.0264593997859,0.000330835536367,0.00974164407564,-0.000500696050552,0.573833802246,0.818957283313,0.00211717023947,0.0,0.818914997499,-0.573773231222,-0.0119688306283,0.0,-0.00858735073958,0.00860206766572,-0.999926128191,0.0,0.661427196435,0.260640248494,0.303291976774,1.0,-0.00346,-0.00454742857143,0.174
0.464834864804,0.546090395724,-0.123901898959,-1.35838736625,0.0794500940825,1.89504435477,0.158923976562,-0.00288351594131,-0.0230336385442,-0.000384730763412,-0.0325082259449,0.000100024414746,0.016949420056,-0.00245455581648,0.573877787436,0.818926529723,0.00209067099691,0.0,0.818883817371,-0.573817240342,-0.0119922989814,0.0,-0.00862131471336,0.00859429611937,-0.999925902758,0.0,0.66136909589,0.260557651832,0.303275116681,1.0,-0.0038,-0.00499428571429,0.191
0.464781597961,0.545742828121,-0.123902928007,-1.3589626975,0.0794107880536,1.89523270447,0.158825094339,-0.00231501557464,-0.0263094729008,0.000408115272713,-0.0338431834905,-0.000983432868664,0.0155083739567,-0.00696453985082,0.573862729816,0.818937172306,0.00205476124209,0.0,0.818893993162,-0.573802337335,-0.012010517638,0.0,-0.00865699922309,0.00857518517567,-0.999925758526,0.0,0.661300003087,0.260464517548,0.303263688623,1.0,-0.00414,-0.00544114285714,0.208
0.464714042146,0.545373710319,-0.123902971883,-1.35961999301,0.0793197799119,1.89545471304,0.158740582846,-0.00471598488081,-0.0221542740709,-0.000762735731708,-0.0402555139107,-0.00633508300789,0.00940124117978,-0.00469013891023,0.573861326617,0.818938365903,0.00196915376077,0.0,0.818894496743,-0.57380171767,-0.0120057862325,0.0,-0.00870226269389,0.00850234928898,-0.999925987601,0.0,0.66122567822,0.260346971431,0.303231276381,1.0,-0.00448,-0.005888,0.225
0.464654468039,0.544929633445,-0.123903341457,-1.36036277957,0.0793066188898,1.8956969248,0.158651422721,-0.00320055843626,-0.025618683775,-0.00539270792459,-0.0422856691726,0.000419054004078,0.0172559154665,-0.0100472177916,0.573875133878,0.818928763689,0.00193845844523,0.0,0.818884147659,-0.573815318198,-0.0120615179626,0.0,-0.00876537560437,0.00850934195843,-0.999925376861,0.0,0.661131264662,0.26023933707,0.303213111352,1.0,-0.00484,-0.00636114285714,0.243
0.464592461811,0.544540490551,-0.123900827179,-1.36100921335,0.079283514034,1.89593633951,0.158571659577,-0.000571365775106,-0.0297495168067,0.00355993120366,-0.0456573391784,-0.00061288453508,0.0212847795391,-0.00672784579755,0.573888781127,0.81891921629,0.00193157665095,0.0,0.818874342562,-0.573828830998,-0.0120843166817,0.0,-0.00878785396819,0.00851693630879,-0.999925114905,0.0,0.661057449688,0.26014068947,0.303201528183,1.0,-0.00514,-0.00675542857143,0.258
0.464524539701,0.544026647928,-0.123911831108,-1.36185625854,0.0792490939963,1.89624316933,0.158462833626,-0.00742537336986,-0.0282218744286,-0.00160857723882,-0.0517561523031,-0.00276166264183,0.0134612393006,-0.0106282149314,0.573901034236,0.818910668945,0.00191470392866,0.0,0.818865455657,-0.573841041562,-0.012106669694,0.0,-0.00881571501094,0.00851607912445,-0.999924876961,0.0,0.660959392355,0.260010873262,0.303188949897,1.0,-0.0055,-0.00722857142857,0.276
0.464459851541,0.543565899989,-0.123909329379,-1.36258946614,0.0792115810246,1.89648491617,0.158388778766,-0.00489393130259,-0.0362952339057,-0.00185982326088,-0.0468496380386,-0.000411349317236,0.00518853326782,-0.00842182236123,0.573922250207,0.818895849935,0.00189329779569,0.0,0.818850231898,-0.573862229437,-0.0121320339055,0.0,-0.00884855048451,0.0085133354458,-0.999924610295,0.0,0.660869281612,0.259898923132,0.303186824576,1.0,-0.0058,-0.00762285714286,0.291
0.464371490176,0.543017816774,-0.123901946104,-1.36346428981,0.0791565461885,1.89680721493,0.158256985167,-0.0117536445011,-0.032868863562,0.00351177689201,-0.0542035392981,0.000432817126828,0.0229471330925,-0.00864315732458,0.573915520482,0.818900574818,0.00188965962088,0.0,0.818854878991,-0.57385548774,-0.0121372667608,0.0,-0.00885499366979,0.00851328667758,-0.999924553672,0.0,0.660770827607,0.259761135693,0.303185832018,1.0,-0.00614,-0.00806971428571,0.308
0.464314681446,0.542460458068,-0.123909768899,-1.36433209533,0.0791025201339,1.89711259231,0.158160772967,-0.00464052922968,-0.0388156861353,-0.000472888672192,-0.0558002925331,-0.00239359059817,0.0169793568664,-0.00588197541874,0.57392244028,0.818895741251,0.00188265885859,0.0,0.818849979754,-0.573862462822,-0.0121380114877,0.0,-0.0088595492391,0.00850805614788,-0.999924557838,0.0,0.660665962323,0.25963536463,0.303193703032,1.0,-0.00646,-0.00849028571429,0.324
0.464222460632,0.54185233832,-0.123912937484,-1.3652858528,0.0790547675661,1.89747745992,0.15800943548,-0.0100681135639,-0.0384167686207,-4.44044493076e-05,-0.057866779993,-0.0026676170733,0.0191840042345,-0.00208774122578,0.573916563394,0.818899812909,0.00190304509299,0.0,0.81885425029,-0.57385643052,-0.012135107491,0.0,-0.00884553289377,0.0085230198451,-0.999924554494,0.0,0.660562119363,0.25948441667,0.303201515406,1.0,-0.0068,-0.00893714285714,0.341
0.464142445854,0.541197595992,-0.123915393236,-1.36628855558,0.0789955238588,1.89785090645,0.157884735636,-0.00311319762048,-0.0351820358278,-0.00204056676737,-0.066915867028,-0.00918321536898,0.0236604082979,-0.00378125299009,0.573921486694,0.818896311971,0.00192464373292,0.0,0.818851029992,-0.573861255464,-0.0121242343909,0.0,-0.00882418225214,0.00853451944567,-0.999924645054,0.0,0.660447067431,0.25933548247,0.303219606585,1.0,-0.00714,-0.009384,0.358
0.464049303076,0.540503566124,-0.123915815608,-1.36735432706,0.0789290344239,1.89824185976,0.157748929024,-0.00840209532585,-0.0388728616112,-0.000293496444677,-0.0612158224173,-0.000808417814937,0.0218171730065,-0.0156903833396,0.573928080262,0.818891655236,0.00193973516421,0.0,0.818846580437,-0.573867791003,-0.0121154057394,0.0,-0.00880822271153,0.00854188152144,-0.999924722903,0.0,0.660325134474,0.259172112136,0.303236793703,1.0,-0.00748,-0.00983085714286,0.375
0.463954741168,0.539815458299,-0.123916370319,-1.36842433254,0.078863085415,1.8986453655,0.157630221356,-0.00623224191265,-0.043187700903,0.000916134584493,-0.068521464875,-0.00567407007053,0.0274775143129,-0.0103435431034,0.573950319759,0.818876028464,0.00195636315438,0.0,0.818831190444,-0.57388997333,-0.0121048324534,0.0,-0.00878978915685,0.0085496682355,-0.999924818564,0.0,0.660204737839,0.25900809575,0.303248771097,1.0,-0.0078,-0.0102514285714,0.391
0.463847930871,0.539056762432,-0.123913979853,-1.36960277695,0.0788014609364,1.89908915043,0.157481185874,-0.00704488701168,-0.0442949514603,0.00121137428086,-0.068468249812,-0.000782494681793,0.0327136203142,-0.00450086229254,0.573962762525,0.818867245598,0.00198197419544,0.0,0.818822644372,-0.573902206739,-0.012102936215,0.0,-0.00877340759285,0.00856968504942,-0.99992479108,0.0,0.660071196724,0.258829199705,0.303262310736,1.0,-0.00814,-0.0106982857143,0.408
0.463744128168,0.538279716862,-0.123922518877,-1.37080218686,0.0787348851895,1.89955324258,0.157327981333,-0.00363536278038,-0.0481603141231,0.00143554040645,-0.0719095967851,-0.00605690363884,0.0279480537177,-0.0136482902083,0.573976817186,0.818857307236,0.00201757800229,0.0,0.818813182399,-0.573916115402,-0.0120835306049,0.0,-0.00873693501654,0.00858785124453,-0.999924954573,0.0,0.659939092626,0.258644290406,0.303280814278,1.0,-0.00848,-0.0111451428571,0.425
0.463631666355,0.537483039267,-0.123925706882,-1.37206238609,0.078662004993,1.90003166069,0.157179539294,-0.00499859709093,-0.0490052089336,0.00014098982079,-0.0773369200225,-0.000692165065257,0.0309292503349,-0.00946521658614,0.57399963682,0.818841281091,0.00202983098051,0.0,0.818797308288,-0.573938871172,-0.0120783691009,0.0,-0.00872543631814,0.00859516510398,-0.999924992136,0.0,0.659797376421,0.258449777708,0.303285177769,1.0,-0.00882,-0.011592,0.442
0.463521694322,0.536636487396,-0.123936363824,-1.3733704855,0.0785799035923,1.90052584578,0.157019477176,-0.0062331207105,-0.0561251523587,-0.000765034336585,-0.0806373090101,-0.00226249973848,0.033325307119,-0.00963009009793,0.574016146435,0.818829651087,0.00205256765562,0.0,0.818786062015,-0.573955366472,-0.0120569004684,0.0,-0.00869463278134,0.00860163494069,-0.999925204821,0.0,0.65965030645,0.258247140634,0.303303398482,1.0,-0.00916,-0.0120388571429,0.459
0.463404422265,0.535785537089,-0.123937378912,-1.37473378337,0.0785065963508,1.90101625443,0.156849316881,-0.00855013621151,-0.0510634242541,-0.00125276302995,-0.0784734746546,-0.0108330516956,0.0359431109405,-0.0117346386722,0.574028763465,0.818820842342,0.0020380782201,0.0,0.818776946842,-0.57396792848,-0.0120778846051,0.0,-0.00871999999899,0.0086019502418,-0.999924981212,0.0,0.659488658361,0.258039968844,0.303297678561,1.0,-0.0095,-0.0124857142857,0.476
0.463296148163,0.534921251936,-0.123940585519,-1.3760960197,0.0784292771094,1.90150570124,0.156676148082,-0.0120054900471,-0.0538871381907,-0.00136714528686,-0.0856916248772,-0.00788456112372,0.0319487705566,-0.011655352333,0.574031791699,0.818818732716,0.00203272572101,0.0,0.818774698911,-0.57397091208,-0.0120884825622,0.0,-0.00873171864855,0.00860368334183,-0.999924864038,0.0,0.659325497023,0.257837067331,0.303301685318,1.0,-0.00982,-0.0129062857143,0.492
0.463171794042,0.534028854602,-0.123938089594,-1.37757699272,0.0783470860575,1.90204318467,0.156503433315,-0.0081893744618,-0.0550027593307,-0.00104096547358,-0.0902636630688,-0.00668553268239,0.034348529292,-0.0111487220072,0.574049523987,0.818806401205,0.00199204827092,0.0,0.818761712086,-0.573988698355,-0.0121235260687,0.0,-0.00878357666717,0.00859068261887,-0.999924521628,0.0,0.659147808696,0.257615632336,0.303272845637,1.0,-0.01016,-0.0133531428571,0.509
0.463021504616,0.533002126512,-0.123935170579,-1.37924436239,0.0782465117888,1.90268197954,0.156288660151,-0.00762247563701,-0.0569396317437,-0.000158232039378,-0.0936198151833,-0.0026049792869,0.0324269659935,-0.0176072024857,0.574059025203,0.818799748158,0.0019886931918,0.0,0.818755003652,-0.573998201865,-0.0121266298148,0.0,-0.00878794431737,0.00858981917264,-0.99992449067,0.0,0.658957675514,0.257360910562,0.303258581498,1.0,-0.01054,-0.0138525714286,0.528
0.462902009321,0.532096238252,-0.123941284919,-1.38070335818,0.0781740475959,1.90321943899,0.156110300137,-0.00892951878266,-0.0566249530652,-0.00135131030266,-0.0918916032508,-0.00640525119189,0.0344402167899,-0.0105764184193,0.574075349415,0.818788320867,0.00198133962729,0.0,0.818743339206,-0.574014418791,-0.012146539725,0.0,-0.00880829693818,0.00859540314749,-0.999924263607,0.0,0.658784837877,0.257142073872,0.303249615459,1.0,-0.01086,-0.0142731428571,0.544
0.462768400189,0.531081719414,-0.123938580217,-1.38231965296,0.0780698285421,1.90379825891,0.155897180968,-0.00577244814507,-0.0575590796181,-0.000631772133027,-0.0977455893823,-0.0079872867556,0.0360844669722,-0.0149800003489,0.574068217151,0.818793375885,0.00195871523153,0.0,0.818748088582,-0.574007378588,-0.0121590983298,0.0,-0.00883164221018,0.00858401152105,-0.999924155545,0.0,0.658589384294,0.256899539832,0.303245396184,1.0,-0.0112,-0.01472,0.561
0.462649809958,0.530156732354,-0.123939109655,-1.38377852012,0.0779827089636,1.90431765621,0.155706648764,-0.00681496550887,-0.0581592353303,0.000955829374525,-0.0970719545885,-0.00816826213559,0.0306896773439,-0.0127076144422,0.574065421638,0.818795363502,0.00194712307986,0.0,0.818749863611,-0.57400457611,-0.0121718668682,0.0,-0.00884878096522,0.00858181986852,-0.999924022835,0.0,0.658411996467,0.256681283312,0.303247769145,1.0,-0.0115,-0.0151142857143,0.576
0.462506641296,0.529101443039,-0.123947334065,-1.38542653324,0.0778699275809,1.90493594639,0.15547666945,-0.010144456655,-0.0628839483473,-0.000628897657411,-0.0939339148012,-0.00547896636855,0.0415226585861,-0.0176447572759,0.574059210136,0.818799689878,0.00195908528536,0.0,0.818754499063,-0.573998460165,-0.0121484523341,0.0,-0.00882280693291,0.00857810599785,-0.999924284221,0.0,0.658222636187,0.256424215312,0.30326047797,1.0,-0.01184,-0.0155611428571,0.593
0.462364642513,0.52801571597,-0.12394489342,-1.38714263409,0.0777712511433,1.90560464422,0.155234709948,-0.00654285301078,-0.0560342204546,-0.000220292743088,-0.101997057523,-0.00399669677568,0.0405738901177,-0.0154893950084,0.57404225823,0.818811492401,0.00199313310483,0.0,0.818766711314,-0.573981324929,-0.0121349898319,0.0,-0.00879241723554,0.00859807354371,-0.999924380406,0.0,0.658024209684,0.256172136205,0.303266027798,1.0,-0.01218,-0.016008,0.61
0.462214904407,0.526828330343,-0.123947974406,-1.38891640081,0.0776629168533,1.90627672337,0.155001106621,-0.0097818101927,-0.0733237212914,-0.00027492691032,-0.108548459255,-0.00953665712767,0.0377078104241,-0.0184957738391,0.57404241274,0.818811205566,0.00206516733341,0.0,0.818767403793,-0.573981201729,-0.0120940253412,0.0,-0.0087175240813,0.00863354140498,-0.999924730536,0.0,0.657818881731,0.255904964889,0.303315811146,1.0,-0.01252,-0.0164548571429,0.627
0.462049656298,0.525521550307,-0.123952973404,-1.3909619351,0.0775283987026,1.90701741982,0.154723212232,-0.0126113575907,-0.0697825216174,-0.00569423165312,-0.106359519802,-0.00629172041753,0.0355867961716,-0.00611615659459,0.574023526949,0.818824459356,0.00205965292725,0.0,0.81878064841,-0.573962404448,-0.0120894570572,0.0,-0.00871714762445,0.0086262028193,-0.999924797153,0.0,0.657583139388,0.255613585079,0.30332643418,1.0,-0.01288,-0.016928,0.645
0.461907462039,0.524472882984,-0.123957395527,-1.39261709493,0.0774219114158,1.90761146182,0.154491583756,-0.00801534254737,-0.0733989275242,-0.00184185600068,-0.113607931042,-0.00745464704895,0.0473866349843,-0.00818210270251,0.574017550326,0.81882868521,0.00204526167402,0.0,0.818784710759,-0.573956515154,-0.0120939257284,0.0,-0.00872913010303,0.00861692051106,-0.999924772655,0.0,0.657372240809,0.255340634014,0.303327278823,1.0,-0.0132,-0.0173485714286,0.661
0.461743356356,0.523205117054,-0.123958387554,-1.39464111729,0.0773021468295,1.90836569431,0.154233030422,-0.0136122465346,-0.0740535676667,0.00143841618832,-0.111111231405,-0.00539527119514,0.0470270879607,-0.013167187288,0.574017273425,0.818828883964,0.00204340328503,0.0,0.818784835087,-0.573956196872,-0.0121006117156,0.0,-0.00873567459699,0.00861923371245,-0.999924695564,0.0,0.657128612219,0.255040418557,0.303320625168,1.0,-0.01356,-0.0178217142857,0.679
0.461604939272,0.522110978044,-0.123960874953,-1.39635675433,0.077194768175,1.90904000223,0.153992347574,-0.0103641986416,-0.0735978963706,3.20738734968e-05,-0.118089892365,-0.00880483781631,0.0465678384846,-0.0168615184711,0.573998382776,0.818842024344,0.00208390007467,0.0,0.818798580063,-0.573937208543,-0.012071157269,0.0,-0.0086885103433,0.00863528542876,-0.999924968002,0.0,0.656929584718,0.254787134064,0.303331490187,1.0,-0.01386,-0.018216,0.694
0.461441072789,0.520855187539,-0.123966164811,-1.39837252541,0.0770748519098,1.90980167999,0.153720280402,-0.00672935075059,-0.0773922400141,-0.00175305182452,-0.115175598883,-0.00754780395716,0.0517490726655,-0.0162408126554,0.573988953889,0.818848634967,0.00208344142907,0.0,0.818805172923,-0.573927771126,-0.0120726644475,0.0,-0.00869010721908,0.00863567491998,-0.999924950761,0.0,0.656688694765,0.254485944636,0.303320472692,1.0,-0.0142,-0.0186628571429,0.711
0.461279701205,0.519626471088,-0.123962275883,-1.40030114782,0.0769503127056,1.91049365741,0.153466931624,-0.00936089013568,-0.0797450905396,0.00151606367149,-0.120187098981,-0.0098478075301,0.0459492743397,-0.0127413605047,0.573970642543,0.818861514005,0.00206622416703,0.0,0.818817795777,-0.573909505185,-0.0120848698446,0.0,-0.00871017682611,0.00862838775099,-0.999924839048,0.0,0.656434328075,0.254176874429,0.303322322,1.0,-0.01454,-0.0191097142857,0.728
0.461109197256,0.518287847507,-0.123972413384,-1.40239587574,0.0768137427063,1.91123714103,0.153177282311,-0.0100094862803,-0.070238422709,-8.2662610341e-05,-0.122241360512,-0.00532785065262,0.0438156794547,-0.0177625212265,0.573963412518,0.81886660568,0.00205671923305,0.0,0.818822826757,-0.573902379946,-0.0120823662877,0.0,-0.00871365797277,0.00861909078623,-0.999924888899,0.0,0.656191878122,0.253875927374,0.303332526967,1.0,-0.01486,-0.0195302857143,0.744
0.46092486686,0.516908655547,-0.123970455967,-1.40453824221,0.0766745374954,1.91200485805,0.15287477626,-0.0146290952446,-0.0837156161002,0.000507220124315,-0.122643067608,-0.0079608677518,0.0449435783643,-0.0205802228854,0.57394080369,0.81888245094,0.00205725657191,0.0,0.818838677245,-0.573879769901,-0.012082104462,0.0,-0.00871337314568,0.00861913994044,-0.999924890957,0.0,0.655927919418,0.25354963498,0.303346952173,1.0,-0.0152,-0.0199771428571,0.761
0.460741011627,0.515567657697,-0.123973649625,-1.40671089381,0.0765332719785,1.91284549427,0.152581800972,-0.00815180854571,-0.0765825475762,-0.000722927813669,-0.123154272834,-0.0060098367634,0.0538973314716,-0.0206313297601,0.573933904305,0.81888728764,0.00205682598668,0.0,0.818843599145,-0.5738729631,-0.0120718375617,0.0,-0.00870528509786,0.00861282148115,-0.999925015847,0.0,0.655687563156,0.253236864908,0.303325780499,1.0,-0.01552,-0.0203977142857,0.777
0.460562721728,0.514247809059,-0.123977500746,-1.40882313765,0.0764163418545,1.91358285433,0.152294010524,-0.0129033018836,-0.08369594204,1.01629718443e-05,-0.135237334795,-0.00887562311209,0.0463815961982,-0.0241677478842,0.573923022011,0.818895017767,0.00201533691661,0.0,0.8188506009,-0.573862078735,-0.0121142435528,0.0,-0.00876393699003,0.00860306875012,-0.999924587465,0.0,0.655403233651,0.252899882039,0.303310285413,1.0,-0.01586,-0.0208445714286,0.794
0.460366445035,0.512841899053,-0.123980727885,-1.41111286633,0.0762723978748,1.91437216761,0.151977929681,-0.0100097706889,-0.0841444954299,0.000621368804426,-0.139959539713,-0.00515691676306,0.0484835478287,-0.0147905995328,0.573908126145,0.818905657132,0.00193245014217,0.0,0.818860063737,-0.573847461832,-0.0121669004593,0.0,-0.00885478248867,0.00856525419785,-0.999924111744,0.0,0.655111233679,0.252546519073,0.303274165954,1.0,-0.0162,-0.0212914285714,0.811
0.460163799093,0.511415861332,-0.123983249008,-1.41339995241,0.0761330648844,1.9152466803,0.151646222275,-0.0105596179677,-0.0841335503542,0.000952953736763,-0.129795530168,-0.00788108066736,0.0527077488979,-0.0190726400547,0.57388649403,0.818920796656,0.00194104976604,0.0,0.818875319223,-0.573825797294,-0.0121619418089,0.0,-0.00884601295863,0.00856921687609,-0.999924155412,0.0,0.654837734128,0.252196463535,0.303260307244,1.0,-0.01654,-0.0217382857143,0.828
0.459971513303,0.509950797217,-0.123992413857,-1.41574165607,0.075992974872,1.91612338402,0.151311378349,-0.0172427089317,-0.089715004891,-0.00120556698061,-0.141051884517,-0.0104694260526,0.0523875106191,-0.0255141932019,0.573860710469,0.818938869504,0.0019390450668,0.0,0.818893347289,-0.573800008021,-0.0121648453636,0.0,-0.00884981102114,0.00856896288747,-0.999924123981,0.0,0.654550675257,0.251843456697,0.303247706283,1.0,-0.01688,-0.0221851428571,0.845
0.459749673045,0.508356584795,-0.123999146029,-1.41825697168,0.0758263262335,1.91701942011,0.150963958235,-0.0110354105287,-0.0847183346185,-0.00124161368461,-0.144999978415,-0.0115879721769,0.0550565782174,-0.0229786283272,0.573847984506,0.818947855528,0.00190984419229,0.0,0.818901997085,-0.573787459135,-0.0121744736875,0.0,-0.0088745853354,0.00855043703361,-0.999924062998,0.0,0.654236700872,0.251450823689,0.303243866974,1.0,-0.01724,-0.0226582857143,0.863
0.459550561693,0.506903705074,-0.124009520101,-1.42051715525,0.0756869331487,1.91784297668,0.150654874733,-0.0126617734934,-0.0896458915495,-0.00370287989363,-0.141801672435,-0.00782709700256,0.0557513313002,-0.0183538638071,0.573844623167,0.818950184604,0.00192106746377,0.0,0.818904473619,-0.573784048312,-0.0121686437743,0.0,-0.00886340584696,0.00855624627559,-0.999924112464,0.0,0.65395822396,0.25109885941,0.303255886767,1.0,-0.01756,-0.0230788571429,0.879
0.459321121687,0.505205488584,-0.124010523741,-1.42311764342,0.0755279376298,1.91885121836,0.15029780755,-0.0132833630676,-0.0959647088305,5.04833410028e-05,-0.143976301529,-0.00549274142323,0.057560802556,-0.020392655063,0.573832355922,0.818958567841,0.00200956657428,0.0,0.818914052198,-0.573771426575,-0.0121190783084,0.0,-0.00877216002614,0.00860014714331,-0.999924540492,0.0,0.653647119584,0.25070475641,0.303292575972,1.0,-0.01792,-0.023552,0.897
0.459112821015,0.503620915226,-0.12401373567,-1.42546265649,0.075375621317,1.91973500861,0.149968352917,-0.0130501451649,-0.100996816405,0.000267988261317,-0.142373999579,-0.0108436322452,0.0537596431222,-0.0234750091542,0.573814727441,0.818970666344,0.00211024651862,0.0,0.818927564957,-0.573753462779,-0.0120562931396,0.0,-0.00866315597144,0.00864638407452,-0.99992509208,0.0,0.653363251218,0.250344782769,0.303360000829,1.0,-0.01824,-0.0239725714286,0.913
0.458896077292,0.502019192347,-0.124022990734,-1.42783023823,0.0752178246432,1.92060872549,0.149638171209,-0.0147023195707,-0.105462561349,-0.00158193731517,-0.149581112935,-0.013439234536,0.0618386890434,-0.0249629256575,0.573806812624,0.818975989027,0.00219501348157,0.0,0.818934127382,-0.573745326898,-0.011997573621,0.0,-0.00856651092654,0.00868202808475,-0.999925615873,0.0,0.653075185824,0.249971861506,0.303427374627,1.0,-0.01856,-0.0243931428571,0.929
0.458664219324,0.500313612391,-0.124026050669,-1.43040592605,0.075051506883,1.92151596197,0.149273650254,-0.0157904111024,-0.101826723771,-0.000235638548831,-0.146144828384,-0.0153047622179,0.0503729256219,-0.0176192363273,0.573786418714,0.81899019724,0.00222473054638,0.0,0.818948705939,-0.573724795316,-0.0119842889639,0.0,-0.00853879650326,0.00869852992111,-0.999925709506,0.0,0.652748191055,0.249570439604,0.303470327265,1.0,-0.0189,-0.02484,0.946
0.458430695563,0.498719071995,-0.124021560488,-1.43286949307,0.0748945804218,1.92243250148,0.148926737029,-0.0162424440935,-0.097769314866,-0.000503691413585,-0.156086979492,-0.0147249929205,0.0637746611719,-0.024093919496,0.573775263232,0.818997914452,0.0022606033319,0.0,0.818956902859,-0.573713506614,-0.0119645513516,0.0,-0.00850216763276,0.00871646812352,-0.999925865417,0.0,0.652427555979,0.249157574607,0.303486909774,1.0,-0.01924,-0.0252868571429,0.963
0.4581568333,0.496959595917,-0.124021214911,-1.43568449992,0.0747274523422,1.92344574223,0.148510519785,-0.0136933297708,-0.0943602224208,-0.00198679529079,-0.157538138222,-0.0100571219265,0.0573969442351,-0.0284596300987,0.573753898776,0.81901296371,0.00223065365509,0.0,0.818971378773,-0.573692080971,-0.0120009950862,0.0,-0.00854942681866,0.00871262696443,-0.999925495941,0.0,0.652089445754,0.248739097805,0.303463826059,1.0,-0.01958,-0.0257337142857,0.98
0.457896964767,0.495269028678,-0.124019399886,-1.43840358212,0.0745647740146,1.92438618129,0.148117008897,-0.0142709185337,-0.0965983371266,0.000394342988192,-0.160644865543,-0.0125100259701,0.0530496941866,-0.0200579679425,0.57373620045,0.819025550231,0.00216038477848,0.0,0.818982823071,-0.573674451515,-0.0120625906944,0.0,-0.00864037878189,0.00869023029124,-0.999924909057,0.0,0.651736042164,0.248308294981,0.303429055858,1.0,-0.01992,-0.0261805714286,0.997
0.457589635314,0.49337183936,-0.124049543223,-1.44144596226,0.0743785463558,1.92549391284,0.147686675288,-0.0150540856033,-0.119051212488,-0.00412032582163,-0.178336001362,-0.0122503122911,0.0664626720544,-0.0314755951604,0.573759834837,0.819009094926,0.00212161650242,0.0,0.818965886002,-0.573698272921,-0.0120795741968,0.0,-0.0086762804521,0.00866847292972,-0.999924787039,0.0,0.651361894912,0.247799854151,0.303399089028,1.0,-0.024588,-0.0323156571429,1.015
0.457300646101,0.491240000629,-0.124089768743,-1.44477890877,0.0741822988627,1.9267466388,0.147210661003,-0.0198709545088,-0.136970799627,-0.000399354089858,-0.223959691913,-0.014496330777,0.0742484233441,-0.0311737521402,0.573749810576,0.819016015991,0.00216039726366,0.0,0.818973378124,-0.573688149506,-0.012052383228,0.0,-0.00863186677641,0.00868452764325,-0.999925032118,0.0,0.650948811553,0.2472743809,0.303406016446,1.0,-0.0298542857143,-0.0392370612245,1.031
0.456888884994,0.488572625849,-0.124096184694,-1.44909581746,0.0739442399464,1.92828370934,0.146573590594,-0.0288182650271,-0.171016378255,6.08965154685e-05,-0.268894194391,-0.0138977771015,0.0976178703384,-0.0374626632528,0.573720866545,0.819036500747,0.00207957594495,0.0,0.818992355624,-0.573659107297,-0.0121448320322,0.0,-0.00875426159631,0.00867106730432,-0.999924084866,0.0,0.650389455302,0.246592175916,0.303339649429,1.0,-0.0354497142857,-0.0465910530612,1.048
0.456453352474,0.485728919133,-0.124144027347,-1.45347233866,0.0736796782402,1.92995580019,0.145930650913,-0.029402147776,-0.193748978109,-0.0029931705538,-0.297230176326,-0.0250023193004,0.111861886793,-0.0529477471986,0.573731073275,0.819029065183,0.00218925682217,0.0,0.818986528055,-0.573669013919,-0.0120696410533,0.0,-0.00862964417396,0.00871786780532,-0.999924761181,0.0,0.649860487285,0.245870518437,0.303378317987,1.0,-0.0403868571429,-0.0530798693878,1.063
0.455882166525,0.482111537453,-0.124218290194,-1.45912489387,0.0733312682934,1.93194206291,0.14506157421,-0.0357241472292,-0.218542551554,-0.00603247247906,-0.35174551049,-0.0205329896402,0.121426741032,-0.0529629488041,0.573723729916,0.819034345329,0.00213771009598,0.0,0.818991151742,-0.573661908612,-0.012093588235,0.0,-0.00867890836486,0.00868931150001,-0.999924583364,0.0,0.649141310776,0.244912929391,0.303372489049,1.0,-0.0459822857143,-0.0604338612245,1.08
0.455138612927,0.477461950259,-0.12430376648,-1.46634644472,0.0728989990589,1.93450710065,0.143995298989,-0.0427761777105,-0.258521959608,-0.00244219136728,-0.399222671419,-0.0298720456548,0.138799389663,-0.0549757800815,0.573755712875,0.819011965657,0.00212813435042,0.0,0.818968550997,-0.573693832769,-0.012109732548,0.0,-0.00869728575529,0.00869107066614,-0.999924408399,0.0,0.648221116338,0.243691275877,0.303382117256,1.0,-0.052236,-0.0686530285714,1.099
0.454425632071,0.473118442088,-0.124356059379,-1.47305434661,0.0724955444072,1.93694122397,0.143039870248,-0.050272552844,-0.282212812689,-0.0022116518807,-0.446038921686,-0.0264737438054,0.153681182442,-0.0671007434909,0.573809217315,0.818974324401,0.00218746360084,0.0,0.818931573435,-0.573746963254,-0.0120932662579,0.0,-0.00864919048885,0.00873077874922,-0.999924479651,0.0,0.647368575159,0.242562427187,0.303407137942,1.0,-0.0575022857143,-0.0755744326531,1.115
0.453579684883,0.468042814472,-0.124396796498,-1.48072907227,0.0720227355305,1.93978533235,0.141823382145,-0.0476308097589,-0.305023146791,-0.00278743180988,-0.468962476264,-0.0344600631781,0.179959261807,-0.066407844516,0.573773196282,0.81899897821,0.0023957923013,0.0,0.818958952227,-0.573710086011,-0.0119882725174,0.0,-0.00844405530927,0.00884077520536,-0.999925266519,0.0,0.646401693881,0.24126737147,0.303507738172,1.0,-0.0630977142857,-0.0829284244898,1.132
0.452769539233,0.463194075334,-0.124424410353,-1.4881580342,0.0715380175452,1.94241640115,0.140658707517,-0.0542243117254,-0.335432631999,-0.00167791461162,-0.507661256465,-0.0371684357001,0.178115517095,-0.0794958447724,0.573720184557,0.819036008453,0.00243178741287,0.0,0.818996390723,-0.573656871848,-0.0119771559899,0.0,-0.00841487248672,0.00886333190577,-0.999925312845,0.0,0.64542628223,0.24001491296,0.303544208988,1.0,-0.0680348571429,-0.0894172408163,1.147
0.451743711926,0.457299321644,-0.124475301372,-1.49727187551,0.0709363567735,1.94550788157,0.139298560995,-0.0621453330056,-0.348678593849,-0.00604578413136,-0.55258233238,-0.0411562121606,0.186598781658,-0.0833020150041,0.573745604892,0.819018634205,0.00228135773768,0.0,0.81897680849,-0.5736826539,-0.0120808389919,0.0,-0.00858582219347,0.00879987677896,-0.999924420057,0.0,0.644123092379,0.238341854187,0.30351402097,1.0,-0.0739594285714,-0.0972038204082,1.165
0.450439062138,0.44976270155,-0.124557349668,-1.5085617833,0.0701599165265,1.94969975196,0.137485567002,-0.071307572939,-0.399806131899,-0.00188688559146,-0.577107423768,-0.038014446322,0.229406556374,-0.0841315400552,0.573688622851,0.819057465315,0.00264185987261,0.0,0.819021106484,-0.573625065651,-0.0118092375851,0.0,-0.00815716421158,0.00893873634153,-0.999926777152,0.0,0.642751321083,0.236479448069,0.303700194755,1.0,-0.0802131428571,-0.105422987755,1.184
0.449357801847,0.443819677979,-0.124584402525,-1.51762873896,0.0695790803773,1.95288701244,0.13612421297,-0.0748831696883,-0.398076409063,-0.00383062413111,-0.612823319673,-0.0380914479909,0.205088551102,-0.0982430180028,0.573723638441,0.819032774119,0.00269230663324,0.0,0.818996717811,-0.573659500832,-0.0118279423713,0.0,-0.00814316195424,0.00899113353565,-0.999926421509,0.0,0.641438550466,0.234795321881,0.303734356683,1.0,-0.0854794285714,-0.112344391837,1.2
0.447973214482,0.43630030055,-0.124617764845,-1.52932335764,0.0687684043603,1.95682493661,0.134252494936,-0.0802610669065,-0.431146637658,-0.00129213775053,-0.660748967092,-0.0440774041167,0.228346543502,-0.107060892585,0.573645026349,0.819088511001,0.00247826393973,0.0,0.819049429385,-0.573581463799,-0.0119617520371,0.0,-0.00837640867866,0.00889179142276,-0.999925383128,0.0,0.639895672167,0.232860081165,0.30364910052,1.0,-0.0910748571428,-0.119698383673,1.217
0.446546835256,0.428699993721,-0.124645504827,-1.5407381384,0.0679899924408,1.96094818429,0.132389923166,-0.0886271817532,-0.446824919232,-0.00297015675128,-0.700934277687,-0.0466748447638,0.242984978276,-0.113085746906,0.573587924888,0.819127722263,0.00272285601992,0.0,0.819091983557,-0.573523603733,-0.0118213930561,0.0,-0.00812176494013,0.00901105134127,-0.999926416237,0.0,0.638355394465,0.230848179006,0.303754471509,1.0,-0.0966702857143,-0.12705237551,1.234
0.44498328651,0.420801459861,-0.124723596478,-1.55287721759,0.067103462589,1.96499194636,0.13036562155,-0.0961469702992,-0.4722245198,-0.000146138746465,-0.729011960309,-0.0464010005205,0.238643266921,-0.120682365572,0.573534510924,0.819165795837,0.00251209295195,0.0,0.819127406622,-0.573471097445,-0.0119138162421,0.0,-0.00831893822674,0.0088908801336,-0.999925871011,0.0,0.63664216277,0.228622936578,0.303698887864,1.0,-0.102265714286,-0.134406367347,1.251
0.443300077858,0.412437469135,-0.124833558932,-1.56538759698,0.0662192715825,1.96947812985,0.128338953754,-0.104785912735,-0.489549591137,0.00108458827026,-0.739071306399,-0.0537136110035,0.270883810973,-0.124662749232,0.573608234451,0.819113392172,0.00275518354542,0.0,0.819078749538,-0.573544547175,-0.0117218326858,0.0,-0.00802144407248,0.00898062494943,-0.999927499777,0.0,0.63493988804,0.22630011926,0.303804516394,1.0,-0.107861142857,-0.141760359184,1.268
0.441787206577,0.405334649917,-0.124875744296,-1.57625247386,0.0654932737259,1.97306609291,0.126531075191,-0.113899243571,-0.507547140006,-0.00502611996229,-0.785072479434,-0.051004099972,0.249534275782,-0.127408333058,0.573638133975,0.819093017825,0.00258191824247,0.0,0.819055332915,-0.573574215597,-0.0119049454633,0.0,-0.00827049520858,0.00894403680672,-0.999925798804,0.0,0.633249751163,0.22412677582,0.303725660536,1.0,-0.112798285714,-0.14824917551,1.283
0.439722684233,0.395738559316,-0.125019368376,-1.59046974376,0.0644949850887,1.97798521897,0.124099423987,-0.118155788148,-0.536693518584,-0.0113289695642,-0.807181058848,-0.0659143321423,0.28087751788,-0.132242792328,0.573728737229,0.81902870129,0.00284067652328,0.0,0.818994749927,-0.573664260251,-0.0117329878767,0.0,-0.0079802128704,0.00905822587615,-0.999927129718,0.0,0.631376584561,0.221532871037,0.30387451809,1.0,-0.118393714286,-0.155603167347,1.3
0.437778622502,0.387025396232,-0.1250835961,-1.60378358169,0.0634746910154,1.98241526546,0.121822533746,-0.123982985796,-0.557568173406,-0.00299030967802,-0.860472178623,-0.0572918675511,0.272565386358,-0.145820209529,0.573727492598,0.819030240802,0.00264117235123,0.0,0.818993861642,-0.573663920435,-0.0118113456042,0.0,-0.0081588610322,0.00893976975917,-0.999926754069,0.0,0.629424648424,0.218984040261,0.303775203219,1.0,-0.12366,-0.162524571429,1.316
0.435725944457,0.377846016505,-0.125146280754,-1.61729482233,0.062465502589,1.98695143087,0.119381288023,-0.131076150931,-0.58349920668,-0.00758580719388,-0.846321795879,-0.0650677431506,0.288372015457,-0.145610362629,0.573676292458,0.819065634308,0.00278299622704,0.0,0.819031229537,-0.573612359713,-0.011724023569,0.0,-0.00800653791902,0.0090053285759,-0.999927397068,0.0,0.627443230511,0.216369064019,0.303881297144,1.0,-0.128926285714,-0.16944597551,1.332
0.433373380291,0.367930313733,-0.125226275684,-1.63221226418,0.0613351652762,1.99187251509,0.116747880442,-0.141125056685,-0.585308900329,-0.00949177497074,-0.87323953331,-0.0627453371983,0.282068869688,-0.150081472779,0.573726878724,0.819030564643,0.0026738943241,0.0,0.818994702313,-0.573663286683,-0.0117838022864,0.0,-0.00811753552175,0.00895076172114,-0.999926992076,0.0,0.625214523095,0.213423286756,0.303822551529,1.0,-0.134521714286,-0.176799967347,1.349
0.430890408375,0.357588527355,-0.12536913289,-1.64745029839,0.0601163891029,1.99691063373,0.113956854479,-0.148456291444,-0.607078060776,-0.00644128459173,-0.917145603395,-0.0659975072308,0.28604795406,-0.175964663578,0.573767133177,0.819002231062,0.00271464602845,0.0,0.818967615027,-0.573704185367,-0.0116747647069,0.0,-0.00800440866345,0.00892197523564,-0.99992816132,0.0,0.622935242955,0.210335857013,0.303878730826,1.0,-0.140117142857,-0.184153959184,1.366
0.428040264145,0.346318427544,-0.125474656268,-1.6641462705,0.0589071723683,2.00226343759,0.110793547778,-0.158436588673,-0.64284561226,-0.00734425522927,-0.922827472569,-0.0670704796316,0.311950529203,-0.173377112527,0.573813166662,0.818970149985,0.00266272394153,0.0,0.818934014497,-0.573749463561,-0.0118059249866,0.0,-0.00814112046572,0.00895516282351,-0.999926760926,0.0,0.620363666379,0.206928206676,0.303853680911,1.0,-0.146041714286,-0.191940538775,1.384
0.42541972999,0.336020052108,-0.125560390434,-1.67925125908,0.0577128563827,2.00718308152,0.107948604506,-0.165195834631,-0.639615643779,-0.0022220183048,-0.971441897745,-0.0827149699065,0.306723186317,-0.180113403397,0.573841636305,0.818950032057,0.00271446820168,0.0,0.818914692977,-0.573777877488,-0.0117651958119,0.0,-0.00807776120601,0.00897444989612,-0.999927101854,0.0,0.618021368525,0.203832546917,0.303875543195,1.0,-0.151308,-0.198861942857,1.4
0.42235136477,0.324009360284,-0.125569482402,-1.69667885389,0.0562593400229,2.01274530239,0.104532503593,-0.170674058538,-0.682989014741,0.000281329195132,-0.976691106587,-0.0743241620997,0.319860410669,-0.188852950235,0.573680796281,0.819062503458,0.0027760239846,0.0,0.81902818777,-0.573617089456,-0.0117050938928,0.0,-0.00799498263689,0.00898880254057,-0.999927638223,0.0,0.615240946521,0.200290806469,0.303937686564,1.0,-0.157232571429,-0.206648522449,1.418
0.419623956148,0.313845327941,-0.125605173876,-1.71155557455,0.0550755102123,2.01734928081,0.101616550462,-0.185134667027,-0.672093828577,-0.002163169611,-0.98322338357,-0.0794713286863,0.301893062231,-0.203226708852,0.573652864524,0.819082408955,0.00267306281389,0.0,0.81904615568,-0.57358886643,-0.0118302187168,0.0,-0.00815684202018,0.00897597349174,-0.999926446209,0.0,0.612815675959,0.197201910939,0.303892602856,1.0,-0.162169714286,-0.213137338775,1.433
0.416563418905,0.302657669133,-0.125690723376,-1.72756276541,0.0536933664226,2.02241832007,0.0982634097624,-0.200371103158,-0.700327900351,-0.0058622644683,-1.01010235995,-0.0934148537819,0.306903552794,-0.206257287403,0.573527791454,0.81916959878,0.00279065683644,0.0,0.819135428084,-0.573464002579,-0.0117019273968,0.0,-0.00798567568032,0.00899747968734,-0.999927634553,0.0,0.610055830403,0.193573215689,0.303974682882,1.0,-0.167765142857,-0.220491330612,1.45
0.41288145417,0.289763069696,-0.125787115922,-1.7459979823,0.0522387839032,2.02804776907,0.0945139679247,-0.208475601331,-0.727218781748,-0.00824014229143,-1.02677248394,-0.0799089126142,0.321273006617,-0.215876404681,0.573620926315,0.819104035814,0.00289107402668,0.0,0.819070424205,-0.573555927309,-0.0117467162487,0.0,-0.00796374336935,0.00910633081028,-0.999926824088,0.0,0.607168813897,0.18979587528,0.304038531642,1.0,-0.173360571429,-0.227845322449,1.467
0.409475350766,0.278154652194,-0.125896635696,-1.76277396561,0.0508000921447,2.0330174359,0.0909052869671,-0.214671783739,-0.741639546151,-0.00582942283665,-1.05863593546,-0.0882085704956,0.300546996363,-0.229025554896,0.573540881125,0.819160788563,0.00268459685065,0.0,0.819124110941,-0.573476222378,-0.0118937018394,0.0,-0.00820345965918,0.00902071591804,-0.999925662204,0.0,0.60431318089,0.186117912252,0.303956958971,1.0,-0.178626857143,-0.234766726531,1.483
0.405584370261,0.265413136786,-0.126040617933,-1.78067858151,0.0491951155692,2.03848473125,0.0870102244303,-0.236045493778,-0.738279352841,-0.0097421227716,-1.05946992372,-0.0924088573488,0.3113987076,-0.224204130489,0.573598033829,0.819120193453,0.00285502461414,0.0,0.819086466985,-0.573533567426,-0.0117197926299,0.0,-0.00796261965928,0.00906113648869,-0.9999272436,0.0,0.601302850776,0.182055509829,0.304064784456,1.0,-0.184222285714,-0.242120718367,1.5
0.401429092716,0.252474370679,-0.126236385058,-1.79890105885,0.0475918896807,2.04383927039,0.0829728551731,-0.245537457316,-0.772224501299,-0.0028626351221,-1.06578116573,-0.0969557256297,0.318674531801,-0.23849001226,0.57377661024,0.81899508639,0.00286302494919,0.0,0.818961482197,-0.573712113498,-0.0117153064051,0.0,-0.0079523793947,0.00906685051798,-0.999927273297,0.0,0.598173256924,0.177802204222,0.304094098374,1.0,-0.189817714286,-0.249474710204,1.517
0.397157615739,0.239366544095,-0.126350863928,-1.81750380941,0.0459193887566,2.04914809829,0.0786767697221,-0.24948824958,-0.781758432732,-0.00522748776945,-1.10354712526,-0.102720241686,0.302867541847,-0.250490718306,0.573728365743,0.819029540578,0.00266850221564,0.0,0.818992898637,-0.573664012884,-0.0118734664018,0.0,-0.00819405380368,0.0089978020746,-0.999925945778,0.0,0.594867055935,0.173516121059,0.30399964576,1.0,-0.195413142857,-0.256828702041,1.534
0.392972354728,0.226686317313,-0.126430703618,-1.83503571803,0.0443273522246,2.05430135529,0.0745631722174,-0.268430519716,-0.770651824994,-0.000944889367876,-1.10921828993,-0.111663783775,0.303531327894,-0.262975398595,0.573704440573,0.819045625608,0.00286791592512,0.0,0.819011592377,-0.573639374938,-0.0117739532017,0.0,-0.0079984093615,0.00910380089995,-0.999926570432,0.0,0.591545421642,0.169183786596,0.304073241282,1.0,-0.201008571429,-0.264182693878,1.551
0.387974267218,0.212096002007,-0.126562101187,-1.85506922378,0.0424268664793,2.05994017289,0.069684312258,-0.282095315138,-0.811053488444,-0.0100074973132,-1.11497385313,-0.0937324614564,0.314388129903,-0.268543387016,0.573672129832,0.819067870586,0.00297619367417,0.0,0.81903555673,-0.573607051531,-0.0116813590047,0.0,-0.00786081151229,0.00913905449753,-0.999927340023,0.0,0.588114107285,0.164662763923,0.304158037425,1.0,-0.206604,-0.271536685714,1.568
0.383271636742,0.199032723504,-0.126707421497,-1.87309843992,0.0406969484147,2.06479738373,0.0651599591022,-0.298765519763,-0.828281692606,-0.0124095554267,-1.11148809044,-0.104758730239,0.308243317665,-0.284506015452,0.57367619523,0.819065428831,0.00286238036735,0.0,0.819031363794,-0.573611198731,-0.0117713514051,0.0,-0.00799976757315,0.00909749853783,-0.999926616927,0.0,0.584559986048,0.159980674538,0.304129578308,1.0,-0.212199428571,-0.278890677551,1.585
0.377983012682,0.184884543716,-0.126911119465,-1.89247933051,0.0388620086559,2.07004252353,0.0601730562061,-0.315635493601,-0.81857779412,-0.0168560670096,-1.15636222424,-0.101820445951,0.289584990757,-0.290855447521,0.573800158957,0.818978731236,0.00282174860636,0.0,0.818943661752,-0.573734754684,-0.0118514575328,0.0,-0.00808731211484,0.00911139677504,-0.999925786162,0.0,0.581138711942,0.155407977372,0.304087747943,1.0,-0.217465714286,-0.285812081633,1.601
0.372430415086,0.170425701823,-0.127070512637,-1.91190176122,0.0369202653964,2.07521403643,0.0550305440364,-0.328286465074,-0.848778737028,-0.00791703784116,-1.14363331632,-0.122589416497,0.297766814175,-0.305207658457,0.573893029416,0.818913265275,0.00293285629551,0.0,0.81887986579,-0.573827467442,-0.011770722741,0.0,-0.00795640067941,0.00915696900191,-0.999926420096,0.0,0.577453211268,0.150470410467,0.304158622922,1.0,-0.223061142857,-0.293166073469,1.618
0.366763942284,0.155689653241,-0.127194055296,-1.93150650403,0.0349488381404,2.08027236175,0.0495718541976,-0.334600546832,-0.88431728262,-0.00867627651627,-1.15138642876,-0.118252229541,0.303192201109,-0.320481827433,0.57374619943,0.819015704711,0.00305302754164,0.0,0.818983734623,-0.573680084534,-0.0117281683622,0.0,-0.00785424419651,0.00922954961948,-0.999926560434,0.0,0.573627878098,0.145523624263,0.304238286666,1.0,-0.228656571429,-0.300520065306,1.635
0.361137186725,0.141753805109,-0.127327059299,-1.95019785483,0.0329876093504,2.08487896496,0.0443596109812,-0.361657250787,-0.896225441928,-0.0119151209055,-1.14405317674,-0.110318423332,0.288879846582,-0.340935527429,0.573728021112,0.819029080831,0.00287566424293,0.0,0.818994478693,-0.57366216275,-0.0118538517091,0.0,-0.00805914466418,0.00915621630669,-0.999925604178,0.0,0.569895954549,0.140705562724,0.304171110006,1.0,-0.233922857143,-0.307441469388,1.651
0.354836623786,0.126630462498,-0.127495906628,-1.97010195986,0.030899852925,2.08980578112,0.0384737932078,-0.3815803006,-0.866516867407,-0.0117293192397,-1.19345316929,-0.139253879373,0.285462177861,-0.352531829174,0.573671983244,0.819068063678,0.00295120413684,0.0,0.819034388971,-0.57360579383,-0.0118241223555,0.0,-0.00799208708321,0.00920048253655,-0.999925736075,0.0,0.565899503268,0.135453441292,0.304203799053,1.0,-0.239518285714,-0.314795461224,1.668
0.346917015179,0.108487678485,-0.127769958857,-1.99361016541,0.0283131427027,2.0954560906,0.0313411441632,-0.398027874992,-0.897194776592,-0.0110569197212,-1.18175269702,-0.131276501244,0.279995541437,-0.370609970631,0.573809340421,0.818971331409,0.00308967266094,0.0,0.818940114523,-0.573743420105,-0.0116757703341,0.0,-0.00778959179005,0.00923010066515,-0.999927061091,0.0,0.561118832389,0.129010628485,0.30430281781,1.0,-0.246101142857,-0.323447216326,1.688
0.34126086574,0.0956180301965,-0.12785180368,-2.01011322847,0.0265108285767,2.0993174195,0.0261018406941,-0.396372937496,-0.923865416637,-0.00916664962785,-1.18823559494,-0.129580008624,0.277577207267,-0.380479973887,0.573677304263,0.81906322102,0.00324614336718,0.0,0.819034069758,-0.573610934201,-0.01159463854,0.0,-0.00763486565455,0.00931046224981,-0.999927509432,0.0,0.557669722848,0.124558032505,0.304379979958,1.0,-0.250709142857,-0.329503444898,1.702
0.334059376702,0.0798925868938,-0.128021015239,-2.03032170328,0.0243441532033,2.10372416639,0.0194858358117,-0.438186516713,-0.943309516191,-0.00796692767296,-1.1726367725,-0.129663581746,0.25896950941,-0.39629113918,0.573612474193,0.819108763291,0.00321095801798,0.0,0.819077955217,-0.573544775958,-0.0117660591974,0.0,-0.00779620410208,0.00937936383722,-0.999925620602,0.0,0.553339093735,0.118980629835,0.304361190506,1.0,-0.256304571429,-0.336857436735,1.719
0.326479489109,0.0639660111651,-0.128223743182,-2.05067380225,0.0219806991273,2.10810520059,0.012638062182,-0.452554240516,-0.931973580988,-0.0143367576549,-1.19892017329,-0.136658001587,0.242281693653,-0.412135053031,0.573572876835,0.819136860712,0.00311533035663,0.0,0.819104693977,-0.573505381443,-0.0118247478671,0.0,-0.00789958021351,0.00933431608492,-0.999925230793,0.0,0.548923388954,0.113227416448,0.304312510481,1.0,-0.25998,-0.341688,1.736
0.318980472232,0.0489247481376,-0.12846213411,-2.06945472784,0.0197658393129,2.11205622706,0.00601322887674,-0.477876047357,-0.926343936425,-0.0127296735898,-1.17651989978,-0.142562302579,0.240805005971,-0.415923968241,0.573688400262,0.819055501393,0.00323294673909,0.0,0.819025207208,-0.573620891873,-0.0117272872534,0.0,-0.00775096257954,0.00937585405096,-0.999926005232,0.0,0.544817498149,0.107692632044,0.304382030171,1.0,-0.25998,-0.341688,1.752
0.309942277227,0.0311873487202,-0.128636361374,-2.09150183813,0.0172019898652,2.11639604882,-0.00198561632459,-0.479454627862,-0.931094974947,-0.00844784058843,-1.15550045011,-0.142952336525,0.226398719064,-0.423095832899,0.573716876305,0.819035426625,0.00326537542427,0.0,0.819004774351,-0.573648308765,-0.0118128888075,0.0,-0.00780214755004,0.00945179370563,-0.999924892224,0.0,0.539844587722,0.101228644616,0.304393831246,1.0,-0.25998,-0.341688,1.771
0.302095783283,0.0163759460565,-0.128811790477,-2.10962007892,0.0149625897271,2.1198324115,-0.00892051193832,-0.491329970435,-0.934599190699,-0.0140406443364,-1.10465230859,-0.137452694904,0.226163424318,-0.431753339975,0.573718623459,0.819033969903,0.00332327288921,0.0,0.819004270638,-0.573650099946,-0.0117607146607,0.0,-0.00772617774523,0.0094692980281,-0.999925316497,0.0,0.535699353172,0.0957456186201,0.304447364425,1.0,-0.25998,-0.341688,1.787
0.293444686537,0.000785506982183,-0.129038088393,-2.12861241996,0.0126341130094,2.1231842055,-0.0164484995797,-0.5096735609,-0.92098581812,-0.015674280415,-1.11130009102,-0.133312299346,0.192011332982,-0.446530397167,0.573863022758,0.818932952607,0.00328590123944,0.0,0.818902097523,-0.573793792736,-0.0118652851733,0.0,-0.00783159406822,0.00950006273832,-0.999924204599,0.0,0.531261122511,0.0898378731446,0.304444125493,1.0,-0.25998,-0.341688,1.804
0.285829032313,-0.0128841546637,-0.12911999384,-2.14490251807,0.0105933554755,2.12615037672,-0.0232145467691,-0.507367204676,-0.891267262849,-0.00540921699109,-1.08411749256,-0.132361200606,0.189118710408,-0.444183888461,0.573752999596,0.819008994591,0.0035368256251,0.0,0.818981917617,-0.573683573109,-0.0116843255256,0.0,-0.00754069412085,0.00960069789447,-0.999925479489,0.0,0.527418369289,0.0848077778603,0.304547304102,1.0,-0.25998,-0.341688,1.819
0.276378017478,-0.0291664334277,-0.129319019765,-2.16419450412,0.00806028997018,2.12926030459,-0.0315202721567,-0.535688972734,-0.909173422624,-0.00925647436655,-1.05605682577,-0.136144065511,0.182392613763,-0.464822588869,0.573731364625,0.819024002878,0.00357083415151,0.0,0.818997586275,-0.573662112327,-0.0116396502755,0.0,-0.00748484480507,0.00960272186955,-0.999925879669,0.0,0.522746719243,0.0786445889448,0.304608597497,1.0,-0.25998,-0.341688,1.837
0.266595860333,-0.0451757753738,-0.129554434919,-2.18329273286,0.00561194272093,2.13211736749,-0.0400116850702,-0.538755317259,-0.900895750582,-0.00856545135049,-1.04628506881,-0.127673635322,0.148293679296,-0.476998155082,0.573856886122,0.818936696187,0.00342181088823,0.0,0.818907098107,-0.573786546134,-0.0118705959019,0.0,-0.00775802690469,0.00961435353155,-0.9999236857,0.0,0.518012386757,0.0724173895273,0.304512043178,1.0,-0.25998,-0.341688,1.855
0.257830557917,-0.059371858748,-0.129673018352,-2.19966607553,0.00339595242724,2.134606384,-0.0476951079459,-0.551008999976,-0.874244739659,-0.0125947310777,-1.02626076018,-0.143939541254,0.138419078303,-0.484352691876,0.573792782499,0.818980748409,0.00362262182573,0.0,0.818954589122,-0.573722822937,-0.011672630294,0.0,-0.00748142271434,0.00966461985819,-0.999925308929,0.0,0.513921051356,0.0670114223268,0.304611342367,1.0,-0.25998,-0.341688,1.871
0.248247987541,-0.0743365502286,-0.129871585472,-2.21688994721,0.00104731810998,2.13690583349,-0.0560978926499,-0.570874730512,-0.881541232095,-0.0159194305182,-0.987372193739,-0.138315200295,0.13053406371,-0.498828521804,0.573779729857,0.818989790735,0.00364570667344,0.0,0.818963830719,-0.573709568407,-0.011675700978,0.0,-0.00747084693547,0.00968516892552,-0.999925189176,0.0,0.50950193984,0.0611918653468,0.30463546288,1.0,-0.25998,-0.341688,1.888
0.237849063239,-0.0899663467665,-0.130049195166,-2.23495088268,-0.00136518923011,2.13904626183,-0.0651854521726,-0.573335445626,-0.861020135201,-0.0117062134484,-0.992686417059,-0.12658281287,0.108839757346,-0.504924952751,0.573789262171,0.818983801317,0.00348750604733,0.0,0.818954183892,-0.573717607748,-0.0119540013045,0.0,-0.00778943977371,0.00971537230836,-0.999922465079,0.0,0.504740045385,0.0550434390074,0.304530528838,1.0,-0.25998,-0.341688,1.906
0.228475685165,-0.103822084277,-0.130209996265,-2.25042166805,-0.00359751382479,2.14086312207,-0.0734472056422,-0.598112450752,-0.85352661712,-0.0140913797897,-0.968118928604,-0.153143443315,0.101079873382,-0.514883351708,0.573691695439,0.819051652129,0.00360230901871,0.0,0.81902427656,-0.573620593451,-0.0118066115254,0.0,-0.00760401243962,0.00972392073698,-0.999923809278,0.0,0.500625390772,0.0496189608446,0.304610971384,1.0,-0.25998,-0.341688,1.922
0.218146836299,-0.11837167801,-0.130465263597,-2.26668735275,-0.00594631714574,2.14250877387,-0.0823413182007,-0.616485659153,-0.888779716215,-0.0199738159237,-0.933717472047,-0.139856604186,0.102492177376,-0.52814708739,0.573847210439,0.81894292603,0.00355103893497,0.0,0.818914561188,-0.573775853743,-0.0118725750348,0.0,-0.00768560891374,0.00972122871944,-0.999923211616,0.0,0.496194123222,0.0437363595981,0.304597431843,1.0,-0.25998,-0.341688,1.939
0.2089505745,-0.131117316448,-0.130574196607,-2.28078747892,-0.00787614188112,2.14380012001,-0.0904615856117,-0.611698595873,-0.827567840641,-0.0114152000361,-0.925817597508,-0.126739054871,0.0826043082179,-0.533360293269,0.573776717921,0.818992155446,0.00358806230833,0.0,0.818963219148,-0.573703905176,-0.0119925714207,0.0,-0.00776348603001,0.00981973838811,-0.999921647442,0.0,0.492267986792,0.038675606967,0.304585791224,1.0,-0.25998,-0.341688,1.954
0.198278391088,-0.145515109481,-0.130780191331,-2.29635026179,-0.0101947750505,2.14520054451,-0.0998455947949,-0.629469644376,-0.858193245264,-0.00882747964379,-0.894812717044,-0.138348158413,0.0846708611781,-0.554691332038,0.573740030041,0.819017125686,0.00375135485671,0.0,0.818991083004,-0.573667629578,-0.0118238587052,0.0,-0.00753205693837,0.0098563369906,-0.99992305741,0.0,0.487892457969,0.0328723271331,0.304669824006,1.0,-0.25998,-0.341688,1.971
0.186651069683,-0.160468692479,-0.131034388184,-2.31264223618,-0.0126749679085,2.14630728517,-0.109980273116,-0.642843339937,-0.796019539799,-0.00721002391172,-0.887614192096,-0.13674125436,0.0577944971621,-0.56769974925,0.573797309222,0.818977723331,0.00358936168282,0.0,0.818948860378,-0.573724560009,-0.011985000145,0.0,-0.00775629251339,0.00981665349489,-0.999921733557,0.0,0.483165528278,0.0266675576276,0.304598295345,1.0,-0.25998,-0.341688,1.989
0.176265968438,-0.173715774168,-0.131194331163,-2.32661426154,-0.0146824196384,2.14719928669,-0.119220702932,-0.666115131056,-0.791925349827,-0.0114968619131,-0.861562721873,-0.131611760741,0.0439403144737,-0.583008932796,0.573717542229,0.819032649694,0.00380097022768,0.0,0.81900630941,-0.57364373602,-0.0119279576025,0.0,-0.00758913007295,0.0099564888111,-0.999921633647,0.0,0.479049991981,0.0212964373682,0.304676892342,1.0,-0.25998,-0.341688,2.005
0.164776412151,-0.187567939053,-0.131485938962,-2.3413276923,-0.0169979377,2.1478743352,-0.129240512656,-0.686879719188,-0.787967510819,-0.0165985691924,-0.822346771005,-0.135173702013,0.0340560027788,-0.597908376944,0.573847142616,0.818942306443,0.00370169292916,0.0,0.818914258934,-0.573773141826,-0.0120235242294,0.0,-0.0077227893696,0.00993122535197,-0.999920861512,0.0,0.474349976509,0.0150507319741,0.304640792953,1.0,-0.25998,-0.341688,2.023
0.151178091156,-0.203782826102,-0.131678098044,-2.35813550255,-0.0195762649838,2.14859055638,-0.141389785564,-0.687936146723,-0.784735956168,-0.0129560145694,-0.868525274944,-0.124073039422,0.0241162115572,-0.604934586342,0.573664980136,0.819069327507,0.0038306924265,0.0,0.819042898757,-0.573590450084,-0.0119779994304,0.0,-0.00761370993282,0.0100090529399,-0.999920922013,0.0,0.469425913491,0.00866264165938,0.304676455727,1.0,-0.25998,-0.341688,2.042
0.141301246103,-0.214985703455,-0.131923079083,-2.3696459231,-0.0213277763121,2.14882942853,-0.150031756947,-0.715160906278,-0.819644407623,-0.0217610568823,-0.80609619255,-0.122078232333,0.017748607803,-0.607688676811,0.573825463219,0.818956665475,0.00388133189427,0.0,0.818930012657,-0.5737495559,-0.0120759420065,0.0,-0.00766290828222,0.0101082168075,-0.999919548659,0.0,0.465777507499,0.00382822127359,0.304683056742,1.0,-0.25998,-0.341688,2.056
0.129231251474,-0.228450866099,-0.132104869928,-2.38336852341,-0.0236016266506,2.14911504645,-0.160717288485,-0.702600698414,-0.777510489602,-0.00898974631948,-0.829560782307,-0.12127329466,0.00344951757524,-0.640754532715,0.573752854752,0.819007523834,0.003883872866,0.0,0.818981455689,-0.573677678116,-0.0120018236016,0.0,-0.00760163901672,0.0100670942299,-0.999920431183,0.0,0.46136493626,-0.00193903971899,0.304689452247,1.0,-0.25998,-0.341688,2.073
0.118361433017,-0.240218875215,-0.13233339666,-2.39519454524,-0.025551411306,2.14917096456,-0.170424253183,-0.737940433993,-0.782450596931,-0.0204538370424,-0.750290772352,-0.128278404993,0.00903003932077,-0.648162655846,0.573708897905,0.819038184661,0.00391144898462,0.0,0.819012520583,-0.573633686454,-0.0119846483366,0.0,-0.00757229150708,0.0100794191411,-0.999920529698,0.0,0.457465175567,-0.00705806598156,0.304705107871,1.0,-0.25998,-0.341688,2.088
0.105700088411,-0.253377370532,-0.132586494621,-2.40822569459,-0.0276106754391,2.14918746115,-0.18165939408,-0.735831322555,-0.773432851526,-0.00199491286597,-0.767518198954,-0.124978776968,-0.000800732934996,-0.666815367645,0.573801239213,0.818972512316,0.00411203726326,0.0,0.818949532347,-0.573725395116,-0.0118987969426,0.0,-0.00738574962058,0.0101952917155,-0.999920750224,0.0,0.453089850543,-0.0128886637863,0.304752900475,1.0,-0.25998,-0.341688,2.105
0.0913917735242,-0.267918660069,-0.132872532999,-2.4224508872,-0.0300077915267,2.14901059681,-0.194472527855,-0.774851914554,-0.758294033889,-0.0166675910838,-0.729113044299,-0.129112118532,-0.00279788997788,-0.682480328023,0.573768120307,0.818995046495,0.00424321087315,0.0,0.818974447003,-0.573692783492,-0.0117555190105,0.0,-0.00719355087998,0.0102202200952,-0.999921896913,0.0,0.448184287296,-0.019355824439,0.304803056755,1.0,-0.25998,-0.341688,2.124
0.0782687725496,-0.280648412145,-0.133099901135,-2.43484449513,-0.0321442792733,2.14866612449,-0.206244145186,-0.768453658343,-0.746024970822,0.00320150564561,-0.740723463913,-0.127228338824,-0.0309490194098,-0.708116655624,0.573720464031,0.819028343645,0.00426008916377,0.0,0.81900823067,-0.573645461024,-0.0117111076568,0.0,-0.00714808591681,0.0102081467461,-0.999922346289,0.0,0.443782789634,-0.0251545282779,0.304801974512,1.0,-0.25998,-0.341688,2.141
0.0657281168016,-0.292495653189,-0.133346950559,-2.44624610182,-0.0339848785833,2.14813182807,-0.217590688379,-0.805667590342,-0.726918563444,-0.0158458473216,-0.700464750958,-0.124973241243,-0.0313515208283,-0.712508363114,0.573705841434,0.819038133822,0.00434623407557,0.0,0.819018217402,-0.573629236769,-0.0118069974633,0.0,-0.0071773924198,0.010333587253,-0.999920847874,0.0,0.439613206441,-0.0305847616113,0.304795350876,1.0,-0.25998,-0.341688,2.157
0.0536848999872,-0.303472047201,-0.133594892315,-2.45652008213,-0.035843362442,2.14766456139,-0.228423321592,-0.793635746211,-0.723856756485,-0.00654068670018,-0.685817307565,-0.109429122584,-0.0383475596806,-0.71595995175,0.573696850152,0.819043623915,0.00449590386137,0.0,0.81902694721,-0.573621680246,-0.0115660969038,0.0,-0.00689432273257,0.0103178984283,-0.999923001679,0.0,0.435525037024,-0.0360683382261,0.304877109538,1.0,-0.25998,-0.341688,2.173
0.039915568586,-0.315667741801,-0.133840933547,-2.46815337395,-0.0378465682571,2.14679408851,-0.240880773757,-0.82728107736,-0.714100088076,-0.0230835905266,-0.67059009153,-0.125033565306,-0.0597002023607,-0.735035993845,0.573687852931,0.819050450495,0.00439930049632,0.0,0.819031278272,-0.573611153926,-0.0117794823962,0.0,-0.00712463970044,0.010361110157,-0.999920940328,0.0,0.431298374176,-0.0414974997437,0.304804076575,1.0,-0.25998,-0.341688,2.189
0.0257987892085,-0.3276996038,-0.134104392558,-2.47914561355,-0.0397869854689,2.14600827154,-0.253681718772,-0.824899081761,-0.692481133606,-0.00476838308803,-0.646903688431,-0.108632475759,-0.0463302328042,-0.752717389607,0.573707761928,0.81903526544,0.00462436691939,0.0,0.819020144994,-0.573632051985,-0.0115333399898,0.0,-0.00679365789383,0.0104044166552,-0.999922794183,0.0,0.426962182398,-0.0473101010273,0.304905858622,1.0,-0.25998,-0.341688,2.206
0.011480657007,-0.339417259219,-0.134392535741,-2.49002672616,-0.0416953496383,2.14497089058,-0.266786956592,-0.858091453255,-0.679327170489,-0.0332801524298,-0.616817548699,-0.11573751207,-0.061792409177,-0.779195164236,0.573666960286,0.819063861581,0.00462128003686,0.0,0.819047747944,-0.573589813501,-0.0116730174972,0.0,-0.00691036067897,0.0104816752765,-0.999921187594,0.0,0.422518352587,-0.0530934851565,0.304856919845,1.0,-0.25998,-0.341688,2.223
-0.00399189264294,-0.351661758082,-0.134654878746,-2.50106389483,-0.0437289031991,2.1437177857,-0.280887376614,-0.86548104545,-0.690991462341,-0.0154848542038,-0.59689465225,-0.108098832795,-0.0637529560821,-0.796648325975,0.573658263603,0.819069733273,0.0046599932009,0.0,0.819054213906,-0.573581138125,-0.0116455816366,0.0,-0.00686579142884,0.0104975733191,-0.999921327837,0.0,0.41784898307,-0.0592254018994,0.304895655594,1.0,-0.25998,-0.341688,2.241
-0.0180136904081,-0.362252459777,-0.134977509936,-2.51055781902,-0.0455036299089,2.14264810826,-0.293743586131,-0.889275235073,-0.652204561415,-0.0243886556442,-0.593350534369,-0.102251432065,-0.0827553464295,-0.816539430121,0.573690173889,0.819046885512,0.00474664273213,0.0,0.81903279524,-0.573613253095,-0.0115699220568,0.0,-0.00675370147707,0.0105254093083,-0.99992179858,0.0,0.413717813536,-0.0647240528232,0.304913705097,1.0,-0.25998,-0.341688,2.257
-0.0339206480751,-0.373899974463,-0.135207585352,-2.52105063875,-0.0474322489036,2.14116690723,-0.308489969648,-0.888301739426,-0.630631678388,-0.00932941842268,-0.581419450787,-0.10946096222,-0.0902166975353,-0.826130253294,0.573525766532,0.819162491028,0.00466425964269,0.0,0.819146057675,-0.57344717327,-0.0117822988029,0.0,-0.00697704505963,0.010578365517,-0.999919706289,0.0,0.408990258499,-0.0707810419174,0.304845376692,1.0,-0.25998,-0.341688,2.275
-0.0475732307432,-0.383459958814,-0.135506040918,-2.52924360206,-0.0490509761742,2.14002082325,-0.320959186054,-0.915670618784,-0.631426958373,-0.0143366755193,-0.536904421807,-0.107165530873,-0.0700264689413,-0.838916007246,0.573653451197,0.819072170142,0.00482129957863,0.0,0.819059182194,-0.573576530303,-0.0115224498525,0.0,-0.00667246218775,0.0105590261081,-0.999921989565,0.0,0.40515402924,-0.0759716754805,0.304950441534,1.0,-0.25998,-0.341688,2.29
-0.0630965020085,-0.393912846488,-0.135731970742,-2.53840405662,-0.0507892191515,2.13856375025,-0.33542630633,-0.920551904091,-0.609956842069,-0.014618527432,-0.535701981538,-0.100266076214,-0.0943169385678,-0.862158187385,0.573518948798,0.819166395977,0.00481435072801,0.0,0.819152875563,-0.573441372531,-0.0115890305054,0.0,-0.00673272608847,0.0105904217343,-0.999921253583,0.0,0.400738224584,-0.0817110770155,0.304925362069,1.0,-0.25998,-0.341688,2.307
-0.0780370235886,-0.403519390036,-0.136047023339,-2.54676647935,-0.0524229871081,2.13704298671,-0.349246256603,-0.925038055311,-0.595822209322,-0.00391598741087,-0.513762909714,-0.0924742529873,-0.106682855511,-0.858740938564,0.573576169002,0.819126597442,0.00476892203218,0.0,0.819111375944,-0.573496994689,-0.0117685080931,0.0,-0.00690506848189,0.0106566192474,-0.999919374998,0.0,0.39652775183,-0.0871861028722,0.304879365207,1.0,-0.25998,-0.341688,2.323
-0.0941331818979,-0.41348204504,-0.136380415082,-2.55505940936,-0.053995405097,2.13559182607,-0.364254182271,-0.964406489402,-0.584597883183,-0.0293812395294,-0.477086760436,-0.100780811215,-0.083901161378,-0.88742376864,0.573640573964,0.819079951221,0.00502715738163,0.0,0.819069093418,-0.573562194085,-0.0115315491013,0.0,-0.0065619995964,0.0107327603231,-0.999920870878,0.0,0.392189455253,-0.0930120683617,0.304983538356,1.0,-0.25998,-0.341688,2.34
-0.110454239319,-0.423085080554,-0.136628011711,-2.56317489727,-0.0556345545889,2.13395051737,-0.379557942883,-0.958420487919,-0.557940839916,-0.0182972154197,-0.476970204422,-0.0852213138568,-0.100405960557,-0.905742995342,0.573553138092,0.819141244839,0.00501654167897,0.0,0.819130000111,-0.573474397653,-0.0115717352217,0.0,-0.00660215448874,0.0107464117374,-0.999920459932,0.0,0.387766188458,-0.098792817393,0.304979907017,1.0,-0.25998,-0.341688,2.357
-0.127053220881,-0.432312484912,-0.136970712199,-2.5710414362,-0.0572892154149,2.13223009401,-0.395052855432,-0.978133381639,-0.537083370847,-0.0225799320931,-0.452313759932,-0.0993951098485,-0.0914344552516,-0.918049185549,0.573605180343,0.819105424655,0.00491398870994,0.0,0.819091560692,-0.573524694396,-0.0117977549183,0.0,-0.0068454429752,0.0107924678077,-0.999918327939,0.0,0.383282347575,-0.104614522858,0.304903362095,1.0,-0.25998,-0.341688,2.374
-0.143790816487,-0.441221123675,-0.137227183754,-2.57834198348,-0.0587287768688,2.1306086353,-0.410871699625,-1.00275419771,-0.519673773299,-0.015973495969,-0.409063535222,-0.0897781574496,-0.0986957418112,-0.929997366368,0.573554886611,0.81913987174,0.00504078087047,0.0,0.819127785695,-0.57347419556,-0.0117373178433,0.0,-0.00672387673347,0.01086124879,-0.99991840805,0.0,0.378916062237,-0.110378320124,0.304942792418,1.0,-0.25998,-0.341688,2.391
-0.159907725781,-0.449340954627,-0.137492897582,-2.58484727117,-0.0600869207384,2.12913481603,-0.426000200539,-1.0122877494,-0.490222105763,-0.0142389462965,-0.412867817651,-0.0822935044478,-0.100104816179,-0.956996687491,0.573622064577,0.819091871216,0.00519426977782,0.0,0.819082756423,-0.573542495008,-0.0115408600671,0.0,-0.00647401486456,0.0108748381603,-0.999919909306,0.0,0.374551992424,-0.116215445427,0.305020614474,1.0,-0.25998,-0.341688,2.408
-0.177124608457,-0.457550132896,-0.13783053108,-2.59167837164,-0.0615719363401,2.12731889427,-0.442346417609,-1.01966268661,-0.469372478603,-0.0178160442145,-0.387203556004,-0.0804573544157,-0.104271382545,-0.96869878063,0.573599015621,0.819108651107,0.00509253001503,0.0,0.819096529163,-0.573516996793,-0.0118269693528,0.0,-0.00676705067965,0.0109554225643,-0.999917089434,0.0,0.370314548386,-0.121673659281,0.304940691547,1.0,-0.25998,-0.341688,2.424
-0.194496217293,-0.465346969416,-0.138083255861,-2.5980628914,-0.0628915049206,2.12574335395,-0.458995098092,-1.03074949864,-0.45671060145,-0.021148802056,-0.370958329769,-0.076442968439,-0.0964250578174,-0.989095916588,0.573467346396,0.819200492713,0.00514803438748,0.0,0.819188564168,-0.573384298514,-0.011886524101,0.0,-0.00678577496139,0.0110339567701,-0.999916099008,0.0,0.365911420975,-0.127420296003,0.304903469847,1.0,-0.25998,-0.341688,2.441
-0.212302307455,-0.472841020091,-0.138363940176,-2.60392294014,-0.0642798998723,2.12414085011,-0.475760118442,-1.04757760016,-0.433809789793,-0.0131830421882,-0.32654625245,-0.0760698221349,-0.0820049955567,-0.99377818604,0.573607626317,0.819102074966,0.00517964466476,0.0,0.81909153793,-0.573526051935,-0.0117331642932,0.0,-0.00664012590643,0.0109730468989,-0.999917747102,0.0,0.361514647921,-0.133294264517,0.304966749926,1.0,-0.25998,-0.341688,2.458
-0.229044045521,-0.479452256016,-0.138602045823,-2.60905377632,-0.0653403750881,2.12268643956,-0.491785834938,-1.05071011719,-0.390506478112,-0.0124418350219,-0.320149532544,-0.0690938374723,-0.0880723672413,-1.00543061222,0.573619093027,0.81909305481,0.00533390836061,0.0,0.819084777847,-0.573537446541,-0.0116477901712,0.0,-0.00648155264189,0.0110505307354,-0.999917934256,0.0,0.357170442408,-0.139067055819,0.305016688092,1.0,-0.254823428571,-0.334910791837,2.475
-0.246739173361,-0.485931873345,-0.138686547816,-2.61431495817,-0.0664120952307,2.12110701145,-0.508740506907,-1.04512792842,-0.369153654914,-0.00523932436234,-0.30608532517,-0.0543716295733,-0.0937679123387,-0.992102580836,0.573544317926,0.819145450082,0.00532859129633,0.0,0.819135675652,-0.573460288559,-0.0118654634002,0.0,-0.00666393315636,0.0111704234098,-0.99991540324,0.0,0.353082369649,-0.144323405582,0.3049496999,1.0,-0.249557142857,-0.327989387755,2.491
-0.265519670033,-0.492206393771,-0.138790610032,-2.61932693649,-0.0674595637738,2.11957185794,-0.526569654223,-1.03212416683,-0.332293031795,0.00141461411225,-0.265869856764,-0.044595683299,-0.0796802644387,-0.994676633512,0.573667972512,0.819058681235,0.00535545597902,0.0,0.819048238276,-0.57358211842,-0.0120118153162,0.0,-0.00676671810684,0.0112773876481,-0.999913512287,0.0,0.348566952525,-0.15023117315,0.304903143118,1.0,-0.243632571429,-0.320202808163,2.509
-0.282029206487,-0.497317479333,-0.138822730495,-2.62325371146,-0.0682574822157,2.11837070708,-0.542284112572,-1.0293865997,-0.316368150692,-0.000774385522735,-0.241644289475,-0.0547094990444,-0.084444514114,-0.980861854077,0.573777106266,0.818981538414,0.00546067433909,0.0,0.818972850866,-0.573691481726,-0.0119289664484,0.0,-0.00663698872338,0.0113169297666,-0.999913935037,0.0,0.344698224129,-0.155380665237,0.304932743738,1.0,-0.238366285714,-0.313281404082,2.525
-0.299132863227,-0.502263978028,-0.138747271714,-2.62703713627,-0.0689571661037,2.11712263446,-0.558748049163,-1.00706424199,-0.275155273493,-3.87915110061e-05,-0.21361238612,-0.0347419355664,-0.0711419939143,-0.973603573401,0.573730710647,0.819013310513,0.00556917981398,0.0,0.819006003116,-0.573644634002,-0.0119057818484,0.0,-0.00655638992064,0.0113921237145,-0.999913612903,0.0,0.340710475187,-0.16062227364,0.304956989875,1.0,-0.232770857143,-0.305927412245,2.542
-0.318136013003,-0.507207829441,-0.138717828929,-2.63075840021,-0.069704027524,2.11591437385,-0.576981235998,-0.979462861783,-0.250129978742,0.00318282876621,-0.192570815651,-0.0389473108434,-0.0584843845352,-0.962272038589,0.57380580879,0.818959820037,0.00569682936759,0.0,0.818954844289,-0.573720437504,-0.011771555048,0.0,-0.00637216585046,0.011420252548,-0.99991448301,0.0,0.336347714258,-0.16644583164,0.305003305704,1.0,-0.226517142857,-0.297708244898,2.561
-0.333904939355,-0.510961680763,-0.138664136097,-2.63363673471,-0.0702825467315,2.11491649584,-0.59202565263,-0.979170712653,-0.220176278811,0.00367201677863,-0.17597013992,-0.0400491793721,-0.0651621722513,-0.94202164933,0.573946689683,0.818860679257,0.00575606370371,0.0,0.818856301794,-0.573860770413,-0.0117864368673,0.0,-0.00634839277384,0.0114783964551,-0.999913968461,0.0,0.332714214249,-0.17121855568,0.305003473878,1.0,-0.221250857143,-0.290786840816,2.577
-0.350191825668,-0.514437704875,-0.138485515736,-2.63639096076,-0.0707491633267,2.11388976915,-0.60781319026,-0.950372059861,-0.192647563624,0.00518762731646,-0.16179770935,-0.0217977838823,-0.0554128000151,-0.936087094679,0.573869480381,0.818914488866,0.00579882007802,0.0,0.818909401274,-0.573781133972,-0.0119728737248,0.0,-0.00647763092098,0.0116197988184,-0.999911506371,0.0,0.328972000717,-0.176058740981,0.304954049976,1.0,-0.215655428571,-0.28343284898,2.594
-0.364512186419,-0.517117175441,-0.13838114543,-2.63854990381,-0.0711444434325,2.11313578347,-0.621538088627,-0.944956054697,-0.167629279829,0.0101249589491,-0.135589502432,-0.0185868266041,-0.0451240558485,-0.906849189231,0.573988938407,0.818830457364,0.00584188166331,0.0,0.818825020125,-0.573898760329,-0.01210562723,0.0,-0.00655993393587,0.0117322008742,-0.999909657284,0.0,0.325712152035,-0.180323717491,0.304899502445,1.0,-0.210718285714,-0.276944032653,2.609
-0.380242564024,-0.519813784927,-0.138205509633,-2.64066039701,-0.0714806867488,2.11239956248,-0.636761767408,-0.931155488732,-0.155620592006,0.00245101867495,-0.115810586936,-0.0201807383594,-0.04061637935,-0.898728316029,0.57401263213,0.81881318541,0.0059340084218,0.0,0.818808561647,-0.573921356428,-0.0121475475266,0.0,-0.00654104385807,0.0118318904309,-0.999908606381,0.0,0.322169902838,-0.184971373631,0.304874554149,1.0,-0.205122857143,-0.269590040816,2.626
-0.395684293682,-0.522104963734,-0.137961896618,-2.64242026582,-0.0717959572984,2.11170646706,-0.651723365961,-0.897301122776,-0.131325733896,0.0151909312669,-0.0988184487818,-0.00596183086127,-0.028796623126,-0.88189899798,0.573989986756,0.818828951109,0.00594901923229,0.0,0.818824182332,-0.573898033623,-0.0121964065781,0.0,-0.00657276691236,0.0118720446324,-0.999907922407,0.0,0.318923601049,-0.189250123931,0.304862482119,1.0,-0.199856571429,-0.262668636735,2.642
-0.410850601974,-0.524172957425,-0.137811113447,-2.64390144288,-0.0720302464977,2.11109515478,-0.666369693961,-0.892620300235,-0.115937050028,0.00415243081915,-0.0827000395137,-0.0176125607039,-0.0304356837097,-0.86764332793,0.574126984096,0.818731883363,0.0060873802346,0.0,0.818729299203,-0.574035087005,-0.0121161220907,0.0,-0.00642560932869,0.0119403390769,-0.999908065698,0.0,0.31534995018,-0.193974524228,0.304900272935,1.0,-0.193932,-0.254882057143,2.66
-0.426392147419,-0.525923836194,-0.137527119579,-2.64518163576,-0.0722423105734,2.1105722943,-0.681541628783,-0.856928406919,-0.0911762140743,0.00985371592665,-0.0650748930925,-0.0101962647939,-0.0346661233975,-0.841911693494,0.574062813764,0.818776521593,0.00613518066081,0.0,0.818774922558,-0.573971399839,-0.0120501144546,0.0,-0.00634505472772,0.0119410845833,-0.99990857121,0.0,0.311924815249,-0.198508271817,0.304922195202,1.0,-0.188007428571,-0.247095477551,2.678
-0.440035904942,-0.527218934703,-0.137347641553,-2.64613471205,-0.0724135526059,2.1101684279,-0.694683540203,-0.847806540341,-0.0786122336694,0.0132587989372,-0.0525633430765,-0.0126102980249,-0.0262199044815,-0.81855847915,0.574217712604,0.81866745721,0.00619354007585,0.0,0.818666796063,-0.574126352098,-0.012014813802,0.0,-0.00628038341066,0.0119697949646,-0.999908636223,0.0,0.308904418071,-0.202494218264,0.304932767116,1.0,-0.182741142857,-0.240174073469,2.694
-0.454699814566,-0.528339017952,-0.136967027908,-2.64699467149,-0.0724886373492,2.10979704489,-0.709059350855,-0.810837869886,-0.0585554652399,0.020251588898,-0.0482729651343,-0.00214742200666,-0.0179453493807,-0.792801678467,0.574102479713,0.818748020282,0.00622647355564,0.0,0.818747766791,-0.574010962281,-0.0120106809556,0.0,-0.0062597776975,0.0119935039505,-0.999908481335,0.0,0.305690569352,-0.206706226818,0.304929322242,1.0,-0.176816571429,-0.232387493878,2.712
-0.466833858685,-0.529032843191,-0.136758008977,-2.64754815376,-0.0725708358379,2.10952167182,-0.72075865713,-0.797283121422,-0.0412418611702,0.0260115829591,-0.0377266332897,-0.0067489383316,-0.0151353140041,-0.773154677744,0.574243658903,0.818648751381,0.00626010975077,0.0,0.818648626657,-0.57415137165,-0.0120571723689,0.0,-0.00627645934622,0.0120488170044,-0.999907711775,0.0,0.303010204159,-0.21021685014,0.304912942557,1.0,-0.171879428571,-0.225898677551,2.727
-0.47917250175,-0.529554249091,-0.136391933003,-2.64794312804,-0.0725857744121,2.10930673349,-0.732912268693,-0.76742742189,-0.0261611649289,0.0242880185033,-0.0202076867373,-0.00108324903996,-0.0108309410202,-0.747534712466,0.574107457012,0.818744257852,0.00626218324,0.0,0.818744207453,-0.574015281,-0.0120468602228,0.0,-0.00626882945475,0.0120435504169,-0.999907823087,0.0,0.30032724251,-0.213747185481,0.30491484053,1.0,-0.166613142857,-0.218977273469,2.743
-0.492107220221,-0.529878674764,-0.13613116311,-2.64821126649,-0.0725993836439,2.10911114449,-0.745458383317,-0.753068167039,-0.0111070629258,0.0203491497228,-0.0123076274747,0.000114015911525,-0.00557175775457,-0.739249748388,0.574220430368,0.818664732181,0.00630083578361,0.0,0.818664878354,-0.574127467606,-0.0120919308437,0.0,-0.00628187537901,0.0121019396932,-0.999907036228,0.0,0.297486551137,-0.217474106341,0.304901359194,1.0,-0.161017714286,-0.211623281633,2.76
-0.504406999777,-0.530030759389,-0.135714480078,-2.64834829707,-0.0725959259427,2.10897869309,-0.757623966777,-0.719116318392,-0.00570526353635,0.0205006904986,-0.00393449425853,4.37895642685e-05,-0.0128005504593,-0.70943535312,0.57403019835,0.818798481477,0.00625499917057,0.0,0.818797939123,-0.573937308188,-0.0121098331621,0.0,-0.00632565740587,0.012073222809,-0.99990710736,0.0,0.294810897312,-0.220971157061,0.30489399412,1.0,-0.155422285714,-0.204269289796,2.777
-0.517977430953,-0.530062737477,-0.135399183846,-2.64839442967,-0.0725990989984,2.1088738127,-0.770756485502,-0.699078373236,0.00320127368913,0.0173891051498,0.00110039010187,-0.000552622100446,-0.00236480014016,-0.687356011345,0.574162623596,0.81870562984,0.00625461710264,0.0,0.818704965634,-0.574069483456,-0.0121307177174,0.0,-0.00634102416424,0.0120859234822,-0.999906856595,0.0,0.291814509106,-0.224853675395,0.30488384158,1.0,-0.149168571429,-0.196050122449,2.796
-0.528069429277,-0.529952446715,-0.135029631018,-2.64833339551,-0.0725622378638,2.10887268932,-0.780746124787,-0.675091691521,0.013916541628,0.0222245442859,0.00039605897017,0.00225267676581,-3.86865859242e-05,-0.650448928437,0.574005322527,0.818816266731,0.00620950468893,0.0,0.818815219675,-0.573912809022,-0.012102502629,0.0,-0.00634613392486,0.0120315695159,-0.99990747968,0.0,0.289615964241,-0.227707640116,0.304880772623,1.0,-0.144231428571,-0.189561306123,2.811
-0.539320002118,-0.529738882083,-0.134732653233,-2.64817177413,-0.0725329057798,2.10886558819,-0.791682045201,-0.656407758672,0.0162169629945,0.0132931499413,0.0125768338411,0.00670450318863,2.13536862122e-05,-0.639353399712,0.574075426942,0.818767233144,0.00619427250632,0.0,0.818766140959,-0.573983256457,-0.0120819960225,0.0,-0.00633705575762,0.0120078688097,-0.999907822157,0.0,0.287129570741,-0.230912060683,0.304883335217,1.0,-0.138636,-0.182207314286,2.828
-0.551236744926,-0.52928331715,-0.134253991193,-2.6478458418,-0.0724440257694,2.10889574556,-0.803424876534,-0.610875457085,0.0267742178899,0.0268042649557,0.0193822453727,0.00806184240457,0.00567071019173,-0.593162138546,0.573937031535,0.818864779938,0.00612396201204,0.0,0.818862761628,-0.573845180449,-0.0120927001041,0.0,-0.00638820311649,0.0119553630241,-0.999908125858,0.0,0.284533470764,-0.234269788082,0.3048800842,1.0,-0.132382285714,-0.173988146939,2.847
-0.560313224789,-0.52881915744,-0.133925267588,-2.6475204627,-0.0723715094799,2.10894408562,-0.812360732517,-0.60007279057,0.0272521522069,0.016317028371,0.019412023466,0.00535311983926,0.000452589988527,-0.600390203093,0.573870017063,0.818912059779,0.00608183896558,0.0,0.818909362963,-0.573778123641,-0.0121188689241,0.0,-0.0064347856524,0.0119353601818,-0.99990806613,0.0,0.282543767724,-0.236835245401,0.304871059792,1.0,-0.127445142857,-0.167499330612,2.862
-0.572002287717,-0.528056966439,-0.133528988263,-2.64694880937,-0.0721707382959,2.10909180887,-0.823741929304,-0.559098102822,0.0436451780072,0.025934066799,0.0369584520174,0.00365977766934,0.0164487441547,-0.56779876206,0.5739606017,0.818848351717,0.00611158640648,0.0,0.818846267315,-0.573868977608,-0.0120803122627,0.0,-0.00638481686936,0.0119383028606,-0.999908351319,0.0,0.279998675592,-0.240154044496,0.304875285758,1.0,-0.120862285714,-0.15884757551,2.882
-0.579636922314,-0.527410068355,-0.133187906766,-2.64650641543,-0.0720143036003,2.10918856892,-0.831353610906,-0.543923790626,0.0486854689693,0.019218367581,0.0377510963676,0.00573567695436,0.00452246568675,-0.543718972514,0.573830684697,0.818939463628,0.00610304137195,0.0,0.818936928619,-0.57373849323,-0.0121324041683,0.0,-0.00643427868107,0.0119601820179,-0.999907772799,0.0,0.278347401537,-0.242299924288,0.30485692223,1.0,-0.116254285714,-0.152791346939,2.896
-0.588244746127,-0.526666735284,-0.13285739827,-2.64595473888,-0.0718370202012,2.10930301155,-0.839708068686,-0.532697797627,0.0501053633725,0.0191071202374,0.0365970340599,0.0139147591106,0.00562089805234,-0.50752692465,0.573911563478,0.818882697629,0.0061148777934,0.0,0.818880198839,-0.573819082477,-0.0121502031519,0.0,-0.00644088157588,0.0119807250969,-0.999907484356,0.0,0.27646844414,-0.244731317566,0.304854051516,1.0,-0.110988,-0.145869942857,2.912
-0.597417768599,-0.525717288121,-0.13248608263,-2.64523713081,-0.0716031375783,2.10947696544,-0.848684638978,-0.485973312206,0.0557682107475,0.02596559521,0.0434273402557,0.0190379113853,0.00895210327214,-0.502023981398,0.573950154646,0.818855463909,0.00613971583532,0.0,0.818853309457,-0.573857592432,-0.0121436444489,0.0,-0.00642069067948,0.0119976042314,-0.999907411826,0.0,0.27448661771,-0.247333666347,0.304857088203,1.0,-0.105063428571,-0.138083363265,2.93
-0.605430732407,-0.524750875908,-0.13204241036,-2.64454497064,-0.0713453568866,2.10963996296,-0.856709447761,-0.469621140078,0.0577728879826,0.0238564967119,0.0471221823739,0.0137896099577,0.0159591994963,-0.464913127361,0.573775727082,0.818977683103,0.00614137548615,0.0,0.818975197808,-0.573682537512,-0.0121950166279,0.0,-0.00646437104981,0.0120270702944,-0.999906776398,0.0,0.272779104724,-0.249576942593,0.304842928891,1.0,-0.0994680000001,-0.130729371429,2.947
-0.612811488229,-0.523891579248,-0.131680077346,-2.64390124407,-0.0711136596,2.1097835672,-0.863832719371,-0.457984987843,0.0539770089642,0.0220950699952,0.0401889983593,0.0189562803375,0.0132109939419,-0.443478268338,0.573865044226,0.818914965688,0.00615929300257,0.0,0.818912580247,-0.573771503783,-0.0122145102329,0.0,-0.00646874296329,0.0120536350501,-0.999906428245,0.0,0.271181184102,-0.25164493885,0.304841995815,1.0,-0.0942017142858,-0.123807967347,2.963
-0.619817662425,-0.522990169912,-0.131363438349,-2.64319226557,-0.0708770100022,2.10996070723,-0.870607285162,-0.426932416148,0.063528905311,0.0151640062003,0.0476985650213,0.0184177599463,0.0196381282295,-0.42194930385,0.573970747528,0.818840646834,0.00619055538601,0.0,0.8188388725,-0.573877420825,-0.012180051319,0.0,-0.00642102476673,0.0120602927509,-0.999906655533,0.0,0.269673334054,-0.253631686896,0.304856728699,1.0,-0.0889354285715,-0.116886563265,2.979
-0.626619703001,-0.522001615083,-0.130929302099,-2.64244391367,-0.0705935308415,2.11015801553,-0.877377339935,-0.390854539034,0.0595759902229,0.0241674045912,0.0383003476551,0.0156712804774,0.0105751464243,-0.386808189255,0.57385184597,0.818923925817,0.00619753994711,0.0,0.818922279021,-0.573758581545,-0.0121711925173,0.0,-0.00641151247052,0.0120599970238,-0.999906720139,0.0,0.268242921534,-0.255535214136,0.30486174474,1.0,-0.0833400000001,-0.109532571429,2.996
-0.633532684006,-0.521046318294,-0.130516718025,-2.64170682433,-0.0703193290243,2.11035025097,-0.884115096039,-0.383166250411,0.0519005087841,0.0228323776133,0.0426884080673,0.0211679146866,0.010680500973,-0.362637174275,0.573860500564,0.818917773929,0.00620905290106,0.0,0.818916425354,-0.573767461002,-0.0121464349512,0.0,-0.00638450187458,0.0120552867494,-0.999906949769,0.0,0.266762666248,-0.257463015498,0.304872543815,1.0,-0.0774154285715,-0.101745991837,3.014
-0.639626092713,-0.520140903671,-0.130120982633,-2.64096700338,-0.0700399609973,2.11054377366,-0.890003695715,-0.34709709027,0.0549493712571,0.0215514780726,0.0411178667627,0.0160474040423,0.00752838381752,-0.34240550297,0.573907084033,0.818885033147,0.00622159830845,0.0,0.818884308445,-0.573814851159,-0.0120728154904,0.0,-0.00631632401455,0.0120236750554,-0.999907763391,0.0,0.26548008236,-0.259169692192,0.304902299006,1.0,-0.0718200000001,-0.0943920000001,3.031
-0.64528397296,-0.519219547298,-0.12980590933,-2.64028127679,-0.0697622533985,2.11072750992,-0.895508716656,-0.326294772097,0.0483628395138,0.0152784381053,0.0345073042815,0.017708386441,0.00923507332518,-0.316873196801,0.57396479241,0.818844158993,0.00627751999882,0.0,0.818844071319,-0.573872124247,-0.0120796845708,0.0,-0.00628900649945,0.0120738561398,-0.999907330904,0.0,0.264268401478,-0.260757197686,0.304898507462,1.0,-0.0662245714286,-0.0870380081634,3.048
-0.650432618097,-0.518361842625,-0.129402742487,-2.63964767972,-0.0694810734075,2.11090254222,-0.900577352862,-0.294299391162,0.0500944716059,0.0259702233234,0.0322454762129,0.0238281107362,0.0136068554186,-0.29468872091,0.573898800946,0.818890280958,0.00629451560651,0.0,0.818890345861,-0.573805938853,-0.0120868893669,0.0,-0.00628612681978,0.0120914021738,-0.99990713699,0.0,0.263188799262,-0.262172013323,0.304895597326,1.0,-0.0606291428572,-0.0796840163266,3.065
-0.654920140139,-0.517599863667,-0.128979115545,-2.63908986122,-0.0692401439983,2.11105402215,-0.904919704042,-0.27846717787,0.0411282416126,0.0285486202288,0.0379458851396,0.0214113659896,0.00686197352374,-0.258951270931,0.573850149031,0.818924565691,0.00626969429811,0.0,0.818924206641,-0.573757216223,-0.0121056809286,0.0,-0.00631647876161,0.01208148384,-0.999907065604,0.0,0.26225814216,-0.263387348891,0.304891730486,1.0,-0.0553628571429,-0.072762612245,3.081
-0.65934098891,-0.516820048645,-0.128585960718,-2.63851834582,-0.0689876529479,2.11124064317,-0.909158322771,-0.246151809489,0.0470598417253,0.0191057221901,0.03388277992,0.0158665246642,0.00887754598402,-0.244944735304,0.573858881595,0.818918493641,0.00626352053308,0.0,0.81891814048,-0.573766139735,-0.0120930967205,0.0,-0.00630958603151,0.0120692739178,-0.999907256575,0.0,0.261342197477,-0.264595652633,0.30488955362,1.0,-0.0497674285715,-0.0654086204083,3.098
-0.662859111898,-0.516132695576,-0.128248262981,-2.63802698238,-0.0687546062935,2.11138424113,-0.912523312446,-0.224083536567,0.0418171608488,0.016568809099,0.0284742646875,0.0112802183252,0.00603097990739,-0.21400942601,0.573870444351,0.818910327203,0.00627184193997,0.0,0.818909930377,-0.573777371679,-0.0121161289076,0.0,-0.00632350385129,0.0120893946847,-0.999906925586,0.0,0.260623870896,-0.265554083685,0.304879831657,1.0,-0.0448302857144,-0.0589198040817,3.113
-0.666464753687,-0.51547775755,-0.127880679943,-2.63757285833,-0.0685075606169,2.11152308994,-0.915970337122,-0.204528965205,0.0365389996532,0.0232807255109,0.0287256652138,0.0168325413209,0.00767675906161,-0.193558249203,0.573869164751,0.81891113216,0.00628381033998,0.0,0.818910684504,-0.573775642553,-0.0121470045669,0.0,-0.00634194204876,0.0121169040798,-0.99990647583,0.0,0.259878401929,-0.266515657277,0.304865308824,1.0,-0.0392348571429,-0.051565812245,3.13
-0.669893632226,-0.514910643088,-0.127508744129,-2.63712942436,-0.0682560454933,2.11164052192,-0.919093832924,-0.176435158009,0.0299204588493,0.023038454423,0.0192014414011,0.00616379948244,0.00835745621367,-0.169032336916,0.573988550752,0.818827378716,0.00629399498532,0.0,0.818827177488,-0.573895173389,-0.0121297266926,0.0,-0.00632018065186,0.0121162516696,-0.999906621521,0.0,0.259137844802,-0.267468499946,0.30487465743,1.0,-0.0329811428572,-0.0433466448981,3.149
-0.672628667328,-0.514398392278,-0.127112594041,-2.63675152899,-0.0680175963833,2.11175722312,-0.921705752036,-0.15118611441,0.0249101692836,0.0206929588485,0.0185848679284,0.0122528477848,0.00861623322177,-0.144929792121,0.573926909462,0.818870673315,0.00628250604037,0.0,0.818870411229,-0.573833768107,-0.0121162327146,0.0,-0.00631663514157,0.012098623237,-0.99990685738,0.0,0.258644132261,-0.268130088237,0.304878512577,1.0,-0.0277148571429,-0.0364252408164,3.165
-0.67506042724,-0.513955856044,-0.12669404276,-2.63641557475,-0.0677584441954,2.11185872379,-0.923929757678,-0.127503295317,0.0269977822501,0.017369358072,0.0187984278073,0.0167925394878,0.00707752238441,-0.10804274889,0.5739278143,0.818870070817,0.00627837516047,0.0,0.818869884055,-0.573834938877,-0.0120963966888,0.0,-0.00630274753413,0.012083863504,-0.999907123495,0.0,0.258190353123,-0.268738372952,0.304886397613,1.0,-0.0217902857144,-0.0286386612246,3.183
-0.67665048221,-0.513709821119,-0.126370035239,-2.63620748981,-0.0675714962372,2.11189356644,-0.925373852827,-0.10806157029,0.0142751686344,0.0233322034742,0.0107999286098,0.0128469038798,0.000634928630705,-0.107679684804,0.57390757382,0.818884325882,0.00626932508385,0.0,0.818884115167,-0.573814923403,-0.012082487684,0.0,-0.00629684872319,0.0120683142689,-0.999907348451,0.0,0.257899391007,-0.26911635922,0.304900767976,1.0,-0.01981,-0.026036,3.197
-0.678354062376,-0.513391900983,-0.126116557172,-2.63597270767,-0.0673935281361,2.11197380235,-0.926956978565,-0.0999856793391,0.0210431246711,0.0122053880973,0.0125450526145,0.0150181732314,0.00142034202631,-0.0939227265022,0.573914265954,0.818879532623,0.00628277691822,0.0,0.81887958203,-0.573821717196,-0.0120670588407,0.0,-0.00627639450369,0.0120705273486,-0.999907450338,0.0,0.257571896428,-0.269551562832,0.304902841395,1.0,-0.01947,-0.0255891428571,3.214
-0.679917489883,-0.513087352574,-0.125949026127,-2.63572536214,-0.0672637630998,2.11205832099,-0.928490718411,-0.0912898044688,0.0160541451624,0.00391954038087,0.0142776441785,0.0167571480654,0.0114033962632,-0.0953664299664,0.573887643862,0.818898108078,0.00629346569142,0.0,0.818898547518,-0.57379553742,-0.012024849743,0.0,-0.00623608423974,0.0120548546936,-0.999907891624,0.0,0.257261357075,-0.269977572192,0.304913822212,1.0,-0.01913,-0.0251422857143,3.231
-0.681427995732,-0.512761861482,-0.125810699218,-2.63547588538,-0.0672237498629,2.11210762492,-0.929960511008,-0.0856049943046,0.0176286853399,0.0101320401526,0.0133310711601,0.000878229967761,-0.000701305257582,-0.0839313613748,0.573852677789,0.818922957607,0.00624824773986,0.0,0.81892271331,-0.573760594087,-0.0120464599959,0.0,-0.00628024522751,0.012029956933,-0.999907915088,0.0,0.256944126098,-0.270399751346,0.304914240769,1.0,-0.01879,-0.0246954285714,3.248
-0.682795218501,-0.512477336733,-0.125735726449,-2.63526851303,-0.06716689673,2.11217047831,-0.931291983581,-0.0819153184222,0.0189592019088,0.006636293142,0.0107176865107,0.00439658977895,0.00185212557098,-0.0850277884754,0.573863750785,0.818915189867,0.00624933927501,0.0,0.818914925856,-0.573771594924,-0.0120518865873,0.0,-0.00628390061439,0.0120340497428,-0.999907842873,0.0,0.256645849084,-0.270788195823,0.304910328183,1.0,-0.01847,-0.0242748571429,3.264
-0.684171906392,-0.512177976517,-0.125696916631,-2.6350270268,-0.0671221129288,2.11221989386,-0.932725857384,-0.0798806413248,0.0154422845935,0.00279338696291,0.0130908161954,0.0005199074224,0.000686012960133,-0.084486187745,0.573820935448,0.818945139836,0.00625610753683,0.0,0.81894495503,-0.573728741972,-0.0120514798763,0.0,-0.00628031308126,0.0120390309502,-0.999907805451,0.0,0.256340243858,-0.271194430738,0.304914384819,1.0,-0.01813,-0.023828,3.281
-0.685670762368,-0.511845213769,-0.125666623225,-2.63476787334,-0.0670723990535,2.11230317465,-0.934223231265,-0.0763828597754,0.0195980186995,-0.000547705468775,0.0092078893577,3.65580601572e-05,0.00815819250517,-0.0869597517401,0.573835264029,0.818935022644,0.00626620663096,0.0,0.81893508164,-0.573743238823,-0.0120322427307,0.0,-0.00625855178205,0.0120363733606,-0.999907973889,0.0,0.256007708393,-0.271641970792,0.304916763115,1.0,-0.01775,-0.0233285714286,3.3
-0.686839756407,-0.511592352614,-0.125660185435,-2.6345725695,-0.0670408568575,2.11233437701,-0.935410505592,-0.077306577643,0.0130297793781,0.00081986863504,0.0125870358302,0.00477158124861,-0.000220081168676,-0.076894366743,0.573839349628,0.818932035789,0.00628239421492,0.0,0.818932174175,-0.573746999634,-0.0120507847526,0.0,-0.00626438946792,0.0120603014366,-0.999907649013,0.0,0.255736716065,-0.271988481314,0.304914679721,1.0,-0.01745,-0.0229342857143,3.315
-0.688219750026,-0.511295101516,-0.125655922389,-2.63436009941,-0.0669992331284,2.11237272225,-0.936763847223,-0.0790594671989,0.0190555321666,0.00154782055561,0.0125030896363,0.000745670165437,0.00228630999197,-0.0753782567506,0.573887080906,0.81889838053,0.00630932925267,0.0,0.818898620948,-0.573794121177,-0.0120872665252,0.0,-0.00627810782182,0.0121036601594,-0.999907039066,0.0,0.255412147211,-0.272392918803,0.304904498974,1.0,-0.01709,-0.0224611428571,3.333
-0.689487472245,-0.511034795564,-0.125640342593,-2.63414788315,-0.0669670206768,2.11243794179,-0.93806159708,-0.0752215113985,0.0137201798343,0.00510205201478,0.0105453404603,-9.79905159371e-05,0.00477057927534,-0.0796009469435,0.573876090972,0.81890603588,0.00631533929597,0.0,0.818906502737,-0.573783392782,-0.0120625388269,0.0,-0.00625456946541,0.0120943078985,-0.999907299742,0.0,0.255124137888,-0.272771390492,0.304910412746,1.0,-0.01675,-0.0220142857143,3.35
-0.690658543433,-0.510789640771,-0.125620177233,-2.63395503137,-0.0669404365756,2.1125190309,-0.939284069275,-0.0721073951911,0.0182363503251,-0.000804515260404,0.00950586246781,0.0017280090344,0.00351230362433,-0.0783283530397,0.57382858694,0.81893934585,0.00631249008595,0.0,0.818939985137,-0.573736317336,-0.0120285416757,0.0,-0.00622906116499,0.0120721040353,-0.999907727293,0.0,0.254845425888,-0.273141512572,0.304914293173,1.0,-0.01641,-0.0215674285714,3.367
-0.691951271079,-0.510513939277,-0.125570172705,-2.63373760161,-0.0668930664869,2.1125466067,-0.940579333028,-0.0725382655068,0.0141424819058,0.00531154989924,0.0123529424992,-0.000230236159873,0.00259879378389,-0.0703775035219,0.573834751868,0.818934957843,0.00632133476919,0.0,0.8189355739,-0.573742173685,-0.0120495160553,0.0,-0.00624107373168,0.0120914297702,-0.999907418877,0.0,0.254569528825,-0.273493064461,0.30491472849,1.0,-0.01607,-0.0211205714286,3.384
-0.69299976289,-0.510283061879,-0.125552291278,-2.63355585436,-0.0668692889521,2.11259439446,-0.941656388036,-0.0713722695117,0.0152802771429,-0.000432804178495,0.0137601607416,0.000446253004736,0.000742795554094,-0.0743182088307,0.573818169845,0.818946567909,0.00632248113402,0.0,0.818947223296,-0.573725637485,-0.0120451338432,0.0,-0.0062370715847,0.0120897277912,-0.999907464429,0.0,0.254331034987,-0.273805095956,0.304916212824,1.0,-0.01577,-0.0207262857143,3.399
-0.694084592172,-0.510034899519,-0.125528547788,-2.63336098542,-0.066831716664,2.11266480088,-0.942743389733,-0.0628778558726,0.0156895436992,-1.19195487014e-05,0.0121725583541,0.00432176846126,0.00604646181744,-0.0703859312659,0.573825576095,0.818941336897,0.0063278623431,0.0,0.818942207402,-0.573733299953,-0.0120211630398,0.0,-0.00621424163055,0.0120804369479,-0.999907718864,0.0,0.254090785523,-0.274130107623,0.304919307035,1.0,-0.01545,-0.0203057142857,3.415
-0.695229142666,-0.509761509117,-0.125506500093,-2.63315294609,-0.0668087231174,2.11270098877,-0.943862105673,-0.0679518112163,0.0144200405532,0.00211949441864,0.0106002943781,0.0041923096225,0.0019271208655,-0.0670966827806,0.573851641958,0.818923077625,0.00632715232418,0.0,0.81892379492,-0.573759083679,-0.012044870694,0.0,-0.00623368147619,0.0120936572577,-0.999907438051,0.0,0.253829129794,-0.274469867389,0.304916042768,1.0,-0.01511,-0.0198588571429,3.432
-0.69636709568,-0.509501322986,-0.125487116092,-2.63295673329,-0.0667698645964,2.11275267534,-0.945053732793,-0.0637074855734,0.00840433672727,-0.000205381620906,0.00843448632932,0.00240405123311,0.000326779978865,-0.0685120258224,0.573820652103,0.818944687785,0.00634069942307,0.0,0.818945539535,-0.573727958939,-0.0120490376509,0.0,-0.0062297787814,0.0121069072476,-0.99990730203,0.0,0.253569777742,-0.274806103388,0.304913550519,1.0,-0.01477,-0.019412,3.449
-0.697485387138,-0.509237719632,-0.12546792213,-2.63276192502,-0.066743523213,2.11280675507,-0.946155648179,-0.0666006173386,0.0168275933426,0.00107296907535,0.00833358772231,0.000283544606897,0.00598241076349,-0.0699968896957,0.573841754165,0.818929884041,0.00634295701463,0.0,0.818930710639,-0.573748940308,-0.0120578426578,0.0,-0.00623538287438,0.0121139691091,-0.999907181569,0.0,0.253314166571,-0.275138288984,0.304909324761,1.0,-0.01443,-0.0189651428571,3.466
-0.69857687225,-0.508984431984,-0.125442661383,-2.63256273075,-0.0667104014644,2.11285909454,-0.947230630827,-0.0634256408289,0.0170692990714,-0.000135174052127,0.0134817417462,0.00399079589353,0.0048214851119,-0.0655548938115,0.573861677366,0.818915898032,0.00634618797796,0.0,0.818916794215,-0.573768898176,-0.0120533207141,0.0,-0.00622953061089,0.0121141719926,-0.999907215588,0.0,0.253068477918,-0.275462634435,0.30491089375,1.0,-0.01409,-0.0185182857143,3.483
-0.699622607639,-0.508744349157,-0.12541427126,-2.63236353508,-0.0666800883621,2.11289535605,-0.948306668389,-0.0642637825615,0.0142566616318,-0.000543702389753,0.0157518966441,0.000389503354496,-8.72782025975e-05,-0.0567920758904,0.573839781605,0.818931234918,0.00634700122985,0.0,0.818932146555,-0.573747013043,-0.0120520232535,0.0,-0.0062283252034,0.0121139269637,-0.999907226066,0.0,0.252833325523,-0.275772672848,0.304916043507,1.0,-0.01375,-0.0180714285714,3.5
-0.700707087253,-0.508483867815,-0.12536031238,-2.63217491815,-0.0666501579747,2.11295730491,-0.949399716806,-0.0637363285991,0.0154409469212,-0.00121986737106,0.00591004567369,0.00184651963643,0.000522758653746,-0.0597215180747,0.573816863579,0.818947386196,0.00633503086211,0.0,0.818948118498,-0.573724107911,-0.012057118697,0.0,-0.00623970604566,0.0121068727345,-0.999907240548,0.0,0.252594157733,-0.276087568648,0.304911592581,1.0,-0.01339,-0.0175982857143,3.518
-0.70166925325,-0.508223870008,-0.125324686775,-2.63197645004,-0.0666206867338,2.11300825616,-0.950351629817,-0.0551295065871,0.0155764124979,0.00211604726852,0.0136523459398,0.000863386379021,0.000288814581372,-0.0595638546628,0.573822685729,0.818943347927,0.00632970223245,0.0,0.818943978834,-0.573729890548,-0.0120631307831,0.0,-0.00624760162666,0.0121060027134,-0.99990720178,0.0,0.252384603003,-0.276376311952,0.304910404351,1.0,-0.01305,-0.0171514285714,3.535
-0.702521954951,-0.508000274994,-0.125310494372,-2.63180142056,-0.0665986409166,2.11303586883,-0.951245252333,-0.055195108499,0.0130800915045,0.00158095983293,0.0110433505862,0.00441762916388,0.00180986244099,-0.0604527795795,0.573797487937,0.818960977189,0.0063330544737,0.0,0.818961544753,-0.573704475978,-0.0120792946854,0.0,-0.0062592897919,0.0121178303271,-0.999906985414,0.0,0.252191514567,-0.276633405729,0.304909571197,1.0,-0.01275,-0.0167571428572,3.55
-0.703370883144,-0.507798420918,-0.125299845322,-2.63163570574,-0.0665834467195,2.11308463481,-0.952101833224,-0.053691029731,0.0110999201842,0.00100882239001,0.00970060248222,-0.000193865690487,0.000647188624031,-0.0577876994417,0.573798576511,0.818960251104,0.00632831784572,0.0,0.818960862764,-0.573705790432,-0.0120630919389,0.0,-0.00624872051886,0.0121046626779,-0.999907211012,0.0,0.25199937879,-0.276891856563,0.304914282706,1.0,-0.01245,-0.0163628571429,3.565
-0.704391958745,-0.507558752601,-0.125288802016,-2.6314450339,-0.0665529734304,2.11313819106,-0.953058384815,-0.0545696339028,0.00757995617154,0.000230115821611,0.00523983959236,0.00066635272249,0.00176481278649,-0.0555263713722,0.573864514631,0.818913997471,0.00633486341163,0.0,0.818914829968,-0.573771948063,-0.0120415852947,0.0,-0.00622637570621,0.0120981850217,-0.999907428798,0.0,0.251753375723,-0.277215775491,0.304920278098,1.0,-0.01207,-0.0158634285714,3.584
