nelsonifechukwu/NELSON_IML_WORK/CNN-GradCAM/train2dof/data_sample_2022-02-21-15-29-36/robot_state.csv
position_joint1,position_joint2,position_joint3,position_joint4,position_joint5,position_joint6,position_joint7,velocity_joint1,velocity_joint2,velocity_joint3,velocity_joint4,velocity_joint5,velocity_joint6,velocity_joint7,ee_T_00,ee_T_10,ee_T_20,ee_T_30,ee_T_01,ee_T_11,ee_T_21,ee_T_31,ee_T_02,ee_T_12,ee_T_22,ee_T_32,ee_T_03,ee_T_13,ee_T_23,ee_T_33,v_x,v_y,time
0.465072677219,0.547866597977,-0.123907234876,-1.35586290503,0.0794660278691,1.89409477361,0.159163757328,0.00065678427972,-0.00167856591833,0.000291195655497,-0.00139855546239,-0.000478940380374,0.000409835091002,-0.00104851931653,0.573746252908,0.819019288418,0.001841025106,0.0,0.818974566461,-0.57368799786,-0.0119786268635,0.0,-0.00875472099839,0.00838060636858,-0.999926557452,0.0,0.661650287442,0.260926251175,0.303136386409,1.0,0.0,0.0,0.0
0.465070118093,0.547869382365,-0.123910189589,-1.35585510967,0.0794667399459,1.89409395981,0.159163802661,-0.000305521927336,-0.000394344625254,-0.000511842645139,0.00136847928582,-0.000293931707066,-0.00134836007298,0.000148948005041,0.573750213627,0.819016507127,0.00184399492447,0.0,0.818971840138,-0.573691960901,-0.0119752227733,0.0,-0.00875018853198,0.00838112790359,-0.999926592754,0.0,0.661653145934,0.260923797852,0.303138152293,1.0,-0.00014,-0.000184,0.008
0.465070174278,0.547872954655,-0.123905442758,-1.3558583239,0.0794673502968,1.89408996709,0.159161345475,0.000207222497178,0.00245055639771,0.000360856678188,0.00134559113082,-2.35220076204e-05,-0.00909457908985,-0.00137784375316,0.573745152885,0.819020069152,0.00183650979306,0.0,0.818975264741,-0.573686894829,-0.0119837116313,0.0,-0.00876148741427,0.00837981389341,-0.999926504828,0.0,0.661650376869,0.260925978792,0.303133589361,1.0,-0.00046,-0.000604571428571,0.024
0.465069458572,0.547850296952,-0.123906259939,-1.35587346569,0.0794673502975,1.894093644,0.159162856731,-0.000989361334681,-0.00927587531922,0.000422234933098,-8.03240805054e-05,1.78397989335e-05,-0.000450135370059,-0.00105356082876,0.573748360878,0.819017798846,0.00184674403207,0.0,0.818973121996,-0.573690052796,-0.0119789679189,0.0,-0.00875169775345,0.008385508381,-0.99992654282,0.0,0.661648615422,0.260923785363,0.303142780155,1.0,-0.0008,-0.00105142857143,0.041
0.465071559795,0.547801110759,-0.12390578753,-1.3559274136,0.0794669507537,1.89410205114,0.15916596501,0.000398737515271,-0.00552098614384,0.000910332687885,-0.00649442288956,0.000158027835364,-0.000275552426269,-0.00108650951568,0.573751665176,0.819015471547,0.00185228931887,0.0,0.81897082341,-0.573693291095,-0.0119810290758,0.0,-0.00875017069063,0.00839126784933,-0.999926507868,0.0,0.661638592322,0.260920199205,0.303152662261,1.0,-0.0011,-0.00144571428571,0.056
0.465073931558,0.547664727865,-0.123902632936,-1.35612010221,0.0794651969834,1.89413907871,0.159163566861,0.00117919774431,-0.00644018343841,0.000948565868996,-0.0132457016492,0.0001179882304,0.0054374144627,0.000800582213828,0.573755616449,0.819012723294,0.00184352322495,0.0,0.818967806352,-0.573697131662,-0.0120033404394,0.0,-0.00877343347136,0.0083969318317,-0.999926256481,0.0,0.661604157552,0.260904740471,0.303160676146,1.0,-0.00148,-0.00194514285714,0.075
0.465064131288,0.547518992194,-0.123911136925,-1.35630744401,0.0794579246625,1.89419021398,0.159151349946,0.000228366319958,-0.00802682458128,-0.00171171309843,-0.00753302233784,0.000157359584284,0.000656160124555,-0.00127332699563,0.573767971383,0.819004046549,0.00185301199669,0.0,0.818959236617,-0.573709428015,-0.0120003278505,0.0,-0.0087653953778,0.00840310684283,-0.999926275102,0.0,0.661580172363,0.26087530895,0.303179455469,1.0,-0.0018,-0.00236571428571,0.091
0.465039368218,0.547359824491,-0.123908631283,-1.35649821346,0.0794589650255,1.89430997112,0.159150878127,-0.00330032730837,-0.0132031244629,0.00450895647697,-0.0145228882065,0.000424827965133,0.00111978814618,0.00185476973643,0.573797356363,0.818983271719,0.00193426389395,0.0,0.818939464602,-0.573738407465,-0.0119641137224,0.0,-0.00868881480006,0.00844918453583,-0.999926555192,0.0,0.661570354567,0.260848143908,0.303211722713,1.0,-0.0021,-0.00276,0.106
0.465013087747,0.547148792872,-0.123906916679,-1.35675228133,0.0794526601154,1.89444174929,0.159132482728,-0.00225226983187,-0.00889259516301,-0.000110712379476,-0.0128069084397,-3.56591617733e-05,0.00822851366808,-0.00375384929248,0.573815345587,0.818970473726,0.00201475419926,0.0,0.818927680446,-0.573756023336,-0.0119258872738,0.0,-0.00861113798396,0.00849335863399,-0.999926852906,0.0,0.661550767671,0.260812310146,0.303251649587,1.0,-0.00246,-0.00323314285714,0.124
0.46498245557,0.546930507691,-0.123911148656,-1.35707828783,0.0794459174659,1.89457826864,0.159103828123,0.00076850034491,-0.0224799293736,-0.00120745497633,-0.0194584760444,-0.000395386547175,0.0102345383224,-0.00402403826337,0.573836473254,0.818955596017,0.00204465589234,0.0,0.818913118395,-0.573776951937,-0.0119189281461,0.0,-0.00858806182488,0.00851407514747,-0.999926875186,0.0,0.661518316562,0.260761950048,0.30326307321,1.0,-0.0028,-0.00368,0.141
0.464945406223,0.546682786102,-0.123904397604,-1.35744753805,0.0794343340121,1.89470909342,0.159015289996,-0.00273420884712,-0.018212089845,0.00110294360506,-0.0223121524803,-8.90837523072e-06,0.0111976698762,-0.00682478062523,0.573807113145,0.818976126674,0.00206100556129,0.0,0.818933717764,-0.573747384969,-0.0119269045343,0.0,-0.00858551882538,0.00853173386855,-0.999926746509,0.0,0.66147498441,0.260707782087,0.30327388362,1.0,-0.00312,-0.00410057142857,0.157
0.464889166923,0.546340934923,-0.123911808616,-1.35799554707,0.0794169657538,1.89490553901,0.158953218339,-0.00121680742879,-0.01412756779,-0.00107476863364,-0.0284265107019,-0.00463203323909,0.011496994603,0.00112490739108,0.573833529782,0.818957622045,0.00205919731992,0.0,0.818915072627,-0.573773689606,-0.0119416850413,0.0,-0.00859838628631,0.008539011404,-0.999926573823,0.0,0.661414739992,0.260616256978,0.303272411473,1.0,-0.00354,-0.00465257142857,0.178
0.464846678379,0.546104208003,-0.123909320541,-1.35839023763,0.0793932147775,1.89504059262,0.158913941014,-0.000819999698611,-0.0218268931253,0.000266802931862,-0.0293246820661,-0.00420938337704,0.0152238664715,0.000536696939444,0.573850128767,0.818946039128,0.00204000319146,0.0,0.818903207641,-0.573790334556,-0.0119555588362,0.0,-0.00862058941376,0.00853142839112,-0.999926447379,0.0,0.661369131161,0.260551173815,0.303263782954,1.0,-0.0038,-0.00499428571429,0.191
0.464803614277,0.545782917839,-0.123911486552,-1.35893808059,0.079314017198,1.89522454126,0.158841874672,-0.0067786689955,-0.0162467089264,-0.00105258221288,-0.0376248919934,-0.0134203969042,0.0117257558519,-0.00278962957165,0.573841001616,0.818952606036,0.0019699827819,0.0,0.818909326951,-0.573781958184,-0.01193840845,0.0,-0.00864681661187,0.00846414849776,-0.999926792697,0.0,0.661303143287,0.260449165765,0.303243745947,1.0,-0.00414,-0.00544114285714,0.208
0.464732313101,0.545394563153,-0.123910076056,-1.3596407118,0.0792712859155,1.89545506553,0.158724376988,-0.00171461586972,-0.0194164631466,-0.000438818370208,-0.0445572677761,-0.000675046134903,0.0105530976875,-0.00941295891533,0.573826324808,0.818963041971,0.00190571341981,0.0,0.818918799689,-0.573767432657,-0.0119866442386,0.0,-0.00872335028393,0.00843903903417,-0.999926340177,0.0,0.66122001613,0.26034436891,0.303206832528,1.0,-0.00448,-0.005888,0.225
0.464670159672,0.544966893368,-0.123915031331,-1.36033739546,0.079252280546,1.89568955073,0.158671894747,-0.00267779359289,-0.0312949223562,-0.000920226760204,-0.0402159214227,0.000351728336639,0.0133569298117,-0.00247426956943,0.573871394729,0.818931503028,0.00188747461371,0.0,0.818886799283,-0.573812359553,-0.0120221830281,0.0,-0.00876245685964,0.00844497757916,-0.99992594811,0.0,0.661136282398,0.260236162534,0.303198467297,1.0,-0.00482,-0.00633485714286,0.242
0.464599373608,0.544556010224,-0.123913244741,-1.36101457509,0.0792296545103,1.89593823277,0.158572522258,-0.00269525317038,-0.0261855008675,0.000417729677148,-0.0423411999482,-0.00163021015803,0.0156890821496,-0.00611142914748,0.573878498776,0.81892653681,0.0018822467888,0.0,0.818881575325,-0.573819302908,-0.0120465806461,0.0,-0.00878536417412,0.00845477361271,-0.999925664327,0.0,0.661060242785,0.260128631884,0.303188469275,1.0,-0.00514,-0.00675542857143,0.258
0.464533153693,0.544073952916,-0.123915751206,-1.36181470423,0.0791908638388,1.8962247168,0.158479683703,-0.00387744878069,-0.0283061810033,4.1031362792e-05,-0.0505763553836,-0.00402997198832,0.0147877166529,0.000411413078071,0.573892690189,0.818916644765,0.00185902557969,0.0,0.818871281509,-0.573833499595,-0.0120700440681,0.0,-0.0088177586054,0.00844937539642,-0.999925424814,0.0,0.660965936996,0.260007926228,0.303173676673,1.0,-0.00548,-0.00720228571429,0.275
0.464455477205,0.543544223589,-0.12391613324,-1.36265326577,0.0791362131466,1.89650231843,0.158383179514,-0.0042670439983,-0.0318370199093,-0.00123638403899,-0.0502836461169,-0.00396598158948,0.0196060330983,-0.00326191201067,0.573909434639,0.818904973771,0.00183075563752,0.0,0.818859227063,-0.57385035327,-0.0120865713615,0.0,-0.00884734397323,0.00843589090013,-0.999925277333,0.0,0.660865532334,0.259873783911,0.303173394194,1.0,-0.00582,-0.00764914285714,0.292
0.464380761031,0.543031393456,-0.123924337231,-1.36346989697,0.0790864154585,1.89681302353,0.158259875083,-0.00423807735997,-0.0363622128785,-7.88007271014e-05,-0.0536079875989,-0.00512530550528,0.0243586982539,-0.010819435896,0.573907613985,0.818906243459,0.00183355814793,0.0,0.818860583074,-0.573848567846,-0.0120794689525,0.0,-0.00883993802178,0.00843409008119,-0.999925358024,0.0,0.660776973265,0.25974248843,0.303174674144,1.0,-0.00614,-0.00806971428571,0.308
0.464305408655,0.542395142711,-0.123922133436,-1.36445024641,0.0790389962016,1.89716255814,0.158127146382,-0.00194796062796,-0.0354962204587,-0.000406031364667,-0.0537679870466,-0.00744317913132,0.0242497635004,-0.00369911965469,0.573900805206,0.81891098795,0.00184567029655,0.0,0.818865336755,-0.573841563971,-0.0120899388831,0.0,-0.00884163169431,0.00844994377646,-0.999925209203,0.0,0.660659191933,0.259602020903,0.303188292781,1.0,-0.0065,-0.00854285714286,0.326
0.464225291155,0.541789174583,-0.123927800291,-1.36539848901,0.0789829058166,1.8975193261,0.158011056,-0.00802538072782,-0.0394300425323,-0.00169639345553,-0.0601999383569,-0.00345161966515,0.0190643695325,0.000775002982737,0.57391302709,0.81890239811,0.00185650401613,0.0,0.818856907303,-0.573853754442,-0.0120822504435,0.0,-0.00882899204838,0.00845453483909,-0.999925282079,0.0,0.660552822737,0.259456350692,0.303196562586,1.0,-0.00684,-0.00898971428571,0.343
0.464153917643,0.541172125895,-0.123925551879,-1.36633805131,0.0789239647604,1.89787641617,0.157881576759,-0.00383563475705,-0.0389479140082,0.000609753711375,-0.0534681718708,-0.00788244568584,0.0241358695081,-0.0113150280671,0.573900263193,0.818911278154,0.00188502532629,0.0,0.818866174465,-0.573840880702,-0.0120656062218,0.0,-0.00879912582985,0.0084682011031,-0.999925429697,0.0,0.660444739134,0.259321791676,0.303216472857,1.0,-0.00716,-0.00941028571429,0.359
0.464062651411,0.540468094268,-0.123926341574,-1.3674176055,0.0788563919693,1.89827023644,0.157744256643,-0.00905121432999,-0.0432749734325,-0.000468395724722,-0.0664775173493,-0.00340429103988,0.0353924725667,-0.00292507947284,0.573904772576,0.818908085101,0.00189922938769,0.0,0.818863176465,-0.573845336645,-0.012057144872,0.0,-0.00878399861076,0.00847502516541,-0.999925504884,0.0,0.660320104859,0.259157963113,0.303234424054,1.0,-0.0075,-0.00985714285714,0.376
0.4639664227,0.539724442733,-0.123930926419,-1.36855915757,0.0787985450742,1.89870105072,0.157607654147,-0.00445292055921,-0.0490564602215,-0.00155461242204,-0.0668689903448,-0.00279936206615,0.0266762833117,-0.00911186527812,0.57392265568,0.81889547613,0.00193167594482,0.0,0.818850916199,-0.57386300389,-0.0120489297339,0.0,-0.00875846531865,0.00849707196316,-0.999925541755,0.0,0.660190969027,0.258985908688,0.303254108422,1.0,-0.00784,-0.010304,0.393
0.463867726655,0.539011965718,-0.12393136722,-1.36965707551,0.0787357918772,1.89911631997,0.1574675684,-0.00278179582148,-0.0444375081037,-0.000328718465648,-0.0665983731294,-0.00383455537874,0.0217397831257,-0.00977870694491,0.573932989872,0.818888169921,0.00195836704659,0.0,0.81884393209,-0.573873195802,-0.0120381443993,0.0,-0.00873420784135,0.00851284907921,-0.999925619741,0.0,0.660067742821,0.258817562048,0.303270918576,1.0,-0.00816,-0.0107245714286,0.409
0.463757342192,0.538242714057,-0.123936337472,-1.37086397451,0.0786681127898,1.899575526,0.157315111262,-0.00728349012666,-0.0430237276236,-0.000147211472154,-0.07277259773,-0.0015647421329,0.0258321016758,-0.0145261051914,0.573950603175,0.818875779633,0.00197725730163,0.0,0.818831772123,-0.573890709828,-0.0120303381538,0.0,-0.00871679076381,0.00852402505389,-0.999925676516,0.0,0.659933654789,0.25862887634,0.303279806012,1.0,-0.0085,-0.0111714285714,0.426
0.463642265676,0.53739269342,-0.123935952502,-1.37219961944,0.0785892784851,1.90007724964,0.157160078368,-0.00344797905055,-0.047572445449,0.000442740773866,-0.0779177694648,0.000684118180614,0.0278735688272,-0.00678634776017,0.573970146092,0.818862048563,0.0019909090852,0.0,0.818818198238,-0.573910171277,-0.0120258238744,0.0,-0.00870505539865,0.0085328207593,-0.99992570373,0.0,0.659780677316,0.258427077909,0.30328781486,1.0,-0.00886,-0.0116445714286,0.444
0.463525936083,0.536596022385,-0.12393891323,-1.37343282186,0.0785164077423,1.90055559707,0.157005931873,-0.00822975601424,-0.0506913572157,-0.00031673707057,-0.0798146379538,-0.00801757379829,0.0227710181826,-0.0107491167098,0.573989714064,0.818848247609,0.0020254474558,0.0,0.818804869368,-0.573929610881,-0.0120056051624,0.0,-0.00866847137348,0.00854970472211,-0.99992587733,0.0,0.659645853252,0.258233364559,0.303304843977,1.0,-0.00918,-0.0120651428571,0.46
0.463408229982,0.535737851521,-0.123944124762,-1.37479781264,0.0784446378365,1.90104942689,0.156839652188,-0.00287760789176,-0.049908560163,-0.00195897773896,-0.0859743709169,-0.00289124360272,0.0221984193195,-0.0121551784114,0.574009305932,0.818834531147,0.00201846632352,0.0,0.818790957435,-0.573949127056,-0.0120214174096,0.0,-0.00868522192138,0.00855327211419,-0.999925701468,0.0,0.659485656955,0.258023846204,0.303303840465,1.0,-0.00952,-0.012512,0.477
0.463284425466,0.534831707745,-0.123946927718,-1.37625181962,0.0783597914352,1.90156890127,0.156659816878,-0.00373496555406,-0.0486695458859,0.00113049640987,-0.0804970032327,-0.00104168383532,0.0325991515156,-0.0116727355244,0.574022288052,0.818825488451,0.00199478911022,0.0,0.818781544754,-0.573962148877,-0.0120407860052,0.0,-0.0087145368196,0.00854514056221,-0.999925515936,0.0,0.659312561147,0.257801417751,0.303296281927,1.0,-0.00986,-0.0129588571429,0.494
0.463162940718,0.533982174621,-0.123950179116,-1.37765250907,0.0782804558938,1.90207955989,0.156495526517,-0.00573059038909,-0.0535321889026,-0.000995511203706,-0.0884821396628,-0.00737106774904,0.0330027249895,-0.0118605158265,0.574044952325,0.818809681706,0.00196080502193,0.0,0.818765227232,-0.573984891491,-0.0120662304602,0.0,-0.00875464241872,0.00853216192913,-0.999925276433,0.0,0.659147450086,0.257586150148,0.303273259588,1.0,-0.01018,-0.0133794285714,0.51
0.463038368285,0.533063287811,-0.123950613558,-1.37914629163,0.0781949946292,1.90265307398,0.156300327927,-0.00939728104671,-0.0535678511146,0.00206487520401,-0.0918858196705,-0.00761402086508,0.0309652532833,-0.0104817237495,0.574046337001,0.81880871332,0.00195981331151,0.0,0.818764209148,-0.573986244496,-0.0120709506521,0.0,-0.00875906232852,0.00853407430942,-0.999925221405,0.0,0.658975176707,0.257363631315,0.303260026074,1.0,-0.01052,-0.0138262857143,0.527
0.462908214581,0.53204253472,-0.123954063038,-1.38080130098,0.0780968579791,1.90326052829,0.156101619576,-0.00683662703624,-0.058340151496,-0.00128707262769,-0.0979968518145,-0.00591186407538,0.0405946385883,-0.00920402023183,0.57405657636,0.818801592099,0.00193566927178,0.0,0.818756737594,-0.573996553982,-0.0120874961198,0.0,-0.00878636274041,0.00852391300903,-0.999925068561,0.0,0.658777187196,0.257118169439,0.303244702864,1.0,-0.01088,-0.0142994285714,0.545
0.462795434633,0.531154546273,-0.123948773276,-1.38221738821,0.0780197828112,1.90377035518,0.155909214154,-0.00739727887204,-0.0616933285481,0.00132860545155,-0.0922155073152,-0.0100340209797,0.0341250002987,-0.0125564991664,0.574043984899,0.818810442757,0.00192591133401,0.0,0.818765310377,-0.573983861306,-0.0121095163164,0.0,-0.00881012601482,0.00852842859131,-0.999924820967,0.0,0.658603910316,0.256912654861,0.303240566243,1.0,-0.01118,-0.0146937142857,0.56
0.462637850288,0.529987982491,-0.123954098071,-1.38406721102,0.0779044680338,1.90441740477,0.155660726957,-0.00717210123877,-0.057906566964,-0.00093602185993,-0.0985635493276,-0.00438376197959,0.0322209564368,-0.0127130886515,0.574042554774,0.818811522975,0.00189263114486,0.0,0.818765928265,-0.573982552624,-0.0121297525431,0.0,-0.00884581420675,0.00851277993218,-0.999924639235,0.0,0.658379661156,0.25662681267,0.303238263917,1.0,-0.01156,-0.0151931428571,0.579
0.462489037679,0.528861466791,-0.123954474904,-1.38583725039,0.0777930849701,1.9050899548,0.155432134085,-0.00910596456619,-0.0620144313472,-0.00259441756329,-0.098369849587,-0.0129616403727,0.0402725191364,-0.0114101053517,0.574043598073,0.818810743136,0.00191346215701,0.0,0.818765463383,-0.573983544391,-0.0121141917338,0.0,-0.00882110437871,0.00852091499429,-0.999924788234,0.0,0.658173944588,0.256360945098,0.303247479227,1.0,-0.01192,-0.0156662857143,0.597
0.462374550456,0.527957918972,-0.123957258964,-1.387226781,0.0777038389905,1.90563806106,0.155215614154,-0.00735989215798,-0.0597622046358,-0.00108347716147,-0.0984884705565,-0.00535233344738,0.0418345414766,-0.0229478047786,0.574013366262,0.818831822455,0.00196183301495,0.0,0.818787267293,-0.573953193733,-0.0120784611575,0.0,-0.0087643967793,0.00853968645689,-0.999925126749,0.0,0.65801667281,0.256153662519,0.303269841866,1.0,-0.0122,-0.0160342857143,0.611
0.462224035746,0.526777114659,-0.123956928133,-1.38901548036,0.0775916557754,1.90631074037,0.154983428357,-0.008367830375,-0.0679630453456,0.000599775843571,-0.102718523971,-0.0111870804752,0.0387188207067,-0.02102822498,0.574012616974,0.818832218654,0.00201498110195,0.0,0.818788389764,-0.573952246207,-0.0120473550235,0.0,-0.00870842717752,0.00856534182593,-0.999925396325,0.0,0.657807388844,0.255885531204,0.303307818718,1.0,-0.01254,-0.0164811428571,0.628
0.462071378248,0.525598571587,-0.123960462713,-1.39085239248,0.0774798555462,1.90698336032,0.154735473832,-0.00596026094564,-0.0652136930432,0.000180980206221,-0.108266162668,-0.00461927918741,0.0347211028635,-0.0109601571391,0.574005858954,0.818836928866,0.00202600924368,0.0,0.818793228854,-0.573945426901,-0.0120433476446,0.0,-0.00869888653886,0.00857199979732,-0.999925422315,0.0,0.657587547922,0.255608085797,0.303321091736,1.0,-0.01288,-0.016928,0.645
0.461922422617,0.524485153458,-0.123969468285,-1.39261574997,0.0773638275097,1.90761243488,0.154493417863,-0.00669206206394,-0.0739042237239,-0.000499058948643,-0.109840855937,-0.00604251931871,0.0408418663746,-0.016570077979,0.57399931214,0.818841578773,0.00200135863037,0.0,0.818797619413,-0.573939048127,-0.012048833145,0.0,-0.00871759552832,0.00855489432771,-0.999925405873,0.0,0.657374529931,0.255334182978,0.303319666936,1.0,-0.0132,-0.0173485714286,0.661
0.461764329337,0.52327248433,-0.1239750629,-1.39452155584,0.0772464028709,1.90831825257,0.154243576126,-0.00819223404035,-0.076896340211,-0.00151224947951,-0.112035886008,-0.00136427298232,0.0432712017118,-0.0119045028222,0.57399868082,0.818842002285,0.00200913210673,0.0,0.818798159543,-0.57393839836,-0.0120430776216,0.0,-0.00870842739411,0.00855794910611,-0.999925459622,0.0,0.657147006378,0.255045649767,0.303326479287,1.0,-0.01354,-0.0177954285714,0.678
0.461607760043,0.522032792499,-0.12397598284,-1.39648587542,0.077130211917,1.90909119619,0.153975595677,-0.0120147120716,-0.0757827672964,0.00115546133134,-0.118485448077,0.000184833491901,0.0496904029283,-0.018449770288,0.573982202465,0.818853454722,0.00204886406658,0.0,0.818810142168,-0.57392176402,-0.0120210968113,0.0,-0.00866779585609,0.00857769144858,-0.999925643498,0.0,0.656917663329,0.254759000788,0.3033297914,1.0,-0.01388,-0.0182422857143,0.695
0.461448320714,0.520855289452,-0.123978941064,-1.39837515644,0.0770018838382,1.90980086571,0.153716479233,-0.00733255836797,-0.075388399215,-0.00029716724872,-0.118372876487,-0.00736812488799,0.0399141348128,-0.0123103568713,0.573968885803,0.818862818076,0.00203720507367,0.0,0.818819470345,-0.573908614118,-0.0120135143061,0.0,-0.00866841753308,0.00856365147708,-0.99992575845,0.0,0.656692940277,0.254471204492,0.303319355349,1.0,-0.0142,-0.0186628571429,0.711
0.461257239672,0.519374992383,-0.123977388033,-1.40068121283,0.0768618317058,1.91062164802,0.153414723503,-0.0117968265234,-0.0758070272813,0.000513046240533,-0.125604893104,-0.0121032646469,0.0468888971102,-0.017664964288,0.57396180615,0.818867787384,0.00203439613989,0.0,0.818824310226,-0.573901455672,-0.0120256002918,0.0,-0.00868000091376,0.00856821324417,-0.999925618887,0.0,0.656406885528,0.254125489842,0.303332281077,1.0,-0.01458,-0.0191622857143,0.73
0.461080807725,0.518023742853,-0.12398429592,-1.4027780294,0.0767276633852,1.91137757134,0.153131091867,-0.00973543273204,-0.081322371781,0.000123883681506,-0.12957330079,-0.0110871191403,0.0499801329036,-0.0127976914301,0.573953728741,0.818873438369,0.00203865139642,0.0,0.818830048327,-0.573893392381,-0.0120196938147,0.0,-0.00867280641484,0.00856822206957,-0.999925681238,0.0,0.656150991301,0.253804207175,0.303348382524,1.0,-0.01492,-0.0196091428571,0.747
0.460918859791,0.516821983476,-0.123985410178,-1.40466671584,0.0766089557319,1.91206376282,0.152863935514,-0.00805457783974,-0.082505226987,-0.000339483561678,-0.122483913702,-0.00828190279047,0.051092459632,-0.0179407491809,0.573936125736,0.818885783122,0.00203584811503,0.0,0.818842343141,-0.573875790309,-0.0120225320589,0.0,-0.00867692369183,0.00856736906059,-0.999925652828,0.0,0.655919986881,0.253516350269,0.303352072904,1.0,-0.01522,-0.0200034285714,0.762
0.460720057493,0.515368621176,-0.123993251966,-1.40698774074,0.0764669475609,1.91293719472,0.152547325327,-0.010903925804,-0.0792786826027,-0.000945682946025,-0.127891966474,-0.000726818864377,0.038804309589,-0.0248774585023,0.573929482866,0.81889043695,0.0020366322112,0.0,0.818847027495,-0.573869164982,-0.0120197315578,0.0,-0.00867424980715,0.00856633347786,-0.999925684899,0.0,0.655641866914,0.253161354341,0.303342554508,1.0,-0.01558,-0.0204765714286,0.78
0.46053470796,0.513979576262,-0.123991964582,-1.40923539269,0.076332605519,1.91372104882,0.152239622498,-0.009760554871,-0.0868603698651,-0.00116105819689,-0.132772946469,-0.00998596710569,0.0397927434629,-0.0185158418584,0.573910071527,0.818904191682,0.00197523328687,0.0,0.818859827316,-0.573849869117,-0.0120688782921,0.0,-0.00874993612253,0.00854405449159,-0.999925216079,0.0,0.655354764608,0.252823658064,0.303314375231,1.0,-0.01592,-0.0209234285714,0.797
0.460361364409,0.512738061609,-0.123988919538,-1.41124712021,0.0762134875647,1.91442172438,0.151959738908,-0.0112173873759,-0.083371983182,0.000852459032372,-0.134102989721,-0.00490123894297,0.0473950659656,-0.0204540730107,0.573893778355,0.818915743313,0.00191922421771,0.0,0.818870485436,-0.573833666436,-0.0121160326793,0.0,-0.00882086426698,0.00852507597394,-0.999924754886,0.0,0.655098222809,0.252517788362,0.303287444131,1.0,-0.01622,-0.0213177142857,0.812
0.460161277239,0.51131278332,-0.123999905449,-1.41353461555,0.0760720968417,1.91530049058,0.151642374595,-0.0138705247787,-0.086976238164,-4.80340129332e-05,-0.134993367408,-0.005200428502,0.0552013453301,-0.0258483587224,0.573887259348,0.81892029362,0.00192695540217,0.0,0.818875207078,-0.57382718208,-0.0121040175644,0.0,-0.00880665578478,0.00852444159301,-0.999924885534,0.0,0.654826781645,0.252164367235,0.303273459604,1.0,-0.01656,-0.0217645714286,0.829
0.459947772857,0.509742956607,-0.124004168324,-1.4160164561,0.0759232864391,1.91623455731,0.151282958356,-0.0129963518815,-0.0905592963033,-0.000177601512308,-0.143075739225,-0.00881033478138,0.0470574718523,-0.0219348883327,0.573860125698,0.818939265329,0.00194492604669,0.0,0.818894381873,-0.573799941994,-0.0120981323269,0.0,-0.00879180641637,0.00853548908523,-0.999924921965,0.0,0.65452511816,0.251787567521,0.303272234276,1.0,-0.01692,-0.0222377142857,0.847
0.459752157776,0.508338173664,-0.124005219228,-1.41824264214,0.0757809020915,1.91702058928,0.150977693211,-0.0103768435271,-0.0883190279256,0.000842987488961,-0.133411937271,-0.00784788308441,0.053398488638,-0.0192987190327,0.573847936908,0.81894788394,0.00191196177367,0.0,0.818902527778,-0.57378785972,-0.0121197747038,0.0,-0.0088285733709,0.00852078209048,-0.999924723449,0.0,0.654244045321,0.251443682357,0.303263730232,1.0,-0.01724,-0.0226582857143,0.863
0.459530936084,0.506708489161,-0.124009139513,-1.42080246776,0.0756177081893,1.91795283169,0.150619812355,-0.0115291623774,-0.0956765229237,0.000784347441525,-0.145797528321,-0.0068656812192,0.0547963341211,-0.0200245271351,0.573827072901,0.818962509279,0.00190937242789,0.0,0.818917124303,-0.573767014693,-0.0121203661513,0.0,-0.00883076057827,0.0085187760218,-0.999924721228,0.0,0.653925503458,0.251051357526,0.303265972103,1.0,-0.0176,-0.0231314285714,0.881
0.459321205825,0.505191929729,-0.124012540156,-1.42311649889,0.0754700464047,1.91885085443,0.15030359409,-0.0147469350917,-0.0959810297494,0.00225456130001,-0.145303726885,-0.00975123132434,0.048003578169,-0.0226846369453,0.573835128355,0.818956677852,0.00198800629066,0.0,0.818912437282,-0.573774837955,-0.0120665776862,0.0,-0.00874150468872,0.00855239389227,-0.999925218531,0.0,0.653635889993,0.250664172517,0.303301497507,1.0,-0.01794,-0.0235782857143,0.898
0.459112288352,0.503617030374,-0.124022990734,-1.42545547126,0.0753180840793,1.91973579673,0.149974828467,-0.00992866344384,-0.0966258202338,-0.00156588603953,-0.141284151917,-0.0117102848878,0.0510385286095,-0.0268059638478,0.573810346324,0.818973797842,0.00208609731677,0.0,0.818930954058,-0.573749755402,-0.0120023982068,0.0,-0.00863291802785,0.00859563543029,-0.999925791135,0.0,0.653370534938,0.250330830144,0.303366372432,1.0,-0.01824,-0.0239725714286,0.913
0.458876163808,0.501931149626,-0.124026842908,-1.42796074973,0.0751558133018,1.9206551058,0.149631637997,-0.0126561519677,-0.0973037504114,0.000210325300901,-0.14571702354,-0.00977926891828,0.0495688289441,-0.029080915305,0.573809609488,0.818974102433,0.00216760329262,0.0,0.818932378236,-0.57374873718,-0.0119538011981,0.0,-0.00854635849895,0.00863449275764,-0.999926199922,0.0,0.653064499747,0.249935562989,0.30343074862,1.0,-0.01858,-0.0244194285714,0.93
0.458647633062,0.500206983384,-0.124033603522,-1.43056806847,0.0749893721326,1.92156954929,0.149266123945,-0.0106701373232,-0.0993849789651,0.000915719310956,-0.153771408073,-0.00845772981565,0.0487869175992,-0.0148403970263,0.573782695503,0.818992914776,0.00218421343359,0.0,0.818951350148,-0.573721700957,-0.0119516878922,0.0,-0.00853538138953,0.00864660270896,-0.999926189039,0.0,0.65271119331,0.249507514813,0.303465681533,1.0,-0.01894,-0.0248925714286,0.948
0.458393026135,0.498534187443,-0.124033873685,-1.43319602904,0.0748251773839,1.92254638973,0.148881999812,-0.00801434529668,-0.0955082845951,-0.000889529870449,-0.15634008335,-0.00931507032394,0.0579893481161,-0.0187567752725,0.57377326842,0.818999452924,0.00220894925013,0.0,0.818958220349,-0.573712184067,-0.0119377584644,0.0,-0.00850988039428,0.00865877054663,-0.999926301098,0.0,0.652408868803,0.249114960081,0.303472917854,1.0,-0.01926,-0.0253131428571,0.964
0.458148633022,0.496936409911,-0.124031849219,-1.43570298551,0.0746681824342,1.92345148485,0.148514422764,-0.0155877317042,-0.0945317088451,0.00148590650719,-0.156192513386,-0.00357137674387,0.0503677042327,-0.0210959139246,0.573755339574,0.819012023384,0.00220516780356,0.0,0.818970671051,-0.573694201195,-0.0119478188783,0.0,-0.00852047937864,0.00866125938965,-0.999926189284,0.0,0.652094303361,0.248716631449,0.303471885296,1.0,-0.01958,-0.0257337142857,0.98
0.457876031253,0.495169679979,-0.124034382377,-1.43857724012,0.0744942193151,1.92444640376,0.14809508119,-0.014197342829,-0.095781093777,0.000852347955631,-0.157904212687,-0.00721656381985,0.0552506341231,-0.0259783218509,0.573734764411,0.819026683289,0.0021116507375,0.0,0.818983911457,-0.573673814741,-0.0120188999717,0.0,-0.00863256725026,0.00862523478684,-0.999925539282,0.0,0.651720881102,0.24825948559,0.303421200062,1.0,-0.01994,-0.0262068571429,0.998
0.45761778937,0.49361857374,-0.124055275481,-1.44106017016,0.0743374831607,1.92534552934,0.147753640143,-0.0179802581311,-0.111770142637,-0.00551580040318,-0.177101724089,-0.00616911136753,0.0649387268208,-0.02679684738,0.573759241447,0.819009635195,0.00207297214744,0.0,0.818966403206,-0.573698496782,-0.0120337903739,0.0,-0.00866669612003,0.00860235860224,-0.999925441123,0.0,0.651392606233,0.247813089545,0.303394899428,1.0,-0.0235754285714,-0.0309848489796,1.014
0.45730931315,0.491341811516,-0.124099431902,-1.44463365396,0.0741212582229,1.92668390037,0.14722970095,-0.0156838097315,-0.135759186409,-0.00398890654046,-0.217460535575,-0.0160666040091,0.0809854545512,-0.0349466888354,0.573740088243,0.819022975561,0.0021032230107,0.0,0.818980246864,-0.57367932624,-0.0120055317393,0.0,-0.0086263968535,0.00861071872306,-0.999925717641,0.0,0.650972179973,0.247276378158,0.30339908408,1.0,-0.0282771428571,-0.037164244898,1.031
0.456925227085,0.488819037527,-0.12410827313,-1.4487175522,0.0738889488484,1.92813194588,0.14665035883,-0.0190975139215,-0.157541212921,-0.000732591351714,-0.256334930794,-0.0192159572601,0.088485352187,-0.0378330573434,0.573727253196,0.819032184707,0.00201649611202,0.0,0.818987971015,-0.573666514341,-0.0120905152143,0.0,-0.00874589317997,0.00858830949453,-0.999924872324,0.0,0.650441601312,0.246631381136,0.303335512483,1.0,-0.0329788571429,-0.0433436408163,1.048
0.456476025927,0.485993264387,-0.124140056042,-1.45306180033,0.0736208277785,1.9297967085,0.146015213489,-0.0297844239039,-0.184107798902,-0.000450436345339,-0.27846927935,-0.0168921211542,0.105688297807,-0.0396132308622,0.57374080014,0.819022401225,0.00213247460773,0.0,0.818979853868,-0.573679714864,-0.0120137676344,0.0,-0.00861635328223,0.00863940873323,-0.999925556766,0.0,0.649918826925,0.245912776121,0.303376105375,1.0,-0.037404,-0.0491595428571,1.064
0.455954888616,0.482646466283,-0.124203962874,-1.45826522617,0.0733074646461,1.9316385512,0.145204513523,-0.0324247694637,-0.201393209215,-0.00290827983009,-0.327210408819,-0.0218612181072,0.114934624391,-0.049053961544,0.573720574868,0.819036612675,0.00211564939731,0.0,0.818993804803,-0.57365952197,-0.0120269468022,0.0,-0.00863701363707,0.00863297679437,-0.999925434074,0.0,0.649257959311,0.245039136987,0.30338372962,1.0,-0.0421057142857,-0.0553389387755,1.081
0.455341037777,0.478881941994,-0.124273911102,-1.4641485132,0.0729515710175,1.93371889041,0.144338183686,-0.0310850964706,-0.226080716686,-0.00416262853997,-0.35181701348,-0.0266253950825,0.131359524945,-0.0497166965811,0.57374868999,0.819017028542,0.00207234018498,0.0,0.818973569779,-0.573687732547,-0.0120592051616,0.0,-0.00868798550689,0.00861631089356,-0.999925136245,0.0,0.64846258267,0.243978957071,0.303372079936,1.0,-0.047084,-0.0618818285714,1.099
0.454711122194,0.474961340558,-0.12431738754,-1.47014844345,0.0725920519725,1.9359125887,0.143487987909,-0.038869065352,-0.253406113652,0.000216901517925,-0.390718068354,-0.0172405761762,0.140778655439,-0.0524619843998,0.573798771452,0.818981673763,0.00217596437169,0.0,0.818939506345,-0.573737308081,-0.0120138738793,0.0,-0.00859087599798,0.00867569629476,-0.999925461794,0.0,0.647751257381,0.243035505657,0.303425134672,1.0,-0.0512325714286,-0.0673342367347,1.114
0.453909322802,0.470181276185,-0.124357384,-1.47748165307,0.0721441727274,1.93853579983,0.142370303257,-0.0457035956872,-0.274583750604,-0.00118290741342,-0.417064760108,-0.0207993236659,0.161448712382,-0.0673604439036,0.573798460522,0.818981720224,0.0022395409343,0.0,0.818940175211,-0.573736522749,-0.0120057815136,0.0,-0.00854777373953,0.008723116942,-0.999925418616,0.0,0.646809050869,0.241794741262,0.303467421845,1.0,-0.0562108571429,-0.0738771265306,1.132
0.453032745453,0.464928492102,-0.124389679328,-1.48539564564,0.0716336083515,1.94146760794,0.141105846017,-0.052363510568,-0.303835621695,0.000769351032596,-0.468433639027,-0.0241264124763,0.156309741643,-0.0691352267008,0.573739691306,0.819022259761,0.00245998728548,0.0,0.818983734652,-0.573677031775,-0.0118765521057,0.0,-0.00831608245002,0.00882890889704,-0.999926443865,0.0,0.645805928648,0.240459870134,0.303579992249,1.0,-0.0611891428571,-0.0804200163265,1.15
0.452229220106,0.460284296849,-0.124412816185,-1.49261377367,0.071166877684,1.94393354917,0.140032328995,-0.0530090585136,-0.315156856084,-0.00138278987658,-0.493416271714,-0.0247097383593,0.156420048381,-0.066914077282,0.573744642828,0.81901906496,0.00236705697659,0.0,0.818979035348,-0.573682039857,-0.0119584157403,0.0,-0.00843639483001,0.00879981643076,-0.999925692476,0.0,0.644835261975,0.239229536602,0.30355825062,1.0,-0.0653377142857,-0.0858724244898,1.165
0.451195780755,0.454365234187,-0.12446881675,-1.50179462051,0.0705380160382,1.94712423712,0.138619812251,-0.0616491224445,-0.334540239605,-0.00131250568272,-0.523353932655,-0.0368603638066,0.184244366171,-0.0824425154794,0.573725248133,0.819032899904,0.0022793488302,0.0,0.818991829411,-0.573663109996,-0.0119902664182,0.0,-0.00851300823821,0.00874605503293,-0.999925514832,0.0,0.643608802408,0.237642023424,0.303536928601,1.0,-0.070316,-0.0924153142857,1.183
0.45006973231,0.447922952469,-0.124505496712,-1.51130095122,0.0698988319719,1.95074062403,0.137103492018,-0.0633973478427,-0.361352292433,-0.00430267056775,-0.545931578544,-0.0375890219398,0.197726434186,-0.0754722719433,0.573689687871,0.819056447982,0.00272469268186,0.0,0.819021698364,-0.573626420497,-0.0117018894741,0.0,-0.00802170676,0.00894500796684,-0.999927816921,0.0,0.642402106319,0.236003362012,0.303746123768,1.0,-0.0752942857143,-0.0989582040816,1.201
0.449131377645,0.442756490673,-0.124527976704,-1.5192779033,0.0693776707181,1.95343492943,0.135890656287,-0.0702310919068,-0.374781947052,-0.00189080470398,-0.573354026291,-0.0363769708014,0.186323349541,-0.0897156876112,0.573694888463,0.819053119252,0.00262863005692,0.0,0.819016729236,-0.573631533577,-0.0117986362944,0.0,-0.0081560017974,0.00892188109838,-0.999926937167,0.0,0.641298265305,0.234617297066,0.303721469417,1.0,-0.0791662857143,-0.104047118367,1.215
0.447848607307,0.435764229145,-0.124550043153,-1.53011765524,0.068636589395,1.95709652487,0.134145761492,-0.0723959137959,-0.404521373964,-0.00278356008636,-0.604136378262,-0.038649166205,0.216124912169,-0.104402663506,0.573604746872,0.819116773521,0.00246020400431,0.0,0.819077827287,-0.573541654212,-0.011926048475,0.0,-0.00835795778998,0.00885610707474,-0.999925854206,0.0,0.639781000874,0.232732042005,0.30365831695,1.0,-0.0841445714286,-0.110590008163,1.233
0.446511645253,0.428780189356,-0.124575646356,-1.54062894128,0.0678850298487,1.96092202809,0.132436327155,-0.0817589818491,-0.418696354657,0.000341745000723,-0.637660200782,-0.0510947844992,0.220550253309,-0.0997049347033,0.573564700165,0.819144139908,0.00267575778997,0.0,0.819108467232,-0.573501304778,-0.0117609195011,0.0,-0.00809949364578,0.00893755620498,-0.9999272565,0.0,0.638374485359,0.230860870799,0.303747475426,1.0,-0.0888462857143,-0.116769404082,1.25
0.445146680308,0.42195363134,-0.124661399172,-1.55113857275,0.0671345242745,1.96441510601,0.130673253894,-0.0897521493928,-0.426023571644,-0.0033877145831,-0.66647746022,-0.0498049667684,0.221235001233,-0.108746625176,0.573538346024,0.81916320143,0.00248233057454,0.0,0.819125021172,-0.573475683711,-0.011856929721,0.0,-0.00828936388188,0.00883391302572,-0.999926621521,0.0,0.636896673448,0.228918100013,0.303692327059,1.0,-0.0932714285714,-0.122585306122,1.266
0.443511424114,0.413849213667,-0.124784968223,-1.5632469255,0.0662776005175,1.96871817434,0.128742937663,-0.0918118388538,-0.462458574406,-0.00815735096912,-0.679829354807,-0.0460081171358,0.245386934339,-0.114438880335,0.573653872623,0.819081648339,0.00268973602147,0.0,0.819046738585,-0.573591059244,-0.0116826225408,0.0,-0.00802636772646,0.0089049726273,-0.99992813686,0.0,0.635250738767,0.226652575051,0.303800391605,1.0,-0.0982497142857,-0.129128195918,1.284
0.441935822383,0.406440735098,-0.12482260788,-1.57456014332,0.0655179655853,1.97250110321,0.126828127667,-0.104516072528,-0.474832344787,-0.00206039762959,-0.720117168099,-0.0564150591564,0.230581285297,-0.126442965649,0.573653493957,0.819082218675,0.00259515382746,0.0,0.819045456713,-0.573590337556,-0.0118072605723,0.0,-0.00818271956884,0.00889899656647,-0.99992692281,0.0,0.633628799987,0.224546934637,0.303754575201,1.0,-0.102674857143,-0.134944097959,1.3
0.440264925986,0.398707160306,-0.124930914363,-1.58614685837,0.0647152859686,1.97646463301,0.124875793455,-0.106508470303,-0.503383625623,-0.0122790777911,-0.716883681054,-0.0514503973932,0.262212087983,-0.129912250187,0.57374176355,0.819020147725,0.00267082012524,0.0,0.818984362685,-0.573678310075,-0.0117710291777,0.0,-0.00810867459716,0.0089410631005,-0.99992715074,0.0,0.631993874867,0.222322695592,0.303800647413,1.0,-0.1071,-0.14076,1.316
0.438282255175,0.389739323038,-0.124995028701,-1.59959569474,0.0636894711009,1.98108289597,0.122592262718,-0.113126761735,-0.503230720193,-0.00167098945983,-0.77965307166,-0.0605700983708,0.247556634391,-0.133344664104,0.573775026061,0.818996657689,0.00272783125756,0.0,0.818962111803,-0.573711918624,-0.0116807859883,0.0,-0.00800168943643,0.00893630578374,-0.999928055115,0.0,0.630069578921,0.219745355068,0.303829600511,1.0,-0.112078285714,-0.147302889796,1.334
0.436301741579,0.380916415637,-0.125054219203,-1.61279525025,0.0626974692729,1.98539628269,0.120203906512,-0.113923192139,-0.529282520946,-0.00441068175251,-0.781042889559,-0.0558498441753,0.27453273058,-0.139186181738,0.57370196824,0.81904811225,0.00264355048573,0.0,0.819012376994,-0.573639063395,-0.0117344867518,0.0,-0.00809482124798,0.00889737001474,-0.999927652721,0.0,0.628110968682,0.217194785265,0.303833567343,1.0,-0.11678,-0.153482285714,1.351
0.434321268483,0.372434877081,-0.125107713813,-1.62549766553,0.0617688495069,1.98968159257,0.117929341775,-0.126900519168,-0.534343814427,-0.00517433141406,-0.773945963662,-0.0580135483048,0.265732932449,-0.145868989412,0.57370604339,0.819045143913,0.00267860255957,0.0,0.819009728321,-0.573642862682,-0.0117336231126,0.0,-0.00807396123935,0.00892562389104,-0.999927569571,0.0,0.626236957165,0.214716689448,0.303824722909,1.0,-0.121205142857,-0.159298187755,1.367
0.432079882977,0.363067752563,-0.12522904817,-1.63936550458,0.0606768404317,1.99421798692,0.115510117672,-0.13418866371,-0.565269118385,-0.0050228491407,-0.788479908364,-0.062580108197,0.274597433196,-0.150305612657,0.57383346526,0.818955981444,0.0026460358014,0.0,0.818920573834,-0.573770859736,-0.0116979130902,0.0,-0.00806201287773,0.00887971812384,-0.999928074691,0.0,0.624164157931,0.211916468468,0.303853989054,1.0,-0.125906857143,-0.165477583673,1.384
0.429738123969,0.353484531166,-0.12531653266,-1.65366743062,0.0596013174432,1.99883849889,0.112824139398,-0.139737712147,-0.581162885801,-0.00247429134228,-0.867007107697,-0.0576401903984,0.26951688484,-0.165040272587,0.573805278605,0.818976058605,0.00254255344806,0.0,0.81893897199,-0.57374268753,-0.0117913342179,0.0,-0.00819820681589,0.00884829628015,-0.999927245882,0.0,0.621971543023,0.209048021605,0.303804710468,1.0,-0.130608571429,-0.171656979592,1.401
0.427367134257,0.344130199858,-0.125403172388,-1.66730053437,0.0585835179653,2.00327284073,0.110274672976,-0.146704443022,-0.598504901752,-0.0100459000861,-0.823266870586,-0.0726864009374,0.291800164933,-0.152583761968,0.573890455404,0.818915987023,0.00266426275119,0.0,0.818880225609,-0.573827126554,-0.0117623058212,0.0,-0.00810367006307,0.00893215909882,-0.999927270888,0.0,0.619886912827,0.206243768049,0.303881210147,1.0,-0.135033714286,-0.177472881633,1.417
0.42479296248,0.334075137202,-0.125443411527,-1.68218037142,0.0573962546,2.00804937748,0.107438820503,-0.151822961455,-0.59882697514,0.000532513311282,-0.88444743866,-0.0696846878475,0.281639199543,-0.174842934881,0.573842798098,0.818949634088,0.00258588469007,0.0,0.818912720075,-0.573779617618,-0.0118175380422,0.0,-0.00819439829439,0.0088991942992,-0.999926825411,0.0,0.617544577805,0.203221795211,0.303832139274,1.0,-0.139735428571,-0.183652277551,1.434
0.422126247809,0.323614173955,-0.125444072226,-1.6972895308,0.0561306970747,2.01286754317,0.10446122773,-0.159902176072,-0.613929508775,-0.00199290255152,-0.909250215339,-0.0841568069718,0.278320822096,-0.169632414003,0.573685100863,0.819059821836,0.00267585558876,0.0,0.819024313596,-0.573621869756,-0.0117418558323,0.0,-0.00808250867338,0.00892789042391,-0.999927480284,0.0,0.615129529552,0.200153309008,0.303913453748,1.0,-0.144437142857,-0.189831673469,1.451
0.419452714419,0.313668886509,-0.125457513603,-1.71184329257,0.0549685240271,2.01738723781,0.101614325082,-0.165308282323,-0.613656711442,0.00125386951715,-0.919461040586,-0.0684735235357,0.280781649179,-0.188228501176,0.573647613359,0.819086354486,0.00258968784837,0.0,0.819049144687,-0.573584069063,-0.0118558511414,0.0,-0.00822572056767,0.00892233411138,-0.999926362026,0.0,0.612755923731,0.197142017286,0.303870825743,1.0,-0.148862285714,-0.19564757551,1.467
0.416269166583,0.302130400918,-0.125532660096,-1.72836964478,0.0535541646127,2.02263301556,0.0981384988981,-0.181538675468,-0.62784981702,-0.00320722258663,-0.93334592094,-0.0734859872958,0.278600118874,-0.19959244223,0.573517764439,0.819176805089,0.00273546685806,0.0,0.819142047756,-0.573454316533,-0.0117132125959,0.0,-0.00802668133263,0.00895864390774,-0.999927654926,0.0,0.610086041079,0.193613284566,0.303958290463,1.0,-0.153840571429,-0.202190465306,1.485
0.413063156854,0.290953022977,-0.125621503033,-1.74437418886,0.0522861940929,2.02746926654,0.0949081040413,-0.190530129582,-0.673750832572,-0.00593353642269,-0.934949897489,-0.0718422473375,0.300255282031,-0.191617369636,0.573629717913,0.819098363918,0.00275024639129,0.0,0.819063015265,-0.573565328374,-0.0118041523598,0.0,-0.00809147169673,0.00902401143051,-0.999926544954,0.0,0.607423791281,0.190135343807,0.303990841212,1.0,-0.158542285714,-0.208369861224,1.502
0.40993877856,0.280305341675,-0.125740490524,-1.75970550289,0.0509805611878,2.03213138243,0.0916320871481,-0.190452988529,-0.674819137443,-0.00912011714786,-0.974285301045,-0.0762915076321,0.289387076691,-0.204355002494,0.573605294367,0.819115674282,0.00268799555122,0.0,0.819079464835,-0.573541081157,-0.011840836595,0.0,-0.00815749603403,0.00899382167711,-0.999926280498,0.0,0.604851665201,0.186761271118,0.303956530765,1.0,-0.162967428571,-0.214185763265,1.518
0.406197822186,0.267981909962,-0.125882837192,-1.77710060194,0.0494334561999,2.03738029974,0.0878438967439,-0.213267658848,-0.689865189381,-0.0117091943345,-0.975379911869,-0.0953390108381,0.295305532669,-0.206093270113,0.573635956887,0.819093953166,0.00276256305429,0.0,0.819059186349,-0.573571993416,-0.0117458302474,0.0,-0.00803656446132,0.00900070651237,-0.999927197807,0.0,0.601916480535,0.182829023014,0.304029087209,1.0,-0.167945714286,-0.220728653061,1.536
0.402637428157,0.25695724758,-0.126066606972,-1.79281423716,0.0480622817641,2.04199873952,0.0843877528091,-0.229386847618,-0.697960239184,-0.00799967273622,-0.976232512781,-0.0893184963408,0.291449828227,-0.219082931447,0.573829446687,0.818958717219,0.00267067542719,0.0,0.818922719652,-0.573765750221,-0.0117978817296,0.0,-0.00812979252079,0.00895722118339,-0.999926834655,0.0,0.59906174562,0.178921457855,0.303991256575,1.0,-0.172647428571,-0.22690804898,1.553
0.398954210047,0.245672137154,-0.126171276279,-1.80868169913,0.0465989854691,2.04664172785,0.0808006630478,-0.233341344472,-0.690967002551,-0.00542958640097,-0.989195236093,-0.0882826082541,0.281617802657,-0.230682244436,0.573871208389,0.818929544599,0.00264273839247,0.0,0.818893398087,-0.573807844659,-0.011785876212,0.0,-0.00813553485231,0.00892786793531,-0.999927050463,0.0,0.596466136157,0.175463974846,0.303993702069,1.0,-0.176796,-0.232360457143,1.568
0.394947238268,0.233369940753,-0.126228527592,-1.82568902264,0.045133188731,2.05165805266,0.0768346349598,-0.23601844353,-0.727567436625,-0.00281515725142,-1.00460933436,-0.0877728963603,0.3041519889,-0.222886366564,0.573851521102,0.818942455243,0.00290407126687,0.0,0.818909258549,-0.573786728347,-0.0117116837467,0.0,-0.00792503007285,0.00909911356678,-0.999927197365,0.0,0.593461866288,0.171551557764,0.304096170041,1.0,-0.181497714286,-0.238539853061,1.585
0.390522281726,0.220281806574,-0.126285125772,-1.84404258262,0.0433648644762,2.05681102332,0.0724428528919,-0.256381185042,-0.729525324048,-0.00247938433341,-1.0110463287,-0.0990283738103,0.287401824103,-0.24801697981,0.573715337264,0.819038454035,0.00273303869851,0.0,0.819003096926,-0.573651239112,-0.0117868567537,0.0,-0.00808623358256,0.00900084094989,-0.999926796165,0.0,0.59012068708,0.167269184,0.304022533553,1.0,-0.186476,-0.245082742857,1.603
0.386350823029,0.208305308357,-0.126398886026,-1.8603830197,0.0418462249465,2.06142274867,0.0684126358309,-0.269630888816,-0.744096953658,-0.00904747752691,-1.01662128001,-0.0916629319107,0.284178109995,-0.256799527579,0.573731305556,0.81902667617,0.00290510718524,0.0,0.818993581612,-0.573666626843,-0.0116987788602,0.0,-0.00791520131773,0.00909139484501,-0.999927345425,0.0,0.587150188934,0.163330999967,0.304116556818,1.0,-0.190901142857,-0.250898644898,1.619
0.381748383232,0.195419959626,-0.126522100249,-1.87797714419,0.040173708244,2.06621330591,0.0639530104619,-0.27649613899,-0.755566743163,-0.00554601145413,-1.0388206746,-0.0971176957206,0.292147750217,-0.263359623951,0.57369892094,0.819049243471,0.00293798944004,0.0,0.819016364763,-0.573633890082,-0.0117090264408,0.0,-0.00790509113411,0.00912389292846,-0.999927129401,0.0,0.583874581004,0.15905071747,0.304151612272,1.0,-0.195602857143,-0.257078040816,1.636
0.376834819628,0.182366075846,-0.126704803855,-1.89581180738,0.0385057348604,2.07091013828,0.0593232310257,-0.296947887063,-0.764743799412,-0.0145934058617,-1.0478587281,-0.0957657848564,0.274351555166,-0.280672382462,0.573807763505,0.818973248316,0.00286635416078,0.0,0.818938603787,-0.573742018145,-0.0118493351628,0.0,-0.00805989586571,0.00914678468713,-0.999925684443,0.0,0.580503978224,0.154574038942,0.304121886012,1.0,-0.200304571429,-0.263257436735,1.653
0.372043705731,0.169858601027,-0.126826381622,-1.91261611818,0.0368153888735,2.07536192608,0.0548837961384,-0.302769349414,-0.792362124924,-0.00537813908615,-1.04985491396,-0.106490874565,0.269070109435,-0.28858217978,0.573864450997,0.818933271696,0.00293858664097,0.0,0.818899768064,-0.573798666886,-0.0117901079408,0.0,-0.00796930800637,0.00917250833859,-0.999926174885,0.0,0.577299425589,0.150321702295,0.30417433077,1.0,-0.204729714286,-0.269073338775,1.669
0.366838117673,0.156323370906,-0.126891390542,-1.93057805047,0.0349990075057,2.08005171622,0.0498974105628,-0.303879844778,-0.790306514492,-0.0020358029939,-1.05311557603,-0.115287327374,0.288250794292,-0.295219466437,0.573710309618,0.819040614753,0.00311430952622,0.0,0.819009491993,-0.573644052053,-0.0116918976044,0.0,-0.00778978384302,0.00925858951414,-0.999926796215,0.0,0.573802885919,0.145810188768,0.304271993012,1.0,-0.209431428571,-0.275252734694,1.686
0.361354728004,0.142775147826,-0.126970395789,-1.94880843409,0.0330869591404,2.08453065101,0.0448188273409,-0.330514941726,-0.826878977747,-0.00295027909048,-1.06169605348,-0.103696622991,0.260590152318,-0.308060765049,0.573653624869,0.819081118308,0.00289606735606,0.0,0.81904672135,-0.573587632886,-0.0118508458064,0.0,-0.00804581052331,0.00917047168737,-0.999925580922,0.0,0.570155869355,0.141137833655,0.304182511253,1.0,-0.214133142857,-0.281432130612,1.703
0.355601479113,0.128906887815,-0.127124567536,-1.96697064985,0.0312112434522,2.08908235346,0.0394338530342,-0.337049938471,-0.816492730919,-0.012211917864,-1.07488333023,-0.112085784992,0.258141145842,-0.322973291573,0.573609632329,0.819111271837,0.00307586568316,0.0,0.819079250212,-0.573543047185,-0.0117601785102,0.0,-0.00786890490071,0.00926530781479,-0.999926114474,0.0,0.566531581646,0.136342696749,0.304263905767,1.0,-0.218834857143,-0.287611526531,1.72
0.349883358496,0.115667892302,-0.127329137346,-1.98419750766,0.0293022931572,2.09331009109,0.0342977948156,-0.35703721154,-0.846062834218,-0.0105718688925,-1.0777271587,-0.117483477201,0.26662524178,-0.328315584125,0.573741355563,0.819018593015,0.00318561044631,0.0,0.81898880754,-0.573675353105,-0.0116047087473,0.0,-0.00767711384118,0.00926725905178,-0.999927587295,0.0,0.56284031615,0.131349332141,0.304330925303,1.0,-0.223536571429,-0.293790922449,1.737
0.343219370444,0.100647065716,-0.127473660848,-2.0036982792,0.0271516238894,2.09781455039,0.0282066195411,-0.371650414537,-0.848656021058,-0.00913988855733,-1.06688581047,-0.1244501923,0.259068327041,-0.332670119871,0.573677284352,0.819063626857,0.0031457082726,0.0,0.819033248857,-0.573611329511,-0.0116330058116,0.0,-0.00772390673593,0.0092502089445,-0.999927384813,0.0,0.559004465348,0.126333422378,0.304338097297,1.0,-0.228238285714,-0.299970318367,1.754
0.337518565888,0.0880319422748,-0.127590399139,-2.02008588171,0.0254352491781,2.10150823642,0.0229769827996,-0.389445811745,-0.822178859309,-0.00909794056623,-1.10869555929,-0.112409124917,0.242859951939,-0.358364419257,0.573614676674,0.819107751027,0.00307275327419,0.0,0.819075163157,-0.573547483779,-0.0118282649434,0.0,-0.00792640619555,0.00930186135019,-0.999925320942,0.0,0.555278046333,0.121579390408,0.30425659172,1.0,-0.232663428571,-0.305786220408,1.77
0.330316307823,0.0725249699893,-0.127765046212,-2.0396878892,0.0231578041334,2.10586358254,0.0164037848649,-0.410498175095,-0.844557918117,-0.0108844225706,-1.10108575033,-0.12564400574,0.249905396179,-0.35850795577,0.57353843382,0.819160493223,0.00324008880337,0.0,0.819130907145,-0.573471668226,-0.0116425771664,0.0,-0.00767918797094,0.00933170201859,-0.999926972038,0.0,0.551336604483,0.116365884078,0.304378317544,1.0,-0.237365142857,-0.311965616326,1.787
0.323069831557,0.0577735574711,-0.128051097948,-2.05828719745,0.0210115528316,2.10971244693,0.00997547752513,-0.43129210697,-0.880304215195,-0.0203522683483,-1.08289449968,-0.128912827661,0.243044780375,-0.390631437459,0.573694876758,0.819051060671,0.00320862834358,0.0,0.819020810435,-0.573627883798,-0.0116923011182,0.0,-0.00773618189144,0.0093359263809,-0.999926493283,0.0,0.547285613873,0.110910413906,0.304400925514,1.0,-0.23998,-0.315402285714,1.804
0.315714390176,0.0431852024975,-0.128198229603,-2.07682740494,0.0189131950712,2.11344714569,0.0034961136823,-0.431282169035,-0.869244768539,-0.00422000768673,-1.09726655202,-0.119072222444,0.208889001796,-0.378771319723,0.57377074175,0.818998504388,0.00305493437709,0.0,0.818964978636,-0.573702766827,-0.0119266929463,0.0,-0.00801547370342,0.00934525165035,-0.999924206354,0.0,0.543140968981,0.105557271045,0.304285030634,1.0,-0.23998,-0.315402285714,1.821
0.306823150737,0.0259742190012,-0.128386342674,-2.09799465987,0.0163244977291,2.11759622165,-0.00439671411786,-0.451988932745,-0.859589202705,-0.0125150405523,-1.05437672885,-0.137927315118,0.203177370279,-0.398703438934,0.573745355446,0.81901594111,0.00314677823757,0.0,0.818984006652,-0.573677514989,-0.0118343798538,0.0,-0.00788746169193,0.00936726187356,-0.999925018365,0.0,0.538360279077,0.099245185676,0.304365940416,1.0,-0.23998,-0.315402285714,1.841
0.300422537016,0.013985364674,-0.128539683073,-2.11250111734,0.0145568438213,2.12035303749,-0.0100362350601,-0.463040006342,-0.845028947483,-0.0123149257529,-1.03291133115,-0.126806276005,0.200973885989,-0.402189956021,0.573786303223,0.818986586314,0.00331610803932,0.0,0.818957111887,-0.573718184332,-0.011723513056,0.0,-0.00769903668426,0.00944272328143,-0.999925777151,0.0,0.535041455495,0.0948075777794,0.304466167939,1.0,-0.23998,-0.315402285714,1.855
0.292901847747,0.000478248473686,-0.128709558541,-2.12904050873,0.0125404765456,2.12321992533,-0.0165830134007,-0.467844934099,-0.850622137212,-0.00726822037043,-1.03139980358,-0.126399294666,0.17628071201,-0.418985369672,0.573888326098,0.818915570446,0.00319758508687,0.0,0.81888361148,-0.57381946608,-0.0118994999566,0.0,-0.00791000151969,0.00944761603131,-0.999924084332,0.0,0.531152666954,0.0896912933169,0.304416075327,1.0,-0.23998,-0.315402285714,1.871
0.284913910214,-0.0137838770149,-0.128793697612,-2.14607627691,0.0103986370323,2.12631974673,-0.0236722472101,-0.482629923273,-0.806277911289,-0.0114611863384,-1.00993599155,-0.128777244931,0.172707352042,-0.425298291027,0.573775694367,0.818993567823,0.00342568519453,0.0,0.818965119711,-0.573706720111,-0.0117251395086,0.0,-0.00763762227015,0.00953330029408,-0.999925388672,0.0,0.527131257031,0.0844218380051,0.304503770562,1.0,-0.23998,-0.315402285714,1.888
0.276665953115,-0.0279811990251,-0.128935682837,-2.16286664731,0.00820151384133,2.12898132973,-0.0309245922668,-0.491128488003,-0.849191111809,-0.00932903823061,-0.961284024798,-0.12254740655,0.16913746484,-0.428274510695,0.573733438151,0.819023082865,0.0034465319782,0.0,0.81899499701,-0.573664515369,-0.0117032294702,0.0,-0.00760820846478,0.00953741015329,-0.999925573716,0.0,0.523056157147,0.0790617302761,0.304568171765,1.0,-0.23998,-0.315402285714,1.905
0.268637851543,-0.0411645976232,-0.129125524463,-2.17859135477,0.00615914293414,2.1314178369,-0.0378355860806,-0.508845396432,-0.850356302472,-0.00598926660516,-0.983140349504,-0.124747148264,0.148699263744,-0.436342799762,0.573871818262,0.81892648605,0.00336058789105,0.0,0.818896764762,-0.573802522312,-0.0118110521095,0.0,-0.00774421869244,0.00953018798698,-0.999924598454,0.0,0.519186384954,0.0739335520934,0.30450797446,1.0,-0.23998,-0.315402285714,1.921
0.260088518547,-0.0551746358503,-0.129232982692,-2.19473619217,0.00404852134148,2.13390313696,-0.045342195062,-0.508880784176,-0.840370851491,0.00010185498129,-0.939502810795,-0.138047544026,0.134236587432,-0.45072090766,0.573822447336,0.818959940034,0.00362800972665,0.0,0.818934204703,-0.573752924685,-0.0116231099665,0.0,-0.00743742344314,0.00964088828374,-0.999925866255,0.0,0.515171104611,0.0686404023886,0.30463328968,1.0,-0.23998,-0.315402285714,1.938
0.251318511401,-0.0688299419085,-0.129377144317,-2.21085633688,0.00189125821426,2.13601912313,-0.0530687061736,-0.522653442398,-0.822797988303,-0.00609176429686,-0.927522680938,-0.126939599829,0.127280064859,-0.455269684203,0.573755219681,0.819008123828,0.00337459525715,0.0,0.818977862485,-0.573685002696,-0.0118964424053,0.0,-0.00780747860357,0.00958954936468,-0.999923538987,0.0,0.511026163921,0.0632866925763,0.304494920172,1.0,-0.23998,-0.315402285714,1.955
0.242779551239,-0.0818069132261,-0.129616322951,-2.22558914826,-0.000124393351212,2.13796361745,-0.0604733862813,-0.540177795155,-0.775275555194,-0.0103929819033,-0.930426072463,-0.128088858246,0.109739638988,-0.471720095103,0.573884243205,0.818917120085,0.00351748977571,0.0,0.818888988284,-0.573813843553,-0.0118001998005,0.0,-0.007645148502,0.00965256821776,-0.999924186942,0.0,0.507231014141,0.0581523819898,0.3045693527,1.0,-0.23998,-0.315402285714,1.971
0.233159369131,-0.0962311289355,-0.129715172699,-2.24197501407,-0.00234143572916,2.13990338773,-0.0689570946108,-0.534999801095,-0.80543096638,-0.0101889196423,-0.901370919026,-0.137798308957,0.114232665484,-0.479190128694,0.573771738168,0.818995859744,0.00353851704312,0.0,0.818967376312,-0.573700492553,-0.0118713218519,0.0,-0.00769266258345,0.00970954593101,-0.999923270886,0.0,0.502887810229,0.0525585633615,0.30456690393,1.0,-0.23998,-0.315402285714,1.989
0.223254890473,-0.110485723775,-0.129882752504,-2.25811071148,-0.00465313259893,2.14162757905,-0.0775447139661,-0.557439883479,-0.784976889196,-0.010677688695,-0.89438278183,-0.130843277001,0.0992381080369,-0.482134178878,0.573793800498,0.818980950018,0.00340953343339,0.0,0.81895033566,-0.573722456761,-0.0119848751637,0.0,-0.00785940986763,0.00966927178186,-0.999922364416,0.0,0.4985265563,0.0468815538136,0.304508719881,1.0,-0.23998,-0.315402285714,2.007
0.214756771697,-0.12238008609,-0.130069989647,-2.27117472897,-0.00651811198886,2.14295184943,-0.0849244934573,-0.561569578837,-0.806807685069,-0.00745779928066,-0.868667284041,-0.119307361564,0.0880495875096,-0.489423491552,0.573877252606,0.818921926253,0.00353900337152,0.0,0.818893212136,-0.573805690996,-0.0119030667754,0.0,-0.00771713067568,0.00972915241366,-0.999922891771,0.0,0.494957891266,0.0421025483246,0.304581947855,1.0,-0.23998,-0.315402285714,2.022
0.205083731423,-0.135649089215,-0.130204330542,-2.28589150513,-0.00861539804344,2.14422012053,-0.0934713714493,-0.579495436439,-0.75764211799,-0.0166373021885,-0.850028919389,-0.130104774897,0.0655441551447,-0.503861659566,0.573778506617,0.818991496181,0.00344984468075,0.0,0.818960630129,-0.573706055169,-0.0120662945153,0.0,-0.00790314797584,0.00974885511667,-0.999921246937,0.0,0.490825609732,0.0367920685472,0.304528251995,1.0,-0.23998,-0.315402285714,2.039
0.19511691867,-0.148862736217,-0.130410071663,-2.30008519067,-0.0107165833765,2.1455051666,-0.102179561918,-0.595740444569,-0.74953265538,-0.0162882209357,-0.840126087935,-0.122348300564,0.0643342861944,-0.512034182208,0.573827793251,0.818955991125,0.00367358059687,0.0,0.818928952773,-0.573755668406,-0.0118553862496,0.0,-0.00760144825687,0.00981154054346,-0.999922972862,0.0,0.486827228432,0.0314077353848,0.304629328896,1.0,-0.23998,-0.315402285714,2.056
0.185597457234,-0.161160656752,-0.130551185555,-2.31342948787,-0.0127146639426,2.14632358535,-0.1105417418,-0.589369794735,-0.741201072407,-0.00418181967418,-0.811814200579,-0.114968454124,0.0431962277885,-0.52180432218,0.573778798901,0.818990932828,0.00353394654691,0.0,0.818961186575,-0.573706056283,-0.0120284150642,0.0,-0.00782386697103,0.009796003209,-0.999921409625,0.0,0.482926064112,0.0263771745831,0.304580274899,1.0,-0.23998,-0.315402285714,2.072
0.174738980956,-0.174886970143,-0.130715580637,-2.32796172404,-0.0148130233808,2.14727045627,-0.120158854206,-0.609544590714,-0.744294265683,-0.00681738648349,-0.826464480667,-0.124529439695,0.042569235881,-0.54505919193,0.573730727489,0.819023794297,0.00371801166325,0.0,0.818996227283,-0.573657029004,-0.0119808042759,0.0,-0.00767984811309,0.00991898404947,-0.999921313748,0.0,0.478644361928,0.0207701305393,0.304635196194,1.0,-0.23998,-0.315402285714,2.09
0.164105802088,-0.187722190506,-0.13096121963,-2.34151903499,-0.016932567657,2.14788100715,-0.129432384084,-0.630998394319,-0.759428374001,-0.0156724020236,-0.808116533609,-0.125239310569,0.0370678779013,-0.5573306841,0.573829975356,0.818954539863,0.00365621682216,0.0,0.818925786483,-0.573756003518,-0.0120561834869,0.0,-0.00777583955717,0.00991256055734,-0.999920635582,0.0,0.474540477044,0.0153327755624,0.304621183675,1.0,-0.23998,-0.315402285714,2.107
0.154085738978,-0.199741557363,-0.131073707693,-2.35389580787,-0.018824582497,2.14848859619,-0.138385838137,-0.6322720675,-0.727981744232,-0.0123729664476,-0.788917799687,-0.111297453652,0.0260278314693,-0.563628231252,0.573688513528,0.819052692727,0.00386301475248,0.0,0.819027372295,-0.573614773264,-0.0118744357905,0.0,-0.00751005086921,0.00997633431485,-0.999922032905,0.0,0.470758323949,0.0103683065982,0.304708856617,1.0,-0.23998,-0.315402285714,2.123
0.143078672591,-0.212303580832,-0.131312737881,-2.36698469884,-0.0208200225972,2.14876885948,-0.148044134896,-0.657634799098,-0.734183349172,-0.0137451796605,-0.764087143857,-0.122526940735,0.0194890874587,-0.562898990998,0.573799163225,0.818975536228,0.00378658741684,0.0,0.81894777123,-0.573723783116,-0.0120960979525,0.0,-0.00773410195449,0.0100419415475,-0.999919668312,0.0,0.466621854038,0.00496460185112,0.304649444415,1.0,-0.23998,-0.315402285714,2.14
0.131947737839,-0.224799682501,-0.131489378668,-2.37958215638,-0.0228842556676,2.14909286912,-0.157862168928,-0.644198809157,-0.731854420104,-0.00372682214163,-0.746417195896,-0.116740516391,0.0142507030228,-0.576195313549,0.573790688904,0.818980805111,0.00392849684454,0.0,0.818956046892,-0.57371631799,-0.0118880878062,0.0,-0.00748241703757,0.0100387336148,-0.999921615559,0.0,0.46260377328,-0.000380175111302,0.304735659919,1.0,-0.23998,-0.315402285714,2.157
0.121372146943,-0.236380051915,-0.131644835349,-2.39139505328,-0.0247654401064,2.14915365939,-0.167372518972,-0.673890418026,-0.711200310028,-0.00764452740431,-0.727969444674,-0.126998001791,0.00158385903062,-0.601027970648,0.573646943568,0.819081796384,0.00386547137897,0.0,0.819055441427,-0.573571788901,-0.0120138981028,0.0,-0.00762338667963,0.0100579649406,-0.999920357487,0.0,0.458723857279,-0.00535397450326,0.304687628999,1.0,-0.23998,-0.315402285714,2.173
0.109663163157,-0.248651306063,-0.13192460567,-2.40340633384,-0.0266901657441,2.14922784246,-0.177664563451,-0.690670730399,-0.718464025199,-0.0107112177518,-0.705492517075,-0.119024694881,0.000133441396911,-0.601394859924,0.573847732613,0.8189396825,0.00416210312898,0.0,0.818918152605,-0.57377282287,-0.0117708950639,0.0,-0.00725169102253,0.010163318924,-0.999922056925,0.0,0.454729106135,-0.0108062339743,0.304817703835,1.0,-0.23998,-0.315402285714,2.19
0.0980368511716,-0.260647233497,-0.132076568043,-2.41546272043,-0.0286070224287,2.14910413867,-0.18817599238,-0.691080463299,-0.700604458927,-0.0161200016062,-0.696864418799,-0.119418396375,-0.020591074753,-0.629746428115,0.573686234497,0.819053015873,0.00412412890599,0.0,0.819030039337,-0.573610153359,-0.011913585908,0.0,-0.00739235857941,0.0102126423241,-0.999920524328,0.0,0.450608302861,-0.0160617410933,0.304740766767,1.0,-0.23998,-0.315402285714,2.207
0.0859494641152,-0.272588376668,-0.132363318134,-2.42693659309,-0.0305927765631,2.14895022839,-0.198899896131,-0.722813851379,-0.69865234448,-0.013228512558,-0.670671021984,-0.12190462934,-0.0142042915756,-0.643164393315,0.573802091745,0.818970765506,0.00433493446165,0.0,0.818952049057,-0.573727455913,-0.0116230193075,0.0,-0.00703197748686,0.0102196130101,-0.999923052441,0.0,0.44661339586,-0.0215040679539,0.304851636426,1.0,-0.23998,-0.315402285714,2.224
0.0738770385369,-0.284260126841,-0.132482689372,-2.43837525537,-0.0324655367439,2.14853423361,-0.209861968718,-0.717427626422,-0.685294092589,-0.0105260461013,-0.666882952419,-0.106923218606,-0.0276279975596,-0.655824181047,0.573615967667,0.819101364182,0.00429228765978,0.0,0.819081310417,-0.573540364144,-0.0117475326683,0.0,-0.00716075767372,0.0102545023512,-0.999921781306,0.0,0.442509746784,-0.0267519630299,0.3047944739,1.0,-0.23998,-0.315402285714,2.241
0.0613872137086,-0.295853279884,-0.132791350725,-2.44936807451,-0.0342914265177,2.14804927071,-0.221072109538,-0.739795761497,-0.685134404289,-0.0240820448149,-0.628693440852,-0.113741117301,-0.0234909271224,-0.665010930307,0.573736014126,0.819016298179,0.00447619410002,0.0,0.818998740411,-0.573659965861,-0.0116642048377,0.0,-0.00698549500521,0.010358371152,-0.999921950457,0.0,0.438468492172,-0.0321693080494,0.30485169267,1.0,-0.23998,-0.315402285714,2.258
0.0487987485695,-0.307220098327,-0.132957810824,-2.4601737648,-0.0361728285807,2.14744575917,-0.232427357474,-0.73329592401,-0.663031552846,-0.0156294126071,-0.639084765244,-0.102225767345,-0.0484329237292,-0.674018008192,0.573673560368,0.81906000847,0.00448280715664,0.0,0.819042655458,-0.573597678195,-0.0116438400257,0.0,-0.00696581004667,0.0103515727412,-0.999922158186,0.0,0.434399589976,-0.0374811742616,0.304844692165,1.0,-0.23998,-0.315402285714,2.275
0.0366820634056,-0.317772242289,-0.133229815285,-2.47014338293,-0.037939562645,2.14669572272,-0.243364474092,-0.76713849433,-0.65319435412,-0.024469565126,-0.619889744665,-0.103287354005,-0.044843492699,-0.687441631852,0.573715909604,0.819030576363,0.00444037739882,0.0,0.819012084482,-0.573639286202,-0.0117440069626,0.0,-0.0070716620213,0.0103746461303,-0.99992117605,0.0,0.430526382614,-0.0425545932141,0.304810485613,1.0,-0.23998,-0.315402285714,2.291
0.0236485300839,-0.328839581853,-0.133396654438,-2.48021054723,-0.0396722399805,2.14597116863,-0.255232858019,-0.766491876934,-0.638667774655,-0.0117531553594,-0.594538039361,-0.099437519432,-0.0483842505496,-0.708094455364,0.573663429385,0.819065998289,0.00468050580046,0.0,0.819051795403,-0.57358786028,-0.0114834615141,0.0,-0.00672116096492,0.0104214192373,-0.999923107052,0.0,0.426544693588,-0.0478731331211,0.304919860498,1.0,-0.23998,-0.315402285714,2.308
0.0135467156504,-0.337125432649,-0.133579961144,-2.48794381315,-0.0409956270009,2.14520061375,-0.26446908919,-0.79064817803,-0.637148518836,-0.0155693276081,-0.598385449017,-0.0970390091805,-0.064441645717,-0.719994910385,0.573630888756,0.819089003117,0.00464277284472,0.0,0.819073231622,-0.573553777115,-0.0116555951174,0.0,-0.0068842224267,0.0104889822892,-0.999921291269,0.0,0.423619845295,-0.0516221872584,0.30486124207,1.0,-0.23998,-0.315402285714,2.32
-0.00231406587235,-0.349708878363,-0.133840773653,-2.49937879699,-0.0431137534172,2.14393593904,-0.278913016242,-0.787025299565,-0.629847909798,-0.010206664983,-0.554132025182,-0.0937602711436,-0.062976175185,-0.740354451218,0.573616686952,0.819099044397,0.00462588573537,0.0,0.819083013441,-0.573539568735,-0.0116673513696,0.0,-0.00690372076584,0.0104817736727,-0.999921232428,0.0,0.418577141659,-0.0582492175986,0.304875823,1.0,-0.23998,-0.315402285714,2.341
-0.0168904980005,-0.360799472675,-0.134163686989,-2.50923335152,-0.0449706681746,2.14283344974,-0.292206671563,-0.831013773103,-0.616488965793,-0.024802413494,-0.55830674896,-0.107788031682,-0.0719221908385,-0.742230780746,0.573697235206,0.819041901967,0.00475310851213,0.0,0.819028419587,-0.573621114056,-0.0114896614326,0.0,-0.0066841594435,0.0104847198135,-0.999922693343,0.0,0.414303396197,-0.0639825395752,0.304942481529,1.0,-0.23998,-0.315402285714,2.359
-0.0291235779186,-0.369844518371,-0.134280177755,-2.51738869085,-0.0464129910372,2.14171357489,-0.303525432627,-0.823734521112,-0.603139541745,-0.00852683633439,-0.53566088807,-0.0957358174298,-0.0739866904721,-0.755098075415,0.57356164137,0.819137089639,0.00471368518102,0.0,0.819122160672,-0.573484203359,-0.0116405023311,0.0,-0.00683207474912,0.0105378324995,-0.999921135311,0.0,0.410663981466,-0.068633407783,0.30489840941,1.0,-0.23998,-0.315402285714,2.374
-0.044122170249,-0.380435012963,-0.134626841001,-2.52666701681,-0.0481825907953,2.14035225233,-0.317251060709,-0.847996708419,-0.58692674436,-0.0217400278063,-0.494109466698,-0.0878466127815,-0.0744746190895,-0.761960543038,0.573692895881,0.819044820568,0.00477388911774,0.0,0.819030639592,-0.573615200536,-0.0116258343625,0.0,-0.00678383466563,0.0105798237343,-0.99992102034,0.0,0.406358400696,-0.0743567484703,0.304927392273,1.0,-0.23998,-0.315402285714,2.392
-0.0584442816306,-0.390168138675,-0.134827979257,-2.5351645829,-0.0498039521598,2.13911547342,-0.330554410405,-0.84862864313,-0.564117906138,-0.00645596831807,-0.503424043265,-0.0933337394255,-0.0809951068982,-0.797465147168,0.573594861018,0.819113199258,0.00482173368515,0.0,0.819100051263,-0.573517686566,-0.0115462599098,0.0,-0.00669247319669,0.0105725612115,-0.999921712812,0.0,0.402315685332,-0.0796880131558,0.304939817959,1.0,-0.23998,-0.315402285714,2.409
-0.072233555997,-0.39913198234,-0.135121794716,-2.54299793514,-0.0513798557048,2.13774459614,-0.343282062063,-0.86701349276,-0.551419446356,-0.0169924471491,-0.492254728344,-0.107467377222,-0.0779008258054,-0.788983152299,0.573642625403,0.819080228391,0.00473969195362,0.0,0.819065334019,-0.573564625597,-0.0116767192669,0.0,-0.00684578204573,0.0105805849786,-0.999920590092,0.0,0.398424068979,-0.0847849544473,0.304899028911,1.0,-0.23998,-0.315402285714,2.425
-0.0868602413142,-0.408394315283,-0.135308024455,-2.55095386785,-0.0527930788128,2.13630643146,-0.356985745752,-0.866324347455,-0.54075876119,-0.0168085167509,-0.45116561711,-0.0849335909992,-0.0733503828256,-0.80481474398,0.573554474599,0.819141409615,0.00483348964313,0.0,0.819126958207,-0.573474984535,-0.0117565025441,0.0,-0.00685848471486,0.0107024423639,-0.999919206194,0.0,0.394363574595,-0.0900440528885,0.304893783833,1.0,-0.23998,-0.315402285714,2.442
-0.102872969518,-0.417923083974,-0.135617564641,-2.55889635317,-0.0544275490936,2.13486490594,-0.371783945527,-0.878259700066,-0.517613653537,-0.00496251138793,-0.43582432035,-0.0912252535429,-0.0875879065517,-0.826565311826,0.573691335217,0.819044879564,0.0049481368821,0.0,0.819033163132,-0.573613446089,-0.0115342557993,0.0,-0.0066088825448,0.0106699962429,-0.999921233824,0.0,0.39010225465,-0.095813632,0.30497038898,1.0,-0.23998,-0.315402285714,2.46
-0.116176970171,-0.425634160766,-0.135795731171,-2.56551268446,-0.0557071737959,2.13341793313,-0.384360449932,-0.891379175565,-0.508161436236,-0.0160519895974,-0.438048326901,-0.0802284671316,-0.0936963194714,-0.838772266935,0.57354399615,0.819148519528,0.0048717897998,0.0,0.819134294075,-0.573463956085,-0.0117833035459,0.0,-0.00685861185248,0.0107491000556,-0.999918704841,0.0,0.386448753032,-0.100467826541,0.304903522962,1.0,-0.23998,-0.315402285714,2.475
-0.132438545618,-0.434590782028,-0.136074015432,-2.57306712471,-0.0572645523541,2.13183123671,-0.399582808451,-0.895753368297,-0.494426586797,-0.0068705601112,-0.412187210079,-0.0850156052718,-0.0877182725412,-0.849623195884,0.573553084421,0.819142289149,0.00484936915745,0.0,0.81912733835,-0.573472441783,-0.0118536485661,0.0,-0.00692897865372,0.0107711549255,-0.999917982375,0.0,0.382109557778,-0.106132235824,0.304868034397,1.0,-0.23998,-0.315402285714,2.493
-0.148108154126,-0.442767120104,-0.136380680232,-2.57964919886,-0.0585916325741,2.13033391548,-0.414291429942,-0.931185515966,-0.480684966388,-0.0261851034071,-0.377999986459,-0.0790482529227,-0.0817111887503,-0.861201141422,0.573659550571,0.819066697727,0.00502111692475,0.0,0.819054631054,-0.573579349072,-0.0117042115473,0.0,-0.006706650048,0.0108270102598,-0.999918895058,0.0,0.378081015402,-0.111552890577,0.304950787214,1.0,-0.23998,-0.315402285714,2.51
-0.161979355614,-0.449770216541,-0.136540057202,-2.58530547534,-0.0597185528294,2.12902711508,-0.427387463477,-0.918802716351,-0.46098636758,-0.0186485554475,-0.376423632957,-0.0692346939054,-0.0880216497268,-0.868948427052,0.573634312888,0.81908374067,0.00512325569042,0.0,0.819073507068,-0.573554624761,-0.01159436652,0.0,-0.00655841637464,0.0108474583252,-0.999919656684,0.0,0.374521300299,-0.11624443317,0.304997027873,1.0,-0.23998,-0.315402285714,2.525
-0.178885185271,-0.457793888194,-0.13685082688,-2.59195858562,-0.0611696207854,2.12725799496,-0.443415621649,-0.933817367194,-0.4285811518,-0.0165636757297,-0.358924839679,-0.0786199194108,-0.0878140258324,-0.902603797021,0.57359889435,0.819109149829,0.00502553168323,0.0,0.819096106549,-0.573517027537,-0.0118547147849,0.0,-0.00682820882031,0.0109164549041,-0.999917099852,0.0,0.369884411661,-0.122234651646,0.304925114786,1.0,-0.23998,-0.315402285714,2.544
-0.194930876498,-0.465002679592,-0.137057214476,-2.59783678686,-0.0623819086548,2.12581493622,-0.458783195865,-0.961926234281,-0.424626911947,-0.0142842026863,-0.338362542154,-0.0654501436291,-0.0860607004525,-0.903973550458,0.573481181627,0.819191228971,0.00508051163508,0.0,0.819178651043,-0.573398741805,-0.0118729723915,0.0,-0.00681320704097,0.0109709841298,-0.999916605381,0.0,0.36606689543,-0.127224622353,0.304905516551,1.0,-0.23998,-0.315402285714,2.56
-0.210398759769,-0.471515379107,-0.137285584059,-2.60297341546,-0.0635300034022,2.12443090873,-0.473337375095,-0.956512998157,-0.401604874379,-0.00236021297831,-0.31037003211,-0.0791708353918,-0.0878343620784,-0.916791353112,0.573624961503,0.819090223244,0.00513387056369,0.0,0.819078836628,-0.573543118559,-0.0117854759507,0.0,-0.0067090011632,0.0109656990409,-0.99991736796,0.0,0.362245861965,-0.13232025228,0.304943669615,1.0,-0.23998,-0.315402285714,2.576
-0.227844261411,-0.478523803833,-0.137595169923,-2.6083674184,-0.0647286340482,2.12290928159,-0.490041621817,-0.980482562114,-0.384553722049,-0.0208014167333,-0.305538402178,-0.0699545475329,-0.0854131795732,-0.938815452875,0.573646582521,0.819074136236,0.00528248173579,0.0,0.819065553234,-0.573565707495,-0.0116079969412,0.0,-0.00647808441713,0.0109857981113,-0.999918670024,0.0,0.357978788651,-0.138023382461,0.305026458062,1.0,-0.239401714286,-0.314642253061,2.594
-0.244316459097,-0.484646764369,-0.137706218603,-2.61334135608,-0.0657149661275,2.1214540364,-0.505876281941,-0.967648784463,-0.348668480398,-0.00668550202178,-0.283180063303,-0.0637145040722,-0.0859682867505,-0.922986566939,0.573552426905,0.819139929395,0.00530439098565,0.0,0.819130281611,-0.5734692214,-0.0118059627473,0.0,-0.00662895815073,0.0111165398954,-0.999916236219,0.0,0.353920817858,-0.143248134854,0.304961013073,1.0,-0.2347,-0.308462857143,2.611
-0.259982511185,-0.489973356465,-0.137845598717,-2.6176442194,-0.0666344695811,2.12012477869,-0.520760097289,-0.959731777128,-0.320428885143,0.00110192350335,-0.258433716812,-0.0532643694715,-0.0765489684173,-0.92489487538,0.573660163748,0.819064518284,0.00529889778678,0.0,0.819053493486,-0.573574785136,-0.0120036480453,0.0,-0.00679257882255,0.0112263115884,-0.999913911695,0.0,0.350121105841,-0.148202649904,0.304899133716,1.0,-0.230274857143,-0.302646955102,2.627
-0.276386255987,-0.495230540062,-0.137887724772,-2.62172345255,-0.0674554463537,2.11893459348,-0.536458113523,-0.974549817844,-0.302563993198,-0.00668019259056,-0.233233963524,-0.0483511562686,-0.0637615874526,-0.920080367056,0.573687268161,0.819044840544,0.00540503739047,0.0,0.819035592324,-0.573602145095,-0.0119174053243,0.0,-0.00666067654071,0.0112639985716,-0.999914375196,0.0,0.346254075604,-0.153333851856,0.304918562213,1.0,-0.225573142857,-0.296467559184,2.644
-0.292564032429,-0.500091935209,-0.1378611731,-2.62543740421,-0.0681956030871,2.11766717167,-0.551949133746,-0.948750156304,-0.279863156719,0.000233085306922,-0.209812952549,-0.039379203832,-0.0775932322144,-0.918137756944,0.573702706476,0.819033594195,0.00547019770179,0.0,0.819024997124,-0.573617003219,-0.0119304067311,0.0,-0.00663373321241,0.0113249533284,-0.999913865798,0.0,0.342449221635,-0.158322618836,0.304942838906,1.0,-0.220871428571,-0.290288163265,2.661
-0.307751078148,-0.504220678985,-0.13788465429,-2.6286045808,-0.0688290924455,2.11663137618,-0.566433691632,-0.949673619074,-0.246965637559,0.000326004539788,-0.192017883192,-0.0414527513301,-0.0603518875904,-0.902170880679,0.573842977072,0.818934686668,0.00556448905964,0.0,0.818927291835,-0.573756850654,-0.0119127627277,0.0,-0.00656323725602,0.011393186539,-0.999913555872,0.0,0.338925320502,-0.163000417361,0.30495428553,1.0,-0.216446285714,-0.284472261225,2.677
-0.323509765265,-0.508232309812,-0.137786437917,-2.63162868486,-0.069407243054,2.11565043245,-0.581639465504,-0.921957349466,-0.229924252865,0.00329520282497,-0.173026188092,-0.0328462280314,-0.0569747952475,-0.895951189106,0.573804502375,0.818961008843,0.00565738011446,0.0,0.818955394696,-0.573719047877,-0.0118009534687,0.0,-0.00641889760893,0.011404801775,-0.999914360458,0.0,0.335314140258,-0.167787462508,0.304989973773,1.0,-0.211744571429,-0.278292865306,2.694
-0.340967394983,-0.512245490653,-0.137699394152,-2.63472016078,-0.0700641866396,2.11455258676,-0.598415176236,-0.901562711701,-0.200151237599,0.0148137507482,-0.160616572194,-0.026541451286,-0.0585636877597,-0.880791994473,0.573841866984,0.818934723779,0.00567245855832,0.0,0.818928984096,-0.573755779422,-0.0118478474223,0.0,-0.0064481319213,0.0114443519483,-0.99991372048,0.0,0.331295513233,-0.173055447719,0.304980402219,1.0,-0.206489714286,-0.271386481633,2.713
-0.354486877544,-0.515027922313,-0.137617236103,-2.63692194561,-0.0704306723086,2.11375097782,-0.61149372139,-0.913093417753,-0.178333568388,0.00618497235853,-0.13831258212,-0.0204417460237,-0.052850156732,-0.86878899449,0.573861102334,0.818920705126,0.00574985607921,0.0,0.818914991683,-0.573772972511,-0.0119816240274,0.0,-0.00651301337871,0.0115846543559,-0.99991168432,0.0,0.328195067991,-0.177089695724,0.304941582428,1.0,-0.202341142857,-0.265934073469,2.728
-0.36960283146,-0.517793577522,-0.137470501472,-2.63914155138,-0.0708302662821,2.1129857488,-0.626052037746,-0.87535929549,-0.158233296909,0.015547222543,-0.121378419938,-0.0185343168466,-0.0389052335335,-0.848747951104,0.573914839991,0.818882767499,0.0057893377997,0.0,0.818876795387,-0.573825165163,-0.0120921752765,0.0,-0.00658013292432,0.0116808581165,-0.999910125663,0.0,0.32476639021,-0.18157735333,0.304890908256,1.0,-0.197639428571,-0.259754677551,2.745
-0.384456100879,-0.520250351242,-0.137372634182,-2.64104897997,-0.0711821615898,2.11228903272,-0.640376857597,-0.881454227894,-0.132393535313,0.00269142226506,-0.105527108859,-0.0140731171167,-0.0439330616705,-0.839928449576,0.574017211465,0.818810460159,0.00586670072801,0.0,0.818805091103,-0.573926464606,-0.0121401363445,0.0,-0.00657354237994,0.0117725582936,-0.999909093574,0.0,0.321415624436,-0.185988761982,0.304870898919,1.0,-0.192937714286,-0.253575281633,2.762
-0.398043843599,-0.522298103047,-0.137154971848,-2.64257016121,-0.0714398001577,2.11168608979,-0.653635295014,-0.850160294116,-0.124123873472,0.00859535796241,-0.0897859749301,-0.0139770268268,-0.0284771074373,-0.819599257534,0.57393372629,0.818868627443,0.00591571784956,0.0,0.818863985915,-0.573842945075,-0.0121158516484,0.0,-0.00652672351624,0.0117980913314,-0.999909099329,0.0,0.318387582226,-0.189976397508,0.304885703295,1.0,-0.188512571429,-0.247759379592,2.778
-0.413266022942,-0.52435249386,-0.137006679577,-2.6440245605,-0.0717227920393,2.1110771221,-0.668306963236,-0.839838723465,-0.109125295859,0.0116085438318,-0.0762571900106,-0.0132622405282,-0.0283699500646,-0.80493986272,0.574073163083,0.818770270346,0.0059995606088,0.0,0.818767246947,-0.573982958832,-0.012021031515,0.0,-0.00639894087285,0.0118134227529,-0.999909744226,0.0,0.314998074859,-0.194465596681,0.304929724707,1.0,-0.183534285714,-0.241216489796,2.796
-0.426283481111,-0.52581696301,-0.136766556968,-2.64509690587,-0.0718936860156,2.11064633601,-0.681078605509,-0.80923552403,-0.0878842590051,0.00530579058687,-0.060145788691,-0.0152217332136,-0.0249646254212,-0.800436957325,0.573971178928,0.818841412729,0.00604759967112,0.0,0.818839318706,-0.573881362017,-0.0119624149897,0.0,-0.00632483782634,0.0118183213683,-0.999910157817,0.0,0.311950856161,-0.198496958594,0.304949173992,1.0,-0.178832571429,-0.235037093878,2.813
-0.439257864682,-0.527069713511,-0.136630538164,-2.64602514098,-0.0720664423336,2.1102365575,-0.693591482623,-0.799954970458,-0.0705004081778,0.0129287042709,-0.0563763926715,-0.0133060298357,-0.0351680926853,-0.778978622192,0.574122635702,0.818734794285,0.00610595638268,0.0,0.818733435241,-0.574032501721,-0.0119580887842,0.0,-0.00628560696046,0.0118647885293,-0.999909854906,0.0,0.309244897293,-0.202058796478,0.304952743918,1.0,-0.174684,-0.229584685714,2.828
-0.453224325912,-0.528190447326,-0.136303440655,-2.64688716128,-0.0721756330744,2.10986496994,-0.707325037337,-0.771644799877,-0.0538935679096,0.0182981481254,-0.0413726859166,-0.00527506410227,-0.0165095176296,-0.754905333302,0.573985611578,0.818830702767,0.00612738191824,0.0,0.818829555256,-0.573895290668,-0.0119625118961,0.0,-0.00627891728439,0.0118838199181,-0.999909670931,0.0,0.306168563066,-0.206079729639,0.304947184533,1.0,-0.169705714286,-0.223041795918,2.846
-0.466370078018,-0.528954739798,-0.136098830615,-2.64749527759,-0.0722915652955,2.10955592234,-0.719999491176,-0.759442104599,-0.0381244579731,0.0243119722161,-0.032726461938,-0.00787683321124,-0.0185321372271,-0.7391574468,0.574142471415,0.818720542589,0.00615163076131,0.0,0.81871933518,-0.574051304835,-0.0120206705237,0.0,-0.00631033972162,0.0119382663783,-0.999908824548,0.0,0.30326101847,-0.209893942962,0.304928693282,1.0,-0.165004,-0.2168624,2.863
-0.47888280505,-0.529465156805,-0.135788715503,-2.64792448959,-0.0723168598911,2.10934363323,-0.732385908988,-0.72958651173,-0.0246133824575,0.0193383639606,-0.0212853732341,-0.00214622587426,-0.0111088623152,-0.717767516667,0.573991670657,0.818826111822,0.00617312853326,0.0,0.818824922449,-0.573899948089,-0.0120558227037,0.0,-0.00632898613712,0.011974883861,-0.999908268838,0.0,0.30052503921,-0.213487515351,0.304909764554,1.0,-0.160302285714,-0.210683004082,2.88
-0.491359492288,-0.529800379525,-0.13559177444,-2.64822142055,-0.0723501584859,2.10913427073,-0.744433705608,-0.726559155041,-0.0137787753467,0.0160449452131,-0.0170149257266,-0.00226614879954,-0.0169390682315,-0.703275624472,0.574172811147,0.818698737057,0.0062215578195,0.0,0.818697616041,-0.574079769416,-0.0121399644965,0.0,-0.00636742571547,0.0120642443712,-0.99990695062,0.0,0.297764289605,-0.217090747077,0.30488428054,1.0,-0.155600571429,-0.204503608163,2.897
-0.502479970202,-0.529952578554,-0.135267375974,-2.64835533806,-0.0723458087519,2.10901595866,-0.755525729602,-0.696136399708,-0.00752416545874,0.0136039919579,-0.0080831600638,-0.00104081859482,-0.00985060077842,-0.68507182177,0.573961610068,0.81884689954,0.00621065074189,0.0,0.8188455394,-0.573868480212,-0.0121530623345,0.0,-0.0063875236898,0.0120611870968,-0.999906859316,0.0,0.295339541588,-0.220267676861,0.304877175637,1.0,-0.151175428571,-0.198687706123,2.913
-0.513600972562,-0.530014222181,-0.135063709858,-2.64842991216,-0.0723490621708,2.10890302048,-0.766287298634,-0.701786052168,-0.000655421839411,0.0113091135165,-0.00302016758843,-0.000586042530501,-0.00768167824668,-0.665456270027,0.5741068346,0.818744855166,0.00624111412725,0.0,0.818743571007,-0.574012926006,-0.0122013365746,0.0,-0.00640742472766,0.0121149760372,-0.999906081722,0.0,0.292871821496,-0.223460433161,0.304861341973,1.0,-0.146750285714,-0.192871804082,2.929
-0.52678030488,-0.52992547093,-0.134669102886,-2.648365586,-0.0723351857928,2.10886874769,-0.779322354471,-0.646935620256,0.0083570722101,0.0196506379179,0.00806200481121,-0.000596403282698,0.00151005777932,-0.642378903783,0.573956456699,0.818850570185,0.00620293661237,0.0,0.818849067232,-0.573863283378,-0.0121607559292,0.0,-0.00639832754316,0.0120592454209,-0.99990681366,0.0,0.289985349753,-0.227214760574,0.304865390551,1.0,-0.141218857143,-0.185601926531,2.949
-0.535838511482,-0.529781440643,-0.134467383825,-2.64825145008,-0.072325098043,2.10886955346,-0.788153792555,-0.643445968977,0.0131925950013,0.0132751093038,0.00566422465088,0.00365974601439,0.000793488626411,-0.61923297863,0.574010781636,0.81881250029,0.00620151882934,0.0,0.818811202948,-0.573918025916,-0.0121268444651,0.0,-0.00637057104615,0.0120390443519,-0.999907234315,0.0,0.287980210751,-0.229807917404,0.304869947216,1.0,-0.137346857143,-0.180513012245,2.963
-0.545924655224,-0.529500737296,-0.13420215177,-2.6480246717,-0.0723076262711,2.10889350118,-0.797983133999,-0.616809493068,0.0230086356,0.0241079114967,0.016992155305,0.00128070754452,0.0034942918835,-0.605199282765,0.574054445084,0.81878211626,0.00617147251234,0.0,0.818780719065,-0.573962364399,-0.0120865728323,0.0,-0.00635419906499,0.0119916644383,-0.999907907829,0.0,0.285754692148,-0.232688790204,0.304879409183,1.0,-0.132921714286,-0.174697110204,2.979
-0.556643077985,-0.529002973368,-0.133819118626,-2.64766847222,-0.0722292293379,2.10893782131,-0.808658401304,-0.59966983852,0.029102352823,0.0186576061628,0.0201696768501,0.000517279371085,0.00426770634638,-0.591248279676,0.573873581876,0.818909248252,0.00612389201326,0.0,0.818907136263,-0.57378157108,-0.0121061045292,0.0,-0.00640014780146,0.0119625027554,-0.999907964083,0.0,0.283409841209,-0.235723281363,0.304873190321,1.0,-0.127943428571,-0.168154220408,2.997
-0.567250541983,-0.528424424433,-0.133558339923,-2.64722715299,-0.0721355862896,2.10902725815,-0.818940287347,-0.586900846453,0.0335835732473,0.0135333619335,0.0258607220217,0.00341970368653,0.00591320651058,-0.560016921049,0.574010319745,0.818813309489,0.00613709477082,0.0,0.818811473344,-0.57391841626,-0.0120900578347,0.0,-0.00637743134151,0.0119651719414,-0.99990807729,0.0,0.281190616118,-0.238587700432,0.304875273239,1.0,-0.123241714286,-0.16197482449,3.014
-0.575552671093,-0.527785158972,-0.133236161131,-2.6467592253,-0.0719866595524,2.10914398367,-0.82727118818,-0.540767778232,0.0457777932797,0.0207923438624,0.0296120870618,0.00557383193098,0.00921039321004,-0.535688093247,0.573860433162,0.818918367476,0.00613657583937,0.0,0.818916583152,-0.573768673752,-0.012078317838,0.0,-0.00637030399315,0.0119568426313,-0.999908222359,0.0,0.279266845283,-0.241108062741,0.304874132156,1.0,-0.118816571429,-0.156158922449,3.03
-0.585289424914,-0.526954214894,-0.132925839634,-2.64613872932,-0.0718057086764,2.10926354049,-0.836832137658,-0.540971849112,0.0517570272825,0.0171842312963,0.035775184149,0.0166467360156,0.00363001953796,-0.531130589877,0.573897564178,0.818892119624,0.00616677783906,0.0,0.818890548773,-0.573805325747,-0.0121022384917,0.0,-0.00637202044503,0.0119955922326,-0.999907747306,0.0,0.277134795411,-0.243879877774,0.304870513701,1.0,-0.113838285714,-0.149616032653,3.048
-0.593710986011,-0.52613798029,-0.132686948542,-2.64551909133,-0.0716397310517,2.10940157735,-0.845011534156,-0.515169054097,0.0564934506954,0.0166522885573,0.0421111507633,0.00639780249557,0.0111955947353,-0.511299896975,0.574032773791,0.81879706408,0.00620398011348,0.0,0.818795942351,-0.573940273889,-0.0121042842969,0.0,-0.00635036066369,0.0120282812147,-0.999907492406,0.0,0.27528680268,-0.246291221972,0.304871421996,1.0,-0.109413142857,-0.143800130612,3.064
-0.601519607898,-0.525209255123,-0.132306191393,-2.64487041914,-0.0714310988929,2.10955115949,-0.852853133828,-0.475994309974,0.0664914070511,0.0243357499951,0.0442884233172,0.0151995485487,0.0124437985556,-0.482989034159,0.573862414244,0.818916516479,0.00619802034646,0.0,0.818914834569,-0.573769067519,-0.0121777576898,0.0,-0.00641645808789,0.0120642405086,-0.999906637225,0.0,0.273609569894,-0.248491491585,0.30484868878,1.0,-0.104988,-0.137984228572,3.08
-0.609648863276,-0.52426890302,-0.131981334374,-2.64417517329,-0.0712248470402,2.10971188755,-0.860846870432,-0.473514560878,0.05639896513,0.019498140541,0.0443852740841,0.00760160029545,0.00860727719971,-0.4628728769,0.57387061851,0.818910632206,0.00621583237169,0.0,0.818908987226,-0.573776820368,-0.0122056524187,0.0,-0.00642896178197,0.0120948991594,-0.999906186532,0.0,0.271835252611,-0.250793229388,0.304842110485,1.0,-0.100286285714,-0.131804832653,3.097
-0.617954947221,-0.52324461403,-0.131653936136,-2.6433576561,-0.0710048741399,2.1099117745,-0.868923079222,-0.451660915701,0.0597300404073,0.0215129545802,0.0434337684899,0.0105148218195,0.0116906431122,-0.440024635337,0.573966287945,0.818843482123,0.00622888332246,0.0,0.818842321375,-0.573873001582,-0.0121563843878,0.0,-0.00637971098258,0.0120780606413,-0.999906705518,0.0,0.270031909937,-0.253162794598,0.304863417465,1.0,-0.0953080000001,-0.125261942857,3.115
-0.624397958226,-0.522315438114,-0.131354765752,-2.64264441132,-0.0707770308944,2.11008520207,-0.875341730327,-0.420255340766,0.0585821341376,0.0196500679088,0.045082549969,0.0139058672394,0.0143566234533,-0.424364063941,0.57391112605,0.818881930493,0.00625701283907,0.0,0.81888113336,-0.573817717214,-0.0121516970164,0.0,-0.00636054274784,0.0120979768068,-0.999906586864,0.0,0.268652005845,-0.25499637835,0.304868956622,1.0,-0.0911594285715,-0.119809534694,3.13
-0.631770198154,-0.521239554359,-0.130967428432,-2.64183701538,-0.0705274331946,2.11029663228,-0.882686542347,-0.415680867691,0.058774079208,0.023626455604,0.0451081687413,0.0129612881834,0.00456588958315,-0.391790535748,0.573810359513,0.818952533754,0.00625824854386,0.0,0.818951711323,-0.57371688824,-0.0121562153053,0.0,-0.00636502299115,0.0121007986074,-0.999906524209,0.0,0.267066548151,-0.257075862298,0.304868531057,1.0,-0.0861811428572,-0.113266644898,3.148
-0.638536904955,-0.520240303972,-0.130645206933,-2.64103804183,-0.0703073535628,2.11049905031,-0.889221280708,-0.387017803184,0.0604692088996,0.0184951512725,0.047392071178,0.0121569625068,0.011160678161,-0.378966452438,0.573909526298,0.818883044144,0.00625799803781,0.0,0.818882531213,-0.573816630421,-0.0121087418053,0.0,-0.00632482177545,0.0120741200113,-0.999907101813,0.0,0.265603813284,-0.258999945908,0.304889662978,1.0,-0.0814794285715,-0.10708724898,3.165
-0.64450076359,-0.519269152263,-0.130391079972,-2.64029168895,-0.0700683120655,2.11069354516,-0.895096684958,-0.368612664272,0.0586170026044,0.0159402535971,0.0437110778625,0.0159308094527,0.0176065562574,-0.365544946889,0.573944565119,0.818858107901,0.00630731299322,0.0,0.818858283239,-0.573851527107,-0.012094780274,0.0,-0.00628456869499,0.0121067619867,-0.999906960927,0.0,0.264311065129,-0.260702440474,0.304894554327,1.0,-0.0770542857144,-0.101271346939,3.181
-0.650763692056,-0.518204344848,-0.130037701853,-2.63948923819,-0.0697976296829,2.11090126086,-0.901306571512,-0.332830025664,0.0590799350381,0.0212620245293,0.0446067074324,0.0168364079157,0.00339393704902,-0.350422981059,0.573896628056,0.818891512313,0.00633231932352,0.0,0.818891936596,-0.573803339052,-0.0121025274979,0.0,-0.00627727193074,0.0121313185215,-0.999906709132,0.0,0.262966549695,-0.262467243056,0.304893717871,1.0,-0.0720760000001,-0.0947284571429,3.199
-0.655996920334,-0.517296551701,-0.129682421288,-2.63882466759,-0.0695763842398,2.11107807693,-0.906454175485,-0.32262722217,0.056685783406,0.0270417015165,0.041948078158,0.0131983100845,0.0096847178335,-0.313718083766,0.573845263887,0.818927595221,0.00632090198511,0.0,0.818927690569,-0.573751690901,-0.0121318468787,0.0,-0.00630859744805,0.0121383982403,-0.999906426065,0.0,0.261845849531,-0.263922760805,0.304885113575,1.0,-0.0676508571429,-0.0889125551021,3.215
-0.661311867792,-0.516348413124,-0.129355922367,-2.63809782994,-0.0693360999171,2.11128500806,-0.911609006626,-0.304272925576,0.0642615617579,0.0169473797392,0.0452129598215,0.0174445343699,0.00802780493848,-0.294174496472,0.5738863541,0.818898738636,0.00632892867569,0.0,0.818899086656,-0.573793020796,-0.0121079337772,0.0,-0.00628379757697,0.0121315654533,-0.999906665148,0.0,0.260708805297,-0.265418985581,0.304891506256,1.0,-0.0629491428572,-0.0827331591838,3.232
-0.666179402226,-0.515379326427,-0.12904831999,-2.63738534595,-0.0690832537641,2.11148975424,-0.916383650966,-0.277698722987,0.0514341056976,0.021791351632,0.0389083070451,0.0154593695633,0.0176762264741,-0.270262326225,0.573890348176,0.818895726559,0.00635642941483,0.0,0.818896320961,-0.573796671683,-0.0121219628801,0.0,-0.00627944645681,0.0121621683195,-0.999906320719,0.0,0.259675760537,-0.26679261541,0.304882706589,1.0,-0.0582474285715,-0.0765537632654,3.249
-0.670797835118,-0.514515889684,-0.128800983162,-2.63675160672,-0.0688693087155,2.1116680237,-0.920821737509,-0.266079084391,0.0509175797148,0.0170163934387,0.0378064349989,0.0154793557953,0.00696323073111,-0.256824700138,0.573987730981,0.818827225013,0.00638804837542,0.0,0.818828109205,-0.57389364939,-0.0121389318423,0.0,-0.00627374826951,0.0121985463773,-0.999905913348,0.0,0.258666042352,-0.268091994726,0.304873107205,1.0,-0.0535457142858,-0.070374367347,3.266
-0.674768143729,-0.513750890004,-0.12846516801,-2.63617646653,-0.0686463046088,2.11184084705,-0.924654532508,-0.239992272273,0.0487045504725,0.0205720562869,0.034490901748,0.0102094617692,0.00996223961183,-0.22733785155,0.573987566852,0.818827388531,0.00638183288225,0.0,0.818828276988,-0.573893679924,-0.0121261638622,0.0,-0.00626686218724,0.0121861271342,-0.999906107964,0.0,0.25783365745,-0.269186267661,0.304874703543,1.0,-0.0491205714286,-0.0645584653062,3.282
-0.67853758519,-0.512980339571,-0.128049523538,-2.63558312159,-0.068426460022,2.11200774945,-0.928377628846,-0.218028561623,0.0440930364891,0.0228678550255,0.0334852067452,0.00522184544935,0.00626371169603,-0.223003917013,0.57385528239,0.818920497767,0.00633088549513,0.0,0.818920847775,-0.573761901613,-0.0121108314283,0.0,-0.00628550821655,0.0121345923346,-0.999906617668,0.0,0.257071920121,-0.270213512434,0.304883718036,1.0,-0.0444188571429,-0.0583790693878,3.299
-0.68202783048,-0.512268783251,-0.127697636099,-2.63505121583,-0.0682099387733,2.112161635,-0.931787416639,-0.19654673508,0.0395695631615,0.0206276426999,0.0308336397424,0.00919334037827,0.00601412235806,-0.19754009642,0.573791486501,0.818965330553,0.00631381599444,0.0,0.818965468265,-0.573698216925,-0.0121105156003,0.0,-0.00629598865108,0.0121199413675,-0.999906729424,0.0,0.256352914367,-0.271163818278,0.30488379318,1.0,-0.0397171428572,-0.0521996734695,3.316
-0.685070909638,-0.511642859673,-0.127427609566,-2.63458548248,-0.0679994635941,2.11230205917,-0.934630678773,-0.182883071301,0.0431083550847,0.0158867210994,0.0232806489122,0.0166817843991,0.0155603592779,-0.173987625427,0.573877472096,0.818904931313,0.00633303976056,0.0,0.818905349002,-0.573784153143,-0.0121046222024,0.0,-0.00627885784483,0.0121329637227,-0.999906679213,0.0,0.255718179772,-0.271997859454,0.304882222341,1.0,-0.0352920000001,-0.0463837714287,3.332
-0.687937763125,-0.511066308321,-0.127156885803,-2.63415157853,-0.06778022806,2.11242857907,-0.937283549066,-0.156747155609,0.0340084740674,0.0166231963483,0.0205887955804,0.0123995301232,0.00691338000949,-0.144662566042,0.573986577848,0.818828207898,0.00636563442693,0.0,0.818829044208,-0.573893074532,-0.0121029858775,0.0,-0.006257193194,0.0121595519082,-0.999906492043,0.0,0.255089063254,-0.272814432998,0.304879074079,1.0,-0.0303137142858,-0.0398408816327,3.35
-0.690420876294,-0.510573886407,-0.126861296585,-2.63378483576,-0.0675703332781,2.11254300726,-0.93964656424,-0.139988808017,0.0220998995279,0.0182479734915,0.021666148917,0.0122262096811,0.00309616400855,-0.135050070301,0.573966767995,0.818842041474,0.00637238200028,0.0,0.818843143011,-0.573873583587,-0.0120732807066,0.0,-0.00622928805973,0.0121478770961,-0.999906808184,0.0,0.254591393617,-0.27346567215,0.304888636859,1.0,-0.0256120000001,-0.0336614857144,3.367
-0.692565418051,-0.510187751292,-0.126538343662,-2.63346950451,-0.0673684321256,2.11262463597,-0.941628315497,-0.116056238424,0.0193677208907,0.0107719077051,0.0215734261448,0.0132546305497,0.00529961208569,-0.113113540556,0.573979129162,0.818833399671,0.0063694404481,0.0,0.818834602451,-0.573886227601,-0.01205149365,0.0,-0.00621295098443,0.0121330576665,-0.99990708976,0.0,0.254197646549,-0.273977260086,0.304899095918,1.0,-0.0211868571429,-0.0278455836736,3.383
-0.694365919401,-0.509820573833,-0.126252306045,-2.63318294608,-0.0671713149841,2.11270874283,-0.94324441813,-0.105231443505,0.020084118807,0.0156264607649,0.0187750868434,0.0111406119286,0.00749436918053,-0.0913611603832,0.574025446641,0.818800867592,0.00637751832116,0.0,0.818802312924,-0.573932767576,-0.012029029613,0.0,-0.00618923230498,0.0121271293332,-0.999907308773,0.0,0.2538558038,-0.274437450647,0.304907180906,1.0,-0.0197272727273,-0.0259272727273,3.4
-0.695965978281,-0.509483299351,-0.126046148737,-2.63293314391,-0.0670249885095,2.11277747318,-0.944805558652,-0.0935895001594,0.0195719789709,0.00869396748562,0.00856861292972,0.00873994857627,0.00722233038532,-0.0933907935338,0.573985975846,0.818828453915,0.00638823076755,0.0,0.818830007973,-0.573893197527,-0.0120317404009,0.0,-0.00618588830618,0.0121371589834,-0.999907207774,0.0,0.253535343937,-0.274856589801,0.304906377899,1.0,-0.0193872727273,-0.0254804155844,3.417
-0.697414793406,-0.509186647485,-0.125886335919,-2.63268941651,-0.0669335089685,2.11280864886,-0.946246593891,-0.0874457842738,0.0166482161561,0.0143002392753,0.0186347725889,0.000708220805335,0.000520557673927,-0.0842845656423,0.5739301048,0.818867697122,0.00637779865407,0.0,0.818869047533,-0.573837252472,-0.0120431544548,0.0,-0.00620205110668,0.012134744439,-0.999907136958,0.0,0.25323384233,-0.275245673142,0.304913510698,1.0,-0.0190672727273,-0.0250598441559,3.433
-0.698888959442,-0.508833248887,-0.125740212518,-2.63242646104,-0.0668941459078,2.112907584,-0.947684035998,-0.0850194964722,0.0166484795476,0.00632554306891,0.0166891634653,0.00141351104225,0.00742535018533,-0.0856947626309,0.573886450082,0.818898735646,0.00632060683692,0.0,0.818899458287,-0.573794088872,-0.0120319446754,0.0,-0.00622633731718,0.0120811441316,-0.999907635074,0.0,0.252929900797,-0.27566290844,0.304913713965,1.0,-0.0187272727273,-0.024612987013,3.45
-0.700362224547,-0.508466375499,-0.125669285658,-2.63216132047,-0.0668178981441,2.11298431847,-0.949200927569,-0.0819318013933,0.0205119212224,-0.000977134016018,0.0106158250497,0.00143433601059,0.0061265627413,-0.0840888470402,0.573846553391,0.818926573245,0.00633622091762,0.0,0.818927396934,-0.573753933269,-0.0120453107605,0.0,-0.00622891331713,0.0121012979544,-0.999907375324,0.0,0.252608408029,-0.276088891337,0.30490622589,1.0,-0.0183672727273,-0.0241398441559,3.468
-0.70162898561,-0.508150701078,-0.125630537888,-2.63195056225,-0.0667841636844,2.11301165708,-0.950427340326,-0.0791271266214,0.0178586375514,0.00537834206331,0.0145604575916,0.000812181567533,0.00668096214064,-0.0737345732844,0.573877495705,0.818904840408,0.0063426477125,0.0,0.818905304215,-0.573783980071,-0.0121158508944,0.0,-0.00628254025282,0.0121472758969,-0.999906482315,0.0,0.252313690395,-0.276452241737,0.304888017627,1.0,-0.0180472727273,-0.0237192727273,3.484
-0.702950577641,-0.507810474654,-0.125604667324,-2.63169507256,-0.0667313136672,2.11310030562,-0.951840714657,-0.0780409255952,0.0205305214954,5.94465606287e-05,0.0151301366798,0.00162557846317,0.0067162972017,-0.085486409284,0.573819682725,0.81894524096,0.00635695896373,0.0,0.818945957494,-0.573726242752,-0.0121022304848,0.0,-0.00626403048095,0.0121507378417,-0.99990655638,0.0,0.252020477083,-0.276850666571,0.304885907317,1.0,-0.0177072727273,-0.0232724155844,3.501
-0.704276860877,-0.507476601053,-0.125594871577,-2.63144715528,-0.0666875644088,2.11316341487,-0.953131920499,-0.0792378730874,0.0213249216179,7.79178066991e-05,0.00936191013521,0.00172521682187,0.00186683955006,-0.0718940398326,0.573872976377,0.81890775534,0.00637511798209,0.0,0.818908611494,-0.573779253126,-0.0121161712059,0.0,-0.00626423673712,0.0121740166346,-0.999906271936,0.0,0.251715408803,-0.277248495764,0.304880123031,1.0,-0.0173672727273,-0.0228255584416,3.518
-0.705508460258,-0.507182983386,-0.125600892039,-2.63123246112,-0.0666516782853,2.11318915455,-0.954385304915,-0.0748359536416,0.0217477631341,-0.00141826595281,0.0158373372659,0.000544408671588,0.000406540496005,-0.0734110101415,0.573885954359,0.818898441877,0.00640313844447,0.0,0.818899366706,-0.573791521374,-0.012159938726,0.0,-0.00628380930921,0.0122221793726,-0.999905561577,0.0,0.25141966288,-0.277612472223,0.304870614297,1.0,-0.0170472727273,-0.022404987013,3.534
-0.706776122472,-0.506883578771,-0.125595642304,-2.63098774722,-0.0666198573947,2.11325697296,-0.955669739792,-0.0776728588014,0.0190602524518,0.00125583882361,0.0118251292729,0.000486564643221,0.00826507589768,-0.0669817279211,0.573894595843,0.818892331335,0.0064101048242,0.0,0.818893470409,-0.573800368717,-0.0121395173906,0.0,-0.00626295776702,0.0122162316121,-0.999905765082,0.0,0.251128286744,-0.277997506967,0.304876406079,1.0,-0.0167072727273,-0.0219581298701,3.551
-0.708020435035,-0.506589627072,-0.125597717665,-2.63074158164,-0.066579824227,2.11331905008,-0.956864162935,-0.0741459499066,0.0178017808552,-0.000872199943266,0.0144100843156,0.00305549017534,0.00459859624242,-0.0685291301608,0.573966608216,0.818841730487,0.00642650515627,0.0,0.8188432191,-0.573872554191,-0.0121169707896,0.0,-0.006234006425,0.012217272016,-0.99990593329,0.0,0.250841476698,-0.278376774517,0.304884199146,1.0,-0.0163672727273,-0.0215112727273,3.568
-0.709163621081,-0.506315514133,-0.125582123614,-2.63052602576,-0.0665422806361,2.11336418003,-0.958071168422,-0.067615188162,0.0168167609246,-0.00121722547657,0.0106727638696,0.00131709392476,0.00364011814335,-0.0755559823972,0.573930353156,0.818867038831,0.00643966962482,0.0,0.818868650606,-0.573836151106,-0.0121223611449,0.0,-0.00623140671639,0.0122308700712,-0.999905783255,0.0,0.250577529448,-0.278716523713,0.30488441285,1.0,-0.0160472727273,-0.0210907012987,3.584
