nelsonifechukwu/NELSON_IML_WORK/CNN-GradCAM/train2dof/data_sample_2022-02-22-09-11-54/robot_state.csv
position_joint1,position_joint2,position_joint3,position_joint4,position_joint5,position_joint6,position_joint7,velocity_joint1,velocity_joint2,velocity_joint3,velocity_joint4,velocity_joint5,velocity_joint6,velocity_joint7,ee_T_00,ee_T_10,ee_T_20,ee_T_30,ee_T_01,ee_T_11,ee_T_21,ee_T_31,ee_T_02,ee_T_12,ee_T_22,ee_T_32,ee_T_03,ee_T_13,ee_T_23,ee_T_33,v_x,v_y,time
0.46506626972,0.547832797942,-0.123994533256,-1.35583369173,0.0795439080122,1.89410850798,0.159151630805,0.000645686012295,0.00082078289685,0.000213176481441,0.000371820377169,-9.91278453492e-05,-6.07169424724e-05,0.00112950942982,0.573821652592,0.818966264677,0.00192749564179,0.0,0.818922456184,-0.573762813719,-0.0119578949466,0.0,-0.00868735449343,0.00844033100755,-0.999926642652,0.0,0.661677984654,0.260888976052,0.303178460233,1.0,0.0,0.0,0.0
0.465068318901,0.547829665378,-0.123992538621,-1.3558331329,0.079544403448,1.8941039148,0.159146952691,0.000682822759735,0.00138692847809,0.000882941579306,0.00175022748202,-0.000385068347128,-0.000311264825595,-0.000230565744576,0.573814812843,0.818971056262,0.00192781414269,0.0,0.818927231059,-0.573755953199,-0.0119600710941,0.0,-0.00868902450655,0.00844176798454,-0.999926616011,0.0,0.661676259139,0.260891362092,0.303180481298,1.0,-0.00024,-0.000315428571429,0.013
0.4650661041,0.5478243568,-0.123997392641,-1.35584143116,0.0795425402763,1.89410422652,0.159152444447,0.000403525769052,0.00191009536345,0.000883558274682,-0.000514999308255,4.79612987684e-05,-2.27341221713e-05,0.00115528365325,0.573820506276,0.818967070456,0.00192639206318,0.0,0.818923246145,-0.573761670814,-0.011958634096,0.0,-0.00868860488603,0.00843983920614,-0.999926635939,0.0,0.661675686093,0.260888957949,0.303180237703,1.0,-0.0006,-0.000788571428571,0.031
0.465062372238,0.547790347977,-0.123992814412,-1.35586574325,0.0795443128272,1.89411162465,0.159152444392,-0.000801667743296,-0.00668027141843,-6.3952834189e-05,-0.000405030916035,0.000140928674145,0.00514747471658,0.000647349099738,0.573826114365,0.818963105048,0.0019416343605,0.0,0.818919440593,-0.573767176144,-0.0119550951264,0.0,-0.00867690281898,0.008450350603,-0.999926648776,0.0,0.661672983559,0.26088442564,0.303193492071,1.0,-0.00092,-0.00120914285714,0.047
0.465065181897,0.54770248445,-0.12399274426,-1.35597346275,0.0795420076335,1.89413526084,0.159147022532,-0.000947399939925,-0.0136527073132,-0.00095808505086,-0.0129526386903,0.00012550420732,0.00235720643183,0.000187482340665,0.573829495146,0.818960707855,0.00195355850098,0.0,0.818917153933,-0.573770462559,-0.0119540031103,0.0,-0.00866913159181,0.00845952500949,-0.999926638606,0.0,0.661654644918,0.260870786049,0.303212185871,1.0,-0.00126,-0.001656,0.064
0.465061967392,0.54758701581,-0.123997489748,-1.35614430374,0.0795376505118,1.89416247401,0.159145530147,0.000635341642255,-0.0069156615489,0.00126571447267,-0.0151109334265,0.000107714090567,0.00095326564923,0.0102124330593,0.573837486471,0.818955169687,0.0019277095906,0.0,0.818911184154,-0.573778470061,-0.011978591824,0.0,-0.00870401901959,0.00845255070511,-0.999926394511,0.0,0.661626185968,0.260853425459,0.303209510001,1.0,-0.00154,-0.002024,0.078
0.465040425949,0.547405687305,-0.123994649531,-1.35638385033,0.0795359584121,1.89427701049,0.159142153437,0.000474254618003,-0.0116659848621,0.00155878453442,-0.0164716884216,0.000244525780675,0.015041864363,-0.000178090062613,0.573863485575,0.818936820366,0.00198269347137,0.0,0.818893459652,-0.573804143882,-0.0119604809122,0.0,-0.00865736715948,0.00848746139154,-0.999926503796,0.0,0.661603962306,0.260822278441,0.303233792781,1.0,-0.00194,-0.00254971428571,0.098
0.465024307421,0.547221901538,-0.12400236889,-1.35658864621,0.0795350683686,1.89438883457,0.159129250106,-0.000284420743656,-0.0156160012743,-0.00129622177551,-0.0169865294761,-0.000160127844922,0.000808627278465,-0.00255576871272,0.573882907741,0.818923008699,0.00206420161303,0.0,0.818880700763,-0.573823216004,-0.0119189594586,0.0,-0.00857638845439,0.00853058621497,-0.999926834653,0.0,0.661590193271,0.260792716785,0.303276463989,1.0,-0.00226,-0.00297028571429,0.114
0.465006946574,0.547008255436,-0.123998452437,-1.35685655302,0.0795298664509,1.89451725125,0.159112450549,0.000155978393556,-0.0153872082302,-0.0010848344036,-0.0182826377563,-0.000440372427713,0.00624137100435,-0.00101693075477,0.573894381572,0.81891478902,0.00213401636454,0.0,0.818873316682,-0.573834330608,-0.0118911371286,0.0,-0.00851342011052,0.00857191088273,-0.999927019348,0.0,0.661563927707,0.260762391686,0.303311287649,1.0,-0.0026,-0.00341714285714,0.131
0.464978227799,0.546781804131,-0.123997105823,-1.35721515557,0.0795217190713,1.89464199889,0.159100035707,-0.00290757126543,-0.0127872087063,1.54622653718e-05,-0.0214659675235,6.31198907161e-05,0.00499070029034,0.00070269611266,0.573924663064,0.818893564004,0.00213514873946,0.0,0.818851967573,-0.573864463967,-0.0119071028993,0.0,-0.00852552808616,0.00858231600211,-0.999926826934,0.0,0.661520152925,0.260711725706,0.303311762697,1.0,-0.00294,-0.003864,0.148
0.464939953429,0.546520636299,-0.123992791936,-1.35758667973,0.0795134520103,1.89479536134,0.159007437786,-0.00274988981929,-0.0177530037432,0.000266432661295,-0.021748417428,-0.000208876506455,0.0126171457605,-0.00739172009891,0.573895834391,0.818913647095,0.00218100241426,0.0,0.818872518558,-0.573835323125,-0.0118982009553,0.0,-0.00849222641474,0.00861445675993,-0.999926833936,0.0,0.661481836813,0.260657311304,0.303333048337,1.0,-0.00326,-0.00428457142857,0.164
0.464896153677,0.546210938604,-0.123998035158,-1.35809345143,0.0795022716955,1.89496840584,0.158945263059,-0.00388139064618,-0.0180815760189,6.58868577181e-05,-0.0316114822271,-0.000302066606792,0.00329559086572,-0.000951589957857,0.573909775995,0.818903906257,0.00216984720743,0.0,0.818862459208,-0.573849132577,-0.0119244639906,0.0,-0.00851998924034,0.00862053885019,-0.999926545349,0.0,0.661421442572,0.260579145792,0.303326329297,1.0,-0.00362,-0.00475771428571,0.182
0.464847743199,0.545881224025,-0.12399814168,-1.3586313743,0.0794768537244,1.89515488361,0.158898766181,-0.000630320906663,-0.0251993526395,-0.000202411186495,-0.0316490489182,-0.00381107393545,0.0171246820637,-0.00551495223814,0.573934698809,0.818886478917,0.00215477393809,0.0,0.818844751014,-0.573874028374,-0.011942369754,0.0,-0.00854304079769,0.00861873165394,-0.999926364248,0.0,0.661357876419,0.260496077689,0.303319905271,1.0,-0.00396,-0.00520457142857,0.199
0.464785547903,0.545579548271,-0.123995870423,-1.35917068195,0.0794002626922,1.89532929325,0.158796107877,-0.00434670044583,-0.0215443700604,-0.00229610112099,-0.0367461424362,-0.0107887644772,0.00849712762864,-0.0029406277194,0.57390967852,0.818904215,0.00207712709711,0.0,0.818861812241,-0.573849668216,-0.01194310023,0.0,-0.00858846177749,0.00855530558867,-0.999926519836,0.0,0.661296696768,0.260395628048,0.303291728115,1.0,-0.00426,-0.00559885714286,0.214
0.464721469052,0.545181218478,-0.123997863018,-1.35986319492,0.0793476757436,1.89553650772,0.158744486956,-0.00409404202333,-0.0231874124583,0.00106287933833,-0.042893339671,9.17428824968e-05,0.0118499754773,-0.000660478532974,0.57394504676,0.818879640095,0.0019912908759,0.0,0.81883611146,-0.573885384056,-0.0119889714662,0.0,-0.0086749189293,0.00851171554326,-0.999926145513,0.0,0.66120380302,0.26027687287,0.303256560057,1.0,-0.00462,-0.006072,0.232
0.464647754963,0.544725556574,-0.123992838109,-1.36061025529,0.0793304481844,1.89579901881,0.158619828619,-0.00685576338593,-0.02535148649,0.00173058693503,-0.0466624097935,-0.000956086882154,0.0200640677494,-0.00820965239037,0.573937546365,0.818884903659,0.00198855068044,0.0,0.818841065842,-0.573877628138,-0.0120218016389,0.0,-0.00870345469744,0.00852823448912,-0.99992575679,0.0,0.661121061993,0.260167165622,0.303251621446,1.0,-0.00496,-0.00651885714286,0.249
0.464584194615,0.544330412504,-0.124004179967,-1.36127329797,0.0793084780099,1.89604289342,0.158552314269,-0.0060030932517,-0.0260820671483,-0.00010920015628,-0.0417744996082,-0.00254112919979,0.0140126265502,-0.00507806865645,0.573973432886,0.818859785714,0.00197397633904,0.0,0.818815640452,-0.573913457991,-0.0120431138003,0.0,-0.00872889805745,0.0085289142789,-0.999925529207,0.0,0.661047963005,0.260058049841,0.30323720744,1.0,-0.00526,-0.00691314285714,0.264
0.464507970611,0.543793951018,-0.124006904867,-1.36215630226,0.0792708420101,1.89634799544,0.158460634753,-0.00309853306767,-0.030843574409,-0.000645862902895,-0.0515801856105,-0.000543928940692,0.0128737830427,-0.00904650862784,0.574001785602,0.818839978117,0.00194608948766,0.0,0.818795297008,-0.573941760745,-0.0120774074596,0.0,-0.00877269093434,0.00852606652053,-0.999925170242,0.0,0.660942275124,0.259922922506,0.303223062824,1.0,-0.00562,-0.00738628571429,0.282
0.46443318547,0.543221415668,-0.1240179714,-1.36305597165,0.0792192227145,1.89665683447,0.158330811757,-0.00389682166111,-0.0323668491046,-0.00243059557984,-0.0473748524991,-0.00142917221482,0.017077624769,-0.00100196603572,0.574000656901,0.818840807487,0.00192996684307,0.0,0.818795902856,-0.573940690188,-0.0120872045246,0.0,-0.0087899790456,0.00851847628806,-0.999925083109,0.0,0.660836633322,0.259780410923,0.303227010943,1.0,-0.00598,-0.00785942857143,0.3
0.464356670205,0.542694476287,-0.12400911171,-1.36390914554,0.0791675543351,1.89695839255,0.158222511219,-0.00908822449757,-0.0311147240027,0.00148475847801,-0.0511470640384,-0.00176816705207,0.0198854714896,-0.00743970781728,0.574002049826,0.81883987623,0.00191070484838,0.0,0.818794644159,-0.57394209443,-0.0121057771254,0.0,-0.00881622884026,0.00851337969009,-0.999924895417,0.0,0.660734793729,0.259652726217,0.303219480977,1.0,-0.0063,-0.00828,0.316
0.464279900169,0.542094765903,-0.124016581796,-1.36483315955,0.0791166796705,1.89729851076,0.158095956152,-0.00154390317384,-0.0376953743683,-0.000456927169303,-0.054780029014,-0.00149547443172,0.019179932584,-0.00368115976142,0.574004286538,0.818838274665,0.00192506658497,0.0,0.818793213122,-0.573944250934,-0.0121003250445,0.0,-0.00880349787781,0.00852203397418,-0.999924933864,0.0,0.660629871001,0.259510713998,0.303233515701,1.0,-0.00664,-0.00872685714286,0.333
0.464202099511,0.541461724913,-0.124017239544,-1.365807147,0.0790590196139,1.89766459923,0.157957815707,-0.00127703610917,-0.0379256732826,-0.000832466453461,-0.0621214437459,-0.00105527352188,0.0171681996502,-0.00383519312955,0.573994058114,0.818845393446,0.00194673673035,0.0,0.8188006076,-0.573933921404,-0.012089903066,0.0,-0.00878263228007,0.00853368604059,-0.999925017975,0.0,0.660518409695,0.25936714645,0.303249268608,1.0,-0.00698,-0.00917371428571,0.35
0.464112812412,0.540821280233,-0.124014813826,-1.36679789972,0.0789955705484,1.89802511531,0.157843488121,-0.00487338299359,-0.0377150440703,-1.46031959264e-05,-0.063063985973,-0.00624539385969,0.0170388435538,-0.00674518306585,0.574009802902,0.818834339386,0.00195389765315,0.0,0.81878965245,-0.573949638082,-0.0120857306873,0.0,-0.00877494139726,0.00853732344001,-0.999925054448,0.0,0.660404584955,0.259214581371,0.303261590981,1.0,-0.0073,-0.00959428571429,0.366
0.4640205187,0.540091536998,-0.124017735856,-1.36790776388,0.0789300590598,1.89843545722,0.157700224762,-0.00671684785302,-0.0394798358834,-0.000913951879162,-0.0678648514346,-0.00326315950039,0.0297520033037,-0.00790845650816,0.574014062259,0.818831291115,0.00197987920126,0.0,0.818786936996,-0.573953777305,-0.0120731198644,0.0,-0.00874965763821,0.00855140444536,-0.999925155686,0.0,0.66027747088,0.259047022113,0.303284734817,1.0,-0.00764,-0.0100411428571,0.383
0.463911642022,0.53934518128,-0.124017053937,-1.36904718295,0.0788714771248,1.89887565378,0.157558132878,-0.00697237341706,-0.0438289156619,-0.00029672332547,-0.0674700739152,-0.00423806400474,0.0246485695752,-0.00786917736033,0.574033877738,0.818817289365,0.00202502999815,0.0,0.818773448886,-0.573973320564,-0.0120587553618,0.0,-0.00871177191476,0.00858034009483,-0.999925238602,0.0,0.660152783526,0.258870467815,0.303307918017,1.0,-0.00798,-0.010488,0.4
0.463812071341,0.538628967698,-0.124026458031,-1.37016081416,0.0788042432128,1.8993049876,0.157419598211,-0.00813495150367,-0.0459792253116,-0.000406837251413,-0.0718394774945,-0.00614278046546,0.0268876004187,-0.0086170267498,0.574052243527,0.81880435451,0.00204881366146,0.0,0.818760888113,-0.573991644898,-0.0120393764021,0.0,-0.00868205905655,0.00858888488999,-0.999925423673,0.0,0.660031252859,0.258694747107,0.303321334132,1.0,-0.0083,-0.0109085714286,0.416
0.463692030701,0.537801444764,-0.124026896326,-1.37145915444,0.0787298226773,1.89980689014,0.157261030499,-0.00850384576379,-0.0432323096763,0.000153496062788,-0.0773981236693,-0.00224019853953,0.0308875977234,-0.00713289360225,0.574072892307,0.818789809593,0.00207579542791,0.0,0.818746680676,-0.574012161795,-0.0120273810511,0.0,-0.00865653188475,0.00860430970286,-0.999925512381,0.0,0.659887753923,0.258494024705,0.303331329128,1.0,-0.00866,-0.0113817142857,0.434
0.463576664722,0.536965851239,-0.124030803943,-1.37276066376,0.0786524289076,1.9002842944,0.15710550816,-0.00849336056181,-0.0510665782247,0.00025267390588,-0.0785726295342,-0.00176364824588,0.0279571370766,-0.00762899481755,0.574093708972,0.818775190897,0.00208494423093,0.0,0.818732172007,-0.574032927785,-0.0120239444884,0.0,-0.00864824730825,0.00861004757662,-0.999925534677,0.0,0.659738292958,0.258291984238,0.30334333866,1.0,-0.009,-0.0118285714286,0.451
0.463464815297,0.536116039703,-0.124042381013,-1.37407445106,0.0785816267588,1.90078254839,0.156941332142,-0.00191094090338,-0.0501333533067,-0.000348151302729,-0.0805717922913,-0.000124898542205,0.022282398321,-0.00690133286113,0.574112395777,0.818762010324,0.00211526975907,0.0,0.818719373996,-0.574051471384,-0.0120100685397,0.0,-0.00861928009195,0.00862710765429,-0.999925637747,0.0,0.65959070286,0.258089030982,0.303361454816,1.0,-0.00934,-0.0122754285714,0.468
0.463347934764,0.535219824527,-0.124048288357,-1.37549043353,0.0784952462036,1.90129085319,0.156776537179,-0.0043504143143,-0.0514098968999,0.00110098161909,-0.0806290766559,-0.00288776520754,0.022348630958,-0.00143885801601,0.574131845805,0.818748402484,0.00210332222412,0.0,0.818705607466,-0.574070966359,-0.0120166878946,0.0,-0.00863135397537,0.00862133088791,-0.999925583422,0.0,0.659423145711,0.257872716137,0.303364179214,1.0,-0.00968,-0.0127222857143,0.485
0.463227853647,0.534327221358,-0.124052779809,-1.37695632096,0.0784244025339,1.90182167179,0.156599702709,-0.00770215411675,-0.047230581703,-0.00152250311328,-0.0885795855373,0.000396245240673,0.0298363115667,-0.00467769257667,0.574149966497,0.818735768984,0.00207447786754,0.0,0.818692415895,-0.574089026177,-0.0120525964108,0.0,-0.00867712387336,0.00861852305582,-0.999925211494,0.0,0.659247664175,0.257653185338,0.30334238056,1.0,-0.01002,-0.0131691428571,0.502
0.46310431697,0.533454638419,-0.124050681747,-1.3783531798,0.0783347085413,1.90234007589,0.156420316455,-0.0123134471644,-0.0538436112477,-0.00325446247653,-0.0898449481003,-0.00357240405816,0.0370447884376,-0.0114611422846,0.57415519306,0.818732125255,0.0020659763159,0.0,0.818688679736,-0.574094306837,-0.0120548509246,0.0,-0.00868379566608,0.0086129125076,-0.999925201918,0.0,0.659085310194,0.2574392771,0.303337800528,1.0,-0.01034,-0.0135897142857,0.518
0.462971984058,0.532505140831,-0.124052596714,-1.37987870241,0.0782599957596,1.90291105737,0.156226309553,-0.00830208822785,-0.0572191100905,-0.000369348844368,-0.0895354739233,-0.00600537091269,0.0293202413866,-0.0141083002684,0.574163764284,0.818726123275,0.0020624624284,0.0,0.818682447026,-0.574102708831,-0.0120779777205,0.0,-0.00870465820077,0.00862340496801,-0.999924930088,0.0,0.65889379614,0.257198288853,0.303324004544,1.0,-0.0107,-0.0140628571429,0.536
0.462845061107,0.531533211546,-0.124052726694,-1.38145757545,0.078168609433,1.90348313878,0.156016823087,-0.00351046188191,-0.0581769264375,-0.00126657361545,-0.0928169786735,-0.00789618460271,0.0424013304994,-0.0156236077944,0.574163561375,0.818726319397,0.00204098449512,0.0,0.818682298371,-0.574102535365,-0.0120962854699,0.0,-0.00873198102558,0.00861633011328,-0.99992475285,0.0,0.658716753053,0.256974647706,0.303313969594,1.0,-0.01102,-0.0144834285714,0.552
0.462709888911,0.530582794342,-0.124053148889,-1.38300199042,0.0780707636761,1.90402039991,0.15582708102,-0.0098711190424,-0.0566405909766,0.000872695813762,-0.0954236107459,-0.00983203303486,0.0315493297969,-0.0146148268759,0.574176770894,0.818717181047,0.00199000655755,0.0,0.818672455432,-0.574115928467,-0.0121267595901,0.0,-0.00878606112329,0.00859223264475,-0.999924486483,0.0,0.658528644549,0.256735164774,0.303295178084,1.0,-0.01134,-0.014904,0.568
0.462605090625,0.529779553793,-0.124060957331,-1.38425998855,0.077992166113,1.90448358768,0.155656719627,-0.00895352377229,-0.0571817535466,-0.00167384912371,-0.097025843848,-0.00271803413267,0.0344676688532,-0.00960992999521,0.574175815333,0.818717842107,0.00199374094999,0.0,0.818673205835,-0.574114996247,-0.0121202323945,0.0,-0.00877858294879,0.00859153202591,-0.999924558184,0.0,0.65838127354,0.256541553486,0.303302652093,1.0,-0.0116,-0.0152457142857,0.581
0.46243693482,0.528442721836,-0.124059126662,-1.38632952281,0.0778646860543,1.90527966094,0.155370502217,-0.0095751448175,-0.0644269828198,0.000510948104079,-0.10085494566,-0.00459671515609,0.0417949690601,-0.0139037729519,0.574155989098,0.818731618104,0.00204562942184,0.0,0.818687690795,-0.574094976517,-0.0120900695216,0.0,-0.00872430457741,0.00861648334602,-0.999924818536,0.0,0.658140918729,0.256237200209,0.303327964233,1.0,-0.01202,-0.0157977142857,0.602
0.462313543142,0.527464753292,-0.124062744198,-1.38785883934,0.0777616717382,1.90587339872,0.155158236047,-0.00490538185951,-0.0653862421134,-0.00323067219838,-0.101095302009,-0.00870070712444,0.038701505092,-0.00386802114157,0.574140955123,0.81874209036,0.00207365013329,0.0,0.818698661604,-0.574079955076,-0.0120604133078,0.0,-0.00868409422258,0.00862223780926,-0.999925118958,0.0,0.657965050853,0.256008821233,0.303340065745,1.0,-0.01232,-0.016192,0.617
0.462157779445,0.526232734976,-0.124062741718,-1.38977765286,0.0776462281594,1.90658916805,0.154898877608,-0.00858962749451,-0.0616976872377,0.000570890081189,-0.108820657403,-0.00169114385882,0.0350267617686,-0.0184359769808,0.574128687308,0.818750630277,0.00209826887179,0.0,0.818707497424,-0.574067558332,-0.0120506860279,0.0,-0.00866212546545,0.00863667929017,-0.999925184878,0.0,0.657736567038,0.255724652243,0.3033557847,1.0,-0.01268,-0.0166651428571,0.635
0.462002621553,0.525045235179,-0.124071147722,-1.39162913597,0.0775312179286,1.90724393789,0.154646489918,-0.00537069404483,-0.0699963423972,3.78723350358e-05,-0.110953521382,-0.00241148545797,0.0468149252364,-0.0106927020091,0.574123542156,0.8187542645,0.00208796728856,0.0,0.81871099022,-0.574062450846,-0.0120566961494,0.0,-0.00867301475157,0.0086316410522,-0.999925133991,0.0,0.657511642879,0.255439393453,0.303366871778,1.0,-0.01302,-0.017112,0.652
0.461863462901,0.523935109202,-0.124080088161,-1.39341064062,0.0774200691801,1.90788585955,0.154409107112,-0.00738299537998,-0.0692475936582,-0.000552290443339,-0.11084552473,-0.00894765731022,0.0388816404165,-0.0141087334078,0.574115152409,0.818760221772,0.00205862061292,0.0,0.818716575236,-0.574054198795,-0.0120703430325,0.0,-0.00870112445523,0.00861535952005,-0.999925030197,0.0,0.657293805908,0.255171410441,0.303355486062,1.0,-0.01334,-0.0175325714286,0.668
0.461695047248,0.522636900322,-0.124082653948,-1.39544479938,0.0772996499153,1.90867399887,0.15412925383,-0.0108495078271,-0.0739181442673,-1.33785911235e-05,-0.118146464134,-0.00582946448416,0.04075409766,-0.0184156170963,0.574102589624,0.818768920033,0.00210215984634,0.0,0.81872584934,-0.574041458749,-0.0120471639842,0.0,-0.0086572832196,0.00863756694653,-0.999925219146,0.0,0.657056584714,0.254868801578,0.303368212793,1.0,-0.0137,-0.0180057142857,0.686
0.461528201344,0.521414107196,-0.124084324698,-1.3974246667,0.0771777747089,1.90944030635,0.153850263083,-0.0125195574229,-0.0743757346087,-0.000215769588542,-0.115911162054,-0.00952187543562,0.0458011137047,-0.0264539878504,0.574085257064,0.8187810636,0.00210580474108,0.0,0.818738072785,-0.57402414515,-0.012041422638,0.0,-0.00865067262071,0.00863707201633,-0.999925280634,0.0,0.656824577725,0.254571530942,0.303351534431,1.0,-0.01404,-0.0184525714286,0.703
0.461371311476,0.520187064135,-0.124082303431,-1.39933792208,0.0770551375273,1.91014028035,0.153593569286,-0.00673368239064,-0.0825746201272,0.000233560202168,-0.118537914073,-0.00402606674383,0.045963551067,-0.0148889900091,0.574070952935,0.81879107018,0.00211454274276,0.0,0.818748199302,-0.5740098117,-0.0120361585213,0.0,-0.00864149721048,0.00864105342201,-0.999925325573,0.0,0.656591160318,0.254286380786,0.303363278346,1.0,-0.01436,-0.0188731428571,0.719
0.461186299333,0.518776596699,-0.124092909793,-1.40154852084,0.0769188185421,1.91092463426,0.153317842188,-0.0130831798973,-0.0801901064282,-0.000251445001528,-0.125228933579,-0.00821024927763,0.0419227748957,-0.015322785379,0.574084759369,0.818781431906,0.00209826766856,0.0,0.818738331191,-0.57402366804,-0.0120465957683,0.0,-0.00865924034631,0.00863386543085,-0.999925234167,0.0,0.656319201182,0.253946102796,0.30336963231,1.0,-0.01472,-0.0193462857143,0.737
0.461007978282,0.517432284928,-0.124095971108,-1.40366450353,0.0767827026567,1.91168799572,0.15301131114,-0.0118422870706,-0.0766393397646,0.000141085818527,-0.128269589882,-0.00799681708761,0.0475149645282,-0.026850030834,0.574057260885,0.818800740703,0.00208689985403,0.0,0.818757503514,-0.57399623333,-0.0120507868115,0.0,-0.00866948742622,0.00862667267325,-0.999925207456,0.0,0.65605945519,0.253623640204,0.303372095157,1.0,-0.01506,-0.0197931428571,0.754
0.460827267255,0.51614702763,-0.12409998325,-1.40568864644,0.0766512472943,1.91244993387,0.152727529774,-0.0139416839487,-0.0844434207797,-0.000527462619704,-0.127443550233,-0.00896856423037,0.0533311924746,-0.0216261098819,0.574047319447,0.81880767709,0.00209997046696,0.0,0.818764687575,-0.573986314378,-0.0120351231156,0.0,-0.00864926341827,0.00862827794811,-0.999925368746,0.0,0.6558194578,0.253309861795,0.303376360311,1.0,-0.01538,-0.0202137142857,0.77
0.460637699351,0.514772784816,-0.124100406893,-1.40790302984,0.0765192062008,1.91327121292,0.152442385859,-0.0144219392683,-0.0852637340433,0.00125277171605,-0.136515519617,-0.0101621417418,0.0535404474242,-0.0145327468143,0.574045697976,0.818808862275,0.0020810083832,0.0,0.81876559607,-0.573984744641,-0.012048174712,0.0,-0.00867085210379,0.00862022689729,-0.999925251212,0.0,0.65553369623,0.252955968364,0.303356594301,1.0,-0.01574,-0.0206868571429,0.788
0.46044283596,0.513377507892,-0.124103597058,-1.41016268683,0.0763821301286,1.91404970272,0.152123285631,-0.01201946063,-0.0793582940295,-8.23612284885e-05,-0.128369425596,-0.00540721139023,0.0428401994761,-0.0195432611989,0.574032633674,0.818818195606,0.00201119954694,0.0,0.818773844629,-0.573971812301,-0.0121035918501,0.0,-0.00875643797877,0.00859473976738,-0.999924724788,0.0,0.655261525829,0.252626264386,0.303327126015,1.0,-0.01606,-0.0211074285714,0.804
0.460256328138,0.51201796882,-0.124109573239,-1.41232339042,0.0762550142519,1.91481763909,0.151819056685,-0.0134882849452,-0.0818305213278,-0.000291397184777,-0.135842178264,-0.00441440968962,0.0428247992572,-0.0224857851973,0.574019302027,0.818827606127,0.00198475357558,0.0,0.818782800157,-0.573958491381,-0.012129436938,0.0,-0.00879292093459,0.00858777835671,-0.999924464449,0.0,0.654991502519,0.252293634531,0.303317860588,1.0,-0.01638,-0.021528,0.82
0.460047275026,0.510471643108,-0.12411278086,-1.41477880365,0.0760969298542,1.91576204438,0.151473839629,-0.0132255303294,-0.0900176313988,0.000317562262156,-0.1342678485,-0.0116354868645,0.0484185154784,-0.0250444564251,0.573995905521,0.818843952826,0.00200705415912,0.0,0.818799533072,-0.5739350926,-0.0121070650645,0.0,-0.00876204689642,0.00859294622407,-0.999924691069,0.0,0.654697247561,0.251922320526,0.30331385778,1.0,-0.01674,-0.0220011428571,0.838
0.459847720169,0.508988046671,-0.124118117095,-1.41714414085,0.0759454107245,1.91662219225,0.151150976953,-0.0111594114893,-0.0898863451266,-0.0062962595282,-0.136337129401,-0.0060302075912,0.0437253079511,-0.0191972658106,0.573980862315,0.818854555903,0.00198314749387,0.0,0.818809837486,-0.573920169645,-0.0121175828018,0.0,-0.00878453866729,0.00857924648002,-0.999924611363,0.0,0.654402718032,0.251561333182,0.303301065862,1.0,-0.01708,-0.022448,0.855
0.459662810899,0.507644396766,-0.124111693486,-1.41924173039,0.07581852927,1.91736695657,0.150858811313,-0.0114153341295,-0.0921419024132,0.00227868660124,-0.142195709493,-0.0116420573782,0.0432365003109,-0.0233858068381,0.573962855474,0.818867187921,0.00197888447151,0.0,0.818822280567,-0.573902053877,-0.012134756003,0.0,-0.0088012371128,0.00858541919784,-0.999924411544,0.0,0.654136929634,0.251242964106,0.3033069327,1.0,-0.01738,-0.0228422857143,0.87
0.459448272036,0.506073638389,-0.12412338873,-1.42167846796,0.075660291957,1.9182772754,0.150532603705,-0.0108417683496,-0.0925063147168,-0.0036807929963,-0.149491865774,-0.0126895176537,0.0473856392286,-0.0149052143293,0.5739630526,0.818866977938,0.00200838088726,0.0,0.818822567533,-0.573902230218,-0.0121070206851,0.0,-0.00876159385778,0.00859365559953,-0.999924688942,0.0,0.653841346677,0.250863581525,0.303324612196,1.0,-0.01772,-0.0232891428571,0.887
0.459222046466,0.504440821418,-0.12413122191,-1.42415090049,0.0755058758452,1.91923466691,0.150173725439,-0.011759926665,-0.094061010646,-0.000753993494016,-0.145109902913,-0.0154944653835,0.054138388264,-0.0196828382475,0.573945987436,0.818878697732,0.00210447326169,0.0,0.818835639987,-0.573884849415,-0.0120466261315,0.0,-0.00865716687505,0.00863749673897,-0.99992522076,0.0,0.65354906996,0.2504792308,0.303371999289,1.0,-0.01806,-0.023736,0.904
0.459001984579,0.502856124013,-0.124134105124,-1.42647446139,0.0753545374312,1.92012266466,0.149845566473,-0.0127882919052,-0.101688585999,-0.00100516111199,-0.147028256924,-0.00612746710636,0.0564167392991,-0.0230599928349,0.573937941244,0.818884013428,0.00222689316811,0.0,0.818842673505,-0.573876415248,-0.0119700864587,0.0,-0.00852431509138,0.00869372931522,-0.999925874814,0.0,0.653273583472,0.250114744775,0.303449761885,1.0,-0.01838,-0.0241565714286,0.92
0.458764721955,0.501144277668,-0.124129917957,-1.42903746287,0.0751941039469,1.92102355205,0.149498952518,-0.0160136538498,-0.100355293725,0.000302077089476,-0.159642730207,-0.00979502609531,0.0531196731839,-0.0139952947731,0.57393278498,0.818887503077,0.00227212022175,0.0,0.818846660488,-0.573870980839,-0.0119578786051,0.0,-0.00848841692108,0.00872370458441,-0.999925919134,0.0,0.652948532156,0.249716047363,0.303502649128,1.0,-0.01872,-0.0246034285714,0.937
0.458514495161,0.499347871801,-0.124137550752,-1.43178440919,0.0750188669244,1.92202007545,0.149100117821,-0.0131407652802,-0.097225756998,-0.000815291197176,-0.150626317681,-0.0040832322908,0.0552601030647,-0.0266822903252,0.573909047184,0.818904040112,0.00230771531619,0.0,0.81886368068,-0.573847122242,-0.0119373220966,0.0,-0.00845140821566,0.00874080969582,-0.999926083241,0.0,0.652605957757,0.249285447639,0.303535005321,1.0,-0.01908,-0.0250765714286,0.955
0.458265919508,0.497765745341,-0.124138324062,-1.4342832694,0.0748654854316,1.92294428125,0.14874608557,-0.0188638756412,-0.0986523001508,-0.000285297357165,-0.161660340636,-0.0137125542351,0.055770480752,-0.0174155895536,0.573908840805,0.818904168689,0.00231340665171,0.0,0.818863832421,-0.573846840268,-0.0119404676787,0.0,-0.00845072036337,0.00874727341301,-0.999926032531,0.0,0.652298851134,0.248885242771,0.303528974299,1.0,-0.0194,-0.0254971428571,0.971
0.457988960689,0.495993195537,-0.124133298213,-1.43712078949,0.0746895849371,1.92394302271,0.14831666803,-0.0215934252586,-0.104974251386,0.0022285300542,-0.162045203823,-0.00901621097238,0.050328953949,-0.0276769820234,0.573876222509,0.81892717968,0.00225887628156,0.0,0.81888596916,-0.573814279278,-0.0119870475814,0.0,-0.00852050764923,0.00872901173862,-0.999925599884,0.0,0.651935443036,0.248433933765,0.303500173275,1.0,-0.01976,-0.0259702857143,0.989
0.457735816906,0.494420102901,-0.124137693867,-1.43970663625,0.0745210967793,1.9248376723,0.147952084962,-0.0111651274677,-0.0981290124702,0.000932028851699,-0.160831747067,-0.00930081182959,0.0551948188864,-0.0264690663026,0.573872565554,0.818930027823,0.00215288980516,0.0,0.818887359641,-0.573810988666,-0.0120494152458,0.0,-0.00863244233615,0.00867797016648,-0.99992508408,0.0,0.65160144252,0.248014178187,0.303442904015,1.0,-0.0224691428571,-0.0295308734694,1.005
0.457447977076,0.492279849173,-0.124207824671,-1.44291847207,0.0743398541314,1.92602600783,0.147492435949,-0.0178220206085,-0.150675283168,-0.00224509068456,-0.223605003251,-0.00811422805168,0.0881797746688,-0.0313803612601,0.573894906032,0.818914117599,0.00224760513579,0.0,0.818872819192,-0.573833067175,-0.0119859879504,0.0,-0.00852590874723,0.00871936805732,-0.999925637986,0.0,0.651211775666,0.24748432574,0.303508991995,1.0,-0.0324257142857,-0.0426166530612,1.021
0.457080880678,0.489476975301,-0.124251510976,-1.44738623819,0.074110455249,1.92773372449,0.146819776398,-0.0292831872893,-0.198871861883,-0.00206762737077,-0.308249287607,-0.0145351826867,0.115216141072,-0.0498928153305,0.573838857221,0.818953259308,0.00229606451999,0.0,0.81891235409,-0.573776581822,-0.0119890521721,0.0,-0.00850120897509,0.00876022826039,-0.999925491148,0.0,0.650651602496,0.246805699561,0.30348151905,1.0,-0.0423822857143,-0.0557024326531,1.037
0.456465120251,0.485316572911,-0.124316152167,-1.45394098493,0.0737266807927,1.93020156354,0.145853288654,-0.0383850716766,-0.258539475872,-0.011973493848,-0.38584420077,-0.0204982092114,0.150961172402,-0.0584184387963,0.573826154208,0.818961973258,0.00236177995213,0.0,0.818921948886,-0.573763639146,-0.0119530300379,0.0,-0.00843413598928,0.00879324399619,-0.99992576935,0.0,0.649789441511,0.245678219379,0.303473825848,1.0,-0.0542057142857,-0.0712417959184,1.056
0.455718843025,0.480474502086,-0.124456635198,-1.461630836,0.0732694920871,1.93288204507,0.144677874512,-0.043687958993,-0.298392808255,-0.00601637267194,-0.483425128294,-0.0324712699034,0.166212321803,-0.0785355913752,0.573824239565,0.818963772246,0.00219743865888,0.0,0.818921573472,-0.573762367899,-0.0120394595837,0.0,-0.00859923919026,0.00870823132498,-0.999925107092,0.0,0.648852443576,0.244445114648,0.3034035419,1.0,-0.0641622857143,-0.0843275755102,1.072
0.454866852019,0.475049310609,-0.124594741152,-1.47009923765,0.0727530081684,1.93586905285,0.143449888917,-0.0552231401714,-0.354169085775,-0.0114374310623,-0.553676757873,-0.0253555371527,0.194269913431,-0.0731049810764,0.573879121987,0.818925475205,0.00213689223842,0.0,0.818882572079,-0.573817585972,-0.0120606001065,0.0,-0.0086507128808,0.00867135736274,-0.99992498355,0.0,0.647840327937,0.243095960505,0.303396330045,1.0,-0.0734965714286,-0.0965954938775,1.087
0.453799923899,0.468457862221,-0.124693944545,-1.48017806569,0.0721693952309,1.93958932924,0.141916640254,-0.0642933564149,-0.407230781784,-0.00153587237017,-0.615285664531,-0.0310015677361,0.232754040695,-0.100361408272,0.573903249354,0.818908011933,0.00233993029854,0.0,0.81886756409,-0.573840668351,-0.0119810987806,0.0,-0.00846883366809,0.00879225382287,-0.999925484788,0.0,0.646493871524,0.241304228038,0.303475851508,1.0,-0.0846977142857,-0.111316995918,1.105
0.452625920428,0.461512454951,-0.124742024979,-1.49088437675,0.0714983342558,1.94345043873,0.140188856441,-0.0825509454409,-0.443661902555,-0.00199810107353,-0.710673958901,-0.0417346825839,0.2406063132,-0.102103582533,0.573806949008,0.818975244116,0.0024252208672,0.0,0.818935693584,-0.573743812294,-0.011963048486,0.0,-0.00840614693253,0.00885075068991,-0.999925497678,0.0,0.645100908697,0.239498258128,0.303504538312,1.0,-0.0946542857143,-0.12440277551,1.121
0.45110069446,0.452824841828,-0.124877414785,-1.50438823243,0.0706127488372,1.94802578786,0.138136747098,-0.0890300108016,-0.512574648623,-0.00927411069988,-0.738420983371,-0.046505209494,0.271971918517,-0.127374167982,0.573855299906,0.818942007835,0.00219760646747,0.0,0.818899281581,-0.573792887604,-0.0121010603849,0.0,-0.00864926225289,0.00874404434373,-0.999924363115,0.0,0.643282764145,0.237126388103,0.303451473492,1.0,-0.105855428571,-0.139124277551,1.139
0.449502681392,0.44363607402,-0.12499139227,-1.51811895093,0.0696758126727,1.95303425714,0.135998935074,-0.0960355881129,-0.552308057119,-0.00511013340844,-0.838830534916,-0.0547680515065,0.292115790322,-0.134863024914,0.573860558856,0.818937303086,0.0025494128202,0.0,0.81889985989,-0.57379745395,-0.0118426438276,0.0,-0.00823569477495,0.00888391104933,-0.999926622036,0.0,0.641489402833,0.234725752674,0.303650835208,1.0,-0.116434285714,-0.153027918367,1.156
0.447817524275,0.434377217844,-0.125065494705,-1.53217847234,0.0687472154218,1.95787574489,0.133729918491,-0.110352485076,-0.599237699515,-0.00429241937186,-0.870158632183,-0.060183183226,0.315220166591,-0.138612889231,0.573802372319,0.818977976302,0.00258045637986,0.0,0.818940581602,-0.573738772844,-0.0118697616227,0.0,-0.00824072413568,0.00892430964712,-0.99992622086,0.0,0.639557131605,0.232252610554,0.303706216812,1.0,-0.126390857143,-0.166113697959,1.172
0.445846909409,0.423826800594,-0.125160661301,-1.54808875592,0.0676254893223,1.96351057913,0.131085428374,-0.119585815156,-0.628926902002,-0.00818031879539,-0.9625021343,-0.0713775959118,0.340087193592,-0.155988351459,0.573694688893,0.819052806011,0.00276618918885,0.0,0.819018270222,-0.573630911097,-0.0117216798543,0.0,-0.0080140574466,0.0089903980549,-0.999927471183,0.0,0.637381767668,0.229415101038,0.303806743932,1.0,-0.136969714286,-0.180017338775,1.189
0.443492416482,0.411825730035,-0.125297527017,-1.56606136722,0.0663328523881,1.96982288976,0.128109738795,-0.130779718731,-0.690829699634,-0.0058473850201,-1.03507056152,-0.0740447230703,0.360299752565,-0.168352184328,0.573677532764,0.819064032093,0.00299109235742,0.0,0.819033057575,-0.573613743365,-0.0115269650271,0.0,-0.00772573951347,0.00906273886182,-0.999929087342,0.0,0.634897973636,0.226116541694,0.303939591521,1.0,-0.148170857143,-0.194738840816,1.207
0.441165040946,0.400646945117,-0.125405184607,-1.58305253836,0.065204392553,1.97549642251,0.125260597815,-0.148331936914,-0.713627357881,-0.00984093344392,-1.06830937075,-0.0701691370901,0.361894247037,-0.183625911258,0.573704909278,0.819045224915,0.00288851419372,0.0,0.819012034482,-0.573640428296,-0.0116915909225,0.0,-0.00791912566522,0.0090734256875,-0.999927477568,0.0,0.63244611393,0.222953678143,0.303895262648,1.0,-0.158127428571,-0.207824620408,1.223
0.43859842516,0.38876200133,-0.125528027234,-1.60079814394,0.0638997917262,1.98158925298,0.122220124043,-0.161846305683,-0.75635788143,-0.00670952417921,-1.14814004714,-0.0847889970545,0.376022002006,-0.202362004426,0.573733099186,0.819025135871,0.00298405935812,0.0,0.818993536079,-0.573668699926,-0.0115998916962,0.0,-0.00778889138038,0.00909934232919,-0.999928264997,0.0,0.629729349581,0.219343316945,0.303945337509,1.0,-0.168706285714,-0.221728261224,1.24
0.435679622483,0.375505465087,-0.125676760234,-1.62061990372,0.0624043009542,1.98817389034,0.11864026762,-0.18059867252,-0.79709334009,-0.0105965055794,-1.19002897537,-0.08282195759,0.394780448464,-0.213832963044,0.573626689948,0.819099560362,0.00301292124738,0.0,0.819068591435,-0.573562512215,-0.0115513638848,0.0,-0.00773376729888,0.00909413488212,-0.999928740238,0.0,0.626799744331,0.215512744129,0.303996146973,1.0,-0.179285142857,-0.235631902041,1.257
0.432392730561,0.361613602981,-0.125862293787,-1.64116257426,0.0608479439411,1.99499272481,0.114987723354,-0.189259375685,-0.86445436214,-0.0102750467001,-1.19792700591,-0.0968215909561,0.418068988201,-0.221960319943,0.573763693134,0.819003408165,0.0030641078324,0.0,0.818973379947,-0.573699665516,-0.0114910237305,0.0,-0.00765345731282,0.0091027302173,-0.999929279946,0.0,0.62392040598,0.211625373802,0.304045483418,1.0,-0.189241714286,-0.248717681633,1.273
0.428784778561,0.34722782022,-0.126054107447,-1.6626227866,0.0592181303799,2.00183723007,0.110933912234,-0.223315613535,-0.860688294415,-0.00806022343838,-1.26442912378,-0.0876083228674,0.408388193,-0.251323254377,0.573814753714,0.818968472233,0.00283139710083,0.0,0.818934994708,-0.573750972821,-0.0116637271303,0.0,-0.00792786058331,0.00901172238404,-0.999927966349,0.0,0.620624353269,0.207224737047,0.303954380736,1.0,-0.199820571429,-0.262621322449,1.29
0.42495506385,0.33215648652,-0.126201714686,-1.68474295418,0.0575184742515,2.00901952824,0.106748577118,-0.228029393809,-0.896689202366,-0.00612385545126,-1.33159178683,-0.0981786198398,0.409488651115,-0.256609073883,0.573868463209,0.818930562001,0.00291006126434,0.0,0.818897835682,-0.573804099221,-0.0116592166346,0.0,-0.00787843543293,0.00907407430746,-0.999927793108,0.0,0.617182221661,0.202690565716,0.30397225985,1.0,-0.210399428571,-0.276524963265,1.307
0.421144424254,0.317359172927,-0.126333895399,-1.70607898057,0.0557226860328,2.01585888594,0.102541246606,-0.247115097651,-0.943081100537,-0.0121375096057,-1.36019209928,-0.117272274293,0.425806008497,-0.261588307211,0.5737735923,0.818996463216,0.00306674429405,0.0,0.818966495143,-0.573709586233,-0.0114864005953,0.0,-0.0076480481112,0.00910232940617,-0.999929324982,0.0,0.613792191353,0.198260457164,0.304092695309,1.0,-0.220356,-0.289610742857,1.323
0.417608353501,0.304081517371,-0.126434471107,-1.72520364169,0.0541464618904,2.02190602925,0.0985818747968,-0.259200212901,-0.952325491032,-0.00919965638636,-1.383590713,-0.117280459242,0.42732453639,-0.287270230091,0.573597653395,0.819119236601,0.00318671488169,0.0,0.819090868306,-0.573533366949,-0.0114181151826,0.0,-0.00752525536064,0.00915978948872,-0.999929731925,0.0,0.610683182133,0.194257127103,0.304153306582,1.0,-0.229068,-0.3010608,1.337
0.412028098911,0.28449767461,-0.126618742634,-1.75334109893,0.0518328743332,2.03050524599,0.092774311194,-0.283008914368,-0.98312790139,-0.00540424863887,-1.41568529482,-0.123643627789,0.425198949533,-0.291680985354,0.573634891059,0.819093153548,0.00318817684076,0.0,0.819064183901,-0.573569841656,-0.0114998388555,0.0,-0.00759094333688,0.00920820755778,-0.999928790711,0.0,0.606003127281,0.188157277116,0.304163688941,1.0,-0.241513714286,-0.31741802449,1.357
0.406871922917,0.267248656114,-0.126810449579,-1.77790237019,0.0497127177456,2.0378573903,0.0874147739245,-0.314496411678,-1.02815584801,-0.012755827296,-1.45272548842,-0.120051786465,0.427057023657,-0.318175606141,0.573594022681,0.819121877471,0.00316131222385,0.0,0.819092379065,-0.573528842914,-0.0115363688184,0.0,-0.00763673537474,0.00920677620706,-0.999928455213,0.0,0.601829053398,0.18268161671,0.30417278478,1.0,-0.252092571429,-0.331321665306,1.374
0.401248334177,0.249471490885,-0.127051640545,-1.8029507868,0.0474561484635,2.04523549601,0.0818789864937,-0.337499469664,-1.05722984348,-0.0110258106452,-1.49260513657,-0.131181825451,0.424637204765,-0.325439260007,0.573739739655,0.819019830445,0.00315838233375,0.0,0.818990570905,-0.573674883724,-0.011503019374,0.0,-0.007609462865,0.00918660156211,-0.999928848682,0.0,0.597509067351,0.176897417696,0.304204968078,1.0,-0.262671428571,-0.345225306122,1.391
0.395659717584,0.232279573644,-0.127233828305,-1.82692266517,0.0452836629985,2.05219884931,0.0762721304344,-0.351355349135,-1.10110310402,-0.0102351739413,-1.49945341991,-0.142746299371,0.456255672578,-0.354180764295,0.573704792645,0.819043893097,0.00326480902717,0.0,0.819015831898,-0.57363940026,-0.0114739910596,0.0,-0.0075250240945,0.00925679216494,-0.999928840374,0.0,0.59299754716,0.170979323121,0.304258575221,1.0,-0.273250285714,-0.359128946939,1.408
0.389394035567,0.213560694249,-0.12741111358,-1.85282024735,0.0428437714331,2.05952370377,0.0700245793719,-0.37936639885,-1.13704378217,-0.0187496980696,-1.53424363812,-0.155929298133,0.446703091101,-0.377760665583,0.573575416907,0.819134382197,0.00329422586969,0.0,0.819106877304,-0.573510171434,-0.0114347590958,0.0,-0.00747747624887,0.00925719801063,-0.99992919331,0.0,0.588567899321,0.165241935754,0.304289468333,1.0,-0.283206857143,-0.372214726531,1.424
0.382626277884,0.194373833886,-0.127633169087,-1.87912721382,0.0403318034717,2.06666177156,0.0634357152199,-0.405897128437,-1.16954781697,-0.0236277681798,-1.57208896077,-0.155658632528,0.438018294914,-0.399714979341,0.573537191195,0.819161312488,0.00325289724212,0.0,0.819132878412,-0.573471588537,-0.0115070216369,0.0,-0.00756080836715,0.00926443831893,-0.999928499624,0.0,0.583669413532,0.158869048898,0.304301890752,1.0,-0.293785714286,-0.386118367347,1.441
0.375261706101,0.174705896713,-0.127985647692,-1.90572366835,0.0377992171424,2.07377775936,0.0564388386511,-0.443994281291,-1.18955538993,-0.0247364396833,-1.57872438609,-0.156021493998,0.437083097957,-0.425893093786,0.573705198085,0.81904310106,0.00338986686392,0.0,0.819015968476,-0.573638573622,-0.0115055262902,0.0,-0.00747910753543,0.00937731587431,-0.999928061861,0.0,0.578356719664,0.151743555956,0.304370568798,1.0,-0.304986857143,-0.400839869388,1.459
0.367996452656,0.155816174722,-0.128227910474,-1.93104299618,0.0351883329189,2.08029739085,0.0495134329113,-0.461524184533,-1.21614155187,-0.0140468032876,-1.56731542873,-0.169412508902,0.427127964586,-0.444417292815,0.573613527746,0.819107404928,0.003365543206,0.0,0.819080085469,-0.573547148893,-0.0114990645793,0.0,-0.00748881541928,0.00935284848725,-0.999928218358,0.0,0.573739738499,0.145713624086,0.304391682522,1.0,-0.314321142857,-0.413107787755,1.474
0.359756495544,0.135293005813,-0.128497968132,-1.95827656875,0.0323366489882,2.08711691803,0.0418192388439,-0.495860900241,-1.23893323306,-0.0167680080281,-1.6270366227,-0.166550581962,0.416096378487,-0.465226911627,0.573597287987,0.819118724309,0.00337840228156,0.0,0.819091521053,-0.573530809893,-0.0114994410032,0.0,-0.00748193369855,0.00936344911176,-0.999928170665,0.0,0.568325844194,0.138649897267,0.304411102222,1.0,-0.3249,-0.427011428571,1.491
0.350368071008,0.11309635168,-0.128920399169,-1.98732489824,0.0291682419441,2.09413070553,0.0331287485791,-0.541158762832,-1.26182883822,-0.03163720119,-1.62744140267,-0.183707693507,0.400949913595,-0.498912561033,0.573651405697,0.819080724654,0.00340266716826,0.0,0.819054208771,-0.573585317716,-0.0114382383249,0.0,-0.00741726341248,0.00934871035065,-0.999928790374,0.0,0.562435123531,0.130817735214,0.304450579537,1.0,-0.336101142857,-0.441732930612,1.509
0.341510792903,0.0929864941321,-0.129251289445,-2.01330327033,0.0262675135495,2.10011766568,0.0249223553703,-0.557487299882,-1.27862492096,-0.0164138553777,-1.66534653678,-0.187749925921,0.376532208171,-0.525094412654,0.573583959241,0.819127874484,0.00342254967464,0.0,0.81910167628,-0.573517899471,-0.011419711186,0.0,-0.00739145255912,0.00935375941994,-0.999928934282,0.0,0.557013867863,0.12369858253,0.304484479273,1.0,-0.346057714286,-0.454818710204,1.525
0.331502413126,0.0713439605911,-0.129626724273,-2.04100592856,0.023171370779,2.10620857767,0.0157755896716,-0.599187105381,-1.28077032037,-0.0228861032748,-1.64501494616,-0.202057675422,0.366906476692,-0.545052017006,0.573591316766,0.819122725655,0.00342177558268,0.0,0.819095839883,-0.573524402828,-0.011511357373,0.0,-0.00746688639041,0.00940575786811,-0.999927886063,0.0,0.551083726906,0.115923748655,0.304473498006,1.0,-0.34998,-0.459973714286,1.542
0.320892929881,0.0498449879912,-0.130073404615,-2.06820761918,0.0199479411673,2.11180865901,0.00637834964256,-0.634613838222,-1.25302914495,-0.0215182274102,-1.60734306448,-0.197643582921,0.31773578794,-0.548173331886,0.573807731499,0.818971751885,0.00327166426303,0.0,0.81894256198,-0.573740810757,-0.0116322461722,0.0,-0.0076495409966,0.00935415799835,-0.99992698946,0.0,0.54512055526,0.107946467219,0.304429782195,1.0,-0.34998,-0.459973714286,1.559
0.310624332218,0.0297323304858,-0.130387111581,-2.0931849002,0.0169961914704,2.11672310338,-0.00267832128625,-0.646768774907,-1.25206958095,-0.0257380996026,-1.5376052084,-0.191410400223,0.293986000909,-0.568181076798,0.573956026513,0.818867587482,0.00333177164383,0.0,0.81883832122,-0.573887837625,-0.0117175265932,0.0,-0.00768318743363,0.0094537093167,-0.999925795252,0.0,0.539153250081,0.100087888266,0.304465901201,1.0,-0.34998,-0.459973714286,1.576
0.298668198718,0.00742212343293,-0.130753241517,-2.12046934656,0.0135353500888,2.12182440342,-0.0132048392643,-0.672770888107,-1.24010654739,-0.0262348015621,-1.51737120712,-0.188306897337,0.261491463827,-0.58580848888,0.574020769954,0.818822232592,0.00332475196557,0.0,0.818793301857,-0.573953120649,-0.0116658061026,0.0,-0.00764411680485,0.00941888098356,-0.999926423373,0.0,0.53322219576,0.092189412568,0.304487850685,1.0,-0.34998,-0.459973714286,1.593
0.287067757485,-0.0134961331262,-0.131009109068,-2.14552289415,0.0104520204915,2.12626627335,-0.0234941469444,-0.683450719152,-1.23267751692,-0.0115062507123,-1.46981798603,-0.179851925987,0.253088520335,-0.598300464167,0.573994689323,0.818839363307,0.00359730859864,0.0,0.818813513988,-0.573925605483,-0.011600671627,0.0,-0.00743464219334,0.00960443371617,-0.999926237754,0.0,0.527305082033,0.0844226342644,0.30459694987,1.0,-0.34998,-0.459973714286,1.61
0.275782777751,-0.03293970252,-0.131280544878,-2.16858872471,0.00733603277631,2.13000278652,-0.0333960086158,-0.720325177069,-1.22274881213,-0.0213633404525,-1.43953877436,-0.19310349239,0.240190989299,-0.619826756845,0.573962451334,0.818861936179,0.00360289282573,0.0,0.818836674245,-0.57389402187,-0.0115282034244,0.0,-0.00737247026557,0.00956712087277,-0.99992705578,0.0,0.521708061945,0.0770542576776,0.304643319707,1.0,-0.34998,-0.459973714286,1.626
0.263387720904,-0.0534202821174,-0.131608132821,-2.19248147819,0.00420287751983,2.13357816884,-0.0442485257015,-0.727934928599,-1.23057127173,-0.00975106920521,-1.39209630795,-0.201817917169,0.223541436195,-0.656776445309,0.57403615915,0.818809584325,0.00375493100818,0.0,0.818785848046,-0.573966686893,-0.0115206022872,0.0,-0.00727811438598,0.0096879131803,-0.999926584,0.0,0.515767117335,0.069216507238,0.304717054068,1.0,-0.34998,-0.459973714286,1.643
0.252256582952,-0.0711129622813,-0.131786987216,-2.21308615846,0.00139848250486,2.13634929204,-0.0541099220257,-0.750109026381,-1.18478300147,-0.00811832610035,-1.34760188065,-0.182617631841,0.172901070711,-0.665386636082,0.573869680098,0.81892672887,0.00365375252172,0.0,0.81890090214,-0.573799517551,-0.0116693201634,0.0,-0.00745994038234,0.00968891680706,-0.999925234295,0.0,0.510482431468,0.0624177478279,0.304663944941,1.0,-0.34998,-0.459973714286,1.658
0.238353312002,-0.09220252997,-0.132171440848,-2.23719080972,-0.00193420045012,2.13933991965,-0.0662999445168,-0.762575709424,-1.16589875523,-0.00979302392085,-1.30669142216,-0.180286878348,0.137061926077,-0.68380278852,0.573920866489,0.818890788897,0.0036690284753,0.0,0.818864392913,-0.573849650885,-0.0117656746535,0.0,-0.00752947685506,0.00975719082315,-0.999924049219,0.0,0.50417594138,0.0541126568411,0.304651213122,1.0,-0.34998,-0.459973714286,1.676
0.224932413015,-0.111872478236,-0.132425241884,-2.25934408911,-0.00520736723755,2.14181682556,-0.0781139102207,-0.798504607637,-1.1358866474,-0.0249060583682,-1.2988533528,-0.196844764393,0.133204822499,-0.695391515759,0.573761246469,0.81900291159,0.00360690424786,0.0,0.818975993951,-0.573690629099,-0.0117528854925,0.0,-0.00755654575783,0.00969750492829,-0.999924425651,0.0,0.4982169936,0.0463746223235,0.304635103658,1.0,-0.34998,-0.459973714286,1.693
0.210150456869,-0.132485990011,-0.132832632473,-2.28213578393,-0.00854622093984,2.14398620319,-0.0910661194635,-0.828421796415,-1.13289633682,-0.0171831805972,-1.26476032362,-0.197002214657,0.118365237927,-0.732497145652,0.573813744194,0.818966022123,0.00363159524745,0.0,0.818938920799,-0.573742388067,-0.0118094468963,0.0,-0.00758808171248,0.00975066536369,-0.999923669857,0.0,0.491915924031,0.0380706097869,0.304640818568,1.0,-0.34998,-0.459973714286,1.711
0.197536225502,-0.149468464961,-0.133129574673,-2.30065305624,-0.0112982618649,2.14551466615,-0.102221593065,-0.85456553784,-1.12227956761,-0.0211103835668,-1.2330353925,-0.177551233557,0.0938556310156,-0.750934304399,0.573743816561,0.819014857271,0.00366652798886,0.0,0.818987751168,-0.573671759485,-0.0118542274227,0.0,-0.00760555124849,0.0098043199596,-0.999923012487,0.0,0.48665730865,0.031208133303,0.304639252812,1.0,-0.34998,-0.459973714286,1.726
0.181887684529,-0.169637172604,-0.13355815797,-2.32225734469,-0.0145794890352,2.14694026563,-0.11592141543,-0.874328278154,-1.12703545277,-0.0153824497439,-1.18319508387,-0.179768839601,0.0797771470189,-0.774869071763,0.573847584468,0.818941893682,0.00372444290915,0.0,0.818914921734,-0.573774507241,-0.011912711838,0.0,-0.00761897508545,0.00988627312755,-0.999922103377,0.0,0.480347544094,0.0229074362216,0.304658299501,1.0,-0.34998,-0.459973714286,1.744
0.166649207517,-0.188332453305,-0.134016160311,-2.34213102547,-0.0177156944794,2.14785163315,-0.129337347444,-0.915955476863,-1.09375707676,-0.0399589360618,-1.13519380826,-0.181253464242,0.048977927702,-0.799061034149,0.573916530978,0.818894183021,0.00358878613106,0.0,0.818864182374,-0.57384234051,-0.0121311979521,0.0,-0.00787492161964,0.00990121409524,-0.999919972582,0.0,0.474343299374,0.0150330388403,0.304592030029,1.0,-0.34998,-0.459973714286,1.761
0.151976325365,-0.205814538962,-0.134361294527,-2.36022738937,-0.0205697895339,2.14859615936,-0.142389795659,-0.928419663464,-1.09412121457,-0.022194233274,-1.12327590368,-0.17909007495,0.0306433067361,-0.827622792355,0.573848780712,0.818940943541,0.0037489690522,0.0,0.818913061448,-0.573774020423,-0.0120630915961,0.0,-0.00772804735709,0.00999266251758,-0.999920208807,0.0,0.468758982836,0.00771116854025,0.304640697632,1.0,-0.34998,-0.459973714286,1.777
0.135897122785,-0.224130539666,-0.134853056944,-2.37880787088,-0.0236288387609,2.14901271508,-0.156566759579,-0.946221668522,-1.06985011022,-0.0202691800804,-1.08973481114,-0.187832574641,0.010545750522,-0.836077309301,0.573984033264,0.818845401445,0.00390960240444,0.0,0.818819949573,-0.573909101086,-0.0119574567945,0.0,-0.00754769742417,0.0100648435016,-0.999920862463,0.0,0.462841687266,-0.000156462829571,0.304724294071,1.0,-0.34998,-0.459973714286,1.794
0.119504258049,-0.242040397436,-0.135207759817,-2.39679568091,-0.0266128920574,2.1491140016,-0.171257269811,-0.985913065658,-1.05091003895,-0.0247826963726,-1.01663398404,-0.164907469616,0.0061416401646,-0.875376551157,0.573853509194,0.818936482354,0.00399183612529,0.0,0.818912022748,-0.573778197104,-0.0119342543744,0.0,-0.00748311183486,0.0101176711447,-0.999920814749,0.0,0.456922446232,-0.00789295672355,0.304758551377,1.0,-0.34998,-0.459973714286,1.811
0.103564470802,-0.258619510905,-0.135636506802,-2.41330771335,-0.0294142267351,2.14906654776,-0.185512220296,-1.00290523708,-1.03358401352,-0.0145526015173,-1.02233566234,-0.172017228269,-0.00611957754451,-0.900888056067,0.573853209568,0.818936306881,0.00407014027736,0.0,0.818912847779,-0.573777595118,-0.0119065521532,0.0,-0.00741549531918,0.0101658990585,-0.999920829329,0.0,0.4513353422,-0.0152591132168,0.304747429319,1.0,-0.34998,-0.459973714286,1.827
0.085190867377,-0.277011371245,-0.136184479177,-2.43116152937,-0.0325506524642,2.14876658217,-0.201965507958,-1.0331453129,-1.001102204,-0.0323951239602,-0.992710241258,-0.17459558318,-0.0358666727187,-0.919655718621,0.573912147571,0.818893939952,0.00427888786762,0.0,0.81887421152,-0.573837256469,-0.0116865604859,0.0,-0.00711480526816,0.0102111265508,-0.999922553221,0.0,0.445096115038,-0.023557116374,0.30481837127,1.0,-0.34998,-0.459973714286,1.845
0.0674097850844,-0.293942759633,-0.136587097219,-2.44749249087,-0.0353755227374,2.14800828153,-0.218072288672,-1.06636442057,-0.987621685065,-0.0260636188518,-0.930627104111,-0.174199700449,-0.0416700381232,-0.957779162274,0.573805160804,0.818968801701,0.00429955530936,0.0,0.818948449296,-0.573728941151,-0.0118019652343,0.0,-0.00719880060983,0.010293340891,-0.99992110909,0.0,0.439134882795,-0.0313071064767,0.304795117807,1.0,-0.34998,-0.459973714286,1.862
0.051245908688,-0.308641253943,-0.137049548283,-2.46141596402,-0.0379264390474,2.14724836522,-0.232646228715,-1.08380585776,-0.976769275526,-0.019996174708,-0.93116100694,-0.160106220218,-0.0648791778137,-0.978240143427,0.573839467689,0.818944365227,0.00437480136498,0.0,0.818925255135,-0.57376337738,-0.0117371282749,0.0,-0.00710209099541,0.0103180614201,-0.999921545878,0.0,0.433545907315,-0.0386899623201,0.304810451485,1.0,-0.34998,-0.459973714286,1.878
0.031432306662,-0.325974379463,-0.137636895764,-2.47743629459,-0.0407926161483,2.14607182018,-0.250597487329,-1.11421949889,-0.97033222027,-0.0313674434482,-0.880846921051,-0.163393636991,-0.0601351382596,-1.00153882728,0.573968127416,0.818852875112,0.00461568321699,0.0,0.818837007355,-0.573891432773,-0.0116329564922,0.0,-0.00687691121692,0.0104566398092,-0.999921680321,0.0,0.427621689706,-0.0465259588774,0.304880765363,1.0,-0.34998,-0.459973714286,1.895
0.0122923316332,-0.341828619708,-0.138094825771,-2.49200892053,-0.043517067716,2.14471258812,-0.268131724517,-1.15690400761,-0.931124307071,-0.03485173288,-0.824372820948,-0.155813898168,-0.0819286221495,-1.02636496048,0.573862952888,0.818926316479,0.00466330156172,0.0,0.818910920594,-0.57378590719,-0.011635452009,0.0,-0.00685297307821,0.0104961855071,-0.999921430338,0.0,0.421674858501,-0.0542947872295,0.304880227033,1.0,-0.34998,-0.459973714286,1.912
-0.00618880951174,-0.356366949859,-0.138563039926,-2.50499842522,-0.0460420339965,2.14322554996,-0.285052480108,-1.15478028953,-0.890569881632,-0.0290039138224,-0.794154693122,-0.142416794221,-0.0939473609102,-1.06867647478,0.573852984706,0.818932695831,0.00476849490498,0.0,0.818919256256,-0.573776548968,-0.0115095824597,0.0,-0.00668965163781,0.0105100228988,-0.999922390978,0.0,0.416126159268,-0.0616501107063,0.304956296079,1.0,-0.34998,-0.459973714286,1.928
-0.0262589989205,-0.371368361014,-0.139062936172,-2.51843879175,-0.0486759065757,2.14153563097,-0.303582229146,-1.17950801265,-0.851697299971,-0.0277597437531,-0.799955468616,-0.161769772148,-0.104529532882,-1.09637916722,0.57376184811,0.81899647041,0.00478225999951,0.0,0.818983006603,-0.573685069408,-0.011533556892,0.0,-0.00670256027112,0.0105343074085,-0.999922048988,0.0,0.41016118607,-0.0694451715165,0.30493368184,1.0,-0.34998,-0.459973714286,1.945
-0.0480155735891,-0.386726083767,-0.139639609221,-2.53178987682,-0.0513775945906,2.13953932571,-0.323629337139,-1.20917313426,-0.85474533671,-0.0272930642561,-0.727511310957,-0.162814595085,-0.103021611729,-1.11480080883,0.573815248923,0.818958471668,0.00488146360884,0.0,0.818946736472,-0.573738888642,-0.0114314208715,0.0,-0.0065612997854,0.010557385567,-0.999922742493,0.0,0.403902677076,-0.07772982241,0.304996864377,1.0,-0.34998,-0.459973714286,1.963
-0.0665071355943,-0.399019403501,-0.140057266478,-2.5425213705,-0.0534156105256,2.13780334222,-0.340864806113,-1.24266983332,-0.80043807715,-0.0348962100736,-0.697195124576,-0.131529303315,-0.1225681029,-1.16255719513,0.57376963248,0.818989866525,0.00497536675694,0.0,0.818978390274,-0.573691468232,-0.0115430690782,0.0,-0.00659945820387,0.0106979863297,-0.999920996999,0.0,0.398654310686,-0.0845686374546,0.304962781902,1.0,-0.34998,-0.459973714286,1.978
-0.089154165921,-0.41325202629,-0.140577643849,-2.55462685575,-0.0559449941351,2.13555070674,-0.362008177608,-1.26890483995,-0.782055340055,-0.0234491704243,-0.644535990744,-0.136218282482,-0.107604420319,-1.20091130339,0.573703551375,0.819035952538,0.00500904098978,0.0,0.819024867229,-0.573625225678,-0.0115375139288,0.0,-0.00657645305948,0.0107218482754,-0.999920892988,0.0,0.39238212957,-0.0928110323472,0.304986144157,1.0,-0.34998,-0.459973714286,1.996
-0.111057919627,-0.426072024628,-0.141149935959,-2.56547023656,-0.0582839972552,2.1333963818,-0.382548564121,-1.29227752958,-0.732994109545,-0.0330299397515,-0.626490378208,-0.129832813159,-0.145736199821,-1.22523028497,0.573688566039,0.819046362832,0.00502310959401,0.0,0.819035297783,-0.573609937052,-0.0115571623711,0.0,-0.00658467300205,0.0107445228356,-0.999920595503,0.0,0.386789371634,-0.100190284296,0.304971355482,1.0,-0.34998,-0.459973714286,2.012
-0.132022922074,-0.437569676211,-0.141593595173,-2.57523579172,-0.0603506784519,2.13120531546,-0.402234803941,-1.31236552233,-0.707094259801,-0.0214067594581,-0.593007312709,-0.12983374788,-0.136849969826,-1.23298308583,0.573666201556,0.81906255294,0.00493664503241,0.0,0.819048278892,-0.57358451718,-0.0118939226811,0.0,-0.00691041656515,0.010866701281,-0.999917077035,0.0,0.380772964848,-0.10794405551,0.304866679905,1.0,-0.34998,-0.459973714286,2.029
-0.154724334186,-0.449332324424,-0.142146750379,-2.58462844821,-0.0624815039266,2.12908078709,-0.42371950974,-1.34689448445,-0.666811586702,-0.0232217341914,-0.557067685078,-0.132593635017,-0.126429782505,-1.28615508631,0.573649648539,0.819072894962,0.0051400749905,0.0,0.81906313894,-0.573570337608,-0.0115494219723,0.0,-0.00651174931368,0.0108355764297,-0.999920090509,0.0,0.374917400592,-0.115788290978,0.305000029115,1.0,-0.34998,-0.459973714286,2.046
-0.177850295347,-0.460345309778,-0.142677055349,-2.59366085539,-0.0644945668091,2.12670193281,-0.445681036656,-1.36954859435,-0.637300113206,-0.0301812147779,-0.515324510207,-0.130494301,-0.145580696201,-1.3187664876,0.573633069478,0.819084579158,0.00512841967761,0.0,0.819073014669,-0.573551068914,-0.0118031728975,0.0,-0.00672651582381,0.010971451699,-0.999917187187,0.0,0.368911012026,-0.123580578967,0.304944010343,1.0,-0.349112571429,-0.458833665306,2.063
-0.201171896202,-0.470491736155,-0.14305346526,-2.60192311832,-0.0662223053225,2.12457997572,-0.467887090999,-1.37923372724,-0.568130800499,-0.0305813748723,-0.461478289187,-0.102528121303,-0.116564780474,-1.31493938359,0.573619404949,0.819093400358,0.00524658525711,0.0,0.819082349074,-0.57353530997,-0.0119205936793,0.0,-0.00675510776607,0.0111354836225,-0.999915181165,0.0,0.36303195215,-0.131258257271,0.30489503548,1.0,-0.338533714286,-0.44493002449,2.08
-0.223095535755,-0.47927193332,-0.143244430731,-2.60868338934,-0.0677112587618,2.12266921102,-0.4885809719,-1.36431460121,-0.528639898423,-0.0145414702449,-0.41080121425,-0.0802880984824,-0.117992794979,-1.30520063198,0.573758778372,0.818994584843,0.0054296536972,0.0,0.81898713627,-0.573676084598,-0.0116862092097,0.0,-0.0064562038883,0.0111520963648,-0.999916970642,0.0,0.357378593186,-0.138802077793,0.305007878029,1.0,-0.327954857143,-0.431026383674,2.097
-0.247424598065,-0.488122305977,-0.143320917616,-2.61565849073,-0.0691619780157,2.1205417499,-0.511687543316,-1.35112804952,-0.463937810305,-0.000385919943092,-0.372391018813,-0.0741621041166,-0.123199229021,-1.28141800078,0.573773295658,0.818984213535,0.00545986003029,0.0,0.818976521551,-0.573689399896,-0.0117760985405,0.0,-0.00651230035937,0.0112285242292,-0.999915751545,0.0,0.351811061036,-0.146064837928,0.304996318868,1.0,-0.317376,-0.417122742857,2.114
-0.270059368655,-0.495475599582,-0.143305633405,-2.62140818882,-0.0702953391686,2.11877135883,-0.533200547047,-1.32199889028,-0.418789724041,0.00248563822086,-0.31795311952,-0.0640426752388,-0.0910098712543,-1.26209492131,0.573860362249,0.818922445313,0.00557315924436,0.0,0.818915890138,-0.573775468962,-0.0117992795505,0.0,-0.0064650772762,0.0113353057404,-0.999914853185,0.0,0.346449648153,-0.153119749209,0.30499710053,1.0,-0.306797142857,-0.403219102041,2.131
-0.292214082878,-0.50192108617,-0.143123526801,-2.62640465356,-0.0712704153553,2.11717635564,-0.554270307484,-1.28516913933,-0.358772710914,0.00886818236104,-0.279859914377,-0.0435682814903,-0.0903161156182,-1.21579695083,0.573906677218,0.818889573239,0.00563378975681,0.0,0.818883814592,-0.573821574992,-0.0117832582631,0.0,-0.00641652075688,0.0113761288689,-0.999914702339,0.0,0.341298437869,-0.159910284318,0.305004800701,1.0,-0.296218285714,-0.389315461225,2.148
-0.312621040587,-0.507202211899,-0.142903721399,-2.63042929945,-0.0719839338581,2.11584778071,-0.573745514795,-1.25820201948,-0.320140809755,0.02723646948,-0.235257265912,-0.0528753172992,-0.076304145068,-1.19088745256,0.573968503941,0.818845418077,0.00575192828452,0.0,0.818841436749,-0.573883410457,-0.011716636322,0.0,-0.00629329891245,0.011435117603,-0.999914812609,0.0,0.336639486549,-0.166100767468,0.305033345903,1.0,-0.286261714286,-0.376229681633,2.164
-0.332565885672,-0.511851655814,-0.142685337866,-2.63397467931,-0.0725631731622,2.11466526976,-0.592826346559,-1.24150421204,-0.273457695051,0.0141153590959,-0.211630141143,-0.0383786005734,-0.0768692667176,-1.20105055818,0.574061337706,0.818779280405,0.00590062982055,0.0,0.81877733889,-0.573975912574,-0.0116648191404,0.0,-0.00616421151601,0.0115278456089,-0.999914551985,0.0,0.332110980069,-0.172093107668,0.305050219462,1.0,-0.276305142857,-0.363143902041,2.18
-0.354269281088,-0.516239843312,-0.142210675928,-2.63751424398,-0.0731364124936,2.11335399764,-0.613738972764,-1.21125001352,-0.234112385514,0.013499676153,-0.191022008302,-0.0303654940848,-0.0660486183595,-1.16010034256,0.573915703193,0.818881645669,0.00586198902077,0.0,0.818877497991,-0.573827309961,-0.0119418812721,0.0,-0.0064153415129,0.011654108468,-0.999911508659,0.0,0.32717439542,-0.178464508289,0.304962723447,1.0,-0.265104,-0.3484224,2.198
-0.374173246107,-0.519675458818,-0.141781426042,-2.64029646932,-0.0735460846102,2.11238043866,-0.632847034015,-1.15527612326,-0.1967506842,0.02751225354,-0.154180550529,-0.0224273370628,-0.0507147576778,-1.1031722431,0.573922164899,0.818876965423,0.00588311463392,0.0,0.818872019028,-0.573831741963,-0.0121035230602,0.0,-0.00653550414463,0.0117642246138,-0.999909441002,0.0,0.322708844244,-0.184284911388,0.304891346514,1.0,-0.254525142857,-0.334518759184,2.215
-0.39126049436,-0.522217388525,-0.141364864233,-2.64226954617,-0.0738572018094,2.11160601893,-0.649232843313,-1.11565014805,-0.161977144618,0.0323956306382,-0.122555827655,-0.0237659357657,-0.0452878470556,-1.08648011236,0.573950320185,0.81885728769,0.00587530916688,0.0,0.818851824764,-0.573859180776,-0.0121686737619,0.0,-0.00659293402053,0.0117954489331,-0.999908696135,0.0,0.318922579129,-0.18926337239,0.304873087148,1.0,-0.245190857143,-0.322250840816,2.23
-0.411054276429,-0.524791300878,-0.140876906578,-2.64418044877,-0.0740431049719,2.1108407835,-0.668308123756,-1.08945538867,-0.129789487491,0.021627739042,-0.0971367993066,-0.0124169233567,-0.043902315027,-1.04334015615,0.573998992428,0.818822377286,0.00598481819014,0.0,0.818818503381,-0.573907657312,-0.0121246155121,0.0,-0.00649329852648,0.0118602253071,-0.999908581886,0.0,0.314573306596,-0.194999814764,0.304895695215,1.0,-0.233989714286,-0.307529338776,2.248
-0.43000800606,-0.526781187935,-0.140270609904,-2.64567590869,-0.0741774573537,2.11025432433,-0.686631883091,-1.0456969164,-0.101641099468,0.0313464115988,-0.0776938610611,-0.00863425400846,-0.0332977539382,-0.999777233661,0.57393921645,0.818864127709,0.00600525371116,0.0,0.818860896,-0.573848495277,-0.0120616902288,0.0,-0.00643090345679,0.0118403724375,-0.99990922041,0.0,0.310445659072,-0.2004402846,0.304910115823,1.0,-0.222788571429,-0.292807836735,2.266
-0.444243769695,-0.527981809873,-0.139886868638,-2.64657585889,-0.0742154972288,2.10985955294,-0.700358019532,-0.988640751358,-0.0788655038232,0.0406361947614,-0.0574105305149,0.00294188161215,-0.0225311848374,-0.965163737238,0.574015335743,0.818810273767,0.00607262759969,0.0,0.818807929137,-0.573924329433,-0.0120493223591,0.0,-0.00638100307058,0.0118890403496,-0.999908962616,0.0,0.307337518357,-0.204529553112,0.304916325459,1.0,-0.214076571429,-0.281357779592,2.28
-0.461812314724,-0.529093827767,-0.139298736872,-2.64741889183,-0.0742261472147,2.10947728563,-0.717277925942,-0.964089407068,-0.0614534071587,0.0309337074735,-0.0414439238018,0.000395805755038,-0.0177362215381,-0.918474023761,0.574076478443,0.818767286457,0.00608887740745,0.0,0.818765313647,-0.57398568951,-0.0120223253482,0.0,-0.00634868043699,0.0118873246867,-0.999909188761,0.0,0.303531813394,-0.209542324491,0.304922125773,1.0,-0.202875428572,-0.266636277551,2.298
-0.477580758709,-0.529759130583,-0.13864029558,-2.6479250015,-0.0742050806577,2.10919617738,-0.732527524761,-0.912387639578,-0.0271904229723,0.0407132020013,-0.0276966889417,-0.00306216369665,-0.00809234845644,-0.878086597239,0.574015743807,0.818810325286,0.00602693689995,0.0,0.818807684278,-0.573925485326,-0.012010843529,0.0,-0.00637571276382,0.0118295432837,-0.999909702019,0.0,0.30014118294,-0.21400371905,0.304928238058,1.0,-0.192296571429,-0.252732636735,2.315
-0.491777347632,-0.530102295758,-0.138105081,-2.64819180188,-0.0741763867811,2.10900152138,-0.746227942711,-0.875604516448,-0.0128909249342,0.0381037719489,-0.0124725454937,0.00551217902954,-0.00562380092868,-0.845592583165,0.574041085285,0.818792902727,0.0059801129533,0.0,0.818789679717,-0.573951067412,-0.0120158023201,0.0,-0.00640628478827,0.0117942460499,-0.999909923581,0.0,0.297076245843,-0.218032048427,0.30492961215,1.0,-0.18234,-0.239646857143,2.331
-0.505904821461,-0.530240313189,-0.137365723441,-2.64832102978,-0.0740501868627,2.10887509604,-0.760057036563,-0.817672516391,-0.00791171582093,0.0454757759111,-0.00426746986295,0.00391712110388,-0.0094121222166,-0.804327528627,0.57381040253,0.818955202278,0.00589453226043,0.0,0.818950960888,-0.573720960241,-0.0120137563682,0.0,-0.00645703588597,0.0117211769052,-0.999910456341,0.0,0.294060191704,-0.221972330048,0.304929877357,1.0,-0.171761142857,-0.225743216327,2.348
-0.52030395892,-0.530189166115,-0.136706929074,-2.64832450993,-0.0738861751054,2.10882507837,-0.773829478562,-0.771288414219,0.00488615949039,0.0472194145203,0.00270996749899,0.0111753770919,-0.00499914933626,-0.743714296845,0.573929027123,0.818872305013,0.00586232122086,0.0,0.818867738969,-0.573839863952,-0.012007644099,0.0,-0.00646881813411,0.0116922263306,-0.999910719132,0.0,0.290959160245,-0.226000316771,0.304922672858,1.0,-0.16056,-0.211021714286,2.366
-0.53213071053,-0.529979433163,-0.136015595173,-2.64819830398,-0.0735857488062,2.10882879136,-0.785355456079,-0.735640590505,0.00916502619785,0.0426135546998,0.00486268904816,0.0162949063483,0.00619019852015,-0.706439452374,0.573823285672,0.818946232851,0.00588654575647,0.0,0.81894203906,-0.573734148546,-0.0119920954304,0.0,-0.00644369312027,0.0117023086925,-0.999910763414,0.0,0.288448769005,-0.229255387031,0.304922024221,1.0,-0.150603428572,-0.197935934694,2.382
-0.544168218654,-0.529626836329,-0.135400554075,-2.64797402179,-0.0732880929625,2.10884013088,-0.796849702064,-0.686532514362,0.0294127092005,0.0456332314768,0.0152917784302,0.0177281032188,0.00528393175278,-0.656386413635,0.573974393851,0.818840000532,0.00593259076066,0.0,0.81883619844,-0.573884659127,-0.0120176971134,0.0,-0.00643607219863,0.0117558968189,-0.999910183899,0.0,0.285860513828,-0.232582864798,0.304912392438,1.0,-0.140024571429,-0.184032293878,2.399
-0.555129318349,-0.529101691526,-0.134634651646,-2.64764836764,-0.0728866847684,2.10891298327,-0.80756216168,-0.631958881839,0.0350891523963,0.0464143399748,0.0202300559854,0.0256066434472,-0.000202595138688,-0.614040983085,0.573827841984,0.818942464133,0.00596616337074,0.0,0.818938817206,-0.573737481706,-0.0120524960359,0.0,-0.00644741338748,0.011802207794,-0.999909565287,0.0,0.283557096007,-0.235558827915,0.304894924928,1.0,-0.129445714286,-0.170128653061,2.416
-0.564952820883,-0.528543438214,-0.134015999798,-2.64726494876,-0.0725449826073,2.10900709582,-0.816914857561,-0.603045880913,0.0357226370422,0.0397993689517,0.0227797112935,0.0173732470787,0.0112280449418,-0.57123638452,0.573944553719,0.818860407537,0.00600242668501,0.0,0.818857183076,-0.573853924577,-0.0120554499731,0.0,-0.00642733831405,0.0118345179128,-0.999909312642,0.0,0.281476974514,-0.238248376549,0.304889428082,1.0,-0.119489142857,-0.15704287347,2.432
-0.574461651941,-0.527837022133,-0.133278187417,-2.64677864593,-0.0721502580163,2.10914862733,-0.826076239479,-0.527056391822,0.046536493512,0.0448389942146,0.0226880916802,0.0285394883585,0.00664604746645,-0.520471191213,0.573904374146,0.818888533082,0.00600721441144,0.0,0.818885367104,-0.573813725926,-0.0120544756272,0.0,-0.00642437346867,0.0118375641789,-0.999909295636,0.0,0.279505110824,-0.240827207375,0.304883470647,1.0,-0.108910285714,-0.143139232653,2.449
-0.583631998966,-0.52705617714,-0.132490626513,-2.64624066501,-0.0717381687573,2.10927152008,-0.834902173443,-0.498528712585,0.0415720229042,0.0419966419672,0.0279992899493,0.0144824522383,-0.000166930747422,-0.474013343558,0.573836568378,0.818936150795,0.00599338097367,0.0,0.818932540372,-0.573745507884,-0.0120968344646,0.0,-0.0064679841713,0.011850008833,-0.999908867083,0.0,0.277611367256,-0.243291514294,0.304873177707,1.0,-0.0977091428572,-0.128417730612,2.467
-0.590718867376,-0.526426105003,-0.131882177275,-2.64579792526,-0.0713813147131,2.10936966168,-0.841556221315,-0.465907247719,0.0427755177939,0.0360146430184,0.0304899525482,0.0230517497983,0.00580600254537,-0.430793987534,0.573938293411,0.818864727748,0.0060116476358,0.0,0.81886115407,-0.573846763454,-0.0121263898019,0.0,-0.00648023310948,0.0118827329685,-0.999908399423,0.0,0.276142727959,-0.245188265882,0.304867812885,1.0,-0.088374857143,-0.116149812245,2.482
-0.598237589061,-0.525644036698,-0.131134900787,-2.64525203277,-0.0709157722872,2.10951735423,-0.848757915701,-0.390015028145,0.046646130263,0.042222368292,0.0250001962862,0.0255696014923,0.00296505528714,-0.386375476106,0.573898921978,0.818892075281,0.00604510506317,0.0,0.818888764128,-0.573806934216,-0.01214665108,0.0,-0.0064781978327,0.0119214480995,-0.999907951778,0.0,0.274621691094,-0.247181441406,0.304861234311,1.0,-0.0771737142858,-0.101428310204,2.5
-0.6044704863,-0.524973245285,-0.130375438169,-2.6448094954,-0.0704828654576,2.1096280532,-0.854732851712,-0.354940289722,0.0413338727851,0.0423262501991,0.025146556735,0.0207787713712,0.007061842811,-0.337869816476,0.573782693144,0.81897351593,0.0060455069886,0.0,0.818969819707,-0.573690011593,-0.0122045855416,0.0,-0.00652711102424,0.0119540978827,-0.999907243881,0.0,0.273378209809,-0.248785745827,0.304845260808,1.0,-0.066594857143,-0.0875246693879,2.517
-0.609797447039,-0.52443530997,-0.129704990058,-2.64439609084,-0.0700831508534,2.10976464494,-0.859543940899,-0.317077737193,0.038586556748,0.0418637663862,0.0237791267671,0.0232582034344,0.0122747723109,-0.283884235153,0.573924078381,0.818874399756,0.00605116359728,0.0,0.818871191273,-0.573832102129,-0.0121423873201,0.0,-0.00647086278517,0.0119241615726,-0.999907966918,0.0,0.272331209231,-0.250158926309,0.304864475751,1.0,-0.0566382857144,-0.0744388897961,2.533
-0.614799196783,-0.523848361189,-0.128954302979,-2.64394087608,-0.0695794235916,2.10989887364,-0.864221856636,-0.26330734686,0.0322001854619,0.0421487379892,0.0246354729581,0.0327391192919,0.00334170040043,-0.238894372256,0.573897739414,0.818892503973,0.00609905999076,0.0,0.818890235178,-0.573806143514,-0.0120846719941,0.0,-0.00639649236885,0.0119300562997,-0.999908375123,0.0,0.271393400862,-0.251419976904,0.304886359155,1.0,-0.0454371428572,-0.0597173877552,2.551
-0.618767472227,-0.523398059693,-0.128248146858,-2.64359541964,-0.0691414066928,2.10998091698,-0.867740122894,-0.21577358116,0.0223949018936,0.0418693309069,0.0179250074691,0.0244102569488,0.00452775137823,-0.201909584241,0.57397202771,0.818840309815,0.00611598965976,0.0,0.818838393541,-0.573880589455,-0.0120623882531,0.0,-0.00636744457625,0.011931710315,-0.999908540787,0.0,0.270664599166,-0.252382309844,0.304902686558,1.0,-0.0348582857144,-0.0458137469389,2.568
-0.621565624639,-0.523084241783,-0.127563260849,-2.64337386717,-0.0687544100644,2.11004191559,-0.870234175631,-0.169740668256,0.0188361398475,0.0449718468081,0.0103308551335,0.0282891489096,0.000517068841119,-0.153221039157,0.573913380673,0.818881508057,0.00610361758682,0.0,0.818879470804,-0.573822083349,-0.0120571910938,0.0,-0.0063711429304,0.0119181399027,-0.99990867907,0.0,0.270190352516,-0.253004818481,0.304910281371,1.0,-0.0255240000001,-0.0335458285716,2.583
-0.624073712995,-0.522829620516,-0.126751110211,-2.6431721332,-0.0683347032505,2.11011598258,-0.872333800247,-0.12905142677,0.0103282883042,0.0404769270241,0.00960946483862,0.0122519360357,0.00390050906421,-0.103968569715,0.573862682455,0.818917423713,0.00605158869415,0.0,0.818915123181,-0.573772389404,-0.0120005452052,0.0,-0.0063553434179,0.0118426305706,-0.999909676776,0.0,0.269816855859,-0.253514248715,0.304934664389,1.0,-0.0197981818182,-0.0260204675325,2.601
-0.625947117979,-0.522621869238,-0.126257918597,-2.64300457718,-0.0680410544272,2.11014166988,-0.874064854341,-0.100427001211,0.011586966065,0.028313975616,0.0117476948426,0.0153811788049,0.000236908505623,-0.0929488887339,0.573776097223,0.818978059938,0.0060559471744,0.0,0.818975870677,-0.573685905765,-0.0119896487246,0.0,-0.006345169876,0.011839276405,-0.999909781107,0.0,0.269526057036,-0.253897600209,0.304948729785,1.0,-0.0194781818182,-0.0255998961039,2.617
-0.627426210323,-0.522437574687,-0.125985677244,-2.64283505019,-0.067886814699,2.11019666181,-0.875466044172,-0.0940324942736,0.0166518705278,0.0139709640737,0.0126902972898,0.00691117303192,0.00501817145984,-0.0913070041951,0.573713287344,0.819022156242,0.00604304653496,0.0,0.81902017684,-0.573623867384,-0.011931286453,0.0,-0.00630567363708,0.0117947417002,-0.999910557274,0.0,0.269232227056,-0.254316727163,0.304969114277,1.0,-0.0191381818182,-0.025153038961,2.634
-0.629113428394,-0.522177112976,-0.125811714719,-2.64264350802,-0.0677596093714,2.11025839522,-0.877082819309,-0.0946814904456,0.012901052502,0.00881876346804,0.00835531644189,0.002924081059,0.00654473201068,-0.0839837682636,0.573708716784,0.819025238883,0.00605914680439,0.0,0.819023494991,-0.573619281664,-0.011923978277,0.0,-0.00629051683127,0.0118037011265,-0.999910547018,0.0,0.268917743213,-0.254745278984,0.30497029803,1.0,-0.0187981818182,-0.0247061818182,2.651
-0.630747081137,-0.521925924509,-0.125715100556,-2.64247231489,-0.067708976718,2.11027186978,-0.878551350114,-0.0925432958805,0.0155100040624,0.00214674803125,0.0155541527095,0.00122841643088,-0.000319885523838,-0.0864024125779,0.573806338996,0.818956892387,0.00605315134277,0.0,0.818954731985,-0.573716274595,-0.0119804059178,0.0,-0.00633876660291,0.011831917596,-0.999909908824,0.0,0.26856277144,-0.255198508954,0.304959306425,1.0,-0.0184381818182,-0.024233038961,2.669
-0.632018236581,-0.521730631387,-0.125668521423,-2.64232961364,-0.0676754201164,2.11030003612,-0.879863653398,-0.0851301250445,0.0120539288167,-0.000663443767757,0.00793781589601,0.00458959355127,0.00199728310327,-0.0874168470212,0.573762887962,0.818987306422,0.00605699750445,0.0,0.818985081027,-0.57367260198,-0.0119970702266,0.0,-0.00635083698453,0.0118442922916,-0.999909685727,0.0,0.268266832869,-0.255586802027,0.304955942786,1.0,-0.0181181818182,-0.0238124675325,2.685
-0.633470854971,-0.521484876143,-0.125590158116,-2.64215964878,-0.0676397923179,2.11036184647,-0.88128845671,-0.0762879321364,0.014171288633,0.00669796140143,0.00728145928665,0.00656570739051,0.00231445012355,-0.0705968053371,0.573753117627,0.818994257022,0.00604267157716,0.0,0.81899183129,-0.573662867546,-0.0120017323642,0.0,-0.00636301608376,0.0118351578852,-0.999909716457,0.0,0.267976894808,-0.25597844561,0.304950030645,1.0,-0.0177781818182,-0.0233656103896,2.702
-0.634721194342,-0.521265473306,-0.125579632562,-2.64201410097,-0.0676105497107,2.1103909768,-0.882593376884,-0.0839626989018,0.0113693806513,-0.00052730336736,0.00703504880775,0.00021009149584,0.000789945800672,-0.0764207136273,0.573720480454,0.819016972994,0.00606260306953,0.0,0.819014521137,-0.573629622072,-0.0120423315691,0.0,-0.00638530817891,0.0118745208247,-0.999909107667,0.0,0.26767642546,-0.25636816175,0.304937205062,1.0,-0.0174381818182,-0.0229187532468,2.719
-0.635953973301,-0.52107538579,-0.125575758001,-2.64187157626,-0.0675860998104,2.11040399288,-0.883832212304,-0.0772783320425,0.00289181894539,0.00113644011033,0.00546338027334,0.000808962210945,0.000334258286582,-0.0729286228705,0.573740615292,0.819002721849,0.00608234074603,0.0,0.819000309275,-0.573649262931,-0.0120732534233,0.0,-0.00639902033038,0.0119085840769,-0.999908614906,0.0,0.267393808322,-0.256729706413,0.304931830815,1.0,-0.0171181818182,-0.0224981818182,2.735
-0.637335021216,-0.520869453158,-0.125577191734,-2.64170331771,-0.0675558265729,2.11043291531,-0.885160519842,-0.0780995944556,0.0071604433549,0.00034144536573,0.008373676334,0.00406179661331,0.00136435110529,-0.0822937177535,0.573797497777,0.81896272869,0.00610143122965,0.0,0.818960604484,-0.573706125014,-0.0120647140749,0.0,-0.00638024553133,0.011919764048,-0.999908601669,0.0,0.267099538219,-0.257115903701,0.304937605844,1.0,-0.0167781818182,-0.0220513246753,2.752
-0.638607142231,-0.520677331962,-0.125573936766,-2.6415372949,-0.067532155538,2.11049088111,-0.886479963289,-0.0755683774661,0.0135987621702,-0.000577468260651,0.00894847256298,0.000534256902097,0.00253380277299,-0.0718810345418,0.573775164194,0.818978292326,0.00611265525172,0.0,0.818976552313,-0.57368419384,-0.0120249491047,0.0,-0.00634156067749,0.0119059676973,-0.999909012131,0.0,0.266818520284,-0.257499326763,0.304947445589,1.0,-0.0164381818182,-0.0216044675325,2.769
-0.639793410903,-0.520514397628,-0.125541378916,-2.64138446053,-0.0675069813639,2.11054045903,-0.88764802905,-0.0738218726491,0.0115007188807,0.0058054235482,0.0139751217398,-0.000162856859712,0.000227154175069,-0.068831035371,0.573785612564,0.818970988173,0.00611050292363,0.0,0.81896951681,-0.573695207011,-0.0119786013187,0.0,-0.00630468210383,0.0118776934045,-0.999909581604,0.0,0.266561803793,-0.257848937188,0.304961996087,1.0,-0.0161181818182,-0.0211838961039,2.785
-0.640993445257,-0.520324684824,-0.125508955618,-2.64123568589,-0.0674881466903,2.11055555429,-0.888866030352,-0.0677165831084,0.0145655686699,-0.000785253940762,0.00624240356412,0.00304608926571,-0.000113584603366,-0.0777458969154,0.573763789628,0.818986292418,0.00610847318335,0.0,0.818984674695,-0.573673171397,-0.0119975804187,0.0,-0.00632170843405,0.0118867519871,-0.999909366458,0.0,0.266293452419,-0.2581963688,0.304961892814,1.0,-0.0157781818182,-0.020737038961,2.802
-0.642153401443,-0.5201329664,-0.125443918709,-2.64108621658,-0.0674522256901,2.11058191589,-0.890099822697,-0.0684801787784,0.0105263772304,0.00448565454613,0.009973350694,0.00299995703746,0.00179634330284,-0.0675795247299,0.573680401189,0.819044741381,0.00610375373285,0.0,0.819043007411,-0.573589717332,-0.0120056271629,0.0,-0.00633221733128,0.0118868586801,-0.999909298694,0.0,0.266045490021,-0.25852566391,0.304963101905,1.0,-0.0154381818182,-0.0202901818182,2.819
-0.643224420111,-0.519940939113,-0.125391963431,-2.64093701421,-0.0674281540128,2.11062250022,-0.891136962906,-0.0643072776526,0.0101029842484,0.00295934552897,0.0137505390163,0.00263030040269,7.57442191713e-05,-0.0667696737167,0.573689423492,0.819038511385,0.00609172747516,0.0,0.819036657498,-0.573598857013,-0.0120021585573,0.0,-0.00633614415164,0.0118750881653,-0.999909413676,0.0,0.265818465084,-0.258837070798,0.304964959952,1.0,-0.0151181818182,-0.0198696103896,2.835
-0.644428604887,-0.519734273678,-0.125344026001,-2.6407976288,-0.0674041263304,2.11067602672,-0.892380937573,-0.0635753986749,0.0121495529985,0.00517481640697,0.0103114023531,-0.000303277043752,0.000328814001141,-0.0735152454027,0.573640534886,0.819072805464,0.00608465174975,0.0,0.819070819612,-0.573549933743,-0.0120088660712,0.0,-0.00634640620341,0.0118727616396,-0.999909376223,0.0,0.2655551633,-0.25918358517,0.304957967797,1.0,-0.0147581818182,-0.0193964675325,2.853
-0.645559736409,-0.519538148934,-0.125326929047,-2.64066347337,-0.0673810209183,2.11069385419,-0.893494552422,-0.0673060209347,0.0152412412703,0.00132756914781,0.00791230886463,-8.44875723674e-05,0.000521168779835,-0.0708504038371,0.573659782568,0.819059249468,0.00609480313009,0.0,0.819057149831,-0.573568674485,-0.0120460724459,0.0,-0.00637078156126,0.0119025685419,-0.99990886685,0.0,0.265296965552,-0.259511165033,0.304948688368,1.0,-0.0144181818182,-0.0189496103896,2.87
-0.646598531764,-0.519385810938,-0.125316572297,-2.64053801642,-0.067354908322,2.11072559814,-0.894501178552,-0.0630684175193,0.0105592827978,0.000994988089993,0.0074859327658,0.000937086633155,0.00469652909968,-0.0601123271862,0.57369646362,0.819033460282,0.00610782034981,0.0,0.819031593099,-0.573605409978,-0.0120345357744,0.0,-0.00635333100368,0.0119068976912,-0.999908926339,0.0,0.265062350864,-0.259815648115,0.304952592773,1.0,-0.0140981818182,-0.018529038961,2.886
-0.647681906665,-0.519229882588,-0.125304743812,-2.64040242871,-0.0673342887601,2.11076442103,-0.89559239019,-0.061226374543,0.00988390893227,-0.00118084962378,0.0106215987764,0.000841244670151,0.000563547237205,-0.0603963341018,0.573697471123,0.81903270588,0.00611434612121,0.0,0.819031074978,-0.573606673589,-0.0120095435337,0.0,-0.00632910105188,0.0118979133028,-0.999909186946,0.0,0.264818999033,-0.260135489126,0.304960406787,1.0,-0.0137581818182,-0.0180821818182,2.903
-0.648729990963,-0.519067225772,-0.125276220841,-2.64025858415,-0.0673139325081,2.11080265633,-0.896640374624,-0.0663778212157,0.00740956478613,0.000930632646777,0.00803072872142,0.000939830610206,-0.000494649402505,-0.0596590366535,0.573693437337,0.819035556897,0.00611092431166,0.0,0.819034044365,-0.573602961501,-0.0119843076582,0.0,-0.00631045130991,0.0118806024467,-0.999909510651,0.0,0.264589725682,-0.260444066474,0.304969832235,1.0,-0.0134181818182,-0.0176353246753,2.92
-0.649601675852,-0.518901864461,-0.125262220579,-2.6401229782,-0.0672936232406,2.11083375072,-0.897496367644,-0.0587371361066,0.0113711727991,0.000868281726574,0.0067445567168,0.00301421818202,0.000186905835479,-0.0644760352933,0.573712086557,0.819022467539,0.00611443419577,0.0,0.819021039052,-0.573621664438,-0.0119779204313,0.0,-0.0063029353782,0.0118799566975,-0.999909565728,0.0,0.26439984126,-0.260705827409,0.304973557153,1.0,-0.0131181818182,-0.017241038961,2.935
-0.650771328916,-0.51869189811,-0.125238815269,-2.63997318972,-0.0672777354774,2.1108726799,-0.898684071772,-0.0597510514263,0.0141785668975,-0.00146432633233,0.00182135077782,0.00242289336847,0.000285492474589,-0.0651690370147,0.57369540609,0.819034167608,0.00611230097331,0.0,0.819032617463,-0.573604819558,-0.0119928900935,0.0,-0.00631666307337,0.0118866686725,-0.999909399334,0.0,0.264137087421,-0.261048547815,0.304968178116,1.0,-0.0127181818182,-0.0167153246753,2.955
-0.651522588697,-0.518573212101,-0.125223629474,-2.63988888471,-0.0672658887147,2.11089332946,-0.899464490929,-0.0533685345462,0.0125256019157,0.000479799940374,0.00564182610903,0.00460877171744,0.0010460375617,-0.0611084824443,0.573674361566,0.819048913793,0.0061115134908,0.0,0.819047292564,-0.573583668341,-0.0120022855337,0.0,-0.00632511638032,0.0118912510124,-0.999909291412,0.0,0.263952163335,-0.26128402384,0.304966186336,1.0,-0.0124381818182,-0.0163473246753,2.969
-0.65271750813,-0.518363168107,-0.125224200503,-2.63973636335,-0.0672565959697,2.11094041891,-0.900608650193,-0.0566972840312,0.00757291078771,-0.000984071521992,0.00208190578055,2.91238993774e-05,0.00451330543043,-0.0531137862331,0.573724257559,0.819013926676,0.00611646137817,0.0,0.819012340978,-0.573633478679,-0.0120068466526,0.0,-0.00632528938778,0.0118983056125,-0.999909206397,0.0,0.26369121721,-0.261621639553,0.304960837067,1.0,-0.0120381818182,-0.0158216103896,2.989
-0.653426335362,-0.518236223563,-0.125223620614,-2.63962993838,-0.0672483821301,2.11096443952,-0.901304622676,-0.0530183597018,0.00889604559389,-0.00101736392927,0.00694564779432,0.000142658299,0.000439262593054,-0.0515881989952,0.573743401405,0.81900050398,0.00611806556842,0.0,0.818998984199,-0.573652696487,-0.0119997748043,0.0,-0.00631829844858,0.0118957101274,-0.999909281478,0.0,0.263531878854,-0.26183614062,0.304964493246,1.0,-0.0117781818182,-0.0154798961039,3.002
-0.654468211815,-0.518054566908,-0.125209026461,-2.63948812948,-0.0672324270231,2.11100130796,-0.902380633057,-0.0529498597558,0.0101756211715,0.00307369419134,0.00298931156109,0.00189327713187,0.000640294775607,-0.0599063242594,0.57371930946,0.819017371274,0.00611934678413,0.0,0.819015882075,-0.573628630403,-0.0119969242675,0.0,-0.00631557845665,0.0118949383249,-0.999909307843,0.0,0.263297742308,-0.262144410524,0.30496549387,1.0,-0.0113781818182,-0.0149541818182,3.022
-0.655183254918,-0.517917756603,-0.12518104226,-2.63939305388,-0.0672258401763,2.11102361729,-0.90306080036,-0.04886435959,0.0103172775113,0.00132061954716,0.0070448003047,0.000133654855685,0.00338697412633,-0.0381643215252,0.573735865302,0.819005857052,0.00610818147691,0.0,0.819004132231,-0.57364506007,-0.0120134652149,0.0,-0.0063352922183,0.0118954107539,-0.999909177513,0.0,0.263139145872,-0.262351179232,0.304960846172,1.0,-0.0110981818182,-0.0145861818182,3.036
-0.656281550422,-0.517728519529,-0.125142678302,-2.63924510104,-0.0672120622256,2.11105976213,-0.904093485909,-0.0453735651405,0.0104388802561,-0.00144052167285,0.0111076524695,0.000659352236296,8.27717483706e-05,-0.0445237413167,0.573775974936,0.818977856911,0.0060948648114,0.0,0.81897597552,-0.573685249024,-0.0120138867418,0.0,-0.00634269529643,0.0118850562568,-0.99990925371,0.0,0.262895748179,-0.262670342109,0.304962324533,1.0,-0.0106581818182,-0.0140078961039,3.058
-0.656856056329,-0.517623074259,-0.125141161289,-2.63917265697,-0.067204351434,2.11109790739,-0.904668822276,-0.0460007497702,0.0124865286406,-0.000388789825688,0.00315231088685,0.000108830557433,0.00336338402338,-0.051647698855,0.573781336155,0.818974087228,0.00609669013174,0.0,0.818972280217,-0.573690696324,-0.0120056689907,0.0,-0.00633483936158,0.0118818777769,-0.999909341286,0.0,0.262765999356,-0.26284251783,0.304959669137,1.0,-0.0104181818182,-0.0136924675325,3.07
-0.657843221738,-0.517435205102,-0.125138275838,-2.63903297878,-0.0671857829003,2.11112864986,-0.905687796405,-0.0422698365671,0.00616512391374,0.000903910277717,0.00785570095602,0.00140049856638,0.0038440624586,-0.0442039554623,0.573768496846,0.818983008099,0.0061066662891,0.0,0.818981245952,-0.573677658121,-0.0120170816737,0.0,-0.00633864972072,0.0118964970989,-0.999909143311,0.0,0.262541180992,-0.263136510287,0.30495657993,1.0,-0.00999818181819,-0.0131404675325,3.091
-0.658386318447,-0.517327646102,-0.125134375778,-2.63895491256,-0.067174689315,2.11114565578,-0.90622757297,-0.0481417173086,0.0042786072916,0.00129153380425,0.00434830402432,0.000303890952343,0.0032811716113,-0.0445356130119,0.573777292753,0.818976809578,0.00611151335233,0.0,0.818975047315,-0.573686312949,-0.0120263507201,0.0,-0.00634333291077,0.0119058531193,-0.999909002254,0.0,0.262418146222,-0.263297839185,0.304953944808,1.0,-0.00975818181819,-0.012825038961,3.103
-0.659329557377,-0.517128728767,-0.125109649424,-2.63884249738,-0.0671526603881,2.11117928588,-0.90712492702,-0.0403271278221,0.00976154298102,0.000436227245251,0.00229166800741,0.000832889884181,0.00424695540221,-0.0457058955948,0.573812840816,0.81895186504,0.00611664634845,0.0,0.818949866662,-0.573721263635,-0.0120737089996,0.0,-0.00637865923987,0.0119375058057,-0.999908400135,0.0,0.262203548032,-0.263568104244,0.304935143601,1.0,-0.00933818181819,-0.012273038961,3.124
-0.659883265853,-0.517025301414,-0.125091765272,-2.63878413883,-0.0671387734062,2.11119909479,-0.907684401381,-0.0378792510897,0.00995369879549,-4.74161037776e-05,0.00593183700728,0.000414376719218,-0.00011171807265,-0.0402761341475,0.573804524392,0.818957668609,0.00611978072176,0.0,0.818955568039,-0.573712667801,-0.0120954240949,0.0,-0.00639476771243,0.0119524676894,-0.99990811851,0.0,0.26207684726,-0.263724113957,0.304925639972,1.0,-0.00907818181819,-0.0119313246753,3.137
-0.660721118289,-0.516837875684,-0.125034725083,-2.63868856578,-0.0671201524874,2.11123279438,-0.908540241104,-0.0372003302878,0.00969322919381,0.00289725502236,0.0048402301802,-8.62903687793e-05,0.00626225209427,-0.0460729792041,0.573766972417,0.818984060593,0.00610874450737,0.0,0.818981507775,-0.573674597833,-0.0121446541448,0.0,-0.00644197064537,0.0119713807131,-0.999907589259,0.0,0.261900762303,-0.26394332592,0.304906422283,1.0,-0.00867818181819,-0.0114056103896,3.157
-0.661180922458,-0.516762201447,-0.125010482896,-2.63864230036,-0.0671099374852,2.11124346511,-0.909011273602,-0.0404558985276,0.00517067785743,0.00209480971009,0.00240848200813,0.000143092870241,0.00362801788304,-0.0377594330715,0.573742960748,0.819000907514,0.00610535702837,0.0,0.818998178222,-0.573650360854,-0.0121652974687,0.0,-0.00646117380222,0.0119802607289,-0.999907359002,0.0,0.261788294021,-0.26408200558,0.304898771501,1.0,-0.00841818181819,-0.0110638961039,3.17
-0.661873026277,-0.516619174669,-0.124990530582,-2.63855060074,-0.0670886285835,2.11127105698,-0.909710026613,-0.0362479794776,0.00490430185838,0.00443061797856,0.0052178228143,7.03894279923e-05,-0.000298112125859,-0.0347698667424,0.573741501166,0.819001885419,0.00611133545547,0.0,0.818999077327,-0.573648584012,-0.0121885315072,0.0,-0.0064767960528,0.011998475471,-0.999907039529,0.0,0.261625219856,-0.264290578363,0.304889203045,1.0,-0.00801818181819,-0.0105381818182,3.19
-0.662473195799,-0.516515634205,-0.124977438477,-2.63846570259,-0.0670698567748,2.11129066008,-0.910295249857,-0.0368321701347,0.00877949591901,6.71667413568e-05,0.0036181181072,1.24868977953e-05,0.00193889166608,-0.0309033540555,0.573752685122,0.818994006854,0.0061171851876,0.0,0.818991328401,-0.573659837945,-0.0121795416561,0.0,-0.00646591264804,0.0119981973541,-0.999907113303,0.0,0.261499714162,-0.264457194448,0.304892881243,1.0,-0.00769818181819,-0.0101176103896,3.206
-0.66303962619,-0.51644574215,-0.124979508989,-2.63839129009,-0.0670492316177,2.1113099893,-0.91082598894,-0.0320019623339,0.0019351227567,-0.000102532852095,0.00724646082122,-1.84031366952e-05,0.000739600053338,-0.038611255274,0.573795939766,0.818963596412,0.0061314077856,0.0,0.818961274993,-0.573703338309,-0.0121514022161,0.0,-0.00643407082104,0.0119940417142,-0.999907368558,0.0,0.261369622573,-0.264624516186,0.30490251479,1.0,-0.00737818181819,-0.00969703896105,3.222
-0.663622703871,-0.516384884291,-0.124975650144,-2.6383108679,-0.0670257592415,2.11132647582,-0.911392278482,-0.0330634881748,0.00229788681056,-0.0010111478104,0.000824348490645,0.00597818216607,0.000374217238974,-0.0362066058088,0.573820950422,0.81894597483,0.00614443391174,0.0,0.818944073028,-0.573728752516,-0.0121107675317,0.0,-0.00639294900319,0.0119815905523,-0.999907781593,0.0,0.261237706739,-0.264795869686,0.304918108489,1.0,-0.00703818181819,-0.00925018181819,3.239
-0.664161948971,-0.516319678667,-0.124964975328,-2.6382234958,-0.0670047521205,2.11134658092,-0.911946752933,-0.0288894641341,0.00192815423733,0.000937570056784,0.00743939028748,7.4234501623e-05,0.00154666436378,-0.0330336872878,0.573814182807,0.818950671286,0.00615048872739,0.0,0.818949135821,-0.573722499776,-0.0120645385375,0.0,-0.00635171045666,0.0119599710165,-0.99990830323,0.0,0.261120624195,-0.264956733311,0.304935722094,1.0,-0.00669818181819,-0.00880332467533,3.256
-0.66464810001,-0.516248526319,-0.124934156621,-2.63813797507,-0.0669830120701,2.11136080963,-0.912434672745,-0.0311770337772,0.00476267066418,0.00207242485694,0.00788832166314,0.000213898623063,0.00013098497086,-0.029084583011,0.573804388871,0.818957554107,0.00614774630585,0.0,0.818956186254,-0.573713103017,-0.0120327604618,0.0,-0.00632739928933,0.0119394155027,-0.99990870302,0.0,0.261020591843,-0.265097840169,0.304950272811,1.0,-0.00637818181819,-0.00838275324676,3.272
-0.665130691088,-0.516173046239,-0.124883130513,-2.63807117931,-0.0669544382282,2.11139214553,-0.912898088957,-0.0261638718963,0.00131454909758,0.00392709556893,0.00642719781558,0.00159758788818,0.00362650546945,-0.0241851130297,0.573799452344,0.818961059135,0.00614158050417,0.0,0.818959781547,-0.573708515794,-0.0120067487792,0.0,-0.00630970414264,0.0119194027874,-0.9999090536,0.0,0.260924883951,-0.265230430729,0.304956657814,1.0,-0.00603818181819,-0.0079358961039,3.289
-0.665533586697,-0.516087413228,-0.124843230339,-2.6380149011,-0.0669347941918,2.11142117022,-0.913298992678,-0.0277573058066,0.00197022562825,0.000673268114427,0.00630958531117,3.27420921678e-06,0.00432726113751,-0.0201413361462,0.573784100103,0.818971863599,0.0061351448396,0.0,0.818970521401,-0.573693230222,-0.0120045647627,0.0,-0.00631183123678,0.0119127605152,-0.999909119332,0.0,0.260844012703,-0.265342253357,0.304954051635,1.0,-0.00573818181819,-0.00754161038962,3.304
-0.665945517423,-0.515995868559,-0.124797727223,-2.63796383179,-0.0669109432431,2.11143549667,-0.913745179892,-0.0212481805937,0.00589903941358,0.00277822770952,0.00279931728531,0.00474790180539,0.00027858945494,-0.0282354146178,0.573736674186,0.81900510419,0.00613309921944,0.0,0.819003587828,-0.57364554489,-0.0120274209468,0.0,-0.0063324160207,0.011923832329,-0.999908857211,0.0,0.260758725976,-0.265451221394,0.304945775151,1.0,-0.00539818181819,-0.00709475324676,3.321
-0.666386271284,-0.515875762629,-0.124769163371,-2.63792007112,-0.0668826363984,2.11144914488,-0.914200984072,-0.0212134723004,0.00424332729768,0.00277521459689,0.00255499962698,7.3066056875e-06,-0.000151556222725,-0.0176643617168,0.573718716029,0.819017586206,0.00614615851128,0.0,0.819015853796,-0.57362680794,-0.0120856669352,0.0,-0.00637289517106,0.0119678049945,-0.9999080747,0.0,0.260659992497,-0.265568392333,0.304923181972,1.0,-0.00501818181819,-0.00659532467533,3.34
-0.666748535348,-0.51581999705,-0.124747083727,-2.63790393668,-0.0668628508233,2.11145260732,-0.914567631326,-0.0208186723326,0.00377727391691,0.0034943096661,0.00258987170564,0.000743511349774,-0.000435103826037,-0.0222209914341,0.573708892676,0.81902439015,0.00615643604056,0.0,0.819022571749,-0.573616528536,-0.0121182530481,0.0,-0.00639383444376,0.011994840554,-0.999907617073,0.0,0.260573436297,-0.265659791988,0.304910756323,1.0,-0.00469818181819,-0.00617475324676,3.356
-0.667115412914,-0.515762836289,-0.124733837034,-2.63788411045,-0.0668429195147,2.1114561395,-0.914935542361,-0.0233692021918,0.00440618622862,-0.0012929239707,0.000911066703918,0.0013642178637,0.00127332779276,-0.0200731160591,0.573708327763,0.819024678574,0.00617069227841,0.0,0.819022839234,-0.573615512019,-0.0121482544386,0.0,-0.00641023879295,0.012023724143,-0.999907165139,0.0,0.260484481961,-0.265755202949,0.30489929061,1.0,-0.00435818181819,-0.0057278961039,3.373
-0.667442522119,-0.51572073909,-0.124707975324,-2.63785886214,-0.0668238826141,2.11146408679,-0.915249395071,-0.0237227631351,0.00724419367485,0.000295423948105,0.000125238788635,0.000298729032873,4.61288062479e-05,-0.0175682259258,0.573710292237,0.819023269747,0.00617503814593,0.0,0.819021444294,-0.573617376203,-0.0121542751836,0.0,-0.00641264848642,0.0120307530577,-0.999907065142,0.0,0.260411035971,-0.265839903143,0.304896518782,1.0,-0.00403818181819,-0.00530732467533,3.389
-0.66775979966,-0.515681460052,-0.124689903621,-2.63781743439,-0.0668043616392,2.1114689122,-0.915549106765,-0.0247667021475,6.80201490424e-05,0.00285367949619,0.00327695037955,-0.000272028202726,-0.000219802992307,-0.0145745317505,0.573722258379,0.819014842214,0.00618104961921,0.0,0.819013153293,-0.573629421822,-0.012144465971,0.0,-0.00640098920059,0.0120301430005,-0.999907147187,0.0,0.260341710483,-0.265927473138,0.304901686673,1.0,-0.00369818181819,-0.00486046753247,3.406
-0.668064895751,-0.515644128397,-0.124675881265,-2.63776813088,-0.0667848179603,2.11147366965,-0.915845402698,-0.0250401663496,0.00666130593723,0.00417200909546,0.00035898076871,0.000110787395977,0.000351979542635,-0.00856735026907,0.573730283073,0.819009171144,0.00618763024626,0.0,0.819007687151,-0.57363763943,-0.0121249296242,0.0,-0.00638109380942,0.0120243875492,-0.99990734358,0.0,0.260276504071,-0.266014802277,0.304911049394,1.0,-0.00333818181819,-0.00438732467533,3.424
-0.66831409664,-0.515609714548,-0.124651397751,-2.63771524571,-0.066766379245,2.11148282328,-0.916084077113,-0.0144869836653,0.00315195548148,0.000800599517599,-0.000361864659094,0.000103881339842,0.000220816965487,-0.0103469919729,0.573731960895,0.819008007419,0.00618609185625,0.0,0.819006693451,-0.573639682297,-0.0120953659695,0.0,-0.0063577362207,0.0120061798281,-0.999907711159,0.0,0.260229929514,-0.266087040055,0.304923735476,1.0,-0.00301818181819,-0.00396675324676,3.44
-0.668554250456,-0.515572000034,-0.124625604229,-2.637671636,-0.0667512657189,2.11149294235,-0.916297789663,-0.0154940965362,0.0042654498616,0.00294111168532,0.000772119419512,0.00247642182106,0.000430427891835,-0.0121814117012,0.573743911484,0.818999663657,0.00618238350122,0.0,0.81899841796,-0.573651866937,-0.0120778243044,0.0,-0.00634532037249,0.0119931713711,-0.999907946138,0.0,0.260183720307,-0.266154627363,0.304931100549,1.0,-0.00267818181819,-0.0035198961039,3.457
-0.668788347044,-0.515560202937,-0.124597597409,-2.63764732215,-0.0667398506783,2.11150463052,-0.916521529863,-0.0124179802657,-0.00107520164117,-0.000135814526629,0.00211060152988,0.00290216050934,0.000279118656086,-0.0129820734391,0.573739714621,0.819002617047,0.00618061796603,0.0,0.819001554674,-0.573648069091,-0.0120454626695,0.0,-0.00631988756531,0.0119731265573,-0.999908347431,0.0,0.26013229227,-0.266220871522,0.304941873004,1.0,-0.00229818181819,-0.00302046753247,3.476
-0.668983402055,-0.515541754935,-0.124580113115,-2.6376316045,-0.0667264663578,2.11151731124,-0.916695705628,-0.0103463980109,0.00391518199922,0.00702473000316,-4.25896183245e-05,0.000253065875448,0.00368091479551,-0.01243503846,0.57374971297,0.818995635064,0.00617766242425,0.0,0.818994569206,-0.57365814441,-0.0120405923703,0.0,-0.00631744786218,0.0119679888131,-0.999908424355,0.0,0.260094028853,-0.266267398251,0.304941280677,1.0,-0.00199818181819,-0.00262618181819,3.491
-0.669172714928,-0.51552834737,-0.124551114876,-2.63761397665,-0.0667132719545,2.11152434138,-0.916867131409,-0.00767274999728,-0.000288034959016,-0.000222304345492,0.00399659301248,0.00353930060117,0.000102429531578,-0.0159231895608,0.57375025402,0.818995287224,0.00617352560808,0.0,0.818994251518,-0.573658862368,-0.012027988524,0.0,-0.006309489716,0.0119573736721,-0.9999086016,0.0,0.260056059206,-0.266314445153,0.304945626348,1.0,-0.00165818181819,-0.00217932467533,3.508
-0.669329909065,-0.515507381642,-0.124534988665,-2.63760024955,-0.0667039458283,2.11153682146,-0.916988087574,-0.0128239075787,0.00056493686331,-0.000318473846441,0.00210730876217,-2.38931589725e-05,1.59680762226e-05,-0.0113865546969,0.573768935895,0.818982229751,0.00616947771286,0.0,0.818981198931,-0.573677666769,-0.0120198731377,0.0,-0.00630489231289,0.0119495461397,-0.999908724174,0.0,0.260021716362,-0.266356934953,0.304945735146,1.0,-0.00133818181819,-0.00175875324676,3.524
-0.669487077047,-0.515484780744,-0.124501283162,-2.6375822341,-0.0666962657092,2.11154468924,-0.917109782589,-0.00416338564442,0.000659721878367,0.000272921238489,0.000512506649541,-0.000275212097439,5.02125747383e-05,-0.0101955693027,0.573782477966,0.818972806935,0.00616087500813,0.0,0.818971685771,-0.573691283757,-0.0120181424036,0.0,-0.00630821297857,0.0119416116331,-0.999908798021,0.0,0.259994353994,-0.26639419983,0.304946876063,1.0,-0.00101818181819,-0.00133818181819,3.54
-0.669644754346,-0.51545805197,-0.124479562015,-2.63757385267,-0.0666868814347,2.11155323711,-0.917172456072,-0.00914068028982,0.00116445601473,0.00183601400752,0.000342985918086,-0.000326782597299,-0.000132163094829,-0.000407474954873,0.573849357191,0.818925968796,0.00615790421772,0.0,0.818924761701,-0.57375807209,-0.0120273141498,0.0,-0.00631645425134,0.0119449567151,-0.99990870604,0.0,0.25996068037,-0.266432527683,0.304942059287,1.0,-0.000638181818187,-0.000838753246761,3.559
-0.669708534048,-0.515445539156,-0.12447557884,-2.63756537305,-0.0666773087968,2.11155374389,-0.917214712274,-0.00594770453871,0.00184204998018,0.000171824294899,0.000464297379816,0.0041376048772,-0.00018851374924,-0.000109527831805,0.573868687426,0.818912378848,0.00616378643211,0.0,0.818911228722,-0.573777335879,-0.0120297633093,0.0,-0.00631480271014,0.0119513285011,-0.999908640334,0.0,0.259947162796,-0.2664493647,0.30494143391,1.0,-0.000318181818187,-0.000418181818189,3.575
