nelsonifechukwu/NELSON_IML_WORK/CNN-GradCAM/train2dof/data_sample_2022-02-21-10-19-07/robot_state.csv
position_joint1,position_joint2,position_joint3,position_joint4,position_joint5,position_joint6,position_joint7,velocity_joint1,velocity_joint2,velocity_joint3,velocity_joint4,velocity_joint5,velocity_joint6,velocity_joint7,ee_T_00,ee_T_10,ee_T_20,ee_T_30,ee_T_01,ee_T_11,ee_T_21,ee_T_31,ee_T_02,ee_T_12,ee_T_22,ee_T_32,ee_T_03,ee_T_13,ee_T_23,ee_T_33,v_x,v_y,time
0.46507857872,0.547679739085,-0.123957279124,-1.35576648869,0.0794229932567,1.89408681251,0.159173148066,0.00166715945219,0.00205341737054,-0.000102958120463,0.000194244975166,0.000252605129076,-8.25148670021e-05,0.00148732251851,0.573767036229,0.819004251843,0.00204218042519,0.0,0.818962897942,-0.573708681215,-0.0117842180219,0.0,-0.00847987128985,0.00843402822901,-0.999928476918,0.0,0.661688160582,0.260907637439,0.303315533582,1.0,0.0,0.0,0.0
0.465080749999,0.547674928386,-0.123949551625,-1.35577202068,0.0794199085055,1.89408261319,0.159168468704,-0.000614623738222,0.00162092529901,0.000928346026074,-0.00168134472081,4.66927229847e-05,0.00019443479598,-0.000195549404832,0.57375547365,0.819012360699,0.0020387205098,0.0,0.818970938983,-0.573697110977,-0.0117886750358,0.0,-0.0084856258786,0.00843363205264,-0.999928431441,0.0,0.661684013366,0.260912166447,0.303315682132,1.0,-0.00012,-0.000157714285714,0.007
0.465080828957,0.547657911894,-0.12394949252,-1.3557673244,0.0794233542403,1.8940851849,0.159172334264,-0.000666415378117,-0.00138926207145,0.000685495717197,-0.000367879064736,0.000162276176896,-0.000140680027639,0.0011884526238,0.57375917606,0.819009709912,0.00206151819416,0.0,0.818968561811,-0.573700700582,-0.0117791263829,0.0,-0.00846468742107,0.00844686306706,-0.999928497229,0.0,0.661685827294,0.260913771441,0.303330200212,1.0,-0.00044,-0.000578285714286,0.023
0.465083594663,0.547620872419,-0.123946983836,-1.35577133331,0.0794218811666,1.89408615574,0.159168486255,-0.000149160514268,-0.0015267605119,0.00124312333259,-0.000796748647651,-0.00055703503964,0.00119482855827,0.00085472999023,0.573751773416,0.819014819899,0.00209145641461,0.0,0.818974058582,-0.573693179613,-0.0117632451322,0.0,-0.00843458020467,0.00846219422742,-0.999928622015,0.0,0.661684868401,0.260916896764,0.303354530266,1.0,-0.00076,-0.000998857142857,0.039
0.465078605225,0.547505999531,-0.123954545372,-1.3558500166,0.0794240740698,1.89409410341,0.159165516106,-0.000622767826098,-0.00721902430582,-0.00111830016128,-0.00747128891837,4.10581560107e-05,0.00129322952083,-0.00150388133154,0.573763432377,0.81900654352,0.00213359783224,0.0,0.818966279869,-0.573704624017,-0.0117466471615,0.0,-0.00839668760979,0.00848730468062,-0.999928728108,0.0,0.661674368394,0.260902289193,0.303399399594,1.0,-0.0011,-0.00144571428571,0.056
0.465060860994,0.547378596029,-0.123961922464,-1.3559895898,0.0794203480698,1.89413018368,0.159164841607,-0.00109266907293,-0.00742884298676,-0.00136817100456,-0.00677108579747,-0.000223144204674,0.00404772866885,-0.000672246034529,0.573789217922,0.818988419435,0.00215618378166,0.0,0.81894842626,-0.573730296644,-0.0117374928984,0.0,-0.00837596405956,0.00850081385226,-0.999928787159,0.0,0.661659464847,0.260873233983,0.303426586387,1.0,-0.00144,-0.00189257142857,0.073
0.46503169578,0.547251293306,-0.12396050905,-1.35617054969,0.0794147546255,1.89421484566,0.159160934989,-0.00171809830587,-0.00898436228729,0.000447018304901,-0.0129544847633,-0.00267650200594,0.00549641756028,-0.000511400421769,0.573817664539,0.818968412025,0.00218514751642,0.0,0.818928764824,-0.573758598825,-0.011725839852,0.0,-0.00834950601991,0.0085181381958,-0.999928861005,0.0,0.66164582218,0.260839795845,0.303437925724,1.0,-0.00176,-0.00231314285714,0.089
0.465007992275,0.547080853152,-0.123963676472,-1.35638989345,0.0794043570711,1.8943429978,0.159149601568,-0.00104914718625,-0.00672508168112,-0.000983496158286,-0.012463927971,0.000301417542929,9.65239022204e-05,-0.00239183353721,0.57383979005,0.818952727987,0.00225201690358,0.0,0.818914000343,-0.573780523906,-0.0116840630689,0.0,-0.00827669123738,0.0085491530674,-0.999929201676,0.0,0.661633083648,0.260805513579,0.303465468786,1.0,-0.00212,-0.00278628571429,0.107
0.465009767987,0.546899887594,-0.123958311845,-1.35664814783,0.0793983261842,1.89447442339,0.159134350735,-0.000780278875736,-0.0107029045729,0.000510129565986,-0.0146982407617,-0.000507140316758,0.00254219466349,-0.000741908727247,0.573835160442,0.818955829218,0.00230333063088,0.0,0.818917701623,-0.57377563792,-0.0116645702577,0.0,-0.0082313312844,0.00857994396212,-0.999929312375,0.0,0.661603492444,0.260789472404,0.303481948997,1.0,-0.00246,-0.00323314285714,0.124
0.465002898583,0.546706167682,-0.123954937098,-1.3569536653,0.0793839925815,1.89456504881,0.159109335994,-0.00144344097309,-0.0122189648377,0.000928944424872,-0.0243415932334,-0.00211991104243,0.00547215262052,-0.00140704405254,0.573831090816,0.818958721085,0.00228894566359,0.0,0.818920323846,-0.573771535165,-0.0116822741064,0.0,-0.00825412731173,0.00857828137626,-0.999929138725,0.0,0.661558419944,0.260756987587,0.303481459451,1.0,-0.00276,-0.00362742857143,0.139
0.46498090019,0.546422297797,-0.123953379362,-1.35736000679,0.079374511607,1.89471050664,0.159005323597,-0.00460536929099,-0.0172902062352,0.00122681983027,-0.0224271072688,0.000289788248933,0.00785665948932,-0.0107539277085,0.573782971097,0.818992352614,0.00231847783689,0.0,0.818954186138,-0.573723153895,-0.0116846306581,0.0,-0.00823961737346,0.00860333486603,-0.99992904315,0.0,0.661507603935,0.260707173511,0.303501645977,1.0,-0.00312,-0.00410057142857,0.157
0.464939969809,0.546138727865,-0.123953353151,-1.35779534763,0.0793599126468,1.89487218349,0.158951924516,-0.00217196295685,-0.0177573803534,-0.000699323753634,-0.024376103384,-0.000314614237036,0.0055317640474,-0.000727640674935,0.573793206206,0.818985139974,0.00233321995665,0.0,0.818947061377,-0.573733225472,-0.0116894633443,0.0,-0.00823500951126,0.00861828420688,-0.999928952374,0.0,0.661458905363,0.260640774834,0.303509248786,1.0,-0.00346,-0.00454742857143,0.174
0.464881738976,0.545853244578,-0.123955092666,-1.3582675875,0.07932635001,1.89502567293,0.158921542664,-0.00836834763912,-0.0203725427983,-0.000829348049357,-0.0298093587593,-0.00527530592263,0.00843196829472,-0.00108555317339,0.573834609969,0.81895622016,0.00230147006554,0.0,0.818917753956,-0.573774766836,-0.0117036788968,0.0,-0.00826443429706,0.00860085630497,-0.999928859668,0.0,0.661406092923,0.260553925005,0.303499935025,1.0,-0.00378,-0.004968,0.19
0.464823077555,0.545517098162,-0.123958364471,-1.3588339035,0.0792236882867,1.89521995038,0.158821713807,-0.000840528896841,-0.0195396754178,0.00186822270776,-0.0333676999674,-0.00199834898181,0.00853808003375,-0.0147310058772,0.573807505756,0.818975402867,0.00223220482923,0.0,0.818936627996,-0.573748533251,-0.0116690538994,0.0,-0.00827610321227,0.00852398912159,-0.999929421372,0.0,0.661345436593,0.260446984825,0.303485158839,1.0,-0.00412,-0.00541485714286,0.207
0.464747776719,0.545141284346,-0.123956829977,-1.3594911507,0.079216512609,1.89544667269,0.15874807385,-0.000673237533153,-0.0238052697978,-0.000528556644299,-0.0438146019389,-0.000356280744989,0.0154699538627,-0.00265967897634,0.573848582976,0.818946719794,0.00219564493796,0.0,0.81890715905,-0.573789422794,-0.011726467835,0.0,-0.00834367516825,0.00852741048794,-0.999928830645,0.0,0.661265172074,0.260330858981,0.303452441099,1.0,-0.00448,-0.005888,0.225
0.464695235496,0.544740052761,-0.123959047619,-1.36019300368,0.0791931256749,1.89568192504,0.158670332556,-0.0107541566557,-0.0253321584915,0.000957838833926,-0.0432602967174,0.000130786611451,0.00769092206068,-0.00846979100019,0.573856329335,0.818941396302,0.00215629486014,0.0,0.818901120009,-0.573797110751,-0.0117719260587,0.0,-0.00840340359455,0.00852135061568,-0.999928382131,0.0,0.661180887116,0.260237331961,0.303428391994,1.0,-0.0048,-0.00630857142857,0.241
0.464629230485,0.544333515945,-0.123961579734,-1.36087903377,0.0791501599482,1.89592876647,0.158560150963,-0.00282723350092,-0.0230277722433,-0.00030397402127,-0.0383837126672,1.44857472137e-05,0.0159083426876,-0.00560075730729,0.573848753989,0.818946782952,0.00212629691079,0.0,0.818906125101,-0.573789661264,-0.0117868486044,0.0,-0.00843291692131,0.00850526970192,-0.999928270577,0.0,0.661103231751,0.260125930543,0.303411022924,1.0,-0.00512,-0.00672914285714,0.257
0.464558314744,0.543818390184,-0.123964775546,-1.36171525293,0.0791017226221,1.89623421112,0.158488881089,-0.00691331496445,-0.0314971991347,0.000136305031724,-0.04840053278,-0.00130480713765,0.0260314047126,-0.00431057663469,0.573884398816,0.81892184171,0.00211207650418,0.0,0.81888098669,-0.573825344939,-0.0117961877115,0.0,-0.00844835539436,0.00849935102371,-0.999928190583,0.0,0.661007214792,0.259997596698,0.303404067992,1.0,-0.00548,-0.00720228571429,0.275
0.464474529563,0.543326737541,-0.123969801291,-1.36250642436,0.0790694499315,1.89649567897,0.158374563485,-0.00677113446958,-0.0286208198449,-0.00109277959741,-0.0478520500693,-0.000666741675472,0.0164315309418,-0.00332077340068,0.573898172507,0.818912251827,0.00208765459361,0.0,0.81887091609,-0.573839049629,-0.0118285588231,0.0,-0.00848873744825,0.00849807153573,-0.999927859456,0.0,0.660914915267,0.259864371094,0.303398158832,1.0,-0.0058,-0.00762285714286,0.291
0.464397833288,0.542777592788,-0.123976796913,-1.36340000719,0.0790137920529,1.89678908299,0.158254543775,1.47132741628e-05,-0.0294388126756,0.000672059542593,-0.0533454139319,-0.0010848612557,0.0220589723558,-0.00183107452382,0.573902240219,0.818909516011,0.00204209676285,0.0,0.818867578506,-0.573843290155,-0.0118538650546,0.0,-0.0085355637056,0.00847532971774,-0.999927653852,0.0,0.660806704037,0.259721678767,0.303386914948,1.0,-0.00614,-0.00806971428571,0.308
0.46431192546,0.54216693379,-0.123971892926,-1.36429946985,0.0789774296759,1.89713270696,0.158145903838,-0.00387371192268,-0.0365467808806,0.000895362530796,-0.0488408042697,0.000103055493986,0.0220915099877,-0.00340065154594,0.5739204808,0.818896586198,0.00209993611183,0.0,0.818855224911,-0.573861120603,-0.0118440616949,0.0,-0.0084941535371,0.0085172572233,-0.999927650225,0.0,0.660707235389,0.25958645228,0.303420304822,1.0,-0.00648,-0.00851657142857,0.325
0.464241242427,0.541582133049,-0.123977328399,-1.36518658258,0.0789197908982,1.89746865655,0.158017748396,-0.00238062175077,-0.0372716378252,0.000567087612843,-0.0524932268071,-0.00165399978907,0.0263000449933,-0.0066991023457,0.573911106106,0.818903091871,0.00212492659412,0.0,0.818862121225,-0.573851713767,-0.0118230254217,0.0,-0.00846268223833,0.00852555163891,-0.999927846386,0.0,0.660607863583,0.259452460959,0.303440843405,1.0,-0.0068,-0.00893714285714,0.341
0.464169351798,0.540890366792,-0.123980674645,-1.36626687486,0.0788511762135,1.89786635288,0.157867740504,-0.00346746507125,-0.0343686028969,-0.000385051815143,-0.0638175116467,-0.00192097616146,0.0256543757598,-0.0062711408702,0.573891042451,0.818917140034,0.00212980147883,0.0,0.81887626443,-0.573831665249,-0.0118165313205,0.0,-0.00845477528549,0.00852560950105,-0.99992791278,0.0,0.660479334055,0.259299775562,0.303450250914,1.0,-0.00716,-0.00941028571429,0.359
0.464098816248,0.540195738555,-0.123978248851,-1.36732358613,0.078781486232,1.89826039223,0.157737854178,-0.0058203096806,-0.0458880193679,-0.00133622504939,-0.056924609595,-0.000705674400211,0.0222438651438,-0.0126281656519,0.573880616647,0.818924382377,0.00215422527172,0.0,0.818883859268,-0.573821180245,-0.011799365817,0.0,-0.00842681051843,0.00853565197311,-0.999928063167,0.0,0.660353788341,0.2591537543,0.303472284725,1.0,-0.0075,-0.00985714285714,0.376
0.464016837691,0.539570895604,-0.123984250757,-1.36831196395,0.0787171729865,1.8986659174,0.157621444967,-0.00888940120287,-0.0412687355702,-0.00554399894542,-0.0712954741229,-0.00709039321944,0.0256481813753,-0.00632977778378,0.573894391484,0.818914651579,0.0021835185253,0.0,0.818874623238,-0.57383495562,-0.0117703876932,0.0,-0.00838612513959,0.00854315187463,-0.999928341163,0.0,0.660248904035,0.259004135553,0.303478717221,1.0,-0.0078,-0.0102514285714,0.391
0.463909230022,0.538838063088,-0.123982888255,-1.36950685175,0.0786557091409,1.89909879839,0.157478974645,-0.00601714659187,-0.0417630197707,-0.000640640044912,-0.0734216987926,-0.00405937128932,0.0292221054333,-0.0101189181015,0.573923391063,0.818894358623,0.00217198245617,0.0,0.818854034189,-0.573863847572,-0.0117941529449,0.0,-0.0084119050574,0.00854764141787,-0.999928086254,0.0,0.660100216699,0.258809960475,0.303472104212,1.0,-0.00816,-0.0107245714286,0.409
0.463793164237,0.53799140479,-0.123986737667,-1.37080714927,0.0785807035857,1.89957513275,0.157321530344,-0.00375644020682,-0.0489565429503,-0.000673141406105,-0.0800204164512,-0.00735938525753,0.0249244090276,-0.0117240838997,0.573934884211,0.818886271292,0.00218409632132,0.0,0.818846092816,-0.573875280568,-0.0117892126232,0.0,-0.00840078721847,0.00855484382812,-0.999928118127,0.0,0.659960529156,0.258619212999,0.303485700577,1.0,-0.0085,-0.0111714285714,0.426
0.46368141483,0.537232411899,-0.123990644241,-1.37196952073,0.078521544911,1.90002324446,0.157170554255,-0.00618650620839,-0.0482128737914,-0.00124515754687,-0.0760688093467,-0.00454204166063,0.0272822776091,-0.0149606261745,0.573953806474,0.818872894505,0.00222656256936,0.0,0.818833202937,-0.573893970288,-0.0117746990189,0.0,-0.00836433207378,0.00858148190228,-0.999928195481,0.0,0.659833667564,0.25843602322,0.303507365505,1.0,-0.00882,-0.011592,0.442
0.46354736849,0.536347587455,-0.123993273056,-1.37332759618,0.0784521263724,1.90056043244,0.157005118077,-0.00824003811497,-0.0516962189191,-0.000556698623905,-0.074623638109,-0.0097621739566,0.0286966453761,-0.00140549066991,0.573986279664,0.818849969989,0.00228567440762,0.0,0.818810983675,-0.573926149719,-0.0117513651591,0.0,-0.00831095670729,0.0086168235793,-0.999928336607,0.0,0.659688285148,0.258221681308,0.303532254245,1.0,-0.00918,-0.0120651428571,0.46
0.46343283721,0.535471059029,-0.123999930776,-1.37471133239,0.0783645758207,1.90104508172,0.156840488407,-0.00441891297773,-0.0525723819961,0.00033546190129,-0.0818759665295,-0.00619189345033,0.031133944106,-0.00526744074037,0.574002291081,0.818838809517,0.00226291058591,0.0,0.818799542108,-0.573942260553,-0.0117617301866,0.0,-0.00833234155018,0.00860429588515,-0.999928266515,0.0,0.6595227906,0.258008260597,0.303534438997,1.0,-0.00952,-0.012512,0.477
0.463340441191,0.534673906655,-0.124007382098,-1.37598826458,0.0782920000727,1.90150205097,0.156675344476,-0.0115773091751,-0.0500950436391,-0.00182434461216,-0.0869764496969,-0.00319648628266,0.0308944817996,-0.0163952048707,0.573998465836,0.818841543388,0.00224386743463,0.0,0.818801985384,-0.573938463971,-0.0117768928995,0.0,-0.00835572820304,0.00859736709301,-0.99992813096,0.0,0.659367822223,0.257821164268,0.303528942118,1.0,-0.00982,-0.0129062857143,0.492
0.463218138011,0.533774310482,-0.124000616099,-1.37744622701,0.0782032280547,1.90205939712,0.156496424694,-0.0106390106886,-0.0497581389714,0.00106793406877,-0.0919472355375,-0.0074404255887,0.0378888640821,-0.0108027166492,0.57400352013,0.818838005569,0.00224196674385,0.0,0.81879839972,-0.573943501117,-0.0117807063262,0.0,-0.00835988878375,0.00859805122208,-0.999928090302,0.0,0.659198539137,0.257606661818,0.303517628924,1.0,-0.01016,-0.0133531428571,0.509
0.463067187176,0.532805134659,-0.124011300381,-1.37903074422,0.0781021269411,1.90266527276,0.156289114217,-0.0199053556589,-0.0554881747131,-0.00132087177634,-0.0956996125638,-0.0112420144232,0.0370039116429,-0.0108082014195,0.574024544183,0.818823311469,0.00222579694075,0.0,0.818783597179,-0.573964689098,-0.0117772476112,0.0,-0.00836611711357,0.0085830404676,-0.99992816717,0.0,0.659022963541,0.257350354684,0.30349972936,1.0,-0.01052,-0.0138262857143,0.527
0.462924691726,0.531828402668,-0.124020551469,-1.38059557822,0.0780197953306,1.90323070482,0.156094644336,-0.00793709772713,-0.0629058449592,0.000617841109029,-0.0921359833245,-0.00479451487514,0.0372827577967,-0.0170030923289,0.574051731938,0.818804293044,0.00221035143771,0.0,0.818764274626,-0.573991827174,-0.011797958959,0.0,-0.00839165734974,0.00858256080619,-0.999927957273,0.0,0.65884011489,0.257103207941,0.303492778947,1.0,-0.01086,-0.0142731428571,0.544
0.462794048778,0.530889922472,-0.12401660735,-1.38211877762,0.0779244680418,1.90376742961,0.155911512053,-0.0103524969249,-0.0576981493514,0.00193682924422,-0.0929888698392,-0.00650045024812,0.0305550567427,-0.0136926053855,0.574063148059,0.818796401984,0.00216818815147,0.0,0.818755784808,-0.574003354974,-0.0118262514297,0.0,-0.00843890732159,0.00856439660823,-0.999927715364,0.0,0.658654472618,0.256871974225,0.303475538283,1.0,-0.01118,-0.0146937142857,0.56
0.462666162013,0.529873039175,-0.124025352698,-1.38377105722,0.077821317926,1.90435812561,0.155691678829,-0.00822808875798,-0.0569234656902,-4.41874185583e-05,-0.0960541187044,-0.0051613359427,0.0321025674454,-0.0137638794013,0.574055994071,0.818801529275,0.00212561267806,0.0,0.818760372511,-0.573996384673,-0.0118469274488,0.0,-0.0084803515929,0.00854133158851,-0.999927562022,0.0,0.658453713288,0.256623307304,0.303456985466,1.0,-0.01152,-0.0151405714286,0.577
0.462554210753,0.528875133121,-0.1240223092,-1.38535148686,0.0777347276363,1.9049290254,0.155480608129,-0.00549361353831,-0.0649730883239,-0.000204628306914,-0.0959992804598,-0.0101058570165,0.0406742271636,-0.017072256589,0.574035054664,0.818816220514,0.00212130673372,0.0,0.818774867006,-0.573975323416,-0.0118655876595,0.0,-0.00849832154199,0.00854830048079,-0.999927349906,0.0,0.658257160993,0.256401612285,0.303456947163,1.0,-0.01184,-0.0155611428571,0.593
0.462425356046,0.527756223512,-0.124019356448,-1.38706074974,0.0776242438328,1.90558764103,0.155235474143,-0.0134098621921,-0.0683985055521,0.00328236312135,-0.0996310594179,-0.00202804368558,0.0412270631932,-0.0151266659454,0.57400061378,0.818840221862,0.00217562449473,0.0,0.818799635313,-0.573940732087,-0.0118296307682,0.0,-0.00843806042637,0.00857178089797,-0.999927659238,0.0,0.658056379346,0.256157140513,0.303488100254,1.0,-0.01218,-0.016008,0.61
0.462259972657,0.526472063297,-0.124015020341,-1.38902869653,0.0775159080246,1.90635872014,0.154967372771,-0.00686943767852,-0.0613612240925,0.00128146684771,-0.108781818132,-0.00379653500145,0.0404444046853,-0.00954137815258,0.573990803976,0.818846882512,0.00225540523842,0.0,0.818807250393,-0.573930528033,-0.0117975674219,0.0,-0.00836611645887,0.00861860330604,-0.999927861284,0.0,0.657830146325,0.255868881062,0.303521860719,1.0,-0.01256,-0.0165074285714,0.629
0.46212651976,0.52551348226,-0.124022283006,-1.39054121653,0.0774140960509,1.90689549301,0.154756919855,-0.0124905342378,-0.0589313377753,-0.00018927992892,-0.10958302186,-0.00860923655418,0.0369446856378,-0.0165308658656,0.573986755564,0.818849779191,0.00223393320791,0.0,0.818809936379,-0.57392663339,-0.0118006132907,0.0,-0.00838097718196,0.00860272807341,-0.999927873544,0.0,0.657648949551,0.255629914349,0.303523056194,1.0,-0.01284,-0.0168754285714,0.643
0.461955027469,0.524178332887,-0.124036477007,-1.39265338785,0.077261538095,1.90763643625,0.154473566351,-0.00974941863778,-0.0703889825131,-0.000871121177969,-0.112875939368,-0.00212109371151,0.0416790940109,-0.0174501591044,0.573977231088,0.818856581736,0.00218715394492,0.0,0.818816324307,-0.573917489458,-0.0118020864144,0.0,-0.00840913213933,0.00856517114113,-0.999927959575,0.0,0.657391115863,0.255301381253,0.303521304744,1.0,-0.01322,-0.0173748571429,0.662
0.461796351201,0.52305852403,-0.124035727088,-1.39445097728,0.0771555442948,1.90830246965,0.15422165885,-0.0109687346283,-0.066375610598,-0.00138275935152,-0.110387456948,-0.0107566185354,0.0443686705462,-0.0225667093189,0.573968226867,0.818862917843,0.00217789568416,0.0,0.818822478215,-0.573908459562,-0.0118142335547,0.0,-0.00842448720097,0.00856446951914,-0.999927836335,0.0,0.65717674362,0.255026914996,0.303510635882,1.0,-0.01354,-0.0177954285714,0.678
0.461632966787,0.521882332558,-0.124045969541,-1.39626082805,0.0770530791211,1.9090437677,0.153982286425,-0.00285251421143,-0.0750712068058,-0.000713123588554,-0.113655075262,-0.00393320965488,0.045584067531,-0.0171034249261,0.57398292486,0.818852370484,0.00226808792755,0.0,0.818813160677,-0.573922867075,-0.01175999371,0.0,-0.00832815154288,0.00860734154865,-0.999928275209,0.0,0.656978955909,0.254747890452,0.303540321923,1.0,-0.01386,-0.018216,0.694
0.461496120604,0.520794878911,-0.124061279547,-1.39803082174,0.0769352208039,1.90972200314,0.153742233491,-0.00816109757513,-0.0754086472604,-0.000869444786367,-0.115815297652,-0.0103324225504,0.0475990246256,-0.0160129017768,0.573972107432,0.818859996137,0.00225244722113,0.0,0.818820743891,-0.573912276259,-0.0117488482053,0.0,-0.00832811502617,0.0085880270196,-0.999928441586,0.0,0.656770293376,0.254480240885,0.303521054969,1.0,-0.01416,-0.0186102857143,0.709
0.461300227279,0.519338160709,-0.124054504857,-1.40033376715,0.0767832854241,1.91052664933,0.153424400311,-0.0135067894187,-0.0803536141346,0.00203818036237,-0.125841432164,-0.0114400524223,0.0364342923152,-0.0253419429327,0.573948624153,0.818876562736,0.00221330869665,0.0,0.818836769651,-0.573888911957,-0.0117732026378,0.0,-0.00837076755193,0.00856971699287,-0.999928242526,0.0,0.656481932538,0.254131460214,0.30351729643,1.0,-0.01454,-0.0191097142857,0.728
0.461135469569,0.518078164096,-0.124065256369,-1.40230180203,0.076655913725,1.91124459265,0.153164264749,-0.0119745598801,-0.0760907200161,-0.0010698875668,-0.128623586164,-0.0101781788085,0.0442434119702,-0.0109230002745,0.573948081006,0.818876938932,0.00221497084047,0.0,0.818837239435,-0.573888436226,-0.011763714615,0.0,-0.00836204945784,0.00856562695208,-0.999928350515,0.0,0.656244185928,0.253828174468,0.30352747288,1.0,-0.01486,-0.0195302857143,0.744
0.460958531907,0.516724757293,-0.124065946675,-1.40442519026,0.0765306686052,1.91201145504,0.152863864308,-0.00479819223454,-0.0786949743238,-0.000197728230191,-0.120313122116,-0.00546048725426,0.0517716997776,-0.0217949401539,0.573925942023,0.818892456076,0.00221480369152,0.0,0.818852658584,-0.573866202477,-0.0117750620411,0.0,-0.00837166967215,0.0085717764986,-0.999928217321,0.0,0.655981860029,0.253509256508,0.303532810182,1.0,-0.0152,-0.0199771428571,0.761
0.460757059172,0.515258358805,-0.124065646147,-1.40675501702,0.0763900983917,1.9128694671,0.152552139307,-0.0115951237435,-0.0791639083482,0.000151592937842,-0.128461355819,-0.0125115182231,0.0487297651304,-0.0173806546777,0.573920442387,0.818896323372,0.00221004073643,0.0,0.818856402709,-0.573860659157,-0.0117848426567,0.0,-0.00838247027786,0.00857343318343,-0.999928112634,0.0,0.655697748747,0.253155569602,0.303526583066,1.0,-0.01556,-0.0204502857143,0.779
0.460598380829,0.514017365159,-0.124056700228,-1.40874363569,0.0762754866864,1.91357027707,0.152285641002,-0.0108035731818,-0.0814149406512,0.00120457741322,-0.13322891318,-0.00507896763862,0.0412567894539,-0.0106059828497,0.573899324727,0.818911213639,0.00217627074091,0.0,0.818870665119,-0.573839483127,-0.0118249022526,0.0,-0.00843487737527,0.00856855265803,-0.999927713762,0.0,0.655442289816,0.252866134944,0.303510428488,1.0,-0.01586,-0.0208445714286,0.794
0.460392754594,0.512520680681,-0.12406148418,-1.41112181583,0.0761389773395,1.91442199066,0.151948648002,-0.00892631639104,-0.0786005494845,0.00034437068658,-0.130136398618,-0.0101197606123,0.0443268033962,-0.0123826577865,0.573882968944,0.818922732248,0.00215486995921,0.0,0.818881765185,-0.573823071869,-0.0118525836807,0.0,-0.00846999918629,0.00856674456468,-0.999927432368,0.0,0.655146437959,0.252501798459,0.303501132914,1.0,-0.01622,-0.0213177142857,0.812
0.460168290508,0.510991385827,-0.124071905057,-1.41354743335,0.0759867852226,1.91534580722,0.151600210069,-0.0137949350614,-0.0876399295225,-0.00353051039204,-0.13474352196,-0.0088986446489,0.0539160105247,-0.0228394628937,0.573874761206,0.818928439944,0.00217154372073,0.0,0.818887765402,-0.573814875726,-0.0118348202909,0.0,-0.00844596943866,0.00857012025465,-0.999927606699,0.0,0.654860440319,0.252119028041,0.303497997825,1.0,-0.01658,-0.0217908571429,0.83
0.459985845876,0.509700902266,-0.124083981489,-1.41562577996,0.075845454934,1.91613417517,0.151311845807,-0.0078166063029,-0.0863167672553,-0.0010739106065,-0.132114385355,-0.0124055778187,0.0556960871401,-0.0189597033363,0.573866827131,0.818934033016,0.00215897845537,0.0,0.818893362539,-0.573807161922,-0.0118215319248,0.0,-0.00844238005746,0.00855212279936,-0.9999277911,0.0,0.654612213783,0.251793542829,0.303480820701,1.0,-0.01688,-0.0221851428571,0.845
0.459772014035,0.508207491474,-0.124100704593,-1.4179988283,0.0756979166924,1.91697923413,0.150974821146,-0.0122813362942,-0.0855876317951,-0.00198154901486,-0.142169973261,-0.00945049856592,0.0490938518138,-0.0199617588512,0.573861124569,0.818938118189,0.00212489696903,0.0,0.818897009493,-0.573801599861,-0.011838865714,0.0,-0.00847619232193,0.00853410087358,-0.999927659026,0.0,0.654318676105,0.251415454865,0.303469998485,1.0,-0.01722,-0.022632,0.862
0.459546617638,0.506606559584,-0.124113037567,-1.42055551508,0.0755307145238,1.91791626207,0.150621813411,-0.0153642398098,-0.0877019624208,-0.0021381244106,-0.146144489605,-0.00639182522953,0.0512721767251,-0.0161993282234,0.573852519643,0.818944214035,0.00209926176284,0.0,0.818902858915,-0.573793185486,-0.0118420796911,0.0,-0.00849362407971,0.00851486266526,-0.999927675116,0.0,0.654004329806,0.2510151334,0.303454274637,1.0,-0.01758,-0.0231051428571,0.88
0.459353299267,0.505081734757,-0.124109129168,-1.42289452361,0.0753888317923,1.91879230961,0.150308039123,-0.00956268421037,-0.0963789306907,-0.000825340410043,-0.140183751801,-0.0111818261261,0.052647429744,-0.0171318619209,0.573833471976,0.818957420263,0.00215340146468,0.0,0.818916712052,-0.573773868044,-0.011820066506,0.0,-0.00844472827243,0.00854637079343,-0.99992782045,0.0,0.653713852558,0.250670089726,0.303482518676,1.0,-0.0179,-0.0235257142857,0.896
0.459157432942,0.503509580582,-0.124106052437,-1.42523423004,0.075238547046,1.91965890326,0.149977578977,-0.0128511247885,-0.0929528695271,0.00178419076866,-0.144660442135,-0.00574066539089,0.0557091939275,-0.0205904998858,0.573805384718,0.818976845157,0.00224821395398,0.0,0.818937356948,-0.573745403794,-0.0117713177412,0.0,-0.00835069502094,0.00859575739342,-0.999928186845,0.0,0.653407447961,0.25030037088,0.30354662449,1.0,-0.01824,-0.0239725714286,0.913
0.458918096489,0.501712448057,-0.124107538793,-1.4278480963,0.075075864732,1.92065411553,0.149618105835,-0.0139115809021,-0.0933162337628,-0.000191469919466,-0.143018489917,-0.00368978301695,0.0605020154418,-0.0168565159205,0.573793085146,0.818985066594,0.00238810296398,0.0,0.81894745417,-0.57373264481,-0.0116904443437,0.0,-0.00820432466839,0.00866379377422,-0.999928811333,0.0,0.653109193397,0.249919118774,0.303638801232,1.0,-0.01858,-0.0244194285714,0.93
0.45868413755,0.500088974685,-0.12410526313,-1.43028423438,0.0749294273222,1.92151171785,0.149272553146,-0.0144203433229,-0.0979999756271,9.99055993606e-05,-0.149149198563,-0.00407096595482,0.0504263151493,-0.0204357086293,0.573784497719,0.818990953617,0.00243207162906,0.0,0.818953777435,-0.573723756252,-0.0116836997297,0.0,-0.00817366448125,0.0086958474505,-0.999928784187,0.0,0.652802000546,0.249534707989,0.303686290622,1.0,-0.0189,-0.02484,0.946
0.458401179279,0.498317198265,-0.124116125648,-1.43306293617,0.0747592535946,1.92254179359,0.148873068346,-0.0162644668122,-0.0957091055452,-0.000685872486711,-0.152824838187,-0.00348330280283,0.0610306510806,-0.0265538628163,0.573792272943,0.818985455476,0.0024491083256,0.0,0.818948492981,-0.573731461141,-0.0116757544407,0.0,-0.0081572996238,0.00870531885561,-0.999928835411,0.0,0.652465829411,0.249079882385,0.303689021596,1.0,-0.01926,-0.0253131428571,0.964
0.458132461295,0.496757446972,-0.124119200832,-1.43557960475,0.0745986931614,1.92344746003,0.148497718726,-0.0202616157015,-0.0909351463227,0.000671455043413,-0.160890610245,-0.0132838375333,0.0582494312661,-0.020608551028,0.573791148454,0.818986384478,0.00240143648388,0.0,0.818948772031,-0.573730476685,-0.0117045210523,0.0,-0.00820822411376,0.00868277120651,-0.999928614723,0.0,0.652155447542,0.248660520127,0.303657048903,1.0,-0.01958,-0.0257337142857,0.98
0.457861144473,0.495102606009,-0.124120920528,-1.43831108403,0.074422721481,1.9243951056,0.148115489203,-0.017492403631,-0.0977587541646,0.00023236436516,-0.158053245888,-0.00786889100346,0.061048247855,-0.0190677458384,0.573802868943,0.818978487902,0.00229147273597,0.0,0.818939375207,-0.57374253063,-0.0117709465465,0.0,-0.00832559693096,0.00863094632171,-0.999928093015,0.0,0.651786106491,0.248186037051,0.303595429314,1.0,-0.01994,-0.0262068571429,0.998
0.457586649219,0.493396653698,-0.124137141829,-1.44110846728,0.074234644571,1.92540261011,0.147717323718,-0.0158686089193,-0.10653918328,0.000812806779347,-0.173760058201,-0.0121382010268,0.0664368149108,-0.0195065903968,0.573789954639,0.818987763764,0.0022085427626,0.0,0.818947641816,-0.573730007499,-0.0118061577089,0.0,-0.00840215321239,0.00858310083483,-0.999927864499,0.0,0.651430138849,0.247730904026,0.303538692966,1.0,-0.02178,-0.0286251428571,1.015
0.457295126342,0.491338754998,-0.124145393471,-1.44437543032,0.0740323276236,1.92659934756,0.147244281094,-0.0165142283993,-0.118630560647,0.000531797696385,-0.190069144241,-0.011622474516,0.0692733664167,-0.0289079681486,0.573757562588,0.819010509186,0.00218909059433,0.0,0.818970098542,-0.573697658916,-0.0118203532248,0.0,-0.008425279577,0.0085749818899,-0.999927739564,0.0,0.651036740076,0.247251048597,0.303517628121,1.0,-0.0239657142857,-0.0314977959184,1.032
0.457006196539,0.489511562165,-0.124145484503,-1.44735253815,0.0738653309922,1.92763906015,0.146822744819,-0.0186781173103,-0.123362118862,0.000356845387604,-0.207055636199,-0.0118182661462,0.0726119220867,-0.0335914457494,0.573752309727,0.819014408483,0.0021053934215,0.0,0.818972588941,-0.573692417954,-0.0119018925486,0.0,-0.00854013766692,0.00855316251592,-0.999926952062,0.0,0.650647502974,0.246777915907,0.303461602937,1.0,-0.0258942857143,-0.0340324897959,1.047
0.456642466238,0.487174587939,-0.124162454573,-1.4509326224,0.0736421713024,1.92898702299,0.146307899412,-0.0219485289694,-0.138312584863,-0.00281507377134,-0.215738098166,-0.0117512677229,0.0766113772913,-0.0296529417147,0.573758076516,0.819010147674,0.00218964403913,0.0,0.818969483215,-0.573697905061,-0.0118509996515,0.0,-0.00845005746633,0.0085930238543,-0.999927375598,0.0,0.650209605912,0.246193414965,0.303498893133,1.0,-0.02808,-0.0369051428571,1.064
0.456235795476,0.48465934189,-0.124169968142,-1.45476808155,0.0734175949634,1.93041538967,0.145720579279,-0.0261064968897,-0.148653125939,-0.00485595670622,-0.227693801993,-0.00870657336821,0.0815995396936,-0.0364836483876,0.573744261126,0.819019555815,0.00228843140847,0.0,0.818980037661,-0.573683562818,-0.0118158608082,0.0,-0.00836474663429,0.0086536285792,-0.99992757024,0.0,0.649736143742,0.245564135175,0.303543765852,1.0,-0.0302657142857,-0.0397777959184,1.081
0.45581919675,0.482126489331,-0.124197289914,-1.45868329055,0.0731753292558,1.9317408637,0.145136508583,-0.0258157699004,-0.157169665477,0.00025895282543,-0.253161014032,-0.015288542345,0.0841089490885,-0.0398694313422,0.573752549542,0.819013880849,0.00224093120758,0.0,0.818973593905,-0.573691880241,-0.0118585805906,0.0,-0.00842690031687,0.00863932066629,-0.999927172093,0.0,0.649228069521,0.244898445064,0.303553142673,1.0,-0.0323228571429,-0.0424814693878,1.097
0.455355155829,0.479240707035,-0.124232778646,-1.46311122744,0.072899057053,1.93337349738,0.144476595048,-0.0282077222163,-0.174795712516,-0.00378612714116,-0.261216608412,-0.014230145152,0.101086266886,-0.0365605954018,0.573758840438,0.819009279253,0.00231093435803,0.0,0.818969973147,-0.573697969979,-0.0118139420418,0.0,-0.00835011057234,0.00867110648171,-0.999927541158,0.0,0.64867690819,0.244156569268,0.303588337654,1.0,-0.0345085714286,-0.045354122449,1.114
0.454846502429,0.476214106101,-0.124257306361,-1.46774762165,0.0726103915354,1.93509753997,0.143813269537,-0.0359725964023,-0.183107913416,-0.00155763583277,-0.282234962592,-0.0229886850532,0.106570075805,-0.0429266744201,0.573806173979,0.818975819448,0.00241428349938,0.0,0.818937884568,-0.573744935217,-0.0117574416211,0.0,-0.00824403617956,0.00872380877447,-0.999927962919,0.0,0.648069003278,0.243323108505,0.303633658542,1.0,-0.0368228571429,-0.048395755102,1.132
0.454298866272,0.473010376292,-0.124286995868,-1.47270161233,0.0722987442425,1.93686340894,0.143095511413,-0.0350378182411,-0.191333160119,-0.00307010571697,-0.298674710632,-0.0150255279264,0.103342869643,-0.0421520107135,0.573831825509,0.818957851694,0.0024124848097,0.0,0.818919845101,-0.573770539096,-0.0117644662856,0.0,-0.00825054817438,0.00872662486604,-0.999927884636,0.0,0.647468941015,0.242527872899,0.303639461007,1.0,-0.03888,-0.0510994285714,1.148
0.453724921751,0.469617769773,-0.124298068229,-1.47787709929,0.0719754068029,1.93873080405,0.142298397005,-0.0370682089443,-0.206814742787,-0.00164433344055,-0.309715681948,-0.0214992290377,0.114473771462,-0.0422950348985,0.57381599163,0.818968724309,0.00248661520176,0.0,0.818931555119,-0.573754298768,-0.0117413618497,0.0,-0.00818925964296,0.00877391777215,-0.999927974603,0.0,0.646804724529,0.241657538819,0.303682224148,1.0,-0.0410657142857,-0.0539720816327,1.165
0.453127324553,0.466040031476,-0.124309523233,-1.4832696248,0.0716229388257,1.94074805824,0.141431958041,-0.034516255006,-0.215905939818,-0.00475242805739,-0.319787195459,-0.0227511401279,0.113578537328,-0.0424702563584,0.573763281125,0.819005139102,0.00265070921584,0.0,0.818970211928,-0.573701131113,-0.0116426386593,0.0,-0.00801482032939,0.00885114085824,-0.999928707439,0.0,0.646123750507,0.240754521654,0.303759506798,1.0,-0.0432514285714,-0.0568447346939,1.182
0.452523594184,0.462552898248,-0.124325752384,-1.48871553253,0.071258714122,1.94260526935,0.140626485506,-0.0371675235472,-0.222356477507,-0.00158171506344,-0.344306543536,-0.0332978007342,0.116386917738,-0.0544004832817,0.573765011718,0.819004226884,0.00255628159064,0.0,0.81896796107,-0.573703070767,-0.0117052224947,0.0,-0.00812023644124,0.00880972945866,-0.999928222638,0.0,0.645392844623,0.239825972838,0.303732585933,1.0,-0.0453085714286,-0.0595484081633,1.198
0.451773539422,0.458234626091,-0.124339082862,-1.49540481941,0.0708118820233,1.94493696239,0.139621194243,-0.0378199195158,-0.236683679471,-0.00125696782859,-0.358492349459,-0.0210250111766,0.127246129724,-0.0599582100535,0.573753548748,0.81901238874,0.00251381992024,0.0,0.818975471766,-0.573691655427,-0.0117391669441,0.0,-0.00817252299563,0.00879431486647,-0.99992793235,0.0,0.644499439849,0.238688818926,0.303723744429,1.0,-0.0477514285714,-0.0627590204082,1.217
0.451077142262,0.454510685919,-0.124342139744,-1.50129629769,0.0704234695162,1.94702502719,0.138692362917,-0.0478870016592,-0.240158596526,-0.002686089104,-0.366205393792,-0.0215945094277,0.11720120056,-0.0573931494014,0.573729965952,0.819029130785,0.00244049077774,0.0,0.818991107798,-0.57366818428,-0.0117951936869,0.0,-0.00826073436433,0.00876616509385,-0.999927454677,0.0,0.643717186086,0.237672473745,0.303660913466,1.0,-0.0498085714286,-0.0654626938775,1.233
0.450358871278,0.450521239454,-0.124394476495,-1.50728287608,0.0700071346793,1.94925620076,0.137719996743,-0.0448294348146,-0.255951993303,-0.00276544570158,-0.381122680761,-0.031282268521,0.144729022597,-0.0547069998656,0.573718498481,0.819036637941,0.00261095980683,0.0,0.81900127859,-0.573656584312,-0.0116522892471,0.0,-0.00804601243541,0.00882368319413,-0.999928699608,0.0,0.642957709876,0.236611216201,0.303744705621,1.0,-0.0518657142857,-0.0681663673469,1.249
0.449543211679,0.44613570083,-0.124430632805,-1.51399319549,0.0695607300824,1.95153299977,0.136750567519,-0.0545423337576,-0.261943183435,-0.00169951441114,-0.407113732186,-0.0274479465516,0.1285013715,-0.0613913768064,0.573798182735,0.818980965215,0.00256339735323,0.0,0.818944849824,-0.57373627512,-0.01169471934,0.0,-0.0081071945725,0.00880985938244,-0.999928327318,0.0,0.642047976934,0.235417297091,0.303755312996,1.0,-0.0540514285714,-0.0710390204082,1.266
0.448712980392,0.441638164251,-0.124452217835,-1.52097810563,0.0690652874717,1.95390454089,0.13565276073,-0.0439169682587,-0.266641892027,-0.00265740937592,-0.408819372963,-0.0327842639614,0.149223847167,-0.0691167224984,0.573768238644,0.819002307513,0.00244448609894,0.0,0.818964647843,-0.573706767992,-0.0117557153894,0.0,-0.00822569818135,0.00874717222033,-0.999927909835,0.0,0.641084561645,0.234192218454,0.303715281231,1.0,-0.0562371428571,-0.0739116734694,1.283
0.447824752202,0.437029309907,-0.124464033911,-1.52813828783,0.0686010348566,1.95643012555,0.134489096419,-0.0526352008275,-0.279249912418,-0.00251181529154,-0.419350942014,-0.0317261468443,0.152082266749,-0.0677494374331,0.573739270939,0.819022660611,0.00242431216637,0.0,0.818984460303,-0.573677584139,-0.011799582159,0.0,-0.00827351091786,0.00875552622748,-0.999927442256,0.0,0.640111169938,0.232933182089,0.303676221285,1.0,-0.0584228571429,-0.0767843265306,1.3
0.446946341772,0.432444771974,-0.124484571232,-1.53491144004,0.068134652881,1.95895250446,0.133382034764,-0.0596136129814,-0.288300756393,-0.00373275239232,-0.427125929233,-0.027883276607,0.159820076923,-0.0653792934837,0.573733179717,0.819026095282,0.00269084380447,0.0,0.818991639455,-0.573670840673,-0.0116278960443,0.0,-0.00798004530668,0.0088752592261,-0.999928771789,0.0,0.639226904128,0.231721018931,0.303798529931,1.0,-0.06048,-0.079488,1.316
0.445908622464,0.427244337695,-0.124524527132,-1.54302474979,0.0675358231139,1.96160434524,0.132094101526,-0.051858073597,-0.297110702804,-0.00760776079083,-0.454100820447,-0.0278762524741,0.144650680515,-0.0737851703828,0.573737639622,0.819023763901,0.00243761091758,0.0,0.818986036475,-0.573676221274,-0.011756364499,0.0,-0.00823050094431,0.00874160642508,-0.999927918988,0.0,0.638076581247,0.230238430564,0.303709959876,1.0,-0.0627942857143,-0.0825296326531,1.334
0.444999056971,0.422705686568,-0.124569674753,-1.54993634265,0.0670297551271,1.96391159972,0.130939956186,-0.0653269834225,-0.307574143609,-0.00456211621213,-0.474040246976,-0.0341413819031,0.153709591386,-0.0756371913693,0.57372125133,0.81903548138,0.00235646217467,0.0,0.818996814522,-0.573660260994,-0.0117842971975,0.0,-0.00830010862455,0.00869100407756,-0.999927784715,0.0,0.637107825707,0.228959731405,0.303707009629,1.0,-0.0647228571429,-0.0850643265306,1.349
0.443863046482,0.417105091863,-0.124595698435,-1.55827684297,0.0664593052465,1.96691307232,0.129619609603,-0.0642869393435,-0.319373974681,-0.00212900071131,-0.460753727701,-0.0328720763731,0.182229446582,-0.0698298260809,0.573780024276,0.818993676364,0.00256685005098,0.0,0.818957815286,-0.57371833451,-0.0116668903637,0.0,-0.00808261610992,0.00879653990668,-0.999928643555,0.0,0.635974971724,0.227433025829,0.303798036423,1.0,-0.0670371428571,-0.0881059591837,1.367
0.442805521483,0.41203572608,-0.124611353074,-1.56589983233,0.0659371678509,1.96965413934,0.128286716117,-0.0669848813755,-0.317942601334,-0.00077513476037,-0.487619362459,-0.0319577568944,0.166356972234,-0.0839696762577,0.573735249102,0.819024556444,0.00271786325716,0.0,0.818990651306,-0.573673041607,-0.0115888441712,0.0,-0.00793253580149,0.00887500386783,-0.999929152081,0.0,0.63492943807,0.226031979862,0.303840967374,1.0,-0.0690942857143,-0.0908096326531,1.383
0.441624149923,0.406534438341,-0.124676743493,-1.5743884436,0.065323932385,1.97235869178,0.126922581526,-0.0665049371773,-0.330225446337,-0.0061264069554,-0.508875185993,-0.0400470786427,0.169913387816,-0.0894471355027,0.573805393779,0.818976234621,0.00245847457531,0.0,0.818938760995,-0.57374387124,-0.0117483128564,0.0,-0.00821121239737,0.00875475396358,-0.999927962542,0.0,0.633691318738,0.224416010404,0.303756252275,1.0,-0.07128,-0.0936822857143,1.4
0.44038615045,0.400883305397,-0.124743379374,-1.58296942663,0.0647408635228,1.975291902,0.125467605827,-0.0747371074374,-0.352875291062,-0.00145868831059,-0.496371006426,-0.0254128123546,0.1860097977,-0.0876543733351,0.573857774225,0.818939542551,0.00245509838757,0.0,0.81890184299,-0.573796063618,-0.0117726728,0.0,-0.00823253998877,0.00876649318616,-0.999927684326,0.0,0.632476978049,0.222776941937,0.303740563907,1.0,-0.0734657142857,-0.0965549387755,1.417
0.439003746052,0.394657000702,-0.12476581021,-1.59211894548,0.0640415694123,1.97855561046,0.123914148963,-0.0783530542146,-0.34370179665,0.000128361384806,-0.524997548779,-0.0375694134908,0.17347439884,-0.0880713536134,0.573895047308,0.818912649555,0.00270073622303,0.0,0.818878689429,-0.573833063763,-0.0115781618462,0.0,-0.0079318841665,0.00885639559232,-0.999929322238,0.0,0.631207285915,0.22102176279,0.30385917424,1.0,-0.07578,-0.0995965714286,1.435
0.437921729677,0.389790641444,-0.124789059292,-1.59953941359,0.0634917905552,1.98093126398,0.12266802591,-0.0762434535814,-0.359439979405,-0.00475807907361,-0.527938730639,-0.041014577516,0.162420564407,-0.0927661683967,0.573901179891,0.818908915933,0.00252389131433,0.0,0.818872429636,-0.573839554687,-0.0116985623513,0.0,-0.00813190490957,0.00878073280546,-0.999928382862,0.0,0.630015393658,0.219505332773,0.303801090417,1.0,-0.0777085714286,-0.102131265306,1.45
0.43650463528,0.383354833911,-0.124801715528,-1.60920887411,0.0627750640837,1.98410187653,0.120906373125,-0.0807298590927,-0.365941206034,-0.00181224064001,-0.528591994351,-0.0417805085039,0.185808331745,-0.0972130931673,0.573797404274,0.818981797406,0.00247007444187,0.0,0.818944382247,-0.573735741448,-0.0117534961772,0.0,-0.0082088874802,0.00876714798029,-0.99992787304,0.0,0.628653435093,0.217779475766,0.303790121358,1.0,-0.0798942857143,-0.105003918367,1.467
0.435111917989,0.377118464743,-0.124799143471,-1.61837856726,0.062132090856,1.98730125846,0.119295385591,-0.0876798662981,-0.360962862982,-0.0011323761611,-0.551516601798,-0.0473684049975,0.185222977165,-0.0929869226656,0.573776748183,0.818995549662,0.00269810664322,0.0,0.818960896566,-0.573714054363,-0.0116610729509,0.0,-0.00800257922411,0.00890066771907,-0.999928365854,0.0,0.627315997244,0.216047831983,0.303872582384,1.0,-0.08208,-0.107876571429,1.484
0.433704796451,0.371169412036,-0.124818270607,-1.62735325722,0.0614184787249,1.99018596403,0.117701601948,-0.0926405487691,-0.371365642581,-0.00133578253161,-0.562577268668,-0.0445783692624,0.181377269459,-0.110238182605,0.573758926535,0.819008528543,0.00254387420457,0.0,0.818971908207,-0.57369682173,-0.0117352974094,0.0,-0.00815205306955,0.00881676290577,-0.999927901762,0.0,0.625955895221,0.214287841638,0.303821004003,1.0,-0.0841371428571,-0.110580244898,1.5
0.432179099007,0.364639657905,-0.124871226243,-1.63690446408,0.0606801733459,1.99334269156,0.116044098422,-0.0899736345419,-0.391383704164,-0.00098658655322,-0.549686535591,-0.0458564624754,0.197079157899,-0.101333655802,0.57381953147,0.818965806405,0.00262681264606,0.0,0.81893045823,-0.573757335443,-0.0116692548992,0.0,-0.00804972270628,0.00884739360254,-0.999928460236,0.0,0.624526528806,0.212393957698,0.303895059361,1.0,-0.0863228571428,-0.113452897959,1.517
0.430277390275,0.356910992005,-0.124881438817,-1.64833996509,0.0598196133905,1.99715122327,0.113885653797,-0.0997038527037,-0.381164103453,0.000505595917012,-0.585242173353,-0.0455500675382,0.182842375631,-0.10246368515,0.573768969865,0.819000997305,0.00269861726535,0.0,0.818966408018,-0.573706338879,-0.011653590401,0.0,-0.00799624228173,0.00889671673741,-0.999928451711,0.0,0.622800461332,0.210122767434,0.30391238337,1.0,-0.0888942857143,-0.116832489796,1.537
0.428899042086,0.351420137668,-0.124932874437,-1.65662940611,0.0591788783086,1.99974878948,0.112395294776,-0.101706992244,-0.389789528678,-0.005973418256,-0.59719785089,-0.0458249443034,0.1850693533,-0.106016872353,0.573813524502,0.818970380759,0.00251026690305,0.0,0.818933120149,-0.573751316858,-0.0117778617353,0.0,-0.00820560895199,0.00881420676154,-0.999927486241,0.0,0.621507590376,0.208442254639,0.30382961209,1.0,-0.0906942857143,-0.119198204082,1.551
0.426949555304,0.343736646744,-0.12498981987,-1.6677251787,0.0583485840145,2.00349561903,0.110284356971,-0.106786116798,-0.402395956536,-8.52521369522e-05,-0.586986056703,-0.0455464301565,0.193235805265,-0.101657436076,0.573856268733,0.818939565595,0.00277806418517,0.0,0.818905851784,-0.573793180352,-0.0116335289867,0.0,-0.00793327563085,0.00895111889118,-0.999928467746,0.0,0.619838483943,0.206166181062,0.303946929522,1.0,-0.0931371428571,-0.122408816327,1.57
0.425374653492,0.33759260109,-0.124992964117,-1.67678220441,0.0576147196226,2.00633866952,0.108549528155,-0.108633089716,-0.409637842369,-0.00169567720517,-0.610420551959,-0.0410483714797,0.188887573941,-0.117149059223,0.573806614425,0.818974631014,0.00269627502319,0.0,0.818939727102,-0.573743670832,-0.011690613978,0.0,-0.00802750009379,0.00891641002745,-0.999928025847,0.0,0.618402354649,0.204328172669,0.303928922569,1.0,-0.0950657142857,-0.124943510204,1.585
0.423886032137,0.331803092614,-0.124993408022,-1.68541805387,0.0568955039499,2.00897048736,0.106922789575,-0.108846773361,-0.411432844003,-0.000111341334814,-0.600181207533,-0.0493154576147,0.193898514636,-0.109835484597,0.573755344078,0.819011208719,0.00248838011939,0.0,0.818973408278,-0.573692952331,-0.0118194704099,0.0,-0.00825287150297,0.00881957126339,-0.999927049976,0.0,0.616998606934,0.202582486585,0.30385137662,1.0,-0.0968657142857,-0.12730922449,1.599
0.421775500747,0.323713263741,-0.124986309826,-1.69695341168,0.0559933254556,2.01283413505,0.104603673181,-0.115080292312,-0.431843267765,0.00122077525347,-0.624623195433,-0.0530524954349,0.203996588463,-0.120328191002,0.573673214762,0.819067641772,0.00282626378615,0.0,0.819034315475,-0.573609717206,-0.0116374096096,0.0,-0.00791080558169,0.00899105031327,-0.999928287513,0.0,0.615202666541,0.20022147666,0.303993949963,1.0,-0.0993085714286,-0.130519836735,1.618
0.419670304555,0.316028055558,-0.125040356295,-1.70826165698,0.0550669254954,2.01630418436,0.102441498736,-0.117713021585,-0.432988443406,-0.00183571532789,-0.633432288455,-0.0481261713413,0.197822415757,-0.126613933909,0.573733693565,0.819025811257,0.00266763258966,0.0,0.818990228731,-0.573670521705,-0.0117424303816,0.0,-0.00808716709304,0.00892196475452,-0.999927495508,0.0,0.61336758718,0.197831393261,0.303933597609,1.0,-0.101622857143,-0.133561469388,1.636
0.417742063372,0.308975737358,-0.125116085884,-1.71830745816,0.0541927905099,2.01951283782,0.100339495518,-0.125932598752,-0.449639025936,0.000904341922729,-0.63317532448,-0.0592026269204,0.205300587343,-0.131069088795,0.573680964103,0.819062342523,0.00278879686386,0.0,0.819028969785,-0.573618090018,-0.011600877439,0.0,-0.00790228966355,0.00893948008867,-0.999928817223,0.0,0.611767353942,0.195667252537,0.304022322699,1.0,-0.10368,-0.136265142857,1.652
0.415594027475,0.301482921601,-0.125142649046,-1.72921169391,0.0533028710925,2.02287797232,0.0980996342918,-0.124667661835,-0.447748257725,-0.00276865992392,-0.646348002039,-0.0651656477712,0.191573892684,-0.126865867113,0.573670739815,0.819069687368,0.00273430369321,0.0,0.819035316384,-0.573607724842,-0.0116651368585,0.0,-0.00798629604022,0.00893161094329,-0.999928220125,0.0,0.609978024465,0.19332715565,0.303989341269,1.0,-0.105865714286,-0.139137795918,1.669
0.413342391594,0.293894864829,-0.125234291437,-1.7402366333,0.0524151612418,2.02614297489,0.0958943278372,-0.13688282596,-0.452992019163,-0.00835056280066,-0.642929760563,-0.0512401428621,0.2045571879,-0.132847314464,0.573818379782,0.818966752749,0.00258298611354,0.0,0.818929890769,-0.57375531069,-0.0118078093576,0.0,-0.00818835893788,0.00889099374935,-0.999926947836,0.0,0.608145026314,0.190879241075,0.303938245537,1.0,-0.108051428571,-0.14201044898,1.686
0.411217623155,0.286554629515,-0.125288831752,-1.75054896609,0.0515388482597,2.02951267737,0.093680985903,-0.135243326836,-0.450952950178,0.000393962330417,-0.649486031487,-0.054678502937,0.200267255769,-0.135524066477,0.573800455941,0.818978284229,0.00289026363746,0.0,0.818945974935,-0.573736942679,-0.011582644096,0.0,-0.00782783367578,0.00901326976909,-0.999928740455,0.0,0.606592449512,0.18876151211,0.304066620151,1.0,-0.10998,-0.144545142857,1.701
0.408724243783,0.278298485029,-0.125313209308,-1.76258235303,0.0504690688454,2.03294288284,0.0911146277953,-0.136485981835,-0.463632774412,-0.00486497706343,-0.680286911307,-0.0606660427417,0.194450280725,-0.13825221078,0.573739775185,0.819021931305,0.00254819812542,0.0,0.818984764808,-0.573677006007,-0.0118065529436,0.0,-0.00820814115476,0.00886099507561,-0.999927051932,0.0,0.604396758511,0.185973803022,0.303937774263,1.0,-0.112422857143,-0.147755755102,1.72
0.406422939884,0.270759519904,-0.125385760818,-1.77308573706,0.0495644903635,2.03626542962,0.0888144737305,-0.142149207667,-0.459457477325,-0.00455732940099,-0.662765578001,-0.0515397707869,0.207208476786,-0.151591153678,0.573782920902,0.818990844693,0.00281120797267,0.0,0.81895752585,-0.573719690324,-0.0116204427679,0.0,-0.00790434305381,0.00897004422067,-0.99992852728,0.0,0.602663062558,0.183595647551,0.304057103423,1.0,-0.11448,-0.150459428571,1.736
0.404479714724,0.264600552365,-0.125454886616,-1.78180547293,0.0488120549821,2.0388514158,0.0869390225117,-0.148668028538,-0.477865850365,-0.00895499490535,-0.6694545279,-0.0589998506931,0.195583369688,-0.140007556863,0.573871914023,0.81892848683,0.00281187771537,0.0,0.818895115571,-0.573808600421,-0.0116287005738,0.0,-0.00790974683542,0.00897619040206,-0.999928429394,0.0,0.601177081787,0.181594317142,0.304067403317,1.0,-0.116151428571,-0.152656163265,1.749
0.401400326506,0.255005291673,-0.125580401731,-1.79535563042,0.0475870800872,2.04275611588,0.0839348360683,-0.156644619922,-0.491557383662,-0.000695213171477,-0.672663660751,-0.0692477590176,0.203216945958,-0.149925341484,0.573967279192,0.818861890545,0.00274108194656,0.0,0.818827767216,-0.573904381787,-0.0116445310155,0.0,-0.00796229704083,0.00892822569053,-0.999928441746,0.0,0.598718002754,0.178287483119,0.304082484366,1.0,-0.118851428571,-0.156204734694,1.77
0.398575547827,0.246284164664,-0.12556967603,-1.80764311225,0.0464998601591,2.0463796337,0.0811273135044,-0.16364830755,-0.480575235699,-0.000179949695982,-0.69273677005,-0.0547876975112,0.187008641597,-0.15489044554,0.573904695324,0.818905732218,0.00274760393586,0.0,0.818871349985,-0.573841398317,-0.0116836917129,0.0,-0.00799130708999,0.00895543209673,-0.999927967029,0.0,0.596673460625,0.175659113574,0.304065508515,1.0,-0.121037142857,-0.159077387755,1.787
0.396168582771,0.238947300219,-0.125580543627,-1.81800382153,0.0455864504429,2.04931078142,0.0787101166176,-0.158451258587,-0.497574960841,-0.000656751280849,-0.689845135478,-0.0630681530406,0.196379332321,-0.160920904138,0.573839295571,0.818951828992,0.00266674913368,0.0,0.818915863849,-0.573775704183,-0.0117896618756,0.0,-0.00812520572952,0.0089493867396,-0.999926942086,0.0,0.59481290261,0.173294322816,0.304026153871,1.0,-0.122965714286,-0.161612081633,1.802
0.393235101193,0.229943501608,-0.125565804588,-1.83034021806,0.0444476285627,2.05300886705,0.0758513701868,-0.160259968082,-0.492082769713,0.000889327589288,-0.705242686303,-0.0696570520592,0.194294117877,-0.172918702979,0.573778985479,0.818993178399,0.00293197208717,0.0,0.818961013053,-0.573714879401,-0.0116121984918,0.0,-0.00782834605855,0.00906418081415,-0.99992827624,0.0,0.592628729837,0.170477169173,0.304141871085,1.0,-0.12528,-0.164653714286,1.82
0.390320605578,0.221395802427,-0.12556795419,-1.84237825579,0.0433117863501,2.056215338,0.0729590526026,-0.176492393068,-0.498321316638,-0.00135410442725,-0.70142811041,-0.070142225885,0.180568223559,-0.162943802171,0.573667067321,0.819072461772,0.00267303940775,0.0,0.819036348775,-0.573603222217,-0.0118131176444,0.0,-0.00814269210483,0.0089662856204,-0.999926648454,0.0,0.590392547319,0.167678440703,0.304053186399,1.0,-0.127465714286,-0.167526367347,1.837
0.38746345703,0.213181386026,-0.125640307625,-1.85346765287,0.0423231788644,2.05949897491,0.0702538954637,-0.183620339997,-0.507570379612,-0.00909585626742,-0.695380813084,-0.0543565159561,0.204542537719,-0.169481175578,0.573739840536,0.819020358437,0.00299912478096,0.0,0.818988672057,-0.573675061209,-0.0116286753585,0.0,-0.0078037490143,0.00912825931479,-0.999927885591,0.0,0.588422081757,0.16500219646,0.30419017371,1.0,-0.129522857143,-0.170230040816,1.853
0.3843390655,0.204465267719,-0.125685676927,-1.86560707255,0.041155030134,2.06270141518,0.0672556316647,-0.183368762301,-0.511407647449,-0.00352613381671,-0.728681435379,-0.0772425289728,0.17814360996,-0.184220407176,0.573702798632,0.819047126927,0.00276579391568,0.0,0.819011948075,-0.573638306658,-0.0118012264721,0.0,-0.00807935085036,0.00903578888411,-0.999926536606,0.0,0.586009082243,0.161900826308,0.304113909429,1.0,-0.131837142857,-0.173271673469,1.871
0.381096348857,0.19555933826,-0.125781533659,-1.87760546867,0.0400067578459,2.06605349315,0.0641607098834,-0.19180115211,-0.515929189188,-0.00420305189877,-0.711149070702,-0.0693530581496,0.205440491442,-0.172149659987,0.573733406683,0.81902498932,0.00296510148238,0.0,0.818992736465,-0.573668596028,-0.011661322809,0.0,-0.00785008032299,0.0091190626088,-0.999927606848,0.0,0.583945300083,0.159100116886,0.304215808334,1.0,-0.133894285714,-0.175975346939,1.887
0.377929602663,0.187217843895,-0.125933856813,-1.88910094687,0.0389409465694,2.06915127024,0.0611898150892,-0.199378359456,-0.527631186127,-0.0159792932734,-0.726929820055,-0.0667302311006,0.18133633425,-0.185876711851,0.573848474751,0.818944575748,0.00290805443861,0.0,0.818911197581,-0.573783400833,-0.0117390930904,0.0,-0.00794522621521,0.00911807455902,-0.999926864374,0.0,0.581798437297,0.156193594902,0.304166051974,1.0,-0.135951428571,-0.178679020408,1.903
0.374224988222,0.177602252992,-0.126078023329,-1.90198010339,0.0376821848188,2.07258794672,0.0578062017175,-0.203047615272,-0.538584180226,-0.00917931129915,-0.701398726009,-0.0724711134916,0.201028081813,-0.184719103073,0.57399863928,0.818838943509,0.00301555948976,0.0,0.818807120068,-0.573933360983,-0.0116680837715,0.0,-0.0078237018255,0.00916680227838,-0.999927377076,0.0,0.579382659916,0.152876888065,0.304244339115,1.0,-0.138265714286,-0.181720653061,1.921
0.370518496206,0.168001920623,-0.126074311539,-1.91508789165,0.0363242716927,2.07599518477,0.0542997588646,-0.205612575016,-0.546492722086,-1.12445971704e-05,-0.727557847321,-0.0726737739735,0.184615932452,-0.197404918904,0.573880027738,0.818922570263,0.0028782943774,0.0,0.818888946801,-0.573815215736,-0.011736179037,0.0,-0.00795956603923,0.00909233725825,-0.99992698469,0.0,0.576834730649,0.149633655491,0.304177104667,1.0,-0.14058,-0.184762285714,1.939
0.367118627907,0.159308941362,-0.126082428005,-1.92663750035,0.0351834492788,2.07899705164,0.0510803223946,-0.218087274261,-0.550013018671,6.43909821773e-05,-0.71654427979,-0.0677356920777,0.200157854786,-0.198457063048,0.573796312799,0.818980837062,0.00298778271297,0.0,0.818948454603,-0.57373092374,-0.0117048173269,0.0,-0.00787198931641,0.0091631974796,-0.999927031136,0.0,0.574586634195,0.146724067004,0.30423422093,1.0,-0.142637142857,-0.187465959184,1.955
0.363162598149,0.149483390058,-0.12610248218,-1.93975226058,0.0337983129556,2.0823587825,0.0474631570747,-0.221875078007,-0.547509240206,-0.000785261683514,-0.732617237326,-0.0745424976223,0.178492631238,-0.199004357153,0.573768076103,0.819000611748,0.00298993342686,0.0,0.818968516346,-0.573702985365,-0.0116705063941,0.0,-0.00784296914464,0.0091450014131,-0.999927425759,0.0,0.572007745139,0.143370018299,0.304242110486,1.0,-0.144951428571,-0.190507591837,1.973
0.359285686458,0.140066072275,-0.126171167076,-1.95224312954,0.0325772937345,2.08538830135,0.0439086047111,-0.224258405059,-0.574507750882,-0.0109932489254,-0.725092665657,-0.0699845086758,0.190052780889,-0.208113332551,0.573804613133,0.818975078211,0.0029722244192,0.0,0.818941940106,-0.573738634687,-0.0117823895983,0.0,-0.00794435641601,0.00919504577066,-0.999926166442,0.0,0.569503656429,0.140117726857,0.304244007247,1.0,-0.147137142857,-0.193380244898,1.99
0.355785559121,0.131712100273,-0.126259002783,-1.96322753248,0.0314274066458,2.08820000768,0.0406453539079,-0.23382961239,-0.554392272714,-0.00445226642482,-0.730090334747,-0.073855413964,0.173116087309,-0.214314548422,0.57377838888,0.818993037296,0.00308418809707,0.0,0.818961643858,-0.573712366388,-0.0116915971277,0.0,-0.00780605008159,0.00923439530806,-0.99992689309,0.0,0.567325232363,0.137209622382,0.304279404788,1.0,-0.149065714286,-0.195914938775,2.005
0.351407203035,0.121584776068,-0.126411083911,-1.9765655319,0.0299741102107,2.09131781585,0.0367566715425,-0.248563052952,-0.57109750006,-0.00939302278546,-0.729605854919,-0.07748373264,0.17902751494,-0.221449108228,0.573908418501,0.818902396153,0.00295628983858,0.0,0.818869325259,-0.573842799674,-0.0117565434218,0.0,-0.00793116864056,0.00916817082334,-0.999926517904,0.0,0.56460856328,0.133588304745,0.304260047714,1.0,-0.15138,-0.198956571429,2.023
0.347397012795,0.112494638697,-0.126516756608,-1.98837335944,0.028700195663,2.09423958415,0.0330831165875,-0.251204475276,-0.563114266987,-0.00632854577641,-0.753181012087,-0.0845990864182,0.183957795585,-0.23804985038,0.573912258476,0.818899246465,0.00308068360245,0.0,0.818868166448,-0.573846654765,-0.0116485919691,0.0,-0.00777133282847,0.00920812074286,-0.999927405814,0.0,0.562221125475,0.130360853094,0.304303118006,1.0,-0.153437142857,-0.201660244898,2.039
0.343330772242,0.10334575274,-0.126531880469,-2.00033839376,0.0273644719881,2.09691198947,0.0293839430207,-0.259264940878,-0.574045131109,-0.00248915202416,-0.749128232046,-0.0872421979561,0.17780148258,-0.240248639609,0.573828746282,0.818958325412,0.00292883603789,0.0,0.81892499747,-0.573763349477,-0.011756454261,0.0,-0.00794774033782,0.00914486452121,-0.999926599744,0.0,0.559699149771,0.127148907945,0.304260739941,1.0,-0.155494285714,-0.204363918367,2.055
0.338931683167,0.0935036943739,-0.126524113559,-2.01289063899,0.0260376140403,2.09987569191,0.0253407227825,-0.264391310548,-0.576335677459,0.000574112130023,-0.752242271503,-0.0791221626146,0.174326190527,-0.246854590985,0.573714164678,0.8190378311,0.00313614044537,0.0,0.819007078228,-0.573647936633,-0.0116703689337,0.0,-0.00775958256009,0.00926415555103,-0.999926979484,0.0,0.557071712376,0.123767016823,0.304342109415,1.0,-0.15768,-0.207236571429,2.072
0.334350474778,0.0836438348705,-0.126573610437,-2.02569916751,0.0246585489332,2.10258374012,0.0212003030772,-0.271694238552,-0.584231648593,0.000404219535616,-0.751557712561,-0.089691144164,0.162143853327,-0.244131138238,0.573680206131,0.819062285356,0.00295646795193,0.0,0.819028128134,-0.573613362599,-0.0118904362413,0.0,-0.00804329321666,0.00924291628123,-0.999924934149,0.0,0.554304036475,0.120247413354,0.304265339103,1.0,-0.159865714286,-0.21010922449,2.089
0.329909770166,0.0741781391457,-0.126706713602,-2.03746937056,0.0232637462593,2.1053489387,0.0172056903753,-0.283637717231,-0.577241595489,-0.00797037241985,-0.737915827345,-0.0896874268299,0.168668037805,-0.252418165088,0.573686787752,0.819056578064,0.00324628863178,0.0,0.819027525418,-0.573620533955,-0.0115819918392,0.0,-0.00762431557638,0.00930341455845,-0.999927655528,0.0,0.551838039566,0.116865085713,0.304420561006,1.0,-0.161922857143,-0.212812897959,2.105
0.324996119292,0.0641698646271,-0.126850908059,-2.05037672317,0.0218374811598,2.10793991879,0.0128550650197,-0.297495544839,-0.585932098604,-0.0139375891164,-0.76943627083,-0.0844498996361,0.145669087823,-0.2646290372,0.573779605936,0.818992452209,0.00301229779752,0.0,0.818959230775,-0.573712786493,-0.0118390812125,0.0,-0.00796807780117,0.00926015072648,-0.999925376888,0.0,0.548997658387,0.113161203691,0.304314637568,1.0,-0.164108571429,-0.21568555102,2.122
0.319639871062,0.0533690399723,-0.127005910161,-2.06372080673,0.0202873893278,2.11084136741,0.00811317254657,-0.295342955556,-0.595484306586,-0.00796684956774,-0.741192501507,-0.0816449528639,0.160214287151,-0.267806037964,0.573857574904,0.818936875739,0.00325947578554,0.0,0.818907528519,-0.573790687778,-0.0116384386846,0.0,-0.00766103726078,0.00934819544076,-0.999926957207,0.0,0.546112453088,0.109220196496,0.304443796886,1.0,-0.166422857143,-0.218727183673,2.14
0.315120561275,0.0444379780269,-0.127037034944,-2.07512454197,0.019015122394,2.11310018342,0.00414244393362,-0.305480243309,-0.590221842777,0.000283899932361,-0.776756396329,-0.0833080325643,0.145000359183,-0.262394241595,0.57386871309,0.818929647552,0.00311117304121,0.0,0.818897339815,-0.573801089398,-0.0118407580334,0.0,-0.00791170564755,0.00934295178257,-0.999925054274,0.0,0.543541234314,0.105968726855,0.304342282241,1.0,-0.168351428571,-0.221261877551,2.155
0.308580373858,0.0316693941803,-0.12711863451,-2.09075903105,0.0170987643591,2.116301517,-0.00169729586429,-0.318104340423,-0.601500759453,-0.00757037720212,-0.743651000593,-0.0998497239719,0.164491528405,-0.278820750297,0.573777852366,0.818992541224,0.00330763573644,0.0,0.818963727972,-0.573710709646,-0.0116267280053,0.0,-0.00762472426918,0.00938017331584,-0.999926935295,0.0,0.540047572201,0.101339658728,0.304458956427,1.0,-0.16998,-0.223402285714,2.176
0.304097009557,0.023250321351,-0.127181326485,-2.10128383907,0.0158509918929,2.11822752162,-0.00566645647588,-0.325482028048,-0.592461342355,-0.00267614628191,-0.755297223815,-0.0794067832992,0.137229358119,-0.282777005271,0.573761569439,0.819004503719,0.00316721078459,0.0,0.818973187753,-0.573694074994,-0.0117801935157,0.0,-0.00783117225702,0.00935306310786,-0.999925593708,0.0,0.537618638226,0.0982064677606,0.30439403487,1.0,-0.16998,-0.223402285714,2.19
0.298848650675,0.0135369035151,-0.127351659556,-2.1129741978,0.0143947243154,2.12044743369,-0.0102267331188,-0.328730226689,-0.611472294029,-0.0126960117862,-0.71865610812,-0.0914039383699,0.139792200094,-0.280735993408,0.573877617532,0.818922598666,0.0033172867766,0.0,0.818893845902,-0.573810350593,-0.0116317495554,0.0,-0.00762215583479,0.00939188727198,-0.999926844921,0.0,0.534953290227,0.0945589990441,0.304498830559,1.0,-0.16998,-0.223402285714,2.206
0.292875243113,0.00280767723406,-0.127436548284,-2.12619606789,0.0128738890548,2.12274819566,-0.0154559615481,-0.326075861474,-0.596286867336,-0.00878193330268,-0.72733937837,-0.0863833023251,0.121847919892,-0.290959957979,0.573930453508,0.818885954728,0.00322096049731,0.0,0.818854593839,-0.573861855331,-0.0118520903747,0.0,-0.007857275252,0.00943995565198,-0.999924572387,0.0,0.531837711983,0.0905241433784,0.304426803667,1.0,-0.16998,-0.223402285714,2.224
0.287542813984,-0.00677223032469,-0.127436495492,-2.13758146121,0.0114421491986,2.12484071465,-0.0201943748772,-0.3325606923,-0.606704459693,0.00126723867316,-0.699897561355,-0.10055475715,0.136104668024,-0.291998058442,0.573810117688,0.818969490088,0.00341614473739,0.0,0.818941299131,-0.573741645809,-0.0116798691615,0.0,-0.00760561841928,0.00949983200861,-0.999925951139,0.0,0.529166102752,0.0870178070693,0.304527486105,1.0,-0.16998,-0.223402285714,2.24
0.282126137987,-0.016189439844,-0.127448582969,-2.14900784771,0.00995968532964,2.12675778782,-0.0249370685923,-0.342210116229,-0.581604344838,0.000729335236197,-0.709039674125,-0.0981703397497,0.110055434237,-0.295568741138,0.573729451188,0.819026456681,0.00330560089386,0.0,0.818996779823,-0.573661294683,-0.0117362908817,0.0,-0.0077161860074,0.00944091398083,-0.999925662045,0.0,0.526416853549,0.0834820810672,0.304479874026,1.0,-0.16998,-0.223402285714,2.256
0.27622636009,-0.026269476466,-0.127536597176,-2.16091631458,0.00846835667953,2.12861719495,-0.0300971136562,-0.351793343112,-0.606891693338,-0.006052865844,-0.690056396164,-0.089706821419,0.127750430127,-0.297427490461,0.573747754125,0.819013381398,0.00336788204221,0.0,0.818984266387,-0.573679081319,-0.0117401008306,0.0,-0.00768336413182,0.00949428168272,-0.999925409484,0.0,0.523357826866,0.0794465587073,0.304538149713,1.0,-0.16998,-0.223402285714,2.274
0.270185724783,-0.0361948663546,-0.127700139658,-2.17270987008,0.00692756959388,2.13055216189,-0.0352391885054,-0.357185124611,-0.584749479842,-0.00105043833029,-0.69024522801,-0.0766305249769,0.104938681285,-0.307224497211,0.573917817388,0.818894234736,0.00336423868583,0.0,0.81886520851,-0.573849301384,-0.0117258899311,0.0,-0.00767184534893,0.00948473777971,-0.999925588501,0.0,0.520657897487,0.0757897052903,0.304523798801,1.0,-0.16998,-0.223402285714,2.29
0.264146449767,-0.0460847852185,-0.127727742139,-2.18446548287,0.00553041514872,2.13223717438,-0.0405811201928,-0.357696962981,-0.57799976541,-0.000408780364055,-0.686751793525,-0.0841067431486,0.102502581794,-0.311994583459,0.57386205655,0.818933543906,0.00330720698804,0.0,0.818902244207,-0.573791873603,-0.0119476826913,0.0,-0.00788686148033,0.00956478513657,-0.999923153198,0.0,0.517704987466,0.0720385114184,0.304465998861,1.0,-0.16998,-0.223402285714,2.307
0.258010235332,-0.055970131828,-0.127757386801,-2.19577421328,0.00392371390141,2.13403747027,-0.0459510068023,-0.364366054326,-0.572800826376,-0.00109615640483,-0.678660483393,-0.093276103622,0.093562251093,-0.32398777694,0.573759641612,0.819004489474,0.00350239631321,0.0,0.818977416958,-0.573690898173,-0.011640050115,0.0,-0.00752410527755,0.00954715828047,-0.999926117075,0.0,0.514906101143,0.0682758373105,0.304588271198,1.0,-0.16998,-0.223402285714,2.324
0.251807133298,-0.0657191997486,-0.127815605599,-2.2073397498,0.00245228010666,2.13548924876,-0.051413475093,-0.36594110144,-0.569951496738,-0.0016921043012,-0.676018086773,-0.0887744463399,0.0841060113944,-0.333202297271,0.573703736967,0.819044595724,0.00327403509052,0.0,0.819012969601,-0.573633826816,-0.0119471862001,0.0,-0.00790733325389,0.00953580616514,-0.999923268297,0.0,0.511911062613,0.0645054325912,0.304463384327,1.0,-0.16998,-0.223402285714,2.341
0.245392395551,-0.0755241965122,-0.127984576051,-2.21836881461,0.000952380523925,2.13705194888,-0.0569269738143,-0.381871641299,-0.562199967491,-0.0134138517153,-0.643814823275,-0.0857523154118,0.0881314112361,-0.328622592797,0.573846266896,0.818943746344,0.00351414211123,0.0,0.818916119959,-0.573776577915,-0.0117291947158,0.0,-0.00758936434608,0.00960872722187,-0.999925034145,0.0,0.509112787339,0.0606368259746,0.304589890121,1.0,-0.16998,-0.223402285714,2.358
0.239335071623,-0.0845985099796,-0.128068369152,-2.22888415156,-0.000403148591654,2.13832959763,-0.0622201219302,-0.373244448918,-0.569871579582,-0.0022806418922,-0.663328408079,-0.0844538745998,0.0826010410497,-0.329710424251,0.573862224508,0.818932875305,0.00344091979725,0.0,0.818903249987,-0.573791473352,-0.0118978641189,0.0,-0.00776933121644,0.00964570088472,-0.999923296032,0.0,0.506351103795,0.0570624039525,0.304525826041,1.0,-0.16998,-0.223402285714,2.374
0.232881729176,-0.0942862985509,-0.128079987287,-2.23978250447,-0.00188482625936,2.1396009055,-0.0679269104932,-0.38102210916,-0.574844892978,-0.00508672979162,-0.621743109052,-0.0891693840967,0.081798697405,-0.349398905621,0.573732655623,0.819023419841,0.00349635881142,0.0,0.818994471272,-0.573661669614,-0.0118782045168,0.0,-0.00772294934226,0.00967859870059,-0.999923337452,0.0,0.503459987874,0.0533416155436,0.304569981516,1.0,-0.16998,-0.223402285714,2.391
0.226640279059,-0.103290917753,-0.128153309767,-2.24990699994,-0.0033416475749,2.14077310301,-0.0733291856275,-0.387998902567,-0.556724731407,-0.00734539208364,-0.639325154257,-0.0936324714517,0.0638347329642,-0.340890514475,0.573735488262,0.819021412,0.00350187021452,0.0,0.818992940807,-0.573664991837,-0.0118231531246,0.0,-0.00767466297945,0.00965155533841,-0.999923970624,0.0,0.500759529636,0.04976090207,0.304585567181,1.0,-0.16998,-0.223402285714,2.407
0.219468862126,-0.113373383146,-0.128336796764,-2.26134485968,-0.00493870839087,2.14186523396,-0.0795103054272,-0.409632725462,-0.560466627951,-0.0092324079184,-0.627104269444,-0.0921605763014,0.0629002955806,-0.339871108923,0.573863101321,0.818932709107,0.00333253617056,0.0,0.818900966408,-0.573791885502,-0.0120343777999,0.0,-0.00794331633478,0.00963528796656,-0.999922029436,0.0,0.497631043497,0.0456573480717,0.30450682827,1.0,-0.16998,-0.223402285714,2.425
0.212659400363,-0.122897914536,-0.128410049263,-2.27168493163,-0.00635463906516,2.14305725203,-0.0854837728197,-0.404970922882,-0.548612339564,-0.00105157514687,-0.610446756153,-0.0771035124693,0.0627661745763,-0.355111003173,0.573854770544,0.818937269885,0.00363279771419,0.0,0.818910255007,-0.573783495405,-0.011800065512,0.0,-0.00757921998778,0.00974664684247,-0.999923776245,0.0,0.494833381714,0.0418886074561,0.304628169349,1.0,-0.16998,-0.223402285714,2.442
0.206594071326,-0.13119103454,-0.128437101083,-2.28089614347,-0.00764914937642,2.14383417927,-0.0907898698601,-0.406465773885,-0.554412310871,-0.0052173732516,-0.606842011423,-0.0835758156987,0.0513932806008,-0.35873581724,0.57380310262,0.818973824675,0.00355257960625,0.0,0.818945128165,-0.573731302411,-0.0119170713414,0.0,-0.00772169203746,0.00974760794243,-0.999922676816,0.0,0.492247333134,0.0385787879678,0.304593742003,1.0,-0.16998,-0.223402285714,2.457
0.199187777948,-0.141153845843,-0.128534819107,-2.2917459795,-0.00923077083404,2.14478645143,-0.0973049280626,-0.406048432323,-0.556805664489,-0.00792355846647,-0.588475825088,-0.0869199928854,0.0618095464341,-0.360548028537,0.573755712202,0.819006824198,0.00359882403294,0.0,0.818978946643,-0.57368403002,-0.011868679686,0.0,-0.00765608918595,0.00975727173951,-0.999923087015,0.0,0.489194130849,0.0345624540581,0.304622327188,1.0,-0.16998,-0.223402285714,2.475
0.192027421525,-0.150494252798,-0.128707504588,-2.30181334701,-0.0106755677613,2.14565546344,-0.103506977949,-0.425447043755,-0.546829582266,-0.0120331453911,-0.601811894985,-0.0934163328982,0.0382341268558,-0.361265638376,0.573884344194,0.818916116446,0.00372835288021,0.0,0.818890124366,-0.573812457638,-0.0117887478655,0.0,-0.00751476497315,0.00981867823141,-0.999923558011,0.0,0.486339119477,0.0307079807415,0.304664989239,1.0,-0.16998,-0.223402285714,2.492
0.185256050512,-0.159201260288,-0.128770544606,-2.311305734,-0.0121178776178,2.14619405933,-0.109454570599,-0.419100812301,-0.540462691422,-0.00171945696026,-0.595877871128,-0.0890079612945,0.0309326764606,-0.364270180517,0.573812496281,0.818967282675,0.00354343350693,0.0,0.818938256742,-0.573740462659,-0.011948223829,0.0,-0.00775234247898,0.0097580812738,-0.999922337502,0.0,0.483553275841,0.0271417036396,0.304608207527,1.0,-0.16998,-0.223402285714,2.508
0.177992039666,-0.168480001306,-0.128795069006,-2.32095884544,-0.0134529264271,2.14692670863,-0.115845109276,-0.436267594509,-0.550429870794,0.000268627920889,-0.558821783607,-0.0769894117746,0.0441238666395,-0.377586241965,0.573785652733,0.818984659158,0.0038600108,0.0,0.818960380577,-0.573713349115,-0.0117317941049,0.0,-0.00739376202547,0.00989292152141,-0.999923728285,0.0,0.480748787983,0.0234181433921,0.304744795778,1.0,-0.16998,-0.223402285714,2.525
0.17016247382,-0.17809360784,-0.128913335885,-2.33131932839,-0.0149890304831,2.14743826086,-0.122726554009,-0.441816480786,-0.545915223326,-0.0101633129115,-0.574595909632,-0.0967971244768,0.0215220352419,-0.385541727905,0.573782247514,0.818987650118,0.00372938240561,0.0,0.818960715858,-0.573709127897,-0.0119134105126,0.0,-0.00761750201359,0.00989011155937,-0.999922076642,0.0,0.477639850847,0.0193976421225,0.304672289931,1.0,-0.16998,-0.223402285714,2.543
0.163433744315,-0.186123517201,-0.129071115064,-2.33981319604,-0.0162619698877,2.14783636833,-0.12857874778,-0.448532066328,-0.536144827207,-0.00628402287296,-0.556277843971,-0.0800841110957,0.0331018373302,-0.384428805927,0.57389429402,0.818909189684,0.00371823126073,0.0,0.818881684659,-0.573820646616,-0.0119749299841,0.0,-0.00767293007116,0.00991732640715,-0.9999213833,0.0,0.475069856807,0.0159669939636,0.304658183442,1.0,-0.16998,-0.223402285714,2.558
0.155466928231,-0.195743784324,-0.129109423548,-2.34961785814,-0.0177647657664,2.14837441084,-0.135675175655,-0.439434442935,-0.525358126794,-0.000714852106505,-0.54566595002,-0.0829449480625,0.0221447504373,-0.400093378503,0.57376635954,0.818997690071,0.0039617192158,0.0,0.818974697044,-0.573693684261,-0.011693978893,0.0,-0.00730466904573,0.00995435114464,-0.999923773446,0.0,0.472098346612,0.0120261277566,0.304789038321,1.0,-0.16998,-0.223402285714,2.576
0.147744685224,-0.204624766467,-0.129192218243,-2.35906106377,-0.0191724166697,2.14859368823,-0.142501164423,-0.458316130909,-0.523578022889,-0.0021346236015,-0.557211043846,-0.0768176734764,0.0071072037224,-0.398749118784,0.573735912695,0.819019869848,0.00378182233594,0.0,0.818993068135,-0.573661895088,-0.0119637524248,0.0,-0.00762921047166,0.00996151248473,-0.99992127861,0.0,0.469130863079,0.00823885214554,0.304681731225,1.0,-0.16998,-0.223402285714,2.593
0.140335339059,-0.213019270648,-0.129378170444,-2.36766396237,-0.0204501182883,2.14883182334,-0.148997037439,-0.461064490378,-0.518522046984,-0.00882995069023,-0.525593645487,-0.0803210974428,0.0210271806396,-0.399530452791,0.573868941433,0.818926224783,0.00387599310724,0.0,0.81890028488,-0.573794081695,-0.0119758981547,0.0,-0.00758350116452,0.0100468412893,-0.999920772607,0.0,0.466418789101,0.00461103347477,0.304704432822,1.0,-0.16998,-0.223402285714,2.609
0.132452622202,-0.221856333071,-0.129455729212,-2.37655946295,-0.0218623415985,2.14909580562,-0.155943902014,-0.458649824153,-0.511199165827,-0.000775560807987,-0.531317514242,-0.0833435764921,0.0104867275975,-0.408559758554,0.573857301021,0.818933709727,0.00401547485972,0.0,0.818910523401,-0.573783219936,-0.0117948329293,0.0,-0.00735531580443,0.0100570592394,-0.999922374432,0.0,0.463592780699,0.000845252016635,0.304779160246,1.0,-0.16998,-0.223402285714,2.626
0.123483720312,-0.231571941508,-0.129527624391,-2.38662238734,-0.0234339193548,2.14916134322,-0.163936795419,-0.475020759792,-0.513416667105,-0.00704227217555,-0.524595233117,-0.0781499037438,-0.000371785963234,-0.431672933234,0.57376543574,0.818998809634,0.00386283180572,0.0,0.818972586228,-0.573690491699,-0.0119945672109,0.0,-0.00760761285993,0.0100458148494,-0.999920599763,0.0,0.460301492491,-0.00337016174402,0.304685246035,1.0,-0.16998,-0.223402285714,2.645
0.116264826331,-0.2392871496,-0.129672653152,-2.39430649256,-0.0246786831776,2.14918687271,-0.170312960283,-0.490881462824,-0.514913603592,-0.0143790754149,-0.496110283128,-0.0770297594157,0.00275734831702,-0.418220778863,0.573818069968,0.818961658202,0.0039206981411,0.0,0.818936447335,-0.573743252224,-0.0119382852469,0.0,-0.00752766871039,0.010061400119,-0.999921048099,0.0,0.457762274782,-0.00675939905158,0.304724230435,1.0,-0.16998,-0.223402285714,2.66
0.107998060001,-0.24796017814,-0.129811972131,-2.40278015544,-0.0259807504825,2.14924454568,-0.177653390313,-0.479401804545,-0.509826766838,-0.00816924726671,-0.504433118339,-0.0773889435961,0.000508863591645,-0.428171584518,0.573881130927,0.818916297775,0.00415832965279,0.0,0.818894838437,-0.573806396008,-0.0117562911513,0.0,-0.00724148169464,0.0101521438108,-0.999922244436,0.0,0.454941151711,-0.0105710838361,0.304822422441,1.0,-0.16998,-0.223402285714,2.677
0.100180176206,-0.25595194746,-0.129854101945,-2.41092463728,-0.0272524362411,2.14915946483,-0.184667403529,-0.501294785267,-0.495078069038,-0.00844248454077,-0.502238935423,-0.082053050852,-0.00220932802002,-0.437030506219,0.573803063877,0.818971599755,0.00403851221226,0.0,0.818947499809,-0.573727256434,-0.0119488360057,0.0,-0.00746889660655,0.0101638038737,-0.999920453173,0.0,0.451988049153,-0.014322228914,0.304719088055,1.0,-0.16998,-0.223402285714,2.694
0.0917036960367,-0.26445389249,-0.129991455281,-2.41924951192,-0.028602857342,2.1490422012,-0.19214366257,-0.502835350528,-0.507271010884,-0.0101506090961,-0.480810588501,-0.0725519616363,-0.00410689829748,-0.442174584407,0.573870687568,0.818923783814,0.00412518537158,0.0,0.818901159845,-0.573795042771,-0.0118695491921,0.0,-0.00735338679533,0.0101899016285,-0.999921043687,0.0,0.449289602902,-0.0179089281609,0.30475633592,1.0,-0.16998,-0.223402285714,2.71
0.0826218265788,-0.273391802388,-0.130142912437,-2.42774922071,-0.0300044723239,2.14891404026,-0.200263904249,-0.501378493443,-0.494828815843,-0.00541972439896,-0.475697042309,-0.0719013835876,-0.00574829521958,-0.44166439755,0.573901527453,0.818900980751,0.00435515950344,0.0,0.818882608071,-0.573826933792,-0.0116047901821,0.0,-0.0070042010901,0.0102265680772,-0.999923176285,0.0,0.446318446179,-0.0219493379134,0.304873599677,1.0,-0.16998,-0.223402285714,2.728
0.074524108263,-0.281145430034,-0.130182215168,-2.43548133057,-0.0312673585753,2.14860933605,-0.207624944597,-0.514224398754,-0.490302775196,-0.00449947774254,-0.471998076101,-0.0759437846215,-0.0238459396663,-0.462292464965,0.573738407038,0.819016052126,0.00420637020341,0.0,0.818994766925,-0.57366290333,-0.0117979656487,0.0,-0.00724982428697,0.0102141378557,-0.999921552641,0.0,0.443541372819,-0.0254592919974,0.30477726059,1.0,-0.16998,-0.223402285714,2.744
0.0662081425585,-0.288901912955,-0.130300590389,-2.44297214667,-0.0324859419266,2.14831875798,-0.215042540627,-0.518815249853,-0.486341561431,-0.00903789292417,-0.464137210527,-0.0697114119108,-0.0170590455413,-0.465995763741,0.573789902855,0.818979776046,0.00424508076476,0.0,0.818958827268,-0.573714026385,-0.0118068654146,0.0,-0.00723426089712,0.0102514038953,-0.999921283996,0.0,0.440817589908,-0.0290553675507,0.304771898302,1.0,-0.16998,-0.223402285714,2.76
0.0572859359202,-0.297135228434,-0.130485327955,-2.45059952724,-0.0336991455321,2.14804190253,-0.223041169333,-0.524914282258,-0.489700164543,-0.00129875672505,-0.449697319994,-0.0674358847722,-0.0265048055793,-0.470476123471,0.573904597257,0.818897813311,0.00454219154051,0.0,0.818881692796,-0.573829193099,-0.0115575625074,0.0,-0.00685815259863,0.0103526550745,-0.999922891165,0.0,0.438012069212,-0.0328906162174,0.304893251682,1.0,-0.16998,-0.223402285714,2.777
0.0472917976949,-0.306111424682,-0.130573898478,-2.45920369691,-0.0352268922234,2.14747798776,-0.232069230695,-0.539015590827,-0.471483853916,-0.0100141679404,-0.45311390354,-0.0811200791188,-0.0379040107126,-0.473190215512,0.573798929237,0.818972584638,0.00440923115194,0.0,0.818954524572,-0.573723618381,-0.0116380108424,0.0,-0.00700166657263,0.0102890360574,-0.999922553202,0.0,0.434752970763,-0.0370933068038,0.304849452113,1.0,-0.16998,-0.223402285714,2.796
0.039207561452,-0.313134444601,-0.130694610854,-2.465899016,-0.0362971130984,2.14698312329,-0.239303339509,-0.540140862366,-0.464369630641,-0.00802266482007,-0.434796695358,-0.0649870064838,-0.0353116732487,-0.477411411215,0.573879570492,0.818916129023,0.00439989765482,0.0,0.818896920374,-0.573802774634,-0.0117879822892,0.0,-0.00712883259495,0.0103681444715,-0.99992083753,0.0,0.431993947327,-0.0406829607795,0.304804356627,1.0,-0.16998,-0.223402285714,2.812
0.0294592567231,-0.321510049516,-0.130851220282,-2.47358532224,-0.0376278638114,2.14647594664,-0.248171145062,-0.539265483269,-0.466508533652,-0.0050781487976,-0.410899243042,-0.0714939059886,-0.0283474216651,-0.495531424173,0.573867054114,0.818924091588,0.00454789174784,0.0,0.818907769217,-0.573791223158,-0.0115950266876,0.0,-0.00688603890592,0.0103785075119,-0.999922431517,0.0,0.42916565445,-0.0444862726174,0.304880497566,1.0,-0.16998,-0.223402285714,2.829
0.020194662984,-0.329299290446,-0.130924577583,-2.48071883321,-0.0388218038088,2.1459376336,-0.256656717593,-0.552190672312,-0.459419312952,-0.00977545095795,-0.427438263052,-0.0652697582077,-0.0383666162372,-0.498841465796,0.573775330317,0.818987665236,0.00467133953845,0.0,0.818973475236,-0.573699972835,-0.0114688678702,0.0,-0.00671304320049,0.0104064569829,-0.999923317412,0.0,0.426328613695,-0.0482325795373,0.304929704352,1.0,-0.16998,-0.223402285714,2.846
0.0112300923318,-0.336470307976,-0.13107203106,-2.48752763872,-0.039943886678,2.14520964886,-0.264732662918,-0.561742206637,-0.455470255611,-0.0127094669033,-0.418348031143,-0.0673636194917,-0.0523297308318,-0.504849022091,0.573869774159,0.81892212355,0.00455903142503,0.0,0.818904716526,-0.573792063594,-0.0117677487137,0.0,-0.007021068894,0.0104867695363,-0.999920362957,0.0,0.423529800755,-0.0518360382799,0.304827205855,1.0,-0.16998,-0.223402285714,2.862
0.00226332683338,-0.343675262782,-0.13119607586,-2.49407308753,-0.0410723019115,2.14456217855,-0.272873021453,-0.560873995611,-0.438493379947,-0.00236335705679,-0.404049572755,-0.0647426612812,-0.0440732740063,-0.514522267541,0.573895569482,0.81890368054,0.0046243083756,0.0,0.81888722101,-0.573817792254,-0.011730620641,0.0,-0.00695287185949,0.010519140774,-0.999920499465,0.0,0.420813201543,-0.0554015144153,0.304848960493,1.0,-0.16998,-0.223402285714,2.878
-0.00735119038294,-0.351196221067,-0.131314537413,-2.50076148061,-0.042281757124,2.14385111254,-0.28170689122,-0.575999938146,-0.438695613952,-0.0124874743163,-0.383185922129,-0.0727234049788,-0.0399889486612,-0.53020886741,0.573832183871,0.818947559924,0.00471865972929,0.0,0.818933143552,-0.573755379694,-0.0115765955935,0.0,-0.00677339871779,0.0105074922784,-0.999921853784,0.0,0.417975473824,-0.0591883567327,0.304916314918,1.0,-0.16998,-0.223402285714,2.895
-0.0166247626942,-0.358148648051,-0.131459700458,-2.50698706645,-0.0433730476832,2.143129128,-0.290108615555,-0.584493575551,-0.428885598185,-0.00567020406516,-0.395462297397,-0.064192029343,-0.0465254158566,-0.532265336841,0.573930006963,0.818878620979,0.00478519716148,0.0,0.818865136519,-0.573853099874,-0.0115436068591,0.0,-0.0067069417707,0.0105438564938,-0.999921918963,0.0,0.415269756995,-0.0628087154481,0.304937005166,1.0,-0.16998,-0.223402285714,2.911
-0.0269253843529,-0.365874525687,-0.131521999876,-2.5140185147,-0.0446301117498,2.14218620674,-0.299717907724,-0.572299536016,-0.421849010703,-0.00350491137299,-0.383088077974,-0.0675552536391,-0.0513908132474,-0.537595174546,0.573706473092,0.819035835023,0.00468300997304,0.0,0.819020240162,-0.573628695532,-0.0116924235857,0.0,-0.00689033767335,0.010543702049,-0.999920673651,0.0,0.412166048534,-0.0667309758927,0.304880540183,1.0,-0.16998,-0.223402285714,2.929
-0.0363394885882,-0.37264608602,-0.131635247546,-2.5200538389,-0.045676648765,2.14137338594,-0.308329865417,-0.5957189074,-0.422976846501,-0.00959300827975,-0.381122953399,-0.0636108327846,-0.0543005833599,-0.540023329823,0.573739776818,0.819012326221,0.00471432874361,0.0,0.818996737924,-0.573661280574,-0.0117399037769,0.0,-0.00691083109277,0.010596873658,-0.999919970139,0.0,0.409264164193,-0.0705305568651,0.304868232828,1.0,-0.16998,-0.223402285714,2.946
-0.0465423991024,-0.37970143516,-0.131797544967,-2.52612404378,-0.046780759745,2.14050127039,-0.317544171725,-0.596256617606,-0.415201115903,-0.00471387728083,-0.343254044498,-0.0561304525186,-0.0455551533125,-0.539106312617,0.573933003297,0.818876187727,0.00484187983815,0.0,0.818862965338,-0.573855182785,-0.0115939678252,0.0,-0.00671561563024,0.0106192013087,-0.99992106342,0.0,0.406595296855,-0.0741697817062,0.304945732394,1.0,-0.16998,-0.223402285714,2.962
-0.0565785202429,-0.386649516534,-0.131888718164,-2.53216023398,-0.0479009040067,2.13963715842,-0.327000921686,-0.597913384675,-0.411097601031,-0.0111027638204,-0.356364878786,-0.0631817269252,-0.0582556815499,-0.556648056388,0.573726359712,0.819020680552,0.00489243303225,0.0,0.819008679653,-0.573649328405,-0.0114881493472,0.0,-0.00660261809429,0.0105982032711,-0.999922038722,0.0,0.403750227479,-0.0778958280238,0.304976295295,1.0,-0.16998,-0.223402285714,2.979
-0.0676138306017,-0.393883828539,-0.132077893636,-2.53860518954,-0.0490918801622,2.1385323061,-0.337089457247,-0.623366105699,-0.406246434786,-0.0107803709011,-0.351661957871,-0.0599211619631,-0.0620664440211,-0.555985906087,0.573842305404,0.818939980929,0.00480240215712,0.0,0.818925506881,-0.573763462171,-0.011715398372,0.0,-0.00683889690089,0.0106558059886,-0.999919838431,0.0,0.400601780821,-0.0819714841167,0.304899810143,1.0,-0.16998,-0.223402285714,2.997
-0.0767624836982,-0.39980973021,-0.132160239928,-2.54368022744,-0.0500321089022,2.13768225282,-0.345581307927,-0.595752890837,-0.385224395706,-0.0082765200996,-0.339688390547,-0.0592307667858,-0.05746649779,-0.56260708227,0.573805232598,0.818965721895,0.00484234503062,0.0,0.818952023022,-0.573726670908,-0.0116635320035,0.0,-0.00677398083338,0.0106584491613,-0.999920252143,0.0,0.398072505131,-0.0852976798351,0.30492358032,1.0,-0.16998,-0.223402285714,3.012
-0.0871615699353,-0.406362628114,-0.13225023866,-2.54930661137,-0.0510926770277,2.13667914257,-0.355359297741,-0.621219651442,-0.381699761269,-0.00680600557766,-0.321510462579,-0.071430213409,-0.0599269815274,-0.57571282039,0.573664145909,0.819064565324,0.0048407055466,0.0,0.819050818833,-0.57358557157,-0.0116659828525,0.0,-0.00677876482865,0.0106573451179,-0.99992023149,0.0,0.395202482453,-0.0890389387373,0.304925071234,1.0,-0.16998,-0.223402285714,3.029
-0.0985827077858,-0.413175160432,-0.132434104227,-2.55498965732,-0.0521379598096,2.13568965868,-0.365805353122,-0.633325670075,-0.374039819776,-0.0034729291663,-0.315846476152,-0.064977680247,-0.0663107699725,-0.584500887719,0.573883456986,0.818909951764,0.00500155977401,0.0,0.81889903542,-0.573805556431,-0.0115021779738,0.0,-0.00654945131781,0.0106968880813,-0.999921337543,0.0,0.392188595167,-0.0931559062796,0.304990305482,1.0,-0.16998,-0.223402285714,3.047
-0.10787760811,-0.418769406884,-0.132496806451,-2.55976446343,-0.0529641186534,2.13473259286,-0.374645176097,-0.621706365815,-0.371508883783,-0.00707508590169,-0.320953593339,-0.0599223523219,-0.0691325207003,-0.593630405098,0.573721250704,0.819023431515,0.00502911731394,0.0,0.81901221681,-0.573642227083,-0.0115901218734,0.0,-0.00660779455273,0.0107686150661,-0.999920183805,0.0,0.389634365498,-0.096408117877,0.304973577098,1.0,-0.16998,-0.223402285714,3.062
-0.120026396319,-0.425700441834,-0.132697172041,-2.56569692806,-0.0541417813988,2.13343997259,-0.385947721872,-0.648599738292,-0.35789259488,-0.0158293529219,-0.31199265606,-0.0637765003773,-0.0625173254345,-0.594995128234,0.573770683129,0.818989307361,0.00494616136641,0.0,0.818975908097,-0.573690134291,-0.0117829824484,0.0,-0.00681270382118,0.0108117250446,-0.9999183435,0.0,0.386329001033,-0.100681292573,0.304919619879,1.0,-0.16998,-0.223402285714,3.081
-0.130929362905,-0.431692201013,-0.132778947747,-2.57068412299,-0.0550989126268,2.13244263743,-0.396108721599,-0.628119019344,-0.346206708065,-0.00023406402027,-0.28697230247,-0.0543524785318,-0.0712678833794,-0.596280602545,0.573783660483,0.818979943095,0.00499105911721,0.0,0.818967535396,-0.573703613852,-0.0117083867725,0.0,-0.00672567477026,0.0108058044501,-0.999918996664,0.0,0.383476942539,-0.104457301478,0.304937306669,1.0,-0.16998,-0.223402285714,3.098
-0.140601956254,-0.43681974004,-0.132873311304,-2.57497761292,-0.0558817404701,2.13149281217,-0.405278790417,-0.645129830932,-0.339745518379,-0.00763430065047,-0.28552123743,-0.0591795781116,-0.0677068477505,-0.606765578809,0.573717077369,0.819026375038,0.00502583618131,0.0,0.819013915584,-0.573636118693,-0.0117709945065,0.0,-0.00675788391121,0.0108696596106,-0.999918087398,0.0,0.380942703909,-0.107774519136,0.304923155918,1.0,-0.16998,-0.223402285714,3.113
-0.152534217832,-0.442952192461,-0.133052587287,-2.57986800208,-0.0569248670929,2.13035923737,-0.416340405945,-0.656555733621,-0.343322872156,0.000201101379428,-0.266640835896,-0.0579196318137,-0.064183010968,-0.597789309217,0.573867938006,0.818920263964,0.0050929263334,0.0,0.818909741274,-0.573788473834,-0.0115918006708,0.0,-0.00657062454187,0.0108230181114,-0.999919841373,0.0,0.377907214003,-0.111891845757,0.305004855712,1.0,-0.16998,-0.223402285714,3.131
-0.162933096744,-0.448298362517,-0.133124463167,-2.58422260781,-0.0577390691078,2.1293601075,-0.426290979949,-0.661572414886,-0.330788602787,-0.00515952737511,-0.278707520248,-0.0447339228421,-0.06684762515,-0.623931526231,0.573718465085,0.819024568118,0.00516009125642,0.0,0.819015081899,-0.573639100068,-0.0115423306457,0.0,-0.00649354728843,0.0108484496508,-0.999920069297,0.0,0.375207039541,-0.115381191853,0.305026314556,1.0,-0.16998,-0.223402285714,3.147
-0.173661621196,-0.453408155348,-0.133307216847,-2.58853024801,-0.0585798484257,2.12826586274,-0.436353041497,-0.679787564597,-0.321468158251,-0.00979136780116,-0.262504147405,-0.0550386266436,-0.0664356189191,-0.632341750181,0.573818642225,0.818954565367,0.00513153010157,0.0,0.818943324586,-0.573737061208,-0.0117627638825,0.0,-0.00668914896978,0.0109523363879,-0.999917647416,0.0,0.372414675539,-0.11898757435,0.304957863787,1.0,-0.16998,-0.223402285714,3.163
-0.184980532648,-0.458683916915,-0.133353662526,-2.59277344009,-0.0593698616936,2.12719741936,-0.447160050991,-0.657610185231,-0.312036662396,0.00187002825299,-0.241194844983,-0.041377006834,-0.0607915514162,-0.628404027455,0.573714176273,0.819027329595,0.0051984825254,0.0,0.819017009496,-0.573632474643,-0.0117332473022,0.0,-0.00662795941873,0.0109893875026,-0.999917648367,0.0,0.369564900606,-0.12272545532,0.30497999861,1.0,-0.16998,-0.223402285714,3.18
-0.197169683846,-0.464029366852,-0.133515335183,-2.59713697995,-0.0602705644623,2.12611163123,-0.458712107462,-0.689039671849,-0.294319347264,-0.0144546276394,-0.244991625454,-0.0475978175648,-0.0672799654027,-0.643846972516,0.57374079452,0.819008554119,0.00521880115602,0.0,0.818998306296,-0.573658702274,-0.0117564659298,0.0,-0.0066349632077,0.0110195655718,-0.999917269797,0.0,0.366512716672,-0.126766648122,0.304961434841,1.0,-0.16998,-0.223402285714,3.198
-0.208113209793,-0.468698527688,-0.133618915215,-2.60091452323,-0.0610999073445,2.125085936,-0.469024720054,-0.675280804486,-0.290338852209,-0.00794909418517,-0.240564002177,-0.0475470761465,-0.0631935167216,-0.647872100729,0.57377849663,0.818982418365,0.0051751440099,0.0,0.818971411847,-0.573696229441,-0.0117987204301,0.0,-0.00669411286854,0.0110083590118,-0.999916998998,0.0,0.363772027869,-0.130351522335,0.304947572152,1.0,-0.16998,-0.223402285714,3.214
-0.219701250957,-0.473590151694,-0.133723081813,-2.60464454251,-0.0618472373572,2.12406067024,-0.480148378827,-0.691615907983,-0.292727737654,-0.0107393638139,-0.21966558493,-0.0466669778204,-0.0559830798417,-0.655256758238,0.573715558186,0.819025675163,0.00530552733561,0.0,0.81901735351,-0.57363453523,-0.0116078224546,0.0,-0.0064637953638,0.0110051191789,-0.999918550034,0.0,0.360936505293,-0.134121905643,0.305033531638,1.0,-0.16998,-0.223402285714,3.231
-0.231561313144,-0.478225556494,-0.133874069069,-2.60826870845,-0.0626269144217,2.12304222764,-0.491367606828,-0.687957639113,-0.268517658557,-0.00588575562212,-0.208335357889,-0.0446416496749,-0.0555727433776,-0.660949122533,0.573821717763,0.818950945038,0.00536029345273,0.0,0.81894364995,-0.573741050457,-0.0115434885888,0.0,-0.00637825329367,0.0110138947876,-0.999919002723,0.0,0.358047432849,-0.137973809807,0.305062246262,1.0,-0.16998,-0.223402285714,3.248
-0.243253764051,-0.482626736369,-0.13391312937,-2.61182725275,-0.0633666637552,2.12202023629,-0.50270009632,-0.690511915595,-0.255501457809,-0.00104499114434,-0.198746235674,-0.0461769681422,-0.0564872091654,-0.660768717732,0.573636766421,0.819080704751,0.00532974815161,0.0,0.819072514117,-0.573555369306,-0.0116276334301,0.0,-0.00646718902855,0.0110357007316,-0.999918191041,0.0,0.355172105078,-0.141685300666,0.305027855856,1.0,-0.16998,-0.223402285714,3.265
-0.254600703308,-0.486597822004,-0.134069987479,-2.61504527703,-0.0640703940481,2.12103678667,-0.513437202051,-0.709064435624,-0.246135582764,-0.00860174478145,-0.197706673953,-0.0396648563369,-0.0587854188336,-0.666890486761,0.573774205032,0.818984530541,0.00531481659163,0.0,0.818975195571,-0.573691221143,-0.0117795893446,0.0,-0.00659836486773,0.0111117414048,-0.999916491905,0.0,0.352399549214,-0.145309109359,0.304980198589,1.0,-0.16998,-0.223402285714,3.281
-0.267190035797,-0.490846866055,-0.134141445571,-2.61846320627,-0.0647494421274,2.12000301565,-0.525661457874,-0.705412115084,-0.233770102866,-0.00879935087284,-0.187816765575,-0.0441697958011,-0.0519149631626,-0.685582727162,0.57364816488,0.819072657052,0.00533969106963,0.0,0.819062798596,-0.57356369338,-0.0118982558875,0.0,-0.00668301180132,0.011199170585,-0.999914954349,0.0,0.349354426281,-0.14926092506,0.304939363288,1.0,-0.16998,-0.223402285714,3.299
-0.277917739544,-0.494307047262,-0.134300801909,-2.62113668962,-0.0653145446671,2.11919835865,-0.535895937583,-0.722575302033,-0.228988503517,-0.0131029874645,-0.174956263279,-0.0382861422944,-0.0576499975608,-0.684817240418,0.573777997249,0.81898109667,0.00543323762021,0.0,0.818972531298,-0.573693290659,-0.0118637318531,0.0,-0.00659928721113,0.0112570374024,-0.999914860634,0.0,0.34679820987,-0.152655925975,0.304952621771,1.0,-0.16998,-0.223402285714,3.314
-0.290684727862,-0.49831110572,-0.134348631474,-2.62415277299,-0.0659739778027,2.118200418,-0.548241661452,-0.707230558866,-0.223146109894,-0.000509710947843,-0.168971332677,-0.0299517545711,-0.0529465758568,-0.678803715793,0.57370765801,0.819030057552,0.00548040758295,0.0,0.819022517152,-0.573623503665,-0.0117872533598,0.0,-0.00651054954669,0.0112512313541,-0.999915507699,0.0,0.343774032465,-0.156627308225,0.304996261958,1.0,-0.16998,-0.223402285714,3.332
-0.303639800951,-0.502017811782,-0.134451403516,-2.62699962019,-0.0666140379966,2.11725713996,-0.560702144641,-0.732346628929,-0.199940562927,-0.0110882073901,-0.151657734846,-0.038725453619,-0.0535843385263,-0.694323689085,0.57375409126,0.818997251897,0.00552187006508,0.0,0.818990190023,-0.573669678389,-0.0117862481229,0.0,-0.00648530026059,0.0112849827659,-0.999915291434,0.0,0.340723307732,-0.160654199093,0.305004320524,1.0,-0.167965714286,-0.220754938776,3.35
-0.314375556748,-0.504878329083,-0.134468069737,-2.62920447741,-0.0671334943018,2.11656061669,-0.571050916272,-0.699755813614,-0.187925448815,0.00228045780783,-0.138207378635,-0.0259704669463,-0.0395802523786,-0.695669977647,0.573737530751,0.819008880926,0.00551775988668,0.0,0.819002036723,-0.573653607512,-0.0117451834235,0.0,-0.00645425093194,0.0112579258709,-0.99991579733,0.0,0.338228080427,-0.163962124771,0.30500831817,1.0,-0.166037142857,-0.218220244898,3.365
-0.327169274074,-0.508123079384,-0.134499059589,-2.63167395891,-0.0676427865946,2.11576242685,-0.583407425003,-0.719323780723,-0.184723106068,-0.00642814940825,-0.139546904543,-0.0271246922429,-0.049541060518,-0.681057856148,0.573761430574,0.818991615008,0.00559483979016,0.0,0.818986002469,-0.573677646776,-0.0116889799131,0.0,-0.00636366453218,0.0112889986593,-0.999916027616,0.0,0.335267057224,-0.167877004091,0.305023272905,1.0,-0.163722857143,-0.215178612245,3.383
-0.339222806923,-0.511004346641,-0.134478283937,-2.63384564056,-0.0681222768923,2.11500074032,-0.59501491478,-0.690829531871,-0.16268920882,0.00583484292775,-0.117955597824,-0.0270377544047,-0.0433260349729,-0.674534067973,0.573784369884,0.818975390283,0.00561728481935,0.0,0.818970246819,-0.573700823231,-0.0116553486148,0.0,-0.0063229244914,0.0112882633297,-0.999916294365,0.0,0.33248361052,-0.171532074224,0.305040141935,1.0,-0.161537142857,-0.212305959184,3.4
-0.349639991068,-0.513286027897,-0.134451579721,-2.6356097467,-0.068473890701,2.11434521714,-0.605206169075,-0.696601680441,-0.143942941335,0.000430954811502,-0.113061159593,-0.0172309969324,-0.0479212808512,-0.67682645481,0.573700627303,0.819033837614,0.00564889160496,0.0,0.819028620777,-0.573616126417,-0.0117219777676,0.0,-0.00636052357421,0.0113517284546,-0.999915337417,0.0,0.330079676136,-0.174665407598,0.305027371356,1.0,-0.159608571429,-0.209771265306,3.415
-0.362311200752,-0.51577099717,-0.134460460261,-2.63757870197,-0.0688933091549,2.11363320647,-0.617343412091,-0.694612278108,-0.13513179852,0.00402139131781,-0.103024504178,-0.0232310860458,-0.0328338215509,-0.676598401541,0.573854064819,0.818926132875,0.00567873992885,0.0,0.818920558165,-0.573768099842,-0.011833592797,0.0,-0.00643268241783,0.0114414124828,-0.999913853628,0.0,0.327171108947,-0.178482417876,0.304989189081,1.0,-0.157294285714,-0.206729632653,3.433
-0.373892972011,-0.517901510526,-0.134374710342,-2.63924517872,-0.0692012806543,2.11303669607,-0.628667590223,-0.684101746263,-0.122540314674,0.00787247904305,-0.0893374892114,-0.020157803467,-0.0356942916796,-0.665559257888,0.57377827867,0.818978940835,0.00572086501692,0.0,0.8189735059,-0.573691445201,-0.0118856736568,0.0,-0.00645222932862,0.0115051997621,-0.999912995773,0.0,0.324538659338,-0.181925834778,0.304968397333,1.0,-0.155108571429,-0.203856979592,3.45
-0.384935254973,-0.5197981198,-0.134385070952,-2.64067978786,-0.0695377708,2.11248013982,-0.639262928531,-0.68875446701,-0.113813430428,0.000483941673775,-0.0897506107865,-0.0206483635665,-0.0312699375314,-0.655541003747,0.573926250668,0.818875000782,0.00575663008005,0.0,0.818869850899,-0.573838930075,-0.0119078344186,0.0,-0.00644777361246,0.0115483719187,-0.999912526835,0.0,0.322021702011,-0.185233666022,0.304966539674,1.0,-0.153051428571,-0.201153306122,3.466
-0.39625256209,-0.521575127212,-0.134250748516,-2.64199336848,-0.0697960319981,2.11195294039,-0.650435813833,-0.663879108494,-0.0995552955525,0.00782348939659,-0.0788481295369,-0.0147683598915,-0.0313068980313,-0.663206638566,0.573763884392,0.818988568609,0.00578587564371,0.0,0.818983863157,-0.57367659904,-0.0118885871454,0.0,-0.00641751906437,0.0115600032928,-0.999912587066,0.0,0.319484179625,-0.188573612017,0.30498091343,1.0,-0.150865714286,-0.198280653061,3.483
-0.408343364975,-0.52331215217,-0.13419926478,-2.6432600763,-0.0700859201475,2.11143673394,-0.662101359445,-0.679753919057,-0.0952136224391,0.00194112559035,-0.0636821458027,-0.0138861073726,-0.0314676799704,-0.652091132472,0.573879298194,0.818907375171,0.00583171466347,0.0,0.818903435046,-0.573792122574,-0.0118537353717,0.0,-0.00636104185399,0.0115784474272,-0.999912734543,0.0,0.31676279371,-0.192160596998,0.304999804947,1.0,-0.148551428571,-0.195239020408,3.501
-0.418213500691,-0.524563066926,-0.134128000714,-2.64416430332,-0.0703107726269,2.11106959694,-0.671776547352,-0.643010095955,-0.0738569803742,0.0117056833965,-0.0596057833496,-0.0120705407726,-0.0250122681817,-0.649440693864,0.573829654161,0.818942035571,0.0058495539601,0.0,0.818938600566,-0.573742920783,-0.0118057721148,0.0,-0.00631222440273,0.0115651503287,-0.999913197793,0.0,0.314414549878,-0.195269458057,0.305016505832,1.0,-0.146494285714,-0.192535346939,3.517
-0.431223201922,-0.525963482264,-0.134033294126,-2.6452469105,-0.0705419235325,2.11063124156,-0.684502055629,-0.65641706088,-0.0698467310803,-0.000379475488835,-0.0503545018643,-0.00675524406122,-0.0229874120523,-0.626477864749,0.57384603578,0.818930230141,0.00589510665227,0.0,0.818927135863,-0.573758667487,-0.0118357311485,0.0,-0.00631039099045,0.0116197739232,-0.999912576088,0.0,0.311650707527,-0.198909545393,0.305003337872,1.0,-0.144051428571,-0.189324734694,3.536
-0.440960716922,-0.526902435419,-0.133998489115,-2.64596998091,-0.0707383587294,2.11034041022,-0.693940516079,-0.633465936991,-0.0566547669226,0.00470002452975,-0.0470538538412,-0.0132555529483,-0.0205728586392,-0.634838828118,0.573941314001,0.818863305803,0.00591619750715,0.0,0.81886040711,-0.573853701818,-0.0118452302516,0.0,-0.00630471394693,0.0116432310828,-0.999912339034,0.0,0.30946377709,-0.20177981296,0.304994130976,1.0,-0.142122857143,-0.186790040816,3.551
-0.450964237207,-0.527738934258,-0.133860759972,-2.64661271366,-0.0708578950821,2.1100924027,-0.703883027321,-0.634549064849,-0.0535563371668,0.0100078428491,-0.0399089630593,-0.0132687129038,-0.0165167219098,-0.622306039274,0.573806330184,0.818957664378,0.00594863828701,0.0,0.818955237031,-0.573718714105,-0.0118280905395,0.0,-0.00627398108717,0.0116589261744,-0.99991234946,0.0,0.307246038256,-0.204693344687,0.304990069528,1.0,-0.140065714286,-0.184086367347,3.567
-0.463637949797,-0.52860249883,-0.133780738286,-2.64725659066,-0.071029966513,2.10976586742,-0.716149122736,-0.627653939779,-0.0426907881895,0.00671105831372,-0.0320061105153,-0.0124805367111,-0.0193511630213,-0.613117994072,0.573957991753,0.818851096906,0.00598762888232,0.0,0.818848994735,-0.573869857613,-0.011851465979,0.0,-0.00626858687242,0.0117054328696,-0.999911839944,0.0,0.304279809967,-0.208590313885,0.304986480854,1.0,-0.137365714286,-0.180537795918,3.588
