nelsonifechukwu/NELSON_IML_WORK/CNN-GradCAM/train2dof/data_sample_2022-02-21-08-15-17/robot_state.csv
position_joint1,position_joint2,position_joint3,position_joint4,position_joint5,position_joint6,position_joint7,velocity_joint1,velocity_joint2,velocity_joint3,velocity_joint4,velocity_joint5,velocity_joint6,velocity_joint7,ee_T_00,ee_T_10,ee_T_20,ee_T_30,ee_T_01,ee_T_11,ee_T_21,ee_T_31,ee_T_02,ee_T_12,ee_T_22,ee_T_32,ee_T_03,ee_T_13,ee_T_23,ee_T_33,v_x,v_y,time
0.465088609651,0.547542508669,-0.123997728471,-1.35573759725,0.0794380744697,1.89409872818,0.159160413136,-0.000989823863738,-0.00183698266999,0.000195242170894,0.00108995723042,-0.000191613949658,0.0051309379401,0.00119139513642,0.57377888999,0.818995552371,0.00219488016098,0.0,0.81895629353,-0.573720060009,-0.0116888378831,0.0,-0.00831401953162,0.00850448308488,-0.999929272922,0.0,0.661706623346,0.260899380014,0.303428906435,1.0,0.0,0.0,0.0
0.465088542579,0.547546024462,-0.123997492671,-1.35573971652,0.079435508385,1.89409636307,0.159163920936,-0.000456741055721,0.000303938723461,0.000643497857151,0.000476520622876,0.000199509271904,-0.00730217991913,0.0015062751324,0.57378108042,0.81899403959,0.00218672566451,0.0,0.818954691676,-0.573722297815,-0.0116912305626,0.0,-0.00832063507134,0.00849919978195,-0.999929262816,0.0,0.661705680011,0.260898596528,0.303425188761,1.0,-6e-05,-7.88571428571e-05,0.004
0.465087193129,0.54755070124,-0.124000235099,-1.35574260011,0.0794355086015,1.89409954343,0.159154919918,-0.00148724086219,0.000904825261855,-0.00537512444026,-6.82906452813e-05,0.000145031922352,0.0093753711346,-0.000978365067321,0.57377691903,0.818996966978,0.00218223972634,0.0,0.818957574769,-0.573718167958,-0.0116919367491,0.0,-0.00832383041726,0.0084958887714,-0.999929264359,0.0,0.661706511751,0.260895928368,0.30342087015,1.0,-0.00034,-0.000446857142857,0.018
0.465085054408,0.547538707775,-0.124000261407,-1.35574904098,0.0794380769737,1.89409710058,0.159162752817,-0.000577612187044,-0.00142872639748,-0.000571568087789,-5.55588022764e-05,-0.000237280529506,-0.000206629718156,-6.00119899099e-05,0.573786096825,0.818990524823,0.00218683370566,0.0,0.818951161067,-0.573727295593,-0.0116932878267,0.0,-0.00832220597453,0.00850051964482,-0.999929238523,0.0,0.661705284497,0.260894141358,0.303426093961,1.0,-0.00066,-0.000867428571429,0.034
0.465084617293,0.547484700612,-0.123997903465,-1.35579380867,0.0794382227131,1.89410673151,0.159158060237,-0.000654216178899,-0.00786668730373,0.000280371478836,-0.00484670060879,7.02750833462e-05,7.87554900192e-05,0.000312706965054,0.573783414106,0.818992352843,0.00220603305197,0.0,0.818953192554,-0.573724494626,-0.0116884375935,0.0,-0.00830724574814,0.00851343334875,-0.999929253058,0.0,0.66169793395,0.260891291608,0.303443802857,1.0,-0.00102,-0.00134057142857,0.052
0.465087129025,0.547353883866,-0.123995744813,-1.35593171349,0.0794346106079,1.89413213289,0.159158087752,-0.000848511588841,-0.0128524162601,-0.000603088979786,-0.0112198926858,-0.00112160627106,0.00289904040596,0.000344505582816,0.573786382338,0.818990217216,0.00222675775517,0.0,0.818951242018,-0.573727299167,-0.0116874415275,0.0,-0.00829450825751,0.00852986504845,-0.999929218763,0.0,0.661673891201,0.260880690882,0.303472957721,1.0,-0.00134,-0.00176114285714,0.068
0.465075939601,0.54722697145,-0.124000350085,-1.35611227105,0.0794311531449,1.89417322891,0.159150578903,0.000962706729393,-0.0107463353163,0.00127801630009,-0.0186880065264,-7.50838015703e-05,-0.000264632798811,0.000243009679944,0.573791392381,0.818986720756,0.00222174608974,0.0,0.81894756697,-0.573732210624,-0.0117038432894,0.0,-0.00831076494827,0.00853522242132,-0.999929038064,0.0,0.661643283946,0.260861034835,0.303480113361,1.0,-0.00168,-0.002208,0.085
0.465063779033,0.547056354632,-0.124000915661,-1.35633726333,0.0794239658793,1.89429591466,0.159149127432,-0.00233016786615,-0.0105270319238,-0.00061254366357,-0.0158200338068,0.000134971894046,0.00215615776189,0.000693370497163,0.573821687477,0.81896533362,0.00228039712284,0.0,0.818926977123,-0.57376232194,-0.0116683745072,0.0,-0.00824774706764,0.00856320994062,-0.999929320554,0.0,0.661629305894,0.260827420099,0.30350505054,1.0,-0.00202,-0.00265485714286,0.102
0.465044184821,0.546852148621,-0.123995636031,-1.35655503788,0.079424049986,1.89441294345,0.159132050911,0.000701302185901,-0.00878597825463,0.000331124859358,-0.0139262715272,6.78614198335e-05,0.00538237308491,-7.20618896803e-05,0.573832381052,0.818957565597,0.00237720629745,0.0,0.818920371832,-0.57377256668,-0.0116281221778,0.0,-0.00815911996075,0.00861950165362,-0.999929563996,0.0,0.661611989699,0.260802316018,0.303556023806,1.0,-0.00236,-0.00310171428571,0.119
0.465007790178,0.546649773988,-0.123998142299,-1.35682849321,0.0794105567073,1.89454317918,0.159117994062,-0.00272738385983,-0.015672959859,-0.000860372178397,-0.0195758893217,-0.000360645427565,0.00712598809838,-0.000529650650208,0.573864289088,0.818935058682,0.0024278120357,0.0,0.818898545753,-0.573804318258,-0.0115984056557,0.0,-0.00810540804047,0.00864420898935,-0.999929787541,0.0,0.661591410048,0.2607536481,0.303580565135,1.0,-0.00268,-0.00352228571429,0.135
0.464980383151,0.546403294378,-0.123995635983,-1.35720602692,0.0793971354596,1.89467055736,0.159083944707,-0.000703800906068,-0.0143012383185,0.000731457099152,-0.0282296714425,-0.000260858798288,0.00748431560157,0.000501667252581,0.573874573177,0.818927843356,0.00243074847404,0.0,0.818891259055,-0.573814474064,-0.0116104305782,0.0,-0.00811346242589,0.00865361617972,-0.999929640852,0.0,0.661544031409,0.26070186198,0.303586370591,1.0,-0.00302,-0.00396914285714,0.152
0.464941337717,0.546120537455,-0.123996359695,-1.35763737649,0.0793740635131,1.89482280474,0.158944729104,-0.00515452352728,-0.0155200455701,0.000937549038756,-0.0272841752868,-0.000539985613244,0.00647305873864,-0.003746309346,0.573810994875,0.818972375753,0.00243655811224,0.0,0.818935825442,-0.573750839059,-0.0116118640634,0.0,-0.00811197481828,0.00865856670371,-0.999929610066,0.0,0.661494511206,0.260634722272,0.303594484162,1.0,-0.00336,-0.004416,0.169
0.464892248306,0.545827271848,-0.12399571519,-1.35813173532,0.07933960422,1.89499363799,0.158920652705,-0.00627549891975,-0.0198093609454,5.90844453906e-05,-0.0317601736877,-0.000340397808374,0.0115194171345,0.00122911118936,0.573849495615,0.81894548483,0.00240752178858,0.0,0.818908578471,-0.573789459364,-0.0116251163721,0.0,-0.00813908264066,0.0086427738123,-0.999929526414,0.0,0.661437419999,0.260553806611,0.303581575087,1.0,-0.0037,-0.00486285714286,0.186
0.464834874121,0.545488402443,-0.1240013443,-1.35867514068,0.0792795779833,1.8951834106,0.158860971289,-0.00339665416285,-0.0191966280968,-0.000358532639412,-0.0387526950387,-0.0016340557234,0.0133901535511,-0.00244457610068,0.57386591774,0.818934062557,0.00237834852187,0.0,0.818897023156,-0.573806242696,-0.011610693819,0.0,-0.00814383822329,0.00861076977264,-0.999929763805,0.0,0.661379029253,0.260455705345,0.303579392647,1.0,-0.00404,-0.00530971428571,0.203
0.464786522494,0.545149001625,-0.123998839785,-1.35926650235,0.0792606708898,1.89537807466,0.158766231124,-0.00190689941424,-0.0219518027684,0.000316545054829,-0.0383118658389,4.90868133018e-05,0.0186542686236,-0.00891077321708,0.573854102747,0.818942454379,0.002339247156,0.0,0.818904711685,-0.573794362548,-0.0116554531905,0.0,-0.00820305654628,0.00860431581034,-0.99992933531,0.0,0.661304036367,0.260369587343,0.303554965993,1.0,-0.00436,-0.00573028571429,0.219
0.464714589836,0.544733739224,-0.12399990258,-1.35996444598,0.0792376741899,1.89560254091,0.158687844077,-0.00928901017812,-0.0228403411789,-5.35874433149e-05,-0.0435175024508,-0.00295294705872,0.0110568493689,-0.00494561643017,0.573882244326,0.818922845286,0.0023000034737,0.0,0.818884382692,-0.573822424337,-0.0117021370924,0.0,-0.00826351293258,0.00859925118496,-0.999928881088,0.0,0.661219610682,0.260255518644,0.303536175779,1.0,-0.0047,-0.00617714285714,0.236
0.464651935618,0.544303273814,-0.1240073973,-1.36068812365,0.0791910563836,1.89584860894,0.158606285049,-0.00173019940893,-0.0270008484891,-0.00170033731946,-0.0430499837296,-0.0100530960743,0.0195140656421,-0.00400265702041,0.573899895506,0.818910598202,0.00225587914708,0.0,0.818871590213,-0.573840266319,-0.0117223885769,0.0,-0.00830523385279,0.0085749180176,-0.999928744397,0.0,0.661134272141,0.260138653598,0.303517904576,1.0,-0.00504,-0.006624,0.253
0.464592727252,0.543850449666,-0.124008680556,-1.36141758723,0.0791594790456,1.89610965512,0.158494086762,-0.00386704850686,-0.0327678531665,-0.000467362047611,-0.0434938827202,-0.00425448503106,0.0130420305065,-0.00361408159907,0.573901057309,0.818909802501,0.00224915296845,0.0,0.81887059921,-0.573841341938,-0.0117389493837,0.0,-0.00832264400041,0.00857892587289,-0.999928565262,0.0,0.661043489552,0.260019826206,0.303515851109,1.0,-0.00538,-0.00707085714286,0.27
0.464511051002,0.543314241323,-0.124009220185,-1.36229306029,0.0791104755645,1.89642291634,0.15839362392,-0.00442158094294,-0.0328045147414,0.000235981887696,-0.0450955083657,-0.000730257718056,0.0137460427317,-0.00672075705658,0.573910303411,0.818903380331,0.00222805369409,0.0,0.818863834021,-0.573850596077,-0.0117584699853,0.0,-0.00835064165376,0.008572944723,-0.999928383137,0.0,0.660947126055,0.259892876045,0.303503590555,1.0,-0.00572,-0.00751771428571,0.287
0.464448860191,0.54281332431,-0.124017227291,-1.36310254552,0.0790575335404,1.89670051904,0.15829820989,-0.00615484609892,-0.0279861167312,0.000394321608149,-0.0517821706038,-0.000170962813777,0.0209418845213,-0.00356576157841,0.573919525747,0.818896999742,0.00219742612677,0.0,0.818857094101,-0.5738599741,-0.0117701515394,0.0,-0.00837768817836,0.00855466246588,-0.999928313476,0.0,0.660850217943,0.259767893262,0.30349692047,1.0,-0.00604,-0.00793828571429,0.303
0.464358834979,0.542160598687,-0.124020267755,-1.36411096632,0.0789955914754,1.89707655473,0.158157144224,-0.00514378388797,-0.0325073589936,-0.000353525193801,-0.0536231397539,-0.00724478681101,0.0271380877642,-0.01272372766,0.573919405851,0.81889704134,0.00221318181057,0.0,0.818857359203,-0.573859813031,-0.0117595564461,0.0,-0.00835997083646,0.00856148269651,-0.999928403388,0.0,0.660737566577,0.259611006975,0.30351123446,1.0,-0.00642,-0.00843771428571,0.322
0.464287361995,0.541547011619,-0.124020508328,-1.36506297452,0.0789428417575,1.89741798247,0.158019732434,-0.00467927937714,-0.0396111238262,-0.000550977012079,-0.0562012015182,-0.00615379142765,0.0207507841412,-0.00469594423004,0.573904288573,0.818907621257,0.00221862703749,0.0,0.818867944391,-0.573844609706,-0.0117643725064,0.0,-0.00836094811257,0.00856855136653,-0.999928334669,0.0,0.660623844057,0.259473329843,0.303521549726,1.0,-0.00676,-0.00888457142857,0.339
0.464194566899,0.54087266168,-0.124024082572,-1.36613564599,0.0788812683573,1.89781824081,0.157888531103,-0.00605659345291,-0.0368967591245,-0.000851973571936,-0.0603614193579,-0.00143811825759,0.0145177730313,-0.00582612371947,0.573918453697,0.818897689822,0.0022201375594,0.0,0.818858015873,-0.573858750177,-0.0117656953613,0.0,-0.00836101636094,0.00857069213767,-0.999928315752,0.0,0.660502233658,0.25930868049,0.303522509572,1.0,-0.00712,-0.00935771428571,0.357
0.464114909837,0.540214262765,-0.124023361138,-1.36713389499,0.0788119895078,1.89817920391,0.157764447375,-0.00251868860542,-0.0427782821802,-0.00658845399048,-0.0658050591688,-0.00230580474129,0.0226099720498,-0.00792908066533,0.573918263616,0.818897786006,0.00223375566857,0.0,0.818858345613,-0.573858566297,-0.0117517066142,0.0,-0.0083417473072,0.00857381359829,-0.999928449926,0.0,0.660385393882,0.25915992515,0.303543941836,1.0,-0.00744,-0.00977828571429,0.373
0.464009235075,0.539493522067,-0.124029582569,-1.36825723159,0.0787578939321,1.89861234725,0.157630095804,-0.00345935077101,-0.0400430169879,-0.000822430443922,-0.0682802167796,7.70588690027e-05,0.0189787653448,-0.0082405798822,0.573946974979,0.818877578496,0.00226456429036,0.0,0.818838461449,-0.573887078145,-0.0117448921238,0.0,-0.00831818478898,0.0085954231338,-0.999928460693,0.0,0.660262990273,0.258983289338,0.303556320502,1.0,-0.00778,-0.0102251428571,0.39
0.46391981767,0.538833460902,-0.124035314114,-1.36928001987,0.0786944552101,1.89899912394,0.157496811901,-0.0064308549169,-0.0468553959553,-0.00160495564757,-0.0710179570795,-0.00218019511323,0.0311954702245,-0.00769140534639,0.57395468598,0.818872125073,0.00228213075535,0.0,0.818833279835,-0.573894767263,-0.0117304238356,0.0,-0.00829617392262,0.00860158194751,-0.999928590593,0.0,0.660148976417,0.258824167494,0.30356951247,1.0,-0.00808,-0.0106194285714,0.405
0.463810556033,0.538118818912,-0.124035421683,-1.37040943276,0.0786322332696,1.89943164652,0.157352701885,-0.00698341510559,-0.0433659780903,-0.00215205331898,-0.0702243262978,-0.00202597508594,0.0236703841152,-0.00658857825415,0.573972044127,0.818859910518,0.00229921920321,0.0,0.818821243032,-0.573912013443,-0.0117268788213,0.0,-0.00828328089883,0.008613715975,-0.999928593028,0.0,0.660024433656,0.25864657683,0.303574202038,1.0,-0.0084,-0.01104,0.421
0.46370693998,0.537320362966,-0.124039409748,-1.37166275428,0.0785529938253,1.89990259106,0.157200134724,-0.00407593837078,-0.0472839531377,0.00161410495218,-0.0743052962756,-0.0048379298014,0.0287936248281,-0.0114367185283,0.573982689486,0.81885242115,0.00230899287114,0.0,0.818813927199,-0.573922669591,-0.0117161792103,0.0,-0.0082687975603,0.00861568545296,-0.999928695933,0.0,0.659881193699,0.258456725158,0.303582414309,1.0,-0.00874,-0.0114868571429,0.438
0.463592995821,0.536493773592,-0.124048084102,-1.37296159333,0.0784841573457,1.90038672425,0.157037254386,-0.00376698094797,-0.0497100733407,0.000298865233868,-0.0748762862853,-0.00663487417836,0.0248523006456,-0.0146291807469,0.574001820018,0.818838975718,0.00232150014659,0.0,0.818800592671,-0.5739416976,-0.0117159762759,0.0,-0.0082612513329,0.00862600347889,-0.999928669351,0.0,0.659733654945,0.258254891853,0.303589997319,1.0,-0.00908,-0.0119337142857,0.455
0.463483508748,0.535687146367,-0.124056937496,-1.37423415908,0.0784038174325,1.90085971073,0.156882823185,-0.00464189681237,-0.0564882528722,0.000253139603343,-0.082525207977,-0.00458363486535,0.030679826064,-0.00512182774664,0.574019681706,0.818826451468,0.00232256141646,0.0,0.818788143579,-0.573959617254,-0.0117081423728,0.0,-0.00825403912659,0.00862255591965,-0.999928758646,0.0,0.659588697067,0.258056155202,0.303594862063,1.0,-0.0094,-0.0123542857143,0.471
0.463365995648,0.534794583932,-0.124055664324,-1.37563799726,0.0783308277619,1.90136603781,0.156714297689,-0.0108254904388,-0.050504809726,0.000677083518884,-0.0844635806508,-0.000960077528165,0.0269762170669,-0.0121124037206,0.57403442886,0.818816106318,0.00232495561095,0.0,0.818777686857,-0.573974204683,-0.0117242810027,0.0,-0.0082657247131,0.00863392895624,-0.999928563981,0.0,0.659421209662,0.257847014409,0.303600307714,1.0,-0.00974,-0.0128011428571,0.488
0.463237113332,0.533898406886,-0.124065830722,-1.37710942329,0.0782465593978,1.90190567012,0.15653702823,-0.00609622791809,-0.053770403852,-0.00174174310676,-0.0856092146707,-0.00499684373587,0.0325537257867,-0.0116550527301,0.574060041911,0.818798239614,0.00229303008666,0.0,0.818759386252,-0.573999913926,-0.0117436424694,0.0,-0.00829963450187,0.00861916174013,-0.999928410496,0.0,0.659250566588,0.25761621387,0.303579218834,1.0,-0.01008,-0.013248,0.505
0.463109635193,0.532971304014,-0.124056566436,-1.37859557027,0.0781589207999,1.90246318025,0.156346039537,-0.00861711345817,-0.0548168811894,0.00313605611374,-0.0872851198408,-0.0110498244446,0.029978659938,-0.0147564402703,0.574059366195,0.818798711507,0.00229369145197,0.0,0.818759792332,-0.573999158541,-0.0117522489869,0.0,-0.00830630928659,0.00862463699266,-0.999928307862,0.0,0.659075884996,0.257396973563,0.303573656766,1.0,-0.01042,-0.0136948571429,0.522
0.462997488315,0.53212570932,-0.124061674284,-1.37995919486,0.078082461582,1.90297699613,0.156175127834,-0.00619307859997,-0.0586602462189,-0.00202240245672,-0.0918107959689,-0.00447349947925,0.0331561699756,-0.0128443708754,0.574068894167,0.818792040212,0.00229053194833,0.0,0.818753044752,-0.574008660691,-0.0117582338175,0.0,-0.00831292313031,0.00862558236095,-0.999928244745,0.0,0.658917234493,0.257191821793,0.303565458601,1.0,-0.01072,-0.0140891428571,0.537
0.462861541236,0.531086382179,-0.124059574318,-1.38163565719,0.0779765144285,1.90358742799,0.155960835383,-0.00782185993201,-0.0520510064327,-0.000911630415695,-0.0957153784024,-0.00865089917146,0.0445227507285,-0.00355653239644,0.574066136485,0.818794045419,0.00226473566102,0.0,0.818754705325,-0.574005991553,-0.0117728956367,0.0,-0.0083397655723,0.00861284951623,-0.999928130984,0.0,0.658715739857,0.256942409149,0.303552835691,1.0,-0.01108,-0.0145622857143,0.555
0.462724687278,0.530048483199,-0.124061030887,-1.38327656267,0.0778810864173,1.90416115382,0.155740245645,-0.0100260968218,-0.0624239983499,-4.76659527794e-05,-0.0953199948127,-0.00302429339664,0.037231648738,-0.0176914523156,0.574061992265,0.818797012722,0.00224229682237,0.0,0.818757284073,-0.574001834045,-0.0117962362816,0.0,-0.00837180172334,0.00860783348487,-0.999927906471,0.0,0.658515161174,0.256693778693,0.303552823505,1.0,-0.01142,-0.0150091428571,0.572
0.462587309892,0.529006031813,-0.124064843301,-1.38493144773,0.0777650652964,1.9047684086,0.155522841071,-0.00642917837189,-0.0604992209901,-0.000655225328547,-0.102367428915,-0.00404800434476,0.0376632147834,-0.0167716712633,0.574057697467,0.818800064123,0.0022275260144,0.0,0.818760269595,-0.573997726258,-0.0117888966707,0.0,-0.00837431571402,0.00859148209121,-0.999928026046,0.0,0.658319465144,0.256440812356,0.303552077918,1.0,-0.01176,-0.015456,0.589
0.462445904917,0.527929624257,-0.124060501614,-1.38663803759,0.0776702098411,1.90542799395,0.155289308898,-0.0110451160733,-0.0619120263573,0.000279507393081,-0.103164050165,-0.0050061676974,0.0373238596433,-0.0185483314962,0.574046345205,0.818807944265,0.00225629478859,0.0,0.818768439909,-0.5739861787,-0.0117836909103,0.0,-0.00835365854022,0.00861193347053,-0.999928022905,0.0,0.65812054104,0.256191208627,0.303554706125,1.0,-0.0121,-0.0159028571429,0.606
0.462332442919,0.52704989164,-0.124071174343,-1.3879561132,0.0775853350501,1.90593800703,0.155103335174,-0.0092954296764,-0.0702132513742,-0.00530196210587,-0.109360732293,-0.00572478779124,0.0461644182709,-0.0140043220568,0.57404296643,0.818810158178,0.0023118083162,0.0,0.818771485646,-0.573982704425,-0.0117412186622,0.0,-0.00828705067196,0.00863297293141,-0.999928395721,0.0,0.65797287033,0.255986299654,0.303591053824,1.0,-0.01236,-0.0162445714286,0.619
0.462162302362,0.525680380144,-0.124075867988,-1.39010390352,0.0774468243003,1.90673250635,0.154815256118,-0.00881036529738,-0.0733080068796,-0.000819033035638,-0.10458954976,-0.00500663628285,0.0409436185747,-0.0147811972699,0.574028218578,0.818820476155,0.00231926847427,0.0,0.818781962538,-0.573967995161,-0.0117296741031,0.0,-0.00827347074777,0.00863230532154,-0.999928513938,0.0,0.657715946523,0.255666197622,0.303601338485,1.0,-0.01276,-0.0167702857143,0.639
0.462000779609,0.524512225756,-0.124079749922,-1.39194398561,0.0773277858019,1.90738626713,0.154558807074,-0.0084540941781,-0.0722507590049,5.87416459038e-05,-0.108601360581,-0.00704939075848,0.0375008942324,-0.02479419836,0.574019951623,0.818826327656,0.00229938618218,0.0,0.818787573103,-0.573959821608,-0.0117379816389,0.0,-0.00829177275886,0.00862071045963,-0.999928462369,0.0,0.657493695288,0.255379779572,0.303603851282,1.0,-0.0131,-0.0172171428571,0.656
0.461847365903,0.523314527472,-0.12408941999,-1.39384946433,0.0772065402344,1.90807657247,0.154308798231,-0.011447577425,-0.0718702985459,-0.000861481741914,-0.111241611852,-0.00553891786414,0.0399827790683,-0.0167309769349,0.574017199022,0.818828315234,0.0022786617302,0.0,0.818789334775,-0.573957192186,-0.0117436663001,0.0,-0.0083083521641,0.00860697606905,-0.999928443063,0.0,0.657262905552,0.255090101895,0.303599067442,1.0,-0.01344,-0.017664,0.673
0.46168762016,0.522166346971,-0.124087564174,-1.39568040377,0.0770947952272,1.90878865312,0.154060386845,-0.0112672021918,-0.0728182597212,0.00253400668739,-0.111490620076,-0.00908318376092,0.0466672907097,-0.0105977966468,0.57401144844,0.818832283429,0.00230121162922,0.0,0.818793608234,-0.573951370512,-0.0117302303355,0.0,-0.00828446722399,0.00861766979545,-0.999928549132,0.0,0.657050579553,0.254814181599,0.303596186489,1.0,-0.01376,-0.0180845714286,0.689
0.461523568998,0.520923245019,-0.124098614824,-1.3976688622,0.0769749058984,1.90956330403,0.153793679852,-0.00656080437921,-0.0769048903702,-0.00198625372012,-0.114118091912,-0.00715730228318,0.0459886542227,-0.0168873863862,0.574009411301,0.818833655432,0.00232107107914,0.0,0.81879530033,-0.573949324532,-0.0117122127814,0.0,-0.00825833582549,0.00862356848543,-0.999928714437,0.0,0.656819973098,0.254513425128,0.303590553648,1.0,-0.0141,-0.0185314285714,0.706
0.461349934473,0.519625654898,-0.12409998296,-1.3997290572,0.0768395484297,1.91031077238,0.15352009193,-0.0102277363795,-0.0739027169017,-0.00113137767804,-0.119997841146,-0.0100162954249,0.0475716800302,-0.0234664622376,0.574001618495,0.81883917237,0.00230188153893,0.0,0.818800607268,-0.573941644778,-0.011717543599,0.0,-0.00827379732249,0.00861083677781,-0.999928696342,0.0,0.65656880373,0.254199982252,0.303585974814,1.0,-0.01444,-0.0189782857143,0.723
0.461177445344,0.518287261148,-0.124103595744,-1.4017918718,0.0766989427759,1.9110452671,0.153236656868,-0.00896204138957,-0.0771065241155,-0.000223890322182,-0.123747628842,-0.00947680131453,0.0459829839269,-0.017058757517,0.573984609946,0.818851092824,0.00230265679332,0.0,0.818812614778,-0.573924715588,-0.0117076734917,0.0,-0.00826544872339,0.00860563451751,-0.999928810172,0.0,0.656315259918,0.253884554016,0.303607299667,1.0,-0.01478,-0.0194251428571,0.74
0.460981011415,0.516840746469,-0.124112070572,-1.40405075343,0.0765599339464,1.91185780095,0.152925835887,-0.0116025072203,-0.0821055591229,-0.000251252791749,-0.122105744039,-0.00696609810137,0.0402804144047,-0.0187937964792,0.57397890703,0.818855095974,0.00230064864791,0.0,0.818816575127,-0.573919003413,-0.0117107096239,0.0,-0.00826914748051,0.00860567524285,-0.999928779241,0.0,0.656040037841,0.253534313327,0.303617700766,1.0,-0.01514,-0.0198982857143,0.758
0.460805739694,0.515578591159,-0.124120987781,-1.40608710332,0.07642375635,1.91263618148,0.152646475038,-0.0117076884857,-0.0804811580006,-0.00123471465426,-0.13279073976,-0.0165095838649,0.0503576780357,-0.0166438971831,0.573970929568,0.818860709683,0.00229282580851,0.0,0.818822228877,-0.573911203222,-0.0116976585103,0.0,-0.00826303361983,0.00859169808468,-0.999928949976,0.0,0.65579966082,0.253219858047,0.303601380977,1.0,-0.01546,-0.0203188571429,0.774
0.460632022459,0.514272880725,-0.124124175469,-1.40818178807,0.0763112502029,1.91339684496,0.152356997594,-0.00627501304746,-0.0886320735238,-0.00146482811932,-0.131576435488,-0.00958914850612,0.0478622985867,-0.0163061035413,0.573958453931,0.818869501806,0.00227575816141,0.0,0.818830621756,-0.573898608331,-0.0117280489025,0.0,-0.00829784687949,0.00859503876712,-0.999928632976,0.0,0.655539324259,0.252906083342,0.303585778303,1.0,-0.01578,-0.0207394285714,0.79
0.460433265195,0.512863177901,-0.124122358858,-1.41045791112,0.0761655814703,1.91418452043,0.15205309986,-0.00784789887688,-0.0912216200268,-0.00193494421353,-0.129507677249,-0.0153401716713,0.0520430057147,-0.0170148817402,0.573950892114,0.818874992535,0.0022061150974,0.0,0.818835138901,-0.573891240973,-0.0117730937258,0.0,-0.00837478314637,0.00856378708852,-0.999928259706,0.0,0.655250155266,0.252555278391,0.303558433718,1.0,-0.01612,-0.0211862857143,0.807
0.460230152816,0.511369881414,-0.124135858033,-1.41288856519,0.0760191124723,1.9150768134,0.151699639861,-0.00964319809745,-0.0861932679729,-0.00385514491679,-0.137468332715,-0.0101977889837,0.052834453836,-0.0102006934322,0.573925153814,0.818893143893,0.002164163755,0.0,0.818852727746,-0.573865650619,-0.0117971269468,0.0,-0.00841880922127,0.00854296377013,-0.999928068124,0.0,0.654950967099,0.252182411053,0.30352522853,1.0,-0.01648,-0.0216594285714,0.825
0.460047234859,0.50999569869,-0.124129392844,-1.41507788891,0.0758890431492,1.91590435917,0.15140061111,-0.00687303584794,-0.085011350053,0.00133916286716,-0.141607372419,-0.0085016307742,0.0421380066442,-0.022746047818,0.573904756074,0.818907406903,0.00217641372733,0.0,0.818867067225,-0.573845123589,-0.011800307114,0.0,-0.00841459650207,0.00855461060456,-0.99992800401,0.0,0.654681828809,0.251859791892,0.303516736677,1.0,-0.0168,-0.02208,0.841
0.45984544149,0.508485086929,-0.12413683047,-1.41744195243,0.0757413406372,1.91675468923,0.151065610915,-0.011375181631,-0.084320975816,-0.000593765190888,-0.135352231107,-0.00827863916534,0.0471063578537,-0.016508345877,0.573883837814,0.818922080517,0.00217109157601,0.0,0.818881654272,-0.573824211007,-0.0118050015161,0.0,-0.00842171363551,0.00855273130336,-0.999927960168,0.0,0.654387058165,0.25149658913,0.303522445552,1.0,-0.01714,-0.0225268571429,0.858
0.459625370261,0.506959475659,-0.124142297536,-1.41983965828,0.0755807534181,1.91762322699,0.150729241262,-0.0147371780211,-0.0801093059727,-0.00131289864827,-0.139890424566,-0.0140056217507,0.0496598272594,-0.0179445432201,0.573873125138,0.818929618377,0.00215946537153,0.0,0.818889115896,-0.573813621065,-0.0118021629017,0.0,-0.0084261723466,0.00854147124645,-0.999928018854,0.0,0.654092130966,0.251118041112,0.303523617515,1.0,-0.01748,-0.0229737142857,0.875
0.459404574389,0.505365963787,-0.124144045319,-1.42228269471,0.0754237388969,1.91855298284,0.150387880138,-0.0162418664853,-0.0928415470654,-0.00303318177228,-0.139213634508,-0.00943326245867,0.0582376032363,-0.0180978772147,0.573859435829,0.818939042308,0.00222256502974,0.0,0.818899425784,-0.573799756836,-0.0117607995647,0.0,-0.00835623154199,0.00856926801466,-0.999928367954,0.0,0.653798509708,0.250741450401,0.303555281706,1.0,-0.01782,-0.0234205714286,0.892
0.459196444979,0.503807733667,-0.124141540224,-1.42461971084,0.0752795446012,1.91945666229,0.150069371099,-0.0160821226722,-0.0999456237278,0.000249476920969,-0.148771456225,-0.0150137772243,0.057232762249,-0.0185100373359,0.573848716274,0.818946259767,0.00232837823304,0.0,0.818908032084,-0.573788656323,-0.0117029809959,0.0,-0.00824827430178,0.00862263427025,-0.99992880554,0.0,0.653518370922,0.25038808987,0.30360974879,1.0,-0.01814,-0.0238411428571,0.908
0.458920376377,0.501849977858,-0.124150458009,-1.42755056066,0.0750913703277,1.92053998603,0.149650967397,-0.0140588781243,-0.0972101254541,7.86361102867e-05,-0.154029928896,-0.0114100189492,0.055049726325,-0.0240972681775,0.573837710274,0.818953713732,0.00241742300258,0.0,0.818916706811,-0.573777396973,-0.0116478723331,0.0,-0.00815216258088,0.00866382327889,-0.999929237702,0.0,0.653162669174,0.249923735685,0.303675778649,1.0,-0.01854,-0.0243668571429,0.928
0.458728479726,0.500417183744,-0.12415085322,-1.42968181874,0.0749567564697,1.92128634146,0.149358559638,-0.0186238184229,-0.101961100739,0.000381296754391,-0.150520951172,-0.0087233643835,0.0564161586696,-0.0228925777951,0.573827729067,0.818960582338,0.00245943719698,0.0,0.818924064939,-0.573767208577,-0.0116324170829,0.0,-0.00811550290165,0.00868926308031,-0.999929315162,0.0,0.652891308625,0.249593234841,0.303725816716,1.0,-0.01882,-0.0247348571429,0.942
0.458443081302,0.498456867586,-0.124151050055,-1.43275209321,0.0747625368564,1.92242279065,0.14892815184,-0.0141836777782,-0.0929964123361,0.00110873579025,-0.148491318146,-0.0129323889918,0.0585844215964,-0.0246772724254,0.573812857756,0.818970945132,0.00247834727723,0.0,0.818934661571,-0.573752260266,-0.0116237178781,0.0,-0.00809768577012,0.00869961075661,-0.999929369635,0.0,0.65251070077,0.249114288314,0.303730227175,1.0,-0.01922,-0.0252605714286,0.962
0.458227111251,0.497064841183,-0.124151301805,-1.43494979486,0.0746300903712,1.92322719786,0.148604580878,-0.0185521518988,-0.0984010274277,0.000386860224649,-0.156029292116,-0.011594177777,0.0541273661061,-0.0226988187385,0.573800602559,0.818979530638,0.00247866904763,0.0,0.818943171428,-0.573739919713,-0.0116332884691,0.0,-0.0081054698052,0.00870524462702,-0.999929257535,0.0,0.652237727006,0.248764175691,0.303724310588,1.0,-0.0195,-0.0256285714286,0.976
0.457930032123,0.495219214428,-0.124149009679,-1.43796667836,0.074442350891,1.92426652364,0.148162898073,-0.0175770366262,-0.0853978515179,0.00110455118543,-0.160460884562,-0.0157750158459,0.0507299776916,-0.0176671441082,0.573781860109,0.818992991867,0.00236710453576,0.0,0.818955008891,-0.573721394955,-0.0117132952081,0.0,-0.00823520672407,0.00865959515266,-0.999928593842,0.0,0.651846775423,0.24827879868,0.303664404305,1.0,-0.01988,-0.026128,0.995
0.457717352871,0.493906764953,-0.124159036002,-1.44008946168,0.0742990880992,1.92501411736,0.147866446002,-0.0181585685674,-0.100863907337,-0.00189020785248,-0.163273045319,-0.00992061606643,0.0617918774885,-0.0256126264374,0.573785801021,0.818990397383,0.00230877519118,0.0,0.818951686003,-0.573725582813,-0.0117404650556,0.0,-0.00829088437445,0.00862745358695,-0.999928411578,0.0,0.651558887143,0.247905187188,0.303633753147,1.0,-0.0205331428571,-0.0269864163265,1.009
0.45742262338,0.492026977674,-0.124158614688,-1.44313161632,0.0741088316589,1.92613972398,0.147439474398,-0.0158979424795,-0.106799075041,-0.0010552922246,-0.171234814236,-0.00965540832704,0.0575264184721,-0.0276563051507,0.57378083215,0.818993986379,0.00227020553825,0.0,0.818954739513,-0.573720724593,-0.0117648503106,0.0,-0.00833303812546,0.00860980695202,-0.999928213273,0.0,0.651196768716,0.247445797067,0.303591172178,1.0,-0.0217085714286,-0.0285312653061,1.026
0.457136858965,0.490265808761,-0.124161841535,-1.44598941174,0.0739275482709,1.92713007771,0.147034037274,-0.0163993695249,-0.109533866457,-0.0015955482631,-0.186287747238,-0.0163525280888,0.0657447882196,-0.0253167098971,0.573778422189,0.818995926222,0.00217760502894,0.0,0.818955362509,-0.573718557249,-0.0118270109334,0.0,-0.00843710379879,0.00856960998001,-0.999927685917,0.0,0.650826321571,0.246980504509,0.303542051659,1.0,-0.0228148571429,-0.0299852408163,1.042
0.456767264024,0.488023803742,-0.124174930076,-1.44952828177,0.0737088055138,1.92843511089,0.146520619123,-0.0209582656741,-0.12202219032,-0.000276449351201,-0.190258985009,-0.00299920895828,0.072675186943,-0.0278591043979,0.57378137368,0.818993864859,0.00217518805781,0.0,0.81895327231,-0.573721520519,-0.0118279993482,0.0,-0.00843926918185,0.00856822805664,-0.999927679487,0.0,0.65041200192,0.246428463606,0.303528292602,1.0,-0.0240594285714,-0.0316209632653,1.06
0.456392807471,0.485724184477,-0.124190539508,-1.45299766922,0.0734911931369,1.92977910886,0.146018210248,-0.0203920747156,-0.130097085438,-0.000405781925569,-0.192358311259,-0.0155075847173,0.0742764026569,-0.0256081860366,0.573806208068,0.818976059149,0.00232314989271,0.0,0.818937481126,-0.573745877861,-0.0117395291472,0.0,-0.00828165509016,0.00863889555138,-0.999928389272,0.0,0.649976664747,0.245818512894,0.303592452343,1.0,-0.0253731428571,-0.0333475591837,1.079
0.456043430473,0.483626291527,-0.124212526615,-1.45623759514,0.0732880011682,1.93088971357,0.145504924932,-0.0244658979116,-0.131493457475,-0.000801630053863,-0.21419458333,-0.00972951188738,0.0642092833908,-0.0303345920353,0.573791650513,0.818986336787,0.0022953992821,0.0,0.818947317453,-0.573731342598,-0.0117637008803,0.0,-0.00831752791729,0.00862989058096,-0.999928169279,0.0,0.64956135489,0.245265341507,0.303603309182,1.0,-0.0264794285714,-0.0348015346939,1.095
0.455661933581,0.481281312882,-0.124252285191,-1.45986390831,0.0730567440553,1.9321647784,0.144968778033,-0.0261106582416,-0.136071502309,-0.00187671178567,-0.217845514837,-0.0165353489837,0.0761652925945,-0.029558000451,0.57380814615,0.81897481817,0.00228156008777,0.0,0.818935672539,-0.573747944167,-0.0117646805884,0.0,-0.008326097039,0.00861928645134,-0.999928189426,0.0,0.649101859552,0.244645244203,0.303615339089,1.0,-0.0276548571429,-0.0363463836735,1.112
0.455249643677,0.478871134364,-0.124257686022,-1.46359203541,0.0728264051188,1.9335585115,0.144422140055,-0.0235400347333,-0.136437510555,0.00103418713898,-0.222203337217,-0.0103469506603,0.0845425307304,-0.0293808577944,0.573821307303,0.818965416378,0.00234541317279,0.0,0.818927053797,-0.573760814967,-0.0117368934981,0.0,-0.00826656285418,0.00865576852067,-0.999928368239,0.0,0.648640235217,0.244022435899,0.303632062554,1.0,-0.0288302857143,-0.0378912326531,1.129
0.454842001648,0.476490288286,-0.12427505894,-1.4672168997,0.0726013639903,1.93488299138,0.143900668602,-0.0212402706418,-0.147754072065,-0.000382013915721,-0.226327574133,-0.0125027388859,0.0821242469416,-0.0318140832322,0.57385522217,0.818941451556,0.00241450049912,0.0,0.818903959365,-0.573794442399,-0.0117042774228,0.0,-0.00819984884694,0.0086939721253,-0.999928586114,0.0,0.648160314376,0.243364881052,0.303670026588,1.0,-0.0300057142857,-0.0394360816327,1.146
0.454400185279,0.473894147489,-0.12428524198,-1.47123773339,0.0723491566915,1.93632653565,0.143319651522,-0.026736788175,-0.148997544151,-0.000228991364796,-0.242716087177,-0.0137364064187,0.0840994843517,-0.0381062775209,0.573873415225,0.818928663229,0.0024279090063,0.0,0.818891255603,-0.573812489199,-0.0117083576182,0.0,-0.00819530292737,0.00870747627356,-0.999928505878,0.0,0.647673438726,0.242727820236,0.303678291571,1.0,-0.031112,-0.0408900571429,1.162
0.45392201699,0.471039357515,-0.124277975003,-1.47564125062,0.0720735361474,1.93786338833,0.142665326541,-0.0215763436821,-0.156362610859,0.00158936792449,-0.248559232422,-0.015636508113,0.0951787280594,-0.039278413843,0.573859137099,0.818938678597,0.00242453435375,0.0,0.818900969652,-0.57379795191,-0.0117413452667,0.0,-0.00822440727645,0.00872349975075,-0.999928127256,0.0,0.647092289856,0.241999674172,0.303688560101,1.0,-0.0323565714286,-0.0425257795918,1.18
0.453484191399,0.468403890262,-0.124280760041,-1.47961187877,0.0718135128817,1.93940970721,0.142022985522,-0.026500940453,-0.164482718703,-0.00053738364072,-0.252745001455,-0.021462415779,0.0958920630363,-0.0400173532696,0.57380916885,0.818973144706,0.00260247864336,0.0,0.818937861536,-0.57374747696,-0.011634368318,0.0,-0.00803522435559,0.00880734507823,-0.999928930396,0.0,0.646570120652,0.241302644269,0.303754157139,1.0,-0.033532,-0.0440706285714,1.197
0.452991106681,0.465541938078,-0.124280848823,-1.48401338144,0.0715151429983,1.94093778084,0.141350266323,-0.0300344815565,-0.17103107885,0.000373228330886,-0.264388274626,-0.0189057552255,0.0798385315528,-0.0367770567675,0.573790355727,0.818986397057,0.00257992481155,0.0,0.818950806153,-0.573728728243,-0.0116477633459,0.0,-0.00805933792256,0.00879637513538,-0.999928832896,0.0,0.646021064267,0.24059820763,0.303764407036,1.0,-0.0346382857143,-0.0455246040816,1.213
0.45250146777,0.462768320311,-0.124287144738,-1.48838760302,0.0712211972531,1.94244651586,0.140699068986,-0.0294935451495,-0.16822970815,0.000149044450403,-0.274156318615,-0.014053248826,0.092266625729,-0.0472119870952,0.573786783886,0.818989164032,0.00249454141817,0.0,0.818952378214,-0.573725366662,-0.0117026821046,0.0,-0.00815334512114,0.00875792357176,-0.999928408306,0.0,0.645436200244,0.239853926135,0.303725255731,1.0,-0.0357445714286,-0.0469785795918,1.229
0.451929446159,0.459564178873,-0.124291063469,-1.49335636197,0.0708817414302,1.94419650082,0.139950951244,-0.0326258234197,-0.175637002724,-0.00091717952526,-0.274954818697,-0.0199603556493,0.100946248911,-0.0392036580285,0.573783575729,0.818991530173,0.00245532674996,0.0,0.818954247499,-0.573722314731,-0.01172147532,0.0,-0.00819127096913,0.00873655849861,-0.999928285241,0.0,0.644814175679,0.239049679489,0.303707266986,1.0,-0.03692,-0.0485234285714,1.246
0.45138894919,0.45670371482,-0.124297433788,-1.49792563113,0.0705772918956,1.94581217925,0.139258778698,-0.0330041877994,-0.180774050836,0.00028266394981,-0.29397987369,-0.0234948613137,0.101441692686,-0.0411461861431,0.573791020469,0.81898652495,0.00238404717784,0.0,0.818948220694,-0.573729921579,-0.0117701235062,0.0,-0.00827193260852,0.00870616999276,-0.999927886267,0.0,0.644174846271,0.238210746728,0.3036515886,1.0,-0.0380954285714,-0.050068277551,1.263
0.450791677787,0.453535063046,-0.124340332569,-1.50290889137,0.0702317766009,1.94752061178,0.138469385799,-0.0330832593117,-0.19168825343,-0.000626582018667,-0.294598297033,-0.025908886573,0.104928176719,-0.0455918137175,0.57379785026,0.818982051467,0.00227449178404,0.0,0.818942420128,-0.573737269529,-0.0118154546912,0.0,-0.00837184580028,0.00864252670328,-0.999927606845,0.0,0.643511794016,0.237316319728,0.303606507038,1.0,-0.0392708571429,-0.0516131265306,1.28
0.450189640782,0.450156770268,-0.124379090879,-1.50789911864,0.0699044674181,1.94941210763,0.137693520937,-0.0394072221468,-0.192003501837,-0.00153629545196,-0.294164387867,-0.0172362459626,0.108918837847,-0.0393923358625,0.573821445254,0.818964863436,0.00249966490908,0.0,0.818928404179,-0.573760284937,-0.0116683829051,0.0,-0.00812194353446,0.00874278326301,-0.999928796352,0.0,0.642884110493,0.236438465165,0.303714499692,1.0,-0.0404462857143,-0.0531579755102,1.297
0.449596787637,0.446916607985,-0.124401140434,-1.51279529004,0.0695590627604,1.95103651534,0.136974218103,-0.0349086323884,-0.199445975268,-0.00180442465302,-0.307586734398,-0.0257580193568,0.100737906207,-0.0457884938065,0.573858313471,0.818939147567,0.00246080149437,0.0,0.818902184134,-0.573797288202,-0.0116889594905,0.0,-0.00816070241562,0.00872313024519,-0.999928652422,0.0,0.642213644312,0.235566510252,0.303746470293,1.0,-0.0415525714286,-0.0546119510204,1.313
0.448995373028,0.44367230659,-0.124400788956,-1.51777943518,0.0692173896033,1.95278730835,0.136206808463,-0.0378132278303,-0.20517735513,0.000209836065826,-0.315435942966,-0.0203611566039,0.117449796837,-0.0408925962371,0.573850406202,0.818944682779,0.00246267176231,0.0,0.818907691317,-0.573789319247,-0.0116943200085,0.0,-0.00816410361996,0.00872765916897,-0.999928585139,0.0,0.641538862164,0.234701591801,0.303747476666,1.0,-0.0426588571429,-0.0560659265306,1.329
0.448370981226,0.440396875823,-0.124397930319,-1.52285752297,0.0688649891044,1.95460144485,0.135365130683,-0.0432733146466,-0.196659051304,0.0012694303782,-0.320598282945,-0.0272383895578,0.109544435715,-0.0474899526392,0.573801580314,0.818978891999,0.00246328859866,0.0,0.818941869558,-0.573740455552,-0.0116983267545,0.0,-0.00816755161154,0.0087299766281,-0.999928536751,0.0,0.640809295454,0.23375813592,0.303727742735,1.0,-0.0438342857143,-0.0576107755102,1.346
0.447667066704,0.436810611893,-0.124407910821,-1.52840242744,0.0684986552712,1.95654216251,0.134476439893,-0.0414996640067,-0.209782342784,-0.00171265585955,-0.325422986088,-0.0217277460593,0.117538081999,-0.0450554444284,0.573796634944,0.818982411914,0.00244491366775,0.0,0.818945018781,-0.573735436849,-0.0117239761963,0.0,-0.00819915455035,0.00872959603091,-0.999928281437,0.0,0.64010121057,0.23282891402,0.30370755964,1.0,-0.0449405714286,-0.0590647510204,1.362
0.446838239746,0.432628418561,-0.124433814218,-1.53465958377,0.0680661442884,1.95879615187,0.133484669782,-0.0420279330798,-0.221495352501,-0.00156598917306,-0.326170558258,-0.0280828688753,0.119858089528,-0.0553829853033,0.573834592597,0.818955397643,0.00258145536045,0.0,0.818919935556,-0.5737730732,-0.0116338523754,0.0,-0.00804659154455,0.0087900814319,-0.999928990895,0.0,0.639273034155,0.231688327846,0.303778159466,1.0,-0.0462542857143,-0.0607913469388,1.381
0.446131666516,0.429085878658,-0.124460759726,-1.54019256682,0.0676450355692,1.96057571386,0.132618596546,-0.0462326761077,-0.229365008522,-0.0056296207458,-0.350329869297,-0.0258803163593,0.110114744227,-0.0590845140686,0.573842804343,0.818950268627,0.00237493594058,0.0,0.818912209213,-0.573782115261,-0.0117313558347,0.0,-0.00824485998367,0.0086769852276,-0.99992836354,0.0,0.638484344705,0.230674129141,0.303713406759,1.0,-0.0473605714286,-0.062245322449,1.397
0.445411520119,0.425444333751,-0.124483259942,-1.54573046488,0.067241033937,1.96247550393,0.131677626138,-0.047040396805,-0.235647954366,-0.000827205154746,-0.347126063358,-0.024308291794,0.126261648084,-0.0579404589204,0.573801237664,0.818979441574,0.00235814219984,0.0,0.818941282729,-0.573740740752,-0.0117253889024,0.0,-0.008250049042,0.00865938938237,-0.999928473275,0.0,0.637716972336,0.22966601124,0.303720473584,1.0,-0.0484668571429,-0.0636992979592,1.413
0.444558558101,0.421281518484,-0.124496360143,-1.55205067898,0.066812781244,1.96465588801,0.130655637713,-0.0481782717726,-0.224607565632,-0.00162043851835,-0.351669403723,-0.0193329225579,0.11392759163,-0.047597313136,0.573819953421,0.818966278205,0.0023755249675,0.0,0.818928169142,-0.5737592047,-0.0117377897916,0.0,-0.00825003354258,0.00868092943866,-0.999928286634,0.0,0.636839882911,0.228510547996,0.303729998958,1.0,-0.0497114285714,-0.0653350204082,1.431
0.443829153307,0.417715694236,-0.124513245955,-1.55735892508,0.0664430519638,1.96657575231,0.129811270744,-0.0461024995177,-0.239809604918,0.00140804408458,-0.34814183197,-0.018892870754,0.128137398768,-0.0550151509825,0.573860896951,0.818937114188,0.00253394113151,0.0,0.818901148148,-0.573799662731,-0.0116448921509,0.0,-0.00808261542181,0.00875776417062,-0.999928983926,0.0,0.636073866194,0.227469712892,0.303797195532,1.0,-0.0508177142857,-0.0667889959184,1.447
0.442988021536,0.413616147332,-0.124514386402,-1.56349721236,0.0660171674051,1.96877310059,0.128774261396,-0.0495286308316,-0.241838433146,0.00114538431917,-0.364174318696,-0.031044595089,0.12687281611,-0.0624496967656,0.573832248637,0.81895684695,0.0026419991091,0.0,0.818922303476,-0.573770668481,-0.0115856705277,0.0,-0.00797241610394,0.00881199302528,-0.999929392187,0.0,0.635275759242,0.226418245107,0.303835611823,1.0,-0.051924,-0.0682429714286,1.463
0.442171065562,0.409701677366,-0.124536366308,-1.56947848874,0.0655769848087,1.97066594956,0.127774553,-0.0502244217127,-0.24401707458,-0.0049221124754,-0.372118168532,-0.0265005218566,0.114604881078,-0.0636825777397,0.573818033666,0.818967306794,0.00248224563104,0.0,0.818930533233,-0.573756841375,-0.0116882683043,0.0,-0.00814826108077,0.00873989414363,-0.999928607497,0.0,0.634397449738,0.22530127516,0.303801952119,1.0,-0.0530302857143,-0.0696969469388,1.479
0.441350465138,0.405740867622,-0.124544083767,-1.57551974975,0.0651647197175,1.97274385715,0.12679281683,-0.0482368948435,-0.246756166468,0.00316795664293,-0.379173746416,-0.0233687601817,0.13231085757,-0.0629006502026,0.573831087488,0.818958170884,0.0024787650994,0.0,0.818921112915,-0.573769649789,-0.0117195010411,0.0,-0.00817569836082,0.0087550956638,-0.999928250554,0.0,0.633478902658,0.224127790652,0.303777293749,1.0,-0.0542057142857,-0.0712417959184,1.496
0.440355165088,0.401222670262,-0.124555430907,-1.58235883006,0.0647032952133,1.97511531252,0.125622989436,-0.056990272136,-0.250858261411,-0.00190997038876,-0.375021543841,-0.0251757699184,0.138675097591,-0.0627022864624,0.573830399809,0.818958508818,0.00252586439089,0.0,0.818921821124,-0.573768531363,-0.0117247689143,0.0,-0.00815299473471,0.00879668366407,-0.99992807093,0.0,0.632563741003,0.22291746694,0.303781597237,1.0,-0.0553811428571,-0.072786644898,1.513
0.439377221995,0.396795620618,-0.124579245679,-1.58883839039,0.0642009762981,1.97740417812,0.124502786817,-0.056750603365,-0.254713810503,-0.0016181764155,-0.385109161684,-0.0294772343539,0.123738338572,-0.0656185288717,0.573843600089,0.81894873138,0.00269163686906,0.0,0.818914647139,-0.573781646664,-0.0115831581905,0.0,-0.00794175377388,0.00885131246847,-0.999929288907,0.0,0.63166456955,0.221667714741,0.303877006419,1.0,-0.0565565714286,-0.0743314938775,1.53
0.438443426157,0.392568246833,-0.124588859437,-1.59525003722,0.0637267927114,1.979454027,0.12346266695,-0.0558533452693,-0.267815807628,-0.00208643357886,-0.403580317701,-0.02951699777,0.124100144966,-0.0643723194171,0.573877493845,0.818925376754,0.00256832016884,0.0,0.818889478301,-0.573815725165,-0.0116740216501,0.0,-0.00808656576932,0.00880279813193,-0.999928556547,0.0,0.630708266578,0.220451301249,0.303845713771,1.0,-0.0576628571429,-0.0757854693877,1.546
0.437465196518,0.388074353106,-0.124592973423,-1.60203830939,0.0632219225758,1.98172381547,0.122265201323,-0.0535095231606,-0.26374700193,0.000436470050055,-0.401132175508,-0.0337411418119,0.135746268229,-0.0750633200926,0.573817462066,0.818967549893,0.00253364403297,0.0,0.818931120715,-0.573755737245,-0.0117012992479,0.0,-0.0081294480926,0.00878945900902,-0.999928326173,0.0,0.629704764868,0.219181804719,0.303828359162,1.0,-0.0588382857143,-0.0773303183673,1.563
0.436435402173,0.383509613303,-0.124591316521,-1.60885782262,0.0627243610101,1.98403867628,0.12101781505,-0.0623800318585,-0.272100798506,0.000433071415731,-0.395925971378,-0.0231548465636,0.142732949785,-0.0700977881954,0.573754474014,0.819011543015,0.00257737428438,0.0,0.818975565189,-0.573692474293,-0.0116925388516,0.0,-0.00809785996509,0.00881962284499,-0.999928316889,0.0,0.628705177883,0.217886902485,0.303841988582,1.0,-0.0600137142857,-0.0788751673469,1.58
0.435365657377,0.378858203396,-0.124600338555,-1.61574190187,0.0622118543815,1.98643322245,0.119818725963,-0.0671299945549,-0.264995501486,0.000706454056017,-0.413464051572,-0.0380616327779,0.134160510066,-0.068499174816,0.57376598908,0.819003091176,0.00269690947328,0.0,0.818968779013,-0.573703697498,-0.0116169436875,0.0,-0.00796723924745,0.00887426270042,-0.999928882751,0.0,0.62770953922,0.216559496053,0.303884471542,1.0,-0.0611891428571,-0.0804200163265,1.597
0.434250111006,0.374149603887,-0.124633564401,-1.62294198159,0.061633731486,1.98869145124,0.118539881153,-0.069147544318,-0.278276434987,-0.00497192091368,-0.411220910256,-0.0306477231192,0.133011874162,-0.0811821593962,0.573753722954,0.819012411234,0.00246628097835,0.0,0.818975135493,-0.573692281127,-0.0117320467544,0.0,-0.00819396329986,0.0087512967912,-0.999928134303,0.0,0.626611020474,0.215138980657,0.303799219472,1.0,-0.0623645714286,-0.0819648653061,1.614
0.433183880595,0.369618859342,-0.124698912385,-1.62967948026,0.0611230728609,1.99086601887,0.117385181584,-0.0670645680803,-0.28323830776,-0.00691566168407,-0.42605167083,-0.0292245760154,0.140454675537,-0.0714954686269,0.573827559579,0.81896082452,0.00241798888525,0.0,0.818922964606,-0.573766332737,-0.0117524618262,0.0,-0.00823760381142,0.00872420108295,-0.999928012508,0.0,0.625600491105,0.213787984261,0.303802689883,1.0,-0.0634708571429,-0.0834188408163,1.63
0.432000901085,0.364703176888,-0.124706861281,-1.63675815018,0.0605721951451,1.9933419972,0.11611693355,-0.0755569451534,-0.296597054918,0.000927306932524,-0.413159280992,-0.0397930134558,0.151218307157,-0.0717020684682,0.573857133399,0.818939363578,0.00265633774152,0.0,0.818904934826,-0.573795422883,-0.0115873766297,0.0,-0.00796531776204,0.00882495672922,-0.999929334429,0.0,0.624574128224,0.212379477387,0.303917896853,1.0,-0.0646462857143,-0.0849636897959,1.647
0.430787017663,0.359797960272,-0.124716370575,-1.644007829,0.0600318619414,1.99577162074,0.114731688554,-0.0704151585165,-0.288479636013,-0.000560637215409,-0.443746890576,-0.0289979941753,0.145318986198,-0.0746945108388,0.573823114393,0.818962990455,0.00272039597156,0.0,0.818929287986,-0.573761077505,-0.0115669408208,0.0,-0.00791219145536,0.0088653606275,-0.999929398811,0.0,0.623488071199,0.210933612085,0.3039357684,1.0,-0.0658217142857,-0.0865085387755,1.664
0.42953832068,0.354805217664,-0.124748575367,-1.65150327531,0.0594642354047,1.99806398944,0.113378371616,-0.0770173933425,-0.296212907944,-0.000522413950075,-0.44426369533,-0.0310756449746,0.146362116262,-0.0853627530941,0.573855754989,0.818940705112,0.00253788861471,0.0,0.818904237017,-0.573793908368,-0.0117110297356,0.0,-0.00813457053767,0.00879889895633,-0.999928201492,0.0,0.622311909153,0.209417738103,0.303877849338,1.0,-0.0669971428571,-0.0880533877551,1.681
0.428338430973,0.35010833333,-0.124764206948,-1.65858019498,0.0589396848836,2.00033024133,0.112070866945,-0.075319810346,-0.298073373242,0.000592388201658,-0.432496014013,-0.0315307154182,0.142672969106,-0.082804611066,0.573868403978,0.818932135342,0.0024412130865,0.0,0.818894032921,-0.573806507792,-0.0118068354076,0.0,-0.00826837216785,0.00877483356377,-0.999927315517,0.0,0.621212866574,0.20799319545,0.303814802346,1.0,-0.0681034285714,-0.0895073632653,1.697
0.42702841485,0.344901611953,-0.124778931308,-1.66594713275,0.0583803370366,2.00290164966,0.11065740873,-0.0769560063158,-0.305688022912,-0.00098151228481,-0.43475868671,-0.031541376824,0.148386711711,-0.0763888071006,0.573879082888,0.818923590931,0.00277440845164,0.0,0.818890066714,-0.573816271425,-0.011605696305,0.0,-0.00791233011712,0.00893237384974,-0.99992880133,0.0,0.620123156801,0.206491253954,0.303967917959,1.0,-0.0692788571429,-0.0910522122449,1.714
0.425699699375,0.339721523551,-0.124774333256,-1.67359529767,0.0577527827217,2.005274204,0.109244641167,-0.0772728347911,-0.302145518031,0.00155086406239,-0.455244038532,-0.0425186061661,0.139616247803,-0.0909134618126,0.573871531135,0.818929224934,0.00267155421559,0.0,0.818894263409,-0.573808957805,-0.0116709982763,0.0,-0.0080249143369,0.0088855451465,-0.99992832135,0.0,0.618906539038,0.204940223188,0.303946975989,1.0,-0.0704542857143,-0.0925970612245,1.731
0.4243703692,0.334493591656,-0.124776739322,-1.68138421534,0.0571114927847,2.00767607278,0.107752268424,-0.0768284063514,-0.307504753281,0.000345376376538,-0.453725899397,-0.0465688014182,0.146175566261,-0.0840334115817,0.573799975146,0.818979861576,0.00251431046464,0.0,0.818942706844,-0.573737811546,-0.0117691720336,0.0,-0.00819631770396,0.00881239650409,-0.9999275784,0.0,0.617648791106,0.203373799414,0.303886825622,1.0,-0.0716297142857,-0.0941419102041,1.748
0.422996124252,0.329154304245,-0.12476970307,-1.68903881097,0.05650218878,2.01020857524,0.106241747889,-0.0826898763781,-0.315193328294,9.01315273135e-05,-0.440775408176,-0.0339359376211,0.147993505145,-0.097957458175,0.573745520494,0.819017549073,0.00266062503591,0.0,0.818982349231,-0.573682894895,-0.0116873715278,0.0,-0.00804596222066,0.00888475306178,-0.999928159247,0.0,0.616519932876,0.201912092649,0.303955892626,1.0,-0.072736,-0.0955958857143,1.764
0.421650190203,0.324152431973,-0.124777414548,-1.69634354089,0.0559233293259,2.01262461358,0.104775378945,-0.0861091695122,-0.324530626187,0.000390192138567,-0.467649570555,-0.0412909703374,0.140218598745,-0.0866198604886,0.573709381871,0.819042529208,0.00276177535091,0.0,0.819008660491,-0.573646431206,-0.0116332672394,0.0,-0.00794401099573,0.00893620453744,-0.999928515914,0.0,0.615230354193,0.200211320588,0.303977143905,1.0,-0.0739805714286,-0.0972316081633,1.782
0.420149392184,0.318710768529,-0.124820963215,-1.70434487863,0.0552589812092,2.01503547146,0.103299391831,-0.0896768675386,-0.327789188241,-0.0055714210375,-0.467964389558,-0.0444295300681,0.146618842406,-0.0823891551791,0.57380573437,0.818975524504,0.00261081760323,0.0,0.818939606948,-0.573743200239,-0.0117220839787,0.0,-0.00810231702257,0.00886447161612,-0.999927884201,0.0,0.614008272189,0.198600299182,0.303932502098,1.0,-0.0750868571429,-0.0986855836735,1.798
0.418640383463,0.313223628219,-0.124868055593,-1.71234373903,0.0546017074306,2.01750673728,0.101624021851,-0.0954268504417,-0.3250997317,-0.0040985352595,-0.466946285962,-0.0421966782463,0.155042560512,-0.0956785348589,0.573747050915,0.819016812395,0.00255528515852,0.0,0.818980117329,-0.57368466466,-0.0117566940317,0.0,-0.00816315932699,0.00883826643215,-0.999927621319,0.0,0.612711763381,0.196897545816,0.303918725335,1.0,-0.0762622857143,-0.100230432653,1.815
0.417066988889,0.307620975486,-0.124872986123,-1.72021678954,0.0539268768534,2.02012683329,0.100018254687,-0.0943794368028,-0.327967666273,0.000334066543331,-0.46759755373,-0.0345695974073,0.152305339875,-0.0993565432282,0.573749952403,0.819013943613,0.00281054899361,0.0,0.818981079918,-0.573687255,-0.0115616213593,0.0,-0.00785690423661,0.00893543818943,-0.999929210995,0.0,0.611477749572,0.195206187407,0.304041673681,1.0,-0.0774377142857,-0.101775281633,1.832
0.415458156559,0.302044213354,-0.124914402827,-1.72841259499,0.0532494602611,2.02256654821,0.0983223202283,-0.098005540506,-0.328897605032,-0.00153658112755,-0.488960575945,-0.0404416308714,0.140676508367,-0.0989605694279,0.57373977518,0.819021625231,0.00264474605985,0.0,0.818986320678,-0.573677318095,-0.0116828141597,0.0,-0.00805140162815,0.00886907677137,-0.999928254631,0.0,0.610115393666,0.193431962832,0.303974008096,1.0,-0.0786131428571,-0.103320130612,1.849
0.413801682749,0.29644949267,-0.12498142388,-1.73665507638,0.0525910016045,2.02501977263,0.0967409456269,-0.0955903141406,-0.334516675367,-0.0062038241854,-0.484053679061,-0.0420156046925,0.145994967326,-0.0968613783639,0.573885223787,0.818920245657,0.00247549462921,0.0,0.818882296436,-0.573822884334,-0.011824927028,0.0,-0.00826333577316,0.00881345930689,-0.999927017445,0.0,0.608743028985,0.191618344449,0.30388954596,1.0,-0.0797885714286,-0.104864979592,1.866
0.412213061283,0.290977269891,-0.124999405772,-1.74421430358,0.0519697887412,2.02753965498,0.0951040863718,-0.100293002141,-0.347581925076,-0.00401483894904,-0.478834401911,-0.0387061977079,0.162074923555,-0.109245754094,0.5738767959,0.818924927443,0.00285188377536,0.0,0.818892267974,-0.573813568165,-0.0115840123937,0.0,-0.00785013804334,0.00898335444636,-0.999928834806,0.0,0.607469564785,0.189852109411,0.304060330425,1.0,-0.080964,-0.106409828571,1.883
0.410496173753,0.285211432899,-0.125023727732,-1.75251791575,0.0512631658402,2.02997798198,0.0933634471206,-0.101006080363,-0.339372590344,-0.000373096106019,-0.495698293765,-0.0483089491891,0.136023919324,-0.0976176015007,0.573882095538,0.8189216545,0.00272233606656,0.0,0.818887005574,-0.573818958159,-0.0116885525512,0.0,-0.00801003496648,0.00893730873251,-0.999927979333,0.0,0.606134310689,0.188134986979,0.304019781384,1.0,-0.0820702857143,-0.107863804082,1.899
0.408763154007,0.279389431248,-0.125030162761,-1.76096158738,0.0504972428549,2.03242252746,0.0915309969829,-0.0996825844877,-0.34779120323,-0.00047168177685,-0.503092655922,-0.0409888239709,0.147446217506,-0.105558872734,0.573786233027,0.81898941367,0.00253889450265,0.0,0.81895230588,-0.57372368646,-0.0117897917535,0.0,-0.00819924858286,0.00884422398449,-0.999927273368,0.0,0.604676438344,0.186294942253,0.303957464211,1.0,-0.0832457142857,-0.109408653061,1.916
0.406957103238,0.273439719092,-0.125043512155,-1.7692216799,0.0498023160497,2.0350771407,0.0897775894673,-0.107596611261,-0.345953745427,-0.00030570907135,-0.481575548397,-0.0390583848977,0.154722292632,-0.107415230202,0.573835785652,0.818953812142,0.00280919635684,0.0,0.818920440395,-0.573772524646,-0.0116253673883,0.0,-0.00790895152612,0.00897173288011,-0.99992847569,0.0,0.603317111728,0.184455597188,0.304070366125,1.0,-0.0844211428571,-0.110953502041,1.933
0.405096027134,0.267524476024,-0.125085955756,-1.77763310782,0.0490662385381,2.0376017851,0.087900563655,-0.113436037354,-0.353972674116,-0.00571422937894,-0.502573335088,-0.0479419362107,0.139954332211,-0.10605434192,0.57383463556,0.818954624143,0.00280740595364,0.0,0.818921253726,-0.573771408586,-0.0116231573447,0.0,-0.00790818144309,0.00896898734302,-0.99992850641,0.0,0.601889275922,0.182544013524,0.304070799975,1.0,-0.0855965714286,-0.11249835102,1.95
0.403197994066,0.261514809862,-0.125144400623,-1.78626424474,0.0482892634532,2.03998225248,0.0860520807542,-0.114204492736,-0.3514143783,-0.00179503826423,-0.511608283564,-0.049884835528,0.135677026911,-0.0973369839526,0.573883541246,0.818921101167,0.00258032000986,0.0,0.818884508039,-0.573820803374,-0.0117726382177,0.0,-0.00816037766443,0.00886927815314,-0.999927369433,0.0,0.600366581129,0.180573392973,0.304006017748,1.0,-0.086772,-0.1140432,1.967
0.401387523316,0.255759925484,-0.125155227877,-1.79422117038,0.0475880530624,2.04240815283,0.0842633113504,-0.11358702025,-0.367995226117,0.000317112497891,-0.483038141265,-0.0408420811225,0.149483875862,-0.113998353237,0.573875683094,0.818926064316,0.00274744240963,0.0,0.818891787102,-0.573812510438,-0.0116700806575,0.0,-0.00798057004741,0.00894720579528,-0.999928126422,0.0,0.599005541051,0.178769499164,0.304090421044,1.0,-0.0878782857143,-0.11549717551,1.983
0.399421966654,0.249669449863,-0.12513260509,-1.80274650224,0.0468144652825,2.04499430068,0.0823131415886,-0.116437698507,-0.353260873894,0.0023452012055,-0.512292734986,-0.0406335502357,0.143972369492,-0.117109470383,0.573819109948,0.818965369636,0.00284592622425,0.0,0.818932509374,-0.573755768082,-0.0116021801836,0.0,-0.00786906869987,0.00898834726425,-0.99992864114,0.0,0.597528290763,0.176844215998,0.304122328638,1.0,-0.0890537142857,-0.11704202449,2.0
0.397427185068,0.243571593981,-0.125157733411,-1.81151876818,0.0460572784743,2.04743423226,0.0803358102518,-0.119286265988,-0.358109303934,-6.30307688257e-06,-0.521508826957,-0.0491042335846,0.148484911937,-0.122117081401,0.573807639691,0.818974055012,0.00265268738613,0.0,0.818938008898,-0.573744215935,-0.0117838518882,0.0,-0.00812886142584,0.00893422277615,-0.999927047977,0.0,0.595945897376,0.174851724576,0.304022009047,1.0,-0.0902291428571,-0.118586873469,2.017
0.395377323141,0.237284113918,-0.125153117377,-1.82015685973,0.0453202360998,2.04993957306,0.0782957135928,-0.119132973572,-0.38336430022,-0.000476790046626,-0.503588967446,-0.0381307170862,0.156941233162,-0.115131160703,0.573765097356,0.819003494222,0.00276340545717,0.0,0.818968498932,-0.573700845998,-0.0117764153984,0.0,-0.00805971248649,0.00902021181377,-0.99992683573,0.0,0.594498096268,0.172989446964,0.304083401607,1.0,-0.0913354285714,-0.12004084898,2.033
0.393402308955,0.231367303215,-0.125148645028,-1.82829501279,0.0445500605374,2.05238141999,0.0764315140906,-0.119715344574,-0.363558709795,-0.00190445963192,-0.510858463281,-0.0467339971138,0.144425955787,-0.124816486926,0.573770475467,0.818999125519,0.00293611694304,0.0,0.818966801668,-0.573706110981,-0.0116371341091,0.0,-0.00784648549531,0.00908180112586,-0.999927974183,0.0,0.592978577738,0.170986347585,0.304158412182,1.0,-0.0925108571428,-0.121585697959,2.05
0.391230927172,0.225059031935,-0.125177392872,-1.83720880597,0.0436929810219,2.05478135106,0.0742584502709,-0.130534337004,-0.37563036997,-0.00250014240051,-0.529315676131,-0.0501594037913,0.135207576228,-0.124893144733,0.57369660495,0.819051610644,0.00272240166476,0.0,0.819016319924,-0.573632775453,-0.011766627603,0.0,-0.00807597195475,0.00898033859975,-0.999927063438,0.0,0.591243690219,0.168759016308,0.304085798246,1.0,-0.0937554285714,-0.123221420408,2.068
0.389009064791,0.218680097875,-0.125241317737,-1.84598509146,0.042906611498,2.05730433405,0.0721531622374,-0.133055181182,-0.384055421697,-0.00528217906693,-0.512746837143,-0.0518356644712,0.155283199625,-0.121595503618,0.573753305254,0.819011548636,0.00282397113789,0.0,0.818977523768,-0.573689046446,-0.0117235000152,0.0,-0.00798175426714,0.00903933980789,-0.999927288324,0.0,0.589768739144,0.166774258203,0.30412299601,1.0,-0.0948617142857,-0.124675395918,2.084
0.386705067176,0.212248479967,-0.125287679117,-1.85474624747,0.0420965116786,2.0598426801,0.0700369618102,-0.139575238823,-0.383522729486,-2.82528678142e-05,-0.524641946612,-0.0506397640279,0.144195053446,-0.111774434258,0.573843679096,0.818947699042,0.00297407077615,0.0,0.818915804669,-0.573779105714,-0.0116271067537,0.0,-0.00781568312828,0.00910783063352,-0.999927978666,0.0,0.588201392742,0.164634221566,0.304187645027,1.0,-0.0960371428571,-0.126220244898,2.101
0.384357361415,0.205801614598,-0.125357291664,-1.86377949984,0.0412126691382,2.0621718225,0.0677956479868,-0.140499281101,-0.379810717754,-0.00219950920802,-0.535337755845,-0.0548405837847,0.135712369785,-0.125561084227,0.57385546614,0.818940292617,0.00272910446502,0.0,0.818904939729,-0.573791425652,-0.011783311769,0.0,-0.00808404768932,0.00899696821483,-0.999926848692,0.0,0.586505607965,0.162418887107,0.304105863133,1.0,-0.0972125714286,-0.127765093878,2.118
0.382131245098,0.199633025416,-0.125386619766,-1.87217458865,0.0404139481713,2.06450781603,0.0656411409409,-0.139044008038,-0.392227397388,-0.000430795819399,-0.518428772647,-0.0492828319257,0.148037092665,-0.134149267558,0.57381851574,0.818965946772,0.00279927196885,0.0,0.818931545372,-0.573754272654,-0.0117433175791,0.0,-0.00801143719197,0.0090311190595,-0.999927125226,0.0,0.584955264904,0.160378089562,0.30414071609,1.0,-0.0983188571428,-0.129219069388,2.134
0.379670342631,0.193070294356,-0.125434818696,-1.88104944298,0.0395673494497,2.06707072375,0.0634020383618,-0.144667224289,-0.382383191813,-0.00293545621836,-0.530888891074,-0.0535300937279,0.143924031509,-0.146078363235,0.573905478631,0.818904382911,0.00297659997271,0.0,0.818872614895,-0.573840997892,-0.0116145001861,0.0,-0.00780322024521,0.00910325675739,-0.999928117652,0.0,0.583340881161,0.158163089983,0.304199278393,1.0,-0.0994942857143,-0.130763918367,2.151
0.377148174675,0.186472661571,-0.125548674286,-1.89016773044,0.038725262127,2.06936756518,0.0610073214404,-0.145273844473,-0.390656339013,-0.00900744305397,-0.546252653613,-0.0494601218807,0.136462406054,-0.131832028206,0.573966263699,0.818862410331,0.00279785332394,0.0,0.81882759408,-0.573901559898,-0.0117948133125,0.0,-0.00805279191272,0.00906095888538,-0.999926523084,0.0,0.58160034045,0.155851541484,0.304131653808,1.0,-0.100669714286,-0.132308767347,2.168
0.374583077469,0.179754947504,-0.125583472078,-1.89912721034,0.0378512801318,2.07181494461,0.0586399535265,-0.144307442118,-0.397203855696,-0.0001367584456,-0.523804655812,-0.0534898637526,0.1541534788,-0.143269415259,0.573998107116,0.818839573603,0.00294493276835,0.0,0.818806847254,-0.573933084813,-0.0117007670264,0.0,-0.00789100866078,0.00912772497737,-0.99992720566,0.0,0.579921674076,0.153591362217,0.304208809521,1.0,-0.101845142857,-0.133853616327,2.185
0.372180522964,0.17342710489,-0.125561801542,-1.90764993148,0.0369533835584,2.07411186652,0.0564159678755,-0.149176120817,-0.393978500841,0.0013619641961,-0.540993185528,-0.0505236604429,0.138099841751,-0.14853415109,0.573928743498,0.818888094411,0.00297205656731,0.0,0.818856089,-0.573864066755,-0.0116398151461,0.0,-0.00782630025647,0.00911428657659,-0.999927836798,0.0,0.578181188816,0.151365403945,0.304230445525,1.0,-0.103020571429,-0.135398465306,2.202
0.369580184855,0.166706538738,-0.125563490601,-1.91687681129,0.036045823253,2.07635882787,0.0539248161816,-0.160519844275,-0.397872949398,-0.00247702380604,-0.549582573957,-0.0612876690267,0.136628464833,-0.146105069943,0.573849301896,0.818944545162,0.00274910252132,0.0,0.8189088857,-0.573784557903,-0.0118433498023,0.0,-0.00812181051223,0.00904773669553,-0.999926084596,0.0,0.576343813852,0.149079759184,0.304137057178,1.0,-0.104196,-0.136943314286,2.219
0.366898075699,0.159830984563,-0.125561814637,-1.92589181834,0.0351717437732,2.07879804779,0.0513816390025,-0.159339555639,-0.410806605733,-0.000250806807859,-0.528219960441,-0.0601612149417,0.150254872229,-0.1387031038,0.573784496273,0.818988956523,0.00303114344855,0.0,0.818957190642,-0.573719024239,-0.0116768155969,0.0,-0.00782430900176,0.00918252927053,-0.999927228025,0.0,0.57462256032,0.146809005554,0.304262083684,1.0,-0.105371428571,-0.138488163265,2.236
0.364123951549,0.152937785093,-0.12556500011,-1.93505455236,0.0342022159086,2.08113666667,0.0488554310043,-0.164498887852,-0.398037636257,0.000562721815123,-0.547711486586,-0.0554877118719,0.129032650137,-0.148074613123,0.573765646878,0.819002203477,0.00301994449766,0.0,0.818970424245,-0.57370036979,-0.0116651967887,0.0,-0.00782142918562,0.00916651089161,-0.999927397526,0.0,0.572925842418,0.144596783008,0.304273401726,1.0,-0.106477714286,-0.139942138775,2.252
0.361448625866,0.14645876514,-0.125599899243,-1.94386153008,0.0332995290713,2.08316404949,0.0464343350256,-0.170057646533,-0.403217548523,0.000769255981816,-0.551056376278,-0.0516336331118,0.131555559783,-0.158578128262,0.573790145699,0.818985935556,0.00276639855413,0.0,0.818950145644,-0.573724948682,-0.0118780937076,0.0,-0.00814099655868,0.00908125046016,-0.999925624767,0.0,0.571136869767,0.142322785979,0.3041805557,1.0,-0.107584,-0.141396114286,2.268
0.358561872972,0.139462342138,-0.125645522949,-1.95293059076,0.032411733386,2.08557852932,0.043809687695,-0.17278705424,-0.412826454812,-0.00719923458703,-0.531510710535,-0.0560970930641,0.148352182017,-0.154103455962,0.573833932499,0.818954277455,0.00304240896728,0.0,0.818922262785,-0.57376795194,-0.0117222755,0.0,-0.00785452212401,0.0092183133649,-0.999926661901,0.0,0.569372312851,0.13993785256,0.304289926402,1.0,-0.108759428571,-0.142940963265,2.285
0.355604915339,0.132483681952,-0.125688396059,-1.96216998525,0.0314234757572,2.08788014431,0.0410471328857,-0.17811044106,-0.40694616734,-0.000706734856932,-0.551545691935,-0.0612201714525,0.128265152086,-0.161684283948,0.573773484523,0.818996644579,0.00303834311487,0.0,0.818964740025,-0.573707717129,-0.0117028545199,0.0,-0.00784162866717,0.00920326068722,-0.999926901755,0.0,0.567524063275,0.137495703405,0.30428630002,1.0,-0.109934857143,-0.144485812245,2.302
0.352552535441,0.125473275242,-0.125794931985,-1.97154881417,0.0304015506022,2.09003171712,0.0383418062952,-0.180966084266,-0.406219422692,-0.00279849327755,-0.553027765296,-0.0562994563154,0.130592112517,-0.160896070062,0.57386898673,0.818930496376,0.00282401775352,0.0,0.818895584125,-0.573803708938,-0.0118352360029,0.0,-0.00807195924369,0.00910462585278,-0.999925971891,0.0,0.565605049686,0.134956479641,0.304210177214,1.0,-0.111110285714,-0.146030661224,2.319
0.349438462653,0.118265156756,-0.125877172822,-1.98066087579,0.0294364241929,2.09241765114,0.035550614667,-0.183511428082,-0.422233477221,-0.000830948412454,-0.532923313375,-0.0577350653578,0.137787112328,-0.16724719816,0.573936779348,0.818881678167,0.00318078201499,0.0,0.818852216531,-0.573871233077,-0.011558643087,0.0,-0.007639948844,0.00923869866383,-0.999928136232,0.0,0.563809975274,0.132453725215,0.304376423134,1.0,-0.112285714286,-0.147575510204,2.336
0.346251203033,0.111191305891,-0.125893723045,-1.99002600747,0.0284132319901,2.09456609114,0.0326502339317,-0.191179042555,-0.419729078061,-0.00107100032141,-0.559848535497,-0.0681113607236,0.116183962749,-0.166667481447,0.573892379839,0.818913330789,0.0030397238746,0.0,0.818881771301,-0.573826976376,-0.0116615914639,0.0,-0.00780570743204,0.00918184972766,-0.999927379647,0.0,0.561864302602,0.129923003896,0.304312819838,1.0,-0.113461142857,-0.149120359184,2.353
0.343255507423,0.104435523651,-0.125894836444,-1.99888769025,0.0274323327274,2.09653286489,0.0299560775962,-0.188424299469,-0.421867908949,0.00133115625923,-0.54616974486,-0.0627800394382,0.126534417835,-0.181913754431,0.573849461425,0.818943897443,0.00290436999844,0.0,0.818910282165,-0.57378418335,-0.011764676083,0.0,-0.00796828153001,0.00912974726494,-0.999926574407,0.0,0.559989597297,0.127559387478,0.304268839985,1.0,-0.114567428571,-0.150574334694,2.369
0.340034465431,0.0971470337008,-0.125886674669,-2.00805679812,0.0265045372928,2.0987890535,0.0269585233968,-0.193775864657,-0.422884999936,0.000610804841049,-0.549936424394,-0.052210768564,0.125318919328,-0.17521133796,0.573753660305,0.819009820285,0.00322466488151,0.0,0.818980406681,-0.573687368115,-0.0116036217809,0.0,-0.00765367803752,0.00929873685515,-0.999927474723,0.0,0.558097688045,0.12509084621,0.30439795766,1.0,-0.115742857143,-0.152119183673,2.386
0.336685174384,0.0899135208635,-0.125908366925,-2.01751454686,0.0255211230439,2.10080969501,0.0239884324162,-0.198045095566,-0.428068848545,-0.00362364283785,-0.547848819719,-0.0612606445734,0.116626290471,-0.177642346467,0.573780854737,0.818991308636,0.00308448016422,0.0,0.818959096433,-0.573713859976,-0.0117962766261,0.0,-0.00789159094757,0.00929471972563,-0.999925662726,0.0,0.556063814986,0.122511402822,0.304327387345,1.0,-0.116918285714,-0.153664032653,2.403
0.333236570246,0.0826159080441,-0.126006220324,-2.02695012166,0.0244417954216,2.10283181694,0.020855529719,-0.206654504251,-0.446702739064,-0.0109584062618,-0.542620692846,-0.0690728969555,0.134423765568,-0.183316600656,0.573768928472,0.819000128494,0.00295857205184,0.0,0.818966139476,-0.573702227083,-0.0118728232939,0.0,-0.00802665896622,0.0092354052411,-0.999925137216,0.0,0.554043427385,0.119842428622,0.304288096814,1.0,-0.118093714286,-0.155208881633,2.42
0.329733377771,0.0751929796061,-0.126054429502,-2.03614782531,0.0233905494796,2.10504434088,0.0177564250656,-0.211932756304,-0.42989667379,0.000441350243605,-0.54796109435,-0.0579803948355,0.124462966821,-0.178814286491,0.573790143862,0.818984096892,0.00326599849438,0.0,0.818955063006,-0.573723524348,-0.0116047097515,0.0,-0.00763043947841,0.00933355378035,-0.999927327943,0.0,0.552123990674,0.117219545021,0.304428555252,1.0,-0.119269142857,-0.156753730612,2.437
0.32611748601,0.067810278095,-0.126148085016,-2.04572552613,0.0223206026377,2.10695718465,0.0145515492899,-0.213154544135,-0.44361660219,-0.0120013869549,-0.564935918728,-0.0669602122617,0.120354249724,-0.183060002702,0.573840194667,0.818949900517,0.00303946197126,0.0,0.818917113966,-0.573773364526,-0.0118166626027,0.0,-0.0079334450847,0.00927012187231,-0.999925559874,0.0,0.550014897671,0.114486467975,0.304330047663,1.0,-0.120444571429,-0.158298579592,2.454
0.32262547059,0.0608228838592,-0.126259522351,-2.05454480306,0.0212889181958,2.10877445049,0.0114754897129,-0.218709199525,-0.444943544304,-0.00206376019633,-0.542992522029,-0.05951614285,0.127994437112,-0.193661681173,0.573909726072,0.81890132103,0.00299993927667,0.0,0.81886803652,-0.573843047083,-0.011833975746,0.0,-0.0079695175138,0.00924836622363,-0.999925474479,0.0,0.548093268694,0.111882881096,0.304334998235,1.0,-0.121550857143,-0.159752555102,2.47
0.318889780443,0.0533209894554,-0.126291453659,-2.06381326128,0.0202408063294,2.11091262927,0.00816578054715,-0.214483043232,-0.436356070278,-0.000637879051808,-0.555002095022,-0.0633566574759,0.114082904963,-0.19638720865,0.573911924375,0.818898720028,0.00327662905931,0.0,0.81886963236,-0.573845019821,-0.0116260623455,0.0,-0.00764043740828,0.00935564797198,-0.999927045122,0.0,0.546102577566,0.10919181373,0.304431569316,1.0,-0.122726285714,-0.161297404082,2.487
0.315112579236,0.0458045051975,-0.126283870285,-2.0733888876,0.0191720663958,2.11271553957,0.00481352679172,-0.22010882267,-0.441628194058,0.000506265903637,-0.573955766829,-0.0611553003354,0.110589557474,-0.19614927924,0.573864207599,0.818932860319,0.00309651862302,0.0,0.81890035805,-0.573796632559,-0.0118479935571,0.0,-0.00792609189607,0.00933505937223,-0.999925014055,0.0,0.54392085003,0.106484311303,0.304349395691,1.0,-0.123901714286,-0.162842253061,2.504
0.311460405991,0.0386324143201,-0.126306319932,-2.08217845804,0.0181453183757,2.1145034743,0.00155820815325,-0.233436226605,-0.460366654849,-0.000866103784355,-0.533990947964,-0.0647946479308,0.119120071737,-0.20091956962,0.573827460016,0.818957992702,0.00325564461321,0.0,0.818927819092,-0.573759644532,-0.0117407122898,0.0,-0.00774734183408,0.00940346210065,-0.999925774043,0.0,0.541841488652,0.103740863001,0.304437082469,1.0,-0.125077142857,-0.164387102041,2.521
0.307240000705,0.0306041468621,-0.126382846487,-2.09207619397,0.0169400809101,2.11654864325,-0.00213201924746,-0.23686829465,-0.447862540097,-0.0102514970115,-0.55736460227,-0.0585395792024,0.100879112139,-0.211937214015,0.573855623296,0.818938020757,0.00331491653553,0.0,0.818909096042,-0.573788193137,-0.0116511260512,0.0,-0.00763963722534,0.00940086050148,-0.999926627191,0.0,0.539750116753,0.100927146999,0.304457331385,1.0,-0.126252571429,-0.16593195102,2.538
0.3034335231,0.0233944681446,-0.126450718141,-2.10109418935,0.0158805793361,2.11806934185,-0.00552928723311,-0.235727863868,-0.440930455627,-0.00323118725811,-0.565052984698,-0.0583340988949,0.0952459003311,-0.207879325619,0.57383037354,0.818956544683,0.00310277696947,0.0,0.818923855339,-0.573762464299,-0.0118785781877,0.0,-0.00794793541054,0.00935740719574,-0.999924631786,0.0,0.537638316988,0.0982518168153,0.30438765647,1.0,-0.127358857143,-0.167385926531,2.554
0.299262970053,0.015630801164,-0.126564114985,-2.11038785987,0.014742862957,2.11993636468,-0.00916911324804,-0.243444349361,-0.464095624531,-0.0051047439981,-0.537640395434,-0.0715364677265,0.115402287983,-0.222130278208,0.573901563173,0.818905743449,0.00333557105715,0.0,0.81887687446,-0.573833797951,-0.011669777412,0.0,-0.00764253148185,0.00942890703616,-0.999926341,0.0,0.535542336318,0.095367835797,0.304505398884,1.0,-0.128534285714,-0.16893077551,2.571
0.295246376076,0.00840889654236,-0.12663098155,-2.11929723723,0.0136793569125,2.12152690534,-0.0126962862378,-0.251941032359,-0.448413679126,-0.00183850251626,-0.575461409956,-0.0636918939104,0.0993207171922,-0.226100669686,0.573922893165,0.818891082177,0.0032642202402,0.0,0.818860804907,-0.573854774169,-0.0117655110881,0.0,-0.00776163317397,0.00942561964888,-0.999925454594,0.0,0.533462496309,0.0926327448943,0.304464955268,1.0,-0.129640571429,-0.17038475102,2.587
0.290703806275,0.000237919588914,-0.126640518556,-2.12935590913,0.012482593199,2.12325240692,-0.0167244871359,-0.251435812611,-0.451940034287,0.00187958670372,-0.547714245396,-0.0738121043499,0.10324036394,-0.23964894344,0.573853410741,0.81894020211,0.00315519406721,0.0,0.818907690634,-0.573784710281,-0.011918362708,0.0,-0.00795017731671,0.00942338720691,-0.999923994339,0.0,0.531071571515,0.08960045989,0.304403377144,1.0,-0.12998,-0.170830857143,2.605
0.286656128561,-0.00709718708139,-0.126637670468,-2.13798122115,0.0114027388294,2.12490840837,-0.020328512147,-0.254169849604,-0.45063602721,-0.000179852707042,-0.539294760537,-0.0712324870568,0.0973071883792,-0.228462619565,0.573755418123,0.819007826606,0.00341277516994,0.0,0.818979543418,-0.573686904306,-0.0116871807147,0.0,-0.00761417465045,0.00950075922719,-0.999925877212,0.0,0.529061392725,0.0869489163288,0.304524328416,1.0,-0.12998,-0.170830857143,2.621
0.282208087035,-0.0147847071504,-0.126662825424,-2.14730623942,0.0102364672572,2.12644754972,-0.024191089463,-0.263728084966,-0.447967724699,-0.00302123831206,-0.546418755741,-0.0723752216117,0.0838887042715,-0.23133637297,0.573750698156,0.819011476652,0.00332932106603,0.0,0.818981757135,-0.573682028355,-0.0117710969742,0.0,-0.00773084069506,0.00948051085291,-0.999925174209,0.0,0.526817087684,0.0840436125033,0.304486157319,1.0,-0.12998,-0.170830857143,2.638
0.27769321923,-0.0224072744638,-0.126750382499,-2.15654918593,0.00907936617158,2.12781578317,-0.028120610004,-0.268842899251,-0.460660540919,-0.0108769251013,-0.529976734875,-0.0648610171017,0.0919435879729,-0.230921692444,0.573791364738,0.818983715895,0.00314479769382,0.0,0.818950696989,-0.573722271583,-0.0119690388856,0.0,-0.00799836145888,0.0094433472337,-0.999923421771,0.0,0.524552215449,0.081095951208,0.304418082788,1.0,-0.12998,-0.170830857143,2.655
0.273106342452,-0.0301393106672,-0.126846444838,-2.16540945765,0.00793231712041,2.12947389336,-0.032045519173,-0.270268152582,-0.453222357805,-0.0018170903737,-0.527671823713,-0.0723639427029,0.0957361049593,-0.230732231956,0.573898607209,0.818907057136,0.00351671985434,0.0,0.818880300546,-0.573829964587,-0.0116177459914,0.0,-0.00749599927206,0.00954736467095,-0.999926326197,0.0,0.522466634458,0.0781619016236,0.304588718427,1.0,-0.12998,-0.170830857143,2.672
0.268743443412,-0.0372762425681,-0.126928581077,-2.1739721227,0.00687423300701,2.13067009805,-0.0358255065526,-0.274727941599,-0.445069468446,-0.00185520606555,-0.530370807078,-0.0631544783412,0.0740317978864,-0.239647985633,0.573960402369,0.818864359532,0.0033710683982,0.0,0.818834699556,-0.573890965225,-0.0118170105176,0.0,-0.00774205211067,0.00954302762334,-0.999924492776,0.0,0.520329852634,0.075384639821,0.304525762988,1.0,-0.12998,-0.170830857143,2.688
0.264101761473,-0.0447888060103,-0.126929487192,-2.18297834829,0.00577725387556,2.13199170088,-0.0399111248807,-0.26947256946,-0.441510395099,0.000443765794822,-0.524030994188,-0.0600093452444,0.0739512296917,-0.23486848255,0.573908027799,0.818901444679,0.00327817498466,0.0,0.818869576139,-0.573837715915,-0.0119849893081,0.0,-0.00793353735844,0.00956286345193,-0.999922802334,0.0,0.518072593897,0.072509878548,0.304451331148,1.0,-0.12998,-0.170830857143,2.705
0.259433811465,-0.0524319376047,-0.126924276556,-2.19158874946,0.00460557732168,2.13344683324,-0.0439708262976,-0.275280164673,-0.446224047951,-0.000286802113876,-0.509854927996,-0.0673632610317,0.0795256051395,-0.245779757902,0.573853311444,0.818938438493,0.00359969502524,0.0,0.818912324583,-0.573783858629,-0.0116376597653,0.0,-0.00746522374314,0.00962632955137,-0.999925799354,0.0,0.515965850667,0.0696627719433,0.304618289138,1.0,-0.12998,-0.170830857143,2.722
0.254655449277,-0.0599072205936,-0.126968378617,-2.20043988452,0.00345687217888,2.13455312065,-0.0481092409595,-0.287903012774,-0.435257770052,-0.00443878958061,-0.519086279775,-0.0639822613303,0.0540769516387,-0.239157038899,0.573865446733,0.818930738052,0.00341206988903,0.0,0.818901223238,-0.573795400113,-0.0118478812365,0.0,-0.00774491323175,0.00959342256765,-0.999923988392,0.0,0.513688563469,0.0667413564157,0.304540880858,1.0,-0.12998,-0.170830857143,2.739
0.249847126169,-0.0673729647279,-0.127038578905,-2.20919295699,0.00232641261319,2.13570874917,-0.0523213093327,-0.282924131654,-0.441343995722,-0.0103952825007,-0.509880639635,-0.0652863419971,0.0702775676684,-0.25577845797,0.573863793775,0.818932221952,0.00333300829198,0.0,0.818901001897,-0.573793203505,-0.0119689433408,0.0,-0.00788944775566,0.00959813185645,-0.999922813261,0.0,0.51143791352,0.0638258777044,0.304489911616,1.0,-0.12998,-0.170830857143,2.756
0.245235541343,-0.0744125396969,-0.127154843806,-2.21703501244,0.00123064908056,2.13690651582,-0.0563209530876,-0.2911666646,-0.44753904711,-0.0031385340461,-0.49702556132,-0.0639940802926,0.0716237890716,-0.255125054816,0.573934995221,0.81888117857,0.00360326869595,0.0,0.818854776492,-0.573865088371,-0.0116817065078,0.0,-0.00749828384938,0.00965527984545,-0.999925272863,0.0,0.509340014709,0.0608765733748,0.304625203505,1.0,-0.12998,-0.170830857143,2.773
0.240312403019,-0.0818345787047,-0.127179132951,-2.22562396942,0.00013696877894,2.13790612676,-0.0606134938788,-0.285050531554,-0.437531666357,-0.00167991749449,-0.496216056865,-0.0710050361671,0.061908651918,-0.244861891846,0.573905175484,0.818902517935,0.00350179569837,0.0,0.81887379819,-0.57383434382,-0.0118572927721,0.0,-0.00770066453182,0.00967267666212,-0.999923566625,0.0,0.507075863868,0.0579940686447,0.304572605649,1.0,-0.12998,-0.170830857143,2.79
0.235413319022,-0.0891816828646,-0.127155315312,-2.23414843888,-0.000976407208614,2.13887771016,-0.064912564849,-0.296535738171,-0.433213363167,0.00090067532043,-0.48977295461,-0.0614733810433,0.0598618043435,-0.257538028375,0.573826634609,0.818958042082,0.00338609259628,0.0,0.8189269258,-0.573755133094,-0.0120201642972,0.0,-0.00790137433605,0.00967063901623,-0.999922020472,0.0,0.504934629902,0.0553292907828,0.304502025337,1.0,-0.12998,-0.170830857143,2.806
0.230400902579,-0.0966036382829,-0.127171412011,-2.24228120838,-0.00211910789385,2.13996108262,-0.0693160483136,-0.302557242781,-0.430132200214,0.00119883523357,-0.473607099313,-0.0738253449031,0.0608274367713,-0.260389482666,0.573759271259,0.819004171528,0.00363490938003,0.0,0.818977543998,-0.573688466239,-0.0117504482163,0.0,-0.00753850565892,0.00971902488361,-0.999924352883,0.0,0.50281365925,0.0524608035508,0.304635885554,1.0,-0.12998,-0.170830857143,2.823
0.225283500717,-0.103908488475,-0.127238431584,-2.25057267749,-0.00326428011367,2.14080928655,-0.073704413455,-0.304192284826,-0.426895097921,-0.00995654026142,-0.492329289695,-0.0677212360349,0.0463575434992,-0.252667054114,0.573821830283,0.8189607568,0.00354017137541,0.0,0.818932395628,-0.57375069883,-0.0118580725783,0.0,-0.00768026816128,0.00970376876354,-0.999923422244,0.0,0.500572965824,0.049530089673,0.304601205225,1.0,-0.12998,-0.170830857143,2.84
0.220067143937,-0.111180837513,-0.127389947809,-2.25885631592,-0.00438928932552,2.14159723596,-0.0782337249152,-0.307834757977,-0.415005317326,-0.0101722519956,-0.479677723956,-0.0694304857559,0.0407530744138,-0.275140434437,0.573920470463,0.818892182906,0.00341075658175,0.0,0.818861105408,-0.57384851498,-0.0120465267204,0.0,-0.00790770121089,0.009706871075,-0.999921619386,0.0,0.498309646169,0.046537886268,0.304531293738,1.0,-0.12998,-0.170830857143,2.857
0.214857382335,-0.11851569197,-0.12745579046,-2.26678210451,-0.00551503268354,2.14255337039,-0.08271736127,-0.30236257505,-0.429406050235,-0.000612955731381,-0.461797724986,-0.0698673405088,0.0581437093096,-0.274431320547,0.573977623145,0.818851036179,0.00366272829697,0.0,0.818824432978,-0.573906258147,-0.0117856573298,0.0,-0.00754878036245,0.00976402298998,-0.999923836985,0.0,0.496184440737,0.0436320607096,0.304652809656,1.0,-0.12998,-0.170830857143,2.874
0.209337416916,-0.126105714825,-0.127452866825,-2.27525449565,-0.00665057157802,2.14334376773,-0.0875894867393,-0.309566098482,-0.427639493302,-0.000671450926937,-0.475459200574,-0.0621246413664,0.0348064730104,-0.271548210803,0.57389688149,0.81890774346,0.00363648429716,0.0,0.818880138545,-0.573824768405,-0.0118827926904,0.0,-0.007644353366,0.00979753106635,-0.999922783142,0.0,0.493829906562,0.0406186791119,0.304621174596,1.0,-0.12998,-0.170830857143,2.892
0.2043054892,-0.132920191462,-0.127470359914,-2.28278228868,-0.00773075238663,2.14394168874,-0.0919541584815,-0.320390669727,-0.428948830815,-0.00286986562067,-0.467779272651,-0.0645761164662,0.0354404583194,-0.27663726737,0.573877565842,0.81892163274,0.00355608706726,0.0,0.818892611301,-0.573805274529,-0.0119643211515,0.0,-0.00775748925186,0.00977829718643,-0.999922100098,0.0,0.491706631852,0.0378842083598,0.30460305784,1.0,-0.12998,-0.170830857143,2.908
0.198958589445,-0.140112346651,-0.127506743601,-2.29058185088,-0.00885383748196,2.14468235732,-0.0966811816313,-0.318844162263,-0.427107878774,-0.0038837169197,-0.445775015577,-0.0623825694674,0.0507305004371,-0.275734202002,0.573805986414,0.8189713827,0.00364844833293,0.0,0.818944028906,-0.573733967161,-0.0118642044237,0.0,-0.00762335193866,0.00979581509921,-0.999922960288,0.0,0.489523144975,0.0350056754568,0.304643158295,1.0,-0.12998,-0.170830857143,2.925
0.194131186322,-0.146437480225,-0.127625179315,-2.29729668547,-0.00979525561737,2.1453344433,-0.100836027889,-0.329929389529,-0.410942482601,-0.0107483622081,-0.450011732818,-0.0677044888894,0.0339665459842,-0.274624077394,0.573935814682,0.818879481287,0.00385002003094,0.0,0.818855296525,-0.57386382036,-0.0117075162198,0.0,-0.00737779965134,0.00987216222331,-0.999924051359,0.0,0.487514024237,0.0322313649683,0.304724747553,1.0,-0.12998,-0.170830857143,2.941
0.188615390974,-0.153486096544,-0.127692723765,-2.305096547,-0.0109402919001,2.14578224612,-0.105692423361,-0.319635233189,-0.416678043149,0.00038685311588,-0.457742508699,-0.0671031788445,0.0317289236971,-0.290280882208,0.573897947601,0.818906914377,0.00365489056276,0.0,0.818879255843,-0.573825393061,-0.0119134180481,0.0,-0.00765885885647,0.00983018949257,-0.999922351613,0.0,0.485365881637,0.0294721482086,0.304643612285,1.0,-0.12998,-0.170830857143,2.957
0.183170325043,-0.160585795562,-0.127673389758,-2.31275971555,-0.0120752052801,2.14626868788,-0.110489670061,-0.326508099425,-0.412299500236,0.00121764781544,-0.442392404035,-0.0675071298331,0.0367094601544,-0.27815680608,0.573781442032,0.818988814198,0.00359526066855,0.0,0.81896023733,-0.573708938649,-0.0119553455887,0.0,-0.0077288099282,0.00980431972577,-0.999922067369,0.0,0.483121362173,0.0266496586554,0.304632430637,1.0,-0.12998,-0.170830857143,2.974
0.177549830107,-0.167655716221,-0.127700619199,-2.32007641052,-0.0130708175315,2.14685403478,-0.115422556657,-0.335315242208,-0.422025343591,-0.00247162314753,-0.427249928045,-0.064795349902,0.0357115198163,-0.293074712358,0.573797221266,0.818976424479,0.00388740485853,0.0,0.818952317692,-0.573724579889,-0.0117454109676,0.0,-0.00738905722117,0.00992327444829,-0.9999234623,0.0,0.481005564657,0.0237708167628,0.304755998403,1.0,-0.12998,-0.170830857143,2.991
0.171884054385,-0.17458890253,-0.127746949846,-2.32759017933,-0.0141160733437,2.14724364526,-0.12036976957,-0.336205109061,-0.408414474036,-0.00636472266057,-0.444750582001,-0.0665597175393,0.0171773258006,-0.284722064308,0.573822574578,0.818959023355,0.00381023256072,0.0,0.818932879431,-0.573748819133,-0.0119154702761,0.0,-0.00757231125824,0.00995788227347,-0.99992174728,0.0,0.478758140795,0.0208784405383,0.304692238779,1.0,-0.12998,-0.170830857143,3.008
0.166073299757,-0.181557368983,-0.127918549131,-2.33503355008,-0.0152786605787,2.14757196952,-0.125423215892,-0.343425897663,-0.418212159867,-0.00616072202515,-0.429516682076,-0.065219529163,0.0184181687961,-0.294429859899,0.573922321206,0.818889603483,0.00370586432562,0.0,0.818861720623,-0.573848435525,-0.0120084322809,0.0,-0.00770712428948,0.00992668888631,-0.999921027423,0.0,0.476510461517,0.0178729225777,0.304654826786,1.0,-0.12998,-0.170830857143,3.025
0.160304031832,-0.188533127534,-0.127950337223,-2.34227264301,-0.0163152919095,2.14797063045,-0.130512647364,-0.337856527303,-0.41353753161,0.00415240761677,-0.406723804449,-0.0652084515394,0.0283912670943,-0.303566161356,0.573900482076,0.818904292216,0.00383976094636,0.0,0.818878373802,-0.573826400504,-0.011925514933,0.0,-0.00756264476723,0.0099885482791,-0.999921514574,0.0,0.474326945214,0.014999070032,0.304705432728,1.0,-0.12998,-0.170830857143,3.042
0.154852306818,-0.195032215177,-0.127950805819,-2.34891722231,-0.0173478793496,2.14834039599,-0.135345346154,-0.344741819628,-0.406732504952,0.000911937019202,-0.416373306269,-0.0642960378186,0.0210104119448,-0.299222372932,0.57381144992,0.818966032264,0.00397553013714,0.0,0.818942920538,-0.573738317391,-0.0117295762523,0.0,-0.00732535158761,0.00998648968837,-0.999923301683,0.0,0.472312143984,0.0123157124095,0.304783820696,1.0,-0.12998,-0.170830857143,3.058
0.148925798969,-0.201824175885,-0.128002976366,-2.35619012524,-0.0184591776642,2.14850427238,-0.140547627868,-0.34217772651,-0.39898011799,-0.00456206634203,-0.424895135664,-0.0634217428958,0.00210625693084,-0.297221439421,0.57379712983,0.818977016821,0.00377446928401,0.0,0.818950210912,-0.573723249177,-0.011955429837,0.0,-0.00762586830277,0.00995128533564,-0.999921405938,0.0,0.470028797242,0.00940198179668,0.304682711876,1.0,-0.12998,-0.170830857143,3.075
0.142955425345,-0.208647652017,-0.128127318215,-2.36330318779,-0.0194761461607,2.1486934436,-0.145816076708,-0.359762814806,-0.403074911608,-0.0098219321045,-0.413959377286,-0.0685348234579,0.00676319209865,-0.30365412024,0.573862318463,0.81893130737,0.00378155509965,0.0,0.818903714214,-0.573787256333,-0.0120680659854,0.0,-0.00771325743364,0.0100223308033,-0.999920026075,0.0,0.467789986118,0.0064768461963,0.304655129124,1.0,-0.12998,-0.170830857143,3.092
0.136856991161,-0.215480221918,-0.128237932668,-2.37008601784,-0.0204858133107,2.14894423463,-0.151115465119,-0.355594800703,-0.403276823079,0.00128363094747,-0.391410838835,-0.0623446520684,0.0159277590464,-0.31247476494,0.574000219638,0.818833474544,0.00402935764272,0.0,0.818809974762,-0.573925394608,-0.0118580586881,0.0,-0.00739736714407,0.010106001093,-0.999921570775,0.0,0.465663155059,0.00352694414797,0.304771507672,1.0,-0.12998,-0.170830857143,3.109
0.130885920729,-0.222202844534,-0.12821516182,-2.37695407544,-0.0215546171959,2.14909418989,-0.156508951216,-0.351676659031,-0.384838392145,0.00185561243543,-0.417744390866,-0.0688115657849,0.00813055199216,-0.321768555228,0.573816784025,0.81896201668,0.00403243188451,0.0,0.818938754124,-0.573742246311,-0.0118278777999,0.0,-0.00737314808451,0.0100895437996,-0.999921915848,0.0,0.463462781717,0.000717219886096,0.304776784172,1.0,-0.12998,-0.170830857143,3.126
0.125092651934,-0.228478283209,-0.128255263034,-2.38349507727,-0.0225695425522,2.14910198231,-0.161612625691,-0.36478438765,-0.388836927626,-0.00277358165597,-0.403059722919,-0.0604902544684,0.000884503850691,-0.328550612102,0.573802414642,0.818972809529,0.00388240975375,0.0,0.818946647576,-0.573727136843,-0.0120128171414,0.0,-0.00761087330549,0.0100726638647,-0.999920304849,0.0,0.461318692081,-0.00200907636526,0.304697754361,1.0,-0.12998,-0.170830857143,3.142
0.118483808207,-0.235565582988,-0.128309333746,-2.39064492775,-0.023655742061,2.14912970118,-0.167452313065,-0.368746589323,-0.398929072727,-0.00776816070972,-0.387971192148,-0.055829576933,0.000549853793608,-0.323129022297,0.573812020042,0.818965974863,0.00390443000083,0.0,0.818939807687,-0.573736271761,-0.0120427884201,0.0,-0.00762266760644,0.0101079845143,-0.999919858582,0.0,0.458965452096,-0.00508577595772,0.304702158475,1.0,-0.12998,-0.170830857143,3.16
0.112130225685,-0.24223179002,-0.128473263832,-2.39709663755,-0.0247234272031,2.14922228092,-0.173015369942,-0.375354742995,-0.39339637702,-0.0115540370158,-0.377622595262,-0.064456068173,0.00490486346358,-0.327553194475,0.573946197226,0.818870952275,0.00410768918501,0.0,0.81884877292,-0.573871532208,-0.0117855212071,0.0,-0.00729367551335,0.0101280263237,-0.999922109657,0.0,0.456842092382,-0.00807201454005,0.304819150595,1.0,-0.12998,-0.170830857143,3.177
0.105843769343,-0.248825990869,-0.128490040055,-2.40369208053,-0.0257218977978,2.14923335298,-0.178669156452,-0.367211080927,-0.388729043579,0.00301633081666,-0.386060020601,-0.0594710614612,0.000167198053566,-0.326095010072,0.573857736161,0.818932704383,0.00415586829495,0.0,0.818911077927,-0.57378282361,-0.0117755967813,0.0,-0.00725899523118,0.0101609995268,-0.999922027499,0.0,0.454631640568,-0.0109224473359,0.304819590947,1.0,-0.12998,-0.170830857143,3.194
0.0998264797761,-0.25491277226,-0.128516606807,-2.40991896568,-0.026665498334,2.14916823255,-0.184057099129,-0.376996250333,-0.3853758519,-0.00261370794865,-0.38137000891,-0.0680691444751,-0.00517953596658,-0.337885399271,0.57380466308,0.818970325791,0.00406952120151,0.0,0.818946654813,-0.573728779187,-0.011933624898,0.0,-0.00743862645633,0.0101804863945,-0.999920509107,0.0,0.452507386237,-0.0136285617911,0.304738168056,1.0,-0.12998,-0.170830857143,3.21
0.0933592566482,-0.261399896734,-0.128615850678,-2.41632267046,-0.0276697531018,2.14910568282,-0.189769153576,-0.386919317443,-0.380958356693,-0.0103218070927,-0.36880849173,-0.0522759899148,-0.00409255994434,-0.335720996381,0.57387496104,0.818920788954,0.0041252166542,0.0,0.818897831432,-0.573798853258,-0.0119148888644,0.0,-0.00739044789257,0.0102159840445,-0.999920504315,0.0,0.450307701961,-0.0165434988425,0.304742975422,1.0,-0.12998,-0.170830857143,3.227
0.0867652502765,-0.267896676595,-0.128772042429,-2.42246236628,-0.0286690128134,2.14902801868,-0.195625656716,-0.389435559979,-0.378423053569,-0.00792401889692,-0.347910133452,-0.0554717772939,-0.00174381518376,-0.35233201106,0.573979694965,0.818846280804,0.00433878817104,0.0,0.81882714545,-0.573904339057,-0.0116902688818,0.0,-0.00708262020024,0.0102628920921,-0.999922251746,0.0,0.44817652265,-0.019515961375,0.30485562362,1.0,-0.12998,-0.170830857143,3.244
0.0802350892574,-0.274287235806,-0.128788735444,-2.42870108406,-0.0296597152457,2.14888832263,-0.201489061144,-0.380687706135,-0.372926945087,-0.000689225774889,-0.371571777097,-0.0574823289172,-0.0106228423679,-0.348464102681,0.573913919228,0.818892205959,0.00437209753597,0.0,0.818873620162,-0.573838640212,-0.0116600215861,0.0,-0.00703955782657,0.0102722417962,-0.999922459831,0.0,0.445979619743,-0.0223668190574,0.30485976928,1.0,-0.12998,-0.170830857143,3.261
0.0736234581437,-0.280589982711,-0.128811946035,-2.43500894977,-0.0306973097309,2.14862858782,-0.207451798568,-0.389430095869,-0.370697658807,-0.00559744820842,-0.364817333135,-0.05978885072,-0.0190446636045,-0.347874205624,0.573811622522,0.818964705835,0.00421655744414,0.0,0.818943265198,-0.573735667631,-0.0118346514843,0.0,-0.00727311250113,0.0102441791236,-0.9999210762,0.0,0.443710474856,-0.0252298287288,0.304770378895,1.0,-0.12998,-0.170830857143,3.278
0.0672718623903,-0.286543141269,-0.128851516822,-2.44073697966,-0.0316361546968,2.14843134531,-0.213146980921,-0.403197730612,-0.377737665905,-0.00275748477887,-0.356708134639,-0.0593289196713,-0.00930641537884,-0.357614275927,0.57378542367,0.818982879914,0.00425169300069,0.0,0.818962145705,-0.573709708393,-0.0117864880067,0.0,-0.00721383322885,0.0102450878869,-0.999921496311,0.0,0.44163896435,-0.0279636986,0.304782066925,1.0,-0.12998,-0.170830857143,3.294
0.0604105757643,-0.292830989377,-0.129021758793,-2.44664836979,-0.0325221796069,2.14820175035,-0.219239627718,-0.412639346156,-0.365765669875,-0.00831163670649,-0.341561943425,-0.0541371263222,-0.0164126050235,-0.349864515772,0.573967709184,0.818854071843,0.00445249821405,0.0,0.818836007222,-0.573891403657,-0.0117045712018,0.0,-0.0070292206722,0.0103641113207,-0.999921584552,0.0,0.439469839238,-0.0309338074322,0.304840901562,1.0,-0.12998,-0.170830857143,3.311
0.0540106444779,-0.298713542568,-0.129052537428,-2.45211812757,-0.0333982797696,2.1479733556,-0.225037495567,-0.388450822087,-0.36237230809,-0.000609435578523,-0.3480861949,-0.0564155335178,-0.0208255211019,-0.367087628296,0.573918373554,0.818887822954,0.00460226198877,0.0,0.81887244323,-0.573842735317,-0.011540526143,0.0,-0.00680955282568,0.0103921855948,-0.999922813256,0.0,0.43744613363,-0.0336319396758,0.304912739546,1.0,-0.12998,-0.170830857143,3.327
0.0471169662917,-0.304861738937,-0.129066168605,-2.45808481821,-0.034426744328,2.14755426251,-0.231215203035,-0.414069507888,-0.362744129164,-0.00133182536973,-0.353970318927,-0.0626811038011,-0.0268364007928,-0.360375988932,0.573861664353,0.818928400764,0.00445101223983,0.0,0.81891047958,-0.573785620431,-0.0116805445925,0.0,-0.00701173788126,0.0103481965632,-0.999921872128,0.0,0.435180535218,-0.036506744501,0.30484767653,1.0,-0.12998,-0.170830857143,3.344
0.0405688120203,-0.310606315642,-0.129132856386,-2.4635650661,-0.0353413767184,2.14717874022,-0.237129044165,-0.41196303082,-0.364239551584,-0.0121885643596,-0.33592464616,-0.0562414006274,-0.022675297783,-0.377598884686,0.573835284432,0.818947024187,0.0044254736063,0.0,0.81892841883,-0.573758807562,-0.0117397818889,0.0,-0.00707524120362,0.0103610466646,-0.999921291739,0.0,0.432948811129,-0.03940409003,0.304821926509,1.0,-0.12998,-0.170830857143,3.361
0.0330635463847,-0.317048684444,-0.129292915283,-2.46954607419,-0.0362872150808,2.1467779612,-0.243870649978,-0.417603334582,-0.356284104986,-0.00156293723653,-0.329104478362,-0.0532940584179,-0.0243362794677,-0.379136964097,0.573967670832,0.8188535854,0.00454592324556,0.0,0.818836452026,-0.573890650303,-0.0117103898523,0.0,-0.00698036626307,0.0104439539281,-0.999921096044,0.0,0.430754043172,-0.0423568671829,0.304849776517,1.0,-0.12998,-0.170830857143,3.378
0.0260606357265,-0.323054513401,-0.129297139686,-2.47496775075,-0.0372220270365,2.14642103715,-0.250302638015,-0.411667831815,-0.350722003435,0.000427053007326,-0.314999559263,-0.0597403954146,-0.0234595549859,-0.379675268349,0.573832986374,0.818947222146,0.0046795288309,0.0,0.818933076349,-0.573757500987,-0.0114757755437,0.0,-0.00671326898686,0.0104176000636,-0.999923199865,0.0,0.428631008191,-0.0451990763185,0.304939787419,1.0,-0.12998,-0.170830857143,3.395
0.0192957183218,-0.328648610326,-0.129320929556,-2.48015977921,-0.0381116495526,2.1459944747,-0.256414657048,-0.425441007122,-0.349591940441,-0.00167022463644,-0.327369275473,-0.0525810037865,-0.0326855826358,-0.377572435671,0.573806465854,0.818965820896,0.00467662793853,0.0,0.818951780976,-0.573731215418,-0.0114551208453,0.0,-0.0066983539794,0.0104031554804,-0.999923450275,0.0,0.42655541013,-0.0479245667045,0.304940611564,1.0,-0.12998,-0.170830857143,3.411
0.0120584735378,-0.334527937423,-0.129427544105,-2.48575099383,-0.0390279736917,2.14540646869,-0.262998434406,-0.431063013765,-0.346463498278,-0.0101492490509,-0.326063199961,-0.0545583430327,-0.0311799542946,-0.386212259634,0.573815877362,0.81895979893,0.00457531687232,0.0,0.818943070783,-0.573738823692,-0.0116942680694,0.0,-0.00695223235844,0.0104574820805,-0.999921150658,0.0,0.424269922695,-0.0508329270176,0.304856437378,1.0,-0.12998,-0.170830857143,3.428
0.00469894452903,-0.34037793198,-0.129564687543,-2.4910670681,-0.0398703644868,2.14492937255,-0.269577567198,-0.431195591609,-0.34502238917,-0.00537259635919,-0.31261737615,-0.0489068885062,-0.0268238052432,-0.390550540965,0.573991585693,0.818835911775,0.00470702050671,0.0,0.818820842965,-0.573914015382,-0.011656627936,0.0,-0.00684357228469,0.0105452158801,-0.999920978848,0.0,0.422077121646,-0.0537820920134,0.304882290928,1.0,-0.12998,-0.170830857143,3.445
-0.00258418959242,-0.346139613174,-0.129565884767,-2.49630988136,-0.0407598780638,2.14437674148,-0.276323746201,-0.43374205244,-0.336790620955,0.000683702214497,-0.309577783615,-0.0561035631265,-0.0380898701364,-0.392712522804,0.573841244537,0.818941231733,0.00471507555242,0.0,0.818926318482,-0.573763752768,-0.0116442177777,0.0,-0.00683072211846,0.0105434348785,-0.999921085494,0.0,0.419883229469,-0.0566245680299,0.304889217793,1.0,-0.12998,-0.170830857143,3.462
-0.00959761313704,-0.351547821593,-0.129635263147,-2.50105219062,-0.0416398454166,2.14386227539,-0.282673705196,-0.439056978649,-0.341632729603,-0.0106929772036,-0.2902711862,-0.0516694745471,-0.0298046251753,-0.405056251198,0.573866209356,0.818923287533,0.00479268148551,0.0,0.818910405245,-0.573790088243,-0.0114642800421,0.0,-0.00663850058047,0.0105039419017,-0.999922795777,0.0,0.417855792336,-0.059383200862,0.304966001952,1.0,-0.12998,-0.170830857143,3.478
-0.0171030021773,-0.357210601766,-0.129788728479,-2.50617123185,-0.0425218689008,2.14324740168,-0.289538384613,-0.44950316464,-0.326095943023,-0.00903072611564,-0.303347438488,-0.0531223380967,-0.0376335088561,-0.396555077955,0.573920094562,0.81888536719,0.00481947728407,0.0,0.818872478505,-0.573843329634,-0.0115084265948,0.0,-0.00665858544449,0.0105516577404,-0.99992215985,0.0,0.41563136836,-0.0623234852817,0.304958965041,1.0,-0.12998,-0.170830857143,3.495
-0.0245891368627,-0.362811125809,-0.129843390332,-2.51132729422,-0.0433798197396,2.14256621874,-0.296465434474,-0.433453461808,-0.328802755694,-0.00109167340152,-0.301514354486,-0.0517712999598,-0.0394300483401,-0.411672471262,0.573838126804,0.818943190701,0.00475410684012,0.0,0.818928407854,-0.573759932311,-0.0116854518309,0.0,-0.00684213692075,0.0105990349991,-0.999920419643,0.0,0.413366911476,-0.0651794217021,0.304895379322,1.0,-0.12998,-0.170830857143,3.512
-0.0322014427914,-0.368368784368,-0.129862387549,-2.51623624538,-0.0442803229792,2.14196744244,-0.303404525071,-0.456692206332,-0.325361353579,-0.00152892045017,-0.287756435536,-0.0508328265181,-0.0325242254138,-0.408912305909,0.573809299939,0.818963283047,0.00477233972791,0.0,0.818949403293,-0.573732091961,-0.0115805181634,0.0,-0.00674610460223,0.0105535169806,-0.999921553599,0.0,0.411178638466,-0.0680686496888,0.304923626628,1.0,-0.12998,-0.170830857143,3.529
-0.0389849012636,-0.373139564655,-0.129908740742,-2.52050299936,-0.0450028290177,2.14135008699,-0.309608339387,-0.455549751006,-0.316056610008,-0.00776597090765,-0.283146846336,-0.0491919074222,-0.0438177531374,-0.40511665282,0.573827520799,0.81895055857,0.00476507010497,0.0,0.818936110077,-0.573749591893,-0.0116533392978,0.0,-0.00680968280653,0.0105894986549,-0.999920742228,0.0,0.409226782765,-0.0706240838833,0.304906744586,1.0,-0.12998,-0.170830857143,3.544
-0.0476780842654,-0.379153713557,-0.130061706905,-2.5257174049,-0.0458711531548,2.14060381514,-0.317536317968,-0.461342032431,-0.316048401993,-0.00552551868106,-0.266338384025,-0.0479383312854,-0.0352865265139,-0.422669674784,0.573972723822,0.818847979466,0.00490364503628,0.0,0.818835362774,-0.573894400236,-0.0116022820962,0.0,-0.0066864595597,0.010674876944,-0.999920665983,0.0,0.406792281178,-0.0739124587371,0.304950443013,1.0,-0.12998,-0.170830857143,3.563
-0.0549336778099,-0.384185067065,-0.130067635395,-2.53010989882,-0.0466685408083,2.13998140909,-0.324330530277,-0.458019764897,-0.309275199945,0.000911998923772,-0.277509603036,-0.0498863177084,-0.0453172017248,-0.428791007998,0.573819984387,0.818954941461,0.00491693755323,0.0,0.818942921694,-0.573742327116,-0.0115316947694,0.0,-0.00662301073426,0.0106440130484,-0.99992141727,0.0,0.404735331103,-0.0765891572658,0.304967101358,1.0,-0.12998,-0.170830857143,3.579
