nelsonifechukwu/NELSON_IML_WORK/CNN-GradCAM/train2dof/data_sample_2022-07-06-09-04-41/robot_state.csv
position_joint1,position_joint2,position_joint3,position_joint4,position_joint5,position_joint6,position_joint7,velocity_joint1,velocity_joint2,velocity_joint3,velocity_joint4,velocity_joint5,velocity_joint6,velocity_joint7,ee_T_00,ee_T_10,ee_T_20,ee_T_30,ee_T_01,ee_T_11,ee_T_21,ee_T_31,ee_T_02,ee_T_12,ee_T_22,ee_T_32,ee_T_03,ee_T_13,ee_T_23,ee_T_33,v_x,v_y,w_z,time
0.46509353274422927,0.5472778966014781,-0.12400070347392977,-1.355574923658775,0.07944134034439199,1.8941809746969687,0.1591294331879295,0.0011642497943990674,8.705214990238332e-05,0.0002073456380020137,-0.0013389187960523407,-4.459461433964532e-05,-0.0031737868390846217,-0.0005307081718521061,0.5737434544114536,0.8190190961095187,0.002629758385749849,0.0,0.8189857149023784,-0.5736833879712928,-0.011424362250367703,0.0,-0.00784827324722115,0.008708555280222824,-0.9999312804747976,0.0,0.6617664894119089,0.26092986939070806,0.30370108169377014,1.0,5e-324,6.9257698625524e-310,6.9255576629734e-310,0.0
0.4650935326682283,0.5472726329313258,-0.12399883890034503,-1.3555717882157143,0.07944217055041754,1.8941816867193333,0.159130246828222,-0.0009211105920706845,0.0010948955617533897,-0.0009244135906815864,-0.0004346776096821959,-0.00010135840809330497,-0.00045072109711054726,0.0007987881710022942,0.5737521864793869,0.8190129816690681,0.0026289292257407346,0.0,0.8189796054992411,-0.5736921390809022,-0.01142288204853012,0.0,-0.007847443742422855,0.008707110610283675,-0.9999312995658902,0.0,0.6617686317146905,0.2609243568604072,0.30370090948887724,1.0,-0.00012,-0.00015771428571428574,-6e-05,0.007
0.46509069575710793,0.5472797585261006,-0.12399883978094474,-1.3555745899478224,0.0794414192060375,1.8941833143234252,0.15912556746602058,-0.004091777558943823,-0.00026278175643558747,0.0011117895096424918,0.00033345736468064707,-0.000276415396173306,0.0004680732555492135,-0.0017969621680518093,0.5737413313808845,0.8190205798748222,0.002630837890932454,0.0,0.8189872061209463,-0.5736812545658134,-0.01142459063640891,0.0,-0.007847863561727175,0.008709550102095287,-0.9999312750257068,0.0,0.6617672916609509,0.2609292578500521,0.30370006351407325,1.0,-0.00032000000000000013,-0.00042057142857142884,-0.00016000000000000007,0.017000000000000008
0.4650833037614755,0.5472670604875681,-0.12400213284473403,-1.3555780081889077,0.07944084390320531,1.894181273460388,0.15912616069947125,-0.00152061776590113,0.00016998084943837041,0.00035671150417490837,0.0007037385384970932,-0.0002172414032742657,-0.0001948374291182634,-0.0041700158115787825,0.573750166036624,0.8190143730264128,0.0026364086000870823,0.0,0.8189810865117977,-0.5736900874342437,-0.011419738037868126,0.0,-0.007840599064742493,0.008711413096806925,-0.9999313157853206,0.0,0.6617691513111577,0.26092198884497125,0.303707362764226,1.0,-0.0006400000000000005,-0.0008411428571428579,-0.00032000000000000024,0.03300000000000002
0.4650843577524918,0.547219582154038,-0.12399911437038848,-1.3556149021951114,0.07944049336181559,1.8941860228695944,0.15913573999206193,0.000498284389645591,-0.009416464244777057,0.0010625538450890783,-0.0042208503321006716,-0.0003847015215828217,0.00010599578556851045,0.0015316764011793246,0.5737568997385749,0.8190096050694935,0.0026521137794485667,0.0,0.8189764823927452,-0.5736967272348819,-0.011416363203719072,0.0,-0.007828752851035625,0.008722403905357626,-0.9999313127904883,0.0,0.6617619417824516,0.2609209415374147,0.3037237464833982,1.0,-0.0010000000000000007,-0.0013142857142857153,-0.0005000000000000003,0.05100000000000004
0.46508629536905877,0.5471096779324636,-0.1239992080151498,-1.355747484543338,0.07943738047892106,1.8942107438632632,0.15913645206888516,-0.0002401187367029333,-0.002950324991980865,0.0028401768969735248,-0.012886708509817596,0.0002647129547648678,0.006910973286081425,-0.0011041652693325973,0.5737623498474237,0.8190057679682309,0.0026579754587612477,0.0,0.8189726523465527,-0.5737020816327266,-0.011422046223741112,0.0,-0.007829986437126235,0.008730517382246977,-0.9999312323248197,0.0,0.661739068552533,0.2609090448363296,0.3037406300296525,1.0,-0.0013200000000000009,-0.0017348571428571443,-0.0006600000000000004,0.06700000000000005
0.4650740529003243,0.546967932487975,-0.12399966248718515,-1.3559237161411113,0.0794344425366485,1.8942531357007135,0.15913165439716837,-3.410600876799411e-05,-0.009551094716744767,-0.0015802080066334976,-0.010044769401105656,0.00040238917603942236,0.006353428376444805,-0.0005981482990884877,0.5737816735281007,0.8189921941150281,0.0026690828297942686,0.0,0.8189591491294081,-0.573721286529275,-0.0114256002747114,0.0,-0.007826318483987404,0.00874183815740491,-0.9999311621329826,0.0,0.661714061276815,0.2608778095182104,0.3037613772158581,1.0,-0.0016600000000000013,-0.0021817142857142877,-0.0008300000000000007,0.08400000000000006
0.46505176607135895,0.5467951799907432,-0.1240052796518873,-1.3561394373189866,0.07943175992118366,1.8943482791220048,0.1591254383177094,0.0004292677763173808,-0.009712445357137688,0.0001901369664750157,-0.010270515312955064,0.0001710352573026891,0.003722413908015538,0.0008375390655091885,0.5738108904537567,0.8189715340589624,0.002726774465376132,0.0,0.8189391942068831,-0.5737502743271884,-0.011400254491262113,0.0,-0.007772145949727416,0.008774821606996885,-0.999931295766415,0.0,0.6616953478041898,0.2608477666947702,0.30379295285022656,1.0,-0.0020000000000000013,-0.0026285714285714306,-0.0010000000000000007,0.10100000000000008
0.4650211185411882,0.5466006032239378,-0.12399674281472592,-1.3563564102450067,0.07942540643861946,1.8944724741275547,0.15912920001335876,-0.0015129710521819269,-0.012775345663569183,0.0004355273522788818,-0.008519644166475548,4.1634104314577546e-05,0.01141285225606159,0.0016635183603582592,0.5738389276854118,0.8189516048030563,0.002810865447520427,0.0,0.8189203000668505,-0.5737779938083987,-0.011362343985160488,0.0,-0.007692545208960733,0.008822199918854842,-0.9999314944218928,0.0,0.6616821787734326,0.26081758422628626,0.30383399634860786,1.0,-0.0023200000000000017,-0.00304914285714286,-0.0011600000000000009,0.11700000000000009
0.4649942475858078,0.5463768081995846,-0.12400211632475226,-1.3566467775289017,0.07941538648271738,1.894600998788544,0.15911622276480744,0.0002411672565200754,-0.013855243753086305,-0.00011197215456456567,-0.018323582610196114,-1.580872565059142e-06,0.0034324167948430956,-0.0007538686921066953,0.5738676943631931,0.8189312554144954,0.002866212260084334,0.0,0.8189006564212955,-0.5738065824443161,-0.01133436180621587,0.0,-0.00763755872844013,0.008851737601415693,-0.9999316548835253,0.0,0.661655919829038,0.26077227067521264,0.30386560244698696,1.0,-0.0026600000000000018,-0.003496000000000003,-0.0013300000000000009,0.1340000000000001
0.464958428560903,0.5461322539321897,-0.12400230090537119,-1.3570131933567569,0.07940244792656814,1.894738516824862,0.15910148404235733,0.00024133196169860835,-0.017198523600117414,-0.0006251421407349435,-0.025690105473397368,-0.0008400860483868145,0.012574535734541115,-0.001486528685777376,0.5739021465052903,0.8189070487715686,0.002884200074235041,0.0,0.8188766123789253,-0.5738408967871385,-0.011334274328621777,0.0,-0.007626792022686679,0.008866739064691681,-0.9999316041519045,0.0,0.6616158548690771,0.2607154224771033,0.3038762927482954,1.0,-0.0030000000000000022,-0.003942857142857146,-0.0015000000000000011,0.1510000000000001
0.4649207949030032,0.5458684768869301,-0.12400699268745384,-1.3574192812169812,0.07937649174775874,1.8948825096070467,0.1590958157613293,-0.0023962907440399353,-0.015136228572986573,0.0021169732676159176,-0.0331708297549252,-0.005377999610146393,0.008710922103333426,-0.0007684747961578686,0.5739473884927205,0.8188753438415183,0.002883295342130052,0.0,0.8188449231663345,-0.5738861676586983,-0.01133160517934817,0.0,-0.007624635571253702,0.008864887629567136,-0.9999316370131114,0.0,0.6615706999741398,0.2606486389365326,0.3038823803438514,1.0,-0.0033200000000000026,-0.004363428571428575,-0.0016600000000000013,0.16700000000000012
0.4648792552352516,0.5455694503396337,-0.12400486767922106,-1.3579149064845386,0.07933774552988623,1.895044938251802,0.15907664016523562,-0.002008168402845874,-0.014457443966762963,0.000892453926663957,-0.028602900638566988,-0.0015641139172585814,0.0023893444477401885,-0.0008256901746759526,0.5739815677400347,0.8188515052304904,0.00284941707383102,0.0,0.8188206836241575,-0.5739204845049589,-0.011345150332588556,0.0,-0.007654801977995118,0.008845239108732694,-0.9999315805352819,0.0,0.6615097460535222,0.2605722341642752,0.303872133938499,1.0,-0.0036600000000000027,-0.004810285714285718,-0.0018300000000000013,0.18400000000000014
0.4648220398598297,0.5452343872764515,-0.12400818348615418,-1.3584699888237874,0.07929282609411657,1.8952227967023088,0.1590114291600479,-0.0004710403292887762,-0.017218441838431523,-0.0003900670398141457,-0.034294883347432976,-0.003242598634945064,0.009289326468497248,-0.013212161975502252,0.5739963189849364,0.8188413129204163,0.0028065900520986104,0.0,0.818810009948699,-0.5739354438197496,-0.01135873392798845,0.0,-0.007690347158550048,0.008818105267327264,-0.9999315474471617,0.0,0.661444800846564,0.2604757760765192,0.303860583930523,1.0,-0.004000000000000003,-0.005257142857142861,-0.0020000000000000013,0.20100000000000015
0.46476629722105944,0.5448658988126885,-0.12401313959139265,-1.3590840763405827,0.07927198382401146,1.895428964098144,0.15891953118660873,-0.0003874633920990082,-0.019091987227098737,-0.0011313790504495565,-0.03584549448545852,-7.049447735604401e-05,0.010766053026781125,-0.0034279060546566153,0.5739988703571435,0.8188396126323501,0.0027807398357423564,0.0,0.8188078343280287,-0.5739379113110872,-0.011390842994185687,0.0,-0.007731450306065979,0.008815392297430807,-0.9999312544044252,0.0,0.6613714171389056,0.26037860345709907,0.3038471412463513,1.0,-0.004340000000000004,-0.005704000000000006,-0.002170000000000002,0.21800000000000017
0.4646977389242046,0.5444747595892764,-0.12400948362935717,-1.359786557676091,0.07924430347535764,1.8956583905344273,0.15892269968820724,-0.004413233260007865,-0.021039118377595062,-0.0005952689576922132,-0.040707513207976324,-0.0016989570906665932,0.012539564401606132,0.001008822554667884,0.5740868444129218,0.8187781467053837,0.002718170509613581,0.0,0.8187453845021703,-0.5740258702905462,-0.011447379384937971,0.0,-0.007812714304014146,0.008797448845084321,-0.9999307807988621,0.0,0.661284637519929,0.2602682245873306,0.3038093437279534,1.0,-0.004680000000000004,-0.006150857142857149,-0.002340000000000002,0.23500000000000018
0.4646439255262898,0.5440540867440575,-0.12401478746458204,-1.3604845224989532,0.079204409395929,1.8958790697322265,0.1588805416211724,-0.005497359645347833,-0.024163380192289186,-0.000918075773051432,-0.04445260150281515,-0.0029314280310042025,0.011314193951724717,-0.011477812101094137,0.5741282449214972,0.8187492762843629,0.002669806809796089,0.0,0.8187158451119482,-0.5740673713237336,-0.011478895647892274,0.0,-0.007865839968807742,0.008776340322276505,-0.9999305497944009,0.0,0.6611967342589931,0.2601607624011108,0.30379407770250844,1.0,-0.005000000000000004,-0.006571428571428577,-0.002500000000000002,0.25100000000000017
0.4645770811314028,0.5435903792491799,-0.12401764846708556,-1.361248037956348,0.07916772519651749,1.8961511760512588,0.15883933842668452,-0.0046725008199830186,-0.03026302553719332,-0.0002493053554757764,-0.04759675280569306,-0.001882891768456888,0.016417864158423674,-0.007924803806319752,0.5741840267575499,0.8187102241105427,0.00264938758178082,0.0,0.8186764483208154,-0.5741231229391656,-0.01150041619261365,0.0,-0.007894585641328389,0.008772515392645702,-0.9999303568205326,0.0,0.661107707263067,0.2600429000266879,0.3037824173121751,1.0,-0.005340000000000004,-0.00701828571428572,-0.002670000000000002,0.2680000000000002
0.4645017646850494,0.5430795662518647,-0.12401271296055243,-1.3620651043994412,0.07912233477527168,1.8964402396922209,0.15874634108364666,-0.0093524415497939,-0.03311826130600118,0.0005744253334538243,-0.04276883625681656,-0.0005259554642279168,0.01752669668838419,-0.0021103985021159915,0.574199457565578,0.8186994392719875,0.0026377961137546025,0.0,0.8186654351099851,-0.5741385028625585,-0.011516587520915337,0.0,-0.007914315809196604,0.008772459707747829,-0.9999302013420477,0.0,0.6610117711647261,0.2599179631131631,0.30377974284236925,1.0,-0.005680000000000004,-0.007465142857142863,-0.002840000000000002,0.2850000000000002
0.46443548012097124,0.5425461184997045,-0.12402404658855334,-1.3629406914064135,0.07906713342600385,1.8967387268183973,0.1587097267602745,-0.0053514463645257275,-0.03397076955205725,-0.0010633550127869618,-0.05143044382784852,-0.0026195339597297708,0.015615403807709245,-0.006160841148528627,0.5742655946391108,0.818653184720387,0.002595546602293222,0.0,0.8186186712624831,-0.5742048132665359,-0.011534746776473426,0.0,-0.007952734946200524,0.008748939571570066,-0.9999301025888002,0.0,0.6609066459548992,0.25978197918440465,0.30376649952789697,1.0,-0.0060200000000000045,-0.007912000000000008,-0.0030100000000000023,0.3020000000000002
0.4643562212082611,0.5419727792350547,-0.12402436447267365,-1.3638501243009893,0.07900996683656644,1.8970625722551324,0.15862435780287773,-0.004528599610413171,-0.03402804052799194,0.001785092992465885,-0.05283791380094896,-0.0029868985325909652,0.018244883240775226,-0.006023017502654698,0.5742960652494837,0.8186318482800227,0.0025832773375897705,0.0,0.8185971752557804,-0.5742353203294456,-0.011541596536208787,0.0,-0.007965062767228637,0.008743125341151,-0.9999300553210625,0.0,0.6608006460108614,0.25964171945858394,0.30376713097452523,1.0,-0.0063600000000000045,-0.00835885714285715,-0.0031800000000000023,0.31900000000000023
0.4642830892132864,0.5414061403202576,-0.12402426761711896,-1.3647293868204315,0.07895723676942658,1.8973810209915396,0.15857996953765147,-0.007964956806554848,-0.034747277497057215,0.0008625949668213583,-0.05954666361350791,-0.0015528739130458514,0.02518871519408522,-0.001538110173026457,0.5743542316805887,0.8185910257734262,0.0025876582112846526,0.0,0.8185563962210083,-0.5742934503360119,-0.011541490720109323,0.0,-0.007961838855149783,0.008747216626103699,-0.9999300452148342,0.0,0.6606982709748219,0.25950960100672826,0.3037768387180701,1.0,-0.006680000000000005,-0.00877942857142858,-0.0033400000000000027,0.33500000000000024
0.4641914343174893,0.5407612581089482,-0.12402723300331134,-1.365709094422004,0.07889890033863031,1.8977372219591555,0.15850451132727475,-0.0019307237451886348,-0.03616183671133891,0.0002628521045534878,-0.05700494159495233,-0.0031863152367946944,0.022532580197276397,-0.0073514030310391845,0.5744082606653161,0.8185530582815964,0.002605332704300193,0.0,0.8185186546554043,-0.5743474104481469,-0.011533039227507123,0.0,-0.007944191389188726,0.008757355029132247,-0.9999300968348066,0.0,0.6605879864284067,0.2593542363185751,0.30379734225529065,1.0,-0.007020000000000005,-0.009226285714285723,-0.0035100000000000027,0.35200000000000026
0.4640937191832924,0.5400665861447376,-0.12403638046497077,-1.3667464775961478,0.07884722106313857,1.8981358973555902,0.1584022839295062,-0.009755186455282063,-0.046168237058444445,-0.000514068204906963,-0.06158598679387833,-0.003312202054845843,0.024371735965776957,-0.003822642903281496,0.5744546873469917,0.8185203134159917,0.002656240136926399,0.0,0.8184865354852545,-0.574393626553495,-0.011510860318743724,0.0,-0.007896297618737835,0.008786733624439144,-0.9999302184633334,0.0,0.6604766094261104,0.2591890567520415,0.30382939438607187,1.0,-0.007360000000000005,-0.009673142857142866,-0.0036800000000000027,0.36900000000000027
0.46400051930759306,0.5393615194897926,-0.12403611503562588,-1.3678700722549813,0.07877450156045494,1.898545561937033,0.15835523750734307,-0.008245885447329257,-0.041141001499115024,4.468094222552834e-08,-0.06245394960152295,-0.0059973785017474485,0.01954482781302922,-0.004345611078185555,0.5745350151061946,0.818463970447047,0.002644314313398852,0.0,0.8184300669104735,-0.5744740153692937,-0.011514258274280976,0.0,-0.007905067879456884,0.008779699928428086,-0.9999302109502383,0.0,0.6603454344453557,0.2590195803003642,0.30382825485621734,1.0,-0.007700000000000006,-0.01012000000000001,-0.003850000000000003,0.3860000000000003
0.4639003264542583,0.5386193935869459,-0.12404142903440545,-1.369011752301768,0.07871406571911262,1.898983926187131,0.15825002822279877,-0.00936354559220589,-0.04484369849023713,-0.00015292992981068624,-0.06371204132389621,-0.004023286277736039,0.02723108342023137,-0.004877646287899877,0.5745816566264288,0.818431113327451,0.0026794602489908217,0.0,0.8183976329643676,-0.574520501098497,-0.011500220739639713,0.0,-0.007872885195967516,0.008800849253168097,-0.9999302789350437,0.0,0.6602189570788077,0.258844528434331,0.30384727418990753,1.0,-0.008040000000000005,-0.010566857142857152,-0.004020000000000003,0.4030000000000003
0.46379676021640787,0.53784934764296,-0.12404676498141506,-1.37021473950744,0.07864456246730842,1.899449557870281,0.1581599032993635,-0.008026763621656668,-0.046151200182126706,0.0005004387399351027,-0.06961203328020713,-0.0023840123015951486,0.035659755542077544,-0.008822613247633988,0.5746443373225328,0.8183870184662515,0.0027056404555420672,0.0,0.8183538957042732,-0.57458311060023,-0.011484654971375217,0.0,-0.007844428260578518,0.00881393304809551,-0.9999303873417829,0.0,0.6600856170455218,0.25866072175711613,0.3038590616671181,1.0,-0.008380000000000007,-0.011013714285714297,-0.004190000000000004,0.4200000000000003
0.46370051059237344,0.537055927124395,-0.12405779799334467,-1.3714640164889051,0.07855918779826707,1.899919391703396,0.15808639176704264,-0.0025422428670296275,-0.046229939392831494,-0.0007555225067131613,-0.07358822222200555,-0.004463939900694314,0.026145246786574955,-0.002952418246718014,0.5747167436880826,0.818336166532747,0.0027073917823576543,0.0,0.818303202839786,-0.5746556557207582,-0.011467016678354019,0.0,-0.00782820718739391,0.008805923393359005,-0.999930585033492,0.0,0.6599430435585376,0.25847098678499564,0.3038657079245414,1.0,-0.008720000000000007,-0.01146057142857144,-0.004360000000000004,0.43700000000000033
0.46358085912982183,0.5362237267528034,-0.12405886389935966,-1.3727950582192445,0.07849445947836521,1.9004019950858952,0.15797697687743234,-0.008195400484961557,-0.04537037237384255,-0.0003954782775439256,-0.08221158004197127,-0.0008854753523867854,0.02253367428050996,-0.005968699493062444,0.5747817814159475,0.8182905092441721,0.002700580387961125,0.0,0.8182573107985622,-0.5747205423686226,-0.011489926258683253,0.0,-0.007850169724210099,0.008814139628653225,-0.9999303404627282,0.0,0.6597874250133204,0.2582666114372079,0.3038614895050943,1.0,-0.009060000000000007,-0.011907428571428583,-0.004530000000000004,0.45400000000000035
0.4634743661102411,0.5354042129322477,-0.12406731709072177,-1.3740644078407391,0.07840969166451928,1.9008588772476194,0.1578846590582371,-0.0058760813877261064,-0.05369897748931991,0.0011024130511080987,-0.0858473141131629,-0.002216104082327102,0.03446220224259855,-0.005563038609902828,0.5748430826320332,0.8182474543231749,0.002698285558146163,0.0,0.8182142724290613,-0.5747818952503171,-0.011485825483766154,0.0,-0.00784747286402454,0.008810492711712678,-0.9999303937713991,0.0,0.6596278890840817,0.2580593876637345,0.3038730532061911,1.0,-0.009400000000000007,-0.012354285714285726,-0.004700000000000004,0.47100000000000036
0.46335180434539314,0.5344593838241924,-0.12406586483326394,-1.3755652039031747,0.07834860092213967,1.9014024429644054,0.15778817684136492,-0.010032860013066264,-0.053422605587789745,0.0006898071508251869,-0.08601340031664666,-0.007014844237917133,0.025705515515997947,-0.005793013590587989,0.5749325120972422,0.8181846012318434,0.002704023271336408,0.0,0.8181512543959462,-0.5748710264533461,-0.011514112038028457,0.0,-0.007866355984555096,0.008832307439240211,-0.9999300529481165,0.0,0.6594591749525855,0.25785007338239424,0.30387484276267007,1.0,-0.009740000000000007,-0.012801142857142869,-0.004870000000000004,0.4880000000000004
0.46322588317549207,0.5336085865110826,-0.1240697082587248,-1.3769493111971614,0.07825669295425007,1.901912864102128,0.1576941638535552,-0.007750155230597548,-0.052348642592973386,0.0013896590808385833,-0.08318135514748543,-0.005821554961151118,0.03462304523058634,-0.011319538132986836,0.5750125165320759,0.8181284668106572,0.0026766633521811386,0.0,0.8180948384881679,-0.5749511914810668,-0.011519963312810348,0.0,-0.007886010969442747,0.008814057265561379,-0.9999300591668947,0.0,0.6593000552456849,0.2576314554475567,0.3038604640271454,1.0,-0.010060000000000006,-0.013221714285714297,-0.005030000000000003,0.5040000000000003
0.46310319899967084,0.5326799120322884,-0.12407232343070154,-1.378437844468926,0.0781769169638009,1.9024701897378609,0.1575648107289784,-0.011051282275954408,-0.05235554238613427,-0.0009509499258646024,-0.09085491199987267,-0.0038350610391026845,0.025907110147565256,-0.005159332254566686,0.5750689786231369,0.8180887780168417,0.002677313851835118,0.0,0.8180550796617629,-0.575007556703688,-0.011530102967891469,0.0,-0.007893324121887091,0.008820964564409672,-0.9999299405550673,0.0,0.6591259063001269,0.257409462276226,0.3038551840197214,1.0,-0.010400000000000006,-0.01366857142857144,-0.005200000000000003,0.5210000000000004
0.4629699206963883,0.5317052624220685,-0.12407195752022553,-1.3799676391100297,0.07809589850892758,1.903053868689856,0.1574600650393885,-0.004946479804930759,-0.06142570317007674,-0.002176257817938723,-0.08712867626617002,-0.005040319191288813,0.03521892876370229,-0.0075736238472580986,0.5751539267079809,0.818028964843555,0.0027055813756729895,0.0,0.8179955489646707,-0.5750923080635371,-0.011526750684780686,0.0,-0.007873408480202737,0.008842979695959374,-0.9999299031177139,0.0,0.6589503344400026,0.2571795251151906,0.3038646619848345,1.0,-0.010740000000000008,-0.014115428571428584,-0.005370000000000004,0.5380000000000004
0.46284865962410465,0.5307866271905071,-0.12407233230399765,-1.3814638859484025,0.07799353954135982,1.903587975878522,0.1573632709201144,-0.006743704181752954,-0.06024278959576851,-0.0007242105272413292,-0.09522318363037033,-5.9405369186127095e-05,0.036257725489010406,-0.010701543104213321,0.5752281244248734,0.8179769410158569,0.0026600259758476075,0.0,0.8179429956501028,-0.5751667137107926,-0.011543578616321862,0.0,-0.007912575067630767,0.008816110429254814,-0.9999298312145198,0.0,0.658769073501356,0.25695356955984056,0.3038461134896578,1.0,-0.011060000000000007,-0.014536000000000012,-0.005530000000000004,0.5540000000000004
0.46270538095243635,0.5297803407539936,-0.12407631921906258,-1.3830984618038322,0.07788645684337217,1.9041736844725166,0.15723854979940183,-0.011625686030622985,-0.05796099181078625,0.001336528160294903,-0.09582932264536993,-0.007123534450308305,0.03528227073614111,-0.010378306878052296,0.5753061157282112,0.8179222299465922,0.002616460609359241,0.0,0.8178877652531492,-0.5752448901230822,-0.011561433202708702,0.0,-0.00795140071989947,0.008791503612450818,-0.9999297398771696,0.0,0.6585744528784578,0.25669850315693565,0.3038278725396744,1.0,-0.011400000000000007,-0.014982857142857155,-0.005700000000000004,0.5710000000000004
0.4625639420281834,0.5287235102292444,-0.12408263582675139,-1.3847622724611475,0.07778558749199226,1.9047820464980756,0.15712604530970922,-0.012112723950833758,-0.06415228137577833,-0.002730791009547129,-0.09804308595184687,-0.005969666822966583,0.037084570455771224,-0.009594811753026573,0.5753973189819169,0.8178580787830922,0.002614417499110619,0.0,0.8178235957881105,-0.575336097856177,-0.011562334411396927,0.0,-0.007952332952899488,0.008791237800074028,-0.9999297348006752,0.0,0.6583780893669641,0.25644304355166125,0.30383312364034615,1.0,-0.011740000000000009,-0.0154297142857143,-0.0058700000000000046,0.5880000000000004
0.46242478483047905,0.527616218998199,-0.12409049061974835,-1.386497534299499,0.07767638412143255,1.905435609300425,0.15701409128398505,-0.011293215501908097,-0.06433475088609414,-0.000815034383086553,-0.10451384207796778,-0.004198375948066663,0.032852579529423276,-0.0036534207687570147,0.5754897044003455,0.8177930251410988,0.0026296503533907974,0.0,0.8177588116363632,-0.5754285008661495,-0.011546137156075512,0.0,-0.007929327337029834,0.00879527214316718,-0.9999298820196894,0.0,0.6581750887402329,0.2561821130986213,0.3038435963908442,1.0,-0.01208000000000001,-0.015876571428571445,-0.006040000000000005,0.6050000000000004
0.4622827506050289,0.5264947059201753,-0.124098851382132,-1.3882508124311703,0.07757086484925037,1.9061128269136651,0.15688375323986814,-0.0072115511564878314,-0.06576146345485587,-0.0014238351740287504,-0.10077624842347224,-0.0034361998111898124,0.03839346319176018,-0.007424212908731003,0.5755716309935464,0.81773525560175,0.0026638773579398143,0.0,0.8177015395794207,-0.5755103648666672,-0.011522109255212153,0.0,-0.007889097816233925,0.008810225457487525,-0.9999300685863157,0.0,0.6579730907074625,0.25591925529680726,0.30385730420366325,1.0,-0.01242000000000001,-0.016323428571428586,-0.006210000000000005,0.6220000000000004
0.46213907308202257,0.5254062081147739,-0.12410315583457121,-1.3899608869768887,0.07746652462486239,1.9067381249893598,0.1567528513866809,-0.009093614323408272,-0.06572278410823378,-0.0012134100571971759,-0.11264982076622548,-0.005268116249072991,0.03480678831939791,-0.007104274661694715,0.5756491224040645,0.8176807057547664,0.0026642471780081887,0.0,0.8176469946175218,-0.5755878454962995,-0.011522639067093554,0.0,-0.007888483229226029,0.00881158041499612,-0.9999300614957688,0.0,0.6577688927678322,0.2556590946796339,0.303863427617052,1.0,-0.01274000000000001,-0.016744000000000016,-0.006370000000000005,0.6380000000000005
0.461984810284427,0.5242381517477399,-0.12410082505413886,-1.3918033136714003,0.07734416630568085,1.9074019186500297,0.15661429988645992,-0.008424860490278003,-0.06969621038524071,0.0003444262562195798,-0.1051698265376098,-0.01086133867588238,0.04488174761805247,-0.012100315643540069,0.5757262553489628,0.8176264490314774,0.0026487067119251454,0.0,0.8175925736549972,-0.575665060951246,-0.011526838482626135,0.0,-0.007900032206447194,0.008802035959542653,-0.9999300543808571,0.0,0.6575450413968932,0.25538092420074876,0.30386532987170556,1.0,-0.01308000000000001,-0.01719085714285716,-0.006540000000000005,0.6550000000000005
0.46182863257304946,0.5230563859090223,-0.12410191298159554,-1.3936965053626684,0.07722458987601627,1.9080927286616527,0.15647600441233314,-0.005952087778618113,-0.06787836320646361,0.000671187729957842,-0.11089588968587896,-0.011023330730403503,0.04626736873673496,-0.01005871453551423,0.5758109151976378,0.8175669027283459,0.00262610046381902,0.0,0.8175327458344557,-0.5757497971539518,-0.011538087656390361,0.0,-0.00792133428952524,0.008790849187167646,-0.9999299842657193,0.0,0.6573155290824703,0.255095973060931,0.3038548772328854,1.0,-0.01342000000000001,-0.0176377142857143,-0.006710000000000005,0.6720000000000005
0.461672595685277,0.5218162199889508,-0.12410429529870011,-1.3956537000223217,0.07710897805641459,1.9088466831387791,0.15634284697225292,-0.006285840940045468,-0.07534597313461051,-5.278289481658191e-05,-0.11113557979089923,-0.006963796701179136,0.04813132561568726,-0.0033707831487537684,0.5759050516986632,0.8175005005179222,0.0026551802415606847,0.0,0.817466723933945,-0.5758438304689001,-0.011523240551882162,0.0,-0.007891437692495895,0.008806983501013999,-0.999930078681884,0.0,0.6570845061266732,0.25480845174734656,0.3038602075200859,1.0,-0.01376000000000001,-0.018084571428571446,-0.006880000000000005,0.6890000000000005
0.46150368573685413,0.5205872741266232,-0.12410724460989932,-1.3976532589934112,0.07698476763884944,1.9096244450404722,0.1561856743562026,-0.008898592808470716,-0.07352679451287276,-2.250450820047377e-05,-0.115524803537938,-0.00637170966893353,0.04779338448119719,-0.014104753709199516,0.5759902458317079,0.8174404801037918,0.0026542599005146845,0.0,0.8174067515420438,-0.575929083873701,-0.011516934622179566,0.0,-0.007885894921926206,0.008803421460428007,-0.9999301537766876,0.0,0.6568511713122933,0.2545072388764322,0.3038392523071759,1.0,-0.01410000000000001,-0.018531428571428588,-0.007050000000000005,0.7060000000000005
0.46134471388216197,0.5192740986126737,-0.12411539159555247,-1.3997051078822023,0.07685343293545648,1.9103669524269329,0.1560439754396341,-0.007877685554477456,-0.07575598545330049,-0.00043293502316743717,-0.11957261885789573,-0.008824403418902116,0.040568564285055314,-0.009664025924953155,0.576083713513103,0.817374623921333,0.0026506783322794783,0.0,0.8173408987444459,-0.5760226071017952,-0.011513394307525501,0.0,-0.007884057491161611,0.00879935617308128,-0.9999302040484703,0.0,0.656598984388794,0.254200971629308,0.3038492417834802,1.0,-0.01444000000000001,-0.018978285714285732,-0.007220000000000005,0.7230000000000005
0.4611702914690143,0.5180097131303073,-0.12412233602581775,-1.4016723771826602,0.07672325426816208,1.91107417801381,0.15589009948168045,-0.008404492689959318,-0.07843441464738996,-0.0005806853393551014,-0.12219325347800024,-0.01229123493155604,0.04598361734969967,-0.008806430761162835,0.5761744564245221,0.8173106752287911,0.0026462845977534167,0.0,0.817276965222272,-0.5761134333971865,-0.011507427062000876,0.0,-0.007880734605394013,0.008793202273851594,-0.9999302843777912,0.0,0.6563613380363322,0.2538925100515881,0.30386175278069183,1.0,-0.014760000000000011,-0.019398857142857162,-0.0073800000000000055,0.7390000000000005
0.46099204309124203,0.5166580598564707,-0.12413096399432669,-1.4037974440409848,0.07658468551108424,1.9118366555164348,0.1557423527696132,-0.013830092651640888,-0.07661952386581904,-0.0014967773425319862,-0.12594170255815912,-0.0040717311233590065,0.04537961038582513,-0.005519290900810166,0.5762803316068066,0.8172360838209496,0.0026286128195644257,0.0,0.817202207311365,-0.5762194222704888,-0.011509850776849682,0.0,-0.007891759554800315,0.00878117788562817,-0.9999303030942056,0.0,0.6561007684693582,0.25356542518955816,0.30386485983406064,1.0,-0.015100000000000011,-0.019845714285714303,-0.0075500000000000055,0.7560000000000006
0.46080703318105126,0.5152815836162281,-0.12414126491808425,-1.4059373959876973,0.07645265166936803,1.9126601502206344,0.15556202822806106,-0.01116787382469741,-0.0809545750300411,0.00021420974987487742,-0.12853077911797822,-0.009176553806586546,0.05114857275946318,-0.00639814997578298,0.5763688882070968,0.8171734846400508,0.002673501329752465,0.0,0.8171402654181024,-0.5763079083970158,-0.011477292916817984,0.0,-0.007838330399774052,0.008799949570581542,-0.9999305583209762,0.0,0.6558504684053447,0.25323666631136715,0.3038832301560838,1.0,-0.015440000000000011,-0.020292571428571448,-0.0077200000000000055,0.7730000000000006
0.46062601603061076,0.5138908139456552,-0.12414473650869354,-1.4081699215847008,0.07631171834465429,1.9134811227129873,0.1553944562981977,-0.014162831489703147,-0.0837602057958032,0.003571892229669169,-0.13156329753863627,-0.009333197948031693,0.04409198663075632,-0.011706395688520933,0.5764617192237825,0.817108079417969,0.002649475541964749,0.0,0.8170745698633991,-0.5764008278886925,-0.011488245861727418,0.0,-0.00786012994795654,0.008787522236165093,-0.9999304964897062,0.0,0.6555751716848498,0.25290221572618055,0.30386671663903386,1.0,-0.015780000000000013,-0.020739428571428593,-0.007890000000000006,0.7900000000000006
0.4604446026721656,0.5125914863105114,-0.12414192306221751,-1.4103139085822005,0.07619587026261147,1.91422345881606,0.15522223696069595,-0.00868195368452423,-0.0739989447539355,0.0008076199790420124,-0.12851166052548602,-0.0012751269321677687,0.038036060493021454,-0.013509427620167033,0.5765483462442585,0.8170472130513274,0.0025696282372734977,0.0,0.8170124351297018,-0.5764874463418007,-0.01156079387208267,0.0,-0.007964509334777492,0.008764943564057215,-0.9999298687184894,0.0,0.6552992888905462,0.2525792832623931,0.3038209054847461,1.0,-0.016100000000000014,-0.021160000000000023,-0.008050000000000007,0.8060000000000006
0.46023323812732814,0.5110653809265385,-0.12414264046171104,-1.4127536641955485,0.0760429291049265,1.9151266660153743,0.15503849950929174,-0.009738134445921016,-0.08926869592907087,0.0010797367836995664,-0.13497009472805313,-0.009557413517428096,0.055757456122827016,-0.011821490706568545,0.5766576880365197,0.8169700904823964,0.0025551882061966066,0.0,0.816935131043476,-0.5765968291716819,-0.011568714593647304,0.0,-0.007978133994509196,0.008758779856850848,-0.999929814113663,0.0,0.6550005835052997,0.2522075077096537,0.30380671191575886,1.0,-0.016460000000000013,-0.02163314285714288,-0.008230000000000006,0.8240000000000006
0.4600478674882589,0.509691882014639,-0.1241433209288499,-1.4149497125931179,0.07590417988651701,1.9159606761383055,0.1548765688288766,-0.013955699986914507,-0.0855026523700244,0.0011258109601649763,-0.13872256335988398,-0.0019481853799036355,0.04784635849235007,-0.013196925559450678,0.5767544142551565,0.8169017975939391,0.0025584421413278567,0.0,0.8168669206718607,-0.5766935767247746,-0.011562844704769985,0.0,-0.00797042493067901,0.008758997116363368,-0.9999298736891201,0.0,0.6547338705815926,0.2518773400950508,0.3037952013766403,1.0,-0.016780000000000014,-0.02205371428571431,-0.008390000000000007,0.8400000000000006
0.4598519130467038,0.5082877749101707,-0.12415349696857236,-1.417182995736765,0.07576219806273263,1.9167556510132855,0.1546974387554738,-0.011550056127247056,-0.08201458299182421,-0.0014532765657757608,-0.14208686095582074,-0.0015638671960072703,0.053936078843524964,-0.005845700893766831,0.5768571285820876,0.8168293759206945,0.0025240321404761323,0.0,0.8167941113653028,-0.5767964581574366,-0.011574644582452935,0.0,-0.007998810913783405,0.008738699074466269,-0.9999298246189336,0.0,0.654440255544633,0.25150575238125283,0.30378553031499533,1.0,-0.017120000000000014,-0.02250057142857145,-0.008560000000000007,0.8570000000000007
0.45962730646062705,0.5066832909565145,-0.12414903603460692,-1.4196999810963409,0.07559699875243518,1.9176739508733633,0.1544937505445402,-0.013806027420099693,-0.08229568207704457,0.0014285814170153894,-0.13878648442124703,-0.013250690884148694,0.05719217592078658,-0.003800304046013192,0.5769562709013796,0.8167593523886068,0.0025236193306545406,0.0,0.8167240780746641,-0.5768955847309525,-0.011576334144738805,0.0,-0.00799936834232351,0.00874030752810133,-0.9999298061016275,0.0,0.6541611526074396,0.2511587250258695,0.303791403338354,1.0,-0.017440000000000015,-0.02292114285714288,-0.008720000000000007,0.8730000000000007
0.4594099060283134,0.5050773675560055,-0.12415850324607064,-1.4221564752208624,0.07545690734556881,1.9186052814165229,0.1543078493808324,-0.008510580014782084,-0.09003052147190198,0.0010082952396038394,-0.1445349488184654,-0.0077251822686361825,0.0649832239125165,-0.011120021519235197,0.5770736984631704,0.8166761782443193,0.0025910097451147312,0.0,0.8166417244314568,-0.5770127137058083,-0.011548551453924794,0.0,-0.007936534104257431,0.008780461016761207,-0.9999299550122223,0.0,0.653846996684087,0.2507638862109788,0.3038215086815829,1.0,-0.017800000000000014,-0.023394285714285736,-0.008900000000000007,0.8910000000000007
0.45919907263137905,0.5035242483282572,-0.12416219195879945,-1.4244965216423697,0.07529810883583199,1.9195029611865817,0.15412328207665396,-0.01868105296971791,-0.09172323078181109,0.0007387825283278316,-0.14295477323395528,-0.006118210099065602,0.05321806311407568,-0.008981916882044359,0.5771750200354999,0.8166043056295005,0.0026741682052737956,0.0,0.8165710890783484,-0.5771139309401006,-0.011485386257042285,0.0,-0.007835867009099606,0.008812896162343486,-0.9999304636070686,0.0,0.6535676834243346,0.250401966618904,0.30387050585118347,1.0,-0.018120000000000015,-0.023814857142857165,-0.009060000000000007,0.9070000000000007
0.4589636904887672,0.501848503958538,-0.12417565616218189,-1.4269872040065354,0.07513413324636979,1.9204322411837174,0.15391474598286667,-0.014338056546425896,-0.09275457746770185,-0.0005239202022675906,-0.14699462016820686,-0.011276460591157588,0.05329500962557329,-0.012502956529497889,0.5772895180725317,0.8165230732767905,0.0027622511502785867,0.0,0.8164911307535614,-0.5772282918712437,-0.01142275647054193,0.0,-0.007732643582775478,0.008849761528388234,-0.9999309415875242,0.0,0.6532693129055474,0.25000344806637853,0.3039358467645835,1.0,-0.018460000000000015,-0.02426171428571431,-0.009230000000000007,0.9240000000000007
0.4587572016792464,0.5002252235076092,-0.12417116250508735,-1.429414875496572,0.0749811093622283,1.921285849330497,0.15373941989716677,-0.013483525832437405,-0.09635943715176469,0.00013558920835549944,-0.14759641971163534,-0.012448057808458557,0.04553043086025726,-0.01270104255446788,0.5773999301691575,0.8164448512937346,0.002805768666848397,0.0,0.8164134211392784,-0.5773385000156046,-0.011407413580616758,0.0,-0.007693793940338589,0.008877477920045354,-0.9999309955794863,0.0,0.6529402903444137,0.24961164637802444,0.3039868292155234,1.0,-0.018800000000000015,-0.02470857142857145,-0.009400000000000007,0.9410000000000007
0.45849813101604026,0.4984574460731919,-0.12417455849418947,-1.4321718290550614,0.0748143428869665,1.9223165855263755,0.1535173175041112,-0.0151521380194046,-0.0905935940293161,0.00031847463276344674,-0.15683837641514037,-0.01377422081966437,0.060229473937701464,-0.015229895359439855,0.5775215702024886,0.8163587005607875,0.002838110421182838,0.0,0.8163276426775675,-0.5774599745507916,-0.011397565244085467,0.0,-0.007665753970148126,0.008899339105887402,-0.9999310166104196,0.0,0.652618380210059,0.24920606739603562,0.30399694318587595,1.0,-0.019140000000000015,-0.025155428571428596,-0.009570000000000007,0.9580000000000007
0.4582565520116104,0.4968785084716955,-0.1241689058294051,-1.4346720266087492,0.07465759923772447,1.9232307916834073,0.15331758485208474,-0.016514959203527343,-0.09454705574137971,0.0015652427259649348,-0.1597478980289232,-0.006414013160611163,0.05505286465341019,-0.012697131808464652,0.5776358712893999,0.8162778574567219,0.0028295806770378728,0.0,0.816246640891156,-0.5775742307065669,-0.011409476711503799,0.0,-0.007679158169597189,0.008900330102903045,-0.9999309049398691,0.0,0.652305680324654,0.24881281253376344,0.3039866112304165,1.0,-0.019460000000000015,-0.025576000000000026,-0.009730000000000008,0.9740000000000008
0.4579935691920429,0.49520775880389917,-0.12417414509483254,-1.4373845137013503,0.0744878637952965,1.9241676845102467,0.15309787525275886,-0.01630611303817434,-0.09538026662599347,-0.00048577585536666663,-0.157738714310584,-0.012321025055004728,0.05390833593789252,-0.014459561056677703,0.5777656132665451,0.8161863476871325,0.0027365812761280753,0.0,0.8161538418940716,-0.5777041430351815,-0.011470674903499426,0.0,-0.007781423730541914,0.008861003444143478,-0.9999304636136898,0.0,0.6519558500396817,0.24837494497648369,0.30394098343537734,1.0,-0.019800000000000016,-0.026022857142857167,-0.009900000000000008,0.9910000000000008
0.4577054129676257,0.4935285288379255,-0.12418001044362172,-1.4401403833325843,0.07431217468119015,1.9251501386232692,0.15287848714524008,-0.019606739475926928,-0.09909568288740644,-0.0026819068375719393,-0.15952785419922932,-0.015227231908131885,0.055036529863629294,-0.011904140930944357,0.5779167945979883,0.8160795971021548,0.002648889650323001,0.0,0.8160459330354936,-0.5778555590798826,-0.01152106409648829,0.0,-0.007871581288554086,0.008820001871573752,-0.9999301204459254,0.0,0.6516102335558441,0.24791751153717967,0.30388399359869306,1.0,-0.02247999999999998,-0.029545142857142832,-0.02120997374999984,1.0079999999999998
0.45745712491460794,0.4913544448765132,-0.12427585798161699,-1.44346669923941,0.07413158289740011,1.9263938098415307,0.1528086093026272,-0.010936572697230893,-0.13328221490058972,-0.009265613236097908,-0.2083676974828796,-0.0117187029722035,0.08409376171884807,-0.0017699571482463071,0.5782492275070258,0.8158438636026788,0.002714407963073564,0.0,0.8158112395144471,-0.5781879579062914,-0.011465326653099241,0.0,-0.0077846282752543905,0.008844431087878787,-0.99993058539148,0.0,0.6512003301396333,0.2473890271130956,0.3039243341133085,1.0,-0.02855142857142788,-0.037524734693876655,-0.04845848142856827,1.024999999999998
0.4571227702563817,0.4887855395070814,-0.12438082331437934,-1.4476538972832425,0.0739223159989591,1.9279301402937614,0.15293794728900406,-0.021080212340368536,-0.15558176547805033,-0.008716970693133761,-0.2624920517297456,-0.013416627077785537,0.08858863477547202,0.01781597768841745,0.5788558359332014,0.8154138297082126,0.0026371249247576743,0.0,0.8153801879723352,-0.5787947166008053,-0.011513991419168496,0.0,-0.007862465241685712,0.008815370267920564,-0.9999302330099651,0.0,0.6506723292488205,0.24671770122301093,0.303854260167989,1.0,-0.03462285714285578,-0.04550432653061047,-0.0757069891071367,1.041999999999996
0.45671234324058496,0.4857985048993829,-0.12450688019789984,-1.4523483496786442,0.07368163071517245,1.929707772232877,0.15352219556901855,-0.030359813996273285,-0.19816162039286409,-0.009506874987449766,-0.29774621430122555,-0.020837432499368713,0.11598962578137871,0.04983156892814411,0.579925630804155,0.8146531968797556,0.0026792631833265027,0.0,0.8146202799664565,-0.5798644451166363,-0.011479183688571898,0.0,-0.007798094367825303,0.008839825160244189,-0.9999305211940313,0.0,0.6501015657871272,0.2459412769050997,0.30385293194647783,1.0,-0.040337142857140865,-0.053014530612242296,-0.10135264339284818,1.0579999999999943
0.45626930238680297,0.4825813881917604,-0.12464049831043038,-1.457335905290323,0.07341300724142721,1.9315281808095226,0.15436398946978983,-0.028069272962036717,-0.2216817104197664,-0.010288617663836111,-0.3501125851374147,-0.025054792737320242,0.11753813416410064,0.05915180335698735,0.5812408691291711,0.81371525564779,0.0026984590465693545,0.0,0.8136828028124603,-0.5811797037552453,-0.011454049564781674,0.0,-0.007752194494294429,0.008853421900176003,-0.9999307578033493,0.0,0.6494807395078167,0.24510640324954527,0.303873388535235,1.0,-0.045694285714283134,-0.06005534693877214,-0.12539544428570268,1.0729999999999926
0.45566927221647563,0.4784616720712534,-0.12479915696784226,-1.4638392814205679,0.07306994807290762,1.9338556788355223,0.15565419665862598,-0.03339294102044206,-0.2505613665621221,-0.009232239331491893,-0.3953744392035488,-0.017222566966116466,0.14451399953081567,0.08010505779150778,0.5831168425862894,0.8123722041830413,0.0026261500703316336,0.0,0.8123389079415222,-0.583055772042114,-0.011498357880925734,0.0,-0.007809904744324969,0.00883838018888329,-0.9999304417925885,0.0,0.6486550804451523,0.24401017851248696,0.30384008381218164,1.0,-0.051765714285711195,-0.06803493877550616,-0.1526439519642718,1.0899999999999912
0.4547087965674708,0.47206743109123706,-0.12499167448241183,-1.4737548479999483,0.07250733963314138,1.9374938781694964,0.15788041323971708,-0.04635814962330456,-0.2844477065082231,-0.006746532276022427,-0.45103479451941325,-0.015714114852527845,0.15879699818337095,0.10122812670666198,0.5864657638169881,0.8099577446104522,0.002665842702505374,0.0,0.809925239570757,-0.5864044620603137,-0.011474322778029719,0.0,-0.007730603380395773,0.008888601894914902,-0.9999306128565764,0.0,0.6472811179884105,0.24218684937623908,0.30385851929770763,1.0,-0.06069428571428165,-0.0797696326530559,-0.19271528678569597,1.1149999999999884
0.453850382573176,0.46638490130791516,-0.1251286738585894,-1.4823449001375426,0.07202438773470318,1.9407318852540703,0.1601834872393326,-0.05059441612305229,-0.3152915442935852,-0.01226120140313907,-0.47910744420869755,-0.02919718061527035,0.18591390731942564,0.1283115801496879,0.5889316162586251,0.8081657475152033,0.0029022087113607688,0.0,0.8081366415382738,-0.5888697185533256,-0.011330051869916076,0.0,-0.007447680402721368,0.009018180589007746,-0.9999315998984546,0.0,0.6463926794481406,0.2409840586097186,0.3039736900923836,1.0,-0.0660514285714239,-0.08681044897958573,-0.21675808767855048,1.1299999999999868
0.45320053842658714,0.46234129417136527,-0.12519185993768994,-1.4886026835828725,0.07164519976880769,1.9429668848244062,0.16188201154765222,-0.05781025711901711,-0.3379744614442218,-0.002856700559781478,-0.5312818876495928,-0.030059524834216308,0.18774987116790334,0.14795295334611322,0.5914152972475256,0.8063499964759869,0.002894177949845118,0.0,0.8063209243610315,-0.5913532675411101,-0.01134137589680135,0.0,-0.007433779950232089,0.009041273509519193,-0.9999314947980074,0.0,0.6454355033330165,0.23976135687634417,0.3039817829593101,1.0,-0.07105142857142335,-0.09338187755101358,-0.239198035178548,1.1439999999999853
0.45226939968172725,0.4565689076970513,-0.12531234059914081,-1.4975985349643377,0.07107997744941555,1.9460578319972945,0.16440905884975607,-0.06025915974038526,-0.36485880508839885,-0.006519608184752645,-0.5745501816789819,-0.03487653679714137,0.2049923999767727,0.15760846119575345,0.5943645800423367,0.8041790776982342,0.0027393219457538583,0.0,0.8041482288848605,-0.5943028712204265,-0.011422352722073929,0.0,-0.0075577756902246995,0.00899203589432973,-0.9999310092786858,0.0,0.6442977879752104,0.23831318242378238,0.3039508289722352,1.0,-0.07640857142856562,-0.10042269387754342,-0.2632408360714025,1.1589999999999836
0.45138651125081636,0.45114228881513657,-0.12542475857205485,-1.5058153378015664,0.07056758449564089,1.9490911532000113,0.16688847946638108,-0.06158484295332746,-0.39622003591149163,-0.004327942989498727,-0.589421749988899,-0.03627653760610142,0.22974141980494034,0.18739611570667414,0.5973804585397818,0.8019407499082051,0.002892800144126688,0.0,0.8019123244238907,-0.5973184698985462,-0.011314431330847592,0.0,-0.007345722018344436,0.009078967062458768,-0.9999318040372092,0.0,0.6432340211327598,0.23690335584037467,0.30403256468264206,1.0,-0.08140857142856507,-0.10699412244897127,-0.28568078357140003,1.172999999999982
0.45000394646411307,0.4428776695529252,-0.125536940452783,-1.5183148461138887,0.06975837240187682,1.9537092435819412,0.170811775151201,-0.07313921116101302,-0.4060497770252379,-0.003538903552822661,-0.6431348682384934,-0.03759315381171894,0.23063345281814226,0.20447562677878747,0.6020445369923385,0.7984442938100124,0.0031356117616316214,0.0,0.7984196235811164,-0.6019821421409776,-0.011151328403229771,0.0,-0.0070162673316589985,0.009217307769527491,-0.999932904364194,0.0,0.6415918631946801,0.23476744833277574,0.3041484153768479,1.0,-0.08855142857142151,-0.11638187755101116,-0.3177378514285397,1.19299999999998
0.4487226916509028,0.4354386507007069,-0.12563762713822282,-1.529868752683368,0.06899621102155487,1.9576493315534802,0.17456351848897345,-0.0766866508581141,-0.440583621377685,-0.0030584854243697586,-0.683683047274699,-0.04208683734588421,0.2377833613158034,0.23422186262774597,0.6061578985777386,0.7953270121156147,0.0028797035050923316,0.0,0.7952993136679426,-0.6060959030987053,-0.0112918035527013,0.0,-0.007235439189016479,0.00913501801122947,-0.999932097627472,0.0,0.6400701661606432,0.23288899822486808,0.30405528545940624,1.0,-0.0942657142857066,-0.123892081632643,-0.3433835057142512,1.2089999999999783
0.44739151514143377,0.4279755790394018,-0.1257282545328959,-1.5411434231552252,0.06825208885747693,1.9617872271211387,0.17834934849000708,-0.08864171884050431,-0.47506365218125884,-0.009401022169333991,-0.7099493358939027,-0.05031397163058194,0.2606321529250845,0.24094934320127204,0.6108256957938374,0.7917468341674919,0.003109155019707945,0.0,0.7917226236561778,-0.6107632351831082,-0.011149199112478747,0.0,-0.006928518917744597,0.009271984189408472,-0.9999330107236172,0.0,0.6384636073313684,0.2308020360507896,0.3041562518353524,1.0,-0.10033714285713449,-0.1318716734693768,-0.3706320133928196,1.2259999999999764
0.44583176349191495,0.41969917174757043,-0.12587322144186588,-1.5538730073665048,0.06736080760063952,1.966123039423595,0.18281053457013183,-0.09274953197473666,-0.4858901346738091,-0.00907556824404952,-0.7717286686309918,-0.056399998922778465,0.2628568672502351,0.2692537789765255,0.6162729496039893,0.7875152028853049,0.002864212304293689,0.0,0.7874886266419695,-0.6162113246228974,-0.011225560887873838,0.0,-0.007075476026924321,0.009173720755800432,-0.9999328879912326,0.0,0.6365714733331774,0.2283506198329836,0.30408688368226555,1.0,-0.10676571428570522,-0.1403206530612126,-0.39948337446424503,1.2439999999999745
0.4441307327529987,0.41094312104828923,-0.12602121742879713,-1.5670166146358786,0.06643185693835818,1.9708874422198153,0.18748747965561258,-0.10442048877867612,-0.516373425550286,-0.004280161730905314,-0.7983577539183943,-0.05007338114005645,0.27489607219901036,0.27652186720607785,0.6213642254708236,0.7835034576730934,0.003094837727412725,0.0,0.7834807718093395,-0.6213026741181672,-0.011027884650487136,0.0,-0.006717684134709689,0.009277257471684161,-0.9999344004551851,0.0,0.6348890774865075,0.22607555629847068,0.30419313393395464,1.0,-0.1124799999999903,-0.14783085714284444,-0.4251290287499565,1.2599999999999727
0.44226448226729276,0.4019083556219136,-0.12615525574814077,-1.5809229840109564,0.06554748207261513,1.975576228301522,0.1925727168915486,-0.11132828571736826,-0.5340238103560073,-0.008120736423827653,-0.8471082829666006,-0.05305760098215137,0.2767047035418646,0.2982667572488424,0.6271983094866725,0.778841963093939,0.0028677521245047714,0.0,0.7788163156878342,-0.627136340334787,-0.011220692987785792,0.0,-0.006940808613606131,0.009271230317034182,-0.9999329324830729,0.0,0.632890205226934,0.2234888581261925,0.30408545433282985,1.0,-0.1185514285714182,-0.15581044897957827,-0.4523775364285249,1.2769999999999708
0.440232094003664,0.39231219500194464,-0.12632928772952773,-1.5951317659669206,0.0645416182310153,1.9806598390203634,0.1979983788902409,-0.12215058843310238,-0.5631905824824123,-0.008409425822140036,-0.8477074036604031,-0.06131735627502775,0.29731959450057466,0.3194226932721911,0.6333797885706575,0.7738222448958219,0.003150180278708322,0.0,0.7738011238455657,-0.6333176643851237,-0.011013792004564402,0.0,-0.006527778117241145,0.009413707534234053,-0.9999343829588581,0.0,0.6309205469903749,0.2207608153771351,0.304223769921258,1.0,-0.12462285714284611,-0.16379004081631207,-0.47962604410709336,1.293999999999969
0.4380938903485846,0.38246178834706557,-0.1264707071383521,-1.6100466737399566,0.06342648466941442,1.9855956146098463,0.2037048668352815,-0.1309197962618811,-0.5872235945056989,-0.013410590431484504,-0.8569337786975996,-0.06359217013467841,0.29493811745661774,0.34196964826720844,0.6397726653590957,0.7685462293899084,0.0028942790261311576,0.0,0.768522698726032,-0.6397113012656725,-0.011093217614603752,0.0,-0.006674276067969553,0.009321635999110803,-0.9999342784109707,0.0,0.6287216483944164,0.21789359625412674,0.30416069422334047,1.0,-0.13069428571427402,-0.1717696326530459,-0.5068745517856618,1.310999999999967
0.43581918794956886,0.3721739055550285,-0.1266260469011121,-1.6253375378824362,0.06230260181600304,1.9908981602095714,0.20972108045150467,-0.13569371782073575,-0.6017295896388449,-0.010617544747352414,-0.9093948058911461,-0.06293168848691755,0.3045073741625606,0.35284839741174573,0.6464679805799616,0.7629225365419673,0.00301665749546348,0.0,0.7629014137389019,-0.646406656518908,-0.010982450748317175,0.0,-0.00642889547300779,0.009401396031145245,-0.9999351394243841,0.0,0.6264980088787939,0.2149283410864973,0.30421700458099127,1.0,-0.13676571428570192,-0.1797492244897797,-0.5341230594642302,1.3279999999999652
0.4335041640104733,0.3621408552392614,-0.12677905894868036,-1.6402144718095968,0.061157306993246355,1.9959175318525508,0.21571771855947855,-0.14762035644118376,-0.6346500604345928,-0.015336961527784406,-0.9236851282368268,-0.07442249593773641,0.3343308098851696,0.37189465902793656,0.653088291286895,0.7572630456637405,0.0030183368347190542,0.0,0.7572429204743779,-0.653027442093472,-0.010911744383935312,0.0,-0.006292125146036942,0.00941212790699017,-0.9999359084508411,0.0,0.6242900963314157,0.21197549701507323,0.3042494463239737,1.0,-0.142479999999987,-0.18725942857141153,-0.5597687137499417,1.3439999999999634
0.4308845715549313,0.35125230027312737,-0.12692921190599848,-1.656578599450131,0.05989820214506398,2.0012837616714454,0.22241945470750432,-0.15770573935105411,-0.639827956585375,-0.0075409951775343665,-0.9681305266622936,-0.08138594342260007,0.31037005618703783,0.3932580609820263,0.6604156967701112,0.7508822970041925,0.0027623190555330756,0.0,0.7508598311001206,-0.6603554899104281,-0.01099490275833374,0.0,-0.006431889119106526,0.009335500522860682,-0.9999357375513425,0.0,0.6217905542644463,0.2086976063128038,0.30414548055642493,1.0,-0.14855142857141493,-0.19523902040814536,-0.5870172214285102,1.3609999999999616
0.4280522164450656,0.33984440606321686,-0.12710921963921634,-1.6731037951528167,0.05864083031388204,2.0068354022765296,0.22946056623921046,-0.16754280367065377,-0.6626358845476171,-0.013828433057767238,-0.9725996627339227,-0.07683283202544969,0.33029463266744025,0.4039166200971463,0.6680987077291782,0.7440536770558436,0.0029982147169219167,0.0,0.7440349226810834,-0.6680381242454657,-0.010855656901464597,0.0,-0.006074386649580099,0.009483609391374673,-0.9999365794787903,0.0,0.6192971253799686,0.20528728292707302,0.3042896025619875,1.0,-0.15462285714284282,-0.20321861224487917,-0.6142657291070786,1.3779999999999597
0.4251152271044503,0.32826753574784934,-0.1272134080965229,-1.6901944984311479,0.057291776686936094,2.0124158206679392,0.23681167042739718,-0.1755337686706498,-0.6933148538155628,-0.007448615398100009,-0.9832093978916041,-0.083557282253439,0.34084333942499934,0.43582813895098177,0.6759334690455392,0.7369438965608326,0.0028957981642458953,0.0,0.7369246227858308,-0.6758730122786896,-0.010886620527032115,0.0,-0.006065753507901728,0.009492798914665299,-0.9999365446882852,0.0,0.6166134247296903,0.20180519838741728,0.3042443330172371,1.0,-0.1606942857142708,-0.2111982040816131,-0.6415142367856473,1.394999999999958
0.42221298696732046,0.31697992441552486,-0.12725461576524108,-1.7066338605781541,0.05591039202670143,2.0177462889234326,0.24398030722021213,-0.193012574884255,-0.7066787922120729,-0.0009092558988989492,-1.0245620573979786,-0.07912788565536895,0.32642663129577637,0.44808366147861983,0.6834373728692795,0.7299902903791073,0.002877536962804233,0.0,0.7299717429836874,-0.6833772803591696,-0.010839466567627822,0.0,-0.005946376449656399,0.009508800300393694,-0.9999371096843872,0.0,0.6139846827642774,0.19845102252770808,0.30426095812334963,1.0,-0.1664085714285559,-0.2187084081632449,-0.6671598910713589,1.4109999999999563
0.4189742635393801,0.30465727265990095,-0.12735411342240607,-1.7244232676410278,0.05445200053339917,2.0234833172295907,0.2518724712008063,-0.18593415248179113,-0.7190081990058901,-0.009753827635307561,-1.0481509411365424,-0.09017470292482493,0.33528108745746693,0.47819568665656775,0.6916708436079728,0.7221935435352534,0.0029456204503884222,0.0,0.7221766278942969,-0.6916106406198309,-0.01078827168075288,0.0,-0.00575410849144703,0.009589375843616826,-0.9999374650978923,0.0,0.6111082594045878,0.19475734166186592,0.3043090155904543,1.0,-0.17247999999998379,-0.22668799999997874,-0.6944083987499273,1.4279999999999544
0.41542057548798544,0.29205701000780765,-0.12744757229467177,-1.7426264642543066,0.05290828644232134,2.0291175712348504,0.26011473463575185,-0.2150201489149911,-0.77029607071487,-0.0073439975824527515,-1.054672538644166,-0.08633071026646541,0.34044351121295774,0.4755610848316929,0.7002462741575758,0.7138824438175054,0.002785469222157138,0.0,0.7138644396124448,-0.7001863360706054,-0.010835291322318134,0.0,-0.005784888136774247,0.009576004170952446,-0.9999374156482809,0.0,0.6081019503114895,0.19084311802690576,0.304290236803053,1.0,-0.17855142857141168,-0.23466759183671257,-0.7216569064284957,1.4449999999999525
0.4117043506914103,0.2791649116373564,-0.1276010711675843,-1.7611872956617303,0.05137093995627848,2.0349014149379463,0.2687384796576824,-0.2210047490289072,-0.7545591317509088,-0.009662032440346028,-1.102188617499908,-0.10323232736629522,0.33112004988138843,0.511028278755214,0.7091333068564065,0.7050555678673711,0.0027103924669146682,0.0,0.7050373732892103,-0.7090732060457017,-0.010873713014822841,0.0,-0.005744815833842121,0.009622025307269091,-0.9999372048883977,0.0,0.6050074224950516,0.1868001265843824,0.3042603354135309,1.0,-0.1846228571428396,-0.24264718367344637,-0.7489054141070641,1.4619999999999507
0.40801356004686834,0.2666468455472629,-0.1277239561038682,-1.7788038734550033,0.04981608392517053,2.0404017142705095,0.27708012944443616,-0.23664233619733988,-0.7934346127267077,-0.006763285595041432,-1.1133146228873376,-0.1025537935397186,0.34672442357466476,0.5126648196381548,0.7176190145075034,0.6964161263928544,0.0028767722293230385,0.0,0.6964009612770141,-0.7175589829545043,-0.010749605339568601,0.0,-0.005422049147017438,0.009717695231747744,-0.9999380819742942,0.0,0.6020487124878907,0.1828977708686767,0.3043675055657822,1.0,-0.19033714285712483,-0.2501573877550784,-0.7745510683927763,1.4779999999999494
0.4037779139821956,0.25314651793337295,-0.12791101809557054,-1.7978507247060855,0.04810500744173157,2.046172120292108,0.28616726948494703,-0.2507050876918998,-0.8013975026614923,-0.009582015998641651,-1.1222834442928986,-0.10765762964896224,0.3483981807412459,0.5306761056826694,0.7268905743389165,0.6867333227264071,0.002860646010471075,0.0,0.6867190972369035,-0.7268309682109925,-0.010694486467894913,0.0,-0.0052651554880091544,0.009738369150516263,-0.999938719274324,0.0,0.598800283114727,0.1785208860305681,0.30440002815421974,1.0,-0.19640857142855275,-0.2581369795918122,-0.8017995760713448,1.4949999999999475
0.3993260947680821,0.23942792402514337,-0.12804553742283892,-1.8172524962964114,0.04631735597603942,2.05191813863905,0.29554276822070585,-0.2668956029351976,-0.8428585628782378,-0.010581978116645982,-1.1349546830392279,-0.10588859905787151,0.3253629014777689,0.5497448597185169,0.7362954720131749,0.6766405911875877,0.0026898236775595536,0.0,0.6766254561671643,-0.736236438420035,-0.010707273713097185,0.0,-0.005264731173282522,0.009703907155680258,-0.9999390565387407,0.0,0.5954060609381934,0.1740404353102412,0.304349066688439,1.0,-0.20247999999998065,-0.26611657142854606,-0.8290480837499132,1.5119999999999456
0.3947302567914934,0.2253582738223482,-0.12811675688081373,-1.8367609440658792,0.044556005321967684,2.0578425619498226,0.30527083895939694,-0.2799378708138228,-0.8399876457285623,-0.0021400630737987677,-1.1610779225502819,-0.10664866613832436,0.3397460871168169,0.5714460917865002,0.7458329304419979,0.6661121470050563,0.0029316176122955186,0.0,0.6661006725303833,-0.7457733499850626,-0.010618446583025706,0.0,-0.004886848050649262,0.009872529671700894,-0.9999393240962232,0.0,0.5919642157429853,0.16956089096883487,0.3044265087104388,1.0,-0.20855142857140854,-0.27409616326527986,-0.8562965914284816,1.5289999999999437
0.3898546628051107,0.2109872052843282,-0.1281976099877375,-1.8565893805702225,0.04260126531677996,2.063540789634825,0.3152584437822718,-0.2926661387038741,-0.8276810046639792,-0.007731417529542671,-1.1757257702960415,-0.11148435480226337,0.325399143937941,0.5780286621259618,0.7554963773452008,0.6551317215517647,0.002897953779432715,0.0,0.6551211490863822,-0.7554375540360967,-0.010541768016145285,0.0,-0.004717114332840444,0.009862968249694556,-0.9999402335588244,0.0,0.5883666861157574,0.1648903008170225,0.30446369426047937,1.0,-0.21462285714283644,-0.28207575510201366,-0.88354509910705,1.5459999999999419
0.384962833381988,0.19725649858876004,-0.12832878093330985,-1.87546492810785,0.04077760883464416,2.0688994954061215,0.3248261732276187,-0.3043060463913287,-0.8735942071723978,-0.012896210047748628,-1.1682881544287473,-0.12280975077303272,0.3429757916570009,0.6035911612569901,0.7647639050032906,0.644289268118191,0.002873237381686346,0.0,0.6442794064974919,-0.7647053006298413,-0.010516484824871528,0.0,-0.004578566606844359,0.009893986166469013,-0.999940571116886,0.0,0.584905494110322,0.16031503431805985,0.3044710810696206,1.0,-0.22033714285712153,-0.2895859591836455,-0.9091907533927616,1.56199999999994
0.37948796727790574,0.18245753311469604,-0.12849800014860005,-1.8957590020209054,0.038824628405539116,2.0744725721912576,0.3352375238427862,-0.33431846040182567,-0.8596065925492794,-0.012358839189949542,-1.1849472409994846,-0.10705445979011202,0.31840548200729807,0.6347836332895054,0.77536351315609,0.631493886227525,0.0027642403498292635,0.0,0.6314837020167497,-0.7753047665012138,-0.010564091486134462,0.0,-0.00452811764836103,0.009936775131079087,-0.9999403765478004,0.0,0.5808899909011165,0.15499998510222124,0.30444687300778195,1.0,-0.22676571428569234,-0.29803493877548143,-0.9380421144641873,1.5799999999999383
0.3736441514374339,0.16731697007419932,-0.128682962930339,-1.9162176746089477,0.036756681180831516,2.0800830411346167,0.3459998254670586,-0.3444627002396072,-0.8884091436520902,-0.013205342526452096,-1.2108348670752682,-0.1272404009530787,0.31598158775504653,0.6266316032647763,0.7849602040235261,0.6195246037485266,0.0027368505226804344,0.0,0.6195152518808816,-0.7849018916161584,-0.010517610258619135,0.0,-0.004367843270047911,0.009951617734843668,-0.9999409418808832,0.0,0.5772455986425269,0.1500988055180805,0.30444782870567055,1.0,-0.23247999999997743,-0.30554514285711326,-0.9636877687498987,1.5959999999999366
0.36764876459717377,0.15187574395615974,-0.12876921017514323,-1.9367494832957042,0.034625453158153116,2.085605496592416,0.3569561726017388,-0.3585661927551058,-0.8953029926928194,-0.00333548030052711,-1.213687030511752,-0.12926658740316316,0.31924729132343793,0.6330260732404998,0.7950542193548792,0.6065156346439584,0.0028844617605858673,0.0,0.6065091155460983,-0.7949961058956745,-0.010422632652608961,0.0,-0.004028431350473982,0.01003620364650247,-0.9999415214687409,0.0,0.5732763168740311,0.14491484279417033,0.3045383969384068,1.0,-0.23855142857140532,-0.31352473469384706,-0.9909362764284672,1.6129999999999347
0.3612993647922726,0.13619778597943064,-0.12883020638813902,-1.9574807078206846,0.03243382737050967,2.0910341575943585,0.3680620065236888,-0.3766140515492132,-0.9370205170477168,-0.005173568902489618,-1.204802368451857,-0.1295245327788697,0.3238154713465358,0.6453276546472366,0.8051709291824793,0.593019097529416,0.002978534207989941,0.0,0.5930147643492196,-0.805113032508684,-0.010355725455913836,0.0,-0.0037431583228997867,0.010104638394755297,-0.9999419408389075,0.0,0.5691916570392784,0.13958408646493783,0.3045975067402088,1.0,-0.24462285714283322,-0.32150432653058086,-1.0181847841070355,1.6299999999999328
0.35463547026080156,0.12033804082740529,-0.12893674970454896,-1.9783669223636122,0.030179330155973405,2.096322541150732,0.37946362175616366,-0.40777133435575963,-0.9577525007302062,-0.007343241379006976,-1.2051511377515367,-0.12571680008461905,0.31432172996522334,0.6770589711946065,0.8153911979671222,0.5788861590013806,0.0029590700528025096,0.0,0.5788827654557858,-0.8153336647886097,-0.010320165785732756,0.0,-0.003561640274054645,0.010128121996325012,-0.9999423662708693,0.0,0.5649940700338616,0.13409719669145886,0.3046068095548164,1.0,-0.2506942857142611,-0.3294839183673147,-1.045433291785604,1.646999999999931
0.3475265867489044,0.10423145843848335,-0.12913242515728698,-1.9994212733133403,0.027815486234505894,2.1014438759063627,0.3910691551322939,-0.4268002408023406,-0.944988929734149,-0.0009397243171526222,-1.230009721435227,-0.13000332503124903,0.2837622915377729,0.6763802899018023,0.8257195030039546,0.5640567366559373,0.002836739883261541,0.0,0.5640533092412652,-0.825662827962039,-0.010271599530483044,0.0,-0.0034516406919737896,0.010081726682456257,-0.999943220869882,0.0,0.5606939105015312,0.1283567321768764,0.30459212613061626,1.0,-0.256765714285689,-0.3374635102040485,-1.0726817994641724,1.663999999999929
0.3402069969748699,0.08786275202601657,-0.12916572531015585,-2.020547240348314,0.025475500733682963,2.1065273248633334,0.4028097586854798,-0.44302819781929315,-0.9624467845181159,0.0003868024638346774,-1.2688085390992359,-0.12921283120938218,0.29620473961027116,0.6848099137332385,0.8358564171528651,0.5489230059054704,0.0028862420700415557,0.0,0.5489211773325435,-0.835799727751231,-0.010251978737343972,0.0,-0.003215288552885165,0.01015369710141098,-0.9999432805688003,0.0,0.5562781465503027,0.12267421053946749,0.3046120438380631,1.0,-0.2628371428571169,-0.3454431020407823,-1.0999303071427409,1.6809999999999272
0.3324519692811767,0.07120152087932882,-0.12925366865653945,-2.0416796502266092,0.023048014734382588,2.11143639095212,0.4146817752336759,-0.46464661474039054,-0.9667370890688739,-0.007687760935911491,-1.2485861114293726,-0.14075300681191516,0.28690513667515577,0.6997347688996304,0.845993256767204,0.5331669268084444,0.003030604439160567,0.0,0.5331678650581982,-0.8459369147517585,-0.01017402726392378,0.0,-0.002860809759927918,0.010223176185929425,-0.9999436496304126,0.0,0.5517966696427097,0.11679383455871843,0.304698417461526,1.0,-0.2689085714285448,-0.3534226938775161,-1.1271788148213093,1.6979999999999253
0.3242746195401833,0.054401355430715906,-0.12940250553815172,-2.062865088857674,0.02054379690830884,2.1161401410117984,0.42679823871778755,-0.488863917224816,-0.981704995441592,-0.011526441969778662,-1.2362047969089656,-0.14634468178428317,0.2768066540466899,0.6924609741682143,0.8561597999955463,0.5166834904001787,0.003051969967503215,0.0,0.516685902383213,-0.8561040669102955,-0.010111963177611082,0.0,-0.0026119308159004984,0.010234563275469566,-0.9999442142099593,0.0,0.5472161146760063,0.11072419077254367,0.3047365983970989,1.0,-0.26998,-0.3548308571428572,-1.131987375,1.7149999999999235
0.3162928415405193,0.03884324971705878,-0.12947514668368004,-2.0825086424097434,0.018259449094007504,2.1202307070551765,0.4379980152734499,-0.5029589276658527,-0.983943287260549,-0.001797354639845422,-1.2044561315886735,-0.13957254736303318,0.2479043673240235,0.6948970334063522,0.8654341088833007,0.5009956163467002,0.0028182412894590587,0.0,0.5009964211330528,-0.8653781211090958,-0.010200020528039243,0.0,-0.002671372651491477,0.010239571619667376,-0.9999440059029319,0.0,0.5428557504249928,0.10500164051893622,0.30466159705664714,1.0,-0.26998,-0.3548308571428572,-1.131987375,1.7309999999999217
0.3076248055025499,0.022370194572105238,-0.12949355470097332,-2.102965681324817,0.01570821780443154,2.124396242570432,0.44969215881388286,-0.5131144856022374,-0.9416109433237408,-5.453212529353131e-05,-1.220983398962137,-0.15047822858908608,0.22801629774961682,0.6877338221491569,0.8748768747027516,0.4843179393294112,0.0027082568686382187,0.0,0.4843188395494531,-0.8748217942621423,-0.010140850193408841,0.0,-0.002542202480850686,0.010183851218552586,-0.9999449116730903,0.0,0.5382418330017333,0.09895745494021708,0.30464429980465846,1.0,-0.26998,-0.3548308571428572,-1.131987375,1.7479999999999198
0.29921522096166103,0.006882479417169261,-0.1295343775525665,-2.12173318820176,0.013332640760841131,2.128185272696102,0.4606255990443716,-0.5225557527245339,-0.9402828270190667,-0.005790773048286585,-1.1750413916699975,-0.1485819035722545,0.21975054722482154,0.6701321635594424,0.8835473586576207,0.46831203739719274,0.002940669862549789,0.0,0.4683166128800035,-0.8834931516498019,-0.01000739674986617,0.0,-0.002088562887453793,0.010219370269556119,-0.9999455997084836,0.0,0.5339727129682472,0.09324637325871994,0.3047549114350693,1.0,-0.26998,-0.3548308571428572,-1.131987375,1.763999999999918
0.29006481596066,-0.009408580381661999,-0.1295960314339703,-2.1412991127433707,0.010913485701522962,2.131916992566872,0.472056342229209,-0.5328518663982162,-0.9534782395696016,0.0012615677480261557,-1.1376145537552407,-0.14626304949720367,0.20983685391426543,0.6625782010892766,0.8924624881993032,0.45108933786976935,0.0031405920668122504,0.0,0.4510970825495283,-0.8924083780417014,-0.009972753756719258,0.0,-0.0016959448686164058,0.01031721918917812,-0.9999453378856293,0.0,0.5294243867384615,0.08718231075663692,0.3048497726887251,1.0,-0.26998,-0.3548308571428572,-1.131987375,1.7809999999999162
0.28131552360593143,-0.02448849989734901,-0.1295986532586725,-2.159485231773577,0.00853216306372163,2.1350602931280975,0.48257842140067825,-0.5524849456900975,-0.938391640541539,-0.003235887659221787,-1.0996958531988523,-0.15184923646502432,0.1819024002069209,0.6534179079913994,0.9004357993048957,0.434956942041813,0.0029286175914513845,0.0,0.43496351015815815,-0.9003823849137446,-0.009952520742980175,0.0,-0.0016920748741676706,0.010235644825673566,-0.9999461827806649,0.0,0.5250614274508327,0.08151678452996922,0.3048031367358493,1.0,-0.26998,-0.3548308571428572,-1.131987375,1.7969999999999144
0.2711298362451072,-0.04134838342669545,-0.12966691974267708,-2.1795585474788033,0.005956352558394116,2.138489485876563,0.49425785813037304,-0.5738600909991838,-0.9247049907152853,-0.004501584887227486,-1.1436272216456975,-0.1336488177201403,0.1692682519425487,0.6455891365666406,0.9091632952161588,0.4164066700073815,0.0028869891353689612,0.0,0.4164138980680623,-0.9091100448081034,-0.009956848194997998,0.0,-0.0015215364727244607,0.010254780750777459,-0.9999462607553048,0.0,0.5201931524458845,0.07507605581346793,0.3047788198137657,1.0,-0.26998,-0.3548308571428572,-1.131987375,1.8149999999999125
0.26134802489565423,-0.057206821981601555,-0.1296744712404248,-2.1979847807931066,0.00353818947528312,2.1414253802846326,0.5051338431333879,-0.5699648233034479,-0.9034963746450847,0.0008768335899585266,-1.079198218719255,-0.15000521938045627,0.1696653989066112,0.6241106551246822,0.917019672629541,0.3988064474650326,0.003014029186668966,0.0,0.3988160486066874,-0.916966742621478,-0.009924676373215311,0.0,-0.0011942833948325737,0.010303365061037989,-0.9999462057308843,0.0,0.5156275616539577,0.06907192660105944,0.3048574574366812,1.0,-0.26998,-0.3548308571428572,-1.131987375,1.8319999999999106
0.2513439398250842,-0.07282980699242703,-0.1296920181937715,-2.216180999231738,0.0010777969660515445,2.144077682119261,0.5157575181593433,-0.5953284181440135,-0.9179110528891519,-0.0010658585258529097,-1.0377892732184424,-0.14975331679809167,0.16982804816863692,0.6132071544801205,0.9245030482052601,0.38113869964908387,0.002855239078620903,0.0,0.3811476924955082,-0.9244505947254017,-0.009913693479673937,0.0,-0.0011389867062718828,0.010253705042866698,-0.9999467807049416,0.0,0.5110039861908044,0.06305677319996765,0.3048171075231833,1.0,-0.26998,-0.3548308571428572,-1.131987375,1.8489999999999087
0.24160670584178348,-0.0873739078396093,-0.12975873124658063,-2.233067599905564,-0.001164984918567149,2.1464272095793553,0.5255223051869141,-0.6167862597310434,-0.901277241612972,-0.001962926092346943,-1.0721979917594664,-0.1418208525536799,0.13283474219365157,0.6099902433354359,0.9312864460891513,0.36425160160940645,0.0026595031168961778,0.0,0.36425948472002656,-0.9312338415203114,-0.009965294779012823,0.0,-0.0011532774838481918,0.010249490528403238,-0.9999468075327574,0.0,0.5066417683613419,0.057326028955150946,0.3047243673361304,1.0,-0.26998,-0.3548308571428572,-1.131987375,1.864999999999907
0.2312425116037596,-0.10284343745180814,-0.1297212725768003,-2.2504369073124995,-0.0036155768154582588,2.1487039480523067,0.5357816695598614,-0.6176452136761331,-0.9040261388072826,0.0002662302410130216,-1.031361311535949,-0.14663312425470176,0.1314397750137673,0.6094567403987308,0.9380589653496361,0.3464365561024602,0.0027994685649031814,0.0,0.3464469618661197,-0.9380074206291584,-0.009865513649930383,0.0,-0.0007918675312704737,0.010224497759512272,-0.9999474149130938,0.0,0.502073278256537,0.05140141544648802,0.30480304998167795,1.0,-0.26998,-0.3548308571428572,-1.131987375,1.881999999999905
0.22044183449902535,-0.1180561740911376,-0.1298008350330755,-2.267558329449355,-0.006046428876000565,2.1506904709262167,0.5458117627946977,-0.6414103382327522,-0.8857403929165951,-0.016078935188251754,-0.9759815316841303,-0.14590552830580122,0.12046355680834261,0.584147486778139,0.9445888276864269,0.32821583660585746,0.002656710806066263,0.0,0.3282258001542006,-0.9445378737320593,-0.009837484437776111,0.0,-0.0007194680609486359,0.010164574622121184,-0.9999480805464156,0.0,0.49746675440826194,0.04531928371200573,0.30476540372501043,1.0,-0.26998,-0.3548308571428572,-1.131987375,1.8989999999999034
0.21015982601789965,-0.13231021095779158,-0.129829049739038,-2.2834048048807256,-0.008209808723210933,2.1523942905455167,0.5549985625265698,-0.6444853948943786,-0.89450477020489,0.00604356704951425,-0.9846185165667403,-0.13622773662131707,0.09896484348811382,0.5779187183697119,0.9503657336122396,0.31109327398444475,0.002587307194193645,0.0,0.31110341942145936,-0.9503144775990755,-0.009889539477663786,0.0,-0.0006178256247241221,0.010203796010677182,-0.9999477490541542,0.0,0.4931128551447532,0.039688850228605216,0.3047393885887229,1.0,-0.26998,-0.3548308571428572,-1.131987375,1.9149999999999017
0.1989651602570833,-0.14736448605578273,-0.12985069781778166,-2.299737437161522,-0.010589280356681746,2.1539925164903155,0.5644851406049682,-0.6654430670896789,-0.8590143164360342,-0.0019490370485689172,-0.9608950018670515,-0.1317584432775633,0.0883870264109788,0.5465908479686787,0.9561381892364176,0.29287066497371406,0.002698811361986519,0.0,0.2928829504720076,-0.9560878129798132,-0.009819271637837577,0.0,-0.00029548165034165574,0.01017921241927084,-0.9999481468181827,0.0,0.4885480767013074,0.03369025656498333,0.3048074327974795,1.0,-0.26998,-0.3548308571428572,-1.131987375,1.9319999999998998
0.18742323283654566,-0.16219969692424596,-0.1299703434067093,-2.315851498928717,-0.012962510739574681,2.155363449499699,0.5738291167450299,-0.6737829864181337,-0.8521886326748553,-0.001535994771456258,-0.9292175367895135,-0.13034424825699212,0.06925925488415868,0.5408389558400829,0.9616366893837318,0.2742788820065764,0.002592183930071729,0.0,0.2742910630083464,-0.9615868545632347,-0.009791873474680584,0.0,-0.0001930978353499868,0.010127432661210276,-0.9999486975944909,0.0,0.4839380647297267,0.027597254615124547,0.3047763375005457,1.0,-0.26998,-0.3548308571428572,-1.131987375,1.948999999999898
0.17582581627314395,-0.17694673846901512,-0.12997394866175793,-2.3315118479478314,-0.015181986127846329,2.156558790382377,0.5829345881304674,-0.6878153799022435,-0.8462454797278534,-0.0042407401625789865,-0.9188627092752907,-0.13820706073725098,0.05498593054575028,0.5277265891673998,0.9667124327082811,0.25581347342443095,0.0026992893459766164,0.0,0.2558276954878028,-0.9666625841634616,-0.009817611778160184,0.0,9.782652834672279e-05,0.010181556364797225,-0.9999481618263821,0.0,0.4793645245459401,0.02167735732236527,0.30482494598795684,1.0,-0.26998,-0.3548308571428572,-1.131987375,1.965999999999896
0.16514000050935881,-0.1898755035783014,-0.13011490900613393,-2.3450227581584775,-0.01726568905153117,2.1574447596865434,0.5907511937055537,-0.7225670048891052,-0.8566177177354755,-0.006691807324738947,-0.8965230621514175,-0.14257201337269096,0.06948882370923301,0.5113206086494715,0.9712313546817244,0.2380804098635128,0.0028497409589224557,0.0,0.23809703804157412,-0.971182699244207,-0.0097320124215962,0.0,0.0004506262864549804,0.010130745537756105,-0.9999485811434503,0.0,0.47507978263087713,0.015900836137995845,0.3048945473709586,1.0,-0.26998,-0.3548308571428572,-1.131987375,1.9819999999998943
0.15230736519611063,-0.20515654411901382,-0.130129748768782,-2.3610015167133422,-0.019628510102554123,2.158309490098047,0.5998148478867387,-0.7177116937752797,-0.8581650243149151,-0.006074618874842849,-0.8706519699176358,-0.13033730541623217,0.03591521388672986,0.5067814859258241,0.9755977296756381,0.21950366055083786,0.0028213042606964798,0.0,0.2195209300480997,-0.97554932355575,-0.009737837642104964,0.0,0.0006148422923951125,0.010119742467245799,-0.9999486050699564,0.0,0.47047182491575185,0.009968512771759586,0.30488722879675945,1.0,-0.26998,-0.3548308571428572,-1.131987375,1.9989999999998926
0.13973379556215043,-0.21945413908220607,-0.1303148776073061,-2.3756083935602006,-0.02184636799612092,2.1589223302820284,0.6080547482324302,-0.7429126581421452,-0.8246495326346119,-0.015774722034850693,-0.8384395328164563,-0.13234658129377255,0.032391567604107,0.4790053463832946,0.9796663740433489,0.20056363364695207,0.002961642837536786,0.0,0.20058325372000235,-0.9796184789134881,-0.009733498832866932,0.0,0.0009491124309302656,0.010129832495725372,-0.99994824150013,0.0,0.4659168744750849,0.003864269546180768,0.30494989401988565,1.0,-0.26998,-0.3548308571428572,-1.131987375,2.0159999999998908
0.12781579711680016,-0.2326831513227477,-0.13034575869532675,-2.3892371735235045,-0.02396242451695093,2.1592489824933225,0.61566915696577,-0.746100780036753,-0.8043160511945585,0.004837949917609625,-0.8729735519178279,-0.11880816381537011,0.012821779264698976,0.4686541521863312,0.9831175385930144,0.18290207378489098,0.0027356200773718054,0.0,0.18292024900108578,-0.9830700261973131,-0.009708398374779097,0.0,0.0009136374956039139,0.010045090418736666,-0.9999491294185949,0.0,0.46153978619936925,-0.0017450801643167553,0.30487859679519225,1.0,-0.26998,-0.3548308571428572,-1.131987375,2.031999999999889
0.11477018268357009,-0.24666060917723698,-0.1305129306844485,-2.40312004530293,-0.026148106314250585,2.1595750931641327,0.6234413683409316,-0.7811255694735246,-0.7949758448507007,-0.02105640206375304,-0.8298601776444529,-0.11402663829621809,0.018031211248129897,0.4600802995742324,0.986470549841975,0.16385236128195518,0.0030008162236006943,0.0,0.16387405061562071,-0.9864242088980653,-0.009660358992467494,0.0,0.001377231653643729,0.010021608503703358,-0.999948833989005,0.0,0.4570160961199497,-0.007816907166110082,0.3049732001603631,1.0,-0.26998,-0.3548308571428572,-1.131987375,2.048999999999887
0.10152509974689371,-0.26039248463469183,-0.13060891812329026,-2.416906547121163,-0.028278716060258603,2.1596057813200438,0.6309627045449733,-0.7788764142967676,-0.8048150341626977,-0.006541027036417214,-0.8330120943749685,-0.11907498337541322,0.0017299341183640276,0.4322847814765423,0.9894390846693787,0.1448551095263378,0.002835819800878049,0.0,0.14487606796115882,-0.9893927178300252,-0.009680998824395768,0.0,0.0014034243353021059,0.009989793372171788,-0.9999491159196634,0.0,0.4523768712192435,-0.013814679478739276,0.30491369424316833,1.0,-0.26998,-0.3548308571428572,-1.131987375,2.0659999999998853
0.08795059159906149,-0.2739735948383814,-0.1308245938046647,-2.430060409331378,-0.03041185932070899,2.15962935670353,0.6381176820646187,-0.8089818359245652,-0.8162860151877364,-0.026938022032085368,-0.7818360275172708,-0.11626153375779673,-0.011546249869955855,0.41194537431680495,0.992049752520104,0.1257304686673847,0.0031439902493777044,0.0,0.1257552940049907,-0.9920048600805796,-0.009628629572053057,0.0,0.0019082782389791553,0.00994764452520511,-0.9999487001054419,0.0,0.4478699337055045,-0.01989847143737973,0.3050110369846556,1.0,-0.26998,-0.3548308571428572,-1.131987375,2.0829999999998834
0.0750180834648956,-0.28655135177643726,-0.13089821040679359,-2.4424066335889956,-0.03237022610551684,2.1594977305244063,0.6446438795493029,-0.8041212333289048,-0.7836858870234824,-0.010056370412438252,-0.7777671406589061,-0.11099184612892968,-0.022210869697645012,0.40785725395160705,0.9941518662665858,0.10785674289405484,0.0031203705163028307,0.0,0.10788209612391048,-0.9941075797879548,-0.009608332074549659,0.0,0.0020657003509309546,0.009888963768801036,-0.9999489693367555,0.0,0.4435292176983441,-0.025515006478536162,0.30496253495332165,1.0,-0.26998,-0.3548308571428572,-1.131987375,2.0989999999998816
0.060867606677406004,-0.29979422815455287,-0.13112574528595727,-2.454871486171977,-0.034341379381341935,2.1592405318689374,0.6513274631103454,-0.8435914407479976,-0.7712685607424493,-0.014492594965413417,-0.723184260730824,-0.11366172052309516,-0.023669100097876622,0.3934486582019005,0.9960634949207122,0.08846390918426905,0.0035210452115632925,0.0,0.08849414417459844,-0.9960204306678694,-0.009635094198064194,0.0,0.0026547259816046,0.009908948261371241,-0.999947381202789,0.0,0.43902876323725487,-0.03160757078192699,0.3050860977230118,1.0,-0.26998,-0.3548308571428572,-1.131987375,2.1159999999998798
0.04657683042462228,-0.3127484377571847,-0.13121839529461948,-2.4672703206455573,-0.03638362145559731,2.1586889041605053,0.657701382812163,-0.8490357639583528,-0.777994920970688,-0.00913325951117485,-0.7155592979087467,-0.11626796900763234,-0.03445833169397282,0.3597789498980135,0.9975737729802314,0.06939546398657026,0.003403518955871355,0.0,0.06942525703757424,-0.9975313359188068,-0.00959762712943729,0.0,0.002729137567412998,0.009810820174203858,-0.999948148463533,0.0,0.43440136464226753,-0.03758342980764185,0.3050349685923591,1.0,-0.26998,-0.3548308571428572,-1.131987375,2.132999999999878
0.031905119314374085,-0.3255120804921071,-0.13142612328442743,-2.4790347597565154,-0.03837662896295229,2.158119238330523,0.6637663637194995,-0.8697765129490866,-0.7570719588373501,-0.013256434140518372,-0.6987080300544917,-0.10989155338264017,-0.03227508959036165,0.3536540476990245,0.9987283040822161,0.05008703608891263,0.003716226862941123,0.0,0.05012052826877106,-0.9986879235827489,-0.009545199696452436,0.0,0.003233322379116388,0.00971950748913911,-0.9999475370240988,0.0,0.4298900018759054,-0.04366218580349684,0.3051328316390168,1.0,-0.26998,-0.3548308571428572,-1.131987375,2.149999999999876
0.017157759848408623,-0.3379499237093547,-0.1315123462593364,-2.490634379274431,-0.04026248221339964,2.1572876226927837,0.6695050668687665,-0.8753352921100003,-0.7391950535608188,-0.0057781478555944685,-0.6818766197195346,-0.10924843121803658,-0.04827362550732825,0.3255588469461091,0.9995007129484514,0.031079852990974377,0.0036213885189896465,0.0,0.031113214958291724,-0.9994605893192969,-0.009552232916514776,0.0,0.003322617079237644,0.009660322640891159,-0.99994781782962,0.0,0.4252959148174624,-0.04958468528062759,0.3050944925032593,1.0,-0.26998,-0.3548308571428572,-1.131987375,2.166999999999874
0.0019043376743614246,-0.35020720486010787,-0.1317191912916654,-2.501740821438517,-0.0421811881213441,2.1563455480057687,0.6749855464964858,-0.891939382065373,-0.720532119565359,-0.005255768592012502,-0.6355346114505989,-0.11576022636265379,-0.05251912356192303,0.3188011084951764,0.9999148089973935,0.011714669682321599,0.00372668259294346,0.0,0.011749672695115898,-0.999876085358048,-0.009513465290389786,0.0,0.0036148432959283716,0.00955662612411598,-0.999947800540143,0.0,0.42073508279219957,-0.055667652802552085,0.3051427001326141,1.0,-0.26998,-0.3548308571428572,-1.131987375,2.1839999999998723
-0.013504199471324137,-0.3622022678192398,-0.13190142164520732,-2.512613252749435,-0.04402148889838448,2.1553772201731416,0.6800935890014458,-0.913112114134395,-0.7009380316485304,-0.017391406691578962,-0.6412247838536401,-0.11028598380120186,-0.06614856970034225,0.3015605146619218,0.999955433438962,-0.007451783222796049,0.0037880026275743596,0.0,-0.007415511516136786,-0.9999177421416885,-0.009500844195654475,0.0,0.0038585635552758624,0.009472513173825726,-0.9999476901225695,0.0,0.41615516345464065,-0.06167734218126579,0.30513833124657636,1.0,-0.26998,-0.3548308571428572,-1.131987375,2.2009999999998704
-0.029240136873873824,-0.37387950497941763,-0.13206246184716422,-2.523185066719898,-0.045810380355486076,2.154122687893634,0.6849174790187187,-0.9299347977728474,-0.6792830977232277,-0.009241186891620885,-0.6171529388124581,-0.09520697144651326,-0.07355338423308032,0.2829746115496932,0.9996285285986355,-0.02666315094671934,0.0035536030346079643,0.0,-0.026628330135595846,-0.9995905353424345,-0.009510025721475588,0.0,0.0038057884842988554,0.009412047715201918,-0.9999484633378959,0.0,0.4115117549768068,-0.06768813609152727,0.3050686244370272,1.0,-0.26998,-0.3548308571428572,-1.131987375,2.2179999999998685
-0.044324352485644425,-0.3846824760171661,-0.1323156201589159,-2.5325632599010373,-0.0474144401347948,2.1530395652060665,0.689212266357922,-0.9508488483770194,-0.6659670205234249,-0.02126945146187603,-0.5900128663660973,-0.10558861924556676,-0.07591952488676187,0.2537739618591428,0.9989737617529725,-0.04491748981894639,0.0038195992838219285,0.0,-0.04487938510141942,-0.9989372560677241,-0.009536568251362936,0.0,0.004243980444972317,0.009355540316228206,-0.9999472298553429,0.0,0.40725476216823286,-0.07340897707646181,0.30515312747272905,1.0,-0.26998,-0.3548308571428572,-1.131987375,2.2339999999998668
-0.06050602999446478,-0.3958719800669914,-0.1324464438326531,-2.542396443070989,-0.04915405489788367,2.151683311042064,0.6934873227673793,-0.9548158494557009,-0.6458816573622611,-0.009679083704368211,-0.5667218887560963,-0.09858037305933379,-0.07460626971491226,0.24504163342849308,0.9979327722175263,-0.06400729105162839,0.0037410864308702685,0.0,-0.06396945915675223,-0.9978971593646003,-0.009482327164905869,0.0,0.004340241160085634,0.009223587341744915,-0.9999480425218212,0.0,0.4026430858038713,-0.07937919017906882,0.3051294172760644,1.0,-0.26998,-0.3548308571428572,-1.131987375,2.250999999999865
-0.07705885909049659,-0.40671855698775394,-0.1326711186933962,-2.551781402363502,-0.050821101609654654,2.1501985434670834,0.6974069429774152,-0.959447460214792,-0.6290703640502082,-0.0029439293648935473,-0.5307593139969273,-0.0944037120782581,-0.08180455265673951,0.22727444755623513,0.9965144807651025,-0.08322463071499031,0.003646555774946681,0.0,-0.08318701494246472,-0.9964792452406678,-0.009475296869203119,0.0,0.0044223803737276635,0.009139100405973086,-0.99994845836953,0.0,0.39803035043776536,-0.08542380742918829,0.3051184304049479,1.0,-0.26998,-0.3548308571428572,-1.131987375,2.267999999999863
-0.09280307964735345,-0.4166401749589871,-0.13286691806875578,-2.5601631224795858,-0.0522916141708425,2.1489527841551923,0.7008345818242008,-0.9996794328356514,-0.6052110882795692,-0.019668141166307055,-0.5230381798164313,-0.09078823951629153,-0.08326718431458016,0.20076521985443446,0.9948446769370876,-0.10124110356095822,0.003880028467635821,0.0,-0.10120075447654847,-0.9948112446013615,-0.009473215360991669,0.0,0.004819067508377628,0.009031889958915629,-0.9999475994031486,0.0,0.39377732703856555,-0.0910865200784439,0.3051785150207661,1.0,-0.26998,-0.3548308571428572,-1.131987375,2.2839999999998613
-0.10985083149605628,-0.4268378469310087,-0.13306187624717716,-2.5689229908485087,-0.05377856377680343,2.1473107430854887,0.7041570260260545,-0.9964533795013741,-0.5921524174534488,-0.01643332419687382,-0.5038188494630963,-0.08193757518664631,-0.10370136795192716,0.18466216616973324,0.9927126931485843,-0.12037087093978383,0.0036206618304863176,0.0,-0.12033193457477531,-0.9926782630617098,-0.009530921649393367,0.0,0.0047414889251720105,0.009025959433942632,-0.9999480238187729,0.0,0.389123710026262,-0.09708726752563819,0.30511032589464004,1.0,-0.26998,-0.3548308571428572,-1.131987375,2.3009999999998594
-0.1271665491372812,-0.436676798241777,-0.13330998873665595,-2.5771813774608314,-0.05530742301319781,2.145754607320464,0.707234337588087,-1.0172130788940998,-0.571265363938492,-0.009498631980078113,-0.4616757756826999,-0.08237485932645168,-0.07983593636618291,0.16627148231764607,0.9902027873090706,-0.13952176437127356,0.0035866660400603705,0.0,-0.13948260621217945,-0.9901691908807486,-0.009503835858755893,0.0,0.004877492064991218,0.008910618787611457,-0.9999484041409226,0.0,0.38452749980005924,-0.1031374006131154,0.30510270958317987,1.0,-0.26998,-0.3548308571428572,-1.131987375,2.3179999999998575
-0.1446807556309319,-0.44619704270024724,-0.1334951197253375,-2.584896901495216,-0.056714250960032776,2.144327664117733,0.709927095870325,-1.0464630458175166,-0.5435111156522285,-0.01563474863142119,-0.45309010517447723,-0.08461746245719817,-0.08757410009096163,0.16141910467953002,0.9873465683345173,-0.15846822481573486,0.003914412217724051,0.0,-0.1584257029988374,-0.987315685996606,-0.00947521585947518,0.0,0.005366384540544389,0.008735346538151348,-0.9999474464379723,0.0,0.38002973519305105,-0.10916246868830462,0.30520031101179845,1.0,-0.26998,-0.3548308571428572,-1.131987375,2.3349999999998556
-0.16246797084855505,-0.45529555900277835,-0.13370176321181734,-2.592514656551979,-0.058081684578119123,2.1425294338910517,0.7124187863809202,-1.0472700902319871,-0.530496373016383,-0.013121514093864847,-0.42792627730686994,-0.0658330911764573,-0.10359507946246886,0.14320396553998918,0.9841114689538251,-0.17746194693485273,0.00355259973037268,0.0,-0.1774218660546935,-0.9840792954412495,-0.009495716441268388,0.0,0.005181267922321986,0.008714702367303095,-0.999948602891852,0.0,0.37535759834533006,-0.11515476901127633,0.3051169476699673,1.0,-0.26998,-0.3548308571428572,-1.131987375,2.3519999999998538
-0.1805042489558965,-0.46399474219897374,-0.13396406910852432,-2.5996700434141875,-0.059366707013360685,2.140986241423983,0.7144996196207349,-1.0636331347083705,-0.49287454164763006,-0.008163704700189038,-0.4091798335677885,-0.07317795894815265,-0.09919127725794864,0.12019360983221006,0.9805187904240023,-0.196344849461967,0.003514059819834473,0.0,-0.1963042991373513,-0.9804868780796903,-0.009531576729161974,0.0,0.005317067910191153,0.008656231694536082,-0.9999483978894554,0.0,0.37075597190505755,-0.12118555360132667,0.30508566587685165,1.0,-0.26998,-0.3548308571428572,-1.131987375,2.368999999999852
-0.19767550938055348,-0.4718978700307167,-0.13415122807911922,-2.60582763801082,-0.06049100126486973,2.1395771857068984,0.7162787244670096,-1.0846598508678287,-0.49191159117752703,-0.017214792606043975,-0.37373541482189854,-0.07366016308415681,-0.09014210032233054,0.1093930627436978,0.9767972389596662,-0.21408720181999474,0.003817182058249033,0.0,-0.21404344445420986,-0.9767676960998318,-0.00954036913398328,0.0,0.005771082168069042,0.00850212712516793,-0.9999472028287079,0.0,0.36651420180392547,-0.12686363349532231,0.3051939470047134,1.0,-0.26998,-0.3548308571428572,-1.131987375,2.38499999999985
-0.2161645655744817,-0.47977590006260035,-0.13434647296747623,-2.61215127208351,-0.061718935637716854,2.138060191285156,0.7178681010573899,-1.0832110958697392,-0.4534380338379129,-0.017519888224361367,-0.3708376566615711,-0.06223843387109673,-0.09409009976814779,0.08090230503152128,0.9725088544799564,-0.23279322158978016,0.003819795955669635,0.0,-0.23274920515231134,-0.9724806261012715,-0.009486108783612848,0.0,0.005923093424540005,0.008336430816223539,-0.9999477090755949,0.0,0.3619365753015818,-0.13289306774698711,0.3051878571211813,1.0,-0.2696228571429113,-0.3543614693878263,-1.1303845216073858,2.4019999999998483
-0.23363907848936247,-0.48674133975782785,-0.1345252298529085,-2.61781398539822,-0.06275882085746796,2.1365306257651753,0.7191332083731131,-1.0876060354485553,-0.4257723056115696,-0.005435358220229317,-0.3496277055687478,-0.06205768876687438,-0.08700097112903898,0.07457861065406039,0.9678994400402919,-0.25127411774568625,0.0035691206233881335,0.0,-0.2512315941089994,-0.9678704951995374,-0.009494079463613891,0.0,0.005840175427686889,0.008292797994807921,-0.9999485596031384,0.0,0.357338962414123,-0.1388275052942954,0.30511846008456084,1.0,-0.26355142857148334,-0.3463818775510925,-1.1031360139288173,2.4189999999998464
-0.2521252264394833,-0.4935224166918484,-0.13467716077439185,-2.623241712843897,-0.06373200231458584,2.135124252193646,0.7200633370027553,-1.0959687728077596,-0.38310180658780457,-0.01104374568530507,-0.30545545402888835,-0.055197534955278044,-0.07291736402792653,0.05132511190830624,0.9633269437737662,-0.26827175276718224,0.0034947056996386225,0.0,-0.26822923545943594,-0.9632981690309743,-0.009511134928432956,0.0,0.00591812638209166,0.0082251086632871,-0.9999486603659223,0.0,0.3531297447161157,-0.14436949886204398,0.3050807197105989,1.0,-0.2578371428571983,-0.3388716734694607,-1.0774903596431058,2.4349999999998446
-0.2704024701957651,-0.4998487538730019,-0.1347127162056634,-2.628097239558365,-0.06455625014983192,2.1337695823033385,0.7207190980815098,-1.0677773190335536,-0.35705010159810435,0.0023059474827140177,-0.2704977631754646,-0.043938197245105615,-0.07556253804044591,0.03366875342032849,0.9582841794469552,-0.2857607877860001,0.0035986784808611006,0.0,-0.2857168314574965,-0.9582567143127271,-0.009524106135141186,0.0,0.00617019268440272,0.008098753145788007,-0.9999481681165884,0.0,0.34879833041382885,-0.15009150110869596,0.30512807242317996,1.0,-0.2517657142857704,-0.3308920816327269,-1.0502418519645373,2.4519999999998427
-0.28851279186668166,-0.5055849686836947,-0.13474446724885739,-2.63238979401545,-0.06528650730571343,2.132613903440898,0.7211180230139905,-1.0392207315869815,-0.3178967951448482,0.0060222359076789345,-0.24710792175151397,-0.0375250073712896,-0.0626896282026773,0.019765530892058625,0.9530267639546202,-0.3028294845747852,0.00387780344563489,0.0,-0.3027827811195742,-0.953001832524522,-0.009531084073035802,0.0,0.006581973790527884,0.00790939837962873,-0.9999470581177252,0.0,0.34460420461123514,-0.15573648359933626,0.30521726814157024,1.0,-0.24569428571434246,-0.322912489795993,-1.022993344285969,2.468999999999841
-0.30634055023378515,-0.5107899682269954,-0.13476795008996603,-2.6363871867547553,-0.06593221101671588,2.1314263144542336,0.7212888987268223,-1.0465223531146162,-0.2911151219896083,-0.004731837213744588,-0.2252121071692162,-0.040425357186999945,-0.07073999650127598,0.006608181418176748,0.9476120406925078,-0.3193697002140143,0.0038938183059646116,0.0,-0.3193222159110295,-0.9475877680742146,-0.00956509921570488,0.0,0.006744667322619025,0.007820771071482852,-0.9999466710792904,0.0,0.34044193573835174,-0.1612132334847794,0.30523069278350334,1.0,-0.23962285714291456,-0.3149328979592592,-0.9957448366074007,2.485999999999839
-0.32277694414576563,-0.5151430413193745,-0.13467624236442063,-2.6398552863785807,-0.06641991652477205,2.1303089221154026,0.7212907383887175,-1.021649779514734,-0.264083695344226,0.005783703965998241,-0.20949090178614413,-0.02727945010589806,-0.06843080329589007,-0.004890152718878693,0.942428311064132,-0.334359384297369,0.003664360558234019,0.0,-0.3343130603725624,-0.942402963061861,-0.009601030036658426,0.0,0.006663627034953878,0.007823389553884286,-0.999947193931073,0.0,0.3366005130971418,-0.1661625823329098,0.30517036789142443,1.0,-0.23390857142862947,-0.3074226938776274,-0.9700991823216891,2.5019999999998372
-0.3399913873022491,-0.5192484769626985,-0.1346173848230855,-2.6430733707115985,-0.06693091054945802,2.1293682831485548,0.7211572539341727,-0.9832987482153182,-0.23004071660499248,0.011428701273524147,-0.18223637483738658,-0.0242548905554056,-0.0476371134790956,-0.013441440051942002,0.9367704940898307,-0.3498981880585399,0.003611965843368635,0.0,-0.34985192882135485,-0.9367456446188422,-0.009590207965183827,0.0,0.006739219413267106,0.007720319276899867,-0.9999474884172481,0.0,0.3326515515583393,-0.1713583992475038,0.30514160797567197,1.0,-0.22783714285720158,-0.2994431020408936,-0.9428506746431207,2.5189999999998354
-0.35689730014959237,-0.5229265783467217,-0.1345110845754806,-2.645826065963603,-0.06729486623985334,2.1285160240721237,0.7206908799556527,-0.99951322591652,-0.21085421484093045,3.527568108296214e-07,-0.15616313563459935,-0.017660490041930235,-0.051244725253245756,-0.03389584644643923,0.9310655154117025,-0.3648069496395322,0.0036935629206810033,0.0,-0.3647594861904977,-0.9310417587838266,-0.00961808379935795,0.0,0.006947738895574096,0.007607950513385031,-0.9999469225980071,0.0,0.32883550465896044,-0.1764255449313416,0.3051717783824525,1.0,-0.22176571428577369,-0.2914635102041597,-0.9156021669645522,2.5359999999998335
-0.37331958413907435,-0.5261773802755978,-0.1343483245432364,-2.64828092780489,-0.06758477134664227,2.1277075753235346,0.7201079455965025,-0.952847652820796,-0.18589537502558656,0.00851141850177946,-0.13855552446327302,-0.021252801228706368,-0.034967614318856935,-0.03420667066098499,0.9253474437932951,-0.3790767984930296,0.0036926969409701396,0.0,-0.37902883649808466,-0.9253242589281498,-0.009638663973130509,0.0,0.007070872077232615,0.007519619220014623,-0.9999467276284537,0.0,0.32512752188547234,-0.18128802220117046,0.3051819260794026,1.0,-0.2156942857143458,-0.2834839183674259,-0.8883536592859838,2.5529999999998316
-0.38856580083182335,-0.528814340252619,-0.13425897197224965,-2.650329505734639,-0.06785831312546446,2.1270268520388362,0.7194410392073877,-0.9370744365301591,-0.15608964390109495,0.005743370904977039,-0.12004361454599159,-0.01725898298941802,-0.042082674205731,-0.04348386800917397,0.9198663907768256,-0.3921906911788767,0.003609954717086353,0.0,-0.3921429415112097,-0.919843217215878,-0.009649666630885968,0.0,0.007105238584441564,0.007460929400482957,-0.9999469236500202,0.0,0.32168103340801146,-0.1858004367479165,0.30515831791062165,1.0,-0.20998000000006067,-0.2759737142857941,-0.8627080050002723,2.56899999999983
-0.4051747884299041,-0.5313255154823276,-0.13404152043405637,-2.6523305080037063,-0.06809147534713565,2.1264295392698633,0.7185249866353474,-0.9231666945715865,-0.13556738556149833,0.012832229290400066,-0.10503793786788122,-0.010536736418371155,-0.03329727411505545,-0.04466131334417985,0.9137824042385263,-0.4061649322455936,0.003537289809931131,0.0,-0.40611760944879854,-0.9137596856498094,-0.009616188328186155,0.0,0.007138128736651206,0.007350689532155286,-0.9999475058629534,0.0,0.31796193556131863,-0.19066181964858397,0.30511886386471154,1.0,-0.2035514285714898,-0.2675247346939581,-0.8338566439288462,2.5869999999998283
-0.4197285728950348,-0.5332630797504346,-0.13388652416076624,-2.6537888734153836,-0.06824396749665446,2.1259639453749433,0.7175647896101653,-0.8897602955356843,-0.11283265525765286,0.015722218549277422,-0.08541655362078303,0.001352791449102786,-0.028794309342645222,-0.06825330874791999,0.9083094475194621,-0.41826066511924886,0.003565173502247997,0.0,-0.4182128889009086,-0.9082876073462989,-0.009609828276300858,0.0,0.00725775581094823,0.007237835653360503,-0.9999474679780151,0.0,0.31472698898845225,-0.19492818067083578,0.30512556476181635,1.0,-0.19783714285720472,-0.26001453061232627,-0.8082109896431348,2.6029999999998266
-0.43472668842117823,-0.5349821858674031,-0.1337724706219589,-2.655064720177394,-0.06834161872164021,2.125547043203725,0.7165005163500077,-0.8769628255469896,-0.09410227627063866,0.005932107487485152,-0.06895323446846324,-0.009436744772025251,-0.024538480708149867,-0.05996541578058718,0.9024967149489893,-0.43065927230800216,0.00360798872406927,0.0,-0.43061063579832776,-0.9024755957421972,-0.009645015724940722,0.0,0.007409979891762397,0.0071510943696920515,-0.9999469756178674,0.0,0.3113972189676393,-0.19932355453173714,0.3051379713885296,1.0,-0.19176571428577682,-0.25203493877559247,-0.7809624819645664,2.6199999999998247
-0.4492540912072189,-0.5364046556957698,-0.1335664612334014,-2.656138899694988,-0.06841007881871944,2.1251930953448825,0.7153459898356301,-0.8324731276404426,-0.0743631886625611,0.008874521244994202,-0.058908855938539985,-0.0025288557084958514,-0.021152848541785195,-0.08129503557456932,0.8967851580270023,-0.44242968104269953,0.003620024329738293,0.0,-0.4423808103603592,-0.8967648824563228,-0.009628661340886843,0.0,0.0075064607810945705,0.007033546703231364,-0.9999470897339096,0.0,0.30817864183387883,-0.2035369199502378,0.3051411637933123,1.0,-0.18569428571434893,-0.24405534693885864,-0.753713974285998,2.636999999999823
-0.4627039456865835,-0.5374565239838158,-0.13344997571520734,-2.656926110762508,-0.06844769965795315,2.1249013510831207,0.7141605953571292,-0.8203210188129018,-0.05846544681361701,0.009543723547475314,-0.04298781948552984,-0.0009415506582797159,-0.013138939217265859,-0.0687625643168902,0.8910313894956865,-0.4539062211204508,0.003598925221108496,0.0,-0.4538570826186308,-0.8910114379772496,-0.009649500081758095,0.0,0.007586797723610761,0.006964743857274386,-0.9999469650152969,0.0,0.3050059113686737,-0.20769258941162638,0.3051381812317731,1.0,-0.17962285714292103,-0.2360757551021248,-0.7264654666074295,2.653999999999821
