nelsonifechukwu/NELSON_IML_WORK/CNN-GradCAM/train2dof/data_sample_2022-02-22-11-51-17/robot_state.csv
position_joint1,position_joint2,position_joint3,position_joint4,position_joint5,position_joint6,position_joint7,velocity_joint1,velocity_joint2,velocity_joint3,velocity_joint4,velocity_joint5,velocity_joint6,velocity_joint7,ee_T_00,ee_T_10,ee_T_20,ee_T_30,ee_T_01,ee_T_11,ee_T_21,ee_T_31,ee_T_02,ee_T_12,ee_T_22,ee_T_32,ee_T_03,ee_T_13,ee_T_23,ee_T_33,v_x,v_y,time
0.465079738111,0.547817258549,-0.123997413437,-1.3558401429,0.0795579733004,1.89409791874,0.159157954978,-0.000515182303228,-0.000784819080587,0.000510476177585,0.000883833119842,-8.74532263044e-05,0.00522493569289,-0.00149215598263,0.573821791677,0.818966151282,0.00193425752085,0.0,0.81892229585,-0.573762792888,-0.0119698688075,0.0,-0.00869327976389,0.00845274091647,-0.999926486327,0.0,0.661671163598,0.26089722001,0.303185599931,1.0,0.0,0.0,0.0
0.465078999344,0.547822548356,-0.123997726196,-1.35584192893,0.0795586853772,1.89409791438,0.159158887797,-0.00028077072371,0.000646225995131,0.000817073921712,0.00104498638997,0.00534832310598,-2.82059494176e-08,0.000307464669219,0.57382367437,0.818964845878,0.001928432079,0.0,0.818920907201,-0.573764692957,-0.0119737949815,0.0,-0.00869981842039,0.00845024307343,-0.999926450571,0.0,0.661670836596,0.260896382156,0.303181013887,1.0,-0.0002,-0.000262857142857,0.011
0.465075848094,0.547814084624,-0.124005608251,-1.35585113827,0.079558672234,1.89409710058,0.159162752817,0.000195683903293,-0.00135600049177,-0.00100084197692,-0.000165929328407,-0.000617414501918,0.0002295448406,0.00130164642534,0.573835405805,0.818956632468,0.00192563831777,0.0,0.818912688108,-0.573776464651,-0.0119718323487,0.0,-0.00869969305468,0.00844695355523,-0.999926479456,0.0,0.661671420061,0.260888695873,0.303182816886,1.0,-0.00062,-0.000814857142857,0.032
0.465073704234,0.547799557878,-0.12399789572,-1.35586357221,0.0795575001245,1.8941002238,0.159160412974,-0.00020039023162,-0.00244247899796,0.00109494337371,-0.00138586107484,-0.000252059885351,-0.000221915616104,0.00140932733403,0.57383022161,0.818960249965,0.00193200542915,0.0,0.818916351064,-0.573771217609,-0.0119727484373,0.0,-0.00869684338664,0.0084526384648,-0.999926456205,0.0,0.66166843146,0.260890479014,0.303187203638,1.0,-0.00086,-0.00113028571429,0.044
0.465077225186,0.547693184481,-0.123995218537,-1.35598320324,0.0795549042526,1.8941199186,0.159155615041,-1.19109612566e-05,-0.00944222366684,0.000208444981575,-0.00862786175664,6.97846919526e-06,-0.000175404625094,-0.000145148365511,0.573827331833,0.818962250224,0.00194238250955,0.0,0.818918398423,-0.573768198391,-0.011977401287,0.0,-0.00869472959727,0.00846377595059,-0.999926380377,0.0,0.66164636031,0.260882473221,0.303207237949,1.0,-0.00126,-0.001656,0.064
0.465077506441,0.547592478535,-0.123997431391,-1.35612615161,0.0795520227051,1.89414091816,0.159153976691,-7.50687278626e-05,-0.00319332601706,8.59379721458e-05,-0.0120077520068,-0.000125564045078,-0.000648544354141,0.000751341080526,0.573830614611,0.818959980323,0.00192957661064,0.0,0.818915822104,-0.573771399776,-0.0120001669704,0.0,-0.00872068853337,0.00846638700866,-0.999926132213,0.0,0.661618009042,0.260867174623,0.303213198299,1.0,-0.00154,-0.002024,0.078
0.465058502192,0.547398207296,-0.123998115329,-1.35638384493,0.0795527083479,1.89423668596,0.159146735798,0.000846859368287,-0.0103973981858,0.000694307751969,-0.0110834086924,0.000306913134568,0.00574062553108,0.000479203188848,0.57385900025,0.818940006181,0.00196494502796,0.0,0.818896222237,-0.573799546378,-0.0119918590554,0.0,-0.00869329593615,0.00849088578485,-0.999926163006,0.0,0.661591255997,0.260832300795,0.303235737074,1.0,-0.00194,-0.00254971428571,0.098
0.465038554283,0.547254121024,-0.123993341385,-1.35654139218,0.0795495880285,1.89434073743,0.159132477346,-0.00411214809739,-0.0117596883044,0.00175426373941,-0.0169845147753,-0.000202124474083,0.0041822532168,0.000439128442738,0.573868567319,0.818933103674,0.00204598441944,0.0,0.818890363034,-0.573808758692,-0.011951095287,0.0,-0.00861330960859,0.00853395915942,-0.999926488517,0.0,0.661583979409,0.260811634566,0.303271684053,1.0,-0.0022,-0.00289142857143,0.111
0.465015533015,0.547005016502,-0.123998062768,-1.3568696311,0.0795434971302,1.89450844206,0.159118744338,-0.00022758565061,-0.0109391127049,0.00043175393296,-0.0169081362915,-8.95906889665e-05,0.0101591891741,0.000428343157329,0.573896494511,0.818913327805,0.00212650693579,0.0,0.818871606482,-0.573836321611,-0.0119128082013,0.0,-0.00853545482371,0.00857822017456,-0.999926777394,0.0,0.661556160913,0.260768394913,0.303306604044,1.0,-0.00262,-0.00344342857143,0.132
0.464992449174,0.546825117363,-0.123998379,-1.3571421332,0.0795396539259,1.89460548209,0.159094829893,0.0002437128937,-0.0152832512311,-0.000286824173899,-0.0245157372016,-0.00326548134442,0.00504791513514,0.000633277632547,0.573910241462,0.818903665885,0.00213720510527,0.0,0.81886196685,-0.573849905567,-0.0119210750082,0.0,-0.00853594142098,0.00859186843258,-0.999926656061,0.0,0.661524058291,0.260728921517,0.303312746976,1.0,-0.00288,-0.00378514285714,0.145
0.464942022981,0.546484081653,-0.123998010721,-1.35764409295,0.0795275887999,1.89478996499,0.158949206948,0.000128417498471,-0.0166014244588,0.00324592014237,-0.0257270565725,9.1214393879e-05,0.00222927127318,-0.0104954698236,0.573856886587,0.818940972932,0.00216874857241,0.0,0.818899510084,-0.573796252767,-0.011924747188,0.0,-0.00852140832361,0.0086192513854,-0.999926544355,0.0,0.661468411845,0.26065124323,0.303331337212,1.0,-0.0033,-0.00433714285714,0.166
0.464905539726,0.546283853107,-0.124000992392,-1.35797803707,0.0795206052041,1.89490683901,0.15893921462,-0.00716374245108,-0.0182047370382,0.000416727069167,-0.0323449153452,0.000241363233873,0.0109573818864,-0.00194600311214,0.573897482586,0.818912546983,0.00216027234634,0.0,0.818870860103,-0.573836763426,-0.0119427934884,0.0,-0.00854062417585,0.00862308921356,-0.999926347323,0.0,0.661430937531,0.260595172475,0.303324415837,1.0,-0.00354,-0.00465257142857,0.178
0.4648383965,0.54590146341,-0.123998493606,-1.35864180517,0.0794917054093,1.89513408959,0.158886747462,-0.00161267735665,-0.0168197768869,-0.00109476421121,-0.0361324874742,-0.00405389057946,0.00832240928385,-0.00474009538641,0.573937167398,0.818884840069,0.00211978410181,0.0,0.818842477457,-0.573876461424,-0.0119812785639,0.0,-0.00859495866088,0.00861243616245,-0.999925973575,0.0,0.661352475442,0.2604891741,0.303298845163,1.0,-0.00396,-0.00520457142857,0.199
0.464792274766,0.545636715502,-0.124001911283,-1.35909726474,0.0794536118192,1.89529182743,0.15880192227,0.000282172205358,-0.0239728118004,-0.000949227379808,-0.0363047126507,-0.00728138563764,0.0109361658171,-0.0124486143038,0.573923184562,0.818894729975,0.00208478828235,0.0,0.818851998589,-0.573862713869,-0.0119890341099,0.0,-0.00862154057992,0.00858808303503,-0.999925954193,0.0,0.66130122711,0.26041063579,0.303283246055,1.0,-0.00422,-0.00554628571429,0.212
0.464711736301,0.545175574999,-0.12400442525,-1.35990395804,0.0793678001693,1.89555435631,0.158712190197,-0.00782379367022,-0.0231940635924,0.000696029586727,-0.0401183512229,-0.000228195516685,0.00764350330968,-0.00934160756261,0.573939516836,0.818883513359,0.00199235152682,0.0,0.818839862694,-0.573879717033,-0.0120040218892,0.0,-0.00868669273439,0.00852116343265,-0.999925962831,0.0,0.661206707818,0.260270130133,0.303248466647,1.0,-0.00462,-0.006072,0.232
0.464660617569,0.5448312384,-0.124004159495,-1.36049609176,0.0793521615409,1.89574794045,0.158654631006,-0.00363834418683,-0.0229515070886,-0.00477022161023,-0.0453830195233,-0.000353521597619,0.0176643855915,-0.00419134771339,0.573962839521,0.818867251883,0.00195692216884,0.0,0.818822908147,-0.57390296313,-0.0120491039438,0.0,-0.00874370154611,0.00851827461772,-0.999925490565,0.0,0.661132367881,0.26018131657,0.303227143135,1.0,-0.0049,-0.00644,0.246
0.464570289409,0.544295174884,-0.124002473741,-1.36138030345,0.0793193930945,1.89607139327,0.158509873905,-0.00283308374736,-0.027459487078,0.000703476975652,-0.0486322733574,-0.00324301068312,0.0141552957364,-0.00961846722551,0.573957731356,0.818870856049,0.00194695466895,0.0,0.818826163982,-0.573897686633,-0.0120791289963,0.0,-0.00877406284889,0.00852729107524,-0.999925147763,0.0,0.661032560226,0.260041300103,0.303213659034,1.0,-0.0053,-0.00696571428571,0.266
0.4645267889,0.543904339136,-0.124013382092,-1.36200899476,0.0792916575232,1.89629928101,0.158469304919,-0.00552068320766,-0.0269638978819,-0.000459949988629,-0.0476764480928,-0.00281169571618,0.0190805469015,0.000352127669012,0.573995421299,0.818844452626,0.0019405237034,0.0,0.818799627797,-0.573935352606,-0.0120883187319,0.0,-0.00878488671549,0.00852770387409,-0.999925049207,0.0,0.660958987109,0.25994770406,0.303211093195,1.0,-0.00556,-0.00730742857143,0.279
0.46443225713,0.543271811542,-0.124011613503,-1.363003703,0.079243565952,1.89664300689,0.158319523035,-0.00698153662312,-0.0285246584686,0.00192008340358,-0.0517430899282,0.000167965752681,0.0166245425336,-0.0112002350759,0.573991377287,0.818847306199,0.00193257132411,0.0,0.818802210999,-0.573931182645,-0.0121113067965,0.0,-0.00880831758672,0.00853434365455,-0.999924786431,0.0,0.66084200805,0.259792021288,0.303214876009,1.0,-0.00596,-0.00783314285714,0.299
0.464369081549,0.542812020622,-0.124021048689,-1.36374965665,0.0791976364486,1.8969109593,0.158234914771,-0.00351428410448,-0.033724471254,-0.000739554934942,-0.0579776166295,-0.00126728721848,0.0200778955382,-0.00561621804232,0.574009679856,0.818834520731,0.00191363344308,0.0,0.818789214355,-0.573949601817,-0.0121170925363,0.0,-0.00882373439119,0.00852235491272,-0.999924752758,0.0,0.660756827015,0.259673042367,0.303208582904,1.0,-0.00624,-0.00820114285714,0.313
0.464280936654,0.542103406954,-0.124018002348,-1.36483092842,0.0791335679322,1.89731526378,0.158078433603,-0.0018125029743,-0.0360197698136,-0.00141032487296,-0.0542958708412,0.00039449110074,0.0172122822942,-0.014071548588,0.573994617735,0.818845012296,0.00194204799558,0.0,0.818800048306,-0.573934388044,-0.0121056191723,0.0,-0.00879818714444,0.0085388736416,-0.999924836945,0.0,0.660632616103,0.259514592901,0.303230001789,1.0,-0.00664,-0.00872685714286,0.333
0.464209403865,0.541617532178,-0.124023319176,-1.3655707839,0.0790900701047,1.89758539177,0.157984997904,-0.00606831461773,-0.0383170755236,-0.0013700934989,-0.0522471193831,-0.000901071602574,0.0254578714806,-0.0114116244934,0.57400689154,0.818836370016,0.00195818898929,0.0,0.818791600288,-0.573946573174,-0.0120993115924,0.0,-0.00878362963608,0.00854860152021,-0.99992488181,0.0,0.660541254304,0.259392360211,0.303246854383,1.0,-0.00692,-0.00909485714286,0.347
0.464112809289,0.540782681777,-0.124021198973,-1.36685545443,0.079018624888,1.89806263151,0.157816933148,-0.00399833683604,-0.0362227259412,0.000685537339953,-0.0666733071516,-0.00140299324155,0.0313670975748,-0.0112924950498,0.574002027502,0.818839721538,0.00198236114324,0.0,0.818795217062,-0.573941554635,-0.0120926126653,0.0,-0.0087643208915,0.00856449690339,-0.999924915217,0.0,0.660399976143,0.259210821808,0.303264992393,1.0,-0.00732,-0.00962057142857,0.367
0.464042373764,0.540220201998,-0.124021198973,-1.36770170528,0.0789632297606,1.89836778166,0.157711350152,-0.0051204825841,-0.0434891504815,0.000374109611986,-0.0678427037167,-0.0100556790116,0.0225319440133,-0.0167240753976,0.574005239804,0.81883742989,0.00199874725015,0.0,0.818793163445,-0.573944718616,-0.0120814887253,0.0,-0.00874577313221,0.00857156344598,-0.999925017065,0.0,0.660301493317,0.259082985719,0.303286174505,1.0,-0.00758,-0.00996228571429,0.38
0.463915620858,0.539302583363,-0.12402439943,-1.3691143655,0.078880848777,1.89891158952,0.157545665397,-0.00609751431007,-0.0465455186325,-0.000400781685737,-0.0654295764411,-0.00897645716938,0.0212270685336,-0.0157629363798,0.574032069936,0.818818512043,0.00204301762168,0.0,0.818774851574,-0.573971381602,-0.0120558049773,0.0,-0.00869905012969,0.00859335558453,-0.999925237589,0.0,0.660137947522,0.258852830757,0.303314031089,1.0,-0.00802,-0.0105405714286,0.402
0.463831555857,0.538730791543,-0.124026533625,-1.37002175193,0.0788314892042,1.89926358425,0.157428708518,-0.00486019598134,-0.0478373711723,0.000484575145468,-0.0736942615402,-0.00999464319938,0.0241548471653,-0.0140573785123,0.574043533011,0.818810445695,0.00205502571958,0.0,0.818766901699,-0.573982751894,-0.0120543814048,0.0,-0.00869087141914,0.00860249235586,-0.999925230144,0.0,0.660045964815,0.25872432375,0.303312054917,1.0,-0.00826,-0.010856,0.414
0.463700357733,0.537801671038,-0.124035124842,-1.37145918493,0.0787514649928,1.8998209838,0.157249971078,-0.0012864051477,-0.0478234890241,-0.00165112535233,-0.0745579391322,-0.00606939359464,0.0302077244218,-0.00903532299347,0.574068732061,0.818792672256,0.00209705292728,0.0,0.818749685497,-0.574007777362,-0.0120320790984,0.0,-0.00864822001302,0.00862436786257,-0.999925411503,0.0,0.65988908491,0.258499184353,0.3033326891,1.0,-0.00866,-0.0113817142857,0.434
0.463614266707,0.537163318529,-0.124033629849,-1.37244711438,0.0786912932013,1.90017807315,0.157129575527,-0.00820828024666,-0.0535833825216,0.00135271716586,-0.0781302778753,-0.00248163264243,0.0310115992673,-0.0123060294737,0.574077856958,0.818786257683,0.00210363508633,0.0,0.818743333016,-0.574016849487,-0.0120315438261,0.0,-0.0086439071808,0.00862954624312,-0.999925404118,0.0,0.659773391425,0.258348849589,0.303344092301,1.0,-0.00892,-0.0117234285714,0.447
0.46347193203,0.536125327906,-0.124042855723,-1.37408359251,0.0785929720456,1.90079438371,0.156929224645,-0.00486412163138,-0.0519688984296,0.000884193986398,-0.0787041110439,-0.00648587368405,0.0331536990427,-0.011061857807,0.57410064558,0.818770248914,0.00211545248837,0.0,0.818727517709,-0.574039624572,-0.0120211508817,0.0,-0.00862837327036,0.00863349586799,-0.999925504187,0.0,0.659588340178,0.258094870811,0.303351619475,1.0,-0.00934,-0.0122754285714,0.468
0.463379951801,0.535439650302,-0.124046315321,-1.37516719271,0.0785352713335,1.90119110017,0.156794980395,-0.00519747988779,-0.0530969223833,-0.000624331896051,-0.081031361668,-0.00964368644819,0.0347498446871,-0.0130226607976,0.574112543616,0.818761901126,0.00211741083532,0.0,0.818719123116,-0.574051440437,-0.0120286357159,0.0,-0.00863325212353,0.00863952172702,-0.999925410029,0.0,0.659461632463,0.257930148207,0.303354259444,1.0,-0.0096,-0.0126171428571,0.481
0.463229127214,0.534320308498,-0.1240541949,-1.37695272671,0.0784380752927,1.90183617212,0.15657511182,-0.00966500889516,-0.0563587460366,0.000672548693031,-0.0823463652547,-0.00393702894605,0.0370488745571,-0.00746280138865,0.574133388098,0.818747322466,0.00210274269064,0.0,0.818704247324,-0.574072238799,-0.0120485250086,0.0,-0.00865773807467,0.00863915118704,-0.999925201522,0.0,0.659250820637,0.257656903473,0.303350294167,1.0,-0.01002,-0.0131691428571,0.502
0.463130629176,0.533638368959,-0.124058450651,-1.3780827924,0.0783694296748,1.90224419076,0.156440045194,-0.00945618346609,-0.0527510335854,-0.000425617077362,-0.0888111405127,3.2713842341e-05,0.0362416696077,-0.0122269474305,0.574149906195,0.818735832268,0.00206617467525,0.0,0.818692266826,-0.574088898302,-0.0120688022647,0.0,-0.0086951603324,0.00862102889819,-0.999925033214,0.0,0.659117366733,0.257480886127,0.303328911966,1.0,-0.01028,-0.0135108571429,0.515
0.462981907991,0.532524852125,-0.12405635783,-1.37987889548,0.0782792212644,1.90293249852,0.156211474818,-0.00944177924038,-0.0541715014574,0.000232226251624,-0.0922937121005,-0.00582693280914,0.0356150421687,-0.00971046555715,0.574157302169,0.818730612951,0.00207910642078,0.0,0.818687045203,-0.574096067832,-0.0120819625252,0.0,-0.00869843323492,0.00863925083302,-0.999924847478,0.0,0.658908458064,0.257217582478,0.303318813021,1.0,-0.01068,-0.0140365714286,0.535
0.46287352388,0.531772199724,-0.124056276407,-1.38108539743,0.0782013978137,1.90336755582,0.156055098764,-0.00465750551482,-0.0586581280662,-4.80257906978e-05,-0.0966044282107,-0.00459252854083,0.035454350836,-0.0105922927514,0.574162816473,0.818726794052,0.00206004398583,0.0,0.818682984129,-0.574101670489,-0.0120909197615,0.0,-0.00871665310253,0.0086288456338,-0.999924778662,0.0,0.658765914599,0.257029819142,0.303312800952,1.0,-0.01094,-0.0143782857143,0.548
0.462710534874,0.530595847497,-0.124058863917,-1.38299660726,0.0780858916013,1.9040466192,0.155811807039,-0.00876523168573,-0.0564650472108,-0.000199692195447,-0.0897921258611,-0.00450043363448,0.0337289693802,-0.0201768183158,0.574171819098,0.81872060173,0.00201130755893,0.0,0.818676087715,-0.574110818138,-0.0121234814385,0.0,-0.00877119946296,0.00860773652047,-0.999924483615,0.0,0.658535101485,0.25673693255,0.303291040414,1.0,-0.01134,-0.014904,0.568
0.462587112364,0.529735712211,-0.12406472593,-1.38435812871,0.0779979354655,1.90453832655,0.155636214887,-0.0143949111559,-0.0580518865921,-0.000423342345275,-0.101067099308,-0.00721041360076,0.0354206817037,-0.0055159377762,0.574183501544,0.81871244022,0.00199842073463,0.0,0.818667799257,-0.574122596423,-0.012125412853,0.0,-0.00878005688791,0.00859842026062,-0.999924486034,0.0,0.658375563738,0.256521075468,0.30329172532,1.0,-0.01162,-0.015272,0.582
0.462426580188,0.528448459139,-0.124065246285,-1.38633944843,0.0778745684359,1.90529465706,0.155352487476,-0.00583938336344,-0.0648556433734,0.00061935870851,-0.10146449661,-0.00450001004352,0.0408306788521,-0.0161964217995,0.574157388668,0.818730628802,0.00204875587894,0.0,0.8186866908,-0.574096311447,-0.0120943950019,0.0,-0.008726036435,0.008621541414,-0.999924759825,0.0,0.658144943073,0.256228168941,0.303320728989,1.0,-0.01202,-0.0157977142857,0.602
0.462286208592,0.527403338254,-0.12406525987,-1.38796828752,0.0777803781518,1.90592230714,0.155126326876,-0.0116813471524,-0.0671594946038,-0.000483662561415,-0.110189508057,-0.00301531082879,0.0384017194104,-0.015241829621,0.574150139824,0.818735614664,0.00208737210791,0.0,0.818692156788,-0.574088872746,-0.0120774792198,0.0,-0.00869009258342,0.00864336796746,-0.999924884419,0.0,0.657957324818,0.255983497074,0.303335573785,1.0,-0.01234,-0.0162182857143,0.618
0.462131874031,0.526177418155,-0.124065916626,-1.3898876545,0.0776557054388,1.90663920893,0.154883798069,-0.00863599656765,-0.0675712869544,0.000434477395769,-0.106952969791,-0.0129216071837,0.0356292867521,-0.00944660220268,0.574148460635,0.818736755733,0.00210163378889,0.0,0.818693546664,-0.574087194984,-0.0120630057225,0.0,-0.00867007204862,0.0086467166627,-0.999925029261,0.0,0.657729025838,0.255698335756,0.303346829891,1.0,-0.0127,-0.0166914285714,0.636
0.462015021418,0.525264615847,-0.124071550127,-1.39129323622,0.0775677772435,1.9071404467,0.154679757787,-0.0078493585432,-0.0671945251225,0.000410453198328,-0.110681382738,-0.00576200627956,0.038576697481,-0.015125149596,0.574132932571,0.818747630733,0.00210708497221,0.0,0.818704497558,-0.574071650339,-0.0120595545973,0.0,-0.00866428082109,0.00864903391064,-0.999925059417,0.0,0.657559051162,0.255483158287,0.303363534853,1.0,-0.01296,-0.0170331428571,0.649
0.461824737234,0.523886275421,-0.124080126573,-1.39351987316,0.0774279954172,1.9079401143,0.154382161691,-0.0097627071099,-0.0639183249279,-0.0039227492907,-0.114645210474,-0.0032346252037,0.0383377933857,-0.0136608994117,0.574133049999,0.818747667291,0.00206036545092,0.0,0.818703926812,-0.574071971012,-0.012083013785,0.0,-0.00871030899531,0.00862425288647,-0.999924873568,0.0,0.657289681418,0.255138540934,0.30334257949,1.0,-0.01336,-0.0175588571429,0.669
0.461704405321,0.522958324196,-0.124080961137,-1.39499323497,0.0773383354368,1.90851151372,0.15418466952,-0.00599617272773,-0.0743981796448,0.00116859886972,-0.106823155108,-0.00990110402902,0.0525519461125,-0.0131696267344,0.57412551337,0.818752901732,0.00208031345526,0.0,0.818709442624,-0.574064370158,-0.0120703925247,0.0,-0.00868860235377,0.00863325879127,-0.999924984702,0.0,0.657117157103,0.254920524395,0.303343164051,1.0,-0.01362,-0.0179005714286,0.682
0.461505847239,0.521427297594,-0.124083711336,-1.39744313716,0.0771902286369,1.9094490012,0.153847721097,-0.00525487707559,-0.071203564919,0.000381210880836,-0.118438509433,-0.00893973289632,0.0471709822321,-0.0153838447289,0.574105545322,0.818766870675,0.00209313586257,0.0,0.818723586459,-0.574044357142,-0.0120628317472,0.0,-0.00867526119616,0.00863920463016,-0.999925049184,0.0,0.656826477114,0.25455741998,0.303334261887,1.0,-0.01404,-0.0184525714286,0.703
0.461374563699,0.520442119503,-0.124087918193,-1.39899689467,0.077094333868,1.91001571261,0.15364882174,-0.0109305308265,-0.081560849149,-0.00272421898259,-0.122239017634,-0.00337674870748,0.0430999190181,-0.0129912601233,0.574110140004,0.818763658391,0.00208943645737,0.0,0.818720321517,-0.574048962733,-0.0120652568226,0.0,-0.00867932208832,0.00863761667268,-0.999925027663,0.0,0.656638422783,0.254320223663,0.303335945429,1.0,-0.0143,-0.0187942857143,0.716
0.461156413164,0.518800774139,-0.124090407204,-1.40155552462,0.0769250870042,1.91093498987,0.153296005678,-0.0122954037735,-0.0809432908316,0.000133020100956,-0.126780282351,-0.00674483627474,0.0422844206671,-0.0159787665014,0.574091798704,0.818776532808,0.00208395907143,0.0,0.818733177047,-0.574030699567,-0.0120618265163,0.0,-0.00867985112476,0.00863096828469,-0.999925080479,0.0,0.656325652479,0.2539284941,0.303350192337,1.0,-0.01472,-0.0193462857143,0.737
0.461034881072,0.517845173072,-0.124093603391,-1.40305373887,0.0768313659324,1.91147151077,0.153094130826,-0.00972728357041,-0.0782149802936,-0.000994454005655,-0.12581228197,-0.00638885301458,0.0489594565709,-0.00820669697638,0.57408234362,0.818783179794,0.00207704863529,0.0,0.818739719353,-0.574021260933,-0.0120669321434,0.0,-0.00868809826692,0.0086281410204,-0.999925033256,0.0,0.656140007979,0.253702885412,0.303354315381,1.0,-0.01496,-0.0196617142857,0.749
0.460807883525,0.51617228092,-0.124102462307,-1.4057003525,0.0766673540091,1.91245710227,0.15273435565,-0.00854455745358,-0.0805009463935,-0.000187094514054,-0.129723654654,-0.00431107994357,0.0520190026951,-0.0137409822536,0.574075745852,0.818787792605,0.00208221215416,0.0,0.818744429417,-0.574014671523,-0.0120608074422,0.0,-0.00868018869741,0.00862878276082,-0.999925096411,0.0,0.655822041593,0.253297036875,0.303353851449,1.0,-0.01538,-0.0202137142857,0.77
0.460665467325,0.515121221174,-0.124105287934,-1.40736573277,0.0765639380685,1.91308700266,0.152493121299,-0.0104756688658,-0.0744587116469,0.000390748676141,-0.129409100158,-0.00935185743267,0.0541554394514,-0.0167735765834,0.574053827163,0.818803149325,0.00208640272213,0.0,0.818759876278,-0.573992772945,-0.0120543977811,0.0,-0.00867276576007,0.0086283021366,-0.999925164968,0.0,0.655605188098,0.253025964847,0.303349808694,1.0,-0.01566,-0.0205817142857,0.784
0.460436460024,0.513394935368,-0.124100525974,-1.41016761177,0.0763924247013,1.91406210382,0.152114895256,-0.00733570231239,-0.0784179527893,2.47701119579e-05,-0.133312462708,-0.00896885102944,0.046407761593,-0.0184644134635,0.574032055946,0.81881860756,0.00200837279312,0.0,0.818774118906,-0.57397114818,-0.0121165246001,0.0,-0.00876865658734,0.00859984276488,-0.999924573838,0.0,0.655262729746,0.252625536436,0.303313597934,1.0,-0.01606,-0.0211074285714,0.804
0.460285873494,0.512286914429,-0.124109598859,-1.4119172131,0.0762812028235,1.91468113231,0.151855579061,-0.00662679222117,-0.0858294011653,-0.000473982900488,-0.136608292236,-0.00681674821966,0.0569716329292,-0.0205430488525,0.574010969939,0.818833445131,0.00198555447963,0.0,0.818788662233,-0.573950169131,-0.0121275246505,0.0,-0.0087909827147,0.00858724701485,-0.999924486055,0.0,0.655045068454,0.252352587386,0.303311008545,1.0,-0.01632,-0.0214491428571,0.817
0.460050567695,0.510572661467,-0.124106827259,-1.41464470122,0.0761156501421,1.91572303465,0.151473964151,-0.010596198339,-0.0903073770072,0.00106842382245,-0.136922966937,-0.0151181384406,0.0575140970473,-0.0159544593704,0.573987346753,0.818849948577,0.00200857772926,0.0,0.818805437819,-0.573926419477,-0.0121188665279,0.0,-0.00877092627627,0.0086008760045,-0.999924545045,0.0,0.654715616749,0.251942880004,0.303303445557,1.0,-0.01672,-0.0219748571429,0.837
0.459899169124,0.509432301815,-0.124110622677,-1.41644467853,0.0760061877716,1.9163877536,0.151232120107,-0.00879944461532,-0.086570612963,-0.000918406206761,-0.136563345511,-0.0115268540669,0.0472854938505,-0.014292307146,0.573980242632,0.818854920412,0.00201178685633,0.0,0.818810427472,-0.573919278513,-0.0121199222505,0.0,-0.00877002355886,0.00860403362415,-0.999924525798,0.0,0.654493461571,0.251670377755,0.303302606728,1.0,-0.01698,-0.0223165714286,0.85
0.459635366644,0.507554233971,-0.124115859229,-1.4193847689,0.0758214548303,1.91742849469,0.150809220013,-0.0129788464867,-0.091351539903,-0.000334580577129,-0.139039382441,-0.00310464165598,0.0561648647276,-0.0192308753003,0.573956119612,0.818871878218,0.00199166398692,0.0,0.818827060295,-0.573895186547,-0.0121370131838,0.0,-0.00879582175329,0.0085971068791,-0.999924358776,0.0,0.65412503655,0.251211399154,0.303307397234,1.0,-0.0174,-0.0228685714286,0.871
0.459469298306,0.506363964559,-0.124121569951,-1.42124777236,0.0757077585045,1.918131332,0.150563732764,-0.0113345825232,-0.0989928816238,0.00100442347373,-0.14517579946,-0.00503830499101,0.0540332658277,-0.0188405361223,0.573960996804,0.818868402336,0.00201511894982,0.0,0.81882390315,-0.573899971643,-0.0121237403715,0.0,-0.00877144007761,0.0086087474175,-0.999924472801,0.0,0.653899573971,0.250923367164,0.303314018904,1.0,-0.01766,-0.0232102857143,0.884
0.459173519553,0.504151683101,-0.124126267992,-1.42459232908,0.0754965447082,1.91941337743,0.150098244568,-0.0108246240439,-0.0939370779279,-0.000815786314002,-0.144403847336,-0.00812337483398,0.0499732833837,-0.0220969742396,0.573942717647,0.818880879407,0.00214688210591,0.0,0.818838241698,-0.573881266652,-0.0120404576468,0.0,-0.00862781123606,0.0086686490506,-0.999925204901,0.0,0.653483842498,0.250386198663,0.30338572588,1.0,-0.01814,-0.0238411428571,0.908
0.459015823415,0.503064518689,-0.124125944831,-1.42618530183,0.0753964265213,1.92002172056,0.14987801611,-0.0207948089821,-0.104035260332,0.000620450556406,-0.146176301303,-0.00393021248508,0.0610313780924,-0.0196927630622,0.573944254155,0.818879596104,0.00222420967266,0.0,0.818837977677,-0.573882490212,-0.0120000267872,0.0,-0.00855030672291,0.00870878144552,-0.999925521917,0.0,0.653309937262,0.250159963272,0.303432954214,1.0,-0.01834,-0.024104,0.918
0.458747756188,0.501056564386,-0.124132900912,-1.42919566763,0.0751949117359,1.92108600928,0.149463834285,-0.0125150313628,-0.0990565810005,-2.23700310957e-05,-0.152870902331,-0.0076665213187,0.0528311219081,-0.0217398518654,0.573928583999,0.818890453215,0.00227002264926,0.0,0.818849502755,-0.57386670619,-0.0119683860607,0.0,-0.00849827028287,0.00872797382273,-0.999925798185,0.0,0.652930066164,0.249689947095,0.3034941128,1.0,-0.01874,-0.0246297142857,0.938
0.458563058227,0.499752815716,-0.124135154423,-1.43118123262,0.0750684239922,1.92179932717,0.149173091583,-0.00992410109206,-0.103194981912,-0.00114698941692,-0.150707670818,-0.00834029091696,0.059664568022,-0.0211734154301,0.573910238261,0.818903239385,0.00229561450407,0.0,0.818862610722,-0.573848246743,-0.0119566455471,0.0,-0.00847416456624,0.00874200249137,-0.999925880217,0.0,0.652681470099,0.249377737537,0.303520498642,1.0,-0.019,-0.0249714285714,0.951
0.458244353787,0.497682252279,-0.124135555935,-1.43444298284,0.0748667902815,1.92301006747,0.148707280507,-0.0129874331071,-0.0993235331187,0.000738613783872,-0.157255637601,-0.00885545418802,0.0608585961608,-0.0244933867487,0.573901461446,0.818909347907,0.0023107059681,0.0,0.818868867186,-0.573839359689,-0.0119546864173,0.0,-0.00846399338332,0.00875314570968,-0.99992586888,0.0,0.652280254624,0.248859588448,0.303516832856,1.0,-0.01942,-0.0255234285714,0.972
0.458046429108,0.496401371266,-0.124135568616,-1.43649360132,0.0747440719378,1.92373522372,0.148398626063,-0.0221728333734,-0.101771624602,0.000757427683709,-0.158450764192,-0.00755351769636,0.0525096913681,-0.0241334455671,0.57388139147,0.81892351139,0.00227550379221,0.0,0.818882436965,-0.57381929657,-0.0119881698166,0.0,-0.00851183001505,0.00874332600232,-0.999925548729,0.0,0.652018418241,0.248533663202,0.303496410083,1.0,-0.01968,-0.0258651428571,0.985
0.457726947759,0.494430429727,-0.124143668489,-1.43971367271,0.0745458678422,1.92484159777,0.147943080024,-0.0171800960248,-0.100112284642,-0.00359833939421,-0.161323852768,-0.0072388253676,0.0574856088648,-0.0146567404667,0.573884310891,0.818921794901,0.0021537063915,0.0,0.818878937255,-0.573822527902,-0.0120722613136,0.0,-0.00865055920759,0.00869187351139,-0.999924806753,0.0,0.651602478472,0.248008110827,0.303432968995,1.0,-0.0232805714286,-0.030597322449,1.005
0.457483254451,0.492656339979,-0.124208158374,-1.44236506189,0.0743921533331,1.92581570138,0.147566639831,-0.0199346942061,-0.158786276665,-0.00720040351373,-0.228014025961,-0.0141998903081,0.0841572051513,-0.0331475352773,0.57391376573,0.81890095138,0.00222895394415,0.0,0.818859247032,-0.573851835453,-0.0120146326533,0.0,-0.00855986960233,0.0087207305194,-0.999925335958,0.0,0.651282948893,0.247561871036,0.303492269343,1.0,-0.0340074285714,-0.044695477551,1.018
0.456970058108,0.488463831102,-0.124270647303,-1.44893807997,0.0740585821231,1.92834369505,0.146559054352,-0.0343781814675,-0.228167224635,-0.000534593232598,-0.358523727222,-0.00843953046496,0.136961943885,-0.0589698995924,0.573794249245,0.818984286219,0.00237599702936,0.0,0.818944153462,-0.573731374577,-0.0119804105552,0.0,-0.00844874661008,0.00882026937352,-0.999925407982,0.0,0.650455966296,0.246584579446,0.303500604698,1.0,-0.0513354285714,-0.0674694204082,1.039
0.456452316148,0.484928146493,-0.12433420385,-1.45449187821,0.0737378824895,1.93046422274,0.145726888394,-0.0419071703663,-0.28824266182,-0.00621864834363,-0.454714787102,-0.0210824666975,0.169932360913,-0.0717158031033,0.573772059045,0.818999589922,0.00245822465885,0.0,0.818960594376,-0.573708927638,-0.0119313917423,0.0,-0.00836166049912,0.00885925890317,-0.99992579533,0.0,0.649773349227,0.245691039533,0.303498745463,1.0,-0.0620622857143,-0.0815675755102,1.052
0.455414200816,0.478160794809,-0.124531444459,-1.4652634352,0.0730821672937,1.93418769655,0.144090098476,-0.0580248199862,-0.378322160416,-0.0128602309443,-0.580760768123,-0.0399695158196,0.201143745447,-0.0844905363564,0.573773683013,0.818999204222,0.00219341452111,0.0,0.81895678464,-0.573711664502,-0.0120605890296,0.0,-0.00861939127184,0.00871652811059,-0.999924861293,0.0,0.648380131313,0.243862227082,0.303393124561,1.0,-0.0785651428571,-0.103257044898,1.072
0.454567876354,0.47285681399,-0.124642787329,-1.47358654347,0.0725794242169,1.93708714614,0.142912761819,-0.0702734040489,-0.419805752509,-0.010590726635,-0.666281064079,-0.0452236546945,0.226021629302,-0.0954043146743,0.573848792641,0.818946863396,0.00208447078334,0.0,0.818902861137,-0.573787073665,-0.0121344557896,0.0,-0.00874160041991,0.00867048882644,-0.99992420065,0.0,0.647297421325,0.242449350311,0.303356484808,1.0,-0.089292,-0.1173552,1.085
0.452976370469,0.462881360945,-0.124795589439,-1.48881303107,0.0716816897408,1.94273402302,0.140452899995,-0.0817663162409,-0.497426843328,-0.0107163276942,-0.762610954299,-0.055486750882,0.278856736132,-0.133639284374,0.573730201974,0.819029002664,0.00242797001557,0.0,0.818989367676,-0.573666937537,-0.0119752791811,0.0,-0.00841541686387,0.00885923153869,-0.999925344601,0.0,0.645359022498,0.239899943194,0.303487246027,1.0,-0.10662,-0.140129142857,1.106
0.451776605472,0.455947369518,-0.124875706319,-1.49970609391,0.0709891105435,1.94646640728,0.138833010166,-0.0992627460559,-0.536960952849,-0.0099684231568,-0.842369220988,-0.0573413643813,0.288638049838,-0.129614980444,0.57376188466,0.819007370242,0.00223026925617,0.0,0.818964726827,-0.573698995864,-0.0121237476984,0.0,-0.00865010202846,0.00878282527732,-0.999924015971,0.0,0.643890793742,0.238027251355,0.303400332213,1.0,-0.117346857143,-0.154227297959,1.119
0.449551208858,0.443206874324,-0.125082654784,-1.5189993482,0.0696796546745,1.95332853552,0.135811386454,-0.114588226429,-0.621522573962,-0.010070252641,-0.959163422018,-0.0590153823405,0.335028367527,-0.158745384499,0.573777518828,0.818995850097,0.0024296734349,0.0,0.818956560579,-0.573714582073,-0.0119363772945,0.0,-0.00838206577088,0.00883879212157,-0.999925805611,0.0,0.641343291903,0.23462540674,0.303554413279,1.0,-0.134674857143,-0.177001240816,1.14
0.448115280262,0.43525533519,-0.12517963281,-1.53116430425,0.0688786067393,1.95746843175,0.133851621923,-0.123872057416,-0.684828139461,-0.0081644334322,-1.00663787944,-0.0747128376512,0.35618775549,-0.167792410135,0.573734992842,0.819025748767,0.00239327086378,0.0,0.81898565436,-0.573671860537,-0.0119933849169,0.0,-0.00845010160323,0.00884124933531,-0.99992521125,0.0,0.639524355625,0.232296019425,0.303580203917,1.0,-0.145401714286,-0.191099395918,1.153
0.445246765055,0.420087197588,-0.125365645359,-1.55400676016,0.0673004700503,1.96542319997,0.130055732765,-0.143966583214,-0.753332102965,-0.00904067994974,-1.13028929877,-0.0788182467975,0.386779012883,-0.188267513236,0.573658622991,0.819078774102,0.0025481337724,0.0,0.819041006775,-0.573595217675,-0.0118786524049,0.0,-0.00826811389074,0.00890148881316,-0.999926198171,0.0,0.636520703905,0.228346670714,0.303701866539,1.0,-0.161904571429,-0.212788865306,1.173
0.443247368625,0.409920243898,-0.125497051983,-1.56902594749,0.0662084565531,1.97082760181,0.127554948621,-0.15606653557,-0.780653553994,-0.00835286529588,-1.18178282671,-0.0883320004496,0.41626874048,-0.192682320049,0.573664070388,0.819073606697,0.00295094226727,0.0,0.819042025601,-0.573600309976,-0.0115581830595,0.0,-0.00777449096921,0.00904763426721,-0.999928846271,0.0,0.634474293127,0.22557022393,0.303910271189,1.0,-0.172631428571,-0.226887020408,1.186
0.439597931593,0.392490008258,-0.125698006269,-1.59504809864,0.0644821861958,1.97969532219,0.123115032952,-0.176472469819,-0.837160481181,-0.0122744029735,-1.27509090807,-0.0857926287298,0.433776094233,-0.224724000371,0.573728130865,0.819027784059,0.00320432434367,0.0,0.818998624454,-0.573662534974,-0.0115453891757,0.0,-0.00761794035576,0.00924842984259,-0.999928214188,0.0,0.630754649519,0.220674671528,0.304044203233,1.0,-0.189959428571,-0.249660963265,1.207
0.437084838844,0.381114455978,-0.125823373846,-1.61214333358,0.0631593397419,1.9853580236,0.120076470445,-0.202026772998,-0.899300662951,-0.00923623766163,-1.30721043161,-0.0973979957284,0.439920185289,-0.237780081081,0.573668751139,0.819069846737,0.00308172599286,0.0,0.819039493661,-0.57360402307,-0.0115533303767,0.0,-0.00769544227459,0.00915201611018,-0.999928507829,0.0,0.628241540395,0.217368803118,0.304026670039,1.0,-0.200686285714,-0.263759118367,1.22
0.432836761323,0.362513233429,-0.126034273042,-1.63969778305,0.0610821469697,1.99454124992,0.115148443693,-0.226830976875,-0.967839733788,-0.0211069582618,-1.41192441815,-0.115686188214,0.485115462946,-0.253841154394,0.573698142365,0.819048768669,0.00320981141893,0.0,0.819020472327,-0.573633498327,-0.0114377623648,0.0,-0.00752697474562,0.00919090123925,-0.999929433503,0.0,0.62392493799,0.211669319954,0.30411573192,1.0,-0.218014285714,-0.286533061224,1.241
0.428740155377,0.345939157869,-0.126249679287,-1.66430441171,0.059228066888,2.00248390169,0.110510811921,-0.253962258271,-1.00159989528,-0.0137257004238,-1.43305501611,-0.11022889161,0.472198785214,-0.276874278731,0.573722884275,0.819031911253,0.00308663416706,0.0,0.819001462608,-0.573657944164,-0.0115721322544,0.0,-0.0077074217787,0.00916733149112,-0.999928275269,0.0,0.620369665924,0.206950714777,0.304064053564,1.0,-0.231216571429,-0.303884636735,1.257
0.422690596749,0.322095011231,-0.126493265011,-1.69913602994,0.0564376413499,2.01372482867,0.103789606049,-0.266754841288,-1.05872793415,-0.00671878984099,-1.56499260595,-0.136276991592,0.493901155724,-0.305671426606,0.573662953195,0.819073468612,0.00319625544547,0.0,0.819044733804,-0.57359803375,-0.011478963713,0.0,-0.00756889451025,0.00920310960209,-0.999929004785,0.0,0.614897901855,0.199792026751,0.30412343863,1.0,-0.250194857143,-0.328827526531,1.28
0.419842175254,0.311446280409,-0.126591716252,-1.71474374508,0.0551795577872,2.01853851194,0.100680462615,-0.286261709632,-1.05112824705,-0.00587897351127,-1.54294486837,-0.117404784178,0.480236279934,-0.314115599144,0.573624064611,0.819101264168,0.00304933402451,0.0,0.819070185056,-0.573559083918,-0.0116084499238,0.0,-0.0077596721757,0.00915668110736,-0.999927968745,0.0,0.612351712052,0.196521486998,0.304059791676,1.0,-0.258446285714,-0.339672261224,1.29
0.414298372765,0.29134280221,-0.126811888573,-1.74356381313,0.0527598684144,2.02746570407,0.0947336057113,-0.314876195872,-1.1363786932,-0.0128413732564,-1.56755163571,-0.11955346747,0.50108975519,-0.335729420933,0.573556602241,0.819148148567,0.00314350528796,0.0,0.81911842769,-0.573491492992,-0.0115436470321,0.0,-0.00765333090358,0.00919601512991,-0.999928427355,0.0,0.607614819908,0.19033287669,0.30414716052,1.0,-0.273298857143,-0.359192783673,1.308
0.409957313753,0.276351801509,-0.126985071662,-1.76497556341,0.0509659848168,2.03394853739,0.0901716806171,-0.347820349291,-1.15163747599,-0.00762831396013,-1.62929957157,-0.144580903089,0.493635212057,-0.360449969939,0.573533034934,0.819164580388,0.00316148357115,0.0,0.819134724241,-0.57346742921,-0.0115826628949,0.0,-0.00767524710634,0.00923289853788,-0.999927919485,0.0,0.604007574456,0.185635787931,0.304164442018,1.0,-0.284025714286,-0.373290938775,1.321
0.402637795585,0.252542115478,-0.127351761419,-1.79843480263,0.048019132718,2.04407196523,0.0827607447275,-0.376346487812,-1.20940567734,-0.022448857911,-1.66869248226,-0.151380543831,0.533335387026,-0.38022498434,0.573646549682,0.819083953821,0.00344376714062,0.0,0.819058388487,-0.573580877105,-0.0113613630172,0.0,-0.00733077230396,0.00933823284895,-0.999929526109,0.0,0.598322177333,0.177991107209,0.304309695413,1.0,-0.300528571429,-0.394980408163,1.341
0.397510328079,0.236637396,-0.127561443383,-1.82076424325,0.045996973692,2.050460119,0.0776060229242,-0.398965700078,-1.21834607624,-0.0084265500983,-1.69390773099,-0.151971258803,0.492028172354,-0.400814440732,0.573644776902,0.819085555403,0.00335704703473,0.0,0.819058618747,-0.57357903488,-0.0114375130117,0.0,-0.0074429131985,0.00931086717027,-0.999928952874,0.0,0.594369351489,0.172805284826,0.304297203089,1.0,-0.311255428571,-0.409078563265,1.354
0.38867489268,0.209997765517,-0.127840549846,-1.85759390814,0.0425818015925,2.06097857481,0.068716278283,-0.43607612485,-1.28799386836,-0.0162245138433,-1.76215934371,-0.170415660904,0.491746516047,-0.443121641149,0.573451817323,0.819219879329,0.00354251638494,0.0,0.819195251009,-0.573385463963,-0.0113576996864,0.0,-0.00727336600037,0.00941528739837,-0.99992922275,0.0,0.587697383923,0.16418786484,0.304368558333,1.0,-0.328583428571,-0.431852506122,1.375
0.382691811901,0.193117888369,-0.12807688828,-1.88076321215,0.0403430699704,2.06729596317,0.0628780941397,-0.467273137916,-1.32416296952,-0.0205834185983,-1.80657465099,-0.17545027607,0.516260182616,-0.462439204557,0.573425596589,0.819238418337,0.00349942829677,0.0,0.819213121474,-0.573359222201,-0.0113934553092,0.0,-0.00732766790079,0.00940025747032,-0.999928967699,0.0,0.583385896073,0.158544484402,0.304359549419,1.0,-0.339310285714,-0.445950661224,1.388
0.372657139832,0.166322998698,-0.128605804386,-1.91707086529,0.0368013529088,2.07676291742,0.053318162123,-0.514107618885,-1.34393104178,-0.025952455397,-1.84871187815,-0.195438328275,0.460222191461,-0.48834131921,0.5735997325,0.819116916644,0.00340156499959,0.0,0.819089570768,-0.573532629543,-0.0115475023006,0.0,-0.00750799051272,0.00941001181801,-0.999927538253,0.0,0.576456558085,0.149358817445,0.304350983511,1.0,-0.355813142857,-0.467640130612,1.408
0.365726854996,0.148480115335,-0.128877162548,-1.94081588944,0.0343172188017,2.08286053054,0.0466989223241,-0.542448796553,-1.36771457513,-0.0219697494088,-1.84304923253,-0.200370967813,0.456234729575,-0.513101646895,0.573518883988,0.819173228237,0.00347257112828,0.0,0.819147162737,-0.57345203551,-0.0114645388342,0.0,-0.00740023278254,0.00941985766624,-0.999928248844,0.0,0.571814059431,0.143268683037,0.304411905089,1.0,-0.36654,-0.481738285714,1.421
0.353569938081,0.119002474015,-0.129436981324,-1.97957610709,0.0302501206051,2.09230545835,0.0353520355969,-0.599395257752,-1.41023803164,-0.0356229323335,-1.83658693066,-0.180357800992,0.435781188589,-0.552358795343,0.573605382257,0.819112391127,0.00353596516883,0.0,0.819086668084,-0.573537724445,-0.0115002481055,0.0,-0.007392128629,0.00949304890982,-0.999927616609,0.0,0.564018609386,0.132964857584,0.304472385723,1.0,-0.383868,-0.504512228571,1.442
0.345398731423,0.100271488159,-0.129850864077,-2.00380037903,0.0274939365581,2.0979776026,0.0278456522334,-0.635265678085,-1.43974358242,-0.0262065597497,-1.83639891903,-0.213575265761,0.425276743893,-0.589862984247,0.57367726967,0.819061926238,0.00356344672317,0.0,0.819037257099,-0.573610424566,-0.0113929458595,0.0,-0.00728763830299,0.00945465173546,-0.999928747406,0.0,0.559031330276,0.126271705956,0.304536127127,1.0,-0.394594857143,-0.518610383673,1.455
0.331516175026,0.0696140277243,-0.130378612923,-2.04310145742,0.0230699849264,2.10677410627,0.0149447744422,-0.670001593923,-1.43791085272,-0.0257109758071,-1.86552356995,-0.219975661909,0.416941555475,-0.620746493118,0.573491118061,0.819192011501,0.00362390663936,0.0,0.819167609739,-0.573423458814,-0.0114328884312,0.0,-0.00728783810512,0.0095254303028,-0.99992807421,0.0,0.550643775421,0.115390695724,0.304531592913,1.0,-0.39998,-0.525688,1.476
0.322275302144,0.0507555512419,-0.130796076103,-2.06687719543,0.0202338052852,2.11162784126,0.00675432214828,-0.713753729077,-1.45177135683,-0.0339681120003,-1.82228482741,-0.221795907282,0.363083077742,-0.63278286136,0.573686811596,0.819055462519,0.00351260860824,0.0,0.819029348025,-0.573619098112,-0.0115240728963,0.0,-0.00742409841125,0.00948832085435,-0.999927424631,0.0,0.545423622919,0.108418689777,0.304523824894,1.0,-0.39998,-0.525688,1.489
0.30757637824,0.0220874794936,-0.131262623197,-2.10247184086,0.0159082874777,2.11852069422,-0.00622989443089,-0.749643316764,-1.39515554945,-0.0229066631614,-1.76345142301,-0.220707183805,0.324824506984,-0.657828386972,0.573821484085,0.818961430383,0.00343901845634,0.0,0.818933596287,-0.573753011577,-0.011661624237,0.0,-0.00757741915831,0.009508201341,-0.999926085681,0.0,0.537369307171,0.0978355412185,0.30451355663,1.0,-0.39998,-0.525688,1.509
0.297612135215,0.00360156452018,-0.131637899827,-2.12475947036,0.0130814167767,2.12267736881,-0.0150062655106,-0.781691481939,-1.41240774048,-0.0328242431693,-1.73978683697,-0.208457423224,0.29806025605,-0.669043501831,0.573947049785,0.818872451888,0.00366585352319,0.0,0.818848127834,-0.573878597708,-0.0114824011512,0.0,-0.00729900763348,0.00959225224015,-0.999927353954,0.0,0.532236148174,0.090908929804,0.304652201231,1.0,-0.39998,-0.525688,1.522
0.28107543775,-0.0256872862807,-0.132095647731,-2.15974590638,0.00856099527861,2.12860117965,-0.0296440334496,-0.803573767316,-1.36563523402,-0.0205624863872,-1.64794054557,-0.209666012497,0.254666686781,-0.701606393868,0.573919294094,0.818891243566,0.00381077139715,0.0,0.818868613237,-0.573850191648,-0.0114410970308,0.0,-0.00718234056105,0.0096869739252,-0.999927285616,0.0,0.523877359743,0.0798915305731,0.304746555417,1.0,-0.39998,-0.525688,1.543
0.270362123245,-0.0435886293825,-0.132499110501,-2.18099010609,0.00573733018635,2.13192160521,-0.0389580825881,-0.835076100277,-1.34951979279,-0.0355158004718,-1.66296109897,-0.21172751854,0.232778148987,-0.72172423992,0.574107050024,0.818759757552,0.00378172279505,0.0,0.818736319448,-0.574037424122,-0.0115161549998,0.0,-0.00725825360742,0.0097079264846,-0.99992653426,0.0,0.518658809368,0.0729511206049,0.304710049975,1.0,-0.39998,-0.525688,1.556
0.252610767645,-0.0721536067043,-0.132942157316,-2.21403462504,0.0012050905112,2.13656422732,-0.054580908699,-0.857340069535,-1.36071865033,-0.0153547779652,-1.52414908672,-0.212990299605,0.21318534035,-0.753712687899,0.574045267164,0.818802551526,0.00389355394861,0.0,0.818780382059,-0.573975084449,-0.0114906609155,0.0,-0.00717391763999,0.00978431348307,-0.999926398349,0.0,0.510278595653,0.0619644797499,0.304776358464,1.0,-0.39998,-0.525688,1.577
0.241138351928,-0.0896195880961,-0.133373470225,-2.23408034372,-0.00160920054863,2.13906771522,-0.0646370926808,-0.885434505624,-1.32037457417,-0.0300299305944,-1.53921341442,-0.219417697002,0.18035666818,-0.767421504622,0.574154085813,0.818726447769,0.00385180073612,0.0,0.818703074383,-0.574083112186,-0.0116018619471,0.0,-0.00728763777499,0.00981492651231,-0.999925275985,0.0,0.505041423088,0.0550357194181,0.304732710035,1.0,-0.39998,-0.525688,1.59
0.223141216002,-0.115967393807,-0.133748152836,-2.26372011692,-0.00599242380815,2.1422965392,-0.0804909622897,-0.912674079664,-1.28063025341,-0.0258900183853,-1.45304304625,-0.222703504729,0.146262604586,-0.800771610953,0.573956258577,0.818865585535,0.00375672300158,0.0,0.818840904061,-0.573885507629,-0.0116509601133,0.0,-0.0073847835684,0.00976348791178,-0.99992506683,0.0,0.497046018184,0.0446559037796,0.304710280099,1.0,-0.39998,-0.525688,1.61
0.210965541518,-0.132975189696,-0.134089370157,-2.28251948083,-0.00873750082613,2.14402840111,-0.0911933283163,-0.938572346231,-1.29109433501,-0.0185278934921,-1.43687803263,-0.208819395009,0.114947776538,-0.835350374657,0.573970762109,0.81885538026,0.00376528410078,0.0,0.818829988621,-0.573898897829,-0.0117580485967,0.0,-0.00746739272975,0.0098320929496,-0.999923781092,0.0,0.491820713549,0.0378348994966,0.30469869212,1.0,-0.39998,-0.525688,1.623
0.191676441474,-0.158698067833,-0.134640115725,-2.31064095667,-0.0130640463898,2.14624305482,-0.108308723408,-0.980563332406,-1.26302626842,-0.0352067640593,-1.39245287821,-0.228150083197,0.0931119784054,-0.867334138384,0.573824307707,0.818958552946,0.00364682645855,0.0,0.818930826587,-0.573751840437,-0.0119110772752,0.0,-0.00766245274291,0.00982155337292,-0.999922408943,0.0,0.483770434481,0.0273537958463,0.304611019544,1.0,-0.39998,-0.525688,1.643
0.177743574813,-0.176479646062,-0.134953310265,-2.32957823173,-0.0159718760143,2.14733380385,-0.120625641923,-0.99686914037,-1.24741985515,-0.0272081783776,-1.344577519,-0.203004552868,0.0668500087525,-0.900839331028,0.573752035997,0.819009081429,0.0036705076834,0.0,0.81898083445,-0.573678431172,-0.01200821854,0.0,-0.00772929775956,0.0098960058102,-0.999921160405,0.0,0.478158212766,0.0200830123365,0.3046167284,1.0,-0.39998,-0.525688,1.657
0.157050430046,-0.201531589784,-0.13561088782,-2.35580804082,-0.0201864277805,2.14846602961,-0.138917153672,-1.04306248163,-1.22299162521,-0.0185196871017,-1.29484881844,-0.196053259708,0.0397655597402,-0.935520001792,0.573810172921,0.818968163965,0.00371197591552,0.0,0.818939809122,-0.573735571571,-0.0120760031083,0.0,-0.00776031888031,0.00996941022155,-0.999920190971,0.0,0.470142707329,0.00953594597167,0.304618554521,1.0,-0.39998,-0.525688,1.677
0.142072128699,-0.218874936501,-0.136143046471,-2.37349281613,-0.0230826919369,2.14894208996,-0.152200720641,-1.08866610911,-1.24135237357,-0.0546772807537,-1.24705759121,-0.215201174816,0.0520853355004,-0.955686605404,0.573908916191,0.818898174741,0.00388358386949,0.0,0.818872053654,-0.573833651544,-0.0120102873224,0.0,-0.00760681770837,0.0100731632187,-0.99992033068,0.0,0.464557356673,0.00212183915974,0.304688052001,1.0,-0.39998,-0.525688,1.691
0.120051307961,-0.243077598715,-0.136803395419,-2.39784555281,-0.0272166282627,2.1491299735,-0.171756936453,-1.12279180699,-1.2126666687,-0.034981026124,-1.18071173299,-0.210039196818,0.0186622752716,-0.994603256951,0.573963768888,0.818859247445,0.00398394004642,0.0,0.818834397335,-0.5738880798,-0.0119769990232,0.0,-0.00752128551155,0.01013674581,-0.999920335151,0.0,0.456573476208,-0.00839360855111,0.304730256416,1.0,-0.39998,-0.525688,1.711
0.105268530624,-0.258548829249,-0.137339331638,-2.41319632644,-0.0298452684865,2.14904876507,-0.18496269334,-1.1397858978,-1.18405894212,-0.033463663792,-1.18031438761,-0.21073115716,-0.00622048297559,-1.02037796153,0.574063803919,0.818788537535,0.00410204007135,0.0,0.818764990456,-0.573987352379,-0.0119648073398,0.0,-0.00744227127054,0.010227366523,-0.999920003586,0.0,0.451368035091,-0.0152789644185,0.3047369269,1.0,-0.39998,-0.525688,1.724
0.0819371209091,-0.281788360349,-0.138046862424,-2.4357140894,-0.0338265761317,2.14855495598,-0.205915043056,-1.17903776807,-1.14187840894,-0.0244928974,-1.12435226749,-0.192588354053,-0.038774315473,-1.0619146289,0.574089194108,0.818769460665,0.00434906796398,0.0,0.818749924004,-0.574013013988,-0.0117630190477,0.0,-0.00713491652065,0.0103140197672,-0.999921353889,0.0,0.443446582109,-0.0257788520648,0.304815614271,1.0,-0.39998,-0.525688,1.744
0.0651418107071,-0.297712669773,-0.138515254422,-2.45082290466,-0.0365511192333,2.14786569306,-0.221168371503,-1.2157618344,-1.12653652416,-0.0341375524397,-1.05853529343,-0.189377053044,-0.0405341286608,-1.10474828513,0.57398344282,0.81884293598,0.00447218794456,0.0,0.818825284992,-0.573907306502,-0.0116748919976,0.0,-0.00699341614805,0.0103633347979,-0.999921843657,0.0,0.438291280785,-0.0325558423908,0.304865894811,1.0,-0.39998,-0.525688,1.757
0.0366147559782,-0.323077726496,-0.139372125204,-2.47467967967,-0.0409352436692,2.14620224339,-0.246988336804,-1.27062114297,-1.08429607873,-0.054165345202,-0.988447061372,-0.171922171151,-0.0793893220446,-1.15353265026,0.574062861469,0.818786597129,0.00459198701223,0.0,0.818769854852,-0.573985367567,-0.0117247390808,0.0,-0.00696445994856,0.0104907197851,-0.999920717405,0.0,0.428693339758,-0.0451683050067,0.304868805766,1.0,-0.39998,-0.525688,1.781
0.0239161247677,-0.33384298831,-0.13971841245,-2.48463842638,-0.0429104544306,2.14537780093,-0.258608507573,-1.27930610566,-1.07345926776,-0.0310527467777,-0.987674040757,-0.193577257018,-0.0829176914825,-1.17185214796,0.573952315906,0.818864189301,0.00457443417428,0.0,0.818847681655,-0.573875592231,-0.0116630094982,0.0,-0.00692539803207,0.0104399771324,-0.99992151979,0.0,0.424696379715,-0.0503940228531,0.304865090414,1.0,-0.39998,-0.525688,1.791
-0.00222085934872,-0.354828502841,-0.140502114298,-2.50363464123,-0.0466187229936,2.14329661236,-0.282537254036,-1.31285535973,-1.05291356723,-0.0357678142169,-0.929880228851,-0.188525813945,-0.0937267083052,-1.2257764031,0.573967502671,0.818852956139,0.00467856834532,0.0,0.818837583856,-0.573890125485,-0.0116568450818,0.0,-0.00686038996343,0.0105218404384,-0.99992110985,0.0,0.416295885883,-0.0614361396203,0.304902322062,1.0,-0.39998,-0.525688,1.812
-0.0210551524572,-0.369001377804,-0.141140114257,-2.5163173458,-0.0491106936397,2.1416878408,-0.299846412887,-1.35395026067,-0.996704656935,-0.0402127614857,-0.899086675333,-0.184213883175,-0.117879379859,-1.26531640451,0.574040286407,0.818801601751,0.00473639666609,0.0,0.818786341421,-0.573961732365,-0.0117304639433,0.0,-0.00688654481774,0.0106120600945,-0.999919976639,0.0,0.411076127943,-0.0683037904429,0.304885396813,1.0,-0.39998,-0.525688,1.825
-0.0485410484143,-0.388518160443,-0.141931167804,-2.53338123296,-0.052642473411,2.13919391989,-0.325254254927,-1.38843049698,-0.953047712238,-0.040469858521,-0.836618624231,-0.177679121036,-0.127549392357,-1.29655985456,0.574016763652,0.818817588531,0.00482272341394,0.0,0.818803826417,-0.573938528455,-0.0116450118157,0.0,-0.00676732400596,0.0106335011081,-0.999920562835,0.0,0.403106393704,-0.0787902402472,0.304923940927,1.0,-0.39998,-0.525688,1.845
-0.0668758095543,-0.400698929989,-0.142438801785,-2.54394289002,-0.0547434633289,2.13744115086,-0.342335857184,-1.41490426095,-0.928473526582,-0.0409282780857,-0.825048876776,-0.175431682369,-0.132945473307,-1.33995508096,0.574006135451,0.818824428388,0.00492532644716,0.0,0.818811246443,-0.573926389764,-0.0117212939659,0.0,-0.00677103736884,0.0107612145259,-0.999919171391,0.0,0.397898383759,-0.0855915575293,0.30490965705,1.0,-0.39998,-0.525688,1.858
-0.095705366595,-0.418723212499,-0.14326557781,-2.55902567862,-0.0579903040988,2.1346060731,-0.369283232328,-1.46265069176,-0.906296126373,-0.046731514146,-0.735235953577,-0.147587579734,-0.132252400625,-1.35673944863,0.574003441432,0.818825037953,0.00513355105307,0.0,0.818815538119,-0.573924656435,-0.0115043544814,0.0,-0.00647390661324,0.0108071785035,-0.999920643564,0.0,0.389962521805,-0.0960921477786,0.305026839705,1.0,-0.39998,-0.525688,1.878
-0.116350644019,-0.430567127164,-0.14375023232,-2.56909572396,-0.0601811840321,2.1324853609,-0.388749177326,-1.49100583915,-0.832259683299,-0.0344413953242,-0.720412486568,-0.154223301496,-0.158967728488,-1.39331721638,0.573860934048,0.818925348172,0.00506452336285,0.0,0.818913776247,-0.57378044596,-0.011703581011,0.0,-0.00667856326363,0.0108638450453,-0.999918683526,0.0,0.384332766348,-0.103385628257,0.304955426145,1.0,-0.39998,-0.525688,1.892
-0.146494120491,-0.446711078264,-0.144567893516,-2.58223385769,-0.0631267285944,2.12949046235,-0.417193368192,-1.5433236493,-0.783532337574,-0.0500746295802,-0.631209150595,-0.133482273002,-0.131683717835,-1.45028634299,0.573880864994,0.818910178605,0.00525538508281,0.0,0.818901646983,-0.573800714439,-0.0115576632147,0.0,-0.00644926850065,0.0109365758258,-0.999919395874,0.0,0.376389918527,-0.113875321309,0.305040947516,1.0,-0.39998,-0.525688,1.912
-0.166441184553,-0.456468912682,-0.145049592326,-2.59028454725,-0.0650409014951,2.12752249388,-0.436190971119,-1.53458470417,-0.747778588739,-0.0390362124513,-0.611458461795,-0.134824336914,-0.158052836549,-1.47403282079,0.573744040352,0.819006457103,0.00519098105762,0.0,0.818996491442,-0.573663108342,-0.0116675633828,0.0,-0.00657806206837,0.0109458009702,-0.999918455946,0.0,0.371182619246,-0.120655591518,0.30499014974,1.0,-0.397548,-0.522491657143,1.925
-0.199066257376,-0.470790057421,-0.145582542938,-2.60196216521,-0.0675760158808,2.12442864812,-0.467143957612,-1.56329259584,-0.646326980752,-0.027029320675,-0.524562395307,-0.108680160385,-0.143248893232,-1.46409430729,0.573754309418,0.818998791135,0.00526492591501,0.0,0.818987917855,-0.573670022307,-0.011926559219,0.0,-0.00674763732856,0.0111550402303,-0.999915013623,0.0,0.362932151706,-0.131439372365,0.304911793257,1.0,-0.38022,-0.499717714286,1.946
-0.21905231984,-0.478796651304,-0.145740552908,-2.60816533872,-0.0689362567017,2.1226985113,-0.486016131234,-1.52832220741,-0.596850089668,-0.0127694807756,-0.464628141862,-0.0919128940221,-0.120436245316,-1.45411591918,0.573838314132,0.81893903595,0.00540291899412,0.0,0.818930948156,-0.573755192629,-0.0117400163873,0.0,-0.00651453029893,0.0111617036836,-0.999916485146,0.0,0.358073709155,-0.137911411503,0.304991744281,1.0,-0.369493142857,-0.485619559184,1.959
-0.249464877678,-0.489705183952,-0.145802781595,-2.61683659015,-0.0706978154932,2.12005804152,-0.514821787413,-1.52349034141,-0.516334040819,0.00096742499247,-0.404263202775,-0.0794586865149,-0.128226955241,-1.439559149,0.573969451039,0.818846381481,0.00551540671068,0.0,0.818838188337,-0.573883210374,-0.011951111775,0.0,-0.0066210527978,0.0113760177273,-0.999913370188,0.0,0.350347363115,-0.147986204281,0.304949986059,1.0,-0.352165142857,-0.462845616327,1.98
-0.270286095484,-0.496349800307,-0.145696266093,-2.62203987327,-0.0716533250517,2.11849196574,-0.534603037271,-1.47049580174,-0.458455842546,0.00579270133738,-0.353342883973,-0.0631584174667,-0.101204737724,-1.41602109786,0.573993825507,0.818828469676,0.00563670371968,0.0,0.818821724204,-0.573906889322,-0.0119420794438,0.0,-0.00654369752439,0.0114703561629,-0.999912801674,0.0,0.345811688882,-0.153948373882,0.304949056197,1.0,-0.341438285714,-0.448747461225,1.993
-0.299239419415,-0.504544485945,-0.145329819051,-2.62835530485,-0.0727455134304,2.11644279482,-0.562170258553,-1.42808662053,-0.376277178515,0.0248296039874,-0.296633989252,-0.0512740941641,-0.103328296854,-1.36856381452,0.574020326478,0.818808729321,0.00580314382242,0.0,0.818804100018,-0.573932656331,-0.0119121237459,0.0,-0.00642326082651,0.0115896622534,-0.999912206871,0.0,0.339127054143,-0.162744254069,0.304972860847,1.0,-0.324935428572,-0.427057991837,2.013
-0.31757644143,-0.509107918048,-0.145096396411,-2.63176000355,-0.0733992628461,2.11534160442,-0.579675608003,-1.3954958534,-0.334179107348,0.0140324078871,-0.254139446848,-0.0469081565512,-0.0826473133778,-1.34035881223,0.574048750693,0.818788160734,0.00589292539544,0.0,0.818785791891,-0.573962744695,-0.0117192832723,0.0,-0.00621341038884,0.0115527059334,-0.999913960557,0.0,0.334982018407,-0.168295303135,0.305032546467,1.0,-0.314208571429,-0.412959836735,2.026
-0.346286983639,-0.515304367883,-0.144501124655,-2.63657340599,-0.0741403006293,2.11360100879,-0.607116826,-1.34017070369,-0.261641747036,0.0214337574317,-0.218659316941,-0.0255257470674,-0.0746692184232,-1.27258793684,0.5740501641,0.818786740112,0.00595232853406,0.0,0.818784423641,-0.573962601868,-0.0118214280479,0.0,-0.00626293514311,0.0116599910898,-0.999912406289,0.0,0.328790144126,-0.176395559809,0.30501345007,1.0,-0.297705714286,-0.391270367347,2.046
-0.36344222584,-0.518450779607,-0.144058218669,-2.63909719726,-0.0744998211801,2.11268097585,-0.623581185938,-1.30156993932,-0.229888168693,0.0434996294284,-0.182304867082,-0.0291370996316,-0.0708670198,-1.25331396759,0.574001056039,0.818821106459,0.00596072006124,0.0,0.818817733499,-0.573911315126,-0.0120028571277,0.0,-0.00640739142664,0.0117706225783,-0.999910194857,0.0,0.324635257899,-0.181781898671,0.304949404215,1.0,-0.286153714286,-0.376087738776,2.06
-0.388812813489,-0.522342384676,-0.14330702017,-2.6421660448,-0.074843776663,2.1115255329,-0.647885632249,-1.24030821253,-0.177020401869,0.0440015510075,-0.132914602967,-0.0183589324979,-0.059467689593,-1.19768173842,0.574008670798,0.818815488549,0.00599903848792,0.0,0.818811775805,-0.573917227492,-0.0121259511631,0.0,-0.00648608996646,0.0118727130532,-0.999908480473,0.0,0.319034083646,-0.189126733745,0.304906058453,1.0,-0.269650857143,-0.354398269388,2.08
-0.405792652894,-0.524571492326,-0.142700119046,-2.64385485628,-0.0749573562752,2.11085933675,-0.664283447267,-1.20319189104,-0.152455678883,0.0363200336332,-0.112878367122,-0.0100871197173,-0.0538579968911,-1.15248246884,0.573904480843,0.818888204925,0.00604165578514,0.0,0.818885090516,-0.573812952381,-0.0121099591744,0.0,-0.00645004657009,0.0118976107434,-0.999908417685,0.0,0.315330177002,-0.193990016516,0.30491503982,1.0,-0.258098857143,-0.339215640816,2.094
-0.429083890537,-0.526936180514,-0.141846905956,-2.64570315651,-0.0750846257543,2.11014860438,-0.686661908589,-1.13012593598,-0.105577033479,0.0484830556035,-0.0826828794175,-0.00624294486678,-0.0316057265696,-1.08715391191,0.573882762042,0.818903495149,0.0060322437859,0.0,0.818900297993,-0.573791352663,-0.0121050591569,0.0,-0.00645175014723,0.0118869198775,-0.999908533845,0.0,0.310283834854,-0.200648256176,0.304902416147,1.0,-0.241596,-0.317526171429,2.114
-0.443563287627,-0.528112181689,-0.14131200228,-2.64661105314,-0.0751060047244,2.10976712164,-0.700543206416,-1.08754839429,-0.0833036629474,0.0493559485915,-0.0652348909725,-0.00558232488181,-0.0325386062173,-1.05060888856,0.573930848958,0.818869742484,0.00603923500891,0.0,0.818866673916,-0.573839468273,-0.0120988388946,0.0,-0.00644194571107,0.0118894540717,-0.999908566929,0.0,0.307149809003,-0.204769026659,0.304901241564,1.0,-0.230869142857,-0.303428016327,2.127
-0.465677425746,-0.529383464482,-0.140399209323,-2.64762567086,-0.0750838108392,2.10929871769,-0.72173512973,-1.02538502628,-0.0508857445394,0.0469281126115,-0.044474464341,-0.000632186968436,-0.0207681838524,-0.987068262061,0.573990541391,0.818828275937,0.00598830692437,0.0,0.81882444729,-0.573899192466,-0.0121238735242,0.0,-0.00649081091562,0.0118625892271,-0.999908569996,0.0,0.302385684826,-0.211025819467,0.304888587095,1.0,-0.213541142857,-0.28065407347,2.148
-0.478543530539,-0.529865982693,-0.13972718698,-2.64800355335,-0.0750141557851,2.10910090466,-0.734168964793,-0.977573232508,-0.0333842425583,0.0613875147296,-0.0239060279972,0.00194240312882,-0.0094018535005,-0.944454631747,0.573877619166,0.818907985321,0.00591072745687,0.0,0.818903362827,-0.573787022847,-0.0121029609533,0.0,-0.00651983818745,0.011786159928,-0.999909284957,0.0,0.29964759148,-0.214626386224,0.304893909773,1.0,-0.202814285714,-0.266555918367,2.161
-0.497262590226,-0.530217697569,-0.138730033803,-2.64826962702,-0.0748201594204,2.10888800514,-0.752100156996,-0.897665192927,-0.00675544821721,0.0604301375959,-0.00898493613515,0.0201714980778,-0.0114790944579,-0.876373974529,0.57388638366,0.818902451385,0.00582586186242,0.0,0.818897032683,-0.573796700139,-0.012072434432,0.0,-0.00654341181937,0.0116992119762,-0.999910152064,0.0,0.295676393783,-0.219854027065,0.3049096231,1.0,-0.186311428572,-0.24486644898,2.181
-0.508546739851,-0.530282638258,-0.138034068483,-2.64832456937,-0.0746068222808,2.1088200287,-0.763020774913,-0.854857115259,-0.00540763259886,0.0519305023215,-0.00252341439926,0.012529860445,-0.00553830192006,-0.830418810851,0.573780958789,0.818976541112,0.00579511348227,0.0,0.818970997389,-0.573691915435,-0.0120348868566,0.0,-0.00653180601418,0.0116516431183,-0.999910783382,0.0,0.293297419742,-0.222965357498,0.304921026082,1.0,-0.175584571429,-0.230768293878,2.194
-0.525639917777,-0.530111906985,-0.136899671681,-2.64826834496,-0.0741385327863,2.10881553414,-0.779412081242,-0.773326816503,0.0132010394497,0.0593720948271,0.00599560166199,0.0251183950427,0.000782553375445,-0.750661127576,0.573758953924,0.818991903349,0.00580275295644,0.0,0.818986598705,-0.573670133302,-0.0120115028597,0.0,-0.00650858283752,0.0116443084118,-0.999911020257,0.0,0.2897039376,-0.227634293823,0.304913981872,1.0,-0.158256571429,-0.207994351021,2.215
-0.535378683045,-0.529885655073,-0.136180378476,-2.64813662783,-0.0737859760979,2.10881796276,-0.788715705572,-0.73925999872,0.0219276001988,0.0512308124493,0.0106530305246,0.0273633543406,0.00119113075219,-0.699273283249,0.573766052101,0.818986740347,0.00582953636572,0.0,0.818981684556,-0.573676942188,-0.0120213670059,0.0,-0.00650119475012,0.0116719605222,-0.999910745919,0.0,0.287666902157,-0.230263808275,0.304910490275,1.0,-0.147529714286,-0.193896195919,2.228
-0.549212594585,-0.529340791986,-0.135090930587,-2.64782661097,-0.0732263628085,2.10884838289,-0.801903073256,-0.651718854661,0.0319223434575,0.0576050258835,0.0153839809879,0.0387786068614,0.00381516878507,-0.640617988949,0.573783924361,0.81897397419,0.00586384225173,0.0,0.818968759392,-0.573693580696,-0.0121075806321,0.0,-0.00655187091389,0.0117496649612,-0.999909505086,0.0,0.284780190167,-0.233974377709,0.304883710647,1.0,-0.131026857143,-0.172206726531,2.248
-0.557358085997,-0.528917654968,-0.134364748305,-2.64759783223,-0.0728435168423,2.10891266353,-0.809709302472,-0.621014508977,0.0358465758802,0.053776463266,0.0161700408716,0.0305568098864,0.00262929271482,-0.590109402919,0.573738382729,0.819005779794,0.00587773332726,0.0,0.819000368217,-0.573647311663,-0.0121616439339,0.0,-0.00658883760733,0.0117916947079,-0.999908767416,0.0,0.282970027933,-0.236294716692,0.304858251402,1.0,-0.119474857143,-0.157024097959,2.262
-0.569480661419,-0.528216726931,-0.133316989864,-2.64712109344,-0.0722408854442,2.10904067736,-0.820948331535,-0.548224865548,0.0357194736633,0.0542146590566,0.0222135128019,0.0294148701966,0.00582717951661,-0.505741060003,0.573994411554,0.818825969452,0.00593246632013,0.0,0.818821259021,-0.573903026033,-0.0121576883835,0.0,-0.00655049672132,0.0118363026164,-0.99990849228,0.0,0.280592664011,-0.239360460034,0.304856315805,1.0,-0.102972,-0.135334628572,2.282
-0.575924930505,-0.527711339016,-0.132563178683,-2.64678879489,-0.0718138782511,2.10915332748,-0.827188301822,-0.483597573603,0.0423099689596,0.0555302577589,0.0269346105197,0.0286942493114,0.00937490864886,-0.458613507344,0.573830536488,0.818940742015,0.00594334611409,0.0,0.818936159728,-0.573739112522,-0.0121549970909,0.0,-0.00654441821227,0.0118423575464,-0.999908460389,0.0,0.279318894925,-0.241031976899,0.304851632099,1.0,-0.0922451428573,-0.12123647347,2.295
-0.585311177578,-0.526990935915,-0.131437230202,-2.64627883536,-0.0711867667985,2.10928234815,-0.835813167908,-0.417369982832,0.0335768562198,0.0568949529574,0.0210451642887,0.0332186501081,0.00954382694438,-0.384674074027,0.57395487292,0.81885359248,0.00594515215089,0.0,0.818849093675,-0.57386352376,-0.0121476247059,0.0,-0.00653554599745,0.0118405988131,-0.999908539247,0.0,0.277452942603,-0.243449431932,0.304859699841,1.0,-0.0749171428573,-0.0984625306124,2.316
-0.590670810858,-0.526528550642,-0.130666440263,-2.64592719865,-0.0707321324842,2.10938953444,-0.840647757946,-0.370556936165,0.0371945973353,0.0591172738425,0.0254549562358,0.0382106657179,0.00947962486852,-0.32936903893,0.574053544133,0.818784349398,0.00595521207989,0.0,0.818780314374,-0.573962735448,-0.0120963635652,0.0,-0.00648636823896,0.0118201983701,-0.999909100837,0.0,0.276431315649,-0.24480234498,0.304879015404,1.0,-0.0633651428573,-0.083279902041,2.33
-0.59693484709,-0.525895913639,-0.129531887925,-2.64549924414,-0.0700736820881,2.1095149352,-0.846417647703,-0.280540997258,0.0278233952026,0.0584178692939,0.0203521205446,0.0280753318634,0.00473032682154,-0.253683221672,0.573960978238,0.818849230966,0.00595645087161,0.0,0.818845154554,-0.573870078602,-0.0121034147872,0.0,-0.00649276796656,0.0118245263846,-0.99990900813,0.0,0.275289711514,-0.246314429629,0.304881146442,1.0,-0.0468622857144,-0.0615904326532,2.35
-0.600181520288,-0.525590720811,-0.128739879361,-2.64530678268,-0.0696259375724,2.10955995818,-0.849311765363,-0.241703883841,0.0219628453969,0.0576333486416,0.0145426217654,0.0288361379114,0.00753254624167,-0.209620607653,0.573891459228,0.818898008149,0.00594913240912,0.0,0.818893679851,-0.573800321022,-0.0121276376794,0.0,-0.00651780974109,0.0118318824157,-0.999908758195,0.0,0.274736004437,-0.247029167448,0.304880426441,1.0,-0.0361354285716,-0.0474922775512,2.363
-0.604275033052,-0.525230752071,-0.127465269631,-2.6450859564,-0.0689465972869,2.10962489679,-0.852723928875,-0.1682612895,0.0120376510017,0.0610376450002,0.0114681212966,0.0289984783187,0.000201867980526,-0.133659093756,0.573850162826,0.818927310902,0.00589889689668,0.0,0.818922294047,-0.573759189952,-0.0121414644769,0.0,-0.00655855682197,0.0117983467007,-0.999908888023,0.0,0.274098754702,-0.247850258804,0.304885922,1.0,-0.0199515789474,-0.026222075188,2.384
-0.606088117007,-0.525023534596,-0.12690849098,-2.64495058782,-0.0685885184933,2.10969337751,-0.854185131168,-0.132401467617,0.0126283591954,0.0315471985869,0.00823769655337,0.0287111029673,0.00777452681761,-0.108584506215,0.573904655154,0.818888957433,0.00592191583986,0.0,0.818884385687,-0.573813833409,-0.0121158725943,0.0,-0.00652360264754,0.0118029473411,-0.999909062386,0.0,0.273833439641,-0.248222913488,0.304891041711,1.0,-0.0196915789474,-0.0258803609023,2.397
-0.608213018997,-0.524813747358,-0.126312343082,-2.64476377042,-0.0682698004908,2.109733414,-0.856094565155,-0.105837596514,0.0126437502991,0.0248489699916,0.00899621349207,0.0102636307775,-0.000616604560665,-0.104706697986,0.57380522912,0.818958832093,0.00589383342221,0.0,0.81895421906,-0.57371513415,-0.0120697486633,0.0,-0.00650337104653,0.0117526909204,-0.999909786141,0.0,0.2735025041,-0.248684709814,0.304917013822,1.0,-0.0193115789474,-0.0253809323308,2.416
-0.609618699498,-0.524664177261,-0.126029504105,-2.64461858837,-0.0681194270733,2.10975494217,-0.85738815562,-0.0910768499708,0.0127626549952,0.0149169066787,0.00881429309881,0.00642634644975,0.00454077979618,-0.0955284829069,0.573768646204,0.818984575415,0.00587816014983,0.0,0.818979986335,-0.573679036217,-0.0120371212509,0.0,-0.00648616426614,0.0117208439461,-0.99991027172,0.0,0.273258974143,-0.249025891763,0.30493688023,1.0,-0.0190315789474,-0.0250129323308,2.43
-0.61148858612,-0.52442305194,-0.125811664703,-2.64442749801,-0.0679538217258,2.10983607393,-0.859200769581,-0.0882850317002,0.0111232829533,0.00968181525708,0.00586354252442,0.00093071097058,0.000161409518036,-0.0871875827082,0.573742160973,0.819002937992,0.00590484409719,0.0,0.818998981347,-0.573652964173,-0.011987166045,0.0,-0.00643031669323,0.0117138293787,-0.999910714628,0.0,0.272905638989,-0.249524430758,0.304947567335,1.0,-0.0186115789474,-0.0244609323308,2.451
-0.612635053185,-0.524300491329,-0.125726174337,-2.64432327957,-0.0679247157693,2.10983550638,-0.860360754763,-0.0855818198779,0.0142856983849,0.00283156061619,0.0047580761386,-0.000173183652676,-0.000132256189652,-0.0880647890313,0.573688516636,0.819040626229,0.00588942843415,0.0,0.819036411211,-0.573599288455,-0.0119983455421,0.0,-0.00644908465216,0.0117071947847,-0.999910671459,0.0,0.272661618589,-0.249838677835,0.304952002876,1.0,-0.0183515789474,-0.0241192180451,2.464
-0.614357934307,-0.524141470074,-0.12568060214,-2.64412648306,-0.0678776059897,2.10985236151,-0.861989800608,-0.0870309309955,0.0091875803515,0.00145654133568,0.00934185589039,0.000959666958432,0.00097415861665,-0.0800995233015,0.573763209348,0.818988202766,0.00590340825675,0.0,0.818984579344,-0.573674656406,-0.0119329080805,0.0,-0.0063863981973,0.0116816888737,-0.999911372104,0.0,0.272290262258,-0.250341471843,0.304985688467,1.0,-0.0179515789474,-0.0235935037594,2.484
-0.615413498132,-0.524006931412,-0.12566343158,-2.64399961617,-0.0678530651525,2.10989944682,-0.863068520307,-0.0849360891354,0.00779196501467,0.00136756230413,0.00549839837016,-0.000403979250078,0.00888933488709,-0.0822862520846,0.573749136594,0.818998005795,0.0059111473881,0.0,0.818994764679,-0.573661072593,-0.0118868044912,0.0,-0.00634439617192,0.0116614670972,-0.999911875528,0.0,0.272066310851,-0.250658028838,0.304998450701,1.0,-0.0176915789474,-0.0232517894737,2.497
-0.617081731623,-0.52376868694,-0.125670115236,-2.64381686644,-0.0678084643992,2.10993065163,-0.864672667296,-0.0809590607517,0.0117425431981,-0.00055171700879,0.0121693815481,0.00210833475423,-0.000719201547445,-0.0674181591526,0.573835060182,0.818937527838,0.005949462643,0.0,0.818934657789,-0.573746594892,-0.0119003371018,0.0,-0.00633227062956,0.0117012770964,-0.999911487314,0.0,0.271693225179,-0.251154221299,0.304996648117,1.0,-0.0172715789474,-0.0226997894737,2.518
-0.61804382822,-0.523646854465,-0.125670106321,-2.64373659122,-0.0677961873054,2.10992669812,-0.865581053094,-0.0800781239526,0.00621950261952,7.16461208382e-05,0.00312724560706,0.00248722386423,-0.000854819330379,-0.0738786799913,0.573888627064,0.818899895132,0.00596258164687,0.0,0.81889693101,-0.573799609913,-0.0119403076744,0.0,-0.00635671206573,0.0117353725318,-0.999910932655,0.0,0.271468133199,-0.251431702244,0.304988103849,1.0,-0.0170315789474,-0.0223843609023,2.53
-0.619659342831,-0.523429632227,-0.12563836771,-2.64360414512,-0.0677671923628,2.10995017372,-0.867248375463,-0.0743333796888,0.0109377849706,0.0038831568999,0.00259824733221,-1.22323335768e-05,0.00277070310117,-0.0737348673801,0.573843350129,0.81893152818,0.00597566455764,0.0,0.818928389273,-0.573753652888,-0.0119910776089,0.0,-0.00639143519736,0.0117748682005,-0.99991024699,0.0,0.271100967838,-0.251892513417,0.304971371101,1.0,-0.0166115789474,-0.0218323609023,2.551
-0.620606906417,-0.523290669671,-0.125581737967,-2.64351471644,-0.0677418178938,2.10998378281,-0.868206936798,-0.0744727913289,0.0135474217111,0.00313932270052,0.00916849466219,0.000190975307044,0.00643031358204,-0.0726462543538,0.573809929817,0.818954998582,0.0059683869724,0.0,0.818951708603,-0.573720165687,-0.0120007233449,0.0,-0.00640399170386,0.0117741816184,-0.999910174734,0.0,0.270899700981,-0.252158626632,0.304965251577,1.0,-0.0163515789474,-0.0214906466165,2.564
-0.622101539907,-0.523075163666,-0.12548044729,-2.64337528835,-0.0677041050083,2.11002134912,-0.869744550197,-0.0704055718186,0.00284407131166,0.00362500514701,0.0097035145418,0.00420333776947,-0.00132289769018,-0.0733311776345,0.573726667318,0.819013459013,0.00595080372722,0.0,0.819009768791,-0.57363667895,-0.0120293844666,0.0,-0.00643875246056,0.0117755717609,-0.999909935132,0.0,0.270581226677,-0.252573179336,0.304955161219,1.0,-0.0159315789474,-0.0209386466165,2.585
-0.622991272286,-0.522938405779,-0.125399620894,-2.64329078769,-0.0676927283004,2.11004030786,-0.870667822538,-0.0624515368437,0.00313368505747,0.0071446134733,0.00983650605977,0.000607643448692,0.000556371465938,-0.0634683438923,0.573651438569,0.81906636789,0.00592105740759,0.0,0.819062136247,-0.573561309261,-0.0120577106639,0.0,-0.00648010060165,0.0117668635459,-0.999909770539,0.0,0.270394325242,-0.252816114061,0.304946909371,1.0,-0.0156715789474,-0.0205969323308,2.598
-0.624326272363,-0.522722392741,-0.1253226163,-2.64315503493,-0.0676598656171,2.11008315892,-0.872016018732,-0.0655437481046,0.00756741077523,0.00233536724509,0.00848793803152,0.00234140459819,0.0021271214166,-0.074433788167,0.573607485639,0.819097233548,0.00590942584026,0.0,0.819092671712,-0.573517090671,-0.0120867182241,0.0,-0.0065111661047,0.0117736261287,-0.999909489126,0.0,0.270109710054,-0.253192613428,0.304934807438,1.0,-0.0152715789474,-0.0200712180451,2.618
-0.625189656719,-0.522595919127,-0.125317255359,-2.64307419963,-0.0676407511333,2.11010824069,-0.87293706646,-0.0634412539832,0.00896891268454,-0.00130290445043,0.00936053026036,0.000104862520287,0.00369311640319,-0.0717522580328,0.573568977633,0.819124095127,0.00592381465215,0.0,0.81911960335,-0.573478316845,-0.012101339457,0.0,-0.00651544491903,0.0117934926698,-0.999909227134,0.0,0.269914021508,-0.25344416187,0.304927386706,1.0,-0.0150115789474,-0.0197295037594,2.631
-0.62655142865,-0.522417255648,-0.125321860203,-2.6429436567,-0.0676092242337,2.11013766331,-0.874262417147,-0.0708557261203,0.00974760145419,-0.000482901365104,0.00983380085867,0.000573775395014,0.00112096994139,-0.0653105970745,0.57362245301,0.819086436922,0.00595291146852,0.0,0.819082230533,-0.573531486151,-0.0121111898972,0.0,-0.00650605448004,0.0118234020986,-0.999908935063,0.0,0.269601807015,-0.253843096825,0.304923527589,1.0,-0.0146115789474,-0.0192037894737,2.651
-0.627472109168,-0.522288121468,-0.125327462989,-2.64284822682,-0.0675819449293,2.11016259658,-0.875171797372,-0.0594519027613,0.00860368365745,0.000689626355878,0.00164704814718,0.00185527540319,0.000718045260613,-0.070689499097,0.573652369462,0.819065303352,0.00597785556918,0.0,0.819061380501,-0.573561213012,-0.0121134966335,0.0,-0.00649320371759,0.0118453947418,-0.999908758302,0.0,0.269392692372,-0.254114887752,0.304921483471,1.0,-0.0143315789474,-0.0188357894737,2.665
-0.628774708499,-0.522112098545,-0.12533188971,-2.64270244296,-0.067549325895,2.11019058717,-0.87647820308,-0.0631535761449,0.00810736139623,0.000184928794564,0.0112853996355,0.000132145264594,0.000744591599423,-0.0694047912687,0.573673930198,0.819049998128,0.00600577050003,0.0,0.819046450883,-0.573582669968,-0.0121069776927,0.0,-0.00647153877511,0.0118646909207,-0.999908669977,0.0,0.269098093821,-0.254500797922,0.30492538677,1.0,-0.0139315789474,-0.018310075188,2.685
-0.629643924036,-0.521985252797,-0.125306348192,-2.64260287107,-0.0675235806571,2.11022026191,-0.877323989984,-0.0679246935768,0.00800789457027,0.00200896824541,0.0124409013606,0.00527304539492,0.000305669478618,-0.0552173963727,0.573691246945,0.819037822372,0.00601212143862,0.0,0.819034404739,-0.573600041583,-0.012098886392,0.0,-0.00646101685099,0.01186538797,-0.99990872975,0.0,0.268909707671,-0.254753325304,0.304927195926,1.0,-0.0136515789474,-0.017942075188,2.699
-0.630896271475,-0.521785442249,-0.125239336737,-2.64244439335,-0.0674938197839,2.11026573301,-0.8785545886,-0.0593158728212,0.009988805721,0.00124652356533,0.0115095668713,0.000549896885077,0.00187544637912,-0.0549381576451,0.573682613661,0.819043970796,0.00599829858571,0.0,0.819040461893,-0.573591632693,-0.012087497128,0.0,-0.00645974213557,0.0118474642896,-0.999908950516,0.0,0.26864723321,-0.255114857793,0.304931294676,1.0,-0.0132315789474,-0.017390075188,2.72
-0.631630991248,-0.521675997897,-0.125201866673,-2.64235375294,-0.0674750745844,2.11028975458,-0.879399625346,-0.0556782313486,0.0105276146531,0.00223292346609,0.00261542641576,0.000365495274899,0.0020922335052,-0.0607581632671,0.573578442765,0.81911695623,0.00599407309125,0.0,0.819113452484,-0.573487611961,-0.0120771597814,0.0,-0.00645520397973,0.0118372523085,-0.999909100768,0.0,0.268491948342,-0.255326286978,0.304935221339,1.0,-0.0129715789474,-0.0170483609023,2.733
-0.632753060524,-0.521483831661,-0.125137437416,-2.64223647002,-0.0674469621649,2.11031570323,-0.880550759776,-0.060740234369,0.0104881922523,0.00446332179715,0.00514364219717,0.0016447275775,-0.000173170983778,-0.0629731071336,0.573527349988,0.819152788521,0.0059862154108,0.0,0.819148915207,-0.573436074864,-0.0121189793653,0.0,-0.00649470891589,0.0118543962137,-0.99990864185,0.0,0.268248739763,-0.255640231651,0.304921660397,1.0,-0.0125715789474,-0.0165226466165,2.753
-0.633475140371,-0.521377800879,-0.125113587385,-2.64216494626,-0.0674269583793,2.11032651018,-0.881246440121,-0.0561367600833,0.00878132610893,0.00341343518873,0.00566132684652,0.000220219441265,1.53845715901e-05,-0.0614408360149,0.573544440658,0.819140781833,0.0059917467531,0.0,0.819136852548,-0.573452904147,-0.0121379745151,0.0,-0.0065068506347,0.011869956914,-0.999908378312,0.0,0.268086974849,-0.255844323793,0.304916694475,1.0,-0.0123115789474,-0.0161809323308,2.766
-0.634569151414,-0.521201522704,-0.12510493717,-2.64205595406,-0.0674074056179,2.11034698254,-0.882362065458,-0.0517541032927,0.00978095181062,0.000223356291787,0.00724749398918,-0.000195029310947,-0.000192066165573,-0.0548823168329,0.573534854135,0.819147394071,0.00600539593344,0.0,0.819143366036,-0.573442754746,-0.0121778409554,0.0,-0.00653182165443,0.0119039256628,-0.999907811681,0.0,0.267835222411,-0.256160990033,0.304903396072,1.0,-0.0119115789474,-0.0156552180451,2.786
-0.635110744757,-0.521121995143,-0.125103956558,-2.64200436385,-0.0673979070849,2.1103558122,-0.882924194921,-0.0536122026765,0.0130201720674,-0.0019445460973,0.00563382341679,-0.00018153793556,0.000901069792167,-0.0564483003243,0.573534148276,0.819147778494,0.00602035301781,0.0,0.819143814957,-0.57344174393,-0.0121952301324,0.0,-0.00653749980472,0.0119261454807,-0.999907509798,0.0,0.267683328074,-0.256351749973,0.304898112127,1.0,-0.0116915789474,-0.015366075188,2.798
-0.636370326729,-0.520935937465,-0.125108847434,-2.64186223988,-0.0673781760707,2.11037912784,-0.884115108205,-0.0524122722842,0.00853091101262,-0.000977633734153,0.00354401379298,-6.0751237169e-05,0.00035611442227,-0.0430313093194,0.573599788795,0.819101735979,0.00603119486081,0.0,0.819097833792,-0.573507175517,-0.0122067689851,0.0,-0.00653977804774,0.0119421686811,-0.999907303659,0.0,0.267419411491,-0.256689935455,0.304896459722,1.0,-0.0112315789474,-0.0147615037594,2.82
-0.637088304081,-0.520815187606,-0.125092638357,-2.64177338956,-0.0673696131536,2.11040244041,-0.884805782917,-0.0503100772712,0.01078970298,0.00185981249779,0.00513874018926,0.00136429729002,0.004912396631,-0.0497514048611,0.573619015593,0.819088296929,0.00602774288648,0.0,0.819084323121,-0.573526365363,-0.0122117464629,0.0,-0.00654555516598,0.0119423496141,-0.999907263697,0.0,0.267260966163,-0.256901145607,0.304894816536,1.0,-0.0109515789474,-0.0143935037594,2.834
-0.638035039425,-0.520660305427,-0.125079440968,-2.64164416968,-0.0673618358822,2.11046598873,-0.885779995038,-0.053875986112,0.00822900077377,0.00387891660451,0.00930806956378,-0.000131462338423,0.000833914509371,-0.0514538469507,0.573597183918,0.819103642179,0.00602003914912,0.0,0.819099851766,-0.573505091354,-0.0121692205764,0.0,-0.00651545523715,0.0119114731605,-0.999907828577,0.0,0.26705787242,-0.257189338724,0.304902322216,1.0,-0.0105715789474,-0.013894075188,2.853
-0.638671634303,-0.520561673102,-0.125062762696,-2.64154789204,-0.0673583479122,2.11050343133,-0.886408770494,-0.0465939467548,0.0113918642394,0.00352859724606,0.0122052320106,0.00022590097243,0.000580737753581,-0.047316905627,0.573598178247,0.819103032448,0.00600824825699,0.0,0.819099347083,-0.573506610886,-0.0121315200399,0.0,-0.00649131973572,0.0118801987493,-0.999908357624,0.0,0.266924124475,-0.257383237959,0.304913390452,1.0,-0.0103115789474,-0.0135523609023,2.866
-0.639661770521,-0.520430203442,-0.125050225394,-2.64141534635,-0.0673435270012,2.11051856056,-0.887353773645,-0.0481155841982,0.00192266701703,-0.000899995456809,0.00681162996919,-0.000129303027197,-0.000269905273761,-0.0505977095335,0.573639358816,0.819074179156,0.00601015458381,0.0,0.819070659938,-0.573548033414,-0.0121100906748,0.0,-0.00647207484439,0.0118697944615,-0.999908605937,0.0,0.266703387628,-0.257676699096,0.304926864018,1.0,-0.00989157894737,-0.0130003609023,2.887
-0.640250351662,-0.52035352962,-0.125042380348,-2.64134772388,-0.0673384667159,2.11053345975,-0.887917689809,-0.0452596143056,0.0025079762017,0.000311504560735,0.00617055398796,2.46193597088e-05,0.00122758490902,-0.0453608258316,0.573659657312,0.819059972565,0.0060088115315,0.0,0.819056496185,-0.573568444186,-0.0121013549682,0.0,-0.00646539526558,0.011863843679,-0.999908719773,0.0,0.266570158705,-0.257849359459,0.304930850169,1.0,-0.00963157894737,-0.0126586466165,2.9
-0.641142109706,-0.520257520609,-0.125037438673,-2.64126027403,-0.0673229608919,2.11055518116,-0.888840477758,-0.0417552719596,0.00542541624903,0.000321030704425,0.00467439719639,0.000250371669179,-0.000774126736767,-0.0470991723573,0.573641859201,0.819072361353,0.0060192309161,0.0,0.819069128482,-0.573550802887,-0.0120824739222,0.0,-0.00644420979277,0.0118614073939,-0.999908885436,0.0,0.266364130637,-0.258107956288,0.304937251823,1.0,-0.00921157894737,-0.0121066466165,2.921
-0.641693916892,-0.520201029125,-0.125027269107,-2.64120441427,-0.0673178493783,2.11056967659,-0.889394772476,-0.0402502476473,0.00805961550718,-1.85573065914e-05,0.00973204272795,0.000204532162344,0.00185989970675,-0.0411545732416,0.573637647267,0.819075322509,0.00601769035968,0.0,0.819072178968,-0.573546799898,-0.0120656896921,0.0,-0.00643140545174,0.0118504847614,-0.999909097386,0.0,0.266238294389,-0.258267425669,0.304943333922,1.0,-0.00895157894737,-0.0117649323308,2.934
-0.642508971465,-0.520120507739,-0.125008719462,-2.64114147682,-0.0673015909701,2.11058950491,-0.890183040761,-0.0370379545591,0.00808913307291,0.000100042808004,0.000861785026572,0.00459894905545,0.00170606624835,-0.0389720641505,0.573656665296,0.819061960661,0.00602344261639,0.0,0.819058934333,-0.57356586743,-0.0120583875524,0.0,-0.00642184910243,0.0118511570541,-0.999909150839,0.0,0.266049071913,-0.258496040737,0.304944450992,1.0,-0.00855157894737,-0.0112392180451,2.954
-0.643030164493,-0.520035333746,-0.124984303271,-2.6410903947,-0.067292273799,2.11060734797,-0.890665665185,-0.0376870365987,0.00483346787073,0.000911419748333,0.00322041400396,0.00489168826432,0.000393425492134,-0.0393547481055,0.573677685921,0.819047272424,0.00601873004167,0.0,0.819044105294,-0.573586757357,-0.0120719620776,0.0,-0.00643536766525,0.0118552488815,-0.999909015419,0.0,0.265933160289,-0.258642424802,0.304938431997,1.0,-0.00829157894737,-0.0108975037594,2.967
-0.643826615089,-0.519892219543,-0.124956668977,-2.64098702531,-0.0672818606657,2.11063021725,-0.891425293579,-0.0372298413333,0.00900227343101,0.00221318494315,0.00836526523252,-0.000449818067869,0.000714022241129,-0.0408198536332,0.573698158548,0.819032991364,0.00601072685926,0.0,0.819029647101,-0.573607125943,-0.0120850791431,0.0,-0.00645040695323,0.0118563794207,-0.999908905109,0.0,0.265758307024,-0.258874156585,0.304935356177,1.0,-0.00787157894737,-0.0103455037594,2.988
-0.64430333758,-0.51979015708,-0.124941909379,-2.64092205577,-0.0672722537234,2.11066215126,-0.891908164554,-0.0326755852847,0.00945598184714,0.00130105871271,0.00763610813799,0.00333042207153,0.00134939260395,-0.0427588170739,0.573690234743,0.819038560131,0.00600820107926,0.0,0.81903516856,-0.573599188182,-0.0120876333642,0.0,-0.00645406282518,0.0118557134651,-0.999908889415,0.0,0.265656717477,-0.259015909459,0.304930401368,1.0,-0.00761157894737,-0.0100037894737,3.001
-0.64505012797,-0.519649041125,-0.124922468222,-2.64084790685,-0.0672609878638,2.11067855175,-0.89263346835,-0.0367972979178,0.00114711583665,-0.000194350690935,-0.000248987913633,0.000240915903891,0.000719000304464,-0.0372088826824,0.57370295544,0.819029641197,0.00600938106492,0.0,0.81902596445,-0.573611349945,-0.0121340707412,0.0,-0.00649123939694,0.0118834201609,-0.999908319866,0.0,0.26548499009,-0.259227654206,0.304914028687,1.0,-0.00719157894737,-0.00945178947369,3.022
-0.645461011108,-0.519580468575,-0.124915246447,-2.64082117523,-0.0672566306966,2.11068732358,-0.893006126589,-0.0365903387532,0.00157181201636,0.000190565715962,0.00128612211914,-0.000218206350382,-0.00175374754672,-0.0311157170299,0.573732561954,0.819008885583,0.00601162132759,0.0,0.819005037866,-0.573640574269,-0.0121649662323,0.0,-0.00651483095711,0.0119032145693,-0.999907930992,0.0,0.265386434365,-0.259341582254,0.3049018608,1.0,-0.00695157894737,-0.00913636090226,3.034
-0.646124439839,-0.519491702672,-0.124906167516,-2.64080287286,-0.067249674854,2.11070106176,-0.8936202647,-0.0350440870356,-0.000135951467856,-4.33507758051e-05,0.000848400216072,-0.000180268395422,0.000720353359466,-0.0271210970938,0.573770726077,0.81898209176,0.00601948284467,0.0,0.818977996978,-0.573678057183,-0.0122177769373,0.0,-0.00655302145514,0.0119402566343,-0.999907239788,0.0,0.265221322228,-0.259519987754,0.304878899839,1.0,-0.00657157894737,-0.00863693233083,3.054
-0.646561707982,-0.519443415583,-0.124906048238,-2.64077779593,-0.0672422930102,2.11070890998,-0.894019867176,-0.0309305859494,0.000306120557144,-0.000200926801847,0.0027197670052,-0.000433698448176,0.000138407962854,-0.0223300813268,0.57380602609,0.818957298464,0.0060278203144,0.0,0.818953224582,-0.573713151614,-0.0122303930149,0.0,-0.00655805609559,0.0119546062603,-0.999907035323,0.0,0.265114445874,-0.259641849696,0.304873199121,1.0,-0.00627157894737,-0.00824264661655,3.068
-0.64718093312,-0.519360938636,-0.124895107244,-2.64068179894,-0.0672330472148,2.11073012495,-0.89461647692,-0.0288950551229,0.0086564005598,0.00405027143733,0.0102594781805,0.00182689472826,0.00486312499443,-0.0330519838185,0.573825557107,0.818943639034,0.00602436692416,0.0,0.818939772917,-0.573733155567,-0.0121926797666,0.0,-0.00652886419284,0.0119302946357,-0.999907516725,0.0,0.264980456906,-0.259828759021,0.304888531278,1.0,-0.00585157894737,-0.00769064661655,3.089
-0.647547056183,-0.519334528938,-0.124887650936,-2.6406032566,-0.0672224114575,2.11074372938,-0.894974867418,-0.0293520000082,0.00305854245703,0.00276635345517,0.00571956935883,0.000136176554007,0.000243859217961,-0.03340249993,0.57383489019,0.818937115362,0.00602219102897,0.0,0.818933664481,-0.573743308952,-0.0121249954328,0.0,-0.0064745416304,0.0118897493048,-0.999908352886,0.0,0.264907536622,-0.259944599915,0.304915838472,1.0,-0.00559157894737,-0.00734893233083,3.102
-0.648080117683,-0.519296479343,-0.124877393373,-2.64048565735,-0.0672138720012,2.11077235253,-0.895468336181,-0.0294276394235,8.32678642218e-05,0.0022613219984,0.00515342056776,0.000125934633249,-0.000364022603207,-0.0235951380479,0.573869285008,0.81891309167,0.00601156529341,0.0,0.818910226997,-0.573779077407,-0.0120148803548,0.0,-0.00638995545598,0.0118181306333,-0.999909746056,0.0,0.264802681488,-0.260116131768,0.304957954687,1.0,-0.00519157894737,-0.00682321804512,3.122
-0.648392324359,-0.519273677177,-0.124873338288,-2.64043160541,-0.067205763551,2.11079172025,-0.895767928753,-0.0209465208761,0.000233113966604,0.000463616986612,0.000595168634779,-0.000496745412761,0.00458158133234,-0.0215354949131,0.573882793602,0.818903629997,0.00601089726076,0.0,0.818901092052,-0.573793207597,-0.0119625771624,0.0,-0.00634730804796,0.0117876744809,-0.999910377189,0.0,0.264738061873,-0.260213248234,0.304975874528,1.0,-0.00493157894737,-0.0064815037594,3.135
-0.648859172366,-0.519245755419,-0.124854148237,-2.64037237098,-0.0671909336835,2.11081114145,-0.896228903729,-0.0237706971279,9.63112626757e-05,0.000932041339544,-0.00229023798606,0.000264551305932,-0.000396328646132,-0.0224542227187,0.573883178858,0.818903368526,0.0060097372085,0.0,0.818901156436,-0.573794231927,-0.0119089166826,0.0,-0.00630402081317,0.0117559340506,-0.99991102471,0.0,0.264638129849,-0.260348532076,0.304994630684,1.0,-0.00451157894737,-0.0059295037594,3.156
-0.649127951529,-0.519226926398,-0.1248350031,-2.64033893104,-0.067178787775,2.11081559503,-0.896491753841,-0.0223090864448,0.00195445181006,0.000983146520941,0.00247716627973,0.00320506301691,0.000493152549394,-0.014358809599,0.573881270056,0.818904711591,0.00600900277295,0.0,0.818902622663,-0.573792574104,-0.0118879518656,0.0,-0.00628729967504,0.01174328714,-0.999911278599,0.0,0.264581370554,-0.260423106529,0.305003733017,1.0,-0.00425157894737,-0.00558778947369,3.169
-0.649481730667,-0.519164492724,-0.124792192021,-2.64031794429,-0.0671596128416,2.11083376585,-0.896840204023,-0.0178406535613,0.00612654319132,0.00668051304266,-0.00123994636662,1.41126146143e-05,0.000105929003463,-0.0113688818607,0.573864706261,0.818916345185,0.00600544729487,0.0,0.818914083241,-0.573775791237,-0.0119085079638,0.0,-0.00630641296293,0.0117520440538,-0.999911055352,0.0,0.264506568129,-0.260512259533,0.304992854194,1.0,-0.00387157894737,-0.00508836090226,3.188
-0.649735423964,-0.519115775389,-0.124757044294,-2.6402994718,-0.0671463124087,2.11084326923,-0.897086851347,-0.0152292673684,0.00196095863897,0.00187471740596,0.00044554170208,0.00277109188051,-0.00043015396363,-0.0160993805034,0.573852301163,0.818925075568,0.00600032977683,0.0,0.818922632372,-0.573763195623,-0.0119274656847,0.0,-0.00632505412648,0.0117586358763,-0.999910860113,0.0,0.264453978181,-0.260575566795,0.30498495796,1.0,-0.00359157894737,-0.00472036090226,3.202
-0.650078455674,-0.519033913434,-0.12472063942,-2.64028808978,-0.067114438666,2.11085229667,-0.897422951305,-0.0154102773332,0.00432905787682,-0.00173914614351,-0.00112825450861,0.000293778472316,8.74541033814e-05,-0.0177303183222,0.573846662781,0.818928928027,0.00601376394569,0.0,0.818926278802,-0.57375679675,-0.0119847808787,0.0,-0.00636436835353,0.0118024830754,-0.999910094063,0.0,0.264377579309,-0.260657879037,0.304961635176,1.0,-0.00317157894737,-0.00416836090226,3.223
-0.650268228633,-0.518982010508,-0.124693360135,-2.64027496435,-0.0670964352929,2.11085471792,-0.897607985182,-0.0174973762009,0.00959866569098,0.00533709498247,0.000100148808787,0.000139896937856,-0.000670960884869,-0.0175281134237,0.573839727079,0.818933760413,0.00601752292377,0.0,0.818930936458,-0.573749432563,-0.0120190202048,0.0,-0.00639035408394,0.0118251546281,-0.999909660466,0.0,0.26433790515,-0.260703086775,0.304949347681,1.0,-0.00291157894737,-0.00382664661655,3.236
-0.65052962764,-0.518925658973,-0.12465889527,-2.6402540322,-0.0670674167387,2.11085838116,-0.89788920413,-0.0143424736973,0.00222196630073,0.000209916130589,0.000184013155079,0.000232871102798,-0.00130377910021,-0.00670670900185,0.57381266123,0.818952654769,0.00602710212184,0.0,0.818949760239,-0.573721970744,-0.0120472980967,0.0,-0.00640840923363,0.0118490141494,-0.999909262461,0.0,0.264283988854,-0.260766633745,0.304939250529,1.0,-0.00249157894737,-0.00327464661655,3.257
-0.650681770301,-0.518887671864,-0.124636293317,-2.64025226124,-0.0670461273428,2.11086169265,-0.898046892019,-0.0129491108624,0.0031323347956,0.004222802843,0.00158870649513,0.00079545079101,-0.000491241900016,-0.00672528494521,0.57380143095,0.818960452793,0.00603667970308,0.0,0.818957475349,-0.573710318133,-0.0120777207846,0.0,-0.00642799400835,0.0118742260536,-0.999908837669,0.0,0.264251228687,-0.260800020129,0.304926894955,1.0,-0.00223157894737,-0.00293293233083,3.27
-0.650901260014,-0.518868907415,-0.12459498956,-2.64023482816,-0.0670257506084,2.11087090956,-0.898262063161,-0.0111549216742,-0.000251823462607,0.00280143824468,0.000722938230684,0.00079184121271,0.000225471769357,-0.00575066411912,0.573785248863,0.818971816188,0.00603318969437,0.0,0.818968859811,-0.573694277309,-0.0120677149585,0.0,-0.00642203567932,0.0118654997633,-0.999908979544,0.0,0.26420985364,-0.260852379414,0.30492967685,1.0,-0.00183157894737,-0.00240721804512,3.29
-0.651033711499,-0.518864242687,-0.124561761288,-2.64022981604,-0.0670086735141,2.11086873341,-0.898397781859,-0.00935766038989,-0.00109313076363,0.00285199436841,-0.00100556727225,0.000696810498074,0.000789712382255,-0.0107619755653,0.573766542159,0.818984927166,0.00603250161988,0.0,0.818981959797,-0.573675573707,-0.0120678315955,0.0,-0.00642279701134,0.0118648564403,-0.999908982288,0.0,0.264184780397,-0.260879288824,0.304930842867,1.0,-0.00157157894737,-0.00206550375941,3.303
-0.651220528568,-0.518854701845,-0.124534830394,-2.64021746331,-0.066984759636,2.11087323194,-0.898555477984,-0.0043130710408,-0.00115814855539,0.00247677260145,0.000320971294286,0.000937832152689,0.000455057357308,-0.00418360465734,0.573782101065,0.818973976237,0.00603934140364,0.0,0.818971154555,-0.573691204792,-0.0120580450959,0.0,-0.00641063151637,0.0118649652893,-0.999909059066,0.0,0.264147390275,-0.260923977216,0.304933974055,1.0,-0.00117157894737,-0.00153978947369,3.323
-0.651343527883,-0.51885052081,-0.124522297952,-2.64021436921,-0.0669684550843,2.11087255552,-0.898614269893,-0.00719237197219,-0.000295866068744,0.00011165236566,-1.38349279853e-05,0.000936228112641,-0.000177569613158,0.000482246639011,0.57383291244,0.818938315265,0.00604742029091,0.0,0.818935594079,-0.573741962309,-0.0120582062093,0.0,-0.00640539161718,0.0118720718907,-0.999909008294,0.0,0.264119999765,-0.260952706584,0.304934087342,1.0,-0.000891578947374,-0.00117178947369,3.337
-0.651455485875,-0.518848401822,-0.124511562628,-2.6402015939,-0.066949877862,2.11087529151,-0.898719232246,-0.00503732622491,-0.000451318016609,0.00087548382052,0.00122294224169,-0.000133716108154,-0.000169141544554,-0.00652469991863,0.573839547412,0.8189335955,0.00605697031252,0.0,0.818931086777,-0.573748718706,-0.0120428316863,0.0,-0.00638722347065,0.0118711229209,-0.99990913578,0.0,0.264098106609,-0.260981678592,0.304939609058,1.0,-0.000491578947374,-0.000646075187977,3.357
-0.651486447773,-0.5188444683,-0.12451294168,-2.64020093302,-0.0669363389498,2.11087129879,-0.898730320051,-0.0021019444585,0.000147432342047,-0.000389648625078,0.000297443337182,0.00334224413621,-9.68649409953e-05,-0.000243751733842,0.573862628116,0.81891732737,0.00606975169239,0.0,0.818914935489,-0.573771647879,-0.0120487105191,0.0,-0.00638436930468,0.0118851438253,-0.999908987451,0.0,0.264090370962,-0.260988327596,0.304938096215,1.0,-0.000231578947374,-0.000304360902262,3.37
-0.651482403701,-0.518834212621,-0.124478255705,-2.64020089511,-0.0669156731727,2.11087211308,-0.898749803238,0.00118439895719,5.75375230156e-05,0.00183066884564,-0.00025669733949,0.00149843445211,0.000564343176667,-0.000758387151943,0.573827622574,0.818941850391,0.00607059716532,0.0,0.818939413336,-0.573736541506,-0.0120567461036,0.0,-0.00639097358735,0.0118901741565,-0.999908885457,0.0,0.264100755297,-0.260977545946,0.304935234359,1.0,0.0,0.0,3.391
-0.651477514734,-0.518843668036,-0.124444615299,-2.6401956054,-0.0669020124721,2.11086896363,-0.898749511145,0.00337348127651,-0.00187933737724,0.0020187518947,0.00127976734204,0.000545596504696,-0.00089591844988,0.00134843538164,0.573806022233,0.818957029067,0.00606467568808,0.0,0.818954596835,-0.573715123423,-0.0120445995847,0.0,-0.00638473625721,0.011878186502,-0.99990906778,0.0,0.264111522393,-0.260968604655,0.30494165003,1.0,0.0,0.0,3.404
-0.651479142964,-0.518844144717,-0.124389922453,-2.64018692148,-0.0668924114955,2.11087226958,-0.898762517598,-0.000653963396469,-0.00209196400098,0.000522193469438,-0.000239222837758,0.000334056089035,-0.000510414185663,0.00120267783014,0.573762396642,0.818987745324,0.00604417989387,0.0,0.818985143064,-0.573671773837,-0.0120323831206,0.0,-0.00638712189357,0.0118540507389,-0.999909338968,0.0,0.26412641734,-0.260958824472,0.304947343911,1.0,0.0,0.0,3.425
-0.651465833226,-0.518839383408,-0.12436994191,-2.64017796214,-0.0668863038945,2.11087695836,-0.898766780686,0.0004177012815,0.000785391551933,0.00204846181552,0.000623194515642,-9.20155417837e-05,-0.000495891079109,-0.000102774505012,0.573738747241,0.819004373803,0.00603593460987,0.0,0.819001726488,-0.573648279682,-0.0120237319051,0.0,-0.00638510844758,0.0118421497449,-0.999909492844,0.0,0.264138457383,-0.26095260603,0.30495055135,1.0,0.0,0.0,3.438
-0.651470735091,-0.518846894829,-0.124358521921,-2.64013307611,-0.0668741405426,2.11088816266,-0.898770076179,-0.000924017997441,-8.55703558859e-05,0.000170579336798,-0.000447448285511,0.000571028154841,0.00236442321094,-0.000365659281457,0.573737291161,0.819005405824,0.00603430715088,0.0,0.819003147186,-0.573647592647,-0.0119595673663,0.0,-0.00633350649352,0.0118039935953,-0.99991027219,0.0,0.264152032838,-0.260963994528,0.304974927967,1.0,0.0,0.0,3.459
-0.651473436832,-0.518846897778,-0.12435854889,-2.64008461698,-0.066874675257,2.11088957116,-0.89876486717,-0.00181631972492,-0.000303709910841,-0.000230843609697,0.00182594454183,-8.69704158008e-05,0.000185164774379,0.00105988513057,0.573745789756,0.818999509803,0.00602648988743,0.0,0.818997470398,-0.573656719984,-0.0119104156142,0.0,-0.00629760937626,0.0117694573846,-0.999910906026,0.0,0.264162618707,-0.260977399948,0.304997068068,1.0,0.0,0.0,3.471
-0.651473428995,-0.518844366614,-0.124355324124,-2.64000411525,-0.0668702702733,2.11090551444,-0.898770892016,-0.000929397539232,0.00109919863692,0.000422547414384,0.00551913474605,-3.96388170072e-05,-1.10097307701e-05,-0.000448569037534,0.573744145253,0.819000745578,0.00601510027944,0.0,0.818999155747,-0.573656240359,-0.0118172621529,0.0,-0.00622786660794,0.0117066724134,-0.999912079884,0.0,0.264184657949,-0.260999097854,0.305034157093,1.0,0.0,0.0,3.492
-0.651468230528,-0.518855325198,-0.124355324124,-2.63993506399,-0.0668657968229,2.1109169209,-0.898765399024,-0.0060131033426,0.000470786836167,-0.000420006585485,0.00967804656513,0.00139339607327,0.00353763277816,0.00106969675559,0.573749411703,0.818997116441,0.00600689046925,0.0,0.81899599382,-0.573662618317,-0.0117264382604,0.0,-0.00615810916953,0.0116478805407,-0.999913198518,0.0,0.264204307245,-0.261016773577,0.305070550957,1.0,0.0,0.0,3.505
-0.651460196742,-0.518864928508,-0.124346570383,-2.63984396416,-0.0668637575497,2.1109476262,-0.898770108233,0.00531942461699,0.00171220661333,0.000693746558357,0.00478567342651,-6.66687975492e-05,0.0011881735084,0.00121207090056,0.573737761305,0.819005423513,0.00598702011299,0.0,0.819004863953,-0.573652598532,-0.0115963752565,0.0,-0.00606314131715,0.0115568994782,-0.999914834569,0.0,0.264234466609,-0.261040374817,0.305118321835,1.0,0.0,0.0,3.522
-0.651468221693,-0.518896859019,-0.124351884163,-2.63970097603,-0.0668657904267,2.11098541521,-0.898773236285,-0.000104027974089,-0.00255393955828,-9.67239194223e-05,0.00574553423105,-0.000653709410697,0.00237241048242,-0.0012718180478,0.573751082282,0.818996279289,0.00596129124551,0.0,0.818996685427,-0.573668491657,-0.0113858614374,0.0,-0.00590528689165,0.0114151478703,-0.999917407582,0.0,0.264270509239,-0.261086379446,0.30519818296,1.0,0.0,0.0,3.538
-0.651486620261,-0.519021740074,-0.124349889383,-2.63933091642,-0.0668643662731,2.11118534985,-0.898769275163,-0.000766562667858,-0.00989037649688,-0.000246612439119,0.0238805422153,-1.60291340504e-05,0.0141224452615,0.000999262788633,0.573784929023,0.81897316041,0.00587917137346,0.0,0.818976540639,-0.573710505721,-0.0106971215786,0.0,-0.00538781681682,0.0109529614575,-0.999925499257,0.0,0.264385454714,-0.261215701789,0.305429617077,1.0,0.0,0.0,3.56
-0.651487428019,-0.519151675594,-0.124349378145,-2.63913063056,-0.0668630438447,2.11124176786,-0.898772844363,0.00170184096672,-0.00915959387647,0.000587787731331,0.0213470023061,-2.15844961107e-05,0.00141513761143,0.000434334429619,0.573791472396,0.818968864195,0.00583888567339,0.0,0.818973820416,-0.573721414726,-0.0103134213046,0.0,-0.00509657530771,0.0106998537081,-0.999929766559,0.0,0.26444311515,-0.261277077628,0.305573465642,1.0,0.0,0.0,3.572
