nelsonifechukwu/NELSON_IML_WORK/CNN-GradCAM/train2dof/data_sample_2022-02-22-16-28-47/robot_state.csv
position_joint1,position_joint2,position_joint3,position_joint4,position_joint5,position_joint6,position_joint7,velocity_joint1,velocity_joint2,velocity_joint3,velocity_joint4,velocity_joint5,velocity_joint6,velocity_joint7,ee_T_00,ee_T_10,ee_T_20,ee_T_30,ee_T_01,ee_T_11,ee_T_21,ee_T_31,ee_T_02,ee_T_12,ee_T_22,ee_T_32,ee_T_03,ee_T_13,ee_T_23,ee_T_33,v_x,v_y,time
0.465065563991,0.547767644942,-0.123931751197,-1.35584867236,0.0795509749924,1.8940984442,0.159162058456,0.0016232957258,-0.000307638689354,-0.00127991176113,0.00126728602685,-0.000255233280296,-0.000330516155691,0.00139023582049,0.573789411005,0.818988720225,0.00198364911852,0.0,0.818945231722,-0.573729937018,-0.0119755463368,0.0,-0.0086699254075,0.00849610524246,-0.99992632158,0.0,0.661659641888,0.260924391695,0.303214546344,1.0,0.0,0.0,0.0
0.465065456068,0.547764815281,-0.123929298082,-1.35585378571,0.079547180973,1.89410242377,0.159159760049,0.00139304272689,-0.000124150573423,-0.000556617667437,-0.000625986979763,-0.000174144912415,3.07993609492e-06,-9.78254819509e-05,0.573785199723,0.818991670554,0.00198369400171,0.0,0.818948204574,-0.573725747568,-0.0119729571768,0.0,-0.0086678227581,0.00849461181371,-0.999926352497,0.0,0.661659016003,0.260924825816,0.303214374648,1.0,-0.00024,-0.000315428571429,0.013
0.465063080888,0.547767610573,-0.123929519053,-1.35585502572,0.0795507923649,1.89410186895,0.159157378875,0.000440516361353,0.00229691549274,0.000574871664917,-0.000237346203516,0.000300211101687,-0.00042416735175,-0.00118641702275,0.573786375061,0.818990851866,0.00198173028598,0.0,0.818947325745,-0.573726897206,-0.0119779789291,0.0,-0.0086730501818,0.00849589740069,-0.999926296248,0.0,0.661659014149,0.260923489136,0.303211770126,1.0,-0.00056,-0.000736,0.029
0.465063053642,0.547741353428,-0.123932399385,-1.35587630006,0.0795467584788,1.89410448821,0.159161187525,-0.000483162804019,-0.00282600466344,-0.000936934594398,-0.00394247865808,-0.000185001000509,-0.000938266948152,0.000998271970079,0.573791592871,0.818987184768,0.00198646336413,0.0,0.81894375486,-0.573732128219,-0.0119715632157,0.0,-0.00866502583037,0.00849614767017,-0.99992636369,0.0,0.661656250387,0.260919149679,0.303220560678,1.0,-0.0009,-0.00118285714286,0.046
0.465062676205,0.547638683996,-0.123927118444,-1.35598171809,0.0795431511154,1.89412265072,0.159152482337,-0.00318636533048,-0.00728285814792,0.000597945469455,-0.00660650997025,-0.00506331974656,-0.000109528142002,-0.00161255305695,0.573785825074,0.818991182583,0.0020041698882,0.0,0.818947905445,-0.573726209967,-0.0119712599832,0.0,-0.00865467820592,0.00851041387056,-0.999926331987,0.0,0.661637510126,0.260911443923,0.30324451368,1.0,-0.00124,-0.00162971428571,0.063
0.465062320713,0.547516701893,-0.123929625061,-1.35615562394,0.0795443136456,1.89415033658,0.159151664612,0.000206545985224,-0.00796509598241,-0.00105256980413,-0.0134862104255,1.16443328385e-05,0.00131139673004,-0.000420564707354,0.573796973229,0.818983404631,0.00199081717012,0.0,0.81893980934,-0.57373727167,-0.0119949437926,0.0,-0.00868162104214,0.00851318578118,-0.99992607483,0.0,0.661606983506,0.260892781223,0.303250641737,1.0,-0.00156,-0.00205028571429,0.079
0.465049460475,0.547358587167,-0.123933434118,-1.35636768341,0.0795401765923,1.89423635784,0.159142129056,-0.000169838305191,-0.00781073551788,-0.000846465249835,-0.014180128558,-6.20987874605e-05,0.00543135073352,-0.00185491152069,0.573813154175,0.81897199135,0.00202197462958,0.0,0.818928756648,-0.573753273956,-0.0119841170209,0.0,-0.00865470824755,0.0085326614373,-0.999926142129,0.0,0.661584158428,0.260864150895,0.303269300758,1.0,-0.0019,-0.00249714285714,0.096
0.465029201712,0.547171200761,-0.123930311795,-1.35658009398,0.0795395277353,1.89436785675,0.159139349863,-0.00181232374991,-0.0137635178937,0.000141364323028,-0.0130920174552,5.94057276262e-05,0.00863066791006,-0.000713592865162,0.573837286034,0.8189548375,0.00211900758693,0.0,0.81891282514,-0.573776957074,-0.0119388128984,0.0,-0.00856167569066,0.00858638379606,-0.999926483159,0.0,0.661571239884,0.260838647517,0.303312248037,1.0,-0.00224,-0.002944,0.113
0.465008476675,0.546969123134,-0.123927920783,-1.35684024072,0.0795372566188,1.89448846297,0.159125774577,0.000324202867666,-0.0162159460127,0.000281174838911,-0.0172874678264,-5.95743247493e-06,0.0101013926691,-0.000440314768448,0.573855536018,0.818941889713,0.00217989799874,0.0,0.818900578363,-0.573794863482,-0.0119182338764,0.0,-0.00850969053612,0.00862463027234,-0.999926597766,0.0,0.661545952669,0.26080592693,0.303341947804,1.0,-0.00258,-0.00339085714286,0.13
0.464975006201,0.546750339242,-0.123930314731,-1.35717119318,0.0795293541093,1.89461550459,0.159101680434,-0.00400895428194,-0.0144435533736,0.000148911732091,-0.0230919714679,-0.000228726976717,0.00639022632338,-0.000432612057408,0.573877945918,0.818926135952,0.00219862352967,0.0,0.818884967003,-0.573817091749,-0.011920693566,0.0,-0.00850072342546,0.00864160927184,-0.999926527446,0.0,0.661508744365,0.260751633521,0.303349591948,1.0,-0.00292,-0.00383771428571,0.147
0.46494307507,0.546450742771,-0.123927809076,-1.35759621281,0.0795204030782,1.89477256397,0.158965435961,-0.00209945788776,-0.0211621495177,0.000700499094788,-0.0220100244675,0.000234555359208,0.00247789992701,-0.00865302581595,0.573815521165,0.818969774976,0.00223657019918,0.0,0.818928946497,-0.573754364941,-0.0119187332439,0.0,-0.00847800359633,0.0086709131469,-0.999926466657,0.0,0.661460825628,0.260696365471,0.303373889698,1.0,-0.00326,-0.00428457142857,0.164
0.464896863402,0.546176985313,-0.123926017924,-1.35803529872,0.0795065026846,1.89493025479,0.158930888061,-0.00780859014648,-0.0162675234277,0.00111854064013,-0.0256756869353,-3.68746365022e-05,0.0101868030369,0.00106205645227,0.573844679555,0.818949343147,0.00223696350058,0.0,0.818908390292,-0.573783385636,-0.0119340511871,0.0,-0.00849001434897,0.00868032708187,-0.999926283072,0.0,0.66141112895,0.26062676295,0.303372362442,1.0,-0.00358,-0.00470514285714,0.18
0.464856157216,0.545865591778,-0.12393032676,-1.35857540208,0.0794867741103,1.89511813573,0.158889376933,-0.00225121915189,-0.0190236485212,-0.00047211918702,-0.0327254365819,-0.00482473113023,0.0131010572517,-0.00359798832296,0.57387198557,0.818930289829,0.00220714293132,0.0,0.818888829576,-0.573810688476,-0.0119635065103,0.0,-0.00853095989631,0.00867309291111,-0.999925997353,0.0,0.661345502721,0.260546875507,0.303352198384,1.0,-0.00392,-0.005152,0.197
0.464787740434,0.545498700013,-0.123930914651,-1.35917968743,0.0794377566106,1.89532051234,0.158786522269,-0.005508016223,-0.0189688925535,0.000643763950137,-0.0354754839692,-0.00239296402616,0.0177249451224,-0.00228425994368,0.573864838473,0.81893539593,0.00217056651563,0.0,0.818893533886,-0.573803768703,-0.0119733906229,0.0,-0.00856011895231,0.00864873727529,-0.999925959113,0.0,0.661277439792,0.260440171518,0.303341834889,1.0,-0.00426,-0.00559885714286,0.214
0.464725838344,0.54513960869,-0.123931005376,-1.35982587935,0.0793707421666,1.89552090612,0.158705814258,-0.00705990781342,-0.0243989050569,-0.000786080096955,-0.0374842246368,-0.000868244587665,0.0170364467658,0.000235317351055,0.57387700978,0.818927092943,0.0020835043502,0.0,0.818884272214,-0.573816477984,-0.0119977171423,0.0,-0.00862987264499,0.00859152839482,-0.99992585272,0.0,0.661194202872,0.260323561521,0.303307398516,1.0,-0.0046,-0.00604571428571,0.231
0.464653773442,0.544715838808,-0.123931014145,-1.36053084384,0.0793471489256,1.8957575956,0.158635818442,-0.00322256510311,-0.0251023973601,0.000352177599124,-0.04288716322,-0.00555112441416,0.0101349550011,-0.0131221485236,0.573902261476,0.818909473464,0.0020531549281,0.0,0.818866047637,-0.573841647348,-0.0120377197854,0.0,-0.00867978407774,0.00858989885122,-0.999925434713,0.0,0.661114643763,0.260216409608,0.30329068214,1.0,-0.00492,-0.00646628571429,0.247
0.464576791608,0.544227642909,-0.123938840187,-1.3613311886,0.0793213873015,1.89605328962,0.15852574136,-0.00553836172661,-0.0233480203213,-0.000236167527207,-0.0443409215743,-0.00246487384459,0.0164105773217,-0.00735221611871,0.573918465843,0.818898128147,0.00204870252555,0.0,0.818854467173,-0.573857693644,-0.0120605114715,0.0,-0.00870083408026,0.00859950502308,-0.9999251692,0.0,0.661025654442,0.260088291134,0.303281142184,1.0,-0.00528,-0.00693942857143,0.265
0.464506811194,0.543782473343,-0.12393431594,-1.36205877176,0.0792837254561,1.89631144038,0.158443689621,-0.00331689357938,-0.0280847226255,0.00061706697893,-0.0540539841298,-0.00951777926247,0.013185941019,-0.00914075493524,0.57393589341,0.81888595549,0.00203200807513,0.0,0.818841971469,-0.57387508736,-0.012081256984,0.0,-0.00872722088325,0.00859792605561,-0.999924952826,0.0,0.660940689769,0.259975558192,0.303272048043,1.0,-0.00558,-0.00733371428571,0.28
0.464425208835,0.543212101983,-0.1239434403,-1.36295485207,0.0792363855016,1.89662209788,0.158329686447,-0.0084536611557,-0.0347159015755,-0.00015936923405,-0.0501915982147,-0.00141432141086,0.0145319652009,-0.00808253880619,0.573952895869,0.818874065796,0.0020210370481,0.0,0.81882988484,-0.573892082503,-0.0120931482391,0.0,-0.00874307663776,0.00859594848398,-0.999924831315,0.0,0.660837286018,0.259830886807,0.30327627342,1.0,-0.00594,-0.00780685714286,0.298
0.464346465004,0.542689917804,-0.12394773937,-1.36379543793,0.0791821903901,1.89692589762,0.158209500459,-0.00652646822976,-0.0348878896705,-0.00160087853735,-0.0544586214382,-0.00391243448378,0.0154039992379,-0.00324551403788,0.573955212933,0.818872481147,0.00200501088357,0.0,0.818828114122,-0.573894491995,-0.0120986975325,0.0,-0.00875679436003,0.00858603510686,-0.999924796449,0.0,0.660734409818,0.259689601927,0.303271883052,1.0,-0.00628,-0.00825371428571,0.315
0.464272149532,0.542091247227,-0.123946296116,-1.36472034868,0.0791320051732,1.89727005769,0.158102573323,-0.0078995499403,-0.0366277322554,-0.000298900753537,-0.0543190149949,-0.00275512193332,0.0268746890213,-0.00881502182154,0.573964570346,0.818865876744,0.00202355953119,0.0,0.818821699295,-0.573903715564,-0.0120953266493,0.0,-0.008743290263,0.00859938898231,-0.999924799865,0.0,0.660635374882,0.259560333329,0.303284923379,1.0,-0.0066,-0.00867428571429,0.331
0.464193311732,0.54146642488,-0.123943691028,-1.36567657717,0.0790723349942,1.89762140506,0.157970140173,-0.00411809155609,-0.0354138438302,0.000557449915789,-0.0548256612254,-0.00795001789581,0.0219832707001,-0.0048052264987,0.573955978279,0.818871857599,0.00204027714104,0.0,0.818827893161,-0.573895046687,-0.0120873351818,0.0,-0.00872724169508,0.00860839986029,-0.999924862529,0.0,0.660524507092,0.259418654532,0.303301925724,1.0,-0.00694,-0.00912114285714,0.348
0.464107333186,0.540728079012,-0.123943828024,-1.36678751077,0.0790109256963,1.89803078335,0.157823121177,-0.00792582633081,-0.0395262228262,0.00179629945791,-0.0639139892906,-0.000645480857662,0.0245619483319,-0.0122262426632,0.57395123984,0.818875091237,0.00207512380079,0.0,0.818831524505,-0.573890101544,-0.012076122176,0.0,-0.00869811010546,0.00863044824358,-0.999924926304,0.0,0.660394897091,0.259257462755,0.303330577774,1.0,-0.0073,-0.00959428571429,0.366
0.464033232983,0.540091520824,-0.123948043495,-1.36775947803,0.0789535611452,1.89838941884,0.157701168206,-0.00277025741052,-0.0467436161547,-0.000292207679838,-0.0680460130989,-0.00345878651347,0.0262578325465,-0.0146049659491,0.573953489147,0.818873465067,0.00209461375074,0.0,0.818830155501,-0.573892269545,-0.0120659147846,0.0,-0.00867854189842,0.00864057315139,-0.999925008891,0.0,0.660282016925,0.259114126625,0.303349052758,1.0,-0.0076,-0.00998857142857,0.381
0.463932611613,0.539304036108,-0.123953021403,-1.36896947854,0.0788857526084,1.89885452465,0.157553516547,-0.00241524933085,-0.0474131343246,-0.000621557003014,-0.0687441982282,-0.0073359882646,0.0276062805276,-0.00323723224872,0.573967386114,0.818863628938,0.00213161465046,0.0,0.81882079952,-0.573906004185,-0.0120475530305,0.0,-0.00864212293548,0.00866047967539,-0.9999251521,0.0,0.660146760607,0.258932103562,0.303370035251,1.0,-0.00796,-0.0104617142857,0.399
0.463825861077,0.538551616982,-0.12394808862,-1.37015439172,0.0788126944629,1.89931456494,0.157406808637,-0.00754729783802,-0.0426959808129,0.00185420577538,-0.0736727582993,-0.00417034043293,0.0301488352412,-0.00864394489893,0.573977279905,0.818856635859,0.00215382528973,0.0,0.818814106731,-0.573915813273,-0.0120351482939,0.0,-0.00861911259582,0.0086716511678,-0.999925253889,0.0,0.660014728684,0.258753119263,0.30337728177,1.0,-0.0083,-0.0109085714286,0.416
0.463729979509,0.537817989854,-0.12396122531,-1.37130482834,0.0787501996299,1.89975820904,0.157274241815,-0.00658798147604,-0.0407843883055,-0.00124980190195,-0.068499302188,-0.00246598225698,0.0284294909491,-0.00360780953813,0.574003354201,0.818838300209,0.00217586262344,0.0,0.818796078836,-0.573941812042,-0.01202183738,0.0,-0.00859528783471,0.00868232992569,-0.999925366302,0.0,0.659887409516,0.25857527675,0.303386726744,1.0,-0.00862,-0.0113291428571,0.432
0.463614586743,0.536987613385,-0.123957515046,-1.3725987048,0.0786784214098,1.90022450488,0.157116924618,-0.00631760098203,-0.0482063273139,-0.000158910554081,-0.0812138883132,-0.000977772017247,0.0327502700952,-0.0147394654032,0.574018399482,0.818827735205,0.00218266286689,0.0,0.818785497311,-0.573956720543,-0.0120307621554,0.0,-0.0085985332558,0.00869317890856,-0.999925244139,0.0,0.659735361072,0.258378633167,0.303397484956,1.0,-0.00896,-0.011776,0.449
0.463493712368,0.536150912111,-0.123964693708,-1.37391148033,0.0785970712536,1.9007208925,0.156945442567,-0.00333131732806,-0.0463759903688,-0.00156897834199,-0.0785474955958,-0.00544703212244,0.022641586292,-0.0162620629117,0.574032504203,0.818817811384,0.00219608311724,0.0,0.818775805468,-0.5739708249,-0.0120174641545,0.0,-0.00857979124655,0.00869668220403,-0.999925374666,0.0,0.659589242253,0.258170402446,0.303406512647,1.0,-0.0093,-0.0122228571429,0.466
0.463382305016,0.535308687972,-0.123973604836,-1.37524332711,0.0785208870029,1.90119912222,0.156786623497,-0.00526848359643,-0.0505346974371,-0.00227251191858,-0.0882935687169,-0.0124642343628,0.0357095703932,-0.0135888215828,0.574052607533,0.818803743758,0.00218629680308,0.0,0.818761578691,-0.573990934694,-0.0120262650283,0.0,-0.00859240171341,0.00869393200547,-0.999925290299,0.0,0.659432570328,0.257964841788,0.303408695288,1.0,-0.00962,-0.0126434285714,0.482
0.463251223685,0.534422736863,-0.123968670308,-1.37668621063,0.0784526487403,1.90172735906,0.156608652626,-0.00790830234385,-0.0462123073159,-0.000127028387312,-0.0832526812528,-0.00183712187532,0.0360913817439,-0.011925840054,0.574071638985,0.818790438427,0.00217213155626,0.0,0.818747861242,-0.574009793826,-0.012059983631,0.0,-0.00862794061247,0.00870189017355,-0.999924915055,0.0,0.659262361602,0.257746426048,0.303392638762,1.0,-0.00996,-0.0130902857143,0.499
0.463114361509,0.533495364573,-0.123974316088,-1.37815765019,0.0783566466818,1.90227293321,0.156425504756,-0.00812548836053,-0.055506717776,0.00020478054799,-0.0864369169494,-0.00488813074505,0.0331626248583,-0.00917640184678,0.574092518364,0.8187758123,0.00216713003569,0.0,0.818733244739,-0.574030767247,-0.0120540081912,0.0,-0.00862569710254,0.00869458472248,-0.99992499796,0.0,0.659095135043,0.257511933873,0.303393816628,1.0,-0.0103,-0.0135371428571,0.516
0.462995410709,0.532608251142,-0.123970051286,-1.37959559473,0.078286647163,1.90281969155,0.156249077015,-0.0085297073619,-0.0564950888709,0.000997815452265,-0.0890458489114,-0.000315828433305,0.0353858005852,-0.0128968734856,0.57410245113,0.818768835068,0.00217191820853,0.0,0.818726155081,-0.574040502064,-0.0120719459251,0.0,-0.00863753038246,0.00870890766298,-0.999924771168,0.0,0.658926198202,0.257302738039,0.303382200664,1.0,-0.01062,-0.0139577142857,0.532
0.462849145168,0.53156665815,-0.123970289154,-1.38125187939,0.0781903499519,1.9034202614,0.15603383346,-0.00562682820355,-0.0553718999776,0.00082642038135,-0.0967016941062,-0.00683818513833,0.0325850922052,-0.0158384861732,0.574110575939,0.81876316568,0.00216148618137,0.0,0.818720272806,-0.574048593112,-0.0120861302342,0.0,-0.00865504678643,0.00870859541319,-0.999924622425,0.0,0.658730272959,0.257048482836,0.303380134446,1.0,-0.01098,-0.0144308571429,0.55
0.462716556395,0.530558364352,-0.123973001183,-1.38289255117,0.0780839454433,1.9039987357,0.155828424666,-0.0142363416641,-0.0588986565828,0.00117735174465,-0.0942460321734,-0.0072597758104,0.0348276299395,-0.0156340821463,0.574113428182,0.818761298755,0.00211048412007,0.0,0.81871774139,-0.574051666295,-0.0121116166667,0.0,-0.00870516366759,0.00868149970313,-0.999924422988,0.0,0.658529826359,0.25680012528,0.303359953358,1.0,-0.01132,-0.0148777142857,0.567
0.462589224374,0.529584416117,-0.12398061972,-1.38443504923,0.0779896258129,1.90457215491,0.155613192935,-0.0081565376729,-0.0634808122429,-0.000331886700178,-0.095829332047,-0.0146168984597,0.037281079854,-0.00930783727103,0.574105313395,0.818766986109,0.00211151387772,0.0,0.81872346898,-0.574043574803,-0.0121079506396,0.0,-0.00870165681235,0.00868015188308,-0.999924465213,0.0,0.658349071373,0.256565198684,0.303361804363,1.0,-0.01164,-0.0152982857143,0.583
0.46244718495,0.528486460786,-0.123979652701,-1.38612649354,0.0778823508603,1.90520696406,0.155395879336,-0.00703359097843,-0.0682496682681,0.000211201702914,-0.0975790254657,-0.00684712303043,0.0362750734543,-0.00757051071975,0.574105855969,0.818766521846,0.00214376955425,0.0,0.818723463223,-0.574044015551,-0.0120874265002,0.0,-0.00866632892396,0.00869478417268,-0.999924644896,0.0,0.658151087381,0.256311630768,0.303384877251,1.0,-0.01198,-0.0157451428571,0.6
0.462314598762,0.527383836338,-0.123984530025,-1.38785452428,0.0777712061038,1.9058730311,0.155147008769,-0.0065583991195,-0.0698121130698,-0.00047131603007,-0.101021739884,-0.00457441853054,0.0388851281167,-0.0181405514645,0.574077827623,0.818786099231,0.00217219661412,0.0,0.818743510303,-0.574015968694,-0.0120614643152,0.0,-0.00862904990993,0.00870285866991,-0.999924897054,0.0,0.657949517995,0.256058116189,0.303396463018,1.0,-0.01232,-0.016192,0.617
0.462173242253,0.526288151988,-0.123982138662,-1.38955616171,0.0776720957213,1.90651207492,0.15491679476,-0.00726228390442,-0.0701286868588,-0.00019004077764,-0.106116424613,-0.0074650923541,0.0383581554145,-0.0124110737569,0.574068626068,0.818792469534,0.00220256647608,0.0,0.818750223575,-0.574006585869,-0.0120522892095,0.0,-0.00860420163984,0.00872236083468,-0.999924941251,0.0,0.657747975397,0.255806243194,0.303412886421,1.0,-0.01264,-0.0166125714286,0.633
0.462014619608,0.525118088595,-0.123980045134,-1.39140057935,0.0775499652266,1.90717161072,0.15467987875,-0.0127879428418,-0.0647219963332,0.00258325659738,-0.1163699794,-0.0111686290079,0.0419696747169,-0.0106223130878,0.574069284301,0.818792055278,0.00218493428733,0.0,0.81874959857,-0.574007338125,-0.0120589187269,0.0,-0.00861974449135,0.00871173664156,-0.999924900005,0.0,0.65752416753,0.255524611523,0.303415159407,1.0,-0.01298,-0.0170594285714,0.65
0.461848451295,0.523879684041,-0.123994337425,-1.39340177938,0.0774288609599,1.90788908821,0.154393729068,-0.0116120394739,-0.0675960377694,-0.00143976757124,-0.110617162889,-0.0018447581078,0.0331838742029,-0.0198613958968,0.574055974632,0.818801498304,0.00214272408235,0.0,0.818758479657,-0.573994198893,-0.0120813297192,0.0,-0.00866246646178,0.00868990032629,-0.99992472082,0.0,0.657281844279,0.255214892999,0.303396146816,1.0,-0.01334,-0.0175325714286,0.668
0.461701512407,0.522723955728,-0.123997429555,-1.39521650285,0.0773166384976,1.90859045874,0.154155997433,-0.00904360030319,-0.0727070757378,-3.76507753178e-05,-0.111891702716,-0.00999695306504,0.0434568644832,-0.0168719081974,0.574051042629,0.818804871009,0.00217498749341,0.0,0.818762327614,-0.573989184486,-0.0120587675392,0.0,-0.00862552436991,0.00870331346708,-0.999924923514,0.0,0.657069442072,0.254945730515,0.303405661194,1.0,-0.01366,-0.0179531428571,0.684
0.461540669186,0.521493491776,-0.124001326067,-1.39719990654,0.0772003496631,1.90936257485,0.153884338734,-0.00438548118393,-0.0759820261353,-0.00236985735505,-0.122083144918,-0.00557932861939,0.0400703836001,-0.0153484790442,0.574038125487,0.818813887962,0.00218958197018,0.0,0.818771536448,-0.573976208692,-0.0120511352074,0.0,-0.00861103470476,0.00871074616721,-0.999924983678,0.0,0.656836723772,0.254652084724,0.303393294189,1.0,-0.014,-0.0184,0.701
0.461368806823,0.520198314297,-0.124004769209,-1.39923317686,0.0770679781475,1.91009678286,0.153614318168,-0.00840887839531,-0.081155903914,0.000382855641283,-0.119654150333,-0.0134689922108,0.0409327452432,-0.0122612491588,0.574032736059,0.818817689789,0.00218076219076,0.0,0.818775259014,-0.573970893435,-0.0120513740895,0.0,-0.00861635015915,0.00870360494079,-0.999925000073,0.0,0.656589248726,0.254341338997,0.303398927626,1.0,-0.01434,-0.0188468571429,0.718
0.461199500182,0.518951632853,-0.124009524112,-1.40117588783,0.0769493541561,1.91079332406,0.153344094407,-0.00849135945917,-0.079760594977,-0.00114904334428,-0.127299740851,-0.00132319690358,0.0440256140107,-0.0173625827089,0.574024632283,0.818823371335,0.00218059386627,0.0,0.818780902207,-0.573962754889,-0.012055583034,0.0,-0.00861997944183,0.0087057978448,-0.999924949703,0.0,0.656352574957,0.254041327608,0.30341002712,1.0,-0.01466,-0.0192674285714,0.734
0.461026254853,0.517589596384,-0.124018680527,-1.40328791266,0.0768017029038,1.91155477704,0.153049658762,-0.0102523880257,-0.0765621708695,-0.00166345033242,-0.123625138247,-0.0119810396164,0.0503719553079,-0.0275408948444,0.574003765263,0.818838005096,0.00217847984978,0.0,0.818795661871,-0.573942054489,-0.0120386499182,0.0,-0.00860754860438,0.00869412762108,-0.999925158325,0.0,0.656094719162,0.253717377855,0.303426847545,1.0,-0.015,-0.0197142857143,0.751
0.460847564426,0.516244683448,-0.124014180573,-1.40543045816,0.0766746526352,1.91235194545,0.152768301276,-0.011358581193,-0.0819551068036,0.000923546488257,-0.130251320404,-0.00599557312496,0.0499922152433,-0.025173366171,0.573995627973,0.81884370623,0.00217961836663,0.0,0.818801292384,-0.573933827109,-0.0120479289153,0.0,-0.00861457991193,0.00870030036674,-0.999925044084,0.0,0.655832697852,0.253399719761,0.30341946066,1.0,-0.01534,-0.0201611428571,0.768
0.460667914163,0.514876457171,-0.124022309268,-1.40762666457,0.0765386940479,1.91317388978,0.15246636023,-0.0106461751099,-0.0781940252549,-0.000862383787584,-0.129187438385,-0.0116018701953,0.0434916453053,-0.0166494150326,0.573980503645,0.818854334516,0.00216960369212,0.0,0.818811816431,-0.573918773726,-0.0120497858538,0.0,-0.00862200908636,0.0086930066606,-0.999925043488,0.0,0.655566288822,0.25306830481,0.303405024317,1.0,-0.01568,-0.020608,0.785
0.46048962199,0.513544483464,-0.12402621424,-1.40976226982,0.0764127957774,1.91391219137,0.152172608648,-0.00778408242278,-0.0754211282121,-0.00387191542977,-0.131333579686,-0.0093081299438,0.0443486800898,-0.0204356166989,0.573961029496,0.818868106392,0.00212317122337,0.0,0.818824825724,-0.573899343163,-0.0120911370804,0.0,-0.008682727124,0.00867851388166,-0.999924643984,0.0,0.655277935434,0.252726593715,0.303390304913,1.0,-0.01602,-0.0210548571429,0.802
0.460281121886,0.512035683486,-0.124026188796,-1.41217859617,0.0762612410936,1.9147711771,0.151830263937,-0.0162478348714,-0.0839753133678,0.000313709397794,-0.132002557095,-0.00966096751757,0.0466043046027,-0.0153164359545,0.573942679886,0.818881095491,0.00207329541599,0.0,0.818837098818,-0.57388114804,-0.0121235483508,0.0,-0.00873808763644,0.00865607968996,-0.999924356193,0.0,0.65499080391,0.252373373466,0.303367582068,1.0,-0.01636,-0.0215017142857,0.819
0.460100073477,0.510682056125,-0.124026772758,-1.41435330805,0.0761301974184,1.91560928195,0.151515032778,-0.00810944445824,-0.0804527887174,0.000199268108909,-0.140689217538,-0.00690670392517,0.0648312236825,-0.0276999541284,0.573911785676,0.818902715799,0.00208595776386,0.0,0.818858874851,-0.573850192907,-0.0121180064109,0.0,-0.00872660910903,0.00866293851403,-0.999924397037,0.0,0.654728192542,0.252049848795,0.303353035887,1.0,-0.01668,-0.0219222857143,0.835
0.459868629223,0.509013639086,-0.124035047919,-1.4170088262,0.0759578759745,1.91657820778,0.151152585802,-0.0168691310188,-0.0856781821869,-0.000301515835,-0.144232145366,-0.0146360758373,0.0486690319285,-0.0160759988641,0.57390201079,0.818909625962,0.00206238184582,0.0,0.818865530236,-0.573840574969,-0.0121237293117,0.0,-0.00874492861868,0.00864681251193,-0.999924376569,0.0,0.6544009074,0.25163829462,0.303341034119,1.0,-0.01706,-0.0224217142857,0.854
0.459672244377,0.507601150322,-0.124036014408,-1.41924027215,0.0758262214648,1.91737083191,0.150844459785,-0.00774823157472,-0.0873019069278,-0.000404668200141,-0.146930027166,-0.00796844090071,0.0502986672516,-0.0228490135047,0.573891305341,0.81891717641,0.00204321728888,0.0,0.818872692881,-0.573829819597,-0.0121489874129,0.0,-0.00877672443931,0.00864549954113,-0.999924109343,0.0,0.654119319886,0.251295598683,0.303335757247,1.0,-0.01738,-0.0228422857143,0.87
0.459483044291,0.506207779869,-0.124043852764,-1.42138629337,0.0756868066019,1.9181784387,0.150545288832,-0.0136636333544,-0.0949509051034,0.00012874067631,-0.143285007726,-0.00683502617402,0.0520203298827,-0.0197198434087,0.573880189699,0.818924864907,0.00208336493587,0.0,0.818881006684,-0.573818628751,-0.0121171403787,0.0,-0.00872772197273,0.00865998152661,-0.999924412938,0.0,0.653860028186,0.250963268458,0.303358761198,1.0,-0.01768,-0.0232365714286,0.885
0.459244056397,0.504495438997,-0.124048526352,-1.42400573555,0.0755235908244,1.91918684276,0.150185169215,-0.0140948746531,-0.100704022805,0.000796037182181,-0.147327869056,-0.0109301728574,0.0482632447764,-0.0217527422674,0.573875495501,0.818927940729,0.00216574665539,0.0,0.818885234228,-0.573813656274,-0.0120668113914,0.0,-0.00863928032992,0.00869851279684,-0.999924846531,0.0,0.653547828197,0.250558075959,0.303396136749,1.0,-0.01804,-0.0237097142857,0.903
0.458998443025,0.502727002976,-0.124050942217,-1.42663205268,0.0753615321192,1.92017420563,0.149815715202,-0.0121347050949,-0.101346038412,0.00030521530702,-0.148395539073,-0.00786346067687,0.0512317641019,-0.0241136291285,0.573866879379,0.818933679215,0.00227611512336,0.0,0.818892440516,-0.573804606943,-0.0120079480892,0.0,-0.00852783195201,0.00875502572735,-0.999925310014,0.0,0.65323113558,0.25014869242,0.303466746353,1.0,-0.0184,-0.0241828571429,0.921
0.458774960332,0.501123247675,-0.124054875112,-1.42904290307,0.0752002225695,1.92102862335,0.14948416901,-0.010728314972,-0.103715602047,0.000536426307911,-0.154197942617,-0.0107611479175,0.0557630853514,-0.0191272515177,0.573860450433,0.818938086361,0.00231106862425,0.0,0.818897356391,-0.57379808993,-0.0119840973806,0.0,-0.00848831043958,0.00876989635536,-0.999925515978,0.0,0.652929001188,0.249767598116,0.303512803805,1.0,-0.01872,-0.0246034285714,0.937
0.458573648317,0.49971305011,-0.124057431599,-1.43117130447,0.0750678937774,1.92179424053,0.149173241875,-0.0141542511964,-0.0988671432253,-0.000173604432863,-0.151190269118,-0.00954295849823,0.0527470642001,-0.0286580427582,0.573845088374,0.818948734046,0.00235211711108,0.0,0.818908506889,-0.57378252975,-0.0119671550302,0.0,-0.00845104546464,0.008793631152,-0.999925623175,0.0,0.652663787087,0.249431427881,0.303550000326,1.0,-0.019,-0.0249714285714,0.951
0.458288642924,0.497837814067,-0.124056593899,-1.43412942968,0.0748813450782,1.92289066065,0.148754495695,-0.0117914446647,-0.102045683206,0.000663061945737,-0.162181127893,-0.0129804879925,0.0513555085248,-0.0309806092841,0.573834908483,0.818955843371,0.00236036340121,0.0,0.818915704758,-0.573772298169,-0.0119651684729,0.0,-0.00844479609308,0.00879913942453,-0.999925627517,0.0,0.652298553881,0.248964126267,0.303544719922,1.0,-0.01938,-0.0254708571429,0.97
0.458039360405,0.49624853085,-0.124053540949,-1.43664414023,0.074732925795,1.92378706482,0.148371793591,-0.0157661131835,-0.100142444645,0.0022341969741,-0.163370209015,-0.00544989734703,0.0602418914076,-0.0215374718088,0.573810598219,0.818972932358,0.00234101208346,0.0,0.818932362262,-0.573747883222,-0.0119958092061,0.0,-0.00848125560453,0.00880062245154,-0.999925305884,0.0,0.651980265414,0.248563003585,0.303533071112,1.0,-0.0197,-0.0258914285714,0.986
0.457768465225,0.494583743358,-0.124069500728,-1.43938514473,0.074556449388,1.92472807234,0.147995165554,-0.0141575925938,-0.103899383053,-0.00259436500355,-0.161934359656,-0.018565857838,0.0613690748946,-0.026490643385,0.573825622473,0.818962745626,0.00221882227602,0.0,0.81892051955,-0.573763349796,-0.0120643272508,0.0,-0.00860732138536,0.00874002745809,-0.999924760139,0.0,0.651627962176,0.248109577056,0.303470291619,1.0,-0.021996,-0.0289090285714,1.003
0.457440431153,0.492126804298,-0.124151220727,-1.44301445955,0.0743524400974,1.92606081734,0.147469176294,-0.020856633388,-0.179532799437,-0.00490396971198,-0.259883579246,-0.0184445544522,0.0950047658634,-0.0405358959928,0.573849588144,0.818945583062,0.00235139780952,0.0,0.818905245452,-0.573786926703,-0.0119795082492,0.0,-0.00846152695598,0.00880017730603,-0.999925476944,0.0,0.651187941786,0.247507560809,0.303570886413,1.0,-0.039132,-0.0514306285714,1.02
0.45695742237,0.488097182307,-0.12419727869,-1.44931634591,0.0740365621567,1.92852125279,0.146498277237,-0.0309705896166,-0.260554393859,-0.000357475683292,-0.410213947714,-0.0181339242732,0.15496128224,-0.0646933735175,0.573714644334,0.819039573373,0.00253594688635,0.0,0.819001288967,-0.573650893803,-0.0119284370331,0.0,-0.00831527387541,0.00892063452845,-0.999925636485,0.0,0.650396647453,0.246587796646,0.303588190104,1.0,-0.057276,-0.0752770285714,1.038
0.456240894467,0.483151933668,-0.124293373608,-1.4571408045,0.0735895586067,1.93146539372,0.145289826272,-0.0487675231204,-0.334467095517,-0.00788487899007,-0.537541862743,-0.0357464435174,0.188006902911,-0.0833191830264,0.573648304553,0.819085878599,0.00258709562064,0.0,0.819048252963,-0.573584356058,-0.0119034744578,0.0,-0.00826620940917,0.00894753635713,-0.999925802935,0.0,0.649421365214,0.245331126928,0.303555867848,1.0,-0.073404,-0.0964738285714,1.054
0.455209885681,0.476471790831,-0.124484400475,-1.46780488128,0.0729542313043,1.93509921306,0.143709131909,-0.0707439908988,-0.42306512179,-0.0126738028364,-0.671279369635,-0.0337777976671,0.222391079115,-0.0967000767265,0.573683894428,0.819061880671,0.00227416065138,0.0,0.819019949143,-0.57362096975,-0.0120852335103,0.0,-0.00859421331435,0.0087958561138,-0.999924383347,0.0,0.648025415077,0.243519980268,0.303430343166,1.0,-0.09054,-0.118995428571,1.071
0.454009875499,0.468847606516,-0.124634823564,-1.479694117,0.0722685060499,1.93928904503,0.141955648308,-0.0758859049197,-0.50365081399,-0.0108045648307,-0.757101728689,-0.0416802970921,0.29017126429,-0.109172310444,0.57372524247,0.819033065987,0.00222033194807,0.0,0.818989949038,-0.573662053105,-0.0121679539718,0.0,-0.00869240382008,0.00879966131256,-0.999923501112,0.0,0.646475101478,0.241522534586,0.303409712366,1.0,-0.106668,-0.140192228571,1.087
0.452504215578,0.45946698209,-0.124763225739,-1.49414954398,0.0713635913662,1.94460811217,0.13963870499,-0.09171304156,-0.574411156089,-0.00987161974824,-0.898688540817,-0.0526599065971,0.319533107047,-0.128460983563,0.573589392243,0.819127675289,0.00240989273426,0.0,0.819087195038,-0.573525580122,-0.012054989464,0.0,-0.00849260387575,0.00888869749515,-0.999924430513,0.0,0.6446075364,0.239105278305,0.303459867069,1.0,-0.123804,-0.162713828571,1.104
0.450652026672,0.448657525002,-0.124961993897,-1.51064934684,0.0702588506537,1.95045848444,0.137045165457,-0.112225702721,-0.676491096092,-0.0140369156789,-1.01094430511,-0.0678802442843,0.377863339209,-0.150826621524,0.573582181259,0.819132479508,0.0024918385165,0.0,0.819093650621,-0.573518653634,-0.0119453902415,0.0,-0.00835590213314,0.00889288331349,-0.999925544991,0.0,0.64243586134,0.236212186575,0.303543454899,1.0,-0.14094,-0.185235428571,1.121
0.448637486329,0.437436491332,-0.125099892072,-1.52804241952,0.0691178872581,1.95640819746,0.13434248021,-0.129020618548,-0.733274141138,-0.0123106013436,-1.11944810335,-0.0757744687082,0.375289712741,-0.178585573079,0.573583083105,0.819132444776,0.00228726734391,0.0,0.81909047243,-0.573519898841,-0.0121025000913,0.0,-0.00860192276569,0.00881543792947,-0.999924144612,0.0,0.640043448874,0.233161766148,0.303462677323,1.0,-0.157068,-0.206432228571,1.137
0.446148691665,0.42407575714,-0.125292804809,-1.54808187108,0.0677405736305,1.96336891331,0.13101895896,-0.156216236615,-0.82001349672,-0.0146657677045,-1.2198387996,-0.0903152589952,0.409087091055,-0.204399917224,0.573527607915,0.819170724226,0.00248081278495,0.0,0.819131644072,-0.573464016782,-0.0119631951037,0.0,-0.00837740362357,0.00889350615356,-0.999925359543,0.0,0.637301965501,0.229535671317,0.303633783903,1.0,-0.174204,-0.228953828571,1.154
0.443129739222,0.408733580609,-0.125489603035,-1.57099608815,0.0661282660056,1.97143759473,0.127203174284,-0.178578353293,-0.86031509998,-0.00695336883244,-1.31477580835,-0.0912016152645,0.464952546263,-0.209271467868,0.57352721661,0.819169837436,0.00283833457495,0.0,0.819136077907,-0.573463026426,-0.0117042767426,0.0,-0.00796026380097,0.0090378775213,-0.999927472855,0.0,0.634138207812,0.225314745829,0.303828141707,1.0,-0.192348,-0.252800228571,1.172
0.439658618559,0.392113140587,-0.125692397225,-1.59564762415,0.0644877612804,1.97987597167,0.122971551409,-0.1922691122,-0.938509514145,-0.0103048711108,-1.38783963211,-0.0918356070929,0.482134105321,-0.244566170312,0.57358385375,0.819128855685,0.00319803108766,0.0,0.819099144945,-0.573517728166,-0.01160832164,0.0,-0.00767473145973,0.00927802902204,-0.99992750571,0.0,0.630625903798,0.220664741977,0.304027732229,1.0,-0.210492,-0.276646628571,1.19
0.436433591763,0.37742175805,-0.125882099724,-1.61754207912,0.0627758536089,1.98725371404,0.119056826258,-0.219471814483,-1.01072066827,-0.0118250439574,-1.48408195867,-0.123967624762,0.503486848448,-0.272348112842,0.573505695511,0.81918344619,0.00323196627159,0.0,0.819155169093,-0.573440684109,-0.0114602643078,0.0,-0.00753486292957,0.00922018624745,-0.99992910449,0.0,0.627432618929,0.216418941322,0.304090502039,1.0,-0.225612,-0.296518628571,1.205
0.432376468885,0.359774621355,-0.126111602122,-1.64361824422,0.0608265683507,1.99592806391,0.114379395727,-0.253432017605,-1.08209383175,-0.020661087044,-1.57858454768,-0.129486846495,0.541748892046,-0.280723431566,0.573559241575,0.819145372486,0.00337669052911,0.0,0.819119137885,-0.573494017244,-0.0113664874399,0.0,-0.00737443575205,0.0092854445241,-0.999929696637,0.0,0.623538338334,0.211268678407,0.304183034031,1.0,-0.242748,-0.319040228571,1.222
0.428091023488,0.34230353206,-0.126373985274,-1.66935737969,0.0588816198236,2.00422638201,0.109506042708,-0.276659384179,-1.14682936572,-0.0209165759884,-1.60202030931,-0.131321371632,0.557138294719,-0.305071363366,0.573597998329,0.819118309607,0.00335828536582,0.0,0.819091571364,-0.573532487279,-0.0114118647651,0.0,-0.00742172450823,0.00929674501502,-0.999929241765,0.0,0.619585367489,0.206012850056,0.304208317714,1.0,-0.258876,-0.340237028571,1.238
0.422840653147,0.321686869779,-0.126591304299,-1.69954214044,0.0564749413419,2.01395216197,0.103631110922,-0.299000337773,-1.1904621324,-0.0172280463596,-1.70685346069,-0.147962397059,0.543960257567,-0.34611845516,0.573514260562,0.819176731473,0.00340917097434,0.0,0.819150741121,-0.573448729848,-0.0113738496865,0.0,-0.00736234999345,0.00931586928231,-0.999929502706,0.0,0.614827139729,0.199805649423,0.304217499527,1.0,-0.27702,-0.364083428571,1.256
0.417061188944,0.300039368368,-0.126801517964,-1.7309304587,0.0538709690011,2.02372049236,0.097240387787,-0.333478666323,-1.22584950091,-0.00949669938215,-1.75794142121,-0.162355708436,0.53712661551,-0.369035819891,0.573326691912,0.819308281899,0.00334521376081,0.0,0.819281380671,-0.573261262011,-0.0114145373863,0.0,-0.0074344866893,0.00928510907509,-0.999929255076,0.0,0.609697884316,0.193206809405,0.304212159246,1.0,-0.295164,-0.387929828571,1.274
0.41208124532,0.282463744881,-0.127035927905,-1.75608396333,0.0517734217543,2.03138719729,0.0920153218422,-0.362355239726,-1.26844932784,-0.0133488083558,-1.79805925519,-0.144158865959,0.544752185297,-0.382741481026,0.5733627887,0.819282927849,0.00336802168438,0.0,0.819256086225,-0.573296993623,-0.0114354356065,0.0,-0.00743812366577,0.00931610487672,-0.999928939728,0.0,0.605505655574,0.187720743214,0.304249838522,1.0,-0.309276,-0.406477028571,1.288
0.405069046157,0.259039510112,-0.127393071485,-1.78938581912,0.0488890808314,2.0413033238,0.0847395521232,-0.404108229777,-1.30950986299,-0.0278599883055,-1.87679533249,-0.17393411588,0.553362422638,-0.411057398074,0.573373128003,0.819275910332,0.0033144734917,0.0,0.819248189037,-0.573307257044,-0.0114865434958,0.0,-0.007510581275,0.00930163086505,-0.999928532862,0.0,0.599814469081,0.180243660713,0.304249433481,1.0,-0.32742,-0.430323428571,1.306
0.397746739907,0.236085489918,-0.127772860299,-1.82136179431,0.0460080903015,2.05064962448,0.0773933721799,-0.438272496598,-1.36473977489,-0.0160516488974,-1.86232007884,-0.163804372321,0.537151671566,-0.446432898942,0.573465367235,0.81921062681,0.0034883241362,0.0,0.819185448063,-0.573399353983,-0.0113635132828,0.0,-0.00730904875482,0.00937434617351,-0.999929347224,0.0,0.594237532805,0.172780727847,0.304378681569,1.0,-0.344556,-0.452845028571,1.323
0.390853820153,0.215175145547,-0.128040170116,-1.85026011957,0.0433760034889,2.05898876947,0.0704312859595,-0.478639306541,-1.41072538078,-0.0204902951321,-1.93936757813,-0.184836660243,0.55213809416,-0.471266000912,0.57335971379,0.819283531696,0.00372561337471,0.0,0.819261310777,-0.573292946798,-0.0112627135774,0.0,-0.00709162442173,0.00951002022742,-0.999929631713,0.0,0.589040433891,0.166012025283,0.304460584757,1.0,-0.359676,-0.472717028571,1.338
0.381797518285,0.189283949219,-0.128427630734,-1.8857406434,0.039919248055,2.06871734652,0.0614832900307,-0.518772610689,-1.45137825174,-0.0269441597191,-2.01134477738,-0.198341673687,0.545331625957,-0.51120127524,0.573241530547,0.819366261685,0.00371803301137,0.0,0.819344135226,-0.573175056561,-0.0112378604936,0.0,-0.00707697621411,0.00948853957566,-0.999929939558,0.0,0.582447688569,0.157409642127,0.304481256777,1.0,-0.37782,-0.496563428571,1.356
0.372304615934,0.164105458969,-0.128959450078,-1.91982308462,0.0365521358669,2.0775802811,0.0524404694878,-0.57468614666,-1.50422665333,-0.0333856203109,-2.03643017371,-0.217018123847,0.518715468282,-0.546416148026,0.573409355365,0.819249306851,0.00360988992644,0.0,0.819225288108,-0.57334248418,-0.0113609005001,0.0,-0.00723784595283,0.0094719421114,-0.999928945425,0.0,0.575930830973,0.148735432665,0.304464397612,1.0,-0.394956,-0.519085028571,1.373
0.362751654176,0.139801576493,-0.129382588615,-1.95212093459,0.0331337509558,2.08576026906,0.0433706860921,-0.615647937087,-1.5308737289,-0.0284416835179,-2.00644612455,-0.209856945321,0.490954903698,-0.572426294956,0.573355221793,0.819287086592,0.00363404546767,0.0,0.819263822551,-0.573288875271,-0.0112872251609,0.0,-0.00716425791311,0.00944901338951,-0.999929692306,0.0,0.569573979552,0.140374190381,0.304518864481,1.0,-0.411084,-0.540281828571,1.389
0.351640196119,0.113161751332,-0.129972575502,-1.98698519521,0.0294380015831,2.09430692288,0.0329922331094,-0.67787856551,-1.58892773034,-0.0438849878621,-2.0741205592,-0.223421903336,0.504347000704,-0.623028690986,0.573461251369,0.81921202489,0.00382077940079,0.0,0.819191160988,-0.573394410023,-0.0111999649783,0.0,-0.00698446691082,0.00955287856744,-0.999929977415,0.0,0.562543466602,0.131012592716,0.304593478581,1.0,-0.42822,-0.562803428571,1.406
0.339659559509,0.0858937720213,-0.130540305788,-2.02225874271,0.0254614160235,2.1023059016,0.0218573510031,-0.718901632225,-1.58828501823,-0.0281099333489,-2.09695630277,-0.224076631971,0.455190410791,-0.672990058036,0.573407517041,0.819250129894,0.003713619477,0.0,0.819227688414,-0.573340686077,-0.0112782590134,0.0,-0.00711068292565,0.00950952148499,-0.99992950111,0.0,0.555132732037,0.121323022469,0.304576912401,1.0,-0.43998,-0.578259428571,1.423
0.327634156716,0.0603788425066,-0.131050913171,-2.05481499957,0.0217263496179,2.10925842103,0.0108815543105,-0.772776304631,-1.61021919054,-0.0392178481592,-2.00628087647,-0.233502569087,0.40110853293,-0.692655690341,0.573427290483,0.819236783464,0.00360306109203,0.0,0.819212032978,-0.57335959636,-0.0114527371044,0.0,-0.00731679472484,0.00951916628198,-0.999927922397,0.0,0.548082437436,0.112060813061,0.304520380049,1.0,-0.43998,-0.578259428571,1.439
0.313250976181,0.0317257391054,-0.131671608935,-2.09043718417,0.0174054779208,2.11634620842,-0.00178621056708,-0.81184197756,-1.56761416673,-0.0292656778958,-1.95038290106,-0.230909668549,0.390243299667,-0.70949347997,0.573736639535,0.819020086508,0.00362122254762,0.0,0.818995382461,-0.573668604692,-0.011473552166,0.0,-0.00731982893076,0.00954874565155,-0.999927618161,0.0,0.540145431909,0.101462600148,0.304589590404,1.0,-0.43998,-0.578259428571,1.457
0.299198351968,0.00505188439107,-0.132165144504,-2.12280586638,0.0132679265648,2.12239234701,-0.0142819832774,-0.837144068953,-1.56925595386,-0.0343511436918,-1.88530499602,-0.236650690958,0.341699418211,-0.744482464453,0.573749459818,0.819010311661,0.00379653161442,0.0,0.818988554428,-0.573681848848,-0.0112973855174,0.0,-0.00707481016985,0.00959136944031,-0.999928973824,0.0,0.532699530821,0.0915877453358,0.30474242009,1.0,-0.43998,-0.578259428571,1.474
0.2854442285,-0.0196437951588,-0.132578912855,-2.15236521155,0.00948778887264,2.12755544263,-0.0264738945418,-0.860872773319,-1.53987777246,-0.025490593045,-1.85066714576,-0.239887946083,0.297352279764,-0.765824481261,0.573745878675,0.819011791265,0.00401240246238,0.0,0.818992739502,-0.573677622028,-0.0112082794342,0.0,-0.00687801993634,0.00971701969978,-0.999929133674,0.0,0.525688337045,0.0823472761104,0.304837036322,1.0,-0.43998,-0.578259428571,1.49
0.27018763149,-0.0454629749048,-0.133123738016,-2.18278380986,0.00541886614597,2.13230944011,-0.0398511720814,-0.923852513852,-1.47709480836,-0.0495701210223,-1.79378606004,-0.228234430192,0.251422745808,-0.798697832182,0.573882523874,0.818915605726,0.00410199848334,0.0,0.818897581343,-0.573813854053,-0.0111874514096,0.0,-0.00680792606227,0.00977958777472,-0.999929003383,0.0,0.518236148754,0.072440467346,0.30489802981,1.0,-0.43998,-0.578259428571,1.507
0.254410825133,-0.0708998897636,-0.133564357831,-2.21221785994,0.00132290265784,2.13638571202,-0.0537465934133,-0.94177042809,-1.47947407116,-0.030095980159,-1.70002120657,-0.23906823026,0.211327627689,-0.836348721336,0.573825825551,0.818955210116,0.00412706382066,0.0,0.818937413459,-0.573756967891,-0.0111893491895,0.0,-0.00679577503222,0.00980073320099,-0.999928879006,0.0,0.510762148259,0.0626384305295,0.304944335538,1.0,-0.43998,-0.578259428571,1.524
0.238943447262,-0.0945207835093,-0.134095916635,-2.23909863863,-0.00246897391152,2.1396814835,-0.0673402807521,-0.975079805691,-1.4325944142,-0.0305136563632,-1.65692821494,-0.229062828207,0.175620072468,-0.855117367757,0.573897565199,0.818904691623,0.00417583500385,0.0,0.818886975555,-0.573827788152,-0.0112488982432,0.0,-0.00681569660627,0.00987544234253,-0.999928008368,0.0,0.503722595731,0.0533430060328,0.304966888183,1.0,-0.43998,-0.578259428571,1.54
0.220990698512,-0.120620196774,-0.134585715523,-2.26832796701,-0.00679553807806,2.14284702311,-0.0831387598443,-1.02200073349,-1.43583518236,-0.0408213540159,-1.60543717071,-0.223187240982,0.161531205172,-0.888801555402,0.573813891271,0.81896332851,0.00417512176643,0.0,0.818945589595,-0.573744108332,-0.0112501706052,0.0,-0.00681815692075,0.00987489185135,-0.999927997031,0.0,0.495812360282,0.043002935474,0.304959431675,1.0,-0.43998,-0.578259428571,1.558
0.203357288547,-0.144823635958,-0.135102278805,-2.29507391142,-0.0108682031875,2.14520054934,-0.098706576704,-1.048682852,-1.43846035652,-0.025158214463,-1.5271253138,-0.235250153064,0.142099410491,-0.928840772458,0.573731163701,0.819021982284,0.00403624029629,0.0,0.819001786613,-0.57366080549,-0.011406168071,0.0,-0.00702660480818,0.00984995173671,-0.999926799959,0.0,0.488299755971,0.0332109149854,0.304870946249,1.0,-0.43998,-0.578259428571,1.575
0.186138363872,-0.167194319725,-0.135672671495,-2.31940716064,-0.0146389183825,2.14684131893,-0.113906927681,-1.08740604266,-1.40160144675,-0.0349485797833,-1.47379375209,-0.230118250963,0.0984611855668,-0.960666288838,0.573747186755,0.819011621156,0.00385707194365,0.0,0.818987666683,-0.573675383448,-0.0116834561499,0.0,-0.00735632076776,0.00986243433136,-0.999924305602,0.0,0.481214519003,0.0239599675841,0.304750899453,1.0,-0.43998,-0.578259428571,1.591
0.167208156302,-0.190623090419,-0.136267429167,-2.34439979894,-0.0186389685554,2.14802074986,-0.13072212716,-1.12879706466,-1.36785850545,-0.0486950307461,-1.42157982939,-0.228231661011,0.0657814781432,-0.993085219615,0.573672032474,0.819065226843,0.0036469488622,0.0,0.819036828496,-0.573598725867,-0.0119967558813,0.0,-0.00773438926763,0.00986937877545,-0.999921384202,0.0,0.473666444634,0.0141542929594,0.304628837045,1.0,-0.43998,-0.578259428571,1.608
0.147573460295,-0.213797890521,-0.136868406917,-2.36849703977,-0.0225631323994,2.1487441985,-0.14821021897,-1.16569636349,-1.34266377974,-0.0251478314293,-1.36135990983,-0.225346013968,0.017417257034,-1.04332365109,0.573605665463,0.819111882039,0.00360723607375,0.0,0.819081587176,-0.573530776372,-0.0121880681015,0.0,-0.00791468287725,0.00994595705315,-0.999919214603,0.0,0.466127522662,0.00435583279986,0.304578424898,1.0,-0.43998,-0.578259428571,1.625
0.128392269333,-0.235319111121,-0.137601616772,-2.39037805746,-0.0263485371544,2.14907145775,-0.165185799245,-1.21027224878,-1.33405529481,-0.0365530029205,-1.35331172837,-0.230055559958,0.0143629346974,-1.06921561036,0.57374133184,0.819016805185,0.0036199260484,0.0,0.818986546194,-0.573666207876,-0.0122010653591,0.0,-0.00791640073655,0.00996511808026,-0.999919010231,0.0,0.459040438445,-0.00497433743608,0.304568735011,1.0,-0.43998,-0.578259428571,1.641
0.107313854703,-0.257682048412,-0.138356542108,-2.41251990939,-0.0301558269508,2.14900054736,-0.184019597078,-1.25299984577,-1.30920584214,-0.0375140981702,-1.30416080338,-0.244921808722,-0.00852362047127,-1.14160429933,0.573846029457,0.818942405109,0.00384947956871,0.0,0.818915089571,-0.573769916025,-0.0121204966698,0.0,-0.00771742170926,0.010107890403,-0.999919132707,0.0,0.451587863387,-0.0148517096181,0.304633746723,1.0,-0.43998,-0.578259428571,1.658
0.0842881398721,-0.280792388792,-0.139160486134,-2.43486633483,-0.0341138895481,2.14854506125,-0.204686753372,-1.30308199614,-1.25257260334,-0.048987694947,-1.22671531257,-0.220590709908,-0.0464060718556,-1.16909406213,0.573943254294,0.818872645529,0.00418068843539,0.0,0.818850445955,-0.573866991794,-0.0118899028417,0.0,-0.00733729836473,0.0102476854196,-0.999920571344,0.0,0.443746789353,-0.0252706403634,0.304739824217,1.0,-0.43998,-0.578259428571,1.676
0.0645324805,-0.299700764259,-0.139793318989,-2.45265333606,-0.0374459263411,2.14777661837,-0.222637314825,-1.33683417958,-1.26254358855,-0.0560629087077,-1.16807619197,-0.223682578742,-0.0449021634766,-1.21538877944,0.573861955918,0.818928086314,0.00447122993284,0.0,0.818911372203,-0.573787254121,-0.0115368273704,0.0,-0.00688242972297,0.0102822853255,-0.999923450455,0.0,0.436784841598,-0.0345140500541,0.30490478867,1.0,-0.43998,-0.578259428571,1.692
0.040030971782,-0.321486441789,-0.140563139297,-2.47310601062,-0.0412577653556,2.14631626031,-0.244793587304,-1.38732157599,-1.19697726265,-0.0412709586313,-1.10022141561,-0.214661158049,-0.0784019057261,-1.24850083074,0.573899867229,0.818901309175,0.00450944870423,0.0,0.8188843797,-0.57382398388,-0.0116256229726,0.0,-0.0069327415284,0.010364860141,-0.999922250362,0.0,0.429322898671,-0.0443055412612,0.304886639138,1.0,-0.43998,-0.578259428571,1.709
0.0162063587689,-0.341538792437,-0.141322579922,-2.49143899099,-0.0448881647942,2.14466781354,-0.266651464393,-1.41857699929,-1.16711173465,-0.0362633443547,-1.07441886888,-0.211561422228,-0.118088444415,-1.32618604695,0.573764376202,0.818995691282,0.00460924773763,0.0,0.818980818292,-0.573689379497,-0.0114744073667,0.0,-0.00675334374162,0.0103586911058,-0.999923542011,0.0,0.42188631086,-0.0541069864147,0.304945057437,1.0,-0.43998,-0.578259428571,1.726
-0.00549854778273,-0.358627070207,-0.14209446882,-2.50682109723,-0.0479805730458,2.14290673351,-0.286503399244,-1.45423829737,-1.12380684726,-0.0524455095287,-1.00335283158,-0.201930164958,-0.116879071163,-1.34522573606,0.573863130389,0.8189260639,0.00468575986865,0.0,0.818912081704,-0.573787751702,-0.0114614718608,0.0,-0.00669759536687,0.0104147420054,-0.999923334744,0.0,0.415300665623,-0.0628172367844,0.304968923914,1.0,-0.43998,-0.578259428571,1.741
-0.0322530514963,-0.378374382229,-0.142995411183,-2.52451303821,-0.0516436288934,2.14044304397,-0.311219091335,-1.50624432688,-1.09272643638,-0.0524873846121,-0.949618757545,-0.205811924225,-0.138547991316,-1.3795336403,0.573821964576,0.818955502421,0.00458093077332,0.0,0.818938721858,-0.573744703657,-0.0117103273706,0.0,-0.00696208630798,0.0104713462559,-0.999920937005,0.0,0.407301776292,-0.0732240881941,0.304881022984,1.0,-0.43998,-0.578259428571,1.759
-0.0582701427676,-0.39627550139,-0.143867218533,-2.54003337946,-0.0548368509676,2.13802699551,-0.335295174064,-1.54697502972,-1.04390525896,-0.0612927190565,-0.89093808898,-0.193094716524,-0.140672890227,-1.44783716504,0.573942617375,0.818869866412,0.00477082227764,0.0,0.818855264754,-0.573864297264,-0.0116863429724,0.0,-0.00683192107059,0.0106141075668,-0.999920329614,0.0,0.399837922439,-0.0830553110179,0.304911443376,1.0,-0.43998,-0.578259428571,1.776
-0.0833862906074,-0.412325783403,-0.144646284271,-2.55374648962,-0.0578550648686,2.13544787082,-0.358740498288,-1.58045045526,-0.989960429138,-0.0523733260979,-0.825891003139,-0.181488165189,-0.153679906767,-1.48385414879,0.573901529691,0.818898746912,0.00475640886551,0.0,0.818883311789,-0.573822263546,-0.0117846694217,0.0,-0.00692125097618,0.010658388859,-0.999919244255,0.0,0.392777938084,-0.0922916939572,0.30490843771,1.0,-0.43998,-0.578259428571,1.792
-0.112362491883,-0.42948421749,-0.145534559129,-2.56809831147,-0.0609686746879,2.13263926259,-0.385975426205,-1.62420959782,-0.940505830487,-0.0525795435706,-0.778877232922,-0.169371190846,-0.155883200515,-1.51787351942,0.573896563215,0.818900924832,0.00497563471717,0.0,0.818888473133,-0.573816797611,-0.0116918027451,0.0,-0.00671945467178,0.0107845829663,-0.999919267591,0.0,0.384890091774,-0.102670546881,0.304949338188,1.0,-0.43998,-0.578259428571,1.81
-0.142101569673,-0.445554714079,-0.146395277969,-2.58120135871,-0.0640534263113,2.12958568363,-0.413993458222,-1.67404054837,-0.876576810448,-0.0484569577647,-0.688626991559,-0.16228216126,-0.16843509408,-1.57615958397,0.573900398605,0.818897790085,0.00504864091712,0.0,0.818886649925,-0.573820993336,-0.0116133149208,0.0,-0.00661322910329,0.0107993586306,-0.999919816312,0.0,0.37700093519,-0.113064756365,0.305020077334,1.0,-0.43998,-0.578259428571,1.828
-0.169088550871,-0.458727905797,-0.147095456273,-2.59194849705,-0.0665220454887,2.12697073965,-0.439640913768,-1.68963021904,-0.818859612529,-0.0382490961404,-0.65037568654,-0.135168085811,-0.166810594804,-1.59945116615,0.573848483995,0.818933566788,0.00514562979352,0.0,0.81892314229,-0.573767893303,-0.011663555946,0.0,-0.00659940736496,0.0109071992145,-0.999918737112,0.0,0.370002773642,-0.122243837093,0.305005717484,1.0,-0.430236,-0.565453028572,1.844
-0.197863002654,-0.471189990282,-0.147483199092,-2.60213446975,-0.0688337304511,2.12425949263,-0.466900591899,-1.71517138494,-0.718178647942,-0.0291781747931,-0.564869763195,-0.115497728816,-0.155378733588,-1.58377143887,0.573795129283,0.818971214662,0.00510353476972,0.0,0.818958772942,-0.573712288384,-0.0118947584912,0.0,-0.00681363538164,0.0110049509383,-0.999916229205,0.0,0.362746176218,-0.131720945321,0.30492077238,1.0,-0.4131,-0.542931428572,1.861
-0.224653401313,-0.481744068809,-0.147711678718,-2.61031413597,-0.070581558678,2.12195938885,-0.492163618046,-1.68144227358,-0.643271689281,-0.0179801461943,-0.493802260093,-0.103734586924,-0.148681564651,-1.57361431714,0.57398176427,0.818838904628,0.00534129708025,0.0,0.818830462702,-0.573899583822,-0.0116913618223,0.0,-0.00650809903786,0.0110844586553,-0.999917386299,0.0,0.356245782589,-0.140370368056,0.305016688635,1.0,-0.396972,-0.521734628572,1.877
-0.252596965122,-0.491494868316,-0.147703900579,-2.61806211685,-0.0720780794594,2.1195794454,-0.518657289974,-1.64300784477,-0.5571358098,-0.00422256582249,-0.43254028315,-0.0772734568773,-0.14723078789,-1.55489803317,0.57406187467,0.818781861758,0.00547483400517,0.0,0.81877355348,-0.573976477056,-0.0119003701536,0.0,-0.00660150839469,0.0113144159303,-0.999914198359,0.0,0.349517133153,-0.149124302318,0.304972668167,1.0,-0.379836,-0.499213028572,1.894
-0.279839677322,-0.499891829804,-0.14752119568,-2.62454015945,-0.0732600401545,2.11755028644,-0.54456848928,-1.59172305254,-0.470395955062,-0.000848508494389,-0.360169069159,-0.0637514694625,-0.126518285007,-1.51426902864,0.574124135463,0.818736781178,0.00568393589025,0.0,0.818731218475,-0.574038000243,-0.0118453819062,0.0,-0.00643557856662,0.011454555939,-0.999913684513,0.0,0.343152481529,-0.157512329045,0.305006471877,1.0,-0.3627,-0.476691428572,1.911
-0.304683451218,-0.506538089024,-0.147216057469,-2.62967677087,-0.0741863165584,2.11588725324,-0.568208389602,-1.54152866162,-0.407207191608,0.00679921296243,-0.296037074682,-0.0421250592379,-0.101581739388,-1.47363359977,0.574218719893,0.818669409124,0.00583156845229,0.0,0.818665702577,-0.57413190684,-0.0118223463882,0.0,-0.00633062570087,0.0115629403157,-0.99991310702,0.0,0.337096883357,-0.165501937919,0.305015811239,1.0,-0.345564,-0.454169828572,1.928
-0.330328320651,-0.512543489863,-0.146789157086,-2.63423058672,-0.0749071949866,2.114355541,-0.5926270006,-1.50301250303,-0.339787256554,0.0247869376391,-0.259177807454,-0.0313719179275,-0.0954780351186,-1.41818838683,0.574294798481,0.818615048023,0.00596946310675,0.0,0.818613574473,-0.574208285457,-0.0117220946254,0.0,-0.00616828663772,0.0116188452009,-0.999913473595,0.0,0.331653402244,-0.172705838147,0.305050103555,1.0,-0.329436,-0.432973028572,1.944
-0.35499400761,-0.517413085933,-0.146130446937,-2.63811239914,-0.0754117238736,2.11292305165,-0.616229085317,-1.44523105635,-0.270829215465,0.0337037603422,-0.213469666379,-0.0260657842981,-0.0797599509011,-1.37280088195,0.574244065855,0.818650373235,0.00600550859273,0.0,0.818647808546,-0.574154507821,-0.0119630102034,0.0,-0.00634555510937,0.0117863109907,-0.999910404388,0.0,0.326097277308,-0.17990103141,0.304978210491,1.0,-0.3123,-0.410451428572,1.961
-0.378589992153,-0.521304200977,-0.145344880096,-2.6411636048,-0.0757703415761,2.1118422433,-0.638797619662,-1.36962301228,-0.213858750656,0.0456083989926,-0.165263939773,-0.0117088706778,-0.0653599767307,-1.30454210215,0.574187673967,0.818689885301,0.00601112894981,0.0,0.818687159453,-0.574097669774,-0.0119978084662,0.0,-0.00637163198794,0.0118104552088,-0.999909953673,0.0,0.320894029628,-0.186721847695,0.304951315005,1.0,-0.295164,-0.387929828572,1.978
-0.39976660128,-0.524178282918,-0.144553497162,-2.64338241294,-0.0759314495319,2.11098069849,-0.659176308756,-1.29461449955,-0.171212689816,0.0487042281661,-0.125522132343,-0.00276678735406,-0.0475203918832,-1.2727758227,0.574075588112,0.8187682874,0.0060380115484,0.0,0.818765715894,-0.573985132208,-0.0120215382329,0.0,-0.00637724819581,0.0118452165362,-0.999909506681,0.0,0.316278383339,-0.192788549472,0.304944871417,1.0,-0.279036,-0.366733028572,1.994
-0.421293691832,-0.526476860153,-0.143646447456,-2.64517734821,-0.0759879328581,2.11027164483,-0.679795111477,-1.23127168015,-0.127686216815,0.0531889319429,-0.0909115268115,0.00329788545052,-0.034402589631,-1.18887794461,0.574044027724,0.818790449651,0.00603329884225,0.0,0.818787716405,-0.573953411995,-0.0120375755297,0.0,-0.00639354252007,0.0118503174779,-0.999909342185,0.0,0.311635867138,-0.198909118873,0.304934472654,1.0,-0.2619,-0.344211428572,2.011
-0.443932189792,-0.528266527451,-0.142612318016,-2.6466594025,-0.0759836425803,2.10967574921,-0.701528043852,-1.15022344116,-0.077761878813,0.0626414254333,-0.0615646590232,-0.000401203561783,-0.0318920116174,-1.12038825168,0.573967319373,0.81884470109,0.00596813960881,0.0,0.818840636099,-0.573876111287,-0.0121230552753,0.0,-0.00650205200751,0.0118454208336,-0.999908700495,0.0,0.30676616317,-0.205294988559,0.304892005315,1.0,-0.242748,-0.319040228572,2.03
-0.461883492916,-0.529246150654,-0.141746493926,-2.64750465341,-0.075886054786,2.1093089862,-0.718665672853,-1.11066848312,-0.0504709672231,0.0461496184736,-0.0461286050007,0.0114383001759,-0.0169404226204,-1.04519551678,0.574013504252,0.818812637394,0.00592525796374,0.0,0.818807567352,-0.573921667687,-0.0121997502702,0.0,-0.00658880261716,0.0118546957025,-0.999908022705,0.0,0.302922830367,-0.210330861732,0.304857545454,1.0,-0.22662,-0.297843428572,2.046
-0.478705256585,-0.52988650983,-0.140755077611,-2.64804320636,-0.0756827143691,2.10903813693,-0.734784036046,-1.02206904962,-0.0376095933255,0.0665264344167,-0.025912083136,0.00359437273234,-0.0140848399887,-0.998367411002,0.573944609709,0.818861377251,0.00586316751534,0.0,0.818855439499,-0.573852960433,-0.0122186703787,0.0,-0.00664092907678,0.0118141540734,-0.999908157695,0.0,0.29935971065,-0.214988714781,0.304850024447,1.0,-0.210492,-0.276646628572,2.062
-0.495483637356,-0.530198354171,-0.139745247381,-2.64828276456,-0.0753731578196,2.10885498052,-0.75075363163,-0.949493368798,-0.00690832877834,0.0672753708525,-0.00141433818297,0.0225958546803,-0.0153196362787,-0.919345364129,0.574012239802,0.818814099487,0.00584516374281,0.0,0.818808169033,-0.573921086848,-0.0121866852818,0.0,-0.00662409454106,0.0117816011687,-0.999908653451,0.0,0.295831058763,-0.219630022292,0.304866417036,1.0,-0.193356,-0.254125028572,2.079
-0.509925310552,-0.530270303185,-0.138646441309,-2.64833681931,-0.0748743852691,2.10879058272,-0.764612025767,-0.889212665995,-0.00431187802437,0.0635782834932,-0.00224444849859,0.032424638477,-0.0020842094732,-0.839799708837,0.573924169753,0.81887549127,0.00589271346686,0.0,0.818870646716,-0.573833663643,-0.0121052599656,0.0,-0.00653138909326,0.0117730980315,-0.999909363452,0.0,0.292847151635,-0.223540330989,0.304892099396,1.0,-0.177228,-0.232928228572,2.095
-0.524934572764,-0.530126400232,-0.137448069933,-2.64827603448,-0.0743561266044,2.10880474836,-0.778920925663,-0.800909390079,0.0122265009773,0.0755012181064,0.00775542280418,0.0311405380657,0.00282240699446,-0.760206714879,0.573877196342,0.818908437861,0.00588904229917,0.0,0.818903967433,-0.573787477488,-0.0120403364336,0.0,-0.0064809991538,0.0117324605049,-0.999910168975,0.0,0.289740440758,-0.227581671437,0.304900358538,1.0,-0.159084,-0.209081828572,2.113
-0.537759326307,-0.529822438772,-0.136285382651,-2.64810580669,-0.0737641677141,2.10881151845,-0.79110527634,-0.734109595862,0.0217310543992,0.06244943425,0.00857620967493,0.0373307044517,0.000893562630127,-0.691390536976,0.573843977325,0.818931465497,0.00592380015567,0.0,0.818927337117,-0.573753919793,-0.0120500185072,0.0,-0.00646946031313,0.0117662189703,-0.999909847023,0.0,0.287104597501,-0.230975801459,0.304898177382,1.0,-0.141948,-0.186560228572,2.13
-0.549287577249,-0.52937085948,-0.135113364181,-2.64783241428,-0.0731524191065,2.10885137866,-0.802003629904,-0.640948734629,0.0301495585188,0.0805115679658,0.0157311730713,0.0410458724606,0.00971901766695,-0.625824937675,0.573809802537,0.818955283154,0.00594151557809,0.0,0.81895116788,-0.573719281428,-0.0120796377144,0.0,-0.00648404591474,0.0117974527908,-0.999909384523,0.0,0.284763950706,-0.233992305161,0.30489178499,1.0,-0.124812,-0.164038628572,2.147
-0.559544567252,-0.528838478022,-0.133962339947,-2.64753834998,-0.0725370032399,2.10895566395,-0.811623998452,-0.584683769523,0.0280421835902,0.0629099797176,0.01668929594,0.0350273390528,0.00322187584695,-0.53839621972,0.573798636008,0.818963027846,0.00595241451447,0.0,0.818958813821,-0.573707632709,-0.0121144680852,0.0,-0.00650648109373,0.0118262752859,-0.999908898309,0.0,0.282703073113,-0.236642121142,0.304869902602,1.0,-0.107676,-0.141517028572,2.164
-0.568706968538,-0.528304476837,-0.132913856293,-2.64719045846,-0.0719289286075,2.10902856218,-0.819943666267,-0.516287486233,0.0355440224755,0.061656627063,0.0165465329736,0.0360424983363,0.00681870419688,-0.453866613914,0.574027858902,0.818802087389,0.00599214421936,0.0,0.818798202854,-0.573936291927,-0.0121401282105,0.0,-0.00650137845765,0.0118753573589,-0.999908349783,0.0,0.280866352749,-0.238999715625,0.304866251274,1.0,-0.0905400000001,-0.118995428572,2.181
-0.575447504271,-0.527775677434,-0.131874411909,-2.64686935991,-0.0713396668954,2.1091546907,-0.826271334129,-0.428651406122,0.0372662299643,0.072012215142,0.0227422700291,0.0427340971417,0.0106826971948,-0.397028734915,0.573901738417,0.818890448311,0.0059979336377,0.0,0.818886571949,-0.573810049466,-0.0121472759961,0.0,-0.00650573894453,0.011883198915,-0.999908228261,0.0,0.279592934169,-0.240671113759,0.304856306312,1.0,-0.0754200000001,-0.0991234285716,2.196
-0.582050939509,-0.527299343635,-0.130762482496,-2.64658101835,-0.0707050202249,2.10922157674,-0.83216921039,-0.365104452929,0.0238930314977,0.0665460021026,0.0159793994646,0.0357127636658,0.00174545219362,-0.318550584195,0.57398125458,0.818834635238,0.00600886236977,0.0,0.818830591546,-0.573888934898,-0.0121942466182,0.0,-0.00653677770953,0.0119197387933,-0.999907590912,0.0,0.278344653122,-0.242261253634,0.304847119768,1.0,-0.0582840000001,-0.0766018285716,2.213
-0.587345908318,-0.526860602344,-0.129593373596,-2.64629710658,-0.0700322009658,2.1093349152,-0.836739651246,-0.28109183423,0.0262006898001,0.0645391961379,0.0182521826154,0.0513108242929,0.00882888645511,-0.245243279444,0.574051443308,0.818785438574,0.00600773801061,0.0,0.818781560735,-0.573959443396,-0.0121679923532,0.0,-0.00651490242289,0.0119043078721,-0.999907917511,0.0,0.277428592906,-0.243470534242,0.304854743865,1.0,-0.0411480000001,-0.0540802285716,2.23
-0.591071627288,-0.526504585037,-0.128508514639,-2.6460862595,-0.0693667840077,2.10944030171,-0.839827239377,-0.207023370368,0.0204433320446,0.0724671583811,0.00803359011756,0.0376180140262,0.00330591077225,-0.166275997729,0.574102994141,0.818749100531,0.00603402024877,0.0,0.818745656661,-0.574011034141,-0.0121502791821,0.0,-0.0064845607964,0.0119160689502,-0.999907974652,0.0,0.276856178523,-0.244244501572,0.30485635404,1.0,-0.0250200000001,-0.0328834285716,2.246
-0.594043300923,-0.526245027113,-0.12740275347,-2.64596638144,-0.0687217959505,2.10943315792,-0.842190975723,-0.1480985228,0.010282227619,0.0504510359244,0.0030044533115,0.0376070117103,0.00089028106599,-0.12026830339,0.574101373789,0.818750187828,0.00604064944827,0.0,0.818746210149,-0.57400824797,-0.0122442447612,0.0,-0.00655772134813,0.0119754271451,-0.999906788374,0.0,0.276430490502,-0.244770648367,0.304842534091,1.0,-0.01972,-0.0259177142857,2.264
-0.596196567229,-0.526096921222,-0.126589642157,-2.64582196252,-0.0683486562325,2.10944967246,-0.844127932006,-0.114113990546,0.0076280867008,0.0437484735411,0.0100652348316,0.00593652203671,0.00539846599396,-0.104087172529,0.573870558877,0.818912600837,0.00595657165449,0.0,0.818907905868,-0.573778552348,-0.012196781254,0.0,-0.00657047129959,0.0118774859729,-0.999907872873,0.0,0.276134409883,-0.245176254508,0.304875216057,1.0,-0.01936,-0.0254445714286,2.282
-0.597715535114,-0.52592392927,-0.126158774734,-2.64564333512,-0.0681765417761,2.10954591444,-0.845452248392,-0.0953868331719,0.00924567709578,0.0272040836724,0.0116281907849,0.0088142390098,0.0122044347004,-0.0907132521107,0.573808078307,0.818956952381,0.00587761153051,0.0,0.818952101315,-0.57371800277,-0.0120770836745,0.0,-0.00651864559549,0.0117436365898,-0.999909793061,0.0,0.275919326364,-0.24553302688,0.30491172705,1.0,-0.01906,-0.0250502857143,2.297
-0.599278565866,-0.525699045314,-0.125927472623,-2.64546727397,-0.0680097708696,2.10963569555,-0.8470256234,-0.0928911286363,0.0157428575362,0.00799742267706,0.0073476200768,0.0118962348427,0.000409579200671,-0.0965915660722,0.573716532457,0.819020947016,0.00589708703666,0.0,0.81901669448,-0.573627018174,-0.0120185309069,0.0,-0.00646082450325,0.0117252683567,-0.999910383899,0.0,0.275648773971,-0.245945274709,0.304922697595,1.0,-0.01872,-0.0246034285714,2.314
-0.60087046649,-0.52553026054,-0.125814972241,-2.64534747996,-0.0679378572832,2.10963240112,-0.848476480724,-0.0916794858083,0.00643244885116,0.00593645600529,0.00696329820291,0.00680627777376,0.000366058481365,-0.082337058896,0.573789629166,0.818969674995,0.00590591242985,0.0,0.818965273362,-0.573699584535,-0.0120587990161,0.0,-0.00648769611203,0.0117561773461,-0.999909846983,0.0,0.275310498758,-0.246376917863,0.304917770609,1.0,-0.01838,-0.0241565714286,2.331
-0.602281396992,-0.525388498897,-0.125756970237,-2.6452285779,-0.0679089802155,2.1096360904,-0.84981648968,-0.0809854207136,0.00826177967413,0.00223954873981,0.00988527658767,0.00391432772978,5.19566979075e-05,-0.0828229418713,0.573825302141,0.818944693044,0.00590417299838,0.0,0.818940207937,-0.57373514736,-0.0120691096926,0.0,-0.00649662684745,0.0117609516137,-0.999909732854,0.0,0.275002932262,-0.246776347705,0.304921595478,1.0,-0.01806,-0.023736,2.347
-0.603675482337,-0.525212883888,-0.12570642194,-2.64508677092,-0.0678667259678,2.10966938577,-0.851228677737,-0.0837900733835,0.0106212497234,0.00186347691821,0.00649094841893,0.0032794469826,-2.32983632266e-05,-0.0800151025373,0.573798578881,0.818963340607,0.00591477108088,0.0,0.818959042578,-0.573708473919,-0.0120590395555,0.0,-0.00648268184022,0.0117636415077,-0.999909791719,0.0,0.274691202944,-0.247203342449,0.304926385434,1.0,-0.0177,-0.0232628571429,2.365
-0.605023925589,-0.525071375672,-0.125718748599,-2.64495404489,-0.0678361096792,2.10969232729,-0.852533962463,-0.0780797610494,0.0107632211501,-5.42239763408e-05,0.00897821569683,0.000749830846434,-0.000550342558912,-0.0715638542405,0.573864273914,0.818917082711,0.00594589516001,0.0,0.818913298189,-0.573774222189,-0.012037395944,0.0,-0.00644615190769,0.0117772308476,-0.999909867918,0.0,0.274407043113,-0.24758326187,0.304935932545,1.0,-0.01738,-0.0228422857143,2.381
-0.606398447548,-0.524974961572,-0.125720098327,-2.6448384313,-0.0678171763891,2.10969168416,-0.853922914728,-0.0791654758899,0.00472392084913,0.0045358435804,0.00621642417741,0.00196660465813,-0.00029868689167,-0.0785741228209,0.573867380551,0.818914752425,0.00596696751934,0.0,0.818911390205,-0.573777511658,-0.0120103709153,0.0,-0.0064118815978,0.0117790045455,-0.999910067369,0.0,0.274093211312,-0.247985367612,0.304953072063,1.0,-0.01704,-0.0223954285714,2.398
-0.607793697787,-0.524896778983,-0.125729762044,-2.64475159048,-0.0677917689473,2.10971004887,-0.855238999136,-0.0768655474025,0.00452389865839,0.00128408729622,0.00838594396822,-0.000285205197971,-0.000339014134899,-0.0725631340947,0.573954313747,0.818853595133,0.00599853068482,0.0,0.818850841834,-0.573864662531,-0.0119747579069,0.0,-0.00636335129001,0.0117850927573,-0.999910305652,0.0,0.273769121652,-0.248389679037,0.304965242637,1.0,-0.01668,-0.0219222857143,2.416
-0.608997985321,-0.524775817995,-0.125713162338,-2.64466484043,-0.0677705520414,2.10973643969,-0.856457520882,-0.0737401746672,0.011760355189,0.00200416788001,0.00473436359976,0.000146813338205,0.00287004132672,-0.0719257992234,0.57394461399,0.818860299001,0.00601146354157,0.0,0.818857697219,-0.573854880721,-0.0119747433636,0.0,-0.00635605661136,0.0117955997519,-0.999910228156,0.0,0.2734973369,-0.24873623903,0.304962995452,1.0,-0.01636,-0.0215017142857,2.432
-0.61011815702,-0.524620406223,-0.125686304219,-2.64456687829,-0.0677461091441,2.10976205026,-0.857606061235,-0.0716922186301,0.012329329048,0.00530624376699,0.00288212554922,6.69042595708e-05,-0.000319818898811,-0.0716043181183,0.573918154445,0.818878781438,0.00601998427705,0.0,0.8188761227,-0.573828080127,-0.0119990429578,0.0,-0.00637144832575,0.0118163174737,-0.999909885583,0.0,0.2732502316,-0.249058987372,0.304953388829,1.0,-0.01604,-0.0210811428571,2.448
-0.611345197384,-0.524425380879,-0.125585343111,-2.64445926678,-0.0677209176959,2.10979528259,-0.85886147717,-0.064037034918,0.00729144719768,0.00591045380858,0.00214636905735,-4.39328080545e-05,0.00110619949477,-0.0696352011071,0.573840247941,0.818933584142,0.00599178676645,0.0,0.818930288876,-0.573749810098,-0.0120450934049,0.0,-0.00642646872343,0.0118190426067,-0.999909501271,0.0,0.272994200352,-0.249396702192,0.304936050448,1.0,-0.01568,-0.020608,2.466
-0.612415673934,-0.524249521491,-0.125491724238,-2.64437689907,-0.0676999699721,2.10982828303,-0.860037303645,-0.063974815035,0.00794992495836,0.0035647095056,-0.00123658167069,0.000216361381909,-0.000786469441799,-0.0708372286733,0.573698575416,0.81903304075,0.00596402775083,0.0,0.819029013923,-0.573607608033,-0.0121050923554,0.0,-0.0064935839296,0.011829613764,-0.999908942657,0.0,0.272754074289,-0.249706189579,0.304911498228,1.0,-0.01534,-0.0201611428571,2.483
-0.613539731264,-0.524071517074,-0.125416135186,-2.64428049835,-0.0676786183941,2.10983854669,-0.861204173302,-0.0647710152007,0.0115707781846,0.00431357146566,0.00699760646883,0.00064673545894,-4.81643712968e-05,-0.065110330118,0.573632003781,0.819079763564,0.00595080326049,0.0,0.819075215042,-0.573540473468,-0.0121599465129,0.0,-0.00654706564653,0.0118497180881,-0.999908355857,0.0,0.272540562108,-0.249979536091,0.304895128526,1.0,-0.01504,-0.0197668571429,2.498
-0.614590572354,-0.52390328866,-0.125398983684,-2.64418605206,-0.0676558432876,2.1098646254,-0.862264349074,-0.0666550192724,0.0135092482443,-0.000147823042204,0.0109140651649,0.000754419371276,0.00175597212047,-0.0666875956588,0.573622483929,0.819086358495,0.00596071810704,0.0,0.819081644877,-0.573530379228,-0.0122028697351,0.0,-0.00657667783952,0.011882384013,-0.999907773877,0.0,0.272292202252,-0.250301467163,0.304879145526,1.0,-0.0147,-0.01932,2.515
-0.615787455918,-0.523753751021,-0.125404524621,-2.64409245352,-0.0676308065595,2.10988897975,-0.863476438627,-0.0680457440422,0.00431091322592,-0.00148523503521,0.00474002061076,-0.00067430170008,0.00130183023922,-0.0644805215852,0.573629718439,0.819081094616,0.00598777651092,0.0,0.819076548594,-0.573537154871,-0.0122264642147,0.0,-0.00658038008087,0.0119181400044,-0.999907323974,0.0,0.272016217671,-0.250649930226,0.304868793631,1.0,-0.01434,-0.0188468571429,2.533
-0.616863483325,-0.52365590468,-0.125409841452,-2.64402452655,-0.0676067272846,2.10988913821,-0.8644523494,-0.0693823106238,0.00667400030261,-0.00155378343149,0.00575581148042,0.00572613033239,0.000677275179275,-0.0608639778632,0.573729399365,0.819011071689,0.00601561775025,0.0,0.819006718495,-0.573636378493,-0.012249376763,0.0,-0.00658172472812,0.0119548890948,-0.999906876427,0.0,0.271761234202,-0.250956486998,0.304863672687,1.0,-0.01402,-0.0184262857143,2.549
-0.617968891901,-0.523606060856,-0.12540705652,-2.64392276882,-0.0675826254512,2.10991110902,-0.865497381884,-0.0594082920049,0.00587962005849,0.00119457036883,0.0068861058078,0.0002998746874,0.00220663298272,-0.0701087193883,0.573792136973,0.818966981611,0.00603435827969,0.0,0.818963387947,-0.573699957924,-0.0121685817149,0.0,-0.0065038807662,0.0119243845883,-0.999907750039,0.0,0.271512898815,-0.25128110436,0.304893588082,1.0,-0.01368,-0.0179794285714,2.566
-0.619016161053,-0.523499966466,-0.125399000068,-2.64379450022,-0.0675567311558,2.10994323743,-0.866584188931,-0.0641715551892,0.00879469685146,0.000284355482683,0.00693862222951,0.000306517264376,-0.0011187205086,-0.0692136330899,0.573771587326,0.81898127185,0.00604887072758,0.0,0.818978245888,-0.573680045031,-0.0121072538856,0.0,-0.00644562185267,0.0119009209478,-0.999908406825,0.0,0.271286712807,-0.251595408324,0.304915906441,1.0,-0.01334,-0.0175325714286,2.583
-0.619958864661,-0.523375368484,-0.125365532125,-2.64364514912,-0.0675274854792,2.10999092938,-0.867541519706,-0.0583404667627,0.00376495610824,-8.91281914287e-05,0.0123326776938,0.00177798573623,0.00614519759304,-0.059988581619,0.573755949013,0.818992232196,0.00604826219223,0.0,0.81898970127,-0.573665344078,-0.0120286789821,0.0,-0.00638183910853,0.0118552188205,-0.99990935885,0.0,0.271099230286,-0.251882209515,0.304942947544,1.0,-0.01302,-0.017112,2.599
-0.62093089622,-0.523200478589,-0.125307835,-2.6435010209,-0.0675057878363,2.11002817869,-0.868517289715,-0.0598961917098,0.0102682035015,0.0022884031386,0.00735808699338,0.00387721019104,0.00270468019989,-0.0609111394925,0.573728869273,0.819011328416,0.00603120136683,0.0,0.819008670114,-0.573638517524,-0.0120165050414,0.0,-0.00638204722013,0.0118340499028,-0.999909608283,0.0,0.270904421235,-0.252168656528,0.304948829689,1.0,-0.01268,-0.0166651428571,2.616
-0.621881837071,-0.523061851056,-0.12525585684,-2.64337630285,-0.0674875756932,2.11005041006,-0.869492869131,-0.0573973799399,0.00769683254708,0.000711429918879,0.00640198904236,0.00473446144201,-0.000416266273392,-0.0584686225322,0.573691888012,0.819037321617,0.00601916349158,0.0,0.81903453717,-0.573601650897,-0.0120133222582,0.0,-0.00638688013755,0.0118220759237,-0.999909719066,0.0,0.270692570853,-0.252463541484,0.304955696567,1.0,-0.01232,-0.016192,2.634
-0.622804371959,-0.522913098795,-0.125226477551,-2.64331896997,-0.0674675374594,2.11005364204,-0.870441529798,-0.0506234868546,0.00723618931047,0.00467043833877,0.00184004143244,0.00104766422209,0.00197217908055,-0.0553092006926,0.573655895221,0.819062484615,0.00602553532654,0.0,0.819059316372,-0.573564776618,-0.0120842951256,0.0,-0.00644188199304,0.0118677264742,-0.999908825456,0.0,0.27049254024,-0.252697930529,0.304930207473,1.0,-0.012,-0.0157714285714,2.65
-0.623757091305,-0.522783580889,-0.125209329628,-2.6432874884,-0.0674474159901,2.11006490489,-0.871357384017,-0.053679121144,0.0104309357434,0.000443639253485,0.00566666226944,0.00165886079468,0.00100077551274,-0.0559363330935,0.573684623692,0.819042241747,0.00604199263584,0.0,0.819038753234,-0.573592443541,-0.0121645515575,0.0,-0.00649776535974,0.0119274719389,-0.999907752974,0.0,0.270263331828,-0.252956900494,0.304898347843,1.0,-0.01164,-0.0152982857143,2.668
-0.624645505438,-0.522668341149,-0.125192618215,-2.64325133045,-0.0674273994405,2.11007689974,-0.8722461687,-0.0534416601893,0.00439834829914,-0.000984856755195,0.00206415958708,0.00136981258279,0.000942106798823,-0.0491871519843,0.573683266528,0.819043077262,0.00605757344241,0.0,0.819039378678,-0.573590258494,-0.0122253195028,0.0,-0.00653862407819,0.0119750829728,-0.999906917559,0.0,0.270051601695,-0.253199910422,0.304873904596,1.0,-0.0113,-0.0148514285714,2.685
-0.625422226182,-0.522585407956,-0.125175148866,-2.64318491018,-0.067418967117,2.11008371419,-0.873038706824,-0.0501657863037,0.00612253499495,0.00087553230773,0.00610000904487,-3.06721644864e-05,0.00362246219374,-0.053305934143,0.573665036411,0.819055841562,0.00605816011954,0.0,0.81905211483,-0.573571964005,-0.0122303802684,0.0,-0.00654269957261,0.0119783210197,-0.999906852116,0.0,0.269874139587,-0.253421048244,0.30487463966,1.0,-0.011,-0.0144571428571,2.7
-0.626264551328,-0.522466062295,-0.125158941766,-2.64308618388,-0.0674073646581,2.11010274742,-0.873848093516,-0.0430912584568,0.00392173701791,0.000778268011761,0.00426701899896,-0.000465469089755,-0.000236261160565,-0.0426912227018,0.57369065812,0.819037898392,0.00605777884996,0.0,0.819034189844,-0.573597624419,-0.0122273475516,0.0,-0.00654005940042,0.0119764736408,-0.999906891516,0.0,0.2696886158,-0.253668882472,0.304877697479,1.0,-0.01066,-0.0140102857143,2.717
-0.62698258804,-0.522345983454,-0.125156101914,-2.64296996389,-0.0674001693205,2.11012415925,-0.874562180208,-0.0471398562107,0.00841004867608,-0.00142057686158,0.00923932040099,-2.82158855941e-05,3.48568705647e-06,-0.0398182191848,0.573700936463,0.819030706167,0.00605679439048,0.0,0.819027125416,-0.573608162813,-0.0122061578087,0.0,-0.00652311693699,0.0119635934006,-0.999907156379,0.0,0.269535691724,-0.253891217741,0.304888314448,1.0,-0.01036,-0.013616,2.732
-0.62778659077,-0.522234315538,-0.125152834646,-2.64284552234,-0.0673894296601,2.11017677529,-0.875350074801,-0.046058120105,0.0106553779324,-0.000485411763653,0.0062284540336,0.000503644529885,0.00659875072692,-0.046271614217,0.573722701996,0.819015469308,0.00605550578618,0.0,0.819012327134,-0.573630766903,-0.0121366455676,0.0,-0.00646660053935,0.0119228325256,-0.99990801034,0.0,0.269368301024,-0.254142631346,0.304908427386,1.0,-0.01002,-0.0131691428571,2.749
-0.628532771072,-0.522115271834,-0.12514254017,-2.6427324954,-0.0673832838967,2.11022698085,-0.876082591558,-0.0385445829642,0.0069917490398,0.00164498104818,0.00969188797361,-0.000200882106264,0.000295467719794,-0.0476964768034,0.573720930921,0.819016792273,0.00604436092537,0.0,0.819013809145,-0.573629606471,-0.0120913981841,0.0,-0.00643595768797,0.0118877321633,-0.999908625962,0.0,0.269204243141,-0.254385364105,0.304919549944,1.0,-0.00968,-0.0127222857143,2.766
-0.629300161713,-0.52199032778,-0.125132567012,-2.64263055193,-0.0673756506767,2.11024464039,-0.876831930051,-0.0416600303576,0.00990070155134,-0.00184697977102,0.000517785943918,0.000275963980384,0.000311722346857,-0.0379706078641,0.573751355114,0.818995465907,0.00604617478031,0.0,0.818992514493,-0.573660031367,-0.0120903481025,0.0,-0.00643361533011,0.0118888543913,-0.999908627693,0.0,0.269044676315,-0.254603489966,0.304922776604,1.0,-0.00936,-0.0123017142857,2.782
-0.630167336341,-0.52187786729,-0.12511164408,-2.6425520045,-0.0673686495915,2.1102713236,-0.877630389117,-0.040581136177,0.00455261830381,0.000600574036371,-0.00092399937852,-0.000385732259735,0.000164821719468,-0.0392049162455,0.573799986526,0.818961432684,0.0060410379156,0.0,0.818958406645,-0.573708660604,-0.0120932971267,0.0,-0.00643827212624,0.0118867213704,-0.999908623079,0.0,0.26884901172,-0.254852921431,0.304919933278,1.0,-0.00896,-0.011776,2.802
-0.630789119657,-0.521820949806,-0.12509997163,-2.64253049717,-0.0673563619777,2.11027663815,-0.878228020123,-0.0396420170073,0.00110400728386,-0.000222710434041,-0.00217796489398,-0.000105582001418,-0.000750531827542,-0.0398503998725,0.573818013215,0.81894873044,0.00605074555741,0.0,0.818945655045,-0.573726316619,-0.012119183239,0.0,-0.00645364201868,0.01190966673,-0.999908250963,0.0,0.268698660361,-0.255021389997,0.304909533585,1.0,-0.00866,-0.0113817142857,2.817
-0.631484907912,-0.521751791187,-0.125084645607,-2.64250117095,-0.0673491728309,2.11028528115,-0.878955569072,-0.0388539915345,-0.000624552164139,0.000546339640282,0.00241647764127,0.0023324478086,0.000895105687102,-0.0432963471908,0.573785910429,0.818971192786,0.00605485596072,0.0,0.818967990143,-0.573693869039,-0.012145890224,0.0,-0.00647362509896,0.0119281035499,-0.999907902021,0.0,0.268531737148,-0.255211584936,0.304898555764,1.0,-0.0083,-0.0109085714286,2.835
-0.632011154331,-0.521699450439,-0.125071887799,-2.64247894365,-0.0673405408468,2.11029243889,-0.879496424134,-0.0351223957589,0.00603207525783,0.00038667845748,-0.000274089956914,-0.000247222423398,-0.00101246821152,-0.0378008931693,0.57376588709,0.818985178603,0.00606060581215,0.0,0.818981893813,-0.57367353496,-0.012168804115,0.0,-0.006489385992,0.0119458011072,-0.999907588583,0.0,0.268398317222,-0.255364465993,0.304888963239,1.0,-0.008,-0.0105142857143,2.85
-0.632679587173,-0.521635574354,-0.125050295064,-2.64242160147,-0.0673269951992,2.11031176792,-0.880135474376,-0.0383416420845,0.00134548859496,0.00249117787136,0.000165450908628,0.000661039426576,0.00237845573463,-0.0330799217238,0.573787385829,0.818970116867,0.00606056465258,0.0,0.818966965904,-0.573695276881,-0.0121484543561,0.0,-0.00647242838163,0.0119342618835,-0.999907836285,0.0,0.26825615257,-0.255544125848,0.304895099336,1.0,-0.00766,-0.0100674285714,2.867
-0.633321226073,-0.521538740305,-0.125044503417,-2.64234459777,-0.0673184597118,2.1103229704,-0.88073062468,-0.0351320871523,0.00449777456047,0.000374876740261,0.00142314423683,0.00013517801827,0.000437834287603,-0.0373184288543,0.573829037714,0.818940913567,0.00606320574842,0.0,0.81893776487,-0.573736848906,-0.0121536981721,0.0,-0.00647460078002,0.0119397629677,-0.999907756548,0.0,0.268111718838,-0.255733419102,0.304895606799,1.0,-0.0073,-0.00959428571429,2.885
-0.63386248555,-0.521453816956,-0.125037620124,-2.64225758209,-0.0673108920248,2.11034037498,-0.88124600607,-0.0339507194338,0.00393804518222,0.0029037180814,0.00374303432135,-0.000341000563396,0.00101479079607,-0.0446584113045,0.573853025533,0.818924118591,0.00606135116862,0.0,0.818921093808,-0.573761113177,-0.0121315301598,0.0,-0.00645715936976,0.0119257132225,-0.999908037,0.0,0.267996593701,-0.255899173142,0.30490559237,1.0,-0.00698,-0.00917371428572,2.901
-0.634448001074,-0.521344957492,-0.125018710872,-2.64217190894,-0.0672978437485,2.11036616212,-0.881827999681,-0.032056420504,0.00663570707278,0.00109259066845,0.00709770926511,4.60263750856e-05,0.00216131942785,-0.0306312776658,0.573852570977,0.818924455514,0.00605886508901,0.0,0.818921439449,-0.573760745617,-0.0121255804331,0.0,-0.00645371965702,0.0119202595282,-0.999908124237,0.0,0.267873578757,-0.256073928063,0.304907171746,1.0,-0.00662,-0.00870057142858,2.919
-0.634965714235,-0.521260657684,-0.124996256678,-2.64210273239,-0.0672844500895,2.11038422505,-0.882331619503,-0.0336791503531,0.0096833437197,0.00072023383008,0.00616140174069,0.000688802861867,0.000687121862968,-0.0185094031858,0.573857526899,0.818921001723,0.00605629089703,0.0,0.818917994237,-0.573765789619,-0.0121195824667,0.0,-0.00645021227195,0.0119147486111,-0.999908212551,0.0,0.267764082692,-0.256224823402,0.30490970322,1.0,-0.00628,-0.00825371428572,2.936
-0.635408891846,-0.521185095152,-0.124970813478,-2.64204185953,-0.0672766750649,2.11039922537,-0.882796939679,-0.0315129194674,-0.000906835443407,0.00262520845882,0.00960480887787,-0.000204706121527,-0.000515019706501,-0.0224693725333,0.573827867861,0.818941844355,0.00604818418925,0.0,0.818938754704,-0.573736215699,-0.012116837061,0.0,-0.00645304682304,0.0119063004373,-0.999908294893,0.0,0.267671526953,-0.256353261209,0.304911476368,1.0,-0.00596,-0.00783314285715,2.952
-0.635854493939,-0.52109979049,-0.124932674724,-2.64199693753,-0.0672609935236,2.11041390205,-0.883240569062,-0.0322506114531,0.00658870160526,0.00172943211252,0.00322493062724,0.000518017240451,0.0013715331233,-0.025044010278,0.573811639526,0.818953256552,0.00604258459373,0.0,0.818949951301,-0.573719752612,-0.0121395893008,0.0,-0.00647513071921,0.0119146413924,-0.999908052774,0.0,0.267577713574,-0.256474454442,0.304902695775,1.0,-0.00562,-0.00738628571429,2.969
-0.636274643036,-0.52103658891,-0.124906015413,-2.6419535221,-0.0672452761105,2.11041888557,-0.883650881196,-0.0251015865762,0.00465035323709,0.00122135981279,0.0030730143644,0.00482255345794,0.000524449787441,-0.0184833509866,0.57380982667,0.818954524098,0.00604294441516,0.0,0.818951146103,-0.573717796124,-0.0121514446752,0.0,-0.00648466068889,0.0119217241476,-0.999907906594,0.0,0.267486516952,-0.256589984312,0.304900255527,1.0,-0.00528,-0.00693942857143,2.986
-0.636671016911,-0.520998037514,-0.124884468213,-2.64191068972,-0.0672347538801,2.11043039971,-0.884012394621,-0.0269013708679,-0.000441807943099,0.00220264219107,0.00217807924285,0.000147068941926,0.0009083185342,-0.0180451079392,0.573829761601,0.818940580241,0.0060396718253,0.0,0.818937282441,-0.573737967291,-0.0121333926419,0.0,-0.00647146317003,0.0119088435207,-0.999908145587,0.0,0.267401287811,-0.256701951837,0.30490704418,1.0,-0.00496,-0.00651885714286,3.002
-0.637067295533,-0.520984192023,-0.124874394153,-2.64185326659,-0.0672223612109,2.11044692112,-0.884383105985,-0.0210707788513,-0.00058279608582,-0.000646977919794,0.00739279960571,0.000450613779425,0.00155338559545,-0.0209273561172,0.573851563847,0.818925295369,0.00604071000808,0.0,0.818922415304,-0.573760506192,-0.0120708801926,0.0,-0.00641935188752,0.0118739949167,-0.999908895933,0.0,0.267318498848,-0.256821007193,0.304929703201,1.0,-0.00462,-0.00607200000001,3.019
-0.637445843398,-0.52098914832,-0.124867537871,-2.64174359386,-0.0672081467838,2.11046560265,-0.884735530186,-0.01823133053,0.000240360206987,0.000650267506457,0.00918698918143,0.000160246161116,0.00459426576632,-0.024913910522,0.573878184188,0.818906664857,0.00603745527872,0.0,0.818904678833,-0.573788876357,-0.0119247329369,0.0,-0.00630113991472,0.01178767141,-0.999910669229,0.0,0.267248910027,-0.256958332351,0.304986393309,1.0,-0.00426,-0.00559885714286,3.037
-0.637769832902,-0.521001875663,-0.124860840188,-2.64161179485,-0.0671930316531,2.11049861095,-0.88506035604,-0.0153738979668,-0.00192281050474,0.000976659504743,0.0112690846865,0.000367907228948,0.00504438100276,-0.0181312319305,0.57388822025,0.818899701433,0.00602798082156,0.0,0.818898777639,-0.573801179748,-0.0117364816524,0.0,-0.00615225726416,0.0116719594153,-0.999912953758,0.0,0.267207788185,-0.25708001115,0.305059866975,1.0,-0.00394,-0.00517828571429,3.053
-0.638105904266,-0.521017464228,-0.12485236709,-2.6414284179,-0.0671724250562,2.11055685036,-0.885394262197,-0.018303249526,-0.000972011040791,0.00229695616131,0.00837884771704,0.00608197819139,0.0046911319236,-0.0186709618114,0.573901742524,0.818890301948,0.00601749162974,0.0,0.8188907751,-0.573817672188,-0.0114858366026,0.0,-0.00595281177433,0.011519631814,-0.999915927523,0.0,0.267176066754,-0.25721945199,0.305149675547,1.0,-0.00358,-0.00470514285715,3.071
-0.638420444686,-0.521023113804,-0.124827881672,-2.6412453908,-0.0671537385194,2.11059536883,-0.885680280225,-0.0154559221801,-0.000293354420759,0.00477392015372,0.00677127879102,0.000388061757404,0.00246365294224,-0.0179713494635,0.573921582104,0.8188765736,0.0059934718272,0.0,0.818878039343,-0.573840120477,-0.0112703022887,0.0,-0.00578980339786,0.0113764112102,-0.999918524403,0.0,0.267152671796,-0.257340565552,0.305234146759,1.0,-0.00324,-0.00425828571429,3.088
-0.638673172542,-0.521037675652,-0.124785203869,-2.64108660019,-0.0671336999392,2.11062642055,-0.885920668918,-0.0175845483649,-0.00207542505136,0.00424058033982,0.0099266405244,0.000451084418366,0.00238153185425,-0.0182979876112,0.573917256796,0.818879798582,0.00596696957583,0.0,0.818882135508,-0.573838264475,-0.0110653183553,0.0,-0.00563719873401,0.0112370382926,-0.999920972358,0.0,0.267140732876,-0.257441404409,0.305315383783,1.0,-0.00292,-0.00383771428572,3.104
-0.638885043058,-0.521074353475,-0.124719450984,-2.64084580116,-0.0671122284732,2.1107604968,-0.886148076878,-0.0119464543112,0.000274723214708,0.00618346165001,0.0142563419739,0.000609368541583,0.0075407593236,-0.0219504253354,0.573878006592,0.818907734219,0.00590790038498,0.0,0.818911663781,-0.573803891774,-0.0106549336052,0.0,-0.00533553402933,0.0109528914685,-0.999925780368,0.0,0.267180347304,-0.257561494425,0.305451439684,1.0,-0.00258,-0.00339085714286,3.121
-0.639049760482,-0.521166429433,-0.124635742478,-2.64060295065,-0.0670912174099,2.11084775114,-0.88633132021,-0.0107954285687,-0.00698851507377,0.00496731848915,0.0151422910923,-0.000285929157287,0.000776336718773,-0.0152630275386,0.57382325635,0.818946574025,0.00584176900831,0.0,0.818951964379,-0.573754029251,-0.0102342981698,0.0,-0.00502970175457,0.0106570116875,-0.99993056269,0.0,0.26723009358,-0.257659997214,0.305605280942,1.0,-0.00228,-0.00299657142858,3.136
-0.639217116893,-0.521316974305,-0.124566424578,-2.64042137129,-0.0670730706744,2.11085284059,-0.88651782146,-0.00849205738645,-0.00939854041958,0.00286963040294,0.00884615849894,0.000697235645538,0.000316165895415,-0.0207722362228,0.573773907377,0.818981480677,0.00579520679198,0.0,0.818988027997,-0.573708457954,-0.00989758415368,0.0,-0.00478127102744,0.0104253812367,-0.999934223273,0.0,0.26724970999,-0.257736708191,0.305745426256,1.0,-0.00196,-0.00257600000001,3.152
-0.639390630704,-0.521390587714,-0.124520194592,-2.64027477594,-0.0670597503523,2.11084436403,-0.886686533807,-0.0108721224994,-0.00414140105583,0.00184848109342,0.00855794306322,-5.09405238146e-05,-0.000120765148531,-0.0118336500748,0.573757219435,0.818993391853,0.00576403921735,0.0,0.819000610265,-0.573694106404,-0.00968604991888,0.0,-0.00462610461549,0.0102783905962,-0.999936474904,0.0,0.267250343213,-0.257808650505,0.305839631327,1.0,-0.00162,-0.00212914285715,3.169
-0.639549064006,-0.521409151124,-0.124503319939,-2.64017799549,-0.0670495396016,2.1108403922,-0.886822030187,-0.00627630117104,-0.00380441848677,0.000606583519171,0.00476917779538,0.00223646031732,-0.00226130584902,-0.0118846229666,0.573772799585,0.818982559003,0.00575233924476,0.0,0.818990170761,-0.573710884304,-0.00957435788751,0.0,-0.0045411399196,0.0102048119039,-0.999937617985,0.0,0.267236219722,-0.257870475397,0.305890587538,1.0,-0.00128,-0.00168228571429,3.186
-0.639770911637,-0.521342977495,-0.124526741919,-2.64014383682,-0.0669425286501,2.11082359619,-0.886930401212,-0.025782374541,0.0223844222768,0.0240856023108,0.00588294821251,0.0122384757481,-0.0169350706048,-0.00773572990457,0.573929693266,0.818871892241,0.00585475762468,0.0,0.818880389441,-0.573866914343,-0.00961349637093,0.0,-0.0045124571508,0.0103120157654,-0.999936648024,0.0,0.26718720715,-0.257929235595,0.30587983773,1.0,-0.000960000000005,-0.00126171428572,3.202
-0.639850337131,-0.521349006541,-0.124480666459,-2.64020101938,-0.0669496857809,2.11084716515,-0.886981680665,0.00754962747928,-0.0183890895463,0.0039347443984,-0.0044241160517,-0.00729429357538,-0.00382079664232,-0.00286021251299,0.573914371513,0.818882797001,0.00583145334433,0.0,0.818890925771,-0.573851409087,-0.00964151856542,0.0,-0.00454897355336,0.0103089287745,-0.999936514398,0.0,0.267166673055,-0.257929891062,0.305859135093,1.0,-0.000620000000005,-0.000814857142864,3.219
-0.639867076619,-0.521265851506,-0.124455377277,-2.6401817415,-0.0669042268945,2.11086099559,-0.887022941173,0.00256781295403,0.0163168668486,0.00280950541488,0.00371098962817,0.000480542880325,0.00492186133466,-0.00306375746006,0.573896971979,0.818894814781,0.00585617443801,0.0,0.818902985086,-0.573833415104,-0.00968811793474,0.0,-0.00457316901221,0.010355819657,-0.999935919509,0.0,0.267176687387,-0.257929579637,0.305839095877,1.0,-0.000240000000005,-0.000315428571435,3.238
-0.639893588014,-0.521285928849,-0.124411103159,-2.64018049998,-0.0669097177819,2.11090106839,-0.887050074305,0.00133135706677,-0.00154442078562,-0.00104844035733,-0.00251261703522,0.000257762913882,0.0114406751406,-0.000682138029902,0.573862709938,0.818919048023,0.00582493166012,0.0,0.81892716757,-0.573799917014,-0.0096278944776,0.0,-0.00454220832846,0.0102954826216,-0.999936683686,0.0,0.267186028179,-0.257933636808,0.305851537202,1.0,0.0,0.0,3.254
-0.639878475475,-0.52124960898,-0.124379148779,-2.6401915774,-0.0669050979647,2.11083731779,-0.887059978319,0.000251670841313,0.00573276038972,0.0031167871766,0.00440065513729,2.07017939917e-05,-0.00574588834774,-0.00315812638067,0.573821234791,0.818948130868,0.00582205742709,0.0,0.81895570961,-0.573757311675,-0.00973857779628,0.0,-0.0046350313045,0.0103564093007,-0.999935628564,0.0,0.267183694168,-0.257909845359,0.305828401203,1.0,0.0,0.0,3.272
-0.639891194532,-0.521305099798,-0.124404975392,-2.64018847809,-0.0669101344722,2.11085917255,-0.887059902868,-0.000208010969628,-0.00175178650089,-0.00212030774824,0.000465000065321,-0.000856989300783,-0.00316795659585,0.00149241439097,0.573847742862,0.818929525579,0.00582640955279,0.0,0.818937520434,-0.573784629073,-0.00965836250039,0.0,-0.00456650189555,0.010314093491,-0.999936381244,0.0,0.267179814659,-0.257924174232,0.305851514373,1.0,0.0,0.0,3.289
-0.639928271089,-0.521244631397,-0.12439534829,-2.64018072115,-0.0669116751137,2.1108486295,-0.887077473176,-0.00453510583586,0.000686410949356,0.001646123233,0.000896391855999,-0.00185101110531,0.00421875466289,-0.00325833641034,0.573856888889,0.818923146339,0.0058222303932,0.0,0.818930807367,-0.573793139141,-0.00972178587836,0.0,-0.00462072858876,0.0103471168492,-0.999935790959,0.0,0.267170987744,-0.257931635651,0.305832093936,1.0,0.0,0.0,3.305
-0.639921411667,-0.521305524962,-0.124401391047,-2.64020685035,-0.0669053420847,2.11086902568,-0.88707554942,0.00109406072343,-0.000607713542015,0.000169520382122,-0.0013879635051,-0.000462342459893,0.00593102734385,-0.00148998396587,0.573858314534,0.81892208971,0.00583032812374,0.0,0.818930091568,-0.5737951056,-0.00966585824955,0.0,-0.00457025908677,0.0103216629919,-0.999936285973,0.0,0.267170544129,-0.257927683829,0.305844241601,1.0,0.0,0.0,3.322
-0.639928924293,-0.521323940093,-0.124394247823,-2.64018939661,-0.0669036641663,2.1108852152,-0.887074276987,-0.000327299162648,-0.00575460901333,-9.90605472866e-05,-0.000180598112318,9.03660135621e-05,0.00350622441051,-0.00437248256008,0.573861876843,0.818919641022,0.00582363770421,0.0,0.818927809964,-0.573799232171,-0.00961405891848,0.0,-0.00453163008308,0.0102864788128,-0.999936824346,0.0,0.267177320901,-0.257934903497,0.305860528835,1.0,0.0,0.0,3.339
-0.639921084559,-0.521305748367,-0.124392615449,-2.64019387837,-0.066901633988,2.11085857344,-0.887074408565,0.00115445662226,0.000605314417589,-0.00490638119064,-0.000519470091966,0.000658013725083,-0.00134645992192,-0.00398211257238,0.57385494499,0.818924464742,0.00582838392981,0.0,0.818932459211,-0.573791774123,-0.00966302747405,0.0,-0.00456909881593,0.0103184275461,-0.999936324667,0.0,0.267174189534,-0.257927120864,0.305849540706,1.0,0.0,0.0,3.355
-0.639918492126,-0.521355446556,-0.124404850046,-2.64019856458,-0.0669066001044,2.1108978934,-0.887081049599,0.000882150985421,0.00381065082935,-0.0039240026245,-0.00181783776697,0.0014202764557,-0.00178195898932,-0.000760053872262,0.573853822829,0.818925321361,0.00581850151914,0.0,0.818933666797,-0.573791724395,-0.00956312209633,0.0,-0.00449296131932,0.0102529983595,-0.999937342699,0.0,0.267180433572,-0.257935079615,0.305873259709,1.0,0.0,0.0,3.371
-0.639934539508,-0.521259219012,-0.124390539254,-2.64019476283,-0.0668978071042,2.11086845606,-0.887084568277,0.000854489759473,2.18043729011e-06,-0.00207573484813,-0.000115228634605,-0.000149277052837,0.000580675633004,-0.00105679375259,0.573857971068,0.818922324561,0.00583114729149,0.0,0.818930177294,-0.573794403255,-0.00970022742475,0.0,-0.00459794163565,0.0103420544307,-0.99993594837,0.0,0.267171863549,-0.257930255903,0.305832899823,1.0,0.0,0.0,3.389
-0.639926374272,-0.521305072223,-0.12440427948,-2.64019938814,-0.0668975377906,2.11086256262,-0.887087787002,-0.000214966469721,0.00306526635203,-0.00178227714241,0.00140910378767,-0.000145003803519,-0.00441621535501,-0.00111673054631,0.573858070601,0.818922204864,0.00583815789697,0.0,0.818930293322,-0.573794838961,-0.00966459326035,0.0,-0.00456473303682,0.010327348034,-0.999936252516,0.0,0.267170018528,-0.257929837002,0.305846853702,1.0,0.0,0.0,3.405
-0.639945521169,-0.521272054133,-0.124388693244,-2.64018374721,-0.0669001899666,2.11086530989,-0.887079556675,-0.00219408768785,-0.00761270701697,0.00105304646042,0.000988674539003,-0.000897468033158,0.00174267522029,2.4979626223e-05,0.573869199614,0.818914488354,0.0058266113026,0.0,0.818922388439,-0.573805862895,-0.00967989267798,0.0,-0.00458374888483,0.0103267335295,-0.999936171873,0.0,0.267171547076,-0.25793558861,0.305842413417,1.0,0.0,0.0,3.423
-0.639918299228,-0.521279329864,-0.124376252053,-2.6401812385,-0.0668981612578,2.11086842668,-0.887083921443,0.000564938456549,0.00347722491307,0.0019227715349,0.00190717522822,-0.000402597890367,0.000333039629368,-0.000384750147561,0.5738354617,0.818938167439,0.00582131499781,0.0,0.818946069209,-0.573772281762,-0.00966702174946,0.0,-0.00457667200207,0.0103148215162,-0.999936327238,0.0,0.267182666956,-0.257926545563,0.30584679751,1.0,0.0,0.0,3.44
-0.639907625507,-0.521291010157,-0.124366021609,-2.64019905719,-0.0668975377425,2.11087107323,-0.88708111798,0.0016562766997,0.000677322367855,0.000782506176566,-0.000297086527417,2.25561961952e-05,0.00711253037898,-0.000678553721529,0.573821152415,0.818948213557,0.00581854397441,0.0,0.818956069976,-0.573757949744,-0.00967044234631,0.0,-0.0045812438257,0.0103144348626,-0.999936310291,0.0,0.267184230598,-0.257917413361,0.305843457693,1.0,0.0,0.0,3.456
-0.639917951835,-0.521279728602,-0.124367007466,-2.64019379429,-0.066898156924,2.11086447095,-0.887088564526,-0.000854314949715,0.00171786234485,-0.00146486511425,0.000747577394157,2.42064029529e-05,-0.000809075391736,-0.00173126637858,0.573824245581,0.818946043982,0.00581885989654,0.0,0.818953845949,-0.573760911111,-0.0096830773701,0.0,-0.00459137194809,0.0103219609878,-0.999936186176,0.0,0.267181219583,-0.25792068909,0.305841107545,1.0,0.0,0.0,3.473
-0.639933708011,-0.521293911909,-0.124375855057,-2.64018597245,-0.0668968388836,2.11086819821,-0.887083189397,-0.00167763345538,0.00129513612414,-0.000232534406424,-0.000218197792455,0.000236079286005,-0.000200687039284,0.00127075730767,0.573848673404,0.818928901466,0.00582248037908,0.0,0.81893686094,-0.573785589011,-0.00965725314563,0.0,-0.00456783632092,0.010310244215,-0.999936414846,0.0,0.267178079916,-0.257929445308,0.305850004329,1.0,0.0,0.0,3.49
-0.639940228457,-0.521283213795,-0.12437742159,-2.64018845063,-0.0668988733888,2.11086609968,-0.887081665208,0.00054856460684,0.000339817083589,0.00118745369197,0.00123236089176,-0.000383423034197,0.000603620283222,0.00138330225421,0.573855442612,0.818924158767,0.00582237700226,0.0,0.818932047305,-0.573792200022,-0.00967264143154,0.0,-0.00458041342505,0.0103190277218,-0.999936266709,0.0,0.267174738684,-0.257930649659,0.305844717402,1.0,0.0,0.0,3.506
-0.639935994246,-0.521299083667,-0.12437976259,-2.64019376782,-0.0668981611494,2.11086585861,-0.887082375975,-0.000195682349025,-0.00191539322717,-0.00207994042353,-0.000415166800155,4.53604992135e-05,-0.000588602567445,0.000452857387688,0.573853033772,0.818925832031,0.0058244454004,0.0,0.8189337896,-0.573789889647,-0.0096621784606,0.0,-0.00457068765142,0.0103147041565,-0.999936355821,0.0,0.267174464882,-0.257928839681,0.305848067004,1.0,0.0,0.0,3.523
-0.639937995986,-0.521301980841,-0.124381265871,-2.64019627619,-0.0668988733888,2.11086048407,-0.887083189615,-0.000497850281779,-0.00144962263334,0.000336727303594,-0.0021088469659,-0.00023743415506,-0.000948737871821,0.000952099655673,0.573854641721,0.818924698479,0.00582540099641,0.0,0.818932643331,-0.573791442024,-0.00966714269469,0.0,-0.00457418474554,0.0103183444041,-0.999936302273,0.0,0.267172186123,-0.257928446573,0.305847495026,1.0,0.0,0.0,3.538
-0.639932811569,-0.521304876477,-0.124375818496,-2.64018275719,-0.066897511415,2.11087593317,-0.887091023877,0.000482511903253,-0.000479137382403,-0.00079890163367,-0.00137913275556,-0.00061335801177,0.0086769736322,0.000814976663624,0.573848355843,0.81892913668,0.00582069541477,0.0,0.818937129733,-0.573785397027,-0.00964585942037,0.0,-0.00455953308326,0.0103022425152,-0.999936535215,0.0,0.267178344129,-0.257930995815,0.305851959579,1.0,0.0,0.0,3.556
-0.639924597176,-0.521286088081,-0.124360276542,-2.64020156273,-0.0668981479135,2.11086286691,-0.887089396328,-0.000930066841389,0.00105795268803,0.000867052347653,-0.000557329041644,0.000229015723808,0.00024885125004,-0.000917987011873,0.573823853039,0.818946335355,0.00581656196248,0.0,0.818954099741,-0.573760498042,-0.0096860881751,0.0,-0.00459516139754,0.0103218044298,-0.999936170385,0.0,0.267179040913,-0.257918890549,0.305839934858,1.0,0.0,0.0,3.572
-0.639928654211,-0.521296786499,-0.124366353294,-2.64020466168,-0.0668975507798,2.11086133753,-0.887089037464,-0.002363477188,0.000712710071298,0.000441098763761,-0.000143255761081,0.000173667222985,5.87059887846e-05,-0.00119352676654,0.573831835412,0.818940715184,0.00582035928841,0.0,0.818948548051,-0.5737685275,-0.00967984490772,0.0,-0.00458776846193,0.0103213766768,-0.999936208747,0.0,0.267176008577,-0.257920432193,0.305842190597,1.0,0.0,0.0,3.589
-0.639934942235,-0.521291367844,-0.124377275959,-2.64018068279,-0.0668991115699,2.1108723976,-0.887085530768,-0.00073948570902,-0.000471722798112,0.000181365246113,0.00103802460534,8.91952003348e-05,-0.000340928142203,-0.000303861363718,0.573847123323,0.818930013481,0.00581884650949,0.0,0.818937966894,-0.573784126639,-0.00965035224036,0.0,-0.00456428920451,0.0103032995728,-0.999936502625,0.0,0.267179638115,-0.25793216472,0.305852846376,1.0,0.0,0.0,3.606
