nelsonifechukwu/NELSON_IML_WORK/CNN-GradCAM/train2dof/data_sample_2022-02-21-17-18-29/robot_state.csv
position_joint1,position_joint2,position_joint3,position_joint4,position_joint5,position_joint6,position_joint7,velocity_joint1,velocity_joint2,velocity_joint3,velocity_joint4,velocity_joint5,velocity_joint6,velocity_joint7,ee_T_00,ee_T_10,ee_T_20,ee_T_30,ee_T_01,ee_T_11,ee_T_21,ee_T_31,ee_T_02,ee_T_12,ee_T_22,ee_T_32,ee_T_03,ee_T_13,ee_T_23,ee_T_33,v_x,v_y,time
0.465066927881,0.547851960653,-0.123997703133,-1.35587049115,0.0794678826001,1.89409791437,0.159165196435,0.0020926989158,-0.00171740490317,1.87591916684e-05,-0.000830162309709,0.000267091513198,-0.000143191562352,0.000690234066635,0.573816253156,0.818970274087,0.00182884599182,0.0,0.818925844632,-0.573758473369,-0.011934074429,0.0,-0.00872450429553,0.0083458158051,-0.999927112535,0.0,0.661671739551,0.260869899452,0.303146416121,1.0,0.0,0.0,0.0
0.465060271373,0.547857669987,-0.124000601116,-1.35586428593,0.0794675277317,1.89409872818,0.159160517056,-0.0012962901917,0.00145351917274,-0.00165792972748,0.00204501423505,0.000178061008799,0.000175806319543,-0.00109963128197,0.573819480393,0.818968013149,0.00182873242563,0.0,0.818923608064,-0.573761725425,-0.0119311983386,0.0,-0.00872218105499,0.00834410683721,-0.999927147066,0.0,0.661675595405,0.260864477386,0.303145490815,1.0,-0.0,-0.0,0.001
0.465060839132,0.547856218622,-0.123997729119,-1.35587036772,0.0794728482297,1.89409872802,0.159166875724,0.000295865451459,0.00143822146605,0.000904765001787,0.000915174788627,0.000382293127948,0.00315426709236,-0.000151869697816,0.573823954993,0.818964878306,0.00182857311152,0.0,0.818920401008,-0.573766133066,-0.0119393575822,0.0,-0.00872890926465,0.00834870595208,-0.999927049965,0.0,0.661673132241,0.260866673625,0.303143539215,1.0,-0.00034,-0.000446857142857,0.018
0.46506095364,0.547850359617,-0.123997729448,-1.35587879616,0.0794715291906,1.89409710058,0.159168389383,0.00102791664771,-0.00155246095485,-0.000107090020397,-0.00266751708432,1.09170518551e-05,2.23051422528e-05,0.00891271089246,0.573820930675,0.818966988347,0.00183259879025,0.0,0.818922589563,-0.573763116954,-0.0119341874018,0.0,-0.00872239585394,0.00834900381288,-0.999927104316,0.0,0.661671842294,0.260864476466,0.303150245694,1.0,-0.00068,-0.000893714285714,0.035
0.465056671221,0.547811013826,-0.123997818579,-1.35590147387,0.0794673524858,1.89410115684,0.159162856674,-0.000158101257666,-0.00430807123051,-0.000566905014752,-0.000133054139318,7.39567103817e-05,-3.88295562525e-05,0.00148440956172,0.57382432049,0.818964592771,0.00184171184179,0.0,0.818920309055,-0.57376646423,-0.0119297462083,0.0,-0.00871349501556,0.00835395458179,-0.999927140569,0.0,0.661669101643,0.260860044185,0.303160961642,1.0,-0.00098,-0.001288,0.05
0.465061963136,0.547704924024,-0.123998045615,-1.35602397306,0.0794686776125,1.89412624984,0.15916357253,0.000914819783117,-0.00464842341065,-0.000883744678198,-0.00466151342034,0.000267092375868,0.00263026110758,0.000938972779993,0.573827757777,0.818962153839,0.00185523201524,0.0,0.818917940408,-0.573769742279,-0.0119346816202,0.0,-0.00870974425938,0.00836789548272,-0.99992705668,0.0,0.661647426798,0.260852188605,0.303180002308,1.0,-0.00132,-0.00173485714286,0.067
0.465050249577,0.547558026536,-0.123997340457,-1.35623095717,0.0794638938099,1.89417185269,0.159155027995,-0.00219252814568,-0.005654524257,-0.00150091986877,-0.0113885637745,-4.34136617637e-05,0.00650900393975,0.00307811144546,0.573851143312,0.818945803107,0.0018395094952,0.0,0.818901278169,-0.57379308948,-0.0119554999638,0.0,-0.00873557686996,0.00836721509474,-0.999926837028,0.0,0.661618366347,0.26082145655,0.303183905819,1.0,-0.00166,-0.00218171428571,0.084
0.465032135867,0.547415703529,-0.124000899075,-1.3564157851,0.0794604082853,1.89427527064,0.159148687525,-0.00247893666531,-0.00933855024676,-0.000618251656485,-0.0057642289802,-0.000148468551327,0.0107076635213,-0.00207703259717,0.573861709813,0.818938254104,0.00190286019798,0.0,0.818894541059,-0.573803373696,-0.0119233325674,0.0,-0.00867277253235,0.00840074758276,-0.999927102571,0.0,0.661603856016,0.260796882618,0.303211415082,1.0,-0.00198,-0.00260228571429,0.1
0.465016948037,0.547207368281,-0.123998142007,-1.35664747248,0.0794592229031,1.89441567791,0.159138885449,0.000329542194929,-0.0112752977181,-0.00119031318914,-0.0160598587349,0.000393804988226,0.00720526284247,0.000582129256508,0.573877131766,0.818927192687,0.00200938186363,0.0,0.818884811397,-0.573818299492,-0.0118731517777,0.0,-0.00857039177622,0.00845934544423,-0.999927491301,0.0,0.661587639143,0.260773030708,0.303260810392,1.0,-0.00234,-0.00307542857143,0.118
0.464987199198,0.546986652902,-0.123998150478,-1.35693844794,0.0794554882596,1.89453757298,0.159122828006,-0.000496587416593,-0.0147963222442,-0.00158903792415,-0.0181563321996,0.000132543131514,0.00808751783596,0.00106744822123,0.573903687431,0.818908454489,0.00206097561222,0.0,0.818866640783,-0.573844539943,-0.0118581403325,0.0,-0.00852821596538,0.00849325816077,-0.999927564426,0.0,0.661559010688,0.260729385231,0.303289225867,1.0,-0.00268,-0.00352228571429,0.135
0.464957356812,0.546768248775,-0.123998141685,-1.35729086814,0.0794432109244,1.89466291202,0.15907708881,-0.00190976707612,-0.0118709425057,-0.000863951810023,-0.0247031282882,-0.000133636425786,0.0120653347716,-0.000466975210063,0.573907112708,0.818906060515,0.00205838167016,0.0,0.818864121754,-0.573847884379,-0.0118702400305,0.0,-0.00853957794738,0.00849811369663,-0.999927426203,0.0,0.661517384591,0.260677202424,0.303287031655,1.0,-0.003,-0.00394285714286,0.151
0.464914682685,0.546473723125,-0.123993843298,-1.35770539695,0.0794342799064,1.89482121456,0.158943624404,0.000253064939232,-0.0198291403547,0.00160167085235,-0.0238904310887,-0.000283686176109,0.0168525389402,-0.0046034528052,0.573850567855,0.81894557388,0.00210230739477,0.0,0.818904038891,-0.573791001722,-0.0118662687009,0.0,-0.00851170704182,0.00853121730126,-0.999927381951,0.0,0.661472244438,0.260615431698,0.303311897567,1.0,-0.00334,-0.00438971428571,0.168
0.464861804894,0.546185131097,-0.123996386212,-1.35819557578,0.0794128315678,1.89498281427,0.158932587692,-0.00278663493442,-0.0156870706508,0.000711413156615,-0.0250351693602,-0.00395570243601,0.00483802065197,0.000471378926106,0.573908244561,0.818905234566,0.00207135878378,0.0,0.818863208732,-0.573848708502,-0.0118933609996,0.0,-0.00855105365053,0.00852202150866,-0.99992712466,0.0,0.6614151249,0.260532077769,0.303297026925,1.0,-0.00368,-0.00483657142857,0.185
0.464810103914,0.545881631982,-0.12399574163,-1.3587105862,0.0793699361055,1.89516277053,0.158879332044,-5.86082411183e-05,-0.0215859130339,-6.62466822794e-05,-0.0296433141645,-0.00322176059182,0.0104082868353,-0.0024156875934,0.573923893769,0.818894352166,0.00203741309208,0.0,0.818851968703,-0.57386457819,-0.0119015188433,0.0,-0.0085770524931,0.00849906939122,-0.999927097338,0.0,0.661356476667,0.26044637298,0.303282323637,1.0,-0.004,-0.00525714285714,0.201
0.46473761433,0.545499677139,-0.124004050352,-1.35937509968,0.0792844972282,1.89538922011,0.158754115334,-0.00295401615875,-0.0196958689255,-0.000664465629899,-0.0414629164369,-0.00215397263767,0.0166075131989,-0.00185494200205,0.573900886655,0.818910659736,0.00196228648665,0.0,0.818867715219,-0.57384229345,-0.0118926078355,0.0,-0.0086131061796,0.00843219357919,-0.999927353618,0.0,0.661284614618,0.260321286983,0.303256241658,1.0,-0.00436,-0.00573028571429,0.219
0.464677121671,0.545090618514,-0.124006264467,-1.36006947064,0.0792718462162,1.89560826711,0.158711399377,-0.00974387216247,-0.0273199139493,-0.00139875943046,-0.038401313652,-0.00163877677833,0.0157924002254,0.000284808443565,0.573952191973,0.818874799604,0.00192114628692,0.0,0.818831007624,-0.573893460233,-0.0119509061172,0.0,-0.00868392975415,0.0084325052638,-0.999926738426,0.0,0.661196447435,0.260215765026,0.303234392947,1.0,-0.0047,-0.00617714285714,0.236
0.464616899872,0.544709744628,-0.124007001985,-1.36070253247,0.07924959829,1.89582924152,0.158610693202,-0.00465589033616,-0.0228379151217,-0.000876548261286,-0.0400418811862,-0.000348057484949,0.0194093058489,-0.00402291056134,0.573948910737,0.818877141813,0.0019029923925,0.0,0.818832942756,-0.573890091199,-0.0119800660175,0.0,-0.00871826159502,0.0084343410893,-0.999926424196,0.0,0.661122072083,0.260116770646,0.303221840768,1.0,-0.005,-0.00657142857143,0.251
0.464542758759,0.544218270995,-0.12401051365,-1.36152008605,0.0792135367192,1.89612256723,0.158517677118,-0.00379229379248,-0.0321754539066,-0.00109376190379,-0.0461120504326,-0.000217200297749,0.0131656295477,-0.00200599801722,0.573971888569,0.818861088121,0.00188053061373,0.0,0.818816470011,-0.573913040727,-0.01200654084,0.0,-0.00875259656871,0.00843138869037,-0.999926149142,0.0,0.661027545997,0.259989198855,0.303206064477,1.0,-0.00536,-0.00704457142857,0.269
0.464464614866,0.54364761456,-0.124011228841,-1.36245143009,0.079163409491,1.89643979389,0.158398333776,-0.00114869164883,-0.0277265683465,-0.0018879243844,-0.0481896195221,-0.00187237596402,0.0141947199662,0.000159495981145,0.573977032321,0.818857559611,0.00184670981772,0.0,0.818812397843,-0.57391823219,-0.0120360624865,0.0,-0.00879612967384,0.00842069444528,-0.999925857255,0.0,0.660914737811,0.259847486681,0.303194056916,1.0,-0.00574,-0.007544,0.288
0.464385788923,0.543131050922,-0.124019172053,-1.36326967359,0.079112680718,1.89672668028,0.158297216572,-0.00322816729702,-0.030881039885,-0.00103489448499,-0.0506832310625,-0.00253365021296,0.0180939678849,-0.00677546680108,0.573996259559,0.81884411617,0.00183148199089,0.0,0.818798779355,-0.573937546265,-0.0120415453808,0.0,-0.00880916190842,0.00841157917538,-0.99992581925,0.0,0.660822234238,0.259711706696,0.303195141493,1.0,-0.00606,-0.00796457142857,0.304
0.46430487106,0.542544946776,-0.124015040901,-1.36417589231,0.0790615839792,1.89704820857,0.158168859935,-0.00910952005669,-0.0320935107546,-0.00127221898805,-0.052407629132,-0.00596875723395,0.0226196672489,-0.00838216826511,0.573991175478,0.818847669436,0.00183620109288,0.0,0.818802310533,-0.573932362205,-0.0120485177832,0.0,-0.00881221513869,0.00841939068199,-0.999925726604,0.0,0.660715871146,0.259574314486,0.30320608556,1.0,-0.0064,-0.00841142857143,0.321
0.464239358584,0.541977614807,-0.124022308175,-1.36505077789,0.0790140093545,1.89738500215,0.158060759441,-0.000447679781951,-0.0331775305514,-0.00702497696302,-0.0538120662866,-0.00422825281696,0.022950804563,-0.00147271140245,0.573997385203,0.818843259523,0.00186145544182,0.0,0.818798229816,-0.573938460391,-0.0120353410705,0.0,-0.00878686621569,0.00843257307831,-0.999925838597,0.0,0.660617566047,0.259445579739,0.303220297984,1.0,-0.00672,-0.008832,0.337
0.464150179117,0.541371932017,-0.124021159608,-1.36597995031,0.0789569976568,1.89772800377,0.157925618847,-0.00711408638177,-0.0404872430373,0.000799369903779,-0.0567133888326,-0.00511557438504,0.0229271940124,-0.0118724341236,0.573995263698,0.818844708883,0.00187800105511,0.0,0.818799887412,-0.57393625986,-0.0120275057309,0.0,-0.00877097539565,0.00844160090307,-0.999925901937,0.0,0.660513579566,0.259299050738,0.303235958709,1.0,-0.00704,-0.00925257142857,0.353
0.464079625837,0.540670135523,-0.124023704627,-1.36704812704,0.0788987780048,1.89812414136,0.157798916709,-0.000952713303677,-0.0469104249832,-0.000236224093451,-0.0689890754229,-0.00549620385004,0.0296254935477,-0.00703319770286,0.57399471157,0.818845030986,0.00190610063446,0.0,0.81880052357,-0.57393553556,-0.0120187571634,0.0,-0.00874768911352,0.00845958212207,-0.999925953961,0.0,0.660386549683,0.259150863281,0.303258048116,1.0,-0.00738,-0.00969942857143,0.37
0.463974510917,0.5399411509,-0.124021817962,-1.3681652156,0.0788321599251,1.89853856313,0.157662871536,-0.00251941386781,-0.0421347151944,0.000395749102836,-0.0639054816602,-0.00341959251125,0.0297953066949,-0.00908566585911,0.574012084882,0.818832798128,0.0019292539146,0.0,0.818788568359,-0.573952783505,-0.0120095600284,0.0,-0.00872668900376,0.00847344678124,-0.999926020063,0.0,0.660260784693,0.258976864127,0.303277388785,1.0,-0.00772,-0.0101462857143,0.387
0.463882532131,0.539244539874,-0.124031849605,-1.36926250402,0.0787691329733,1.89895526306,0.157539536778,-0.00849000285777,-0.0436258499155,-0.0023449500495,-0.0720685656629,-0.00591228092388,0.0272185611216,-0.0144842004199,0.574037358212,0.818815052893,0.00194098804618,0.0,0.818771002107,-0.573978028679,-0.0120006501095,0.0,-0.00871239620231,0.00847820944512,-0.999926104328,0.0,0.66013810649,0.258807293007,0.303283764087,1.0,-0.00804,-0.0105668571429,0.403
0.463775053834,0.538464563853,-0.124033273243,-1.37045351248,0.0787018409403,1.89941255127,0.157382973652,-0.00916206289244,-0.0544906446673,-0.000229139512223,-0.0718095809348,-0.00128521935075,0.0208526914118,-0.0115164235576,0.574046022593,0.818808880386,0.00198198045533,0.0,0.818765341916,-0.573986496096,-0.0119818228478,0.0,-0.00867335992319,0.00850105832611,-0.999926249698,0.0,0.660006091965,0.258624530928,0.303307536597,1.0,-0.00838,-0.0110137142857,0.42
0.463663287525,0.537680669932,-0.124038528794,-1.37169192079,0.078631183259,1.89989133488,0.157233788629,-0.00569484725899,-0.0442074862635,-1.74929457655e-05,-0.0738821675879,-0.00276232368624,0.0283287414917,-0.00384822233962,0.574068616965,0.818792990972,0.00200196189959,0.0,0.818749717512,-0.574009007874,-0.0119710423234,0.0,-0.00865282797901,0.00851146932216,-0.999926339016,0.0,0.659869400459,0.258432063363,0.303313375827,1.0,-0.00872,-0.0114605714286,0.437
0.463556096839,0.536903832809,-0.124040220935,-1.3729149648,0.0785683166455,1.90034663836,0.157088891149,-0.00742923783467,-0.0551360614744,0.000650526620641,-0.0761001674435,-0.00259964972912,0.0255563615737,-0.00791392048157,0.574089490148,0.818778325282,0.00201451020361,0.0,0.818735114286,-0.574029726153,-0.0119763528657,0.0,-0.00864975593644,0.00852501268518,-0.999926250221,0.0,0.659728699507,0.258246096438,0.303319265947,1.0,-0.00904,-0.0118811428571,0.453
0.463436848839,0.536050080421,-0.12404808338,-1.37424618844,0.0784748496147,1.9008389083,0.156923597299,-0.0101277539812,-0.057934743589,-0.000844435013829,-0.0837509205593,-0.00207639329707,0.0253216727595,-0.012557790248,0.574105432945,0.818767139265,0.00201752897854,0.0,0.818724110987,-0.574045795687,-0.01195832111,0.0,-0.00863309255159,0.00851730072191,-0.999926459947,0.0,0.659578240748,0.258034348891,0.30333117354,1.0,-0.00938,-0.012328,0.47
0.46331785496,0.535093334795,-0.124043577933,-1.37574835713,0.0784039464698,1.90138131891,0.156742303981,-0.00730908132953,-0.0582057784325,0.000665271681867,-0.0868889874431,-0.00057961159305,0.0359469722684,-0.00414048255184,0.57411465438,0.818760650316,0.00202682542873,0.0,0.81871750283,-0.574054739738,-0.0119813707405,0.0,-0.00864653262772,0.00853824236298,-0.99992616522,0.0,0.659396312306,0.257818068715,0.303338224352,1.0,-0.00974,-0.0128011428571,0.488
0.463203140124,0.534259797992,-0.12404891507,-1.37714020091,0.0783319113905,1.90188727049,0.156571288776,-0.00314570758322,-0.0538409154742,-0.00076886041988,-0.0884157594472,-0.00942696715967,0.0323213606811,-0.010759929203,0.574129330147,0.818750459856,0.00198586300842,0.0,0.818706656106,-0.574069467138,-0.0120168651817,0.0,-0.00869895805637,0.00852523815757,-0.99992582147,0.0,0.65923034071,0.257607729593,0.303307850132,1.0,-0.01006,-0.0132217142857,0.504
0.463072476163,0.533335514075,-0.124054564623,-1.37862003924,0.0782324603005,1.90243731036,0.156384280392,-0.00808776143079,-0.0556608274569,-0.00148370634501,-0.0866533281118,-0.000629447844538,0.0341175456617,-0.00725465760252,0.574141467654,0.818741979602,0.00197303272165,0.0,0.818698110174,-0.574081757468,-0.0120119541167,0.0,-0.00870217654384,0.00851204300967,-0.999925905879,0.0,0.659060429109,0.257376032638,0.303303207979,1.0,-0.0104,-0.0136685714286,0.521
0.462937092216,0.53238465242,-0.124049275357,-1.38016461291,0.0781570309709,1.90302375695,0.15619065072,-0.0108235036903,-0.057381585509,-0.000542047018384,-0.0907266726679,-0.00297798233934,0.0303978897413,-0.00915231061526,0.574154362844,0.818732929986,0.00197582498748,0.0,0.818688902504,-0.57409444886,-0.0120329384083,0.0,-0.00871762060338,0.00852651423734,-0.999925648059,0.0,0.65888039601,0.257146600264,0.303289161489,1.0,-0.01074,-0.0141154285714,0.538
0.462806568511,0.531460451181,-0.12404444282,-1.38164941919,0.0780545676805,1.90356845235,0.155996008632,-0.0128836094341,-0.056908561401,0.00157794988802,-0.0956179902298,-0.00491843128197,0.0315930803028,-0.00976106457754,0.574151824393,0.818734758844,0.00195553276116,0.0,0.818690527055,-0.574092057088,-0.0120365194037,0.0,-0.00873222910824,0.00851192960292,-0.99992564485,0.0,0.658705203557,0.256919702977,0.303280903418,1.0,-0.01106,-0.014536,0.554
0.462667891493,0.530367997881,-0.124049709275,-1.38340423964,0.0779562684804,1.90417380496,0.155781238792,-0.00451264553907,-0.0602553479116,-0.000273355586348,-0.0971739359997,-0.00373933647594,0.0356634479015,-0.0126791517056,0.574162036679,0.818727703585,0.00191047645456,0.0,0.818682744052,-0.574102328387,-0.0120759278268,0.0,-0.00879025691711,0.00849777703065,-0.999925256791,0.0,0.658487234306,0.256656542275,0.30326809485,1.0,-0.01142,-0.0150091428571,0.572
0.462526973442,0.529379246909,-0.124060982661,-1.38494150638,0.0778505877464,1.90474954531,0.155560541468,-0.00552762586229,-0.0633710135987,-0.00247714084849,-0.0994633505729,-0.00864799601995,0.0408230092577,-0.013656452392,0.574159694161,0.81872931552,0.00192364483512,0.0,0.818684689191,-0.574100084851,-0.0120506912984,0.0,-0.00876205827201,0.00849404334094,-0.999925536009,0.0,0.658313351511,0.256409698474,0.303283108283,1.0,-0.01174,-0.0154297142857,0.588
0.462397052545,0.528348762078,-0.124053170733,-1.38653976521,0.0777586063161,1.90535976609,0.155345449434,-0.0109566227525,-0.0645343776651,0.00128137572362,-0.0992712911649,-0.00492674885911,0.0350424131558,-0.0100421496999,0.574146423188,0.818738527732,0.00196337692158,0.0,0.818694342073,-0.57408656791,-0.0120388414864,0.0,-0.00872968310917,0.008519627385,-0.999925601523,0.0,0.658124832836,0.25617906284,0.30330065522,1.0,-0.01206,-0.0158502857143,0.604
0.462242273911,0.527137851317,-0.124058065792,-1.38840198142,0.0776402985165,1.90607761675,0.155085292232,-0.00853938548846,-0.0722813317522,-8.64061762412e-05,-0.108957711977,-0.00673818943693,0.0427206997391,-0.0117419269211,0.574132569543,0.818748117528,0.00201482874878,0.0,0.818704694935,-0.574072586237,-0.0120014633917,0.0,-0.00866968452718,0.00854014519572,-0.999925948503,0.0,0.657910934966,0.255898794434,0.303329024255,1.0,-0.01242,-0.0163234285714,0.622
0.462096044502,0.525965753773,-0.124068895394,-1.39020939183,0.0775248073644,1.90675179642,0.154841466885,-0.00915651155341,-0.0746810463102,-0.00266546376931,-0.112338960626,-0.0097037469268,0.0414997894169,-0.0150945211251,0.574126679528,0.818752180778,0.00204186843418,0.0,0.818709201294,-0.574066672446,-0.0119769029704,0.0,-0.00863411304183,0.00854812058612,-0.999926188139,0.0,0.657698563437,0.255624232124,0.303352247405,1.0,-0.01276,-0.0167702857143,0.639
0.461954318708,0.524870574567,-0.124068066718,-1.39193550928,0.0774158851001,1.90736648102,0.154605870107,-0.0044906683324,-0.0624948866377,-0.00100845347351,-0.106509462117,-0.00965919154112,0.0347007701295,-0.0186680202105,0.574112601688,0.818762090793,0.00202636711062,0.0,0.818718879687,-0.574052632317,-0.0119882557223,0.0,-0.00865245453279,0.00854179814914,-0.999926083626,0.0,0.657486651255,0.255365132202,0.303354245498,1.0,-0.01308,-0.0171908571429,0.655
0.461794217845,0.523682703793,-0.12407684826,-1.39384490281,0.0773005752908,1.90805422894,0.15433980553,-0.00778404873418,-0.0690746072984,0.000108307349531,-0.11358402967,-0.00757155148795,0.043256545418,-0.0184040019426,0.574103428107,0.818768599149,0.00199544124123,0.0,0.818724958703,-0.574043565157,-0.0120072561654,0.0,-0.00868586133573,0.00852728865126,-0.999925917836,0.0,0.657255340919,0.255071769981,0.303340578323,1.0,-0.01342,-0.0176377142857,0.672
0.461640727956,0.522454202003,-0.124077619098,-1.39578645128,0.0771869554013,1.90879973682,0.154094833058,-0.00837172162176,-0.0714048042514,-0.000779213957326,-0.113427751078,-0.0129281273606,0.0461148108117,-0.00906598327036,0.574102659741,0.818769070041,0.00202309757246,0.0,0.818725763142,-0.574042652948,-0.0119960103737,0.0,-0.00866078470719,0.008543468054,-0.999925997243,0.0,0.657024839602,0.254788328396,0.303344586565,1.0,-0.01376,-0.0180845714286,0.689
0.461483544358,0.521285509488,-0.124082604446,-1.39765534807,0.0770578161428,1.90952553745,0.153824170414,-0.0081786128507,-0.0718247355438,-0.000902720945212,-0.115686654175,-0.0043694691324,0.0433381048539,-0.0181788651475,0.574078474545,0.818786003892,0.00203268167424,0.0,0.818743001519,-0.574018607801,-0.0119700569306,0.0,-0.00863428421256,0.00853616026558,-0.999926288835,0.0,0.656808065049,0.254504054966,0.303339228793,1.0,-0.01408,-0.0185051428571,0.705
0.461318026711,0.520000991665,-0.124087484513,-1.39970486194,0.076939221933,1.91026754243,0.153549527888,-0.0135004552205,-0.0736897999619,-0.00146804897055,-0.119907570633,-0.00459218680864,0.0497176682031,-0.024857095543,0.574069780366,0.818792143697,0.00201484304495,0.0,0.818748815669,-0.57400989783,-0.0119900347888,0.0,-0.00866097318792,0.00853293127996,-0.999926085582,0.0,0.656555802676,0.25419731265,0.303330358478,1.0,-0.01442,-0.018952,0.722
0.461144744401,0.518636560249,-0.124087595559,-1.40177886242,0.0767994569887,1.91101578372,0.153286085836,-0.0130843969754,-0.0790657018787,0.000492428591397,-0.120419158842,-0.00380892303532,0.0398609795405,-0.0174225294795,0.574062291278,0.818797335397,0.00203867147145,0.0,0.818754370921,-0.574002361737,-0.0119714543413,0.0,-0.00863215887187,0.00854169614134,-0.999926259911,0.0,0.656285920878,0.25386959854,0.303362998633,1.0,-0.01478,-0.0194251428571,0.74
0.460974369173,0.517301994909,-0.12409327468,-1.40393003043,0.0766576544294,1.91177512974,0.152985280723,-0.0125762169988,-0.0772015784675,2.29716411412e-05,-0.130087359064,-0.00441416830311,0.047135519443,-0.0210420380944,0.574040899647,0.818812463071,0.00198563668478,0.0,0.818768849486,-0.573981237943,-0.0119940194115,0.0,-0.00868130151594,0.00851099902034,-0.999926096219,0.0,0.656032057739,0.253559258553,0.303344431035,1.0,-0.0151,-0.0198457142857,0.756
0.460790777721,0.515940853912,-0.124093713077,-1.40606935192,0.0765281670464,1.91258915535,0.152678616963,-0.0149644705537,-0.076029154772,-0.000108734180053,-0.125911307521,-0.00823693321009,0.0454379354945,-0.0196270741263,0.574018687078,0.818827963066,0.00201511477992,0.0,0.818784721602,-0.573958891578,-0.0119798726984,0.0,-0.00865302831153,0.00852678015869,-0.999926206838,0.0,0.655776841947,0.253236851944,0.303351468869,1.0,-0.01544,-0.0202925714286,0.773
0.460603340929,0.514536567948,-0.124100079475,-1.40829175991,0.0763886977121,1.91341256106,0.152376152037,-0.0121894375706,-0.0846769535827,0.0012952452196,-0.128759972628,-0.00622807979784,0.0487833107263,-0.0234381052486,0.574008447089,0.818835141736,0.00201500143108,0.0,0.818791925027,-0.573948679195,-0.0119768134823,0.0,-0.00865069490808,0.00852482313801,-0.999926243714,0.0,0.655506944332,0.25289828576,0.303349786085,1.0,-0.01578,-0.0207394285714,0.79
0.460433095466,0.513241888175,-0.124101058504,-1.41044131812,0.0762653925676,1.91414704742,0.152087757045,-0.00903408441508,-0.0818162903604,0.010244847172,-0.137812579294,-0.00925893219527,0.0461110045438,-0.017016563191,0.573991796294,0.818847049566,0.00191679577966,0.0,0.818802340365,-0.573932244071,-0.0120521172502,0.0,-0.00876889857658,0.00848745670981,-0.999925531975,0.0,0.655226409456,0.252578023732,0.303297760875,1.0,-0.0161,-0.02116,0.806
0.460231586486,0.511804015874,-0.124098226846,-1.41272400049,0.0761304258637,1.91496833986,0.15176222588,-0.0104143456668,-0.0834575947556,0.00616741100568,-0.13355285636,-0.00131068123318,0.0525329243766,-0.0215089274889,0.57397122472,0.818861508178,0.00190013679203,0.0,0.818816444324,-0.573911615332,-0.012076224246,0.0,-0.00879841402021,0.00848743188159,-0.999925272913,0.0,0.654942141774,0.252229625422,0.303289601816,1.0,-0.01644,-0.0216068571429,0.823
0.460036164574,0.51033510788,-0.124111102843,-1.41504586431,0.0759810512103,1.91586323773,0.151438863926,-0.0139825128552,-0.0889331388698,-0.000920386892796,-0.138874757862,-0.00540493330334,0.0540846402504,-0.0171865529739,0.573956701372,0.818871626794,0.00192631357679,0.0,0.818827043381,-0.573897113695,-0.0120466934026,0.0,-0.00875935826707,0.00849176155122,-0.999925579045,0.0,0.65466595394,0.251874487701,0.303290907362,1.0,-0.01678,-0.0220537142857,0.84
0.459844040459,0.50891644735,-0.124114461218,-1.41727398101,0.0758365117922,1.91667165155,0.151128495192,-0.00906056288314,-0.0903050873712,-0.000546946229801,-0.139673636054,-0.0159648106967,0.044928022993,-0.0174377886865,0.573939437225,0.818883749133,0.00191695188401,0.0,0.818839062228,-0.573879910473,-0.0120492915354,0.0,-0.00876703764399,0.00848540205611,-0.999925565731,0.0,0.654370548019,0.251511910125,0.303294106791,1.0,-0.01712,-0.0225005714286,0.857
0.459631500584,0.507401207306,-0.124118242481,-1.41966897867,0.0756916396916,1.91752824736,0.150785123293,-0.0114475147122,-0.0911221088388,-0.000442877328057,-0.143453881755,-0.00793207550797,0.0510452325396,-0.0199851584316,0.573916993661,0.81889951192,0.00190280478484,0.0,0.818854597067,-0.573857489542,-0.0120614037114,0.0,-0.00878530797984,0.00848052827922,-0.999925446723,0.0,0.654073466733,0.251138535511,0.303290603156,1.0,-0.01746,-0.0229474285714,0.874
0.459400998056,0.50573609705,-0.124127696431,-1.42225716446,0.0755309772589,1.91849946836,0.150437642899,-0.0135883474697,-0.0992459929863,-0.000627882257987,-0.149405313989,-0.00633114800245,0.0496349291565,-0.018835267577,0.573920861692,0.818896718116,0.00193816270307,0.0,0.818852258594,-0.573861197293,-0.012043742751,0.0,-0.0087505135178,0.00849938776414,-0.999925591692,0.0,0.653775586331,0.250760343995,0.303304383017,1.0,-0.0178,-0.0233942857143,0.891
0.459193669371,0.504190288901,-0.124130805946,-1.42459021053,0.0753852994537,1.91940299685,0.1501106545,-0.0100393335039,-0.095321804615,0.000855719945001,-0.144082251554,-0.00534494742205,0.0588194923478,-0.0192349314029,0.573906063805,0.818906855958,0.00203423065348,0.0,0.81886371462,-0.573846054799,-0.0119862075641,0.0,-0.00864841882496,0.00854487938775,-0.999926092213,0.0,0.653497223993,0.250404287272,0.3033523859,1.0,-0.01812,-0.0238148571429,0.907
0.458963264569,0.502521226553,-0.124137301189,-1.42706947121,0.0752274831706,1.92033714201,0.149758713778,-0.0181555223742,-0.0961632104038,0.000576735933345,-0.149183796645,-0.0181006717073,0.0517489924934,-0.0229126384017,0.573895697712,0.818913860914,0.00213622374562,0.0,0.818872124526,-0.57383534291,-0.0119243365404,0.0,-0.00853932819806,0.00859278495339,-0.999926619268,0.0,0.653199272128,0.250015694086,0.303418998066,1.0,-0.01846,-0.0242617142857,0.924
0.458731453138,0.500799404582,-0.124138111531,-1.42964963008,0.0750654539227,1.92123878823,0.149395310791,-0.0133038820718,-0.0975359266569,2.17066685368e-05,-0.151429286194,-0.0116067039587,0.0509752384105,-0.0232212019755,0.573876146595,0.818927460059,0.00217495542427,0.0,0.818886148397,-0.573815556389,-0.0119134424712,0.0,-0.00850838573939,0.00861804725249,-0.999926665628,0.0,0.652870079706,0.249615564215,0.303470772535,1.0,-0.0188,-0.0247085714286,0.941
0.458496051468,0.499196913995,-0.124139087555,-1.43210575801,0.0749053416852,1.92213589278,0.149061892461,-0.0152639026847,-0.0990995491159,-0.000673798928198,-0.15698311687,-0.0153023359695,0.0631040789137,-0.0157690496855,0.573878192639,0.818925938932,0.00220759131067,0.0,0.818885080386,-0.573817499405,-0.0118932501164,0.0,-0.00847309962638,0.00863320668531,-0.999926834486,0.0,0.652566466104,0.249226196436,0.303497358504,1.0,-0.01912,-0.0251291428571,0.957
0.458248182443,0.497533583763,-0.124138507483,-1.4347592365,0.074743325873,1.92311521536,0.148671050196,-0.0102635685876,-0.105303334458,0.000832475243784,-0.159096213951,-0.00457644729405,0.0534102660773,-0.0192425524392,0.5738517044,0.818944525373,0.00219832202441,0.0,0.818903467096,-0.57379097126,-0.0119071314999,0.0,-0.00849006628529,0.00863330745122,-0.999926689701,0.0,0.652234946082,0.248812351205,0.303479059527,1.0,-0.01946,-0.025576,0.974
0.457967284666,0.495735351323,-0.124136630594,-1.43761310857,0.0745657799613,1.92410188306,0.148248669041,-0.0188989032001,-0.101949774775,0.00570180235061,-0.155812757202,-0.00740829562131,0.0547736930665,-0.0264787382618,0.573830376423,0.818959620369,0.00214154174218,0.0,0.818917658595,-0.57376971153,-0.0119554788056,0.0,-0.00856246745036,0.00861432910516,-0.999926236022,0.0,0.651867369461,0.248354006974,0.303459295441,1.0,-0.01982,-0.0260491428571,0.992
0.457700791602,0.494158781528,-0.124141418327,-1.44020638543,0.0744007662513,1.92501999644,0.147892775133,-0.0161376753782,-0.108282141273,-0.00317877648608,-0.160798083131,-0.0134744393441,0.056647416047,-0.0257567794534,0.573846412983,0.818948609996,0.00205314231588,0.0,0.81890542844,-0.573786047929,-0.0120090538764,0.0,-0.00865690023631,0.00857284693198,-0.999925779433,0.0,0.651539343542,0.247926615388,0.303402885002,1.0,-0.022684,-0.0298132571429,1.008
0.457438650669,0.49212475179,-0.124215540033,-1.44331776153,0.0742247312818,1.92619057898,0.147442010088,-0.0143059980222,-0.134266828858,-0.000493636804953,-0.201258172973,-0.00801601830887,0.081374755732,-0.0318890269563,0.573854259654,0.81894292972,0.002124485762,0.0,0.818900851442,-0.573793768295,-0.0119521494042,0.0,-0.00856927654362,0.00859870059864,-0.999926312209,0.0,0.651161746062,0.247421304923,0.303441436009,1.0,-0.0288645714286,-0.0379362938776,1.024
0.457025687988,0.489351286794,-0.124223729494,-1.44779160546,0.0739662115996,1.92781991669,0.146779996824,-0.0261931342235,-0.165778302878,-0.00042907255095,-0.270833725441,-0.0182275554628,0.092052130157,-0.0383454151393,0.573809961849,0.818974105322,0.00207108594521,0.0,0.818931045443,-0.573749414079,-0.0120124749627,0.0,-0.00864978812297,0.00858911974557,-0.999925701334,0.0,0.650588187844,0.246722851321,0.303382665319,1.0,-0.0358177142857,-0.0470747102041,1.042
0.45655023733,0.486280002984,-0.124274160601,-1.45260068519,0.0736861518421,1.92962746902,0.146081602487,-0.0311630059104,-0.204326755278,-0.0043761998764,-0.315714822137,-0.017456078517,0.128699376879,-0.0480872568584,0.573827141714,0.818961924297,0.00212717784853,0.0,0.818919606634,-0.573766367272,-0.011982510601,0.0,-0.00859288227263,0.00861804337974,-0.999925943109,0.0,0.649998601925,0.245932043247,0.30338595775,1.0,-0.0419982857143,-0.0551977469388,1.058
0.455968438702,0.48248237147,-0.124371581105,-1.45849364269,0.0733238448175,1.93173697879,0.145160359051,-0.0365580500674,-0.230426955503,-0.00205788921748,-0.371485373588,-0.0261719012619,0.131234901115,-0.0622855126121,0.573811247251,0.818973069275,0.002123966067,0.0,0.818930878226,-0.573750657109,-0.0119644078838,0.0,-0.00858006611287,0.00860485887717,-0.999926166709,0.0,0.649259089382,0.244933742629,0.303402494163,1.0,-0.0485651428571,-0.0638284734694,1.075
0.455271144013,0.478124390127,-0.124464093621,-1.46532197479,0.0729229057414,1.93413951668,0.144153784788,-0.0412855453274,-0.273728225173,-0.00818180250775,-0.417400245509,-0.0272114175139,0.141391518112,-0.0588925135838,0.573849382225,0.818946500125,0.0020647893887,0.0,0.818903381077,-0.573788878904,-0.0120134011906,0.0,-0.00865374628255,0.0085849111494,-0.999925703228,0.0,0.648385111592,0.243774510203,0.303383958897,1.0,-0.055132,-0.0724592,1.092
0.454512453533,0.473513867832,-0.124534462022,-1.47241494246,0.0724940385341,1.93674326531,0.143139559275,-0.0497247364167,-0.289431378238,-0.00532607949319,-0.455597990252,-0.0209465746986,0.165682572875,-0.0729059887479,0.573917182243,0.818898732064,0.00216366640365,0.0,0.818856871113,-0.573856226264,-0.0119667501837,0.0,-0.00855808788474,0.0086398229908,-0.999926053561,0.0,0.647434126064,0.242493458765,0.303427305637,1.0,-0.0616988571429,-0.0810899265306,1.109
0.453560021821,0.467745734044,-0.12457681619,-1.4811579199,0.0719685319328,1.93996790029,0.141772167,-0.0541263766763,-0.332749610865,-0.00207835034462,-0.497330795072,-0.035653015198,0.186920726088,-0.082321302103,0.573883808283,0.818921510049,0.00238366760797,0.0,0.818882371338,-0.573821827444,-0.0118709377051,0.0,-0.00835372656343,0.00876465106805,-0.999926695385,0.0,0.646386516315,0.241105582966,0.303529755112,1.0,-0.0682657142857,-0.0897206530612,1.126
0.452551567377,0.461805878309,-0.124610414164,-1.49033169039,0.0713739730769,1.9431821907,0.140335103117,-0.0618795281031,-0.35890552143,-0.000405970338563,-0.561146013834,-0.0354563902911,0.190100331102,-0.0820668986589,0.573826029264,0.818962061518,0.0023615321376,0.0,0.818922433434,-0.573763932039,-0.0119056797468,0.0,-0.00839549970368,0.00876586934969,-0.999926334846,0.0,0.645173159172,0.239552063104,0.3035378254,1.0,-0.0748325714286,-0.0983513795918,1.143
0.451500711187,0.455732098787,-0.124676685701,-1.49975775692,0.0707526117736,1.946383086,0.138924211035,-0.0649855020977,-0.382111724165,-0.00252606718624,-0.603443327594,-0.0363343842194,0.210971172196,-0.0947265931423,0.573845489489,0.818948822019,0.00221991175971,0.0,0.818907157582,-0.573783766162,-0.012000160482,0.0,-0.00855393265045,0.00870430717987,-0.999925529863,0.0,0.643900632894,0.237921631566,0.303509432907,1.0,-0.0810131428571,-0.106474416327,1.159
0.450294810667,0.448702446119,-0.124762165912,-1.51016826649,0.0700306061812,1.9503019785,0.137251553025,-0.074595985177,-0.417350488417,-0.00211885680428,-0.620596791211,-0.0419354074062,0.237899541821,-0.0918279005162,0.573802737612,0.818977559132,0.00263113060287,0.0,0.818942089381,-0.573740333284,-0.0116889308595,0.0,-0.00806354156335,0.0088620547423,-0.999928219065,0.0,0.642577605757,0.236110737465,0.303720632522,1.0,-0.08758,-0.115105142857,1.176
0.448960667795,0.441308720808,-0.124780430067,-1.52148089301,0.0693000732258,1.95423399123,0.13552131146,-0.0765710925346,-0.438286362219,-0.00124600921394,-0.682214921436,-0.0436152363498,0.227289259147,-0.106312902205,0.573798049213,0.818980782238,0.00265027275047,0.0,0.81894507401,-0.573735041552,-0.0117394527514,0.0,-0.00809398768512,0.00890667438244,-0.999927576635,0.0,0.641032517004,0.234160081928,0.303739738146,1.0,-0.0941468571428,-0.123735869388,1.193
0.447595831935,0.433891052516,-0.124815491181,-1.53278724004,0.0685291448458,1.95812830611,0.133666177398,-0.0832834072114,-0.482860121335,-0.00261890324825,-0.70658026536,-0.0503220040837,0.26358344829,-0.119893280303,0.573705788478,0.819045438149,0.00264299359413,0.0,0.819009450239,-0.57364261557,-0.0117650721767,0.0,-0.00812015127564,0.00891449837188,-0.999927294788,0.0,0.639472107142,0.232176701031,0.303762095224,1.0,-0.100327428571,-0.131858906122,1.209
0.446025906591,0.425599316174,-0.124841551709,-1.5453817006,0.067638512139,1.96258297241,0.131604751869,-0.0902148242971,-0.497457777249,-0.000585169399838,-0.741470864545,-0.0468359919997,0.259557534837,-0.124624110843,0.573619379244,0.819105666332,0.00273167352984,0.0,0.819070951974,-0.573556034567,-0.0117046035821,0.0,-0.00802069370197,0.00895159422555,-0.999927766108,0.0,0.637634627848,0.229808827837,0.303795929905,1.0,-0.107280571429,-0.140997322449,1.227
0.444183503104,0.416311958842,-0.124972873691,-1.5594793364,0.0666234266151,1.96738693953,0.12930991747,-0.10058582066,-0.530287975964,-0.00696332242187,-0.813094012602,-0.0549908036487,0.280659015535,-0.124572378634,0.573652610704,0.819082558221,0.00268178142806,0.0,0.819047592646,-0.57358987796,-0.0116807441882,0.0,-0.00802940574048,0.00889736732305,-0.99992818017,0.0,0.635776171712,0.227339918886,0.303815145003,1.0,-0.113847428571,-0.14962804898,1.244
0.442535658539,0.408227934643,-0.125038979977,-1.57173030628,0.0658051727657,1.97165343803,0.127249379113,-0.106882891209,-0.537970938251,-0.00204096947915,-0.834964443549,-0.0488367571025,0.279266936195,-0.139574256801,0.57364033965,0.819090877341,0.00276446825756,0.0,0.819056690336,-0.573576991512,-0.0116756038761,0.0,-0.00797789883537,0.00896202614148,-0.999928015018,0.0,0.634055162968,0.225091450854,0.303826253074,1.0,-0.119641714286,-0.157243395918,1.259
0.440076525661,0.396823651207,-0.125183078015,-1.5888236633,0.0646338326829,1.97743427483,0.124369024658,-0.125538997435,-0.59593606503,-0.00795880513523,-0.857126325089,-0.0638229769515,0.304440884143,-0.148171773008,0.573758948263,0.819007572658,0.00283056858666,0.0,0.818973943968,-0.573695017913,-0.0116812852479,0.0,-0.00794333091411,0.00902057753136,-0.999927763728,0.0,0.63162496762,0.221820212287,0.303884568181,1.0,-0.127367428571,-0.167397191837,1.279
0.438120032337,0.388021955746,-0.12528719173,-1.60221548783,0.0635839744212,1.98197037267,0.122081394827,-0.128320876086,-0.604232900331,-0.00136744680146,-0.925006182349,-0.0644205522688,0.294392731791,-0.158250027461,0.57378547014,0.818989416488,0.00270496543149,0.0,0.818954814026,-0.573722708715,-0.0116624607349,0.0,-0.00799968583648,0.0089071664682,-0.999928331138,0.0,0.629692239192,0.219232753115,0.303819687095,1.0,-0.133161714286,-0.175012538775,1.294
0.43591031267,0.378116286215,-0.125373371616,-1.61685186081,0.0625023901026,1.98682753664,0.11944841511,-0.139897018219,-0.633987000521,-0.00243824878291,-0.925828293599,-0.0575353559724,0.310645795847,-0.15299133998,0.573747420204,0.819015807058,0.00278433132119,0.0,0.818982204043,-0.573684357817,-0.011625573436,0.0,-0.00792435365257,0.0089506328969,-0.999928542842,0.0,0.627536168647,0.216394671541,0.303906385168,1.0,-0.139342285714,-0.18313557551,1.31
0.433357437965,0.367369091547,-0.125499699019,-1.63298194526,0.0613020953762,1.99213303916,0.116617573491,-0.153783011642,-0.64081708711,-0.00763525630161,-0.947880107958,-0.0681690203322,0.296405657935,-0.162574886709,0.573861423451,0.818936273775,0.00268199038046,0.0,0.818901230904,-0.573798574646,-0.0116925899528,0.0,-0.00803671852095,0.00890638301345,-0.999928041159,0.0,0.625132222225,0.213182679206,0.303858728472,1.0,-0.145909142857,-0.191766302041,1.327
0.430475886959,0.355520358282,-0.125648823376,-1.65049099215,0.0599375597702,1.99790721275,0.11334316083,-0.167179807402,-0.657437496278,-0.007750774146,-1.00011237792,-0.0737860622802,0.310516950896,-0.191620868535,0.573874949533,0.818926692842,0.00271310731065,0.0,0.818892447843,-0.573812429498,-0.0116276188915,0.0,-0.0079655061477,0.00889471354221,-0.999928714851,0.0,0.622504184638,0.209632150171,0.303895021539,1.0,-0.152862285714,-0.200904718367,1.345
0.427726117792,0.344573918966,-0.125786330604,-1.6665863841,0.0587547236379,2.00312304132,0.110323072635,-0.17560727861,-0.700010847495,-0.0142850193986,-1.00242174352,-0.0805015581413,0.336374342531,-0.184184607743,0.573964428979,0.818863814804,0.00276296457247,0.0,0.818829769742,-0.573901225868,-0.0116592466861,0.0,-0.00796181975364,0.00895456291426,-0.999928210038,0.0,0.620038258112,0.206329007848,0.303924287354,1.0,-0.159042857143,-0.209027755102,1.361
0.424861852237,0.333395454709,-0.125856168424,-1.68309523837,0.0574422471062,2.00842610832,0.107191931318,-0.179945645999,-0.699956340826,-0.00115676744171,-1.05136242987,-0.0852256831912,0.338244342308,-0.198665341033,0.573953396353,0.818871763703,0.00269820812489,0.0,0.818836763819,-0.573890292657,-0.0117061143715,0.0,-0.0080374858176,0.00892832800872,-0.999927839287,0.0,0.617446828974,0.202956880303,0.303884736878,1.0,-0.165223428571,-0.217150791837,1.377
0.421464116499,0.320343006532,-0.12587547926,-1.70202567795,0.0558469682609,2.01444087754,0.103471217181,-0.198439420024,-0.722966701284,-0.00243894462227,-1.06379050065,-0.0922905338888,0.329233645862,-0.208629633378,0.573818541991,0.81896612286,0.00274178361787,0.0,0.818931978757,-0.573755627693,-0.011646491412,0.0,-0.00796512148918,0.00892847890571,-0.99992841699,0.0,0.614420157543,0.199066747751,0.303943108767,1.0,-0.172176571429,-0.226289208163,1.395
0.418253252732,0.308418623538,-0.125952612467,-1.71920914722,0.054478318999,2.01987028772,0.0999845495311,-0.206024192405,-0.775625985222,-0.0143476917816,-1.0801102321,-0.0941396360515,0.341363193504,-0.21811522554,0.573758085646,0.819008052823,0.00286626392017,0.0,0.818975217963,-0.573694411224,-0.0116216089384,0.0,-0.0078739833138,0.00901556479295,-0.999928357423,0.0,0.611643693275,0.195457749902,0.304005358758,1.0,-0.178357142857,-0.234412244898,1.411
0.414630692677,0.295507835708,-0.12605523168,-1.73802199558,0.0528823399165,2.0255357984,0.0961511210927,-0.224223814998,-0.77506734528,-0.0107783840313,-1.11359931467,-0.0861009323621,0.326083178451,-0.226773609952,0.573715500919,0.819038728894,0.00261370965122,0.0,0.819002318784,-0.573652388412,-0.0117849903429,0.0,-0.00815315970002,0.00890203729467,-0.999927137205,0.0,0.608507610534,0.19142717525,0.30391520003,1.0,-0.184924,-0.243042971429,1.428
0.410303141775,0.280553375381,-0.126206808622,-1.7592840389,0.0511436561826,2.03206828029,0.0916550347148,-0.229251555884,-0.814306297591,-0.00460732926194,-1.1435001153,-0.0835300241279,0.331680470681,-0.252661431385,0.573739871905,0.81902110017,0.00278276198345,0.0,0.818986478404,-0.573675691191,-0.0117514437265,0.0,-0.00802843203741,0.00902148994705,-0.99992707584,0.0,0.604966207083,0.186768143305,0.304000936175,1.0,-0.192263428571,-0.252689077551,1.447
0.406914877613,0.269271737339,-0.12633175259,-1.77520449613,0.049759525827,2.03688284157,0.0881651833278,-0.246304467673,-0.79871552863,-0.0127675103332,-1.1512139074,-0.0943280775866,0.353410407781,-0.2507561849,0.573731050121,0.81902693518,0.00288244306532,0.0,0.818993765951,-0.573666701142,-0.0116822187753,0.0,-0.00791464261655,0.0090633290441,-0.999927604629,0.0,0.602276664203,0.183196714205,0.304071997787,1.0,-0.197671428571,-0.259796734694,1.461
0.402508907025,0.255363203839,-0.12652023833,-1.79486224497,0.0480039571483,2.04267032067,0.0838453069523,-0.263079857867,-0.816559010281,-0.00874792404569,-1.15254146659,-0.105034091422,0.352898775244,-0.258983820888,0.573871838072,0.818928425697,0.00284498748354,0.0,0.818894920742,-0.573807771269,-0.0116832065401,0.0,-0.00793538679258,0.00903458295533,-0.99992770036,0.0,0.598902710168,0.178653851273,0.304085863674,1.0,-0.204238285714,-0.268427461224,1.478
0.397633191765,0.240331261588,-0.126667950534,-1.81613346299,0.0460968432471,2.0487788585,0.0789891324865,-0.275038809509,-0.872885825904,-0.0121763574835,-1.18686952343,-0.107705546547,0.334885722394,-0.278783330945,0.573877487774,0.818924991923,0.00268952259466,0.0,0.818889004806,-0.573813456804,-0.0118178466528,0.0,-0.00813480233768,0.00898458961016,-0.999926548373,0.0,0.595143270006,0.173744878543,0.304016138638,1.0,-0.211191428571,-0.277565877551,1.496
0.393437340452,0.227436252644,-0.126746946486,-1.83385934145,0.0445009282677,2.05401663826,0.0748119724782,-0.285596122271,-0.848458697555,-0.0051217979654,-1.20257129911,-0.115021047223,0.345733037754,-0.282612040228,0.573815860071,0.818967110999,0.00299611986167,0.0,0.81893520588,-0.573750870631,-0.0116539230584,0.0,-0.00782530398113,0.00914100991146,-0.999927600657,0.0,0.591997989598,0.16965131827,0.304148523416,1.0,-0.216985714286,-0.28518122449,1.511
0.388051774868,0.211682272343,-0.126864924324,-1.85556526511,0.0424426558387,2.0600971684,0.0695292282672,-0.297008366043,-0.885406062475,-0.0086141233223,-1.20027742593,-0.107901069039,0.337896039216,-0.296055974161,0.573742198756,0.81901856191,0.00303834065469,0.0,0.818987233477,-0.573677112745,-0.0116287838848,0.0,-0.00778131317415,0.00916046260935,-0.999927765936,0.0,0.588041549168,0.164499716311,0.304197056382,1.0,-0.223938857143,-0.294319640816,1.529
0.382615128981,0.196579520095,-0.127033451766,-1.87630471161,0.0404541385638,2.06575531097,0.0642963598872,-0.33016121399,-0.924008393481,-0.00730349509982,-1.21737948431,-0.116466386613,0.338304446723,-0.32142944246,0.57375329566,0.819010921231,0.0030022533128,0.0,0.818978954865,-0.573688129342,-0.0116682750117,0.0,-0.00783423841305,0.0091536697595,-0.999927414885,0.0,0.58420018975,0.159421611001,0.304196665537,1.0,-0.230505714286,-0.302950367347,1.546
0.377534643213,0.183066733774,-0.12724569217,-1.89484442365,0.0386989445813,2.07068928648,0.0595077970865,-0.347634191569,-0.910829610801,-0.0148193469628,-1.22832044158,-0.116621710439,0.323729650322,-0.324846673182,0.573885432837,0.818918585219,0.0029338814548,0.0,0.818885060412,-0.57381970871,-0.011787562549,0.0,-0.00796968848523,0.00916739862872,-0.999926218712,0.0,0.580485978855,0.154451682171,0.304153448701,1.0,-0.236686285714,-0.311073404082,1.562
0.371127196607,0.166480982333,-0.127440500091,-1.91725181777,0.0364553201106,2.07657957833,0.053549254035,-0.360521479243,-0.921209447173,-0.00876307802875,-1.2648600815,-0.134095023316,0.31905505603,-0.342997530356,0.573965228495,0.818862776951,0.00290101783392,0.0,0.818828764127,-0.573899541891,-0.0118117635313,0.0,-0.00800747484871,0.00915515466691,-0.999926029009,0.0,0.576423532231,0.149070546892,0.30414392329,1.0,-0.243253142857,-0.319704130612,1.579
0.36491521408,0.150478171925,-0.127594863092,-1.93849190681,0.0342666230444,2.08209827951,0.0476276294356,-0.370640101268,-0.934366006235,-0.0111750010247,-1.26830602855,-0.13970190133,0.321869153526,-0.352755124873,0.573843624496,0.818947401226,0.00306521634006,0.0,0.818915845025,-0.573777755992,-0.0116906970157,0.0,-0.00781546345821,0.00921896367131,-0.999926961953,0.0,0.572275685706,0.143673275374,0.304234473141,1.0,-0.24982,-0.328334857143,1.596
0.358709341145,0.13517114801,-0.127746901149,-1.95869969563,0.0322070532082,2.08709480155,0.0418386091374,-0.396465943448,-0.977436539017,-0.00710763187305,-1.27022903634,-0.125738963144,0.31917555629,-0.373158404374,0.573815224461,0.818967062662,0.00312815486451,0.0,0.818935800519,-0.573748526332,-0.0117273211455,0.0,-0.00780966586804,0.00929125230894,-0.999926338162,0.0,0.568233979819,0.138427563548,0.304277668033,1.0,-0.256000571429,-0.336457893878,1.612
0.351726891151,0.118685473676,-0.128000701301,-1.98027423181,0.0298740902147,2.09233580886,0.0354340130136,-0.419026293623,-0.995157006372,-0.0196869287739,-1.25707727706,-0.143492647953,0.315338541457,-0.379864330324,0.573869212014,0.818929046002,0.00317679370831,0.0,0.81889870357,-0.573802687932,-0.0116677125231,0.0,-0.00773232478791,0.00929739224446,-0.999926882152,0.0,0.563872618553,0.132631248225,0.304323534881,1.0,-0.262567428571,-0.345088620408,1.629
0.343895528476,0.101004356316,-0.128220937186,-2.00327942357,0.0273277925526,2.09769688133,0.028277276257,-0.441334493284,-1.00090362434,-0.00601968132366,-1.25530104337,-0.148666332946,0.30094155321,-0.399418583714,0.573858283174,0.818936860802,0.00313620066738,0.0,0.818905993783,-0.573791898389,-0.0116866415085,0.0,-0.0077712445962,0.00927490812711,-0.999926789238,0.0,0.559111282403,0.126341679889,0.304322532934,1.0,-0.269520571429,-0.354227036735,1.647
0.337192062856,0.0860090783639,-0.128367519476,-2.02267061575,0.0252578023774,2.102080281,0.0220578693663,-0.456793848321,-0.999544884,-0.015169492079,-1.30850141142,-0.127773721103,0.277424805817,-0.41890956702,0.573738801613,0.819020551323,0.00314180433263,0.0,0.818988782328,-0.573671253064,-0.0118074014692,0.0,-0.00786829312164,0.00934764684497,-0.999925352945,0.0,0.554988207186,0.121091669528,0.304289913161,1.0,-0.275314857143,-0.361842383673,1.662
0.328647279514,0.0676813736302,-0.128596617331,-2.04580628029,0.022597743566,2.1072014272,0.0142783551138,-0.487022533007,-1.01859880904,-0.0136755345709,-1.29710716052,-0.154080560962,0.283382162375,-0.437547781043,0.573664190214,0.819072070933,0.00332962230971,0.0,0.819043180859,-0.573596546144,-0.0116626344137,0.0,-0.00764282541303,0.00941772149464,-0.999926444166,0.0,0.550026832263,0.114571631837,0.304397853275,1.0,-0.27998,-0.367973714286,1.68
0.320137234123,0.0504884184337,-0.128904271916,-2.06741297048,0.0200500860865,2.11165093259,0.0067252728084,-0.501285087834,-1.00302824591,-0.0109304551177,-1.2769964243,-0.146499760696,0.257919256051,-0.447335309196,0.573792428377,0.818982335303,0.00330613077025,0.0,0.818953061547,-0.573724746846,-0.0116852360193,0.0,-0.00767334058004,0.00941264709047,-0.999926258241,0.0,0.545287679673,0.108228263108,0.304421042037,1.0,-0.27998,-0.367973714286,1.697
0.311969729637,0.0344034911765,-0.12906726184,-2.0874508391,0.0177469500467,2.11563647242,-0.000514442456304,-0.520440919677,-1.0073886951,-0.0135415424864,-1.23250980252,-0.14506826809,0.258224061128,-0.465332057282,0.573826766016,0.818958082892,0.00335379946,0.0,0.818928567471,-0.573757861784,-0.0117755816016,0.0,-0.00771958755233,0.0095038490743,-0.999925039601,0.0,0.540784112819,0.102366541661,0.304426769869,1.0,-0.27998,-0.367973714286,1.713
0.303044599204,0.0174823956129,-0.129256217562,-2.10824300488,0.0151652521897,2.11957173675,-0.00840766764764,-0.53343161237,-0.997725902168,-0.00914379416799,-1.20415445061,-0.149991650929,0.234290480657,-0.462733600266,0.573808154878,0.818971142771,0.00334897055561,0.0,0.81894165905,-0.573739385989,-0.0117653278275,0.0,-0.00771417618746,0.00949383534088,-0.999925176489,0.0,0.536027299973,0.096107131839,0.304456709753,1.0,-0.27998,-0.367973714286,1.73
0.29377175598,0.000629408677273,-0.129527087436,-2.1287272774,0.0126316696812,2.12321461339,-0.0165070515144,-0.551183703739,-0.986035010039,-0.000496600468062,-1.1933477331,-0.146575201138,0.200100508229,-0.483618267103,0.573946672584,0.818874075981,0.00334837519794,0.0,0.818844120266,-0.57387731574,-0.0118270912393,0.0,-0.00776349131074,0.00953010049041,-0.99992444984,0.0,0.53124728743,0.0897473085345,0.304477834565,1.0,-0.27998,-0.367973714286,1.747
0.284984418134,-0.0150399505821,-0.129653281023,-2.14744478283,0.0102779044316,2.12657521304,-0.02429460677,-0.556524483931,-0.971182558288,-0.0102232346094,-1.17015272319,-0.157040242405,0.188555895425,-0.493792658743,0.573859234152,0.818934397694,0.00357471014286,0.0,0.818907745149,-0.573789584384,-0.0116775292441,0.0,-0.00751214356294,0.00962880119571,-0.999925424163,0.0,0.5268201603,0.0839362686718,0.304566273796,1.0,-0.27998,-0.367973714286,1.763
0.275338806617,-0.0315652905063,-0.129872813091,-2.16699508557,0.00765983367051,2.12971764593,-0.0327293480023,-0.578328476907,-0.959918042803,-0.0147135304276,-1.15420401169,-0.152228921945,0.189701743051,-0.491638923542,0.573875366151,0.818923048485,0.00358492483585,0.0,0.818897033686,-0.57380633111,-0.011605580535,0.0,-0.00744716820485,0.00959602584621,-0.999926225265,0.0,0.521797153379,0.0772805627757,0.304620083969,1.0,-0.27998,-0.367973714286,1.781
0.26477180235,-0.0488674082098,-0.130116701084,-2.18736479835,0.00506782314564,2.1327645217,-0.0419215459294,-0.59080534865,-0.970943854183,-0.010647705124,-1.09495706318,-0.145764729442,0.169411303311,-0.508347746226,0.573991464898,0.818841456874,0.00363505573271,0.0,0.818815069359,-0.573920933325,-0.0117214070413,0.0,-0.00751188406651,0.00970461285405,-0.999924693208,0.0,0.517024102894,0.0709768841476,0.30462671011,1.0,-0.27998,-0.367973714286,1.798
0.255286357294,-0.0640470385765,-0.130277404964,-2.20512017655,0.00265757960428,2.13531388282,-0.0502721326072,-0.598778001592,-0.954558091957,-0.0100683639683,-1.11862768127,-0.15428037644,0.150179448616,-0.529414256688,0.573904296222,0.818902745734,0.00359147712649,0.0,0.818875642962,-0.573833729392,-0.0117592209402,0.0,-0.00756889332679,0.00968982711816,-0.999924406695,0.0,0.512527451111,0.0651319977442,0.304589968004,1.0,-0.27998,-0.367973714286,1.814
0.244846439069,-0.0801194114512,-0.130532649926,-2.22348421156,0.000118052685993,2.13773855155,-0.0593831043206,-0.626593548058,-0.931270157104,-0.0181503859512,-1.07733988406,-0.149259832497,0.144973784718,-0.55247308852,0.573955576525,0.818866418782,0.003678487214,0.0,0.818840632938,-0.573884957932,-0.0116970000424,0.0,-0.00746739582562,0.00972584045406,-0.999924820188,0.0,0.507798807212,0.0588284232322,0.304645930011,1.0,-0.27998,-0.367973714286,1.831
0.234287210587,-0.095956328009,-0.13067873398,-2.24153647114,-0.00233120074751,2.13985437357,-0.0687082195874,-0.629614844915,-0.939466581394,-0.00923639904492,-1.03975561097,-0.154182021045,0.134687535999,-0.549570153164,0.573845635326,0.818943580179,0.00365324551989,0.0,0.818916496183,-0.573773860432,-0.0118353819427,0.0,-0.00759651953245,0.00978357365521,-0.999923284346,0.0,0.503013578393,0.0526579739933,0.304617755906,1.0,-0.27998,-0.367973714286,1.848
0.224059927389,-0.110710960319,-0.130887007013,-2.25828416715,-0.00476592941089,2.1416301087,-0.0776166654105,-0.649667618114,-0.914337172718,-0.0113042113276,-1.05838960163,-0.150360147939,0.0918747806336,-0.56228190577,0.573840423894,0.818948030565,0.0034695879589,0.0,0.818918010879,-0.573768617928,-0.0119837990862,0.0,-0.00782351859934,0.00971828352442,-0.999922170732,0.0,0.498482268683,0.0467707094246,0.304534800569,1.0,-0.27998,-0.367973714286,1.864
0.212151711919,-0.127303021163,-0.131178956213,-2.27660194936,-0.00738216584441,2.14344679472,-0.0879666232626,-0.659513166578,-0.928850237088,-0.0110281555622,-1.0143807393,-0.143307615684,0.0937369092186,-0.573068154504,0.573965544166,0.818859882795,0.00357678060055,0.0,0.818831014071,-0.573893016505,-0.0119717543562,0.0,-0.00775064918477,0.0098003420769,-0.999921937319,0.0,0.493451925444,0.0400819834711,0.304576761598,1.0,-0.27998,-0.367973714286,1.882
0.200780548997,-0.142826199307,-0.131398478626,-2.29350713901,-0.00985188709783,2.14489639707,-0.0980163764492,-0.681705298821,-0.925119988218,-0.0175775872748,-0.977755571232,-0.146665178201,0.0918826161309,-0.598012037548,0.573885782396,0.818915420542,0.0036591889331,0.0,0.818887465466,-0.573812762057,-0.0119574204971,0.0,-0.00769257483228,0.00985884738185,-0.999921810654,0.0,0.488689296753,0.0338680297568,0.304620670313,1.0,-0.27998,-0.367973714286,1.899
0.18966857426,-0.15720377327,-0.131699102416,-2.30913152331,-0.0122428615134,2.1460705903,-0.107678586914,-0.69796721438,-0.908131749741,-0.0179028740872,-0.975341231624,-0.151101092511,0.060012356438,-0.599960857107,0.574000700001,0.818835117456,0.00360468034955,0.0,0.818806266184,-0.573927625849,-0.0120052341441,0.0,-0.00776163111098,0.0098427371634,-0.999921435718,0.0,0.484196493052,0.0278871989464,0.304592100172,1.0,-0.27998,-0.367973714286,1.915
0.17715873968,-0.173293237319,-0.131859580547,-2.32616599981,-0.0146999192336,2.14713361832,-0.118811625754,-0.701925423076,-0.885854740125,-0.0103982760704,-0.947716330775,-0.139505415431,0.0530805854896,-0.621818257646,0.573858102695,0.818934177443,0.00379972219739,0.0,0.81890731178,-0.573783612939,-0.0119969636204,0.0,-0.00764465238697,0.00999636753255,-0.999920812828,0.0,0.479177463195,0.0214112655782,0.304665794792,1.0,-0.27998,-0.367973714286,1.933
0.165572025724,-0.18736981279,-0.132169819305,-2.34105475749,-0.017048953493,2.14783374672,-0.128946840215,-0.737848180389,-0.871120800453,-0.0256488322473,-0.915925992548,-0.146507521293,0.0393274097899,-0.646382855162,0.573955439776,0.818866241925,0.00373870136648,0.0,0.818838177872,-0.573880640165,-0.0120746098969,0.0,-0.00774207115426,0.00999187182253,-0.999920108225,0.0,0.474680472846,0.0154551579,0.304646837273,1.0,-0.27998,-0.367973714286,1.949
0.153854977212,-0.201344175308,-0.132317787092,-2.35550415829,-0.0193093558084,2.14851041483,-0.139375878246,-0.734911342032,-0.849431850808,-0.01623728141,-0.907426533335,-0.132575093349,0.0235434225997,-0.661311889944,0.57381180531,0.818966143118,0.00390069405462,0.0,0.81894089419,-0.573737356586,-0.011916559114,0.0,-0.0075214293719,0.0100324933319,-0.999921385499,0.0,0.470253214946,0.00964287322827,0.304715272519,1.0,-0.27998,-0.367973714286,1.965
0.141090538788,-0.216011756365,-0.132639539643,-2.37056264994,-0.0216210174205,2.14886725209,-0.150682246775,-0.774812854877,-0.864569540509,-0.0265271989471,-0.868335181686,-0.147414458296,0.0267360386871,-0.670650161378,0.573915197158,0.818893253533,0.00399157748784,0.0,0.818868442423,-0.57383940631,-0.0119815137102,0.0,-0.00752120109493,0.010145144969,-0.999920250604,0.0,0.46521328851,0.0029960273049,0.304736612432,1.0,-0.27998,-0.367973714286,1.983
0.127309385302,-0.231302238261,-0.132875907047,-2.38619591778,-0.024200689214,2.14911710602,-0.162900541308,-0.761562955003,-0.849299312381,-0.0126797216265,-0.869242935423,-0.142068243977,0.00413039858801,-0.680155152343,0.573812817098,0.818965248852,0.00393941713505,0.0,0.818939572551,-0.573736984712,-0.0120247987126,0.0,-0.00758784905111,0.0101263231721,-0.999919937858,0.0,0.460436044841,-0.00319307427561,0.304703274362,1.0,-0.27998,-0.367973714286,2.0
0.114671973886,-0.244803528935,-0.13321329077,-2.39960470481,-0.026401640572,2.14922714467,-0.174130489309,-0.793541934205,-0.853585911149,-0.0311509612999,-0.842081360687,-0.120836283905,0.00952854819268,-0.718449144092,0.573894700465,0.818906910631,0.00413417468287,0.0,0.818884373837,-0.573818979658,-0.0118704578997,0.0,-0.00734867359288,0.0101980002703,-0.999920995773,0.0,0.456004954317,-0.00913843131569,0.304779325194,1.0,-0.27998,-0.367973714286,2.016
0.101067042561,-0.258891634293,-0.13345751149,-2.41370402275,-0.0286911286685,2.14913927177,-0.186313207796,-0.804021650441,-0.821638482078,-0.0178480533937,-0.859683113888,-0.121981431154,-0.0155784022582,-0.718147804989,0.573834276424,0.81894915112,0.00415427261882,0.0,0.818926254194,-0.573757632296,-0.0119464000708,0.0,-0.0074000910499,0.0102574942437,-0.999920008033,0.0,0.451214690028,-0.0153480222522,0.304731586373,1.0,-0.27998,-0.367973714286,2.033
0.0870719008917,-0.272837518499,-0.133834155424,-2.42713917906,-0.0310006898641,2.14893370134,-0.19874627821,-0.837150990017,-0.811158705046,-0.0250467239904,-0.780270235889,-0.136014909138,-0.0196705135625,-0.735284051593,0.573978094221,0.818847094644,0.00439657226804,0.0,0.818828615356,-0.573902420441,-0.0116814976361,0.0,-0.00704229252007,0.0103051613397,-0.999922101849,0.0,0.446536660804,-0.0216695380953,0.304844743995,1.0,-0.27998,-0.367973714286,2.05
0.0737981209627,-0.285694346111,-0.134026853625,-2.43966962852,-0.0331151132586,2.14845854312,-0.210778490594,-0.842581467114,-0.826271033908,-0.0164158270569,-0.784385508819,-0.119472384743,-0.0327209279973,-0.751855210245,0.573809523887,0.818965375956,0.0043692313135,0.0,0.818945961877,-0.573733120433,-0.0117713611621,0.0,-0.00713370185008,0.0103328824246,-0.999921167812,0.0,0.442030865632,-0.0274630097023,0.304806299739,1.0,-0.27998,-0.367973714286,2.066
0.057500514182,-0.300782004811,-0.134411800064,-2.45385745218,-0.0356205335661,2.14781117207,-0.225433448333,-0.866177798481,-0.781256589904,-0.013631616763,-0.739305624544,-0.134901309797,-0.0416683934801,-0.786024032597,0.573868749279,0.818922698176,0.00458474804667,0.0,0.818907240866,-0.573793397091,-0.0115245482791,0.0,-0.00680714707416,0.0103682611011,-0.999923077997,0.0,0.436784886198,-0.0345062615164,0.304916519534,1.0,-0.27998,-0.367973714286,2.085
0.0436763720637,-0.313170433936,-0.134620130949,-2.4656769055,-0.0376546307931,2.14699321908,-0.237984138914,-0.872126291921,-0.769893318206,-0.0204024468601,-0.72193353941,-0.132681727332,-0.0600035286705,-0.799462077375,0.573758379812,0.819000390208,0.0045198823487,0.0,0.818983069947,-0.573681701321,-0.011695452522,0.0,-0.00698574088078,0.0104122714804,-0.999921388924,0.0,0.432264450532,-0.0402894730917,0.304852912307,1.0,-0.27998,-0.367973714286,2.101
0.0302981026953,-0.324629029406,-0.134960016806,-2.47622369416,-0.0395398698261,2.14621816506,-0.250073818266,-0.879035382356,-0.762087440461,-0.0177250851817,-0.690365383322,-0.12084632692,-0.0445329856931,-0.813585839319,0.573857146473,0.818930266889,0.00468404920752,0.0,0.8189156154,-0.573780770721,-0.0115580666957,0.0,-0.0067777637724,0.0104687217674,-0.999922230867,0.0,0.428117038289,-0.0458587824244,0.304920229673,1.0,-0.27998,-0.367973714286,2.116
0.0141259057606,-0.338061843964,-0.135214575016,-2.48867586502,-0.0417448320267,2.14510672481,-0.264934768869,-0.908134527885,-0.761317511101,-0.0187090405372,-0.680005431014,-0.129848051557,-0.0774014093449,-0.836256036852,0.573680103367,0.819054183418,0.00470430948702,0.0,0.819039332934,-0.573602983295,-0.0116161767884,0.0,-0.00681600346693,0.0105171864933,-0.999921462358,0.0,0.423077934537,-0.0523863972311,0.304891013872,1.0,-0.27998,-0.367973714286,2.134
-0.00161356744703,-0.350477294868,-0.135557348826,-2.49995813075,-0.0438544214502,2.14383503228,-0.279204897039,-0.926677553846,-0.741640335243,-0.0143691126241,-0.63736875454,-0.132237118412,-0.0719017772477,-0.848830478308,0.573768773535,0.818992124423,0.00469484299412,0.0,0.818976816084,-0.57369115234,-0.0116697620005,0.0,-0.00686418544179,0.0105409155431,-0.999920882899,0.0,0.418312974061,-0.0586688622269,0.304892048476,1.0,-0.27998,-0.367973714286,2.151
-0.0166401997082,-0.361948781649,-0.135926006285,-2.51018932165,-0.0457560365921,2.14269457382,-0.293013104526,-0.947536778104,-0.710146839979,-0.0332015456682,-0.650140876243,-0.116556034016,-0.0874617014069,-0.862868949083,0.573791118577,0.818975571482,0.00484896464405,0.0,0.818962754935,-0.573713798226,-0.0115425584381,0.0,-0.00667128391274,0.0105943429349,-0.999921623863,0.0,0.413874224647,-0.0645733246742,0.304938697255,1.0,-0.27998,-0.367973714286,2.167
-0.0328395880121,-0.373788534049,-0.136201832219,-2.52086761918,-0.0477606002395,2.14121388285,-0.307990887706,-0.953148005924,-0.680936106757,-0.018414388497,-0.626361356398,-0.113741324095,-0.0932099799328,-0.888305109681,0.573667450556,0.819062725992,0.00475961796248,0.0,0.819047595439,-0.573588618415,-0.0117422371056,0.0,-0.00688769865121,0.0106346976224,-0.999919728185,0.0,0.40906562322,-0.0707649524739,0.304865218956,1.0,-0.27998,-0.367973714286,2.184
-0.0494611024065,-0.385387207355,-0.136573723245,-2.5308523494,-0.0497452078288,2.13977125592,-0.323236794191,-0.979443611076,-0.670920835363,-0.0161152650852,-0.585199550231,-0.118450688672,-0.0798287921575,-0.90966404434,0.573765524795,0.818993170079,0.00490477538602,0.0,0.818981153877,-0.573688170593,-0.0115108391344,0.0,-0.00661361434716,0.0106216457615,-0.999921717309,0.0,0.404372164594,-0.0770741454522,0.304963978561,1.0,-0.27998,-0.367973714286,2.201
-0.0652374196098,-0.395967028989,-0.136860281342,-2.54011314438,-0.0515548764165,2.13824884562,-0.337965639108,-0.999213321954,-0.650459825698,-0.0244381437176,-0.561682420153,-0.119688579359,-0.0971105775348,-0.932516632736,0.573628576832,0.819089291277,0.0048719255473,0.0,0.819076270816,-0.573550419131,-0.0116071616836,0.0,-0.00671313614621,0.0106488832706,-0.999920764405,0.0,0.399870967721,-0.0829106446303,0.304931023205,1.0,-0.27998,-0.367973714286,2.217
-0.0823198958361,-0.406873517344,-0.137194509706,-2.54953998127,-0.0532782113534,2.13647865717,-0.353836850319,-1.00388614439,-0.635191793725,-0.0189318578284,-0.540133189344,-0.0844049440952,-0.102316093515,-0.942431727943,0.573680992514,0.819052216189,0.00493283748111,0.0,0.81903831361,-0.573599981982,-0.0118342051007,0.0,-0.00686348856768,0.0108294499201,-0.999917804391,0.0,0.395076563529,-0.08911692093,0.304896358284,1.0,-0.27998,-0.367973714286,2.234
-0.100811282073,-0.418078459547,-0.137617878567,-2.5588589998,-0.055243296403,2.13484710032,-0.371043933952,-1.03013626241,-0.60187959745,-0.0195492563101,-0.512455487443,-0.106042937132,-0.0947966942403,-0.951147701529,0.573745045419,0.819006293039,0.00510506817759,0.0,0.818996487018,-0.573666491515,-0.0115003333171,0.0,-0.00649036376795,0.0107794997035,-0.999920835649,0.0,0.390119241859,-0.0958080186282,0.305001402973,1.0,-0.27998,-0.367973714286,2.252
-0.117428778227,-0.427618213636,-0.137896479561,-2.56702861815,-0.0568959943751,2.1330560927,-0.386673336451,-1.04925961205,-0.589010301114,-0.0194360651891,-0.506055847428,-0.0981952299675,-0.112780156584,-0.980101765869,0.573641787276,0.819079272791,0.00499916756369,0.0,0.819066405145,-0.573560832293,-0.0117873883363,0.0,-0.00678760944053,0.0108565977408,-0.999918027962,0.0,0.385574395729,-0.101643092811,0.30492043379,1.0,-0.27998,-0.367973714286,2.268
-0.135333765878,-0.437380506776,-0.138245500656,-2.57523565511,-0.0585876108759,2.13129162214,-0.403486768782,-1.0484104959,-0.573672546084,-0.0170167330359,-0.469423079394,-0.0838085173317,-0.111654744906,-0.999563813961,0.573647774944,0.819075006087,0.00501114836014,0.0,0.819061595876,-0.573565663191,-0.0118860873069,0.0,-0.00686150650594,0.0109230770125,-0.999916799597,0.0,0.380802632105,-0.107867278721,0.304881859675,1.0,-0.27998,-0.367973714286,2.285
-0.156886543546,-0.448457558116,-0.138653403099,-2.58405219779,-0.0604474701838,2.12929643487,-0.423756321863,-1.07783168345,-0.542982021413,-0.0109643114962,-0.440442034805,-0.0968758860567,-0.100233047168,-1.0195483203,0.573737805591,0.8190104029,0.00525711690251,0.0,0.819002000679,-0.573657856542,-0.0115383453355,0.0,-0.00643436232956,0.0109257845491,-0.999919609875,0.0,0.375299013691,-0.115279686767,0.30502708761,1.0,-0.27998,-0.367973714286,2.305
-0.171004054321,-0.455242014498,-0.138893847765,-2.58975354374,-0.0616696964335,2.12782498047,-0.437134457821,-1.09593430619,-0.518260410852,-0.0280581411623,-0.439685588525,-0.0894828400001,-0.113757519968,-1.03588423806,0.57369251078,0.81904272591,0.00516363339245,0.0,0.819031504582,-0.573610191415,-0.011810576153,0.0,-0.00671158296709,0.0110050293944,-0.99991691854,0.0,0.371601403422,-0.120021605932,0.30493928693,1.0,-0.27998,-0.367973714286,2.318
-0.189649968566,-0.463795173113,-0.139206482903,-2.5966854522,-0.063170796242,2.12603208007,-0.454951356514,-1.09458670812,-0.491333016949,-0.0188808651432,-0.403925535446,-0.0837697701067,-0.0977063321521,-1.0475048911,0.573581530538,0.819120231092,0.00519824420108,0.0,0.819109023772,-0.573498394645,-0.0118636172889,0.0,-0.00673667393279,0.0110628934901,-0.999916111287,0.0,0.366849505951,-0.126228760716,0.304929353179,1.0,-0.27998,-0.367973714286,2.335
-0.208717940738,-0.471919848924,-0.139562243156,-2.60314547852,-0.0647111098912,2.12434760309,-0.472999045348,-1.11910741199,-0.479448197887,-0.0146171736877,-0.370517855747,-0.0926886758399,-0.0987119758029,-1.05887947199,0.573666923693,0.819060237582,0.00522826680158,0.0,0.819050153018,-0.573584879913,-0.0117464580917,0.0,-0.00662232947013,0.0110209793896,-0.999917337966,0.0,0.361825728613,-0.132908566422,0.304960916044,1.0,-0.277721714286,-0.365005681633,2.353
-0.226669412018,-0.478988848822,-0.139812204578,-2.60864426841,-0.065802601594,2.12278816684,-0.490080602318,-1.12263117809,-0.425695467811,-0.0219643273976,-0.335530933808,-0.0787673327501,-0.0876262726537,-1.06800321265,0.573780194624,0.818979582254,0.0054294576647,0.0,0.818972221465,-0.573697653677,-0.0116725976446,0.0,-0.00644487610368,0.0111442949155,-0.999917130698,0.0,0.357732411529,-0.138369514376,0.305010667008,1.0,-0.271927428571,-0.357390334694,2.368
-0.246645389748,-0.486326169236,-0.139869542753,-2.61455667607,-0.0670307968382,2.12098787002,-0.509186022456,-1.11095391468,-0.392238052485,-0.00362901580756,-0.317877155077,-0.0689811267392,-0.0983725819741,-1.06548976383,0.573676318277,0.819052561484,0.00539724708165,0.0,0.81904337564,-0.573591502898,-0.0118946847243,0.0,-0.00664668489572,0.0112444949,-0.999914687818,0.0,0.352833122006,-0.144679844243,0.304948143892,1.0,-0.264974285714,-0.348251918367,2.386
-0.265533494091,-0.492596978039,-0.139956912127,-2.61955192015,-0.06803630778,2.11945398996,-0.527097811625,-1.09783676668,-0.353225424998,-0.000821535216543,-0.277164273863,-0.0482722061198,-0.0835036406019,-1.03785072547,0.573824879684,0.818948063414,0.00546111587256,0.0,0.818938686642,-0.573738063719,-0.0120336471133,0.0,-0.00672181136846,0.011377744224,-0.999912678282,0.0,0.348305625893,-0.150610014781,0.304907398761,1.0,-0.258407428571,-0.339621191837,2.403
-0.281989854871,-0.497688881886,-0.1399447663,-2.6234569041,-0.068846830665,2.11826659667,-0.542720893852,-1.08678086816,-0.327197571925,0.00830699602682,-0.248093456536,-0.047824998094,-0.0736968742332,-1.02989485849,0.573916653016,0.818883216971,0.0055406908122,0.0,0.818875399528,-0.573830406755,-0.0119369691143,0.0,-0.00659569379427,0.0113881800215,-0.99991339934,0.0,0.344199655623,-0.156053801714,0.304937814684,1.0,-0.252226857143,-0.331498155102,2.419
-0.301250540416,-0.503162366831,-0.139801366574,-2.62765196758,-0.0696246805061,2.11686765498,-0.561191683655,-1.07464224964,-0.296871281127,0.0022194183343,-0.220165203134,-0.0340361260629,-0.0759157693185,-1.02246879646,0.573896076365,0.818897009394,0.00563280027696,0.0,0.818890393599,-0.573809490563,-0.0119138034675,0.0,-0.00652414938279,0.0114501515513,-0.999913160982,0.0,0.339979719076,-0.161609817116,0.304963010468,1.0,-0.24566,-0.322867428572,2.436
-0.319200968337,-0.50773561624,-0.139667844794,-2.63112194394,-0.0703192434258,2.11574041171,-0.578448305014,-1.0412011284,-0.261833908235,0.0111319598082,-0.193554701317,-0.035256542952,-0.0611616259009,-1.01013259135,0.573869862908,0.818914915048,0.00569993496858,0.0,0.818909746792,-0.573784051204,-0.0118083062074,0.0,-0.00639958950877,0.0114443837061,-0.999914031973,0.0,0.335875176886,-0.167073211822,0.304994116952,1.0,-0.239093142857,-0.314236702041,2.453
-0.336890753903,-0.511887380617,-0.139494643688,-2.63427819246,-0.070944855466,2.11464092467,-0.595370185779,-1.0307319756,-0.231790880932,0.0171067989503,-0.175489321259,-0.0387042529791,-0.0681775785325,-1.00009570043,0.573923336207,0.818877191304,0.00573555760771,0.0,0.818872616018,-0.57383761918,-0.0117801719566,0.0,-0.00635535776293,0.0114578272516,-0.999914160127,0.0,0.331826518464,-0.172391486128,0.305008993238,1.0,-0.232526285714,-0.30560597551,2.47
-0.356106609303,-0.515793095537,-0.139268790252,-2.63741841787,-0.071406429411,2.1134987923,-0.61395705633,-1.01763102514,-0.187310576926,0.00665623054223,-0.157900177204,-0.03307765605,-0.0531864339242,-0.97202526213,0.573897759914,0.818894424008,0.00583355770601,0.0,0.818889400083,-0.5738085702,-0.0120258928373,0.0,-0.00650071634063,0.0116788963854,-0.999910668043,0.0,0.327431810474,-0.178082199816,0.30493310074,1.0,-0.225186857143,-0.295959869388,2.489
-0.370011103903,-0.518315072931,-0.139028678059,-2.63943445137,-0.0717647939215,2.11280279511,-0.627328448065,-0.978182075698,-0.172297238322,0.0158279820267,-0.132640549568,-0.0193618750071,-0.0472072107857,-0.948589398565,0.573886547691,0.818902193889,0.00584586385308,0.0,0.818896782493,-0.573796326982,-0.012107091513,0.0,-0.00656031490108,0.0117354819956,-0.999909616281,0.0,0.324078771182,-0.182459018226,0.304893431288,1.0,-0.219392571429,-0.288344522449,2.504
-0.386592269104,-0.520954438736,-0.138830143331,-2.64147959331,-0.0721076249096,2.11203272496,-0.643279092342,-0.970268390881,-0.150530886726,0.0182349395994,-0.116067552231,-0.0201971109471,-0.0491710205797,-0.927702674241,0.574002020827,0.818820833679,0.00590502499097,0.0,0.818815759811,-0.57391074369,-0.0121637438409,0.0,-0.00657109610237,0.0118173685912,-0.999908581069,0.0,0.320579979577,-0.187072510523,0.304873341695,1.0,-0.213212,-0.280221485714,2.52
-0.402591606728,-0.523277906609,-0.138482319413,-2.64320884388,-0.0723521717384,2.11134781829,-0.658884484092,-0.937554447364,-0.133454597863,0.0168234293426,-0.0906196361216,-0.01439962004,-0.03949247467,-0.911628715633,0.573871713522,0.81891175991,0.00596093958527,0.0,0.818907542269,-0.57378044957,-0.0121317685073,0.0,-0.00651470273227,0.0118437651959,-0.999908637764,0.0,0.317032239336,-0.191729973685,0.304890684972,1.0,-0.206645142857,-0.271590759184,2.537
-0.418389685389,-0.525206559272,-0.138243197367,-2.64461565754,-0.0725855835828,2.11076446357,-0.674114306777,-0.902260762068,-0.0994178090965,0.0229257686148,-0.0789486010564,-0.0120893954843,-0.0279876573194,-0.901589259355,0.573984948018,0.818831869316,0.0060329214832,0.0,0.818828851158,-0.573893828205,-0.0120802881076,0.0,-0.00642959227734,0.0118740623212,-0.999908829338,0.0,0.313538283267,-0.196357500069,0.304914273579,1.0,-0.200078285714,-0.262960032653,2.554
-0.433677189976,-0.526767821657,-0.137986498786,-2.64577417143,-0.0727455692995,2.11030066829,-0.688928401886,-0.893907059482,-0.079380105802,0.00650893598891,-0.0658102677783,-0.010392585517,-0.0262751637612,-0.870782465388,0.574054458724,0.818782544493,0.0061131132719,0.0,0.818780797214,-0.573963402695,-0.0120318486101,0.0,-0.00634288644556,0.0119124654514,-0.999908926332,0.0,0.310168546996,-0.200811092326,0.304926016412,1.0,-0.193511428571,-0.254329306123,2.571
-0.449314388885,-0.528065806019,-0.137618368154,-2.64674459752,-0.0728525625117,2.10987736673,-0.704150807672,-0.840941477381,-0.0588575329615,0.0189032201886,-0.0483717321679,-0.00127306169316,-0.0204914702526,-0.831501212963,0.574031225641,0.81879851439,0.00615562533369,0.0,0.818797423166,-0.573940187155,-0.0120078426594,0.0,-0.00629916425291,0.0119333165536,-0.999908954098,0.0,0.306738641623,-0.20532173486,0.304932755044,1.0,-0.186558285714,-0.245190889796,2.589
-0.46378756243,-0.528962873834,-0.137335670391,-2.64743261691,-0.0729089726104,2.10954632959,-0.718077337518,-0.854658853453,-0.0459509480493,0.0129250074796,-0.0355781121835,-0.00303081846098,-0.0245467048701,-0.821692197617,0.574214799759,0.818669274107,0.00622336509423,0.0,0.818668902449,-0.574123122859,-0.0120255920078,0.0,-0.00627212563496,0.0120003794224,-0.999908321464,0.0,0.303558430041,-0.209502699064,0.304926697902,1.0,-0.179991428571,-0.236560163265,2.606
-0.475961731978,-0.529503517619,-0.136936305166,-2.64785492299,-0.0729231853698,2.1093267913,-0.730041513225,-0.799968100775,-0.0321145880804,0.0219382529932,-0.027018604355,0.00474573957608,-0.0166493353184,-0.795501090756,0.574074250544,0.818767948633,0.00620870806488,0.0,0.818767376347,-0.573982648382,-0.0120270398246,0.0,-0.00628378500949,0.011988132295,-0.999908395169,0.0,0.300917176973,-0.212975952104,0.304923710154,1.0,-0.174197142857,-0.228944816327,2.621
-0.489488999126,-0.529886404687,-0.136613296891,-2.64817084357,-0.0729343847881,2.10911349633,-0.743124898485,-0.785981959755,-0.0238901773042,0.018830300392,-0.0130189618195,-0.000106784611907,-0.019134410395,-0.761038673287,0.574186793043,0.818688863671,0.00623041706573,0.0,0.818688277494,-0.57409450605,-0.0120726682345,0.0,-0.00630703226046,0.0120329677446,-0.999907710257,0.0,0.297954737991,-0.216859955489,0.304909972195,1.0,-0.167630285714,-0.220314089796,2.638
-0.503056234333,-0.530064766443,-0.136086074937,-2.64833033725,-0.0729346686605,2.1089741501,-0.756554261266,-0.738795147423,-0.00827235586138,0.0256659723073,-0.00872220336203,0.000865679635013,-0.00446624838411,-0.739461387049,0.57391872769,0.818877461779,0.00614357374435,0.0,0.818875756076,-0.573826901772,-0.0120801413614,0.0,-0.00636693019155,0.0119640733008,-0.999908157357,0.0,0.295020371335,-0.220705016129,0.304904287311,1.0,-0.160677142857,-0.211175673469,2.656
-0.51493314188,-0.530089914467,-0.135754358176,-2.64839253088,-0.0729308275936,2.10889175104,-0.768023082949,-0.730779336721,-0.00227900786691,0.0244407905727,-0.00131692612527,0.00386642532681,-0.00958230493597,-0.714564198331,0.57401736642,0.818808494919,0.00612034293404,0.0,0.818806317801,-0.573925305421,-0.0121121685484,0.0,-0.00640505012867,0.0119642009012,-0.999907912375,0.0,0.292410635701,-0.224089698008,0.304886717269,1.0,-0.154496571429,-0.203052636735,2.672
-0.526837077543,-0.529992096666,-0.135284629032,-2.64834152435,-0.0728624723118,2.10884967611,-0.779746481913,-0.680336083931,0.00945887678609,0.0299873878821,0.00750454371317,0.0156477492411,0.000235615579688,-0.690005023215,0.573866265378,0.818914751464,0.00607340074772,0.0,0.818912018571,-0.573774546799,-0.0121087649037,0.0,-0.00643140726462,0.011922622107,-0.999908239831,0.0,0.289819878635,-0.227440574231,0.304882775397,1.0,-0.147929714286,-0.194421910204,2.689
-0.539079879464,-0.529756140522,-0.134927464049,-2.64817142379,-0.0728108061031,2.10884796817,-0.791585411924,-0.671999307455,0.0144578740413,0.014741614827,0.0122024919498,0.00046649407385,-0.00109086549604,-0.657161288775,0.57397707064,0.818837222695,0.00605574183391,0.0,0.818834410196,-0.573885684479,-0.0120903568793,0.0,-0.00642485439938,0.0118984664998,-0.999908569691,0.0,0.287123274471,-0.23091788829,0.304883065888,1.0,-0.140976571429,-0.185283493878,2.707
-0.54878228216,-0.529414708701,-0.134493860139,-2.64791463052,-0.0726856650958,2.10888017739,-0.801070202923,-0.626253133044,0.0273101534211,0.0342987890194,0.0172640568528,0.0114988772746,0.000759620974754,-0.611447120488,0.573917565668,0.818879175304,0.00602253868805,0.0,0.8188760919,-0.573826633683,-0.0120701073674,0.0,-0.00642819022788,0.011859187908,-0.999909014877,0.0,0.285025083072,-0.23363714304,0.304889132026,1.0,-0.135182285714,-0.177668146939,2.722
-0.559246434464,-0.528882074496,-0.13404433469,-2.64755196774,-0.0725176460302,2.10894414625,-0.811368228328,-0.610486198087,0.0320948055772,0.02105743138,0.0210761453488,0.00478587911655,0.00473705101711,-0.590170316283,0.573829112232,0.818941249489,0.00601055254722,0.0,0.818937825937,-0.573737911555,-0.0120992973395,0.0,-0.00646025619534,0.0118654263329,-0.999908734209,0.0,0.282754749864,-0.236570706988,0.304876575881,1.0,-0.128615428572,-0.169037420408,2.739
-0.56941811631,-0.528265570829,-0.133664628633,-2.64708418177,-0.0723286459786,2.10905264099,-0.821160120388,-0.58026637999,0.0390055636258,0.0266813929739,0.0344433522937,0.00859510948963,0.00927651537029,-0.567875262905,0.573979352434,0.818835781876,0.00603425233967,0.0,0.818832853396,-0.573888361755,-0.0120686926899,0.0,-0.00641941381889,0.0118684529807,-0.999908961331,0.0,0.280543489527,-0.239443631865,0.304883072112,1.0,-0.122048571429,-0.160406693878,2.756
-0.578232016188,-0.527521394665,-0.133189969168,-2.64658335445,-0.072066240593,2.10917931498,-0.829973779234,-0.543921998996,0.0479483867028,0.0277623320734,0.0335752389457,0.0115605066457,0.00322710731994,-0.544848342307,0.57378508886,0.818971778382,0.00605350452546,0.0,0.818968745218,-0.573693398684,-0.0121171598623,0.0,-0.00645088057563,0.0119105059679,-0.999908258785,0.0,0.278665138562,-0.241896555152,0.304861773182,1.0,-0.115868,-0.152283657143,2.772
-0.58736472141,-0.526738083457,-0.132774649828,-2.64602280301,-0.0718451732424,2.10930071512,-0.838834218727,-0.526876872921,0.0452242768059,0.0253203417566,0.0349231909061,0.014630149893,0.00673656552522,-0.513807052973,0.573840840752,0.818932639124,0.00606374173023,0.0,0.818929499461,-0.573748650837,-0.0121534964869,0.0,-0.00647395595961,0.0119401795076,-0.999907755749,0.0,0.276684690931,-0.244454151444,0.304851103536,1.0,-0.109301142857,-0.143652930612,2.789
-0.5950365794,-0.525968679192,-0.132427272959,-2.64544467945,-0.071609148006,2.10943665248,-0.846234424236,-0.498968759217,0.0558456986141,0.0297883095654,0.0397971537106,0.0165068280408,0.00962665026087,-0.489078136533,0.573951000514,0.818855151326,0.00610221745947,0.0,0.818852484519,-0.573858562281,-0.0121534355697,0.0,-0.00645021777124,0.0119725229409,-0.999907522417,0.0,0.275035706457,-0.24661424697,0.304852824877,1.0,-0.103506857143,-0.136037583674,2.804
-0.602955011594,-0.525037719972,-0.131907214544,-2.64478292952,-0.0713045639548,2.10959202008,-0.854145861201,-0.462003648861,0.0510909308582,0.0268248129381,0.0448659708954,0.0181882146029,0.00862695950217,-0.465301532745,0.573756287404,0.818991553088,0.00610782578453,0.0,0.818988597823,-0.573663195419,-0.0122049891383,0.0,-0.0064920731457,0.0120051600673,-0.999906860222,0.0,0.273369682285,-0.248805338691,0.304839195583,1.0,-0.0969400000001,-0.127406857143,2.821
-0.611072887299,-0.524129789851,-0.131444861061,-2.64409239863,-0.0710314171912,2.10975592649,-0.861951965856,-0.444844310408,0.0487796833809,0.0272772508008,0.0423348831245,0.0153856897758,0.0139795675981,-0.419095155571,0.573839529591,0.818933196814,0.006112310198,0.0,0.818930338697,-0.573746470845,-0.0121997727676,0.0,-0.00648400734542,0.0120064992891,-0.999906896478,0.0,0.271630328901,-0.251064267901,0.304846022812,1.0,-0.0899868571429,-0.118268440816,2.839
-0.618205230635,-0.523237635292,-0.131025630047,-2.64338615746,-0.0707236808234,2.10993317871,-0.868821156316,-0.402329643062,0.054564577365,0.0205401629699,0.0367443169119,0.0178049996121,0.0118239887077,-0.39180954947,0.573928542135,0.818870504269,0.00615407689755,0.0,0.818868454502,-0.573835765658,-0.0121538131449,0.0,-0.00642109329625,0.0120150310242,-0.999907199989,0.0,0.270122177674,-0.253056989538,0.304865560114,1.0,-0.0834200000001,-0.109637714286,2.856
-0.624698680151,-0.522318299593,-0.130557016684,-2.64268128778,-0.0704158089956,2.1101175048,-0.875195657794,-0.364201402508,0.0534597456759,0.0324106420728,0.0384078152839,0.015292208469,0.0102073741824,-0.363494281233,0.573864324259,0.818915423986,0.00616543603868,0.0,0.818913638593,-0.573771728473,-0.0121327256822,0.0,-0.00639824648955,0.012011729348,-0.999907386111,0.0,0.268773246786,-0.254858273697,0.304876030266,1.0,-0.0768531428572,-0.101006987755,2.873
-0.631085419302,-0.521464687807,-0.130031744091,-2.64203216917,-0.0701067864179,2.11029382065,-0.881423647546,-0.353656607545,0.0418827583939,0.0280456757787,0.0374515825391,0.0173564870719,0.0064010631201,-0.331358149963,0.573789697474,0.81896779135,0.00615521768782,0.0,0.818966015275,-0.573697430701,-0.0121107692776,0.0,-0.00638722036773,0.011990179591,-0.999907715246,0.0,0.267439432598,-0.256597092801,0.304885709065,1.0,-0.0699000000001,-0.0918685714287,2.891
-0.636074191367,-0.520764693436,-0.129633942228,-2.64148438447,-0.0698391068511,2.11043629648,-0.886139781443,-0.320910106003,0.0436396251989,0.0322708122703,0.0382983237699,0.0154536770424,0.00182726376415,-0.297936988552,0.573875076702,0.818907860988,0.00616915332089,0.0,0.818906452367,-0.573783080003,-0.0120808226684,0.0,-0.00635344718042,0.0119850732454,-0.999907991631,0.0,0.266398978389,-0.257961015976,0.304899484374,1.0,-0.0641057142858,-0.0842532244899,2.906
-0.641431654385,-0.519907254162,-0.129191019361,-2.64083500808,-0.0695014159204,2.11060461115,-0.891383631339,-0.289475206997,0.0498121160121,0.0230080204905,0.0346702234893,0.0179411645692,0.0113898926915,-0.281272909665,0.573833502165,0.818936653391,0.00621421168795,0.0,0.81893582652,-0.573741306364,-0.012073620629,0.0,-0.00632230226428,0.0120175199687,-0.999907799603,0.0,0.265296062657,-0.259428508039,0.304904671346,1.0,-0.0571525714287,-0.0751148081634,2.924
-0.646066232688,-0.519188324709,-0.1288057462,-2.6403248252,-0.0692123878167,2.11076408315,-0.895737818246,-0.26027341973,0.039969038634,0.0251953807689,0.0286215276679,0.0174421053029,0.0143456468777,-0.244929543768,0.573941036658,0.818860997247,0.00625304158605,0.0,0.818860590317,-0.573848481994,-0.012083055924,0.0,-0.00630616621494,0.0120555630744,-0.99990744355,0.0,0.264326689836,-0.260683154957,0.304895135416,1.0,-0.0505857142858,-0.0664840816328,2.941
-0.649918256155,-0.518580597591,-0.128325730963,-2.63988946369,-0.0689321912137,2.11090302589,-0.89937745663,-0.227060010714,0.0381544420372,0.0322819994906,0.0274166230052,0.0170875927354,0.0058254164926,-0.216239865324,0.573917628203,0.818877513527,0.00623865208287,0.0,0.818876933285,-0.573825169563,-0.0120826243464,0.0,-0.00631441536445,0.0120433512646,-0.99990753865,0.0,0.263558518791,-0.261688019239,0.304892896443,1.0,-0.0444051428572,-0.0583610448981,2.957
-0.653501784786,-0.517995128565,-0.127768223755,-2.6394596158,-0.0686681704399,2.1110308697,-0.902873822537,-0.204835959928,0.0403782194117,0.0341857784785,0.0235951178849,0.0124957922415,0.010394518144,-0.194763952059,0.573729208851,0.819010039781,0.00617224031626,0.0,0.819008651972,-0.573637193162,-0.0120807912592,0.0,-0.00635378504932,0.0119864518089,-0.99990797296,0.0,0.262870240357,-0.262602232346,0.304897094901,1.0,-0.0378382857144,-0.0497303183675,2.974
-0.656625143613,-0.517460427877,-0.127303452782,-2.63907076586,-0.0683783385173,2.11115918944,-0.90568777822,-0.174778425827,0.0331455524602,0.0307250149623,0.0266653126224,0.0203691390919,0.0119512938623,-0.151358641313,0.573797225461,0.81896240734,0.00616979075667,0.0,0.818961076901,-0.573705374471,-0.0120683356565,0.0,-0.0063439932469,0.0119778266083,-0.99990813849,0.0,0.262273941932,-0.263401786691,0.304899035456,1.0,-0.0312714285715,-0.0410995918368,2.991
-0.658993209278,-0.517037777914,-0.126947890766,-2.6387857972,-0.0681499325924,2.11124105735,-0.907914809077,-0.144755974819,0.024272957154,0.0216567901639,0.0138759195906,0.0188809326068,0.00191216915079,-0.136948586008,0.573784590768,0.818971168628,0.00618184881535,0.0,0.818969761745,-0.573692248675,-0.0121028946242,0.0,-0.0063655655632,0.0120074328708,-0.999907646301,0.0,0.2617880431,-0.264036066795,0.304886668304,1.0,-0.0250908571429,-0.0329765551022,3.007
-0.661366052639,-0.516666381661,-0.126495853021,-2.63855412344,-0.0678533946229,2.1112858359,-0.910025180557,-0.118081143702,0.0233411943653,0.0222499701853,0.010573503387,0.0168693952232,0.000985788021767,-0.10886370175,0.573806269254,0.818955780095,0.00620826186556,0.0,0.818954293599,-0.573713004292,-0.0121655498519,0.0,-0.00640141004991,0.0120651837767,-0.999906722295,0.0,0.261367788817,-0.264553723284,0.304871446052,1.0,-0.0199046153846,-0.0261603516484,3.024
-0.662977107335,-0.516410176441,-0.12622070186,-2.63837142942,-0.0676656382185,2.11133518866,-0.911412232884,-0.101588641723,0.0146601368422,0.0130812807493,0.0112614565614,0.0130115981934,-0.000925393376619,-0.0941689137449,0.573884160293,0.818901067941,0.00622562383157,0.0,0.81889976341,-0.573790715121,-0.0121712623811,0.0,-0.00639497773478,0.0120832892148,-0.999906544824,0.0,0.261062667894,-0.264946355815,0.304870818804,1.0,-0.0196046153846,-0.0257660659341,3.039
-0.664598104128,-0.516138739746,-0.125973446897,-2.6381558125,-0.067500167085,2.11141926938,-0.913011649258,-0.0930067533286,0.0140667730157,0.0132175041935,0.0126250637623,0.0133278375595,0.000495891318067,-0.0943015580725,0.573808111955,0.81895431098,0.00623169992459,0.0,0.818953362265,-0.573715179426,-0.0121256023551,0.0,-0.0063552158392,0.0120614728203,-0.999907061734,0.0,0.260758637649,-0.265362737049,0.304881775236,1.0,-0.0192646153846,-0.0253192087912,3.056
-0.666423741258,-0.515813486809,-0.125783142976,-2.6378880762,-0.0674193498477,2.11147149392,-0.914751300224,-0.0875411439305,0.0223241437123,0.00723519259933,0.0141923730715,0.00129113058227,0.00381755033575,-0.0888864834521,0.573791777772,0.818966036882,0.0061946021418,0.0,0.818964671142,-0.573699141326,-0.0121206256103,0.0,-0.00637266548453,0.0120281072009,-0.999907352594,0.0,0.260384779055,-0.265860882236,0.30489239103,1.0,-0.0188646153846,-0.0247934945055,3.076
-0.667706126748,-0.515581851207,-0.125718237848,-2.63770628725,-0.0673774980277,2.11151160511,-0.916052956417,-0.0831800379994,0.0101830430474,0.0030679876469,0.010589996451,-4.94450928141e-05,0.000230914849199,-0.0928764337829,0.573757247234,0.818990251595,0.00619160233519,0.0,0.8189888347,-0.573664608899,-0.012122377427,0.0,-0.00637632857091,0.0120263866291,-0.999907349937,0.0,0.260103975924,-0.266225579215,0.304894458777,1.0,-0.0185646153846,-0.0243992087912,3.091
-0.669130859302,-0.515335961189,-0.125690909202,-2.63749085821,-0.0673244217916,2.11157043736,-0.917393200547,-0.0917611152231,0.0189351066205,0.00389956282064,0.013524327916,0.00746160782533,0.00124164593383,-0.0759922805955,0.573840784082,0.818931584114,0.00620982820592,0.0,0.818930638538,-0.573748489062,-0.0120841824044,0.0,-0.0063333610255,0.012020046707,-0.999907699248,0.0,0.259787515435,-0.266645161067,0.304907241168,1.0,-0.0182246153846,-0.0239523516484,3.108
-0.67060394868,-0.515066506513,-0.125633918542,-2.63725217996,-0.0672875693597,2.11165011283,-0.918932506474,-0.0808589841989,0.019570605755,0.00355264882353,0.0107948977127,0.000304790507715,0.0024642112279,-0.0844240734927,0.573774049454,0.818978440779,0.00619682284448,0.0,0.818977690363,-0.573682518208,-0.0120273808722,0.0,-0.00629527790267,0.0119762892688,-0.999908464796,0.0,0.259470570536,-0.267080824903,0.30492433303,1.0,-0.0178646153846,-0.0234792087912,3.126
-0.671779475976,-0.51483357303,-0.125593583018,-2.63706466413,-0.0672489366321,2.11169922082,-0.92011210942,-0.073983637798,0.0149577797956,0.00280039492296,0.0161160329773,0.00529387284566,0.00814767059521,-0.0722140978736,0.573768276823,0.818982464066,0.0061995939965,0.0,0.818981815694,-0.573676860466,-0.0120163317693,0.0,-0.00628472238177,0.0119721752223,-0.999908580464,0.0,0.25921353607,-0.267425247312,0.304928651321,1.0,-0.0175646153846,-0.0230849230769,3.141
-0.673156810624,-0.514540605145,-0.125560838338,-2.63683933898,-0.0672109879137,2.11174131721,-0.921497214017,-0.0784287597888,0.014316246822,0.00297080151354,0.0145828800897,0.00443820139602,0.000122260365595,-0.0810353864614,0.57376661347,0.818983579263,0.006206211956,0.0,0.818982901735,-0.5736749493,-0.0120335411344,0.0,-0.00629504545936,0.0119874564169,-0.999908332444,0.0,0.258906307904,-0.26783123053,0.304927170936,1.0,-0.0172046153846,-0.0226117802198,3.159
-0.674468073249,-0.514281273652,-0.125532931094,-2.63663985009,-0.0671762835757,2.11178920231,-0.922811358939,-0.0800759113904,0.0160037610624,0.00164177912798,0.0145916985784,0.00297518647997,0.000621318455102,-0.0667542538017,0.573769638184,0.818981407245,0.00621319449406,0.0,0.818980788773,-0.573677882397,-0.0120375151401,0.0,-0.0062942500127,0.0119954785842,-0.999908241245,0.0,0.258610658547,-0.26821578768,0.304926735146,1.0,-0.0168646153846,-0.0221649230769,3.176
-0.675644346287,-0.514036348733,-0.125524579334,-2.63644041553,-0.0671527582996,2.11185717203,-0.923960314799,-0.0764058101327,0.0128684520401,0.000385903748006,0.0155877137123,0.00381922435223,0.00705419682077,-0.0839113966021,0.573806429963,0.818955618682,0.00621469731812,0.0,0.818955201657,-0.573715006911,-0.0120089726916,0.0,-0.00626947125228,0.011980615107,-0.999908575117,0.0,0.258348684039,-0.268573587908,0.304932822973,1.0,-0.0165446153846,-0.0217443516484,3.192
-0.676881308745,-0.513781049745,-0.125509762344,-2.63623999023,-0.0671222503252,2.11191643566,-0.925253681055,-0.0716784637286,0.00870291258441,0.00163613449029,0.00892801390058,0.00276793799307,0.00569258245057,-0.0704948195366,0.573773138605,0.818978885696,0.00622230672495,0.0,0.818978631492,-0.57368181209,-0.0119969387087,0.0,-0.00625573574034,0.011979688069,-0.999908672252,0.0,0.258070660687,-0.268943552964,0.304934921987,1.0,-0.0162046153846,-0.0212974945055,3.209
-0.678040660131,-0.513540156314,-0.125490362652,-2.63606946497,-0.0670901734663,2.11193692471,-0.926392945976,-0.0673426383515,0.0182310656536,0.00270753885139,0.0124738754643,-0.000685299575125,0.000513709297151,-0.0692426157208,0.573798483532,0.818961017974,0.0062368451131,0.0,0.818960675952,-0.573706558499,-0.0120392225561,0.0,-0.00628165595577,0.0120160498814,-0.999908073447,0.0,0.257801883905,-0.269278867707,0.304925548044,1.0,-0.0158846153846,-0.0208769230769,3.225
-0.67916147368,-0.513311509765,-0.125475922286,-2.63587988024,-0.0670634414944,2.11197139806,-0.927501136481,-0.0701177557212,0.0133018095814,-0.00071828557248,0.0203080343624,0.000452431004029,0.0073663610303,-0.0709186699545,0.573819759332,0.818946064909,0.00624287361933,0.0,0.818945809391,-0.573727818755,-0.0120373655786,0.0,-0.00627636374757,0.0120200848323,-0.999908058183,0.0,0.257548116284,-0.269612845227,0.304930413959,1.0,-0.0155646153846,-0.0204563516484,3.241
-0.680429374188,-0.513029566806,-0.125455016151,-2.63566733248,-0.0670275522286,2.11205353068,-0.928851517786,-0.068664842734,0.0137520659114,-0.000814185547718,0.00907173218587,0.000904190974367,0.00564759607042,-0.0680458913519,0.573763724687,0.818985276434,0.00624916944253,0.0,0.818985220617,-0.573671994583,-0.0120165695185,0.0,-0.0062565404681,0.0120128803846,-0.999908268996,0.0,0.257267800899,-0.269994186436,0.30493020548,1.0,-0.0151846153846,-0.0199569230769,3.26
-0.681505712059,-0.512803704325,-0.125428881454,-2.63548586983,-0.0670052233687,2.11208255132,-0.929913196854,-0.068046228634,0.0147810549949,-0.000252654347969,0.0108702375834,0.00015328908705,-0.000634295465699,-0.0643839351618,0.573776069968,0.818976642178,0.00624723940377,0.0,0.818976502169,-0.573684232231,-0.0120265325392,0.0,-0.00626562712781,0.0120171102174,-0.999908161272,0.0,0.257024825627,-0.270311299388,0.304932184255,1.0,-0.0148646153846,-0.0195363516484,3.276
-0.682635600386,-0.512569377713,-0.125400359525,-2.63529363883,-0.0669737277727,2.11211133504,-0.931012752774,-0.0677899388172,0.0152295652515,-0.000469101289073,0.014381342052,0.00112586058085,6.24410697627e-05,-0.0679049501494,0.573803996384,0.81895704709,0.00625105243655,0.0,0.818956913302,-0.573712052745,-0.0120333533011,0.0,-0.00626861605119,0.0120243603286,-0.999908055379,0.0,0.256770536734,-0.27064320324,0.304935947721,1.0,-0.0145246153846,-0.0190894945055,3.293
-0.683733521701,-0.51233534994,-0.125385551489,-2.63510871951,-0.0669484226623,2.11217133256,-0.932159230901,-0.062756714246,0.0129539808611,0.000903576839072,0.00989934267179,0.0015839366907,0.00274517835937,-0.0594565820179,0.573774059066,0.818978001779,0.00625369061351,0.0,0.818978004026,-0.573682305644,-0.0120161563756,0.0,-0.00625345648601,0.0120164252279,-0.999908245694,0.0,0.2565239774,-0.270972819962,0.304938819958,1.0,-0.0141846153846,-0.0186426373626,3.31
-0.684725458148,-0.512120141718,-0.12537725194,-2.63492959966,-0.06692707982,2.11222110703,-0.933117933233,-0.0571169596361,0.0160426076688,-0.000751833749506,0.0115416069355,0.00473567806571,0.0026467439952,-0.0646973622837,0.57381369278,0.818950222547,0.00625506745289,0.0,0.818950362725,-0.573722155715,-0.0119974303584,0.0,-0.00623674755554,0.0120071107513,-0.999908461946,0.0,0.256301472147,-0.271274139215,0.304944979169,1.0,-0.0138646153846,-0.0182220659341,3.326
-0.685829571223,-0.511893925921,-0.125338956993,-2.63473868705,-0.0668946420267,2.11226220312,-0.934229292613,-0.0611621957352,0.0124992513292,0.00164615739423,0.00870008257915,-0.00021085481104,0.00989194866528,-0.0615650094386,0.573804154708,0.818956922229,0.00625287729141,0.0,0.818957109623,-0.573712774901,-0.0119854667973,0.0,-0.00622834533278,0.0119983799638,-0.999908619121,0.0,0.256057068738,-0.271598208334,0.304952377156,1.0,-0.0135046153846,-0.0177489230769,3.344
-0.686834908422,-0.511676285899,-0.125303434587,-2.63456211053,-0.0668741396398,2.11231242221,-0.935255489382,-0.0631864868447,0.0131264813734,0.00273969622373,0.014621473541,0.00027614014692,0.00159591743394,-0.0602077023702,0.573779625243,0.818974194356,0.0062415972443,0.0,0.818974328044,-0.57368847796,-0.0119719322518,0.0,-0.00622409098071,0.011981189385,-0.999908851742,0.0,0.255835805056,-0.271896234772,0.304957129271,1.0,-0.0131646153846,-0.0173020659341,3.361
-0.687736551987,-0.511474989999,-0.125267326218,-2.63440646446,-0.0668473142783,2.11235026499,-0.936156268077,-0.0588757280017,0.0102572324121,0.00365076874764,0.00671565044885,0.000615233327687,0.00723556178711,-0.050955324193,0.573774138873,0.818978063185,0.00623830777766,0.0,0.818978138302,-0.573682976383,-0.011974910989,0.0,-0.00622849835298,0.0119801625859,-0.999908836601,0.0,0.255637007454,-0.27215976539,0.304957374988,1.0,-0.0128446153846,-0.0168814945055,3.377
-0.688620887338,-0.511278586765,-0.125248028596,-2.63423650787,-0.0668272570977,2.11239082133,-0.937056959815,-0.0529435421575,0.00805064696662,0.0013449929784,0.00830125495035,0.00193992152689,0.00425950729473,-0.0513353153205,0.573764250406,0.818985022943,0.00623410394196,0.0,0.81898516102,-0.573673334196,-0.0119565280186,0.0,-0.00621599785676,0.0119660973412,-0.99990908281,0.0,0.255441855893,-0.272427245624,0.304965751349,1.0,-0.0125246153846,-0.0164609230769,3.393
-0.689626471148,-0.511070118091,-0.125220318282,-2.63405993008,-0.0668006104886,2.11244124536,-0.938075313677,-0.0516521036034,0.00962544556818,0.00194446877827,0.014901554802,0.00152166308773,0.00485773086018,-0.0622301027882,0.57375446804,0.818991900342,0.00623092928525,0.0,0.818992147308,-0.573663856527,-0.0119326972805,0.0,-0.00619844283771,0.0119497506053,-0.999909387278,0.0,0.255218613023,-0.272726103406,0.304973696713,1.0,-0.0121646153846,-0.0159877802198,3.411
-0.690497176566,-0.510885054908,-0.125215565196,-2.63390345558,-0.0667815824966,2.11248284614,-0.938947611136,-0.0608708505326,0.0104318628358,0.000447396673341,0.0090235429015,0.00166087460017,0.0076015797669,-0.056787609131,0.573765910288,0.818983860678,0.00623402288565,0.0,0.818984255594,-0.573675491382,-0.0119149728884,0.0,-0.00618198337614,0.0119422017821,-0.999909579361,0.0,0.2550206248,-0.272989773142,0.304979873762,1.0,-0.0118446153846,-0.0155672087912,3.427
-0.691500214881,-0.510661317745,-0.125211071565,-2.6337180569,-0.0667579900181,2.11252959048,-0.939927412403,-0.0528901648044,0.0106374907045,-0.0012651258959,0.010966870039,0.00026160760509,0.00135735808941,-0.0433992297094,0.573801321143,0.818959011891,0.00623919847347,0.0,0.818959558191,-0.57371103598,-0.0119010984492,0.0,-0.00616713354288,0.0119387470964,-0.999909712315,0.0,0.254792871739,-0.273294398623,0.304985281156,1.0,-0.0114646153846,-0.0150677802198,3.446
-0.692278768262,-0.510487031703,-0.125204333156,-2.63358055929,-0.066741690187,2.11255409541,-0.940695519007,-0.0517485869678,0.0116444626125,0.0014080075562,0.00602712587771,0.00228898776364,0.000803664062218,-0.0436531121494,0.57381913295,0.818946502087,0.00624309865684,0.0,0.818947046909,-0.573728726897,-0.0119092062536,0.0,-0.00617127657594,0.0119467276267,-0.999909591435,0.0,0.254613198907,-0.273526781654,0.304985397389,1.0,-0.0111646153846,-0.0146734945055,3.461
-0.693156827005,-0.510292488551,-0.125196568501,-2.63341107599,-0.0667180655339,2.11259587744,-0.941612134515,-0.0448630164101,0.0095594583,-0.000800320626669,0.00845031340997,-0.000336547829617,0.00226625786536,-0.0444917974781,0.573800750453,0.818959349698,0.0062473373694,0.0,0.818960078357,-0.573710580408,-0.0118872572958,0.0,-0.00615113538487,0.0119374668919,-0.999909826143,0.0,0.254416194425,-0.273794143002,0.30499402413,1.0,-0.0108046153846,-0.0142003516484,3.479
-0.69390934018,-0.510109159755,-0.125167857275,-2.63327337241,-0.0666967595991,2.11263357724,-0.942355259138,-0.0455635264857,0.016376923456,0.00286937559141,0.0095694944654,-0.000640355569838,0.00402561042056,-0.0493013270272,0.573804209318,0.818956958484,0.00624310979165,0.0,0.818957610737,-0.573714014239,-0.0118915341095,0.0,-0.00615701356775,0.0119364844202,-0.999909801694,0.0,0.254250602977,-0.274016373334,0.304992506153,1.0,-0.0104846153846,-0.0137797802198,3.495
-0.694608147723,-0.509947007429,-0.125144423394,-2.63313921494,-0.0666758791153,2.11267859368,-0.943026647685,-0.0482492234832,0.00990577819328,0.00144521054076,0.00635004973123,0.00100657552023,-0.000415690849538,-0.0410222612563,0.573825738157,0.818941912617,0.00623801964756,0.0,0.818942631221,-0.573735816283,-0.0118712587558,0.0,-0.00614301432825,0.0119208435554,-0.999910074389,0.0,0.254099087862,-0.274226528521,0.30499771876,1.0,-0.0101846153846,-0.0133854945055,3.51
-0.69537824543,-0.509764008052,-0.125121189675,-2.63299661562,-0.066648043757,2.11271027307,-0.94378643439,-0.0447266008936,0.0124940540397,0.00137560718495,0.00768432019078,0.00112173698951,0.00152211317003,-0.046540366651,0.573836865402,0.818934084411,0.0062421306965,0.0,0.818934829103,-0.573746871397,-0.0118751903389,0.0,-0.00614371345497,0.0119265498584,-0.999910002047,0.0,0.253927821852,-0.274453989794,0.30499788802,1.0,-0.00984461538462,-0.0129386373626,3.527
-0.696163515101,-0.509560238,-0.125092601436,-2.63285736229,-0.0666301089772,2.11273501112,-0.944611381241,-0.0419291331102,0.0089343292334,-0.00205846588886,0.00785925324386,0.000373431210741,-0.000696800637633,-0.0499420917681,0.573798953013,0.818960667878,0.00623962276331,0.0,0.818961157425,-0.57370854611,-0.0119110725826,0.0,-0.00617509394322,0.0119447996317,-0.999909590901,0.0,0.253750271978,-0.274682735403,0.304988352074,1.0,-0.00948461538462,-0.0124654945055,3.545
-0.696847177718,-0.509392053185,-0.125070089262,-2.63273008083,-0.0665999701784,2.11276596992,-0.945291983719,-0.0426998991864,0.0128557254187,-0.000576059150636,0.0089904757235,0.000451535717187,0.00264536621441,-0.043011493653,0.573804864811,0.818956470021,0.0062469376655,0.0,0.818957016481,-0.573714352456,-0.011916116986,0.0,-0.00617494219235,0.0119537294752,-0.999909485124,0.0,0.253599293356,-0.274884062115,0.304986961219,1.0,-0.00916461538462,-0.0120449230769,3.561
