nelsonifechukwu/NELSON_IML_WORK/CNN-GradCAM/train2dof/data_sample_2022-02-21-17-20-29/robot_state.csv
position_joint1,position_joint2,position_joint3,position_joint4,position_joint5,position_joint6,position_joint7,velocity_joint1,velocity_joint2,velocity_joint3,velocity_joint4,velocity_joint5,velocity_joint6,velocity_joint7,ee_T_00,ee_T_10,ee_T_20,ee_T_30,ee_T_01,ee_T_11,ee_T_21,ee_T_31,ee_T_02,ee_T_12,ee_T_22,ee_T_32,ee_T_03,ee_T_13,ee_T_23,ee_T_33,v_x,v_y,time
0.465052779851,0.547852695323,-0.124000954157,-1.3558601298,0.0794775981265,1.8940975508,0.159166819801,-0.00170847084413,0.00785406730591,-0.00375579394697,-0.001648385255,-9.41653579605e-05,-5.39765634368e-05,-0.000428499191268,0.573833449709,0.818958197779,0.00184097412626,0.0,0.818913864709,-0.573775557364,-0.0119347752484,0.0,-0.00871794392037,0.00835633337416,-0.999927081915,0.0,0.661677916905,0.26086142911,0.30315092082,1.0,0.0,0.0,0.0
0.465055259258,0.547844899956,-0.123997808476,-1.35586012098,0.0794726741432,1.89409918859,0.159166824012,-0.00109249093172,-0.00110785797376,0.000804928485779,-0.000945097274779,-0.000290988741414,0.000390096660152,0.000615492852003,0.573827918145,0.818962059562,0.00184722961825,0.0,0.818917839445,-0.573770030162,-0.0119277670728,0.0,-0.00870867136302,0.00835737594081,-0.999927154002,0.0,0.661677360916,0.260864309031,0.303156476184,1.0,-0.00014,-0.000184,0.008
0.465056758396,0.547849549277,-0.12400237571,-1.3558631465,0.0794765849385,1.89409954198,0.15916484024,-0.000558463420782,0.000488894936114,-0.000312349238243,-0.00123892782408,4.10987544973e-05,0.000402881648447,0.00511150139805,0.57382946827,0.818960985233,0.00184198575306,0.0,0.818916681197,-0.573771587321,-0.0119323820495,0.0,-0.00871544406937,0.00835574618037,-0.999927108614,0.0,0.661677051517,0.260862893661,0.30315193188,1.0,-0.00034,-0.000446857142857,0.018
0.465053648647,0.547836124956,-0.123998061645,-1.35587240345,0.0794764092708,1.8940974596,0.159156514396,-0.000628436345572,-0.000430340084226,0.00163891437815,-0.00106258307666,0.000182153264281,-0.000275920687199,-0.00206876455966,0.573822603645,0.818965787043,0.00184556202027,0.0,0.818921495886,-0.573764676051,-0.0119342780571,0.0,-0.00871501491818,0.00835968986768,-0.999927079391,0.0,0.661674700301,0.260862241088,0.303156712013,1.0,-0.00068,-0.000893714285714,0.035
0.465056648144,0.547805930973,-0.12400095309,-1.35589685922,0.0794735162756,1.89410115525,0.159164346753,-0.000143233927566,-0.00251661134852,-5.82981612481e-05,-0.000307209303189,3.91609942908e-05,-3.92282212645e-05,0.00111683925808,0.573829123369,0.818961202973,0.00185259267767,0.0,0.818917025425,-0.573771186365,-0.0119280370834,0.0,-0.00870580291407,0.00836193574114,-0.999927140859,0.0,0.661670675634,0.260859830678,0.303166873497,1.0,-0.001,-0.00131428571429,0.051
0.465061555381,0.547679285948,-0.123995643851,-1.35604486277,0.0794741755441,1.89413054599,0.159166024432,1.79337811101e-05,-0.00946741470867,0.00197042090592,-0.0106205997797,8.99823420996e-05,0.00188784053624,0.000539650789268,0.573831004306,0.818959850771,0.001867678667,0.0,0.818915720673,-0.573772859942,-0.0119371073022,0.0,-0.00870455587431,0.00837951502492,-0.999927004553,0.0,0.661643420217,0.260852351038,0.303188525192,1.0,-0.00136,-0.00178742857143,0.069
0.465046872782,0.547538169267,-0.124000931611,-1.35624212247,0.0794707092414,1.89417959542,0.159148550701,-0.00122821662014,-0.0108420817442,-0.000892724647905,-0.0134848861654,0.000268536403164,0.000219524319196,-0.000725423492407,0.573843025711,0.818951433762,0.00186490837318,0.0,0.818907170738,-0.57378479844,-0.0119497988994,0.0,-0.00871641668486,0.00838465702729,-0.999926858128,0.0,0.661616688991,0.260826766251,0.303197771373,1.0,-0.00168,-0.002208,0.085
0.465028367667,0.547394230268,-0.124003169981,-1.35642064333,0.079465005239,1.89428129039,0.159146034265,-0.00239450524068,-0.00912317236661,-0.000667023821011,-0.00651336126006,0.000334317404382,0.00586340997399,-0.00166931516532,0.573865699012,0.818935407794,0.00192464528957,0.0,0.818891951751,-0.573807245347,-0.01191484142,0.0,-0.00865327670757,0.00841375732858,-0.999927162092,0.0,0.661605760307,0.260793939257,0.303224918938,1.0,-0.002,-0.00262857142857,0.101
0.465010798634,0.547168969151,-0.123993218272,-1.35668022866,0.07946391988,1.89442024005,0.159128088035,-0.00328817600042,-0.0085541024302,0.00140612567532,-0.0113745018579,-0.000218321842754,0.0127274853171,-0.0045465649893,0.573872880504,0.8189301362,0.00202384434927,0.0,0.818887847768,-0.573813895605,-0.0118765689439,0.0,-0.00856493511422,0.00847310550727,-0.999927421551,0.0,0.661582261534,0.260769501329,0.303272659293,1.0,-0.00238,-0.003128,0.12
0.464981117929,0.546959393264,-0.123996351231,-1.3569774921,0.0794575314725,1.89455107252,0.159109880807,-0.000415562800812,-0.0110384213794,-0.000171760437441,-0.0205347406741,-0.000189564906541,0.0111265282313,-0.0019414170246,0.57389952477,0.818911360366,0.00206548645187,0.0,0.818869554522,-0.573840308975,-0.0118616766773,0.0,-0.00852856660161,0.00849893820967,-0.999927513173,0.0,0.661554523976,0.26072337494,0.303291065785,1.0,-0.00272,-0.00357485714286,0.137
0.464947008585,0.546722875097,-0.123998224805,-1.35733981786,0.0794513132939,1.89468463216,0.159074649097,-0.00054491979858,-0.0133528479545,0.000395378589294,-0.0275574985411,0.000110939810562,0.00929790153234,-0.000666288278207,0.573919732154,0.818897150854,0.00208429070241,0.0,0.818855472542,-0.573860321177,-0.0118656549517,0.0,-0.00852082335329,0.00851683033511,-0.999927426952,0.0,0.661520158635,0.260673714435,0.303303123696,1.0,-0.003,-0.00394285714286,0.151
0.464900308381,0.546442491434,-0.124001667023,-1.3577637084,0.0794378110557,1.89483472879,0.158933393623,-0.000141129725451,-0.0191869442017,-0.00144228505737,-0.0266182318398,-0.000215090900899,0.00618188749824,-0.00359438935165,0.573863587465,0.818936474785,0.00209288074253,0.0,0.818894781471,-0.573804021997,-0.0118755261666,0.0,-0.00852456227167,0.00852894537591,-0.999927291821,0.0,0.661467722494,0.260596369754,0.303307698899,1.0,-0.00338,-0.00444228571429,0.17
0.464855699012,0.546167153376,-0.124004100196,-1.35823070102,0.0794203359056,1.89500677079,0.158922992734,-0.00725074762721,-0.0197935825168,-0.00143644811443,-0.0249067586937,-3.97470829529e-05,0.0187720798558,0.00133648802644,0.573914823731,0.818900601719,0.00208002591882,0.0,0.818858654907,-0.573855217884,-0.0118928168161,0.0,-0.0085455656486,0.00852887530001,-0.999927113141,0.0,0.661415254405,0.260522482435,0.303295388449,1.0,-0.0037,-0.00486285714286,0.186
0.464805403415,0.545862401212,-0.124004129494,-1.35876522906,0.0793822274848,1.89517738449,0.158871761254,-0.00317571761903,-0.0220914451181,-0.00101487327068,-0.0367341164375,-0.00095236321049,0.00947835672115,-0.0100518929712,0.573933720392,0.81888749338,0.002026002055,0.0,0.818844852818,-0.573874343133,-0.0119202436365,0.0,-0.00859883338766,0.00850057479522,-0.999926897474,0.0,0.661349805475,0.260435152807,0.303271501752,1.0,-0.00402,-0.00528342857143,0.202
0.464737582983,0.545505258418,-0.123998840105,-1.35939201378,0.0792875211741,1.89538860133,0.158760963045,-0.00221199188272,-0.0268327135643,-3.43534959641e-05,-0.0441791974445,-0.00328918153936,0.0142093087987,-0.00865114553966,0.573909247796,0.818904832701,0.00194863400185,0.0,0.818861620587,-0.573850622233,-0.0119103565882,0.0,-0.00863538999278,0.0084312877156,-0.999927169061,0.0,0.661274147229,0.260318430102,0.303247057945,1.0,-0.00438,-0.00575657142857,0.22
0.464666255531,0.545078320579,-0.124003708625,-1.36013238225,0.0792761430398,1.89562127692,0.158705433582,-0.0055977055855,-0.0292557906516,-0.000226169333566,-0.0408669550482,-3.97904194798e-05,0.0162604600931,-0.00336358662914,0.573959046807,0.818870058693,0.00189379678095,0.0,0.818825806174,-0.573900329459,-0.0119773908975,0.0,-0.00872124410168,0.00842538375339,-0.999926473702,0.0,0.661186895595,0.26020432641,0.303214212107,1.0,-0.00472,-0.00620342857143,0.237
0.464607708715,0.54467074117,-0.124006666158,-1.36080916979,0.0792559066246,1.89585286922,0.15859893483,-0.00729635647733,-0.0292342454941,0.000421387756,-0.0427706016696,0.000226406197706,0.0191654341428,-0.0162929212708,0.573954140281,0.818873546958,0.00187239108267,0.0,0.818828803784,-0.573895311582,-0.0120128405641,0.0,-0.00876260960535,0.00842814959673,-0.999926088752,0.0,0.661105237172,0.260101360279,0.303200748312,1.0,-0.00504,-0.006624,0.253
0.464535281109,0.544205663062,-0.12401051463,-1.36158396921,0.0792192942117,1.89613291579,0.158527151561,-0.00352193525924,-0.0207103875328,-0.00143584109379,-0.0415333089073,-0.00245756411463,0.0164582713349,-0.00337782458048,0.573990818933,0.818847887188,0.0018504942486,0.0,0.818802767836,-0.573931993907,-0.0120349762928,0.0,-0.008792926347,0.00842331788575,-0.999925863333,0.0,0.661016853493,0.259978464919,0.303185495977,1.0,-0.00538,-0.00707085714286,0.27
0.464464303894,0.543688513392,-0.124009130422,-1.36241233906,0.0791781897846,1.89642057311,0.158400770518,-0.00659852373925,-0.029307169996,-0.00068153508658,-0.049609914271,-0.00249069407243,0.0178907698766,-0.0059653989914,0.573979571389,0.818855803999,0.00183597042618,0.0,0.818810367482,-0.573920689301,-0.0120570061601,0.0,-0.00881941786161,0.00842394903445,-0.99992562471,0.0,0.660917595645,0.259853683397,0.303182018375,1.0,-0.00572,-0.00751771428571,0.287
0.464386065579,0.543170562913,-0.12401655221,-1.3632186746,0.0791256389457,1.8967115391,0.158296597937,-0.00365129516627,-0.0324285939258,-0.000147211260895,-0.0481551375821,-0.00113081782802,0.0190658781597,-0.00411011338145,0.573994351263,0.818845447714,0.00183422409908,0.0,0.818800045717,-0.573935529757,-0.0120515442249,0.0,-0.00881579547786,0.00841954318756,-0.999925693761,0.0,0.660828525477,0.259720009956,0.303190088057,1.0,-0.00604,-0.00793828571429,0.303
0.464321214936,0.542579143427,-0.124020233671,-1.36413048412,0.0790729072807,1.89702852033,0.158215523696,-0.00311784911913,-0.0359787389138,0.000391224452354,-0.0509025642966,-0.000482590029424,0.015474811791,-0.00732865507599,0.574020129341,0.818827382283,0.00183194882149,0.0,0.818781914022,-0.573961279722,-0.0120570954545,0.0,-0.0088213820579,0.00842114418782,-0.999925631009,0.0,0.660717824931,0.259587538769,0.303201995013,1.0,-0.00638,-0.00838514285714,0.32
0.464242669106,0.541977940268,-0.12402577038,-1.36505361827,0.0790245566172,1.89738394923,0.158058067887,-0.00648027213477,-0.0332513587261,-0.00132121340725,-0.0572965041984,-0.00380614686089,0.0205435718643,-0.0128339119188,0.573997866316,0.818842918787,0.001862986221,0.0,0.818797823847,-0.573938852991,-0.0120442348141,0.0,-0.00879326551251,0.00843893662399,-0.999925728657,0.0,0.660616037571,0.259447051862,0.303218758646,1.0,-0.00672,-0.008832,0.337
0.464167713486,0.541360476904,-0.124021620196,-1.36598314834,0.0789652977704,1.89773633081,0.157928261034,-0.008464704282,-0.042136719748,0.00223484265663,-0.0577966672669,-0.00105604421987,0.0206309716811,-0.00929872730229,0.573987659473,0.818849999676,0.00189517959399,0.0,0.818805358661,-0.57392854008,-0.0120234109667,0.0,-0.00875784102423,0.00845323547784,-0.999925918771,0.0,0.660503179179,0.25930158595,0.303242349889,1.0,-0.00706,-0.00927885714286,0.354
0.464087112555,0.540676730308,-0.124031472963,-1.36704745218,0.0789092104429,1.89813026713,0.157808728743,-0.00445206720153,-0.0394344169987,-0.00119050627349,-0.0620740904256,-0.000372227938536,0.0190192057773,-0.00449640323472,0.574004002949,0.818838496663,0.00191517160568,0.0,0.818794043518,-0.573944724664,-0.0120214072169,0.0,-0.00874455673316,0.00846863001399,-0.999925904772,0.0,0.660379290481,0.25914465319,0.303259276426,1.0,-0.0074,-0.00972571428571,0.371
0.463978251804,0.539850679864,-0.124026533552,-1.36828762635,0.0788346817589,1.89859101505,0.157649185056,-0.00329276127462,-0.0409692098511,-0.00018266833023,-0.0663700072124,-0.00209803406939,0.0202625746236,-0.0134360336922,0.574008611444,0.818835181492,0.0019510098253,0.0,0.818791178407,-0.573949161841,-0.0120046943369,0.0,-0.00871025331154,0.00848843098969,-0.999926036278,0.0,0.660245306078,0.258967222659,0.30328777126,1.0,-0.00776,-0.0101988571429,0.389
0.463893013772,0.539185340905,-0.124029695696,-1.36932381599,0.078773475242,1.89898310661,0.157520309989,-0.00136852818417,-0.0451669374243,-3.14163496678e-05,-0.0750765921828,-0.00259679410345,0.0324215793025,-0.0080008098993,0.574016081309,0.818829903583,0.00196832370177,0.0,0.818786131867,-0.573956562426,-0.0119950661291,0.0,-0.00869235389112,0.00849716060119,-0.999926117893,0.0,0.660127593581,0.258811553303,0.303298756256,1.0,-0.00806,-0.0105931428571,0.404
0.463768023359,0.538364991456,-0.124035394285,-1.37059022726,0.0787043875138,1.8994727898,0.157374184335,-0.00915415798335,-0.0511692319924,-0.00111253632652,-0.0730165874864,-0.00529288987032,0.0328066329214,-0.0130723049201,0.574054359307,0.818802975038,0.00200687068695,0.0,0.818759687783,-0.573994654807,-0.0119773459537,0.0,-0.00865532009446,0.008518956491,-0.999926253688,0.0,0.659991241023,0.258608235151,0.303318100331,1.0,-0.00842,-0.0110662857143,0.422
0.463657920189,0.537636055558,-0.12403847335,-1.37176296973,0.0786378306422,1.89992304121,0.157229102672,-0.0083103816712,-0.0470207173157,-0.000380687996306,-0.0719566640327,-0.010475171355,0.0239178475902,-0.00535292215496,0.574074888288,0.818788568986,0.00201217182,0.0,0.818745335947,-0.574015144263,-0.0119764737584,0.0,-0.00865134927787,0.00852301322208,-0.999926253481,0.0,0.659861441612,0.258423927279,0.303313829874,1.0,-0.00874,-0.0114868571429,0.438
0.463558916388,0.536852384155,-0.124040326055,-1.37298066912,0.078569269051,1.90037185916,0.1570719318,-0.00825543592606,-0.0509664680747,-0.00160149752452,-0.0763714946167,-0.00126690250206,0.0259192161448,-0.00698431946684,0.574077238913,0.818786884707,0.00202684357569,0.0,0.818743790901,-0.574017381645,-0.0119748625263,0.0,-0.00864158331763,0.00853412591655,-0.999926243146,0.0,0.659719091304,0.258242636075,0.303326508044,1.0,-0.00906,-0.0119074285714,0.454
0.463438500462,0.536004563493,-0.124050653756,-1.37432716064,0.0784876229368,1.9008747583,0.156908718437,-0.00602608276652,-0.0488242002334,-0.00121004100603,-0.0836307953618,-0.00450304188218,0.0292283396777,-0.0136277492486,0.574101668593,0.818769756363,0.00202659437264,0.0,0.818726704303,-0.57404185376,-0.0119699913713,0.0,-0.0086374832266,0.00853138320657,-0.999926301976,0.0,0.659567247068,0.25802941954,0.303327984994,1.0,-0.0094,-0.0123542857143,0.471
0.46331795934,0.535050893761,-0.124051408146,-1.37582388359,0.0784051723426,1.90141628149,0.156730678946,-0.00860552956788,-0.0553487466113,0.000560742425532,-0.087143274976,-0.00579368809144,0.0311745181646,-0.00891557414152,0.574115106486,0.818760327283,0.00202925453876,0.0,0.818717205913,-0.574055176095,-0.0119807529801,0.0,-0.00864462759533,0.00853988129817,-0.999926167695,0.0,0.659388548047,0.257807746554,0.303335520969,1.0,-0.00976,-0.0128274285714,0.489
0.463196326223,0.534222124183,-0.124053113938,-1.37721520508,0.0783296362055,1.90191735377,0.156559736319,-0.0113190788552,-0.0549227071302,-0.000369844084998,-0.0868099723767,-0.00399099450538,0.0277016477004,-0.00467449096408,0.574131944282,0.81874864208,0.00197953227956,0.0,0.818704756899,-0.574072109131,-0.0120200436697,0.0,-0.00870516776295,0.00852190760928,-0.999925795819,0.0,0.659222725371,0.257594059557,0.303301478354,1.0,-0.01008,-0.013248,0.505
0.463071862767,0.533296436044,-0.124054603692,-1.37870492562,0.0782405489677,1.90247973292,0.156360621339,-0.00362626578869,-0.0557558464996,0.000442962032932,-0.0912030058499,-0.00526850564514,0.0426497507612,-0.0152801357834,0.574129581566,0.818750305798,0.00197667081189,0.0,0.818706374056,-0.574069749921,-0.0120225706956,0.0,-0.00870890418821,0.00852099053137,-0.999925771099,0.0,0.659049874783,0.257370214105,0.303294073569,1.0,-0.01042,-0.0136948571429,0.522
0.462941502549,0.532344819823,-0.124060948583,-1.38024891036,0.0781547933369,1.90305915655,0.156162146281,-0.00418148499918,-0.0542809390929,-0.000658933189042,-0.0915245158765,-0.00600001903792,0.0302245984149,-0.0165655665041,0.574139706065,0.818743230682,0.00196647742639,0.0,0.818699114115,-0.574079866236,-0.0120338950926,0.0,-0.00872392301042,0.00851925434023,-0.999925654973,0.0,0.658870508981,0.257135272575,0.303280580904,1.0,-0.01076,-0.0141417142857,0.539
0.462819312099,0.531415361474,-0.124058530598,-1.38175055366,0.0780688654033,1.90360297199,0.155975893129,-0.0089111651781,-0.0587963936646,-0.00277132448124,-0.0975934668272,-0.00891121918348,0.0428009329987,-0.00980210149804,0.574144294931,0.818740064718,0.00194471702717,0.0,0.818695564517,-0.57408445145,-0.0120566224874,0.0,-0.00875497662828,0.00851453615287,-0.999925423748,0.0,0.658688825801,0.256913131491,0.303268042922,1.0,-0.01108,-0.0145622857143,0.555
0.462687950607,0.530382492605,-0.124056108383,-1.38340032961,0.0779662611675,1.90417572881,0.155772919073,-0.0100422048553,-0.0642602092929,0.000231916659059,-0.0988314211708,-0.0061482697981,0.0314278599562,-0.0145301518124,0.574145876061,0.818739045644,0.00190657829501,0.0,0.818693978514,-0.574086132122,-0.0120842604784,0.0,-0.00879948514981,0.00849919612449,-0.999925163563,0.0,0.658483909193,0.256668038541,0.303260145847,1.0,-0.01142,-0.0150091428571,0.572
0.462536983706,0.529257506586,-0.124056082509,-1.38514507778,0.0778498413939,1.90482906349,0.15553997536,-0.0119482750965,-0.0622543920913,0.000506957861876,-0.100486984276,-0.00155218545994,0.0364689657183,-0.0127944955643,0.574142130698,0.818741620259,0.00192870808719,0.0,0.818696929683,-0.574082375179,-0.0120627831975,0.0,-0.00876923417517,0.0085049431829,-0.999925380453,0.0,0.658281167218,0.256401833442,0.303278712975,1.0,-0.01178,-0.0154822857143,0.59
0.462413635884,0.528294457715,-0.124058863917,-1.38664517263,0.0777586062349,1.90540441331,0.155326399398,-0.00816313215177,-0.060804045205,-0.000517837507122,-0.0997758860788,-0.00670240246191,0.0374929825017,-0.0179486792417,0.574127068768,0.818752109187,0.00195946715383,0.0,0.818707845058,-0.574067206004,-0.012043850357,0.0,-0.00873623024773,0.00851909565208,-0.999925548874,0.0,0.658107539988,0.256177883744,0.303292793809,1.0,-0.01208,-0.0158765714286,0.605
0.462272437956,0.527155563486,-0.124059109449,-1.38839887231,0.0776522041704,1.90607645243,0.15507722978,-0.00701469848877,-0.0677052660419,0.000729646755939,-0.10922062134,-0.00951239762352,0.0384613425661,-0.0181110428799,0.574111169664,0.818763105422,0.00202211983094,0.0,0.818719701601,-0.57405108293,-0.0120063024338,0.0,-0.00866968430484,0.0085486662665,-0.999925875692,0.0,0.657893274412,0.255903657058,0.30332768631,1.0,-0.01244,-0.0163497142857,0.623
0.462114010585,0.525974646874,-0.124068296981,-1.3902118614,0.0775356427357,1.90675030426,0.154848492714,-0.013232760838,-0.0662837595357,0.00107177547729,-0.108038740496,-0.00821211640727,0.0372288496423,-0.0178833915281,0.574120411186,0.818756588698,0.00203686607178,0.0,0.818713435748,-0.574060318807,-0.0119919722615,0.0,-0.0086493888416,0.00855261032975,-0.999926017728,0.0,0.657692126634,0.255637625533,0.30334469541,1.0,-0.01276,-0.0167702857143,0.639
0.461958317352,0.524810712478,-0.124076576951,-1.39204740913,0.0774162351531,1.90740515204,0.154583484287,-0.010069119969,-0.0658193026916,-0.00191285500024,-0.108522436284,-0.00710968392066,0.0448380732832,-0.0143240881689,0.574103177673,0.818768722512,0.00201676058145,0.0,0.818725354078,-0.574043218409,-0.0119968699881,0.0,-0.00866512100979,0.00853877860139,-0.999925999731,0.0,0.657470541541,0.255352982593,0.30334673239,1.0,-0.0131,-0.0172171428571,0.656
0.461806244674,0.523617425478,-0.124078020981,-1.3939634437,0.0773036454895,1.90809682873,0.154336726264,-0.00889312477425,-0.0735503676556,0.00171702818849,-0.114439012679,-0.0103243235419,0.0420211448453,-0.0135332455701,0.574099147617,0.818771610493,0.00199134541411,0.0,0.818727823241,-0.574039211032,-0.0120200894619,0.0,-0.00869876513474,0.00853125726369,-0.999925771812,0.0,0.657234696512,0.25506915209,0.303333804989,1.0,-0.01344,-0.017664,0.673
0.461643818514,0.522327100583,-0.124081237683,-1.3960125922,0.0771700221462,1.90889584996,0.154052818746,-0.00980827955965,-0.0683943237125,0.000149437564569,-0.116919887799,-0.00747880281292,0.045012760567,-0.0128549113786,0.574075920692,0.818787833161,0.00201704015707,0.0,0.818744503259,-0.574015998036,-0.0119924677835,0.0,-0.00866164015526,0.00853619187377,-0.999926051975,0.0,0.656995043192,0.254766854992,0.303334725606,1.0,-0.0138,-0.0181371428571,0.691
0.461490595851,0.521217929524,-0.124089720769,-1.39777290406,0.0770703984691,1.90957368679,0.153813121152,-0.00914130192629,-0.0746546859978,-0.000243717840914,-0.116867043411,-0.0093964950201,0.042780873903,-0.0148733571009,0.574078556853,0.818785928369,0.00203984520122,0.0,0.81874287887,-0.57401852109,-0.011982597621,0.0,-0.00864043974696,0.0085492256812,-0.999926124042,0.0,0.656790858598,0.254496741012,0.303335194198,1.0,-0.0141,-0.0185314285714,0.706
0.461319901615,0.51993715957,-0.124088323401,-1.39982384262,0.0769361151294,1.91031516241,0.153537358745,-0.00232707544232,-0.0733201722607,0.00102375660643,-0.123577756259,-0.0105323791203,0.0407464470771,-0.0149535315243,0.57406444842,0.818795894009,0.00200995386562,0.0,0.818752469704,-0.574004555189,-0.0119962859772,0.0,-0.00866895393113,0.00853246026036,-0.999926020443,0.0,0.656538760996,0.25418748949,0.303322723554,1.0,-0.01444,-0.0189782857143,0.723
0.461138337395,0.51850537569,-0.1240992923,-1.40202579965,0.0768010700937,1.91109328779,0.153240259058,-0.0104412745881,-0.0797350044751,-0.00101326301854,-0.124985788139,-0.00810256299932,0.0362925978633,-0.0141032349842,0.574057883357,0.818800483494,0.00201536275363,0.0,0.818757105991,-0.573997944696,-0.0119961566388,0.0,-0.00866581162121,0.00853674522296,-0.999926011108,0.0,0.656267108948,0.253850379691,0.303347516866,1.0,-0.0148,-0.0194514285714,0.741
0.460987637751,0.517317495198,-0.124102411102,-1.40391600987,0.0766709520583,1.91177480137,0.15297851591,-0.0113131896891,-0.0778629451694,0.000395491071725,-0.123457725366,-0.0116960925476,0.0473520178886,-0.0212324314393,0.574039191853,0.818813641342,0.00199345682824,0.0,0.818770055136,-0.573979424008,-0.0119985219507,0.0,-0.00868051737399,0.00851996863698,-0.99992602664,0.0,0.65601933393,0.253546730304,0.303341544185,1.0,-0.01512,-0.019872,0.757
0.460789393642,0.515883996499,-0.124103166053,-1.40620333238,0.0765307119257,1.91263804605,0.152665572485,-0.00626115189354,-0.0772496387759,-2.72060739635e-05,-0.128862313881,-0.0100192147549,0.0370487452344,-0.0183590506692,0.574026392697,0.818822589614,0.00200352826172,0.0,0.818779195555,-0.573966643571,-0.0119861543603,0.0,-0.00866474238431,0.00852098026345,-0.999926154841,0.0,0.65574720175,0.25319575696,0.303337269016,1.0,-0.01548,-0.0203451428571,0.775
0.460600362539,0.514496993008,-0.124109554575,-1.40841451499,0.0763949477801,1.9134526514,0.152366138986,-0.0118608142024,-0.0831708038942,-0.000696833049346,-0.125849517703,-0.00704847323967,0.044223840701,-0.0159825415593,0.574017749133,0.818828699525,0.00198277976444,0.0,0.818784967264,-0.573958022669,-0.0120046864759,0.0,-0.00869191680863,0.0085145373057,-0.999925973878,0.0,0.655489372215,0.252880463201,0.303322950795,1.0,-0.0158,-0.0207657142857,0.791
0.460419692131,0.513173875069,-0.12411505004,-1.41056951602,0.0762710564728,1.91419662287,0.152065435747,-0.0118274950571,-0.0838539889237,-0.00133926725764,-0.13580410271,-0.00936352529202,0.0401563690168,-0.0282530835715,0.574002902949,0.818839276329,0.00191150417772,0.0,0.81879444092,-0.573943317126,-0.0120614736261,0.0,-0.00877948231921,0.00848861330184,-0.999925429287,0.0,0.65521383747,0.252551001548,0.303289182128,1.0,-0.01612,-0.0211862857143,0.807
0.460217610428,0.511664689986,-0.124112789143,-1.41298800319,0.076130871818,1.91508572373,0.15172472693,-0.0141580630881,-0.0802170168762,9.39536318633e-05,-0.136640064284,-0.0123444229282,0.055288970757,-0.0216561291585,0.573976650482,0.818857710043,0.00189797422759,0.0,0.818812555713,-0.573916989899,-0.0120844616604,0.0,-0.00880634449618,0.00849044742212,-0.9999251775,0.0,0.654913122812,0.252190445966,0.303272228568,1.0,-0.01648,-0.0216594285714,0.825
0.460023366532,0.510264418119,-0.124116003913,-1.41517363637,0.0759889638218,1.91590579146,0.15142636569,-0.00884252673616,-0.0858382909791,-0.000871100552689,-0.137998798263,-0.00128507643519,0.0501987836459,-0.0230080486523,0.573962472782,0.818867613266,0.00191276842731,0.0,0.818822677265,-0.573902773287,-0.0120738110039,0.0,-0.00878927891554,0.00849629616435,-0.999925277972,0.0,0.654631476056,0.251833764365,0.303274293418,1.0,-0.01682,-0.0221062857143,0.842
0.459824031302,0.508842663823,-0.124124855284,-1.41740056786,0.0758434615537,1.91671877458,0.151120570584,-0.0158546730841,-0.0891757970071,-0.00043303519331,-0.138030066611,-0.00589207531712,0.0458780457319,-0.0160092775296,0.573960459235,0.818869023682,0.00191316204597,0.0,0.818824182878,-0.573900845341,-0.0120633392275,0.0,-0.00878049855189,0.00849058654201,-0.99992540361,0.0,0.654357831608,0.251482481765,0.303285650644,1.0,-0.01714,-0.0225268571429,0.858
0.459602342986,0.507221903241,-0.12412830142,-1.41994044426,0.0756803226644,1.91763207588,0.150759759928,-0.0138243316441,-0.0949307711153,-0.00230366484837,-0.145491940459,-0.00559737521208,0.0561415574631,-0.0189652851587,0.573940847528,0.818882772857,0.0019117422163,0.0,0.818837932866,-0.573881260996,-0.0120617112159,0.0,-0.00878018353783,0.00848827922814,-0.999925425966,0.0,0.654060062457,0.251112235976,0.303293196075,1.0,-0.01748,-0.0229737142857,0.875
0.459385407653,0.505649170773,-0.124139707124,-1.42238649577,0.0755286399285,1.91855992031,0.150418302697,-0.01313192297,-0.0957065563882,-0.00108473897313,-0.145357984069,-0.00943063352945,0.0528446383942,-0.0162138798167,0.573932589608,0.818888462421,0.0019533563961,0.0,0.818844225779,-0.573872882052,-0.0120331232154,0.0,-0.00873297564013,0.00850585993809,-0.999925689981,0.0,0.653765680708,0.250732618577,0.303309203378,1.0,-0.01782,-0.0234205714286,0.892
0.459204666266,0.504306634563,-0.124135865679,-1.42443707701,0.0753974195241,1.91934882356,0.150139424312,-0.0131565124951,-0.0993482533128,0.000150841251855,-0.145389791099,-0.00976579409857,0.0555106169641,-0.0245491129977,0.573917915313,0.818898518772,0.00204678708509,0.0,0.81885553618,-0.573857847155,-0.0119803600436,0.0,-0.00863630053938,0.00855193084811,-0.999926136668,0.0,0.653485911396,0.250378207267,0.303355239892,1.0,-0.01814,-0.0238411428571,0.908
0.458943285179,0.502418207287,-0.124144044852,-1.42721115175,0.0752248040724,1.92039384303,0.14974197596,-0.0165136555123,-0.102321312159,0.000107270538795,-0.152375510661,-0.013885223001,0.0538563830312,-0.0210416389069,0.573909820383,0.818903918506,0.00215342186884,0.0,0.818862391219,-0.573849378796,-0.0119172817137,0.0,-0.00852353299595,0.00860296682233,-0.999926666485,0.0,0.653185880992,0.249986637645,0.303428604224,1.0,-0.01848,-0.024288,0.925
0.458708985905,0.500697750054,-0.124147586785,-1.42980153479,0.0750581882423,1.92129385591,0.149381190823,-0.0157722815903,-0.105986905524,-0.000289837515551,-0.15809074136,-0.0104384255929,0.0506397912454,-0.0239223814459,0.573895591515,0.818913825074,0.00217808247801,0.0,0.818872577394,-0.573835009795,-0.0119092580331,0.0,-0.00850295977786,0.008618408627,-0.999926708668,0.0,0.652855270909,0.249581229265,0.303474468693,1.0,-0.01882,-0.0247348571429,0.942
0.458475758399,0.49910484464,-0.124147923371,-1.43225762246,0.0749098583451,1.92219076431,0.149043840702,-0.0137850195158,-0.103041873228,0.00114343153088,-0.159209190473,-0.00808241967818,0.0593440574859,-0.025160487142,0.573895549751,0.818913771755,0.00220891541413,0.0,0.81887284371,-0.573834760651,-0.0119029493767,0.0,-0.00848009998929,0.00864003687036,-0.999926716148,0.0,0.652549992579,0.249195397061,0.303494353869,1.0,-0.01914,-0.0251554285714,0.958
0.458220365353,0.497426701227,-0.124144774628,-1.43491181137,0.0747483038636,1.92316925744,0.148643110053,-0.00912925709917,-0.0990824578966,0.000640802593076,-0.155593628775,-0.00625880627847,0.0574424658447,-0.0261639436975,0.573868813568,0.818932484885,0.00221741195441,0.0,0.818891617962,-0.57380794323,-0.0119041680935,0.0,-0.0084765045634,0.00864741737293,-0.999926682834,0.0,0.652201993605,0.248751387748,0.303491174496,1.0,-0.0195,-0.0256285714286,0.976
0.457944486161,0.495645890655,-0.124150100072,-1.43776813589,0.0745631982724,1.92416048842,0.148229845078,-0.0153584160361,-0.10441705597,-0.000168215374508,-0.158611846007,-0.0118619632087,0.0528218191768,-0.0309623531999,0.573850605766,0.818945460035,0.00213603645043,0.0,0.818903424158,-0.573789958651,-0.0119587689097,0.0,-0.00856810820228,0.0086119201526,-0.999926208454,0.0,0.651852693698,0.248317587046,0.303453360801,1.0,-0.01984,-0.0260754285714,0.993
0.457692239601,0.494162128103,-0.124143260748,-1.44019448754,0.0744111465647,1.92502051307,0.147895113214,-0.0167845540671,-0.103118488523,0.0024714267305,-0.163654918461,-0.0115552464179,0.0600170376368,-0.0198781146204,0.573859071972,0.818939708096,0.002065652359,0.0,0.818896621333,-0.573798584647,-0.0120106089343,0.0,-0.00865086273068,0.00858411790537,-0.999925734989,0.0,0.651544235619,0.247922999336,0.303406328603,1.0,-0.022684,-0.0298132571429,1.008
0.457391448285,0.491857450285,-0.12422419428,-1.44376136474,0.0742059490284,1.92636041229,0.147368731144,-0.0171077178713,-0.138628669795,-0.00637817935885,-0.219364458884,-0.0138531818395,0.0840553880562,-0.0338050243521,0.573856514177,0.818941358483,0.00212117983004,0.0,0.818899195081,-0.573795994008,-0.0119587815898,0.0,-0.00857658147767,0.00859982274561,-0.999926239929,0.0,0.651109428944,0.247344888241,0.303431320835,1.0,-0.0296371428571,-0.0389516734694,1.026
0.45700077596,0.489174993079,-0.124231161683,-1.44807112507,0.0739667212411,1.92792717038,0.146735720782,-0.0255191632188,-0.171917042227,0.000343458048262,-0.279883496255,-0.00830214880431,0.0940352228125,-0.0387172233098,0.573813915053,0.818971306618,0.00208248172311,0.0,0.818928269066,-0.573753193043,-0.0120212519513,0.0,-0.00865039642656,0.00860353044348,-0.999925572183,0.0,0.650553866338,0.246678770552,0.30338173888,1.0,-0.036204,-0.0475824,1.043
0.456546283895,0.486286936124,-0.124272158863,-1.45259518995,0.0736915171016,1.92962868037,0.146082984364,-0.0320916294485,-0.208234759353,-0.00710981495048,-0.315225534997,-0.0183608391502,0.131783867146,-0.0455370759267,0.573834530735,0.818956698328,0.00214581018953,0.0,0.818914626725,-0.573773681215,-0.0119726263802,0.0,-0.0085740182354,0.00862770790103,-0.999926021697,0.0,0.64996272424,0.245877396147,0.303393671552,1.0,-0.0423845714286,-0.0557054367347,1.059
0.455894280426,0.482024348649,-0.124389016811,-1.45923753047,0.0732870000739,1.93199890068,0.14506327484,-0.0390806072435,-0.242687579509,-0.00302353983232,-0.367734628099,-0.0298881461943,0.130842646294,-0.0581381115593,0.573831747208,0.818958754748,0.00210495080365,0.0,0.818916269511,-0.573771187088,-0.0119797871339,0.0,-0.00860335707321,0.00859832618626,-0.999926022781,0.0,0.649164714568,0.244805124295,0.303389380402,1.0,-0.0493377142857,-0.0648438530612,1.077
0.455223327886,0.477848747757,-0.124471655255,-1.46573725096,0.0729056213393,1.93430470652,0.144096977588,-0.0427337248625,-0.276498937782,-0.00256080129635,-0.422023838088,-0.0206174720668,0.153138380737,-0.0671018393001,0.57386326336,0.818936711176,0.00208924770476,0.0,0.818893880568,-0.573802624718,-0.012004463177,0.0,-0.0086322459744,0.00859995814988,-0.999925759769,0.0,0.64833718158,0.243701892506,0.303391728471,1.0,-0.0555182857143,-0.0729668897959,1.093
0.454458478602,0.473228477023,-0.124538134328,-1.47288222922,0.0724809032157,1.93690324437,0.143069810522,-0.0550040775444,-0.295163226159,-0.000932493872346,-0.46376630853,-0.0299670802996,0.161838140657,-0.0691329167808,0.573926746808,0.818892058494,0.00215237890703,0.0,0.818849931615,-0.573865716547,-0.0119864826783,0.0,-0.00858062421438,0.00864200471542,-0.999925841572,0.0,0.647433938657,0.242490570969,0.303415145111,1.0,-0.0616988571429,-0.0810899265306,1.109
0.453552191494,0.467747760552,-0.124581862909,-1.48114305167,0.0719785619627,1.93996349822,0.141768140016,-0.0567536503426,-0.331524165838,-0.00129852084815,-0.502462331993,-0.0311625517398,0.192479562113,-0.0810721112033,0.573881463714,0.818923076481,0.00240983684641,0.0,0.818884204998,-0.573819304357,-0.011866408578,0.0,-0.00833502539172,0.00878345836271,-0.999926686418,0.0,0.646325361106,0.241019827322,0.303540586683,1.0,-0.068652,-0.0902283428571,1.127
0.452550505512,0.461802805445,-0.124616054102,-1.49033381232,0.071385711136,1.94318064659,0.140328589668,-0.0650720955078,-0.35412464677,-0.000362900005348,-0.560149575365,-0.0345250290972,0.195480936512,-0.0811039012541,0.573825833943,0.818962168663,0.00237181357439,0.0,0.818922597931,-0.573763616134,-0.0119095885465,0.0,-0.00839280371817,0.00877653028917,-0.999926263962,0.0,0.645100945939,0.239451847353,0.303543856748,1.0,-0.0752188571429,-0.0988590693877,1.144
0.451426164599,0.455356361105,-0.124685360837,-1.50036448606,0.0707119380133,1.9465885693,0.138843854629,-0.0714481008837,-0.380763314042,-0.00706759541941,-0.600273252912,-0.0385911075588,0.206140598541,-0.0923786338696,0.573863799413,0.818936057089,0.00219568291653,0.0,0.818894082518,-0.573802180359,-0.012011924661,0.0,-0.00857727571418,0.00869140780818,-0.999925442106,0.0,0.643820309955,0.237809393339,0.303496995868,1.0,-0.0813994285714,-0.106982106122,1.16
0.450213193587,0.448264780689,-0.124759826557,-1.51080987915,0.0699975704634,1.95052318869,0.137150477595,-0.0771407755488,-0.424349190526,0.00034251557519,-0.62406783096,-0.0402197305337,0.233072640996,-0.0941155880147,0.573805234403,0.818975742028,0.00265213935791,0.0,0.81894043944,-0.573742639302,-0.0116913385749,0.0,-0.00805343230321,0.00888066642303,-0.999928135414,0.0,0.642490953041,0.235999578577,0.303734303021,1.0,-0.0879662857143,-0.115612832653,1.177
0.448875439586,0.440868769856,-0.124788187984,-1.52218270501,0.0692588873842,1.9544666918,0.135394018172,-0.0762618544998,-0.437404968847,-0.00115471816812,-0.689172109907,-0.0522489713818,0.235249832065,-0.104406025714,0.573789278333,0.818987000982,0.00262739298662,0.0,0.818950928145,-0.573726280654,-0.0117592124808,0.0,-0.008123394158,0.00889918730501,-0.999927404831,0.0,0.64093496988,0.234033407878,0.303726990049,1.0,-0.0945331428571,-0.124243559184,1.194
0.447510630736,0.433393544047,-0.124821225695,-1.53350446834,0.06849391857,1.95839571087,0.133550662049,-0.0833697809359,-0.470950154055,-0.00137426124596,-0.7091035469,-0.0464774256845,0.265269272173,-0.12243813915,0.573707221315,0.819044284201,0.00268916883583,0.0,0.81900883021,-0.573643808206,-0.0117500742966,0.0,-0.00808136173089,0.00894372769187,-0.999927348025,0.0,0.639376927827,0.232053575025,0.303783210823,1.0,-0.100713714286,-0.132366595918,1.21
0.445919495473,0.425104998485,-0.124855531363,-1.54614751708,0.0676008348207,1.96284303325,0.13148129467,-0.0956472742427,-0.490485023918,-0.000403422295916,-0.74117823118,-0.0474054107941,0.261934118782,-0.124571899262,0.573636274065,0.819093821436,0.00273562847516,0.0,0.819059103113,-0.573572851524,-0.0117096756407,0.0,-0.00802239519906,0.00895790857784,-0.999927695911,0.0,0.637637301742,0.229804051588,0.30379529531,1.0,-0.107280571429,-0.140997322449,1.227
0.444175549116,0.416312477329,-0.12497387976,-1.55946893585,0.0666325390996,1.96738585589,0.129299285289,-0.100218058752,-0.528746518567,-0.0086669096587,-0.809726215556,-0.0571943472965,0.276184901787,-0.126535329223,0.573653633297,0.819081802355,0.00269387408767,0.0,0.819046935818,-0.5735907938,-0.0116818275967,0.0,-0.00802334550063,0.00890790366614,-0.999928135007,0.0,0.635780249371,0.227336778242,0.303819655446,1.0,-0.113847428571,-0.14962804898,1.244
0.442292676557,0.407118617222,-0.125047741877,-1.57343206925,0.0656966229102,1.9722119465,0.126960562858,-0.113094033376,-0.546604329648,-0.00206589802943,-0.853736124128,-0.0583741495323,0.275151811655,-0.14483937606,0.573648315245,0.819085372895,0.00274029680876,0.0,0.819050720598,-0.573584880749,-0.0117067743198,0.0,-0.00801720914698,0.00896018595272,-0.9999277171,0.0,0.633809545195,0.224769467952,0.303814448322,1.0,-0.120414285714,-0.15825877551,1.261
0.44019155798,0.397420173666,-0.125164166377,-1.58797160917,0.0647079435276,1.97713744914,0.124508305739,-0.126397235243,-0.578780400585,-0.00446886831306,-0.849957385801,-0.0589771024742,0.302020501518,-0.147688214101,0.573752544827,0.819012139582,0.00280703100162,0.0,0.818978026872,-0.573688495028,-0.0117153349861,0.0,-0.00798479391408,0.00902077365069,-0.999927431721,0.0,0.631743377438,0.221986620061,0.303862700579,1.0,-0.126981142857,-0.166889502041,1.278
0.437989970271,0.387406257045,-0.125298277575,-1.6031480206,0.0635219310713,1.98226237422,0.121904502759,-0.124614235474,-0.601193579854,-0.00783694146092,-0.926496580831,-0.0683122772924,0.30094109939,-0.165636279091,0.573773733468,0.818997702624,0.00268566185184,0.0,0.818962775315,-0.573710958251,-0.0116814353468,0.0,-0.00802642961151,0.00890212924854,-0.999928161681,0.0,0.629550610253,0.219054798318,0.303814355606,1.0,-0.133548,-0.175520228571,1.295
0.435760916037,0.377501605159,-0.125388347499,-1.6177970808,0.0624451855804,1.98713893411,0.11928295869,-0.138028266801,-0.622980183086,-0.00555221043331,-0.93505526626,-0.0693522036516,0.314310872924,-0.1606415277,0.573765066773,0.819003488507,0.00277143766927,0.0,0.818969629209,-0.573701945543,-0.011643496635,0.0,-0.00794623816939,0.00895052723003,-0.999928370115,0.0,0.627397257936,0.216203473403,0.303894679752,1.0,-0.139728571429,-0.183643265306,1.311
0.433190892151,0.366736830368,-0.125505078532,-1.63393019753,0.0612347758033,1.99245353323,0.11644050537,-0.155334183408,-0.646474420374,-0.0096654998157,-0.954396856004,-0.070983327181,0.308683565991,-0.164035664999,0.57387184216,0.818928960992,0.00268561473121,0.0,0.81889393801,-0.573808949153,-0.0116942320828,0.0,-0.0080358702778,0.00891039568394,-0.999928012228,0.0,0.62499408726,0.212986264328,0.303856027204,1.0,-0.146295428571,-0.192273991837,1.328
0.430459402692,0.355537591817,-0.125658471761,-1.65047359839,0.059947832651,1.99790861843,0.11335723295,-0.169357024957,-0.65008726804,-0.00874156845992,-0.99706197819,-0.0712960236815,0.308209558593,-0.192010201526,0.573910291495,0.818901912038,0.00271710830262,0.0,0.818867690867,-0.573847721954,-0.0116294351882,0.0,-0.00796431363948,0.00889937608094,-0.999928682864,0.0,0.622513755633,0.20961949661,0.303892306783,1.0,-0.152862285714,-0.200904718367,1.345
0.427718809323,0.34458155985,-0.125789277108,-1.66656617999,0.0587654322567,2.00312292794,0.110311416507,-0.174283064918,-0.703330799929,-0.0115233449894,-1.00182473525,-0.0705401248348,0.346962426721,-0.196579712002,0.573966125428,0.8188625748,0.00277801256587,0.0,0.818828677131,-0.573902816504,-0.0116576849468,0.0,-0.00795188577435,0.00896600523813,-0.999928186553,0.0,0.62004528896,0.20632643628,0.303928881178,1.0,-0.159042857143,-0.209027755102,1.361
0.42449008552,0.331995848038,-0.125868927619,-1.68517415509,0.057284051192,2.00906495254,0.106808671004,-0.177907440864,-0.705320168816,-0.00573851393056,-1.05902917939,-0.0869158182851,0.321171831452,-0.199208498005,0.573973903067,0.81885750133,0.00266420988576,0.0,0.81882193507,-0.573910779646,-0.0117389332696,0.0,-0.00808365042807,0.00891952656922,-0.999927545696,0.0,0.617113512901,0.202523730568,0.303869862335,1.0,-0.165996,-0.218166171429,1.379
0.421263400071,0.319611495135,-0.125873309184,-1.7030643548,0.0557803821166,2.01476342906,0.103257344903,-0.198637817036,-0.719434002818,8.36495072757e-05,-1.05695686322,-0.0876515951961,0.327107728839,-0.203494568701,0.573818847977,0.818965833085,0.00276420819043,0.0,0.818931814277,-0.573755670654,-0.0116559365961,0.0,-0.00795998695508,0.00895226649696,-0.999928245192,0.0,0.614252388647,0.19885005757,0.303954199929,1.0,-0.172562857143,-0.226796897959,1.396
0.41804610984,0.307667846557,-0.125953870703,-1.7202927364,0.0543875118209,2.0202164883,0.09975705318,-0.206539742662,-0.771453094563,-0.00392707523582,-1.07715485143,-0.0957243957132,0.346972609487,-0.219426163282,0.573746611953,0.819016062152,0.00287438878945,0.0,0.818983341318,-0.573682921777,-0.011616316399,0.0,-0.00786511338257,0.00901907235742,-0.999928395599,0.0,0.611467899117,0.195229796479,0.304007534531,1.0,-0.178743428571,-0.234919934694,1.412
0.414413864566,0.294709836722,-0.126063770804,-1.73912355321,0.0528069915082,2.02586304082,0.0959320277026,-0.218237951012,-0.777813002214,-0.0026625578176,-1.10113687126,-0.0836149757267,0.33320436994,-0.224329528082,0.573728775024,0.819029341431,0.00264149327676,0.0,0.818993155246,-0.573665408478,-0.0117880310435,0.0,-0.00813956669458,0.00892666938987,-0.999927028351,0.0,0.608322747852,0.191190637843,0.303934894493,1.0,-0.185310285714,-0.243550661224,1.429
0.410532173259,0.281352479651,-0.126200288331,-1.75811026261,0.0512498697359,2.03173985465,0.0919024607702,-0.229536449769,-0.808139754936,-0.00587417629616,-1.12497739608,-0.087236217661,0.339193516376,-0.244422529972,0.573752320356,0.819012231543,0.00282601661284,0.0,0.818978212219,-0.573688030683,-0.0117251124903,0.0,-0.00798191231704,0.00904193061622,-0.999927263638,0.0,0.605173025045,0.187020719602,0.304017268195,1.0,-0.191877142857,-0.252181387755,1.446
0.406672303399,0.268463310802,-0.126343676946,-1.77634542603,0.0496659701576,2.03723268319,0.0879170497613,-0.245294391086,-0.79458553369,-0.00561787227998,-1.14514120531,-0.10107085017,0.348685168999,-0.245595833569,0.573735461962,0.819023796031,0.00289622554446,0.0,0.818990787385,-0.573671044224,-0.0116777608344,0.0,-0.00790303543324,0.00907210221218,-0.999927616877,0.0,0.602083272716,0.182941211607,0.304076214102,1.0,-0.198057714286,-0.26030442449,1.462
0.4022341436,0.254526131174,-0.126537851564,-1.79601863288,0.0479174268277,2.04301805367,0.083581584785,-0.267965917538,-0.812401264119,-0.0118498373026,-1.14915682915,-0.0994700691572,0.353233458858,-0.253747468971,0.573895443167,0.818911784157,0.00287349646348,0.0,0.818878571721,-0.573831186883,-0.0116790683354,0.0,-0.0079153771972,0.00905578312985,-0.999927667182,0.0,0.598707127364,0.178377745616,0.304097544742,1.0,-0.204624571429,-0.26893515102,1.479
0.397358151958,0.23948351735,-0.126670020342,-1.81729800488,0.045997051388,2.04911243315,0.0786997853944,-0.277033937177,-0.870425127067,-0.00824121195156,-1.18342224083,-0.100890020792,0.332659554998,-0.280967323451,0.573860961842,0.818936520242,0.00270539995703,0.0,0.818900678532,-0.573796806873,-0.0118173611049,0.0,-0.00812547516559,0.00899714929359,-0.999926511279,0.0,0.594935572426,0.173477185615,0.304025640471,1.0,-0.211577714286,-0.278073567347,1.497
0.393153069176,0.22657845564,-0.126758450828,-1.83507952665,0.0443853184074,2.05435972983,0.0745218756002,-0.284341842598,-0.836110701707,-0.00618879085381,-1.21508627439,-0.104845012062,0.338803781845,-0.290730448404,0.57378080649,0.818991841943,0.00294887007252,0.0,0.818959279434,-0.573715929785,-0.011682355956,0.0,-0.00787609212634,0.00911829168725,-0.99992740933,0.0,0.591549136599,0.169092094568,0.304123977886,1.0,-0.217758285714,-0.286196604082,1.513
0.38773069229,0.210799150794,-0.126874896633,-1.85677909124,0.0423393887941,2.06043743644,0.069224873155,-0.312807021527,-0.88469449187,-0.010140579789,-1.21127172352,-0.10224152402,0.327129022869,-0.301701300865,0.573753112103,0.819010875048,0.00304955833155,0.0,0.818979611132,-0.573687892238,-0.01163381925,0.0,-0.00777887956011,0.0091726426986,-0.999927673214,0.0,0.587821037776,0.164201422236,0.304199118121,1.0,-0.224325142857,-0.294827330612,1.53
0.38229057013,0.195688944198,-0.127059855072,-1.87753331313,0.040344500618,2.0660910069,0.0639832651219,-0.32965052832,-0.90477134457,-0.013173032697,-1.22866569801,-0.11939813917,0.342529050332,-0.315136540985,0.573768642863,0.819000176208,0.00300045657196,0.0,0.818968135904,-0.573703421452,-0.0116757650749,0.0,-0.00784123242048,0.00915664250076,-0.999927332846,0.0,0.583972587355,0.159112800444,0.304192447386,1.0,-0.230892,-0.303458057143,1.547
0.376816789586,0.181207344946,-0.127287979662,-1.89727167647,0.0384670401826,2.07135581417,0.058845395304,-0.345560808254,-0.929638737844,-0.0182898277436,-1.22825902828,-0.116364508771,0.32644233991,-0.320132887148,0.57391646589,0.818896658403,0.00298327648338,0.0,0.818863890846,-0.573850696742,-0.0117495965513,0.0,-0.00790990235502,0.00918636118293,-0.999926519407,0.0,0.580264951833,0.154122952879,0.30418373965,1.0,-0.237072571429,-0.311581093878,1.563
0.370758939987,0.165573689698,-0.127457972149,-1.91850882736,0.0363290613545,2.07688234709,0.0532048924038,-0.359168946504,-0.924793121016,-0.0069530775663,-1.27293259989,-0.127741353795,0.31667472738,-0.339587021321,0.573972725799,0.818857663805,0.00286065852345,0.0,0.818823029661,-0.573907075219,-0.0118432263913,0.0,-0.00805631963738,0.00914023799095,-0.999925773127,0.0,0.576175937147,0.148742921903,0.304125864705,1.0,-0.243639428571,-0.320211820408,1.58
0.364517624031,0.149554112766,-0.127617621047,-1.93975466572,0.034131484857,2.08241246272,0.047270954883,-0.374516751744,-0.928275338597,-0.0115072126142,-1.27161422214,-0.136871891365,0.320292320192,-0.357147557903,0.573863379113,0.818933658421,0.00303844017195,0.0,0.818901755441,-0.573797599782,-0.0117036883599,0.0,-0.00784124561616,0.00920467935954,-0.9999268917,0.0,0.57202869558,0.14332916542,0.30422045364,1.0,-0.250206285714,-0.328842546939,1.597
0.358298750164,0.1342150139,-0.127779654672,-1.95995890419,0.0320835826757,2.08740174607,0.0414734465615,-0.397576063968,-0.974459602801,-0.00687239590994,-1.26689926964,-0.12123361379,0.313140639899,-0.353185642931,0.573848960293,0.81894340857,0.00313228835014,0.0,0.818912149047,-0.573782182719,-0.0117322563352,0.0,-0.00781095313198,0.0092977910954,-0.999926267328,0.0,0.567984804753,0.138076739001,0.304279291489,1.0,-0.256386857143,-0.336965583673,1.613
0.35084548739,0.116723874053,-0.128045287502,-1.98282463771,0.0295785967825,2.09296048134,0.0346363678454,-0.425365881074,-0.993417001209,-0.0198796054072,-1.27471114655,-0.145558949417,0.320678811874,-0.388986376606,0.573889002488,0.818915142595,0.00318574222169,0.0,0.818885121939,-0.573822694018,-0.011637001238,0.0,-0.00770181362789,0.00928728274908,-0.999927211574,0.0,0.563361642534,0.131909639194,0.304331557463,1.0,-0.26334,-0.346104,1.631
0.34300146738,0.0989654773582,-0.128260974353,-2.00580947377,0.0270252868285,2.09834481181,0.0274510929712,-0.438962956998,-1.00492791937,-0.0117521661237,-1.26193467769,-0.150175265231,0.313582920156,-0.411067593998,0.573852324648,0.818940637927,0.00323851036476,0.0,0.818911543684,-0.57378614546,-0.0115797150865,0.0,-0.00762503368629,0.00929727894464,-0.99992770712,0.0,0.55860188162,0.12562944253,0.304375561722,1.0,-0.270293142857,-0.355242416326,1.649
0.336262778715,0.0840279942098,-0.128404850675,-2.02521527427,0.0249959514006,2.10258627629,0.0212134284877,-0.447852000118,-0.98846904833,-0.00661759600579,-1.28970304735,-0.139041989998,0.266357834989,-0.424330063018,0.573756330218,0.819008395028,0.00310955146184,0.0,0.81897583877,-0.573688459459,-0.0118690309578,0.0,-0.00793707502079,0.00935675930884,-0.999924724114,0.0,0.554435041256,0.120369480996,0.304282288092,1.0,-0.276087428571,-0.362857763265,1.664
0.328146425735,0.0666773648869,-0.128629615221,-2.04710566594,0.0224485288733,2.10746057568,0.0138315529645,-0.489924904363,-1.01642666734,-0.0151748893327,-1.31305770866,-0.143024630836,0.277658712329,-0.433845878764,0.57368394177,0.81905836001,0.00329920502166,0.0,0.819028985082,-0.573616284162,-0.0116887570151,0.0,-0.00768144431777,0.00940797787205,-0.999926239963,0.0,0.549742714783,0.114185001372,0.304384426493,1.0,-0.27998,-0.367973714286,1.681
0.319621789698,0.0494922473144,-0.128921079987,-2.06867635761,0.0199076313572,2.11190798907,0.00626373693636,-0.505073340836,-0.993198980755,-0.0161732202084,-1.26237517399,-0.148860812518,0.260495882088,-0.4446991492,0.573798626565,0.818978017763,0.00329992027612,0.0,0.8189485825,-0.57373086559,-0.0116987175637,0.0,-0.00768787441972,0.00941535437788,-0.999926121115,0.0,0.545007917267,0.107852370905,0.304414330059,1.0,-0.27998,-0.367973714286,1.698
0.311441281085,0.0333874450621,-0.129071341456,-2.08868385191,0.0176120979725,2.11587429134,-0.000965825575683,-0.523598658939,-1.01131110774,-0.0083132443513,-1.24185418029,-0.143632261431,0.254822841504,-0.454867874289,0.57384188138,0.818947395554,0.00337718691413,0.0,0.818918107053,-0.573772800107,-0.0117751729991,0.0,-0.00770565762542,0.00952291028782,-0.999924965695,0.0,0.540504980835,0.101999185105,0.304438251725,1.0,-0.27998,-0.367973714286,1.714
0.302509355449,0.016463315615,-0.129282386666,-2.10944301059,0.0150120846874,2.11981756842,-0.0088701661409,-0.534358746016,-1.00252607827,-0.0171433820643,-1.20514935417,-0.151626607997,0.24200596758,-0.465042439774,0.573827190721,0.818957622637,0.00339328974963,0.0,0.818928886163,-0.57375848192,-0.0117230855434,0.0,-0.00765392885301,0.00950607126039,-0.999925523218,0.0,0.53575813466,0.0957308120231,0.304480344744,1.0,-0.27998,-0.367973714286,1.731
0.29267592757,-0.00134361400054,-0.12953964045,-2.13106946138,0.0123471121958,2.12360793236,-0.0174782075375,-0.546666491879,-0.974971517752,-0.00958064154715,-1.18032538744,-0.141717367515,0.199766120845,-0.489361331236,0.573938861768,0.818879449352,0.00337302283936,0.0,0.818849735992,-0.573869323725,-0.0118260751916,0.0,-0.00774860478984,0.00954962685608,-0.999924379016,0.0,0.530691928161,0.0890188669667,0.304497251936,1.0,-0.27998,-0.367973714286,1.749
0.284423204745,-0.0160143531503,-0.129673070414,-2.14860373828,0.0101180085428,2.12675926741,-0.0247966389107,-0.557949282943,-0.954154802547,-0.0210796015496,-1.17077859315,-0.160442567727,0.193557370356,-0.489008222552,0.573853881318,0.81893818045,0.00356740782108,0.0,0.818911476608,-0.573784311499,-0.0116749414752,0.0,-0.00751427736122,0.0096212869257,-0.99992548046,0.0,0.526541000167,0.0835619398645,0.304569351221,1.0,-0.27998,-0.367973714286,1.764
0.274167674352,-0.0334883906327,-0.129898957438,-2.16929080006,0.00735033159757,2.13008012461,-0.0337416672768,-0.573969105956,-0.960832968093,-0.0140041949524,-1.14130371271,-0.153787262286,0.178068059014,-0.510504001663,0.573875988577,0.818922620565,0.00358303807796,0.0,0.818896575457,-0.57380695178,-0.0116072259823,0.0,-0.00744959118904,0.00959543063881,-0.999926212929,0.0,0.521516104045,0.0769054135339,0.304620476115,1.0,-0.27998,-0.367973714286,1.782
0.262419604863,-0.0527564795307,-0.130134262545,-2.1917789076,0.00449168097791,2.13347405962,-0.043985478273,-0.590303207294,-0.977217212902,-0.00311562958462,-1.10178597972,-0.147660095276,0.172290607972,-0.517584454175,0.573969777149,0.818856020408,0.00377619678064,0.0,0.818831812236,-0.573899256279,-0.0116126574663,0.0,-0.00734207931298,0.00975757233477,-0.999925439047,0.0,0.51593071981,0.0695341339946,0.304690519859,1.0,-0.27998,-0.367973714286,1.802
0.254677875949,-0.064991495499,-0.1302872605,-2.20621152,0.0025121957501,2.13545936117,-0.050818466464,-0.599871895209,-0.954991172541,-0.00962718382177,-1.10807763805,-0.152566143051,0.141414772275,-0.534788894514,0.573892726844,0.818910849559,0.00359241577962,0.0,0.81888371775,-0.57382210575,-0.0117641258802,0.0,-0.00757250852572,0.00969330369576,-0.999924345627,0.0,0.512247910413,0.0647634072539,0.304590243337,1.0,-0.27998,-0.367973714286,1.815
0.244222880606,-0.0810505562507,-0.130559284515,-2.22454612188,-2.61832156671e-05,2.13787803347,-0.0599330294002,-0.63007591535,-0.934131761178,-0.0141834142529,-1.08093638276,-0.143368742641,0.13599058363,-0.549978651308,0.57396564885,0.818859319664,0.00368719954549,0.0,0.818833633798,-0.573894983609,-0.0116950780548,0.0,-0.00746070197832,0.00973196343693,-0.99992481058,0.0,0.507524176419,0.058452013306,0.304647437718,1.0,-0.27998,-0.367973714286,1.832
0.233658351009,-0.0968977618543,-0.130689715554,-2.24257457285,-0.00247122525277,2.13999635396,-0.0692677907728,-0.617636514207,-0.941000443384,-0.0107110072079,-1.05177670026,-0.149822326781,0.128630466952,-0.560317695221,0.573839345898,0.818947825188,0.00368939290104,0.0,0.818921299611,-0.573767562415,-0.0118083133853,0.0,-0.0075536840262,0.00979758589235,-0.999923471656,0.0,0.502742019167,0.0522955124807,0.304630875003,1.0,-0.27998,-0.367973714286,1.849
0.222737164999,-0.112538246017,-0.130930379599,-2.26035457739,-0.00505722944695,2.14183705952,-0.0787558879996,-0.651318648627,-0.92786591243,-0.0197140026249,-1.04143869891,-0.154802568662,0.10838948172,-0.566660949254,0.573873057203,0.818925246718,0.00344984122272,0.0,0.818894779843,-0.573801084995,-0.0120167094196,0.0,-0.00786141544617,0.00972130990609,-0.999921844086,0.0,0.497917281539,0.0460141162394,0.304520175269,1.0,-0.27998,-0.367973714286,1.866
0.211471319012,-0.128186609564,-0.131194124046,-2.27759683155,-0.0075073100972,2.1435304624,-0.0885486643337,-0.662606665335,-0.920242432641,-0.0103034265358,-1.00953511775,-0.142376312385,0.0888056859107,-0.588973552926,0.573989559066,0.818843073001,0.00357138388677,0.0,0.818813905512,-0.573916759279,-0.0120036852599,0.0,-0.00777960724068,0.00981447775703,-0.999921573793,0.0,0.49317324844,0.0397084733353,0.304566643377,1.0,-0.27998,-0.367973714286,1.883
0.200089430511,-0.143739890071,-0.131417588213,-2.29446686291,-0.0099748172629,2.14499226165,-0.0986196700342,-0.680361595596,-0.935468635581,-0.0165358545248,-0.974831462141,-0.144380918108,0.0983080660412,-0.59949185933,0.573903914132,0.818902492597,0.00370835040022,0.0,0.818875206929,-0.573830751045,-0.0119336303691,0.0,-0.00764466134309,0.00988562370886,-0.99992191375,0.0,0.488421603956,0.0334963305602,0.304637730602,1.0,-0.27998,-0.367973714286,1.9
0.189655433049,-0.157191466193,-0.131708685524,-2.30912021449,-0.0122253460627,2.14606507152,-0.107684981663,-0.697485867272,-0.891055673188,-0.0171761010786,-0.977898715358,-0.158990309381,0.0701413508908,-0.598766206942,0.574022033591,0.8188201306,0.00361186620314,0.0,0.818791240878,-0.573948761911,-0.012019545078,0.0,-0.00776896891176,0.00985703789737,-0.999921237861,0.0,0.484199455611,0.0278785380849,0.304590750076,1.0,-0.27998,-0.367973714286,1.915
0.177153094946,-0.173285483473,-0.131864642149,-2.32615811763,-0.0146774657393,2.14714234309,-0.118807880185,-0.703084976622,-0.886058826619,-0.0126861681421,-0.951226841727,-0.143477020033,0.057501042284,-0.617239419951,0.573880196111,0.818918602565,0.00381965765538,0.0,0.818891902503,-0.573805506307,-0.0120016602423,0.0,-0.00763678927108,0.0100155946891,-0.999920680511,0.0,0.479181938383,0.0214091819066,0.304666402624,1.0,-0.27998,-0.367973714286,1.933
0.164822352475,-0.188236281718,-0.132181811957,-2.34194118514,-0.0171805809217,2.1478813291,-0.129595809855,-0.732677385628,-0.863818160712,-0.0212407171666,-0.90511633334,-0.143473740641,0.0412307209072,-0.645089402599,0.573970572506,0.818855519432,0.00376392016952,0.0,0.81882784012,-0.573895747262,-0.0120576290897,0.0,-0.00771350686195,0.0100029194817,-0.999920218524,0.0,0.474413057063,0.0150802208427,0.304657657525,1.0,-0.27998,-0.367973714286,1.95
0.15312783653,-0.202191180173,-0.132343206864,-2.35639852591,-0.0194303095636,2.14853131418,-0.14003394215,-0.731992906859,-0.851352709318,-0.01048392044,-0.911173602669,-0.138296198372,0.0268149435958,-0.657117063366,0.573815035801,0.818963879533,0.00390071928601,0.0,0.818938393001,-0.573740269384,-0.0119481654563,0.0,-0.00754726150963,0.0100506792794,-0.999921008225,0.0,0.469971869334,0.00928091466443,0.304707090812,1.0,-0.27998,-0.367973714286,1.966
0.139541196669,-0.217741951057,-0.132703951762,-2.37228577717,-0.0219188729818,2.1489436974,-0.152025428054,-0.75836527878,-0.866888570426,-0.0275098181596,-0.859837303972,-0.143539831455,0.0334094752498,-0.67509386821,0.573930269242,0.81888243125,0.00404434657033,0.0,0.818858571349,-0.573854644831,-0.0119261744138,0.0,-0.00744541098203,0.0101567358956,-0.999920700141,0.0,0.464951782385,0.00261793779504,0.304760220376,1.0,-0.27998,-0.367973714286,1.984
0.126529852706,-0.232175972807,-0.132903384543,-2.38705218307,-0.0243383401516,2.14913121115,-0.163607667944,-0.768894499989,-0.864555765177,-0.0171889889692,-0.869675820047,-0.150971823925,0.00969906473752,-0.687667979864,0.573810388368,0.818966819528,0.00396656204175,0.0,0.818941582281,-0.573734570335,-0.012003104373,0.0,-0.0075545358923,0.0101360837276,-0.999920091204,0.0,0.46015730502,-0.00356598001428,0.30471569067,1.0,-0.27998,-0.367973714286,2.001
0.113862119389,-0.245648948022,-0.133248630641,-2.4004215938,-0.0265160723731,2.14922857204,-0.174819705684,-0.801138801046,-0.848887767978,-0.0311630525496,-0.845498149606,-0.135215750338,0.00425067184848,-0.702033556472,0.573948113072,0.818869272404,0.00417433990506,0.0,0.818847227531,-0.57387220326,-0.0118599827504,0.0,-0.00731637867006,0.0102253582485,-0.999920953202,0.0,0.455731516598,-0.00951868354713,0.304791751299,1.0,-0.27998,-0.367973714286,2.017
0.100251539921,-0.259711874901,-0.133495235927,-2.41452036344,-0.0288058030663,2.14912308857,-0.187030350214,-0.807287450501,-0.817196909918,-0.0222431169885,-0.856945721773,-0.133473951503,-0.00962881032875,-0.718822205195,0.573869906394,0.818924107922,0.00416928044605,0.0,0.818901202136,-0.573792919427,-0.0119688619186,0.0,-0.00740942862498,0.0102829964178,-0.99991967695,0.0,0.450931774371,-0.0157235399774,0.304727600821,1.0,-0.27998,-0.367973714286,2.034
0.0862200414039,-0.273651395049,-0.133863460959,-2.42791404635,-0.0311152657662,2.1489010136,-0.199488190646,-0.839836635278,-0.811105392297,-0.0262026340466,-0.773096621992,-0.134606010159,-0.0236035162726,-0.732759143168,0.574016276307,0.818820204053,0.00441982697182,0.0,0.818801936743,-0.573940391899,-0.0116859674077,0.0,-0.00703212438316,0.0103270972096,-0.999921947099,0.0,0.446258992226,-0.0220504523367,0.30485168947,1.0,-0.27998,-0.367973714286,2.051
0.0729457671282,-0.286484680097,-0.134064798693,-2.4404391455,-0.0332174403343,2.14841955687,-0.211546140535,-0.832358098139,-0.827013401321,-0.0222015456765,-0.777481032732,-0.118594212204,-0.0336662469061,-0.750366242804,0.573838442035,0.818945013031,0.00438804923642,0.0,0.818925580489,-0.573761590558,-0.0118015982714,0.0,-0.00714730354854,0.0103658961093,-0.999920728983,0.0,0.441748121845,-0.0278384067569,0.304801297709,1.0,-0.27998,-0.367973714286,2.067
0.0574896533795,-0.300775682469,-0.134431620022,-2.4538568362,-0.0356070616301,2.14780839867,-0.225425363891,-0.865239596817,-0.779542854742,-0.020670169896,-0.741952802517,-0.13836513538,-0.0462907963502,-0.783520726675,0.573905886801,0.818896622429,0.00459366635537,0.0,0.818881148765,-0.57383030204,-0.0115410380592,0.0,-0.0068150633449,0.010385336414,-0.999922846873,0.0,0.43678339241,-0.0345173869053,0.304913481268,1.0,-0.27998,-0.367973714286,2.085
0.0427736166534,-0.31391680057,-0.134641799864,-2.46639928733,-0.0377811730281,2.14692863899,-0.238758472358,-0.870643908993,-0.764064302321,-0.0156557267123,-0.720441241049,-0.133570360566,-0.0565410299802,-0.787430824918,0.573798508635,0.818972371263,0.00450260996259,0.0,0.81895464978,-0.573721615534,-0.0117275902553,0.0,-0.00702146292362,0.0104169077211,-0.999921090433,0.0,0.431979715907,-0.0406675161762,0.304841369694,1.0,-0.27998,-0.367973714286,2.102
0.0293915929581,-0.325398656145,-0.134982547894,-2.4769017369,-0.0396463461511,2.14616296082,-0.250882233569,-0.885160724317,-0.764768139999,-0.0095967028238,-0.686580089575,-0.118406089139,-0.0503738840503,-0.810495478308,0.573882512158,0.818912270221,0.00472258642797,0.0,0.818898190132,-0.573806131826,-0.0115336108484,0.0,-0.00673529606857,0.0104864569433,-0.999922331988,0.0,0.427845840019,-0.0462311495305,0.304936713289,1.0,-0.27998,-0.367973714286,2.117
0.0131827042766,-0.338809004479,-0.135259573371,-2.48934649908,-0.0418480981809,2.14502838531,-0.265759619879,-0.911745488802,-0.755297916106,-0.0331797949228,-0.667057909042,-0.129881236575,-0.0706742717748,-0.823461886534,0.573740120355,0.819011995059,0.00473002603994,0.0,0.818997337176,-0.57366269429,-0.0116284900266,0.0,-0.00681056445858,0.0105458130385,-0.999921197915,0.0,0.42279548845,-0.0527737848343,0.304895632748,1.0,-0.27998,-0.367973714286,2.135
-0.00254178985184,-0.351218044273,-0.135591792237,-2.50057691443,-0.0439623473716,2.1437642867,-0.280065947318,-0.911224427076,-0.745531624865,-0.0168522125069,-0.633526443721,-0.122877622801,-0.0753036602772,-0.844683118037,0.573777448304,0.818985792066,0.00473910471914,0.0,0.818971220614,-0.573699939793,-0.0116303821069,0.0,-0.00680642465456,0.0105546445542,-0.999921132921,0.0,0.418045984289,-0.0590413803504,0.304915309826,1.0,-0.27998,-0.367973714286,2.152
-0.0176096589197,-0.362654123634,-0.135963946871,-2.51081657899,-0.0458566126701,2.1426037973,-0.293888355889,-0.953852720243,-0.717641082454,-0.0286080531871,-0.641051534315,-0.112999329072,-0.0841796969352,-0.868775864626,0.57382688723,0.818950407536,0.00486625009642,0.0,0.818937657227,-0.57374925945,-0.0115606123291,0.0,-0.00667568931683,0.0106191500922,-0.999921331317,0.0,0.413591439323,-0.064954305767,0.304938947674,1.0,-0.27998,-0.367973714286,2.168
-0.0338054909162,-0.374462899565,-0.136231447247,-2.52147186413,-0.0478594551068,2.14110909969,-0.308891837638,-0.954428874191,-0.689715451913,-0.0170642476501,-0.615470304675,-0.119649934785,-0.094524329261,-0.885664490862,0.573673748596,0.819058293878,0.00476322411955,0.0,0.819042964066,-0.57359452388,-0.0117767606121,0.0,-0.00691382729597,0.0106575087981,-0.999919304993,0.0,0.40878251859,-0.0711338253151,0.304859453883,1.0,-0.27998,-0.367973714286,2.185
-0.0513966464704,-0.386736798805,-0.136615801122,-2.53201038691,-0.04995543255,2.13959241968,-0.325033537089,-0.969624151667,-0.668385996313,-0.0170980323891,-0.582896294992,-0.11813540222,-0.0836356766713,-0.917431266505,0.57376716554,0.818991849311,0.00493329634846,0.0,0.818980224525,-0.573689764942,-0.0114974927169,0.0,-0.00658629800673,0.0106373607602,-0.999921730554,0.0,0.403819535318,-0.0777965021598,0.304973511333,1.0,-0.27998,-0.367973714286,2.203
-0.0662539869262,-0.396612655309,-0.136899280295,-2.54066303141,-0.0516458675904,2.13815464672,-0.338862246439,-1.0032120743,-0.648601651291,-0.0223145574203,-0.570070977757,-0.113897825265,-0.0961704519985,-0.931169253759,0.573691278321,0.819045224538,0.0048973708586,0.0,0.819032450487,-0.573612899909,-0.0116117616379,0.0,-0.00670149184234,0.0106728775188,-0.999920586693,0.0,0.399592975699,-0.0832907448892,0.304934207715,1.0,-0.27998,-0.367973714286,2.218
-0.0843331706683,-0.408108743584,-0.137248090913,-2.55058630188,-0.0534539412899,2.13629313546,-0.355725236775,-1.0014497333,-0.626999792105,-0.017997295177,-0.534864746116,-0.095152679546,-0.102707942954,-0.942569808553,0.573697509682,0.819040385845,0.00497600657171,0.0,0.819026939702,-0.573616181698,-0.0118361749925,0.0,-0.00684011913651,0.0108660767574,-0.999917567175,0.0,0.394530388183,-0.089847417679,0.304900683347,1.0,-0.27998,-0.367973714286,2.236
-0.103892409962,-0.419871275445,-0.137664874175,-2.56038223801,-0.0555243263845,2.13454734728,-0.373957246623,-1.02451960461,-0.594781014817,-0.0183884149804,-0.506536601957,-0.108725707762,-0.102122365884,-0.972215807921,0.573721272237,0.819022826626,0.00512427058742,0.0,0.819013109724,-0.573642401374,-0.0115181746501,0.0,-0.00649427410935,0.010805274638,-0.999920532064,0.0,0.389288315117,-0.0968952186789,0.304997165491,1.0,-0.27998,-0.367973714286,2.255
-0.118481873378,-0.428191542159,-0.137936615876,-2.56749687889,-0.056973649609,2.13293952831,-0.387656938665,-1.04949615417,-0.584831420166,-0.0242530594293,-0.505987927207,-0.0982745028573,-0.112324428469,-0.980764436251,0.573671537834,0.819058286701,0.00502360106433,0.0,0.819045579367,-0.57359024313,-0.0118033387992,0.0,-0.00678626455497,0.0108860073541,-0.999917717343,0.0,0.385297321991,-0.102017918605,0.304923665934,1.0,-0.27998,-0.367973714286,2.269
-0.138499290094,-0.439067893997,-0.138290693445,-2.57658524588,-0.0588172676126,2.13097974036,-0.406495107938,-1.06101112679,-0.566988519537,-0.0130576978743,-0.465107425128,-0.0902345809823,-0.104191813973,-1.00098827542,0.573641549827,0.819078948502,0.00507891076466,0.0,0.819066448857,-0.573559246871,-0.0118612641256,0.0,-0.00680238648183,0.0109642904366,-0.999916752472,0.0,0.379985408983,-0.108950304858,0.304903252689,1.0,-0.27998,-0.367973714286,2.288
-0.154754679239,-0.447375569557,-0.138637710028,-2.58314493914,-0.0602396537585,2.12951698811,-0.421731811156,-1.08247151264,-0.554895796736,-0.0170809828386,-0.445629786595,-0.0971009304635,-0.0939524963902,-1.01251448462,0.57377557572,0.818983748799,0.00528723100596,0.0,0.81897581011,-0.573695655559,-0.0115179923861,0.0,-0.00639991034307,0.0109390676198,-0.999919685748,0.0,0.375864353231,-0.114565560504,0.305037122361,1.0,-0.27998,-0.367973714286,2.303
-0.174335418631,-0.456795576858,-0.138985927809,-2.59099097835,-0.0619341831746,2.12749305726,-0.440253929188,-1.10043132728,-0.515623339619,-0.0279979886425,-0.423115036353,-0.0958661561673,-0.100672620386,-1.03928219872,0.573753481136,0.818999827538,0.00519348420449,0.0,0.818988911295,-0.573670911529,-0.0118150473038,0.0,-0.00669729983035,0.0110325429054,-0.999916711117,0.0,0.370754584909,-0.121151365743,0.304947593192,1.0,-0.27998,-0.367973714286,2.321
-0.191840857659,-0.464761305298,-0.139230286892,-2.59748366108,-0.0633220017911,2.12584204855,-0.45707257226,-1.10271069926,-0.48936450949,-0.0129475466877,-0.405725315412,-0.0928766309753,-0.100944687295,-1.05239043655,0.573547913428,0.819143675581,0.00521312372259,0.0,0.819132554459,-0.57346455426,-0.0118747688112,0.0,-0.00673772982102,0.0110812015732,-0.999915901448,0.0,0.366295477941,-0.126945054828,0.304921291541,1.0,-0.27998,-0.367973714286,2.337
-0.209837334973,-0.4723794882,-0.139574637943,-2.60348206296,-0.0647442280418,2.12424689633,-0.474063174483,-1.11935260496,-0.474836658459,-0.0133360127888,-0.36008689473,-0.0866724749142,-0.0927405265951,-1.05377496655,0.573681680861,0.81904965503,0.0052667390756,0.0,0.819040069511,-0.573599504741,-0.011735399305,0.0,-0.0065910027243,0.0110462666123,-0.999917265916,0.0,0.361833188744,-0.13290257492,0.304969251009,1.0,-0.277721714286,-0.365005681633,2.353
-0.228910849076,-0.47982509688,-0.139830071367,-2.60930174149,-0.0659330390878,2.1225816031,-0.49220235737,-1.12023132306,-0.42687140019,-0.0126804539798,-0.340370208347,-0.0767601535602,-0.0988164166539,-1.07218649131,0.573798426618,0.818966730932,0.00544115237545,0.0,0.818959403801,-0.573715639497,-0.0116878921826,0.0,-0.00645044482862,0.0111627919686,-0.999916888465,0.0,0.357188259183,-0.139087693117,0.305011407902,1.0,-0.271154857143,-0.356374955102,2.37
-0.247764241546,-0.486725634862,-0.139882791515,-2.61486430166,-0.06705897262,2.12088515259,-0.510269808131,-1.11366512924,-0.400826785169,-0.00599639713368,-0.312016943895,-0.0637425011929,-0.0981071650773,-1.06856332778,0.573685256042,0.819046056779,0.00543422257613,0.0,0.819037199329,-0.573600044004,-0.0119080870173,0.0,-0.00663632917643,0.0112825416127,-0.999914328025,0.0,0.352562744443,-0.145030440069,0.304950124397,1.0,-0.264588,-0.347744228572,2.387
-0.266618197864,-0.492934732478,-0.139959621488,-2.61981446703,-0.0680511113725,2.11937159581,-0.528146568972,-1.10304120236,-0.350705671612,-0.00271915191575,-0.274779344524,-0.0450906571024,-0.0780447935393,-1.04055838448,0.573835088063,0.818940660305,0.00549850050021,0.0,0.818931651437,-0.57374792045,-0.0120424646653,0.0,-0.00670743987616,0.0114135046121,-0.999912367242,0.0,0.348053012667,-0.150945031857,0.304907930142,1.0,-0.258021142857,-0.339113502041,2.404
-0.285221870029,-0.498639094526,-0.139918669895,-2.62419231751,-0.0689796052626,2.11801234933,-0.545830655502,-1.07454242669,-0.319100287066,0.0131372472522,-0.247941033567,-0.0544477064847,-0.0760245298743,-1.03059238276,0.573909459494,0.818888172328,0.00555341563866,0.0,0.818880466329,-0.573823072709,-0.0119419425766,0.0,-0.00659256443208,0.0114013969096,-0.99991326936,0.0,0.343697889242,-0.156715827917,0.304941489679,1.0,-0.251454285714,-0.33048277551,2.421
-0.302340842172,-0.50344226897,-0.139818277468,-2.62784665976,-0.0696367708347,2.11681091682,-0.562224100628,-1.07734885295,-0.289944536555,-0.00402024708734,-0.214968746473,-0.0412451557774,-0.0709892405565,-1.02175778068,0.573939085731,0.818866543908,0.00567944017559,0.0,0.818860636869,-0.573852495525,-0.0118877107708,0.0,-0.00647541238768,0.011473712755,-0.999913207709,0.0,0.339738145804,-0.161951405796,0.304973563913,1.0,-0.245273714286,-0.322359738776,2.437
-0.321291432847,-0.508279100384,-0.139643462953,-2.63149011148,-0.0703553820143,2.11562168814,-0.580438259937,-1.03618681063,-0.266164525595,0.0122163191915,-0.197250391173,-0.0358781018073,-0.0706304166394,-1.01012472602,0.573897602466,0.818895111801,0.00575192617252,0.0,0.818890945714,-0.573812187488,-0.0117447613542,0.0,-0.00631732395092,0.0114507111075,-0.99991448266,0.0,0.335408637606,-0.167702827616,0.305019055512,1.0,-0.238320571429,-0.313221322449,2.455
-0.336908030093,-0.511909345283,-0.139503980398,-2.63426802317,-0.0709103286475,2.11464453934,-0.595357821915,-1.0285061782,-0.229967919577,0.0170523693618,-0.181430028715,-0.0391584024585,-0.0700080772547,-0.996097699475,0.573969476568,0.818844561281,0.00577679244719,0.0,0.818840639235,-0.573883816128,-0.0117524476186,0.0,-0.00630834157475,0.0114760395775,-0.999914248994,0.0,0.331828348245,-0.172397909106,0.305021848334,1.0,-0.232526285714,-0.30560597551,2.47
-0.355114428691,-0.515610595571,-0.139275264385,-2.63725304681,-0.071346110408,2.11354735807,-0.612970880625,-1.02225335952,-0.190405286726,-0.000914172437884,-0.158357713113,-0.0158722576011,-0.0554947731183,-0.97572383723,0.573932751988,0.818869714116,0.00585955633906,0.0,0.818865122198,-0.573843617607,-0.0120067098355,0.0,-0.00646958660291,0.0116894553941,-0.999910746558,0.0,0.327663396624,-0.177784883942,0.304944952797,1.0,-0.225573142857,-0.296467559184,2.488
-0.37194983096,-0.518628652761,-0.138992528535,-2.6396956566,-0.0717507555613,2.11270511095,-0.629210074503,-0.974523574283,-0.166705089231,0.0175710167257,-0.13688380849,-0.0102669364212,-0.0399706995331,-0.939659206987,0.573904903693,0.818889118442,0.00587538219144,0.0,0.818883829917,-0.57381408392,-0.012141544272,0.0,-0.00657132795401,0.0117795740606,-0.999909025504,0.0,0.32386036384,-0.182736615585,0.304882274617,1.0,-0.219006285714,-0.287836832653,2.505
-0.387555009379,-0.521101320961,-0.138799011605,-2.64160441927,-0.0720884883797,2.11198579155,-0.644196064369,-0.969535683571,-0.152627825419,0.0168047898349,-0.114055696037,-0.0206707761593,-0.0489694938002,-0.936513489975,0.574018361932,0.818809195132,0.00593034853441,0.0,0.818804287249,-0.573926674234,-0.0121843623698,0.0,-0.00657320928842,0.0118500706841,-0.999908180157,0.0,0.320365287045,-0.187343294306,0.30486740057,1.0,-0.212825714286,-0.279713795918,2.521
-0.403537820184,-0.523383527151,-0.13846520091,-2.64330875818,-0.0723259351666,2.11130289968,-0.659800955136,-0.9400178413,-0.126936041204,0.0169168437294,-0.0897865951919,-0.0163856310587,-0.0417012991856,-0.903409829254,0.573889407221,0.818899124347,0.00599327328735,0.0,0.818895056557,-0.573797503049,-0.0121679391282,0.0,-0.00652551508623,0.0118911421824,-0.999908004964,0.0,0.316821344272,-0.191999118109,0.30488064422,1.0,-0.206258857143,-0.271083069388,2.538
-0.419316393308,-0.525300687189,-0.138207704402,-2.64469070848,-0.0725516977414,2.11073226278,-0.674991850342,-0.903063674992,-0.102595510846,0.0242374057072,-0.0718350676661,-0.00221910648301,-0.024356916984,-0.890962128203,0.574010156237,0.818813970637,0.00606373877577,0.0,0.818811264555,-0.57391873259,-0.0120891820089,0.0,-0.00641882143174,0.0119046000691,-0.999908535431,0.0,0.31333981947,-0.196617351038,0.304912838822,1.0,-0.199692,-0.262452342857,2.555
-0.433692171788,-0.526745475262,-0.137988527589,-2.64576062373,-0.0727037253646,2.11030143935,-0.688922511976,-0.891063352111,-0.0803255274605,0.0112649927407,-0.0616412325211,-0.00599064113037,-0.0214043637546,-0.862584697415,0.57409162894,0.818756233511,0.00614642732976,0.0,0.818754814665,-0.574000224006,-0.012043388426,0.0,-0.00633267060582,0.0119466554588,-0.999908583175,0.0,0.310171282709,-0.200813947736,0.304924053754,1.0,-0.193511428571,-0.254329306123,2.571
-0.449345732845,-0.528062163047,-0.13762300997,-2.646733201,-0.0728151634451,2.1098773095,-0.70414650549,-0.851734265543,-0.067574391033,0.0190853879307,-0.0503242061883,-0.00203492778818,-0.0190631899988,-0.845045221828,0.574080215427,0.81876391153,0.00618953419883,0.0,0.81876325964,-0.573989018382,-0.0120032638267,0.0,-0.00627523540053,0.0119588297242,-0.999908799747,0.0,0.306736963985,-0.205330504025,0.304936514741,1.0,-0.186558285714,-0.245190889796,2.589
-0.463796187417,-0.528955895888,-0.137331354384,-2.64741967036,-0.0728668122129,2.10955616853,-0.71808930324,-0.849119628613,-0.0447553281065,0.0139534196291,-0.0376159265677,-0.00134351499644,-0.009533833632,-0.814125120604,0.574227662994,0.818659993717,0.00625720718417,0.0,0.818660115381,-0.574135938288,-0.0120119420463,0.0,-0.00624132904731,0.0120203467935,-0.999908274331,0.0,0.303565410707,-0.209503128639,0.304931029377,1.0,-0.179991428571,-0.236560163265,2.606
-0.477564921265,-0.529557847114,-0.13687886435,-2.6478952871,-0.0728868885198,2.10930492891,-0.731609524803,-0.794662325481,-0.0335549887961,0.0211021144897,-0.0303368600812,-0.00155292795596,-0.00622642380195,-0.785658650017,0.574093487868,0.818754270532,0.00623366467872,0.0,0.818754026726,-0.574001780532,-0.0120227520634,0.0,-0.00626566560411,0.0120062528804,-0.999908291458,0.0,0.300748940256,-0.213203641638,0.304925997597,1.0,-0.173810857143,-0.228437126531,2.622
-0.490282269508,-0.529891703638,-0.136573045238,-2.64817831785,-0.0728999596288,2.10910167752,-0.743897661426,-0.788651107313,-0.0207372098148,0.0224375362724,-0.01240153498,-0.00103540536721,-0.0108481421291,-0.764685870461,0.574189428175,0.81868687395,0.00624899157762,0.0,0.818686460942,-0.574096926975,-0.0120807288216,0.0,-0.00630292860349,0.0120528236273,-0.999907496988,0.0,0.297788471187,-0.217079541554,0.304908572547,1.0,-0.167244,-0.2198064,2.639
-0.503804784183,-0.530064181592,-0.136049797816,-2.64833640583,-0.0728952079553,2.10897363136,-0.757281350195,-0.747709594162,-0.00627290949714,0.0304618858033,-0.0102915903182,-0.000881199680931,-0.00613096917265,-0.732122697826,0.573927198043,0.818871343623,0.00616772573922,0.0,0.818869916678,-0.573835196992,-0.0120819350457,0.0,-0.00635441461206,0.0119849469373,-0.999907986998,0.0,0.294863007569,-0.220911117838,0.304902243244,1.0,-0.160290857143,-0.210667983674,2.657
-0.514937023477,-0.530084505534,-0.135751939389,-2.64839747441,-0.0728954294084,2.10889699919,-0.768004951565,-0.733090055353,0.00116377255187,0.0196982074597,-0.00303804735081,-0.000860017798147,-0.00694841380832,-0.704919641359,0.574048511261,0.818786447451,0.00614874706617,0.0,0.818784577586,-0.57395620013,-0.0121178686518,0.0,-0.0063929582067,0.0119909745919,-0.999907669044,0.0,0.292412414577,-0.224085700682,0.304883037977,1.0,-0.154496571429,-0.203052636735,2.672
-0.526850975785,-0.529985964885,-0.135280248247,-2.64832835024,-0.0728369274732,2.10885312946,-0.779742881364,-0.681468167494,0.0180796351909,0.0248237132294,0.00609974922325,-0.00221931656138,-0.000657175199883,-0.697047987537,0.573889071725,0.818898630958,0.00609200058081,0.0,0.818896189519,-0.573797358153,-0.0120983250429,0.0,-0.00641185142341,0.0119320423193,-0.999908253055,0.0,0.289823328051,-0.227444077031,0.304886955671,1.0,-0.147929714286,-0.194421910204,2.689
-0.539094833472,-0.529758601772,-0.134914930736,-2.6481631735,-0.0727872405606,2.10885527579,-0.791585443235,-0.676396718967,0.0177831320442,0.0147809792549,0.0122286261412,0.000459468889244,0.000830456214789,-0.652939268146,0.573989453467,0.818828460312,0.00606686028806,0.0,0.818825948635,-0.573898306183,-0.0120642821432,0.0,-0.00639693988986,0.0118927023158,-0.999908817239,0.0,0.286981958235,-0.231110445662,0.304891455926,1.0,-0.140590285714,-0.184775804082,2.708
-0.549406151432,-0.529398116431,-0.134450704856,-2.64788842685,-0.0726741275946,2.1088819567,-0.801694375459,-0.621251965732,0.0249132009862,0.0374771307891,0.0227197954943,0.0111500496435,0.00151843254125,-0.623253678514,0.57389320574,0.818896298033,0.00601567735042,0.0,0.818893236964,-0.573802514153,-0.0120535516664,0.0,-0.00641892163389,0.0118438769357,-0.999909255895,0.0,0.284895036958,-0.233809713405,0.304896250844,1.0,-0.134796,-0.177160457143,2.723
-0.559253427722,-0.528895593259,-0.134039784266,-2.64754537474,-0.0725329787174,2.10894808635,-0.811372717644,-0.61664599594,0.0313599875416,0.0243142556513,0.0202019908778,0.0139798719677,0.00282778731716,-0.584704486728,0.573821695785,0.818946556979,0.00599542819391,0.0,0.818943107321,-0.573730875515,-0.0120754442566,0.0,-0.0064495054041,0.0118392944386,-0.999909113363,0.0,0.282755380069,-0.236575566432,0.304884950274,1.0,-0.128615428572,-0.169037420408,2.739
-0.569430186686,-0.528275079183,-0.133660261823,-2.64708363473,-0.0723368037695,2.10905107652,-0.821164937937,-0.583952912475,0.0377631720863,0.0264433849027,0.0241531227621,0.0134787980475,0.00683898981535,-0.56377861043,0.573978720539,0.818836288697,0.00602557726805,0.0,0.818833311004,-0.57388788492,-0.0120603165113,0.0,-0.00641754257643,0.0118565367006,-0.999909114712,0.0,0.280540898526,-0.239446969815,0.304886765987,1.0,-0.122048571429,-0.160406693878,2.756
-0.578784430537,-0.527490861174,-0.133156656362,-2.64655649003,-0.0720747309839,2.10918269248,-0.830506202073,-0.544150759742,0.0472310123971,0.0310142947569,0.0293099330213,0.0160451651202,0.00817277464326,-0.535125495899,0.573775831913,0.818978418066,0.0060326077735,0.0,0.818975154743,-0.573684312779,-0.0121141275593,0.0,-0.00646052096497,0.0118915784528,-0.999908421822,0.0,0.278543870416,-0.242050226256,0.304863945199,1.0,-0.115481714286,-0.151775967347,2.773
-0.588419782397,-0.526660941844,-0.132717346699,-2.64596037682,-0.0718327547845,2.10932169923,-0.839826448194,-0.532007453345,0.0460684575988,0.0282255564174,0.0293206906394,0.0142595371684,0.00722357582657,-0.502824326627,0.573860607507,0.818918897337,0.0060489369264,0.0,0.81891566789,-0.573768669336,-0.0121404231412,0.0,-0.00647145603643,0.0119207093329,-0.999908004241,0.0,0.276456099445,-0.244748407657,0.304854499865,1.0,-0.108528571429,-0.142637551021,2.791
-0.596972522919,-0.525774721999,-0.132311553012,-2.64529169089,-0.071554305609,2.10947112244,-0.84811946417,-0.482550894766,0.0603870165794,0.0276636112352,0.0395632830594,0.0189451890373,0.00631973557998,-0.474635405615,0.57394283149,0.818860942425,0.00609344340585,0.0,0.818858217972,-0.573850539449,-0.012145951427,0.0,-0.00644924361451,0.0119609782477,-0.999907666865,0.0,0.274624064626,-0.247153523834,0.304857240942,1.0,-0.101961714286,-0.13400682449,2.808
-0.603876786353,-0.524950666396,-0.131852444119,-2.64471357391,-0.0712813693178,2.10960461907,-0.855036592817,-0.456070580763,0.0522670224518,0.0257680705351,0.0343766916299,0.0187981737587,0.00308763455081,-0.45222999501,0.573756727069,0.818991288074,0.00610205727519,0.0,0.818988271932,-0.573663687907,-0.0122037091366,0.0,-0.00649432782067,0.0119997045868,-0.999906911065,0.0,0.273170143384,-0.249059963854,0.304841286187,1.0,-0.0961674285715,-0.126391477551,2.823
-0.611506320354,-0.524083391655,-0.131407214204,-2.64405197961,-0.0710209178872,2.10976120042,-0.862357383715,-0.438151109833,0.0453149697867,0.0261966671072,0.0390196438648,0.0173518631635,0.0128832154475,-0.412156011068,0.573851929301,0.8189245625,0.00610500386199,0.0,0.81892164198,-0.573758962105,-0.0121960896441,0.0,-0.00648500155287,0.0119985003674,-0.999906986046,0.0,0.271447061416,-0.251300934595,0.304848793673,1.0,-0.0892142857144,-0.117253061225,2.841
-0.619017684091,-0.523134833141,-0.13097177428,-2.64330624067,-0.0707106076777,2.10995535917,-0.869597613811,-0.399263261194,0.0550413284595,0.0216733101298,0.0424454553098,0.0126556982685,0.0134495742696,-0.385693409683,0.573929891424,0.818869686929,0.00613697490097,0.0,0.818867457264,-0.573837272104,-0.0121498756818,0.0,-0.0064276637121,0.011998776877,-0.999907352955,0.0,0.269949021456,-0.253284458861,0.304867400081,1.0,-0.0826474285715,-0.108622334694,2.858
-0.625062104621,-0.5222805518,-0.130520389731,-2.64266542542,-0.0703987080574,2.11012650139,-0.875574616438,-0.363048214555,0.0451974062855,0.0290343162146,0.0349703143658,0.0195093756954,0.00983979275799,-0.37614635412,0.573833914354,0.818936744231,0.00616397491072,0.0,0.818934875523,-0.57374121106,-0.0121424579118,0.0,-0.00640750188328,0.0120158795226,-0.999907276981,0.0,0.268694190436,-0.254950672574,0.304871065353,1.0,-0.0764668571429,-0.100499297959,2.874
-0.631087181337,-0.521470815396,-0.130021477491,-2.6420467485,-0.0701175601072,2.11028880741,-0.881426243347,-0.353390537652,0.0442443542251,0.0288378924946,0.0339624232049,0.0190587988609,0.0148413847439,-0.335047980127,0.5737764185,0.818977184346,0.00614328855983,0.0,0.818975172769,-0.573684057546,-0.0121249909611,0.0,-0.00640590758343,0.0119884655128,-0.999907616254,0.0,0.267436178472,-0.256592117025,0.304881153626,1.0,-0.0699000000001,-0.0918685714287,2.891
-0.636705708297,-0.52067147845,-0.129562089453,-2.64141428258,-0.0698104107697,2.11045568699,-0.886733172176,-0.31738500712,0.0483805181678,0.0292883044068,0.0397190534668,0.0143400968788,0.00714898074807,-0.296103870107,0.573871443497,0.818910508424,0.00615568298088,0.0,0.818908941504,-0.573779539004,-0.0120802751441,0.0,-0.00636078178188,0.0119736992997,-0.999908081266,0.0,0.266271248764,-0.258129485582,0.30490050576,1.0,-0.0633331428572,-0.0832378448981,2.908
-0.641439414518,-0.519916110629,-0.129180382852,-2.6408359931,-0.0695109134869,2.11060885333,-0.891373015745,-0.289815482305,0.043775475462,0.0211056554434,0.0382553977605,0.0163582409359,0.0102079884828,-0.279499240241,0.573836867792,0.818934401395,0.0062001834491,0.0,0.818933476231,-0.573744893257,-0.0120625814002,0.0,-0.00632126099095,0.0119997227453,-0.999908019927,0.0,0.265296158749,-0.259429692596,0.30490809648,1.0,-0.0571525714287,-0.0751148081634,2.924
-0.646070092637,-0.519190871308,-0.128791080546,-2.64032995896,-0.0692249875164,2.11076656378,-0.89573020461,-0.257642494218,0.0409344900921,0.0243826445018,0.021924357945,0.0176199933054,0.00626890580215,-0.242879670385,0.573934401505,0.8188657823,0.00623540284933,0.0,0.81886515257,-0.573841940019,-0.0120845638417,0.0,-0.00631762178991,0.012041932866,-0.999907535479,0.0,0.264327027618,-0.260681323027,0.304894300334,1.0,-0.0505857142858,-0.0664840816328,2.941
-0.65014012353,-0.518550055005,-0.128275772523,-2.63986629398,-0.0689278034906,2.11091142285,-0.899592694247,-0.229036306544,0.0344661013237,0.0322432973705,0.0268001127819,0.0103546040941,0.0104113625093,-0.226578067867,0.573890734481,0.818896526346,0.00621698610718,0.0,0.81889569168,-0.573798430605,-0.0120811458438,0.0,-0.0063260332901,0.0120245523099,-0.999907691462,0.0,0.263517717957,-0.261741797882,0.304894105091,1.0,-0.0440188571429,-0.0578533551021,2.958
-0.65349669352,-0.518006105748,-0.127766798685,-2.63946031715,-0.0686786387457,2.11102854909,-0.90287657495,-0.200901772195,0.0365539501044,0.03010753717,0.0225382773748,0.0175973688515,0.0047332716801,-0.200493707584,0.573717221831,0.819018509094,0.00616263229,0.0,0.819017048916,-0.573625350349,-0.0120738528423,0.0,-0.00635378917764,0.0119745087676,-0.99990811603,0.0,0.26287066784,-0.262601318988,0.304900649588,1.0,-0.0378382857144,-0.0497303183675,2.974
-0.656802443827,-0.517430478069,-0.127279586257,-2.63904962084,-0.0683792148231,2.11115247189,-0.905848745308,-0.176377397426,0.0319595567186,0.0195859559437,0.0253048505676,0.00857441266606,0.00631142747269,-0.154186846749,0.573794430601,0.818964453619,0.00615808577309,0.0,0.818962884974,-0.573702469832,-0.0120837098995,0.0,-0.00636334237217,0.0119770397271,-0.999908024967,0.0,0.26223550151,-0.263447206064,0.304897602364,1.0,-0.0308851428572,-0.0405919020409,2.992
-0.659294862848,-0.516990026445,-0.126889667504,-2.63875627047,-0.0681346206223,2.1112557043,-0.908169597033,-0.14838572569,0.0218958861151,0.0263585824766,0.0153459086155,0.0164186879757,0.00916865226345,-0.136122156521,0.57377831699,0.818975710496,0.00616242416751,0.0,0.818974074572,-0.573686107625,-0.0121021484839,0.0,-0.00637619128037,0.0119910468836,-0.999907775237,0.0,0.261759280857,-0.264074229467,0.304886806938,1.0,-0.0247045714287,-0.0324688653062,3.008
-0.661487468851,-0.51664956433,-0.126465946861,-2.63854178293,-0.0678554078077,2.11129550858,-0.910111839315,-0.117550684988,0.0181724217921,0.0263753686377,0.0134021418921,0.0123009601182,0.000801836043865,-0.106905972622,0.573813285672,0.818950998128,0.0061905374404,0.0,0.818949327839,-0.573720189028,-0.0121610046849,0.0,-0.00640775398358,0.0120481144946,-0.999906887478,0.0,0.261346042081,-0.264583480957,0.304872386235,1.0,-0.0198846153846,-0.0261340659341,3.025
-0.663280505401,-0.516358679522,-0.126165665565,-2.63834104998,-0.0676504378771,2.11134614357,-0.911683408599,-0.100754647124,0.0165986419999,0.0162450281347,0.0093750791821,0.00815989029982,0.00186887508728,-0.0997862643094,0.573879601746,0.81890437335,0.00621103121932,0.0,0.818902835873,-0.5737861441,-0.0121800302967,0.0,-0.00641059984721,0.012076334522,-0.999906528809,0.0,0.261003303907,-0.26502071165,0.304867875492,1.0,-0.0195446153846,-0.0256872087912,3.042
-0.66487174376,-0.516090372217,-0.125937463717,-2.63812075318,-0.0675028742973,2.11143759613,-0.91327937948,-0.0886270620329,0.0146706908223,0.0121029218814,0.0136366601318,0.00591055369833,0.00103002429508,-0.0927507502537,0.57379815658,0.818961465938,0.00620803634996,0.0,0.818960292932,-0.573705491964,-0.0121158570166,0.0,-0.00636095794326,0.0120364234276,-0.999907327068,0.0,0.260681960922,-0.265466218531,0.304884740146,1.0,-0.0191846153846,-0.0252140659341,3.06
-0.666330696462,-0.515831343592,-0.125790289154,-2.63790998313,-0.0674419383346,2.11147769577,-0.914671429578,-0.0869182823284,0.0163767829609,0.00966880543464,0.0125129174539,0.00137341912588,0.00551311581054,-0.0958331166231,0.57377531596,0.818977681392,0.00617989296627,0.0,0.818976134949,-0.573682769582,-0.0121209393281,0.0,-0.00638160354024,0.012016111996,-0.999907439811,0.0,0.260402287726,-0.265835934167,0.30488937589,1.0,-0.0188846153846,-0.0248197802198,3.075
-0.667880954674,-0.515544302651,-0.125711525934,-2.63768996572,-0.0673856595863,2.11151798089,-0.916206855327,-0.0811635884136,0.0136317385779,0.00273768532552,0.0100608518337,0.00416491847277,0.000175578737582,-0.0797172361203,0.573767064863,0.818983447042,0.00618188074758,0.0,0.818981817133,-0.573674305506,-0.0121375989887,0.0,-0.00639422962271,0.0120272340357,-0.999907225431,0.0,0.260062018071,-0.26627493468,0.304888710866,1.0,-0.0185246153846,-0.0243466373626,3.093
-0.669305794805,-0.515298724298,-0.125684138383,-2.63747749183,-0.067339285086,2.11157819096,-0.917556708081,-0.0889920587739,0.0110639008555,-0.00178528789518,0.0141166589811,0.000987605671905,0.000923222240825,-0.084159049381,0.573839776718,0.818932403429,0.00619485037966,0.0,0.818931168942,-0.573747370681,-0.0121013253029,0.0,-0.00635601067076,0.0120176092488,-0.999907584828,0.0,0.259744408751,-0.266694579764,0.304900377886,1.0,-0.0181846153846,-0.0238997802198,3.11
-0.670608860331,-0.515069612197,-0.12563333354,-2.637264599,-0.0673019905193,2.11165232559,-0.918916428112,-0.084717700413,0.019028750241,0.00408633448598,0.0123779473682,0.00300557687426,0.00571967344996,-0.0792388789932,0.573784075644,0.818971499814,0.00618578455822,0.0,0.818970563877,-0.573692510472,-0.0120360222527,0.0,-0.00630854238265,0.0119722838739,-0.999908429163,0.0,0.259465694495,-0.267080529456,0.304920032636,1.0,-0.0178646153846,-0.0234792087912,3.126
-0.671944681978,-0.514799123006,-0.125586451172,-2.63704559258,-0.0672617299636,2.11169223961,-0.920260642077,-0.0833982377333,0.0162865256701,0.00373373576243,0.010988761018,0.00159023025611,0.00195978431218,-0.0792149626606,0.573772450992,0.818979635724,0.00618689362862,0.0,0.818978689188,-0.573680835988,-0.0120396003367,0.0,-0.0063110066954,0.0119751555871,-0.999908379224,0.0,0.259172213075,-0.267471192272,0.304924155513,1.0,-0.0175246153846,-0.0230323516484,3.143
-0.673252161379,-0.514524692991,-0.125557746611,-2.63684420037,-0.0672279088367,2.11174969276,-0.921578037901,-0.0815399516675,0.0157336407101,0.00229397354825,0.0122677134713,0.00010490157012,0.00309977958947,-0.0778804312756,0.573768931616,0.818982062164,0.00619208100158,0.0,0.818981128058,-0.573677190274,-0.0120474123978,0.0,-0.00631448059167,0.0119838591504,-0.999908253019,0.0,0.258879770057,-0.267856582423,0.30491986198,1.0,-0.0171846153846,-0.0225854945055,3.16
-0.674479595391,-0.514295177925,-0.125535984324,-2.63664724711,-0.0671983403697,2.11179506021,-0.922811765791,-0.0748872661522,0.00965354098113,0.000767332123282,0.0145140119876,0.00511196421909,0.00208741729565,-0.0691793030327,0.573771078827,0.818980530519,0.006195694778,0.0,0.818979765312,-0.57367955288,-0.0120275316824,0.0,-0.00629609208733,0.0119754290484,-0.999908469973,0.0,0.258604412318,-0.268220751684,0.30492892702,1.0,-0.0168646153846,-0.0221649230769,3.176
-0.6757277618,-0.514031378059,-0.125517181817,-2.63643399288,-0.0671668170672,2.11185663246,-0.924019791239,-0.0696881484734,0.0175652875724,0.00165629623007,0.0128323463962,0.00021693959301,0.00323023274676,-0.0725984911658,0.573815089118,0.818949668824,0.00619922051433,0.0,0.818949063251,-0.573723755192,-0.0120096390552,0.0,-0.00627877074002,0.0119683883664,-0.999908663188,0.0,0.258327893886,-0.268596464096,0.304934023204,1.0,-0.0165246153846,-0.0217180659341,3.193
-0.676965959102,-0.513763654912,-0.125505561439,-2.63623356598,-0.0671306235981,2.11191229674,-0.925326784764,-0.0738316562367,0.0116954208174,-9.17266766877e-06,0.0140985552623,0.00141202746909,0.00299938278801,-0.0765419779481,0.573776413502,0.818976649273,0.00621467268047,0.0,0.818976205009,-0.573684945546,-0.0120127342934,0.0,-0.0062730054967,0.0119825233471,-0.999908530085,0.0,0.258048482428,-0.268966110262,0.3049311511,1.0,-0.0161846153846,-0.0212712087912,3.21
-0.678124581471,-0.513538007393,-0.125487393843,-2.63605829788,-0.0671049684152,2.11194217019,-0.926467679219,-0.0691738861223,0.0156359715321,0.00116273358699,0.00858332407529,0.00493526760363,0.00450309489185,-0.0634133279017,0.573798095098,0.818961408531,0.00622127794909,0.0,0.818960959046,-0.57370641979,-0.012026568581,0.0,-0.00628022936005,0.0119960368589,-0.999908322707,0.0,0.257781838452,-0.269304986888,0.304930333949,1.0,-0.0158646153846,-0.0208506373626,3.226
-0.679361632283,-0.513277089931,-0.12546309836,-2.63585571962,-0.0670787745416,2.11199787074,-0.927723218841,-0.0668452146673,0.0175067760457,0.00208421811036,0.0114019261932,0.000433896142657,0.00741232742846,-0.0735824659192,0.57378738339,0.818968918021,0.00622068158044,0.0,0.81896848495,-0.573695759145,-0.0120226244585,0.0,-0.00627749796412,0.0119932033051,-0.999908373849,0.0,0.257504327533,-0.269672758682,0.30493121114,1.0,-0.0155046153846,-0.0203774945055,3.244
-0.680507807914,-0.513019733646,-0.125449082786,-2.63566463901,-0.0670466445847,2.11204886712,-0.928921066168,-0.0656842200837,0.0189094972847,-5.49979527184e-05,0.0103170828399,0.00323208652222,0.00193824343723,-0.0675662668836,0.573758797326,0.818988860041,0.00623189541971,0.0,0.818988509558,-0.573667009444,-0.0120303943517,0.0,-0.00627784701539,0.0120066265009,-0.999908210566,0.0,0.257245868578,-0.270014835145,0.304927522634,1.0,-0.0151646153846,-0.0199306373626,3.261
-0.681576351098,-0.512799941083,-0.125423683474,-2.63548890964,-0.0670156314907,2.11207811507,-0.929977058639,-0.0638477704216,0.00948639126508,0.00644751940572,0.012736980745,0.000556478518812,0.00348308134936,-0.0601466085168,0.573773356483,0.818978612537,0.00623814859318,0.0,0.818978286687,-0.57368142964,-0.0120386927626,0.0,-0.0062808428179,0.0120166207582,-0.999908071694,0.0,0.257004508329,-0.27032785488,0.304929149499,1.0,-0.0148446153846,-0.0195100659341,3.277
-0.682711854117,-0.512559024216,-0.125396928478,-2.6353027506,-0.0669951477013,2.11211431854,-0.931082360493,-0.0661351947179,0.0136664002674,0.00145092455944,0.0123855026463,-7.32242946662e-05,0.000769368460768,-0.0625124020374,0.573797473778,0.818961746142,0.00623412733443,0.0,0.818961291283,-0.573705412807,-0.0120519540727,0.0,-0.00629365792832,0.0120211212167,-0.999907937019,0.0,0.25674690692,-0.270661995892,0.304928301691,1.0,-0.0145046153846,-0.0190632087912,3.294
-0.683673938175,-0.512356019547,-0.125385039791,-2.63512959839,-0.066969410101,2.11216968995,-0.932092385824,-0.0722221176353,0.010779417762,-0.000691302021621,0.00912546821649,5.30113195721e-05,0.00460765255988,-0.0659334102599,0.573768239202,0.818982171368,0.00624159963062,0.0,0.818981961001,-0.573676433526,-0.0120268064105,0.0,-0.00626920211465,0.0120125883222,-0.999908193199,0.0,0.256519535149,-0.270972721265,0.304934357694,1.0,-0.0141846153846,-0.0186426373626,3.31
-0.68473051711,-0.512123234093,-0.125379399116,-2.63494473086,-0.0669420760168,2.11223223265,-0.933129304808,-0.0602991151931,0.0165488659734,0.000617937109575,0.00933443312154,0.00182045409366,0.00171410125679,-0.0624436635471,0.573802924752,0.81895784777,0.00624451936937,0.0,0.818957844794,-0.573711424029,-0.0119998870812,0.0,-0.00624496983275,0.0119997994617,-0.999908498396,0.0,0.25629664558,-0.27127503295,0.304940141444,1.0,-0.0138646153846,-0.0182220659341,3.326
-0.685889663039,-0.511882888774,-0.125338665738,-2.63473188798,-0.0669093046793,2.11226072309,-0.934293041428,-0.0617935511366,0.0115196759517,0.00220044136026,0.00953948780263,0.00238491423737,0.00506043296793,-0.0632824189798,0.573795052011,0.818963390839,0.00624096574677,0.0,0.818963389267,-0.573703659782,-0.0119926933514,0.0,-0.00624123208595,0.0119927014623,-0.99990860689,0.0,0.256040485419,-0.271616356321,0.304951251204,1.0,-0.0134846153846,-0.0177226373626,3.345
-0.686838062793,-0.51168419869,-0.125297757448,-2.63457275536,-0.0668852569503,2.11229788251,-0.935257785348,-0.0636421503318,0.0125621186845,0.00133529399071,0.0093074531157,8.17418780861e-05,0.000950324642964,-0.0596793387199,0.573771021924,0.818980287088,0.00623303005668,0.0,0.818980201743,-0.573679706221,-0.011990443073,0.0,-0.00624429388043,0.0119847277317,-0.999908683378,0.0,0.255830810275,-0.271892115501,0.304954111201,1.0,-0.0131646153846,-0.0173020659341,3.361
-0.687792107369,-0.511465275277,-0.125264040992,-2.63439740914,-0.066862609314,2.11235149812,-0.936215415629,-0.0507052212512,0.00804011685527,0.00147873847491,0.00639051855756,0.000418095268651,0.00164504488904,-0.0575221791823,0.573762779152,0.818986134792,0.00622343793248,0.0,0.818986022734,-0.573671694283,-0.0119761699011,0.0,-0.00623822701915,0.0119686196391,-0.999908914185,0.0,0.25562318629,-0.272177173013,0.30495806347,1.0,-0.0128246153846,-0.0168552087912,3.378
-0.688786634937,-0.511245087417,-0.125242119356,-2.63422256066,-0.0668358984775,2.11240583072,-0.937216870019,-0.0585256297667,0.0110894840326,0.000777140035772,0.0111076575542,0.000135622916748,0.00251063671609,-0.0538496775375,0.573761912565,0.818986740603,0.00622360883849,0.0,0.818986720492,-0.573670999406,-0.0119617306511,0.0,-0.00622631477152,0.0119604687243,-0.999909085963,0.0,0.25540188,-0.272474474689,0.304961092771,1.0,-0.0124646153846,-0.0163820659341,3.396
-0.689626442571,-0.511076504855,-0.12521786347,-2.63407278978,-0.0668169581013,2.11243806696,-0.938079182632,-0.0582043088439,0.00831969663113,0.000797096131706,0.0161381278391,0.00231937307054,0.00357313715944,-0.060211002822,0.573741923462,0.81900078356,0.00621841555083,0.0,0.819000808042,-0.57365125184,-0.0119442283529,0.0,-0.00621525017767,0.0119460219083,-0.999909327502,0.0,0.255214484155,-0.272723399151,0.304969999331,1.0,-0.0121646153846,-0.0159877802198,3.411
-0.690589561823,-0.510871826653,-0.125213896475,-2.63389479697,-0.0667900302724,2.11248625007,-0.939059974702,-0.0502046549367,0.0122292263641,-0.00020302043952,0.00991825356149,0.000164758917826,0.00500275104453,-0.0577812580318,0.573745203691,0.818998425302,0.00622635489216,0.0,0.818998715374,-0.573654810968,-0.0119167516996,0.0,-0.00618814157889,0.0119367856095,-0.999909605941,0.0,0.254997131594,-0.273016367017,0.304979229863,1.0,-0.0118046153846,-0.0155146373626,3.429
-0.691448433935,-0.510686647814,-0.125207571655,-2.63374587597,-0.066768814793,2.11252587063,-0.939879469554,-0.0518392618272,0.0129627934265,0.000512053560038,0.00908770426851,0.00627174888698,0.0042467533325,-0.058815401994,0.573789668288,0.818967234151,0.00623160127397,0.0,0.818967642022,-0.573699340186,-0.0119086226194,0.0,-0.00617782513225,0.0119367542434,-0.999909670108,0.0,0.254800692032,-0.273274018654,0.304981791727,1.0,-0.0114846153846,-0.0150940659341,3.445
-0.692274837699,-0.5104949885,-0.125192582594,-2.63359116727,-0.0667498859023,2.11255464883,-0.940693137264,-0.0481258521176,0.00852685141698,5.91847194611e-05,0.00799572044854,-9.90315202858e-05,0.000746910783271,-0.0465088558897,0.573805464533,0.818956165642,0.00623173573164,0.0,0.818956551877,-0.573715087341,-0.0119126653607,0.0,-0.0061808289369,0.0119393031567,-0.999909621113,0.0,0.254614139504,-0.273521489001,0.304983846927,1.0,-0.0111646153846,-0.0146734945055,3.461
-0.693148883324,-0.510285598795,-0.125185266488,-2.63342694371,-0.0667309139503,2.11260076901,-0.941607516791,-0.0434425469039,0.0154484234818,0.000445205938262,0.00776837170359,6.94759645326e-05,0.00355943897439,-0.0468826586213,0.573783783147,0.818971340649,0.00623380255908,0.0,0.818971784222,-0.573693460914,-0.0119069917967,0.0,-0.006175312164,0.0119375770387,-0.999909675808,0.0,0.254416888003,-0.273787346187,0.304984939528,1.0,-0.0108046153846,-0.0142003516484,3.479
-0.693859141873,-0.510115214092,-0.125163927507,-2.63328965955,-0.066711131037,2.11263538295,-0.942311794236,-0.0489897820245,0.00999515774151,-0.00165526435454,0.0105895549908,0.00102355636786,0.000107082076205,-0.0381758248719,0.573788975825,0.81896772442,0.00623092945624,0.0,0.818968165209,-0.573698731134,-0.0119019817443,0.0,-0.00617278142753,0.0119323885151,-0.999909753365,0.0,0.254260757407,-0.27400020433,0.304987592003,1.0,-0.0105046153846,-0.0138060659341,3.494
-0.694792381368,-0.509902837668,-0.125134414521,-2.63311645924,-0.0666847702255,2.11267508646,-0.943202485256,-0.0449546222355,0.012086471272,0.000526330057898,0.00800777592019,0.00173303911562,0.00210855311493,-0.0505998840238,0.573822929898,0.818943959216,0.00622765512715,0.0,0.818944395901,-0.573732765783,-0.0118969235271,0.0,-0.00617002264742,0.011927060414,-0.99990983396,0.0,0.254053527643,-0.274276849411,0.304991606785,1.0,-0.0101046153846,-0.0132803516484,3.514
-0.695559875584,-0.509709427499,-0.125107854731,-2.63298332431,-0.0666668935483,2.11271789519,-0.943973160522,-0.0450300438572,0.0121007577128,0.000859748347857,-8.40382630247e-07,0.000283109761378,0.00560043162115,-0.040596095545,0.573815984621,0.818948861951,0.00622287750299,0.0,0.818949154526,-0.573725683261,-0.0119109012734,0.0,-0.00618431346263,0.0119311155227,-0.999909697297,0.0,0.253882162488,-0.274502810294,0.304984636956,1.0,-0.00976461538462,-0.0128334945055,3.531
-0.696217829141,-0.509554919796,-0.12508441722,-2.63285753141,-0.0666352251481,2.11274020007,-0.944659747333,-0.0442628947801,0.00892540575242,0.00403898312924,0.00750178245228,0.00132367495997,0.000727418416011,-0.0461523926508,0.573795813779,0.818962928535,0.00623158705922,0.0,0.818963315238,-0.573705443891,-0.0119121301576,0.0,-0.00618061657505,0.0119388014738,-0.999909628416,0.0,0.253737397863,-0.274695910273,0.304986934512,1.0,-0.00946461538462,-0.0124392087912,3.546
-0.696949298046,-0.509376736123,-0.125064506382,-2.63272709886,-0.0666220776786,2.11277328068,-0.945368218281,-0.0414721753975,0.00970807249809,0.000959852043621,0.00846072459138,0.000497035575737,0.00121138046002,-0.0423426795275,0.573812830314,0.81895104725,0.00622614466643,0.0,0.818951297759,-0.573722353055,-0.0119239425369,0.0,-0.00619316609712,0.0119412503763,-0.999909521523,0.0,0.253571862207,-0.274912520194,0.304983375979,1.0,-0.00912461538462,-0.0119923516484,3.563
