nelsonifechukwu/NELSON_IML_WORK/CNN-GradCAM/train2dof/data_sample_2022-02-22-08-42-39/robot_state.csv
position_joint1,position_joint2,position_joint3,position_joint4,position_joint5,position_joint6,position_joint7,velocity_joint1,velocity_joint2,velocity_joint3,velocity_joint4,velocity_joint5,velocity_joint6,velocity_joint7,ee_T_00,ee_T_10,ee_T_20,ee_T_30,ee_T_01,ee_T_11,ee_T_21,ee_T_31,ee_T_02,ee_T_12,ee_T_22,ee_T_32,ee_T_03,ee_T_13,ee_T_23,ee_T_33,v_x,v_y,time
0.465064168855,0.547758322241,-0.124002448787,-1.35582626102,0.0795259684854,1.89412107437,0.159152145027,7.33178324058e-05,0.000760792910844,-0.000226148898273,-8.71933859697e-05,-5.49677210059e-05,0.000167697468807,0.000339041407046,0.573824122602,0.818964366311,0.00199748169551,0.0,0.81892170526,-0.573765222439,-0.0118935728603,0.0,-0.00859449230197,0.00846076302337,-0.999927272451,0.0,0.661687553379,0.260882831949,0.303236076407,1.0,0.0,0.0,0.0
0.465066925697,0.547755163462,-0.123999869081,-1.35583127233,0.0795266805622,1.8941196672,0.159151680976,-0.00100268892104,0.000575358038446,-0.000231099719208,-0.00454594050592,0.000514226825938,-0.000546474503956,-0.000951769626299,0.573820129366,0.818967167773,0.00199603229853,0.0,0.818924460811,-0.573761209037,-0.0118974531229,0.0,-0.00859854313151,0.00846176067906,-0.999927229183,0.0,0.661684855351,0.260885614902,0.303235722638,1.0,-0.00028,-0.000368,0.015
0.465060271378,0.547757684837,-0.124003325841,-1.35583268507,0.0795233628193,1.89412107583,0.159150244894,-0.00128425625513,0.00134913934441,0.000342394263938,-0.000641880977318,-0.00074038972488,0.000513148027506,-0.00123048571908,0.573826030524,0.818963044969,0.00199112272141,0.0,0.818920322443,-0.573767177229,-0.0118944830022,0.0,-0.00859886670925,0.00845609763339,-0.999927274308,0.0,0.661687461414,0.260878567825,0.30323349473,1.0,-0.00064,-0.000841142857143,0.033
0.465065864948,0.547713383479,-0.124001291762,-1.35585926054,0.0795240357052,1.89412349087,0.159159582248,0.000404537521733,-0.00577028970476,-0.000592347201646,-0.00436748612446,-0.000556769260048,0.000442306122489,0.00115799178454,0.573829242338,0.818960746065,0.00201095569651,0.0,0.818918243046,-0.573770269166,-0.0118884956422,0.0,-0.00858254991013,0.00846893780601,-0.999927305823,0.0,0.661681061173,0.260881150883,0.303252373107,1.0,-0.00094,-0.00123542857143,0.048
0.465062756242,0.547618069546,-0.123998141685,-1.35598084294,0.0795217018167,1.89415154826,0.15914854623,0.000671287041243,-0.00667958581056,-0.000141456022967,-0.0100480219057,-1.42152829068e-05,0.00410116264272,-0.00338817680465,0.573826596036,0.818962585152,0.00201710286483,0.0,0.818920078171,-0.573767515095,-0.0118950027719,0.0,-0.00858437939794,0.00847767820777,-0.999927216053,0.0,0.661661521929,0.260869264172,0.303264353544,1.0,-0.00128,-0.00168228571429,0.065
0.465053443303,0.547473847879,-0.124003773522,-1.35617649623,0.0795232048197,1.89418631111,0.159152395905,-0.000415344539007,-0.00780699492184,-0.000659174090771,-0.0143211481071,0.000187329611467,-0.000126705886071,0.00140388210927,0.57385237669,0.818944536879,0.00201051843835,0.0,0.818901803237,-0.573793180596,-0.0119150937248,0.0,-0.00860434480321,0.00848408537197,-0.999926990108,0.0,0.661631043969,0.26084111321,0.303276601685,1.0,-0.00164,-0.00215542857143,0.083
0.465026642979,0.547329862891,-0.124001754557,-1.35636361701,0.079516542771,1.89428202566,0.159141241924,-0.00138504948941,-0.00552140810956,0.000542800275821,-0.0103719715917,0.000137319103913,0.0087986007653,8.38994696895e-05,0.573872638077,0.818930221729,0.00205769451283,0.0,0.81888808891,-0.573813232651,-0.011891962721,0.0,-0.00855812009803,0.00850965738307,-0.999927169504,0.0,0.661617937131,0.260809658978,0.303297765088,1.0,-0.00194,-0.00254971428571,0.098
0.46500568753,0.547126731203,-0.123995270159,-1.35660003754,0.0795172352374,1.89441436783,0.159128503743,-0.0045721053905,-0.0107413407046,0.00120672150383,-0.0116537261196,-2.16229002406e-05,0.0133113567674,-0.00453120845506,0.573888475406,0.818918883072,0.00215119627036,0.0,0.818877866249,-0.573828590279,-0.0118547900304,0.0,-0.00847385663554,0.00856505929252,-0.999927414122,0.0,0.661599426621,0.260783268205,0.30334040071,1.0,-0.0023,-0.00302285714286,0.116
0.464979699919,0.546912862106,-0.124001755317,-1.35688138423,0.0795116150509,1.89454189557,0.159116963547,-0.0063142470303,-0.00976284976034,-0.00017505859406,-0.0176480757172,-0.00123479790167,0.00932378785518,-0.00059755040505,0.573919200309,0.81889720326,0.00220656095807,0.0,0.818856874121,-0.573859059622,-0.0118298899239,0.0,-0.0084213709146,0.00859642408133,-0.999927588381,0.0,0.66157456262,0.260739491435,0.303369247798,1.0,-0.00264,-0.00346971428571,0.133
0.464944171343,0.546686323867,-0.123996254576,-1.35722024636,0.0795085972154,1.89466447421,0.159088790409,-0.00146855774312,-0.00959006392974,0.00105467641721,-0.0211445056978,0.000691518917891,0.0132170982779,-0.0028495315727,0.573939513837,0.818882912822,0.00222630781383,0.0,0.818842655167,-0.57387910365,-0.0118417639754,0.0,-0.00841954874687,0.00861961801486,-0.999927404057,0.0,0.661535419365,0.26068975733,0.303378858655,1.0,-0.00296,-0.00389028571429,0.149
0.464906607518,0.546409269234,-0.124001345435,-1.35763352858,0.079498308073,1.89481152631,0.15894936451,-0.00348265337197,-0.0121863195258,0.000552798719475,-0.0226251762203,1.126166693e-05,0.00883692135104,-0.0126810323099,0.573880001069,0.81892457331,0.00224376983071,0.0,0.818884421168,-0.573819405054,-0.0118466051087,0.0,-0.00841411936233,0.00863608418287,-0.999927307681,0.0,0.661488760133,0.260624859615,0.30339127123,1.0,-0.0033,-0.00433714285714,0.166
0.464861414712,0.546119390159,-0.124001345435,-1.35811738088,0.0794880427042,1.89498245482,0.158918919792,-0.00256661707113,-0.0174740571072,-0.000549026581015,-0.0266445807551,0.000584499111886,0.0115688486993,-9.94839266292e-06,0.57391641307,0.818899082966,0.00223374746039,0.0,0.818858618041,-0.573855665086,-0.011873761389,0.0,-0.00844172620767,0.00864383632512,-0.999927008012,0.0,0.661431784893,0.26055127538,0.303381064098,1.0,-0.00364,-0.004784,0.183
0.464816533924,0.545818799651,-0.124007000329,-1.35862991292,0.0794662562461,1.89515654972,0.158878041905,-0.00340854498777,-0.0209509301407,-0.000127363726315,-0.0357725810252,0.00037473008527,0.0146298505514,-0.00321621250544,0.57394647555,0.81887809249,0.00220448291797,0.0,0.81883716598,-0.573885758203,-0.011898699181,0.0,-0.00847862597746,0.00863449524436,-0.999926776516,0.0,0.661370956085,0.260469708183,0.303365212231,1.0,-0.00396,-0.00520457142857,0.199
0.464760875708,0.54546276342,-0.124003510216,-1.35924378959,0.079369933167,1.89536504641,0.158797292456,-0.00306261872901,-0.0211270167964,-0.000681354616999,-0.0378242311549,-0.00723383865059,0.0081470358467,-0.00991266960631,0.573932146811,0.818888332211,0.00213005322706,0.0,0.81884691372,-0.573872213271,-0.0118811458868,0.0,-0.00850711716856,0.00856332394693,-0.999927146566,0.0,0.661299999436,0.260365272468,0.303342903522,1.0,-0.0043,-0.00565142857143,0.216
0.464692819375,0.54504101402,-0.124004534608,-1.3599853239,0.0793160295402,1.89558937176,0.158670470632,-0.00474752980472,-0.0252717869516,-0.000654047051734,-0.0386755169464,-0.000958714212538,0.0152911703462,-0.00628911638925,0.57391157527,0.818902968916,0.00204405823555,0.0,0.818860434342,-0.573851998362,-0.011925600474,0.0,-0.00859308817461,0.00851820257045,-0.999926796851,0.0,0.661206399584,0.260243678061,0.303307926288,1.0,-0.00466,-0.00612457142857,0.234
0.464640536197,0.54466787758,-0.124004425536,-1.36062343127,0.0793046700854,1.89580426243,0.158622375966,0.000234484931707,-0.025029998919,0.000262187501041,-0.0470963745137,-0.000841266340685,0.0130746557983,-0.00478737936007,0.573955782408,0.818872062569,0.00201292948434,0.0,0.818828825299,-0.573896036148,-0.011976704664,0.0,-0.00865234318327,0.00852250766583,-0.999926249191,0.0,0.661122315807,0.260141546643,0.303284830576,1.0,-0.00498,-0.00654514285714,0.25
0.464558749645,0.544179850725,-0.124007739351,-1.36143306202,0.0792768396254,1.89609286186,0.158516999243,-0.00714020922773,-0.0274235586553,-0.000865834415421,-0.0476961776249,0.000140866697568,0.0180933715686,-0.00350481863038,0.573968172301,0.818863415919,0.00199753744383,0.0,0.818819790212,-0.573908304981,-0.0120064787701,0.0,-0.00868543011174,0.00852712403968,-0.999925922986,0.0,0.661034350055,0.260020459493,0.30327210185,1.0,-0.00532,-0.006992,0.267
0.464493420815,0.543667203203,-0.124008769221,-1.36225671159,0.0792445659232,1.89638339817,0.158405346138,-0.00356269429143,-0.027942555644,-0.000495408579381,-0.0488603113454,-0.00167460019934,0.0114391908082,-0.00836979713459,0.573968198872,0.818863417188,0.0019893658341,0.0,0.818819499918,-0.573908185041,-0.0120319823154,0.0,-0.00871100453295,0.00853507108243,-0.999925632716,0.0,0.660935252891,0.259900133935,0.303268025833,1.0,-0.00566,-0.00743885714286,0.284
0.464414467736,0.543156001972,-0.124009052266,-1.36305664128,0.0792047359093,1.89666161291,0.158303951593,-0.00680486900186,-0.0356665895407,-0.00094729317994,-0.0464046824018,-0.000511396958007,0.0187042519345,-0.00401332319317,0.573983830413,0.818852470019,0.00198536372924,0.0,0.818808392373,-0.573923725914,-0.012046589296,0.0,-0.00872510003675,0.00854034437903,-0.999925464796,0.0,0.660842799231,0.25977198268,0.30327304689,1.0,-0.00598,-0.00785942857143,0.3
0.464336023739,0.542590476462,-0.124017316065,-1.36395573443,0.079141364091,1.89697917326,0.158180233662,-0.00566154810949,-0.03120531459,0.000784184342339,-0.0518316862272,-0.00158990443956,0.0152000893219,-0.0101133713856,0.573985578182,0.818851294627,0.00196474611164,0.0,0.818807041384,-0.573925653783,-0.0120465684329,0.0,-0.00873689817283,0.008523468601,-0.999925505772,0.0,0.660739662677,0.259627353037,0.303272873005,1.0,-0.00632,-0.00830628571429,0.317
0.464260668724,0.541993883469,-0.124022255696,-1.36488443849,0.0790874229056,1.89732590525,0.158063827278,-0.000232212871964,-0.0355506722617,-0.00162174184515,-0.0523084183337,0.000121478718068,0.0199145276675,-0.00446820302813,0.573992669897,0.818846294861,0.00197666365491,0.0,0.818802199509,-0.573932695515,-0.0120401826531,0.0,-0.00872475503392,0.00852963735738,-0.999925559197,0.0,0.66063410676,0.259487098126,0.303282942465,1.0,-0.00666,-0.00875314285714,0.334
0.464171030076,0.541395766835,-0.124018028977,-1.36580376956,0.0790249903838,1.89766472732,0.157942319436,-0.00507915262262,-0.0354020483295,0.000504759587237,-0.0580028222426,-0.00330086589971,0.0244529985935,-0.00427833170359,0.573997954999,0.818842560568,0.00198885922784,0.0,0.81879865773,-0.573937960226,-0.0120300794566,0.0,-0.00870942694116,0.0085338805764,-0.999925656619,0.0,0.660531103907,0.259341953256,0.303297464529,1.0,-0.00698,-0.00917371428571,0.35
0.464088916036,0.540655703328,-0.12402370317,-1.36692044702,0.0789678158308,1.89807139059,0.157804768144,-0.000271077245927,-0.0443660786653,0.00104958810543,-0.0603193327344,-0.006428159516,0.0198482415473,-0.0136936185153,0.574003113549,0.81883887025,0.00201918411621,0.0,0.818795282362,-0.573942909206,-0.0120237038791,0.0,-0.00868674694147,0.00855510660385,-0.999925672527,0.0,0.660399668311,0.259179940279,0.303324537815,1.0,-0.00734,-0.00964685714286,0.368
0.463989097992,0.539966523843,-0.124028652227,-1.36796314063,0.0789120821764,1.89845679265,0.15766767682,-0.0014862624249,-0.0391492175355,-0.000310057523538,-0.0708103141475,9.469263434e-05,0.0240042823078,-0.00943227875533,0.574017580014,0.818828679169,0.0020393396899,0.0,0.818785264147,-0.573957199141,-0.0120237960226,0.0,-0.00867510234183,0.00857181661616,-0.999925630514,0.0,0.660272799907,0.259007253961,0.303340197777,1.0,-0.00768,-0.0100937142857,0.385
0.463901252748,0.539252188362,-0.12403010462,-1.36904312463,0.0788362399785,1.89887165852,0.157534761282,-0.00554963471186,-0.0521062508124,0.000949963177656,-0.0654566586045,-0.00472814101338,0.0227756529795,-0.0114930668299,0.574026262129,0.818822508337,0.00207295155234,0.0,0.81877968986,-0.573965895008,-0.0119882334912,0.0,-0.00862659801353,0.00857901666229,-0.999925988401,0.0,0.660153845029,0.258839742011,0.303369576331,1.0,-0.008,-0.0105142857143,0.401
0.463779252804,0.538403290111,-0.124040979264,-1.37037565954,0.0787676844846,1.89938027129,0.157367195677,-0.00859437199018,-0.0549261622778,0.000650473988511,-0.0716025233396,-0.000767858296089,0.0296725058285,-0.00750205124327,0.574044010844,0.818809956285,0.002115656887,0.0,0.818767595786,-0.573983364603,-0.0119778191475,0.0,-0.0085933711632,0.00860819238183,-0.999926023762,0.0,0.660022658086,0.258657197512,0.303387759713,1.0,-0.00834,-0.0109611428571,0.418
0.463679168671,0.537665397044,-0.124039194804,-1.37152821436,0.0787041860326,1.89983411461,0.157222462304,-0.00827022346238,-0.0487093215954,-0.000498234289943,-0.074761552072,-0.00659011694738,0.0252457890169,-0.00804613520469,0.574057235882,0.818800610672,0.00214401385971,0.0,0.818758644366,-0.573996495266,-0.0119604598287,0.0,-0.00856274022965,0.00862158438262,-0.999926171156,0.0,0.65988834301,0.258469707562,0.303397220324,1.0,-0.00868,-0.011408,0.435
0.463577026928,0.536886801366,-0.124047080357,-1.37275206305,0.0786317061244,1.90027646518,0.157069255814,-0.00363280405573,-0.0498477911028,-0.000951556204064,-0.0823941547119,-0.00721561414471,0.0314425993479,-0.00733087310812,0.57406891946,0.818792429101,0.00214024700839,0.0,0.81875041109,-0.574008190278,-0.0119628063233,0.0,-0.00856670087187,0.00861996937883,-0.999926151155,0.0,0.659745598333,0.258280970838,0.303403021833,1.0,-0.009,-0.0118285714286,0.451
0.463454746568,0.535989730022,-0.124050783021,-1.37415970837,0.0785553840066,1.90080134724,0.156903779204,-0.00161937141734,-0.0485471221701,-0.00219915940334,-0.0858994648462,-0.00040850177919,0.0159218350421,-0.0111091774752,0.574093187788,0.818775373915,0.00215539026782,0.0,0.818733484984,-0.574032324318,-0.011963197989,0.0,-0.00855807299088,0.00863284686419,-0.999926113941,0.0,0.65958396953,0.258066101202,0.303411854319,1.0,-0.00936,-0.0123017142857,0.469
0.463339861299,0.535083673806,-0.124049247255,-1.37556727132,0.0784716588675,1.90131101333,0.156743948449,-0.00581582680284,-0.0632874777066,0.000826002604843,-0.0838307218874,-0.00869518482244,0.0319862735109,-0.0141966145858,0.574110073656,0.818763512991,0.00216333601182,0.0,0.818721678839,-0.57404912609,-0.0119649628246,0.0,-0.00855477855403,0.0086405421372,-0.999926075665,0.0,0.659416516221,0.257857075982,0.303425374742,1.0,-0.0097,-0.0127485714286,0.486
0.4632165693,0.534249889747,-0.124049278058,-1.37695841418,0.0783992279799,1.90181540199,0.156579599094,-0.00766274690739,-0.0516873359672,0.000818480075756,-0.0890682844874,-0.000918408933941,0.0319383762792,-0.00990419302512,0.57413338435,0.818747273116,0.00212288515914,0.0,0.81870476562,-0.574072454928,-0.012002922336,0.0,-0.00860883578391,0.00862946076335,-0.999925707417,0.0,0.659251473039,0.257644075444,0.30339519029,1.0,-0.01002,-0.0131691428571,0.502
0.463095113259,0.533323517081,-0.124055339655,-1.37843804148,0.0783074332507,1.90235611611,0.15637925909,-0.00909237253868,-0.0536299143325,0.000605641500168,-0.0861255874722,-0.00244756925238,0.0303855113563,-0.0117631412911,0.574129400851,0.818750102849,0.00210880649126,0.0,0.818707429915,-0.574068549164,-0.0120079958407,0.0,-0.00862111432988,0.00862080497732,-0.999925676293,0.0,0.659077154731,0.25741885817,0.303391330594,1.0,-0.01036,-0.013616,0.519
0.462962707126,0.532380397452,-0.124057798492,-1.37997116841,0.0782293026035,1.90294342556,0.156191012447,-0.00345465468099,-0.0569933957,4.19106531355e-05,-0.0959995827159,-0.00544732459814,0.0441743104431,-0.0059593931913,0.574148451558,0.818736736816,0.00211145981355,0.0,0.818693983518,-0.57408747132,-0.0120201300324,0.0,-0.00862932555492,0.00863014464844,-0.999925524899,0.0,0.658900967507,0.25718775595,0.303377588674,1.0,-0.0107,-0.0140628571429,0.536
0.462838648446,0.531465525964,-0.124055372196,-1.38143940299,0.0781450473104,1.90347708499,0.155992051395,-0.0070023634993,-0.0572457247879,0.00107932054665,-0.0960362777221,-0.00387752417824,0.0378531746115,-0.0161145788939,0.574142847416,0.818740703444,0.0020971853556,0.0,0.818697671471,-0.574081835943,-0.0120380757862,0.0,-0.00865227320116,0.00862870200585,-0.999925339048,0.0,0.65872513354,0.256967738109,0.303369788478,1.0,-0.01102,-0.0144834285714,0.552
0.462699817045,0.530453245371,-0.124061569054,-1.38308479518,0.0780401760839,1.90405320784,0.15579730002,-0.00275207262938,-0.0588613434236,-0.00117965022836,-0.0998911548221,-0.00318889164943,0.0387633764905,-0.0166426504187,0.574162637129,0.818726960474,0.00204382490935,0.0,0.818683232623,-0.574101851807,-0.0120654579652,0.0,-0.00870511966189,0.00860094594205,-0.999925119507,0.0,0.658525469559,0.256712816706,0.303350056392,1.0,-0.01136,-0.0149302857143,0.569
0.462557603829,0.529403048697,-0.124056358263,-1.38472142271,0.077937539266,1.90466277987,0.1555665752,-0.00949504190549,-0.0605774973555,7.47675854631e-05,-0.096076236193,-0.00801984740347,0.0337349405291,-0.00911204439693,0.574147802893,0.818737316528,0.00206248863579,0.0,0.818693822516,-0.5740869296,-0.0120569124107,0.0,-0.00868756360701,0.00861116226696,-0.999925184263,0.0,0.658333215884,0.256466486832,0.303363481716,1.0,-0.0117,-0.0153771428571,0.586
0.462421050649,0.528293770311,-0.124059554412,-1.38642779366,0.0778293803777,1.90531245948,0.155324213793,-0.00694029033867,-0.0645310769942,0.000610909377403,-0.101937834235,-0.00429029018025,0.0386447145635,-0.0169226534841,0.574126903625,0.818751868131,0.0021032991825,0.0,0.818708973028,-0.574065925251,-0.0120282106072,0.0,-0.00864085387681,0.00862787533906,-0.999925444926,0.0,0.658134501931,0.256213343302,0.303388798072,1.0,-0.01204,-0.015824,0.603
0.462269618399,0.527171581245,-0.124068062816,-1.3881765014,0.0777233893048,1.90598770092,0.155082460673,-0.00719245544122,-0.0685580558274,-0.000599500349691,-0.103171973037,-0.00907612525576,0.0328736623792,-0.0170248654795,0.574125216318,0.818752952859,0.00214127843343,0.0,0.818710614304,-0.574064139812,-0.0120016794215,0.0,-0.00859734482918,0.0086437205941,-0.999925683117,0.0,0.657935701724,0.25594456264,0.303405180681,1.0,-0.01238,-0.0162708571429,0.62
0.462124291044,0.52599819055,-0.12406806688,-1.38999540863,0.0776041263552,1.90665734824,0.154839168394,-0.00475780125912,-0.0728826771671,-0.00056268717572,-0.108496908274,-0.00831736328813,0.0443111059447,-0.0136978351385,0.574110968928,0.818762902344,0.00215685032984,0.0,0.818720818638,-0.574049881543,-0.0119875572651,0.0,-0.00857699263569,0.00864821288914,-0.999925819054,0.0,0.65771734347,0.255674624486,0.303423100006,1.0,-0.01272,-0.0167177142857,0.637
0.461982787373,0.524972506286,-0.124074307611,-1.391616902,0.0775030473475,1.90724507959,0.154619970257,-0.00940035310324,-0.0679070937499,-0.000989371050477,-0.108501335171,-0.00597089110228,0.0395342827133,-0.014891180421,0.574109324775,0.818764077993,0.00214818438166,0.0,0.818721890584,-0.574048282965,-0.011990896737,0.0,-0.00858471923781,0.00864301761225,-0.999925797668,0.0,0.657510239069,0.255405510338,0.303427938546,1.0,-0.01304,-0.0171382857143,0.653
0.46181967757,0.523710422449,-0.124080461859,-1.39361834892,0.0773778219597,1.90796452778,0.154359092462,-0.00766420132408,-0.068708954855,0.000983879962865,-0.109790018724,-0.00504803704673,0.0367650601535,-0.0134492522685,0.574109737715,0.818763845721,0.00212624142114,0.0,0.818721372118,-0.574048787334,-0.0120021455519,0.0,-0.00860652224177,0.00863151411195,-0.99992570961,0.0,0.657280141368,0.255119258592,0.303421275868,1.0,-0.01338,-0.0175851428571,0.67
0.461665643681,0.522491067933,-0.124081111677,-1.39555174935,0.077263444683,1.90871254328,0.154082790995,-0.0105717572466,-0.0709995884262,0.00103474566438,-0.114108433649,-0.00577230754052,0.0470931478918,-0.0223197127315,0.574083142595,0.818782419333,0.00215454888796,0.0,0.81874030536,-0.574022068027,-0.0119885236136,0.0,-0.00857939894023,0.00864659179928,-0.99992581243,0.0,0.657052054837,0.25483640858,0.303422952274,1.0,-0.01372,-0.018032,0.687
0.461510535619,0.521333247154,-0.124087218368,-1.3974331354,0.0771526405483,1.90943639023,0.15384046345,-0.00919145125843,-0.0770392795382,-0.000662773380676,-0.123362457883,-0.00446160540294,0.0491103914338,-0.0140411039374,0.574087057323,0.818779680516,0.00215227559527,0.0,0.818737538795,-0.574025993611,-0.0119895007223,0.0,-0.00858146265363,0.00864533246158,-0.99992580561,0.0,0.656830463429,0.254554015565,0.303403936366,1.0,-0.01404,-0.0184525714286,0.703
0.46134807643,0.52004379291,-0.124092546847,-1.39945530909,0.077017723756,1.91017680439,0.153566657849,-0.00924248905445,-0.0741753208013,-0.000675940760623,-0.119870736606,-0.00558189122725,0.0447079151058,-0.0102311837447,0.574070967343,0.818790965706,0.00215077495441,0.0,0.818748892631,-0.574010000761,-0.0119798473934,0.0,-0.00857458957044,0.00863839350981,-0.999925924542,0.0,0.656584778218,0.254249588721,0.303411374273,1.0,-0.01438,-0.0188994285714,0.72
0.461163535515,0.518612802395,-0.124090027308,-1.40166638444,0.0768750985003,1.91096187416,0.153270134867,-0.00944476240779,-0.0822304412789,0.00176155777858,-0.123512813131,-0.00783798408338,0.0397183072077,-0.015091742359,0.574056240638,0.818801285933,0.00215258908859,0.0,0.818759215669,-0.573995247402,-0.011981219409,0.0,-0.00857482704471,0.00864051228269,-0.999925904199,0.0,0.656310581577,0.253916534378,0.303431462365,1.0,-0.01474,-0.0193725714286,0.738
0.461006340077,0.51744242246,-0.124094003577,-1.40353728914,0.0767565403404,1.91163348101,0.153003521664,-0.00937499541193,-0.078084820618,0.000821399850463,-0.120908481539,-0.00819616833556,0.0447129687579,-0.0177775464916,0.574036549249,0.818815164554,0.00212445832542,0.0,0.818772719304,-0.573975667327,-0.0119964303354,0.0,-0.00860363734077,0.00862600407051,-0.999925781985,0.0,0.656079835729,0.253630819135,0.30342059712,1.0,-0.01504,-0.0197668571429,0.753
0.46080911178,0.516001316461,-0.124102488724,-1.4058137959,0.0766168968724,1.91248064251,0.152701037536,-0.00898097473602,-0.0802632801158,-0.00136668187009,-0.128329453715,-0.0120350884743,0.05493655527,-0.0221217715321,0.574039133761,0.818813336155,0.00213080885399,0.0,0.818770990494,-0.573978241843,-0.011991243388,0.0,-0.00859571757766,0.00862825356372,-0.999925830689,0.0,0.655806771688,0.253280153148,0.303421584976,1.0,-0.0154,-0.02024,0.771
0.460615843824,0.514612795934,-0.124105397008,-1.40803256889,0.0764809851303,1.91330911584,0.152390541817,-0.0122073368745,-0.0853534642057,-0.00160458571066,-0.131673585149,-0.000654963863715,0.0465919058205,-0.0149415779962,0.574025594509,0.818822838298,0.00212678912146,0.0,0.818780426454,-0.573964707257,-0.0119947897574,0.0,-0.0086010714957,0.00862685571903,-0.999925796712,0.0,0.655538935966,0.252940896725,0.303410947478,1.0,-0.01574,-0.0206868571429,0.788
0.46042730568,0.513309095294,-0.124106385169,-1.41016438429,0.0763509497951,1.91404139184,0.152097895456,-0.0155731082836,-0.0824201904355,-0.00122225561446,-0.135134640132,-0.00892872711829,0.0473613029378,-0.0244037375986,0.574017710071,0.818828572419,0.00204558475189,0.0,0.818784967762,-0.573957034578,-0.0120518017661,0.0,-0.00869444927209,0.00859300713913,-0.999925280599,0.0,0.655267513596,0.252609629496,0.30337346839,1.0,-0.01606,-0.0211074285714,0.804
0.460238222875,0.511869684226,-0.124112080789,-1.41244804693,0.0762096950595,1.91485786068,0.151775447271,-0.0141881657195,-0.0880395402953,-0.000501625904713,-0.134837354833,-0.0117682355847,0.0504382437186,-0.0222494117306,0.573993913705,0.818845317071,0.00202005975657,0.0,0.818801332147,-0.573933304718,-0.0120700915668,0.0,-0.00872432635457,0.00858235195375,-0.999925111878,0.0,0.654981328029,0.252262961063,0.303365773497,1.0,-0.0164,-0.0215542857143,0.821
0.460019934649,0.510324963747,-0.124110349094,-1.41490483591,0.0760558535622,1.91580160123,0.151416495959,-0.014247420639,-0.0863692061122,0.0009291153203,-0.140005966371,-0.00657054705145,0.0499885581187,-0.0169346753549,0.573964521557,0.81886586279,0.00204295190198,0.0,0.818822203835,-0.573903844395,-0.0120549904934,0.0,-0.00869912972605,0.00859211665451,-0.999925247543,0.0,0.65468748982,0.251888945394,0.303359732998,1.0,-0.01676,-0.0220274285714,0.839
0.459829502524,0.508897949171,-0.124123792309,-1.41715010515,0.0759126108691,1.91661961264,0.151112561726,-0.00767095831658,-0.0945085885234,-0.00337185152129,-0.144728035048,-0.0170281847193,0.0474255492355,-0.0364244785809,0.573959242478,0.818869579684,0.00203625725431,0.0,0.818825889124,-0.573898649787,-0.0120519696796,0.0,-0.00870055356967,0.0085848448293,-0.999925297613,0.0,0.654410796779,0.251541179165,0.303361023254,1.0,-0.01708,-0.022448,0.855
0.459613051161,0.507393847772,-0.12413055721,-1.41953382497,0.0757666937346,1.91746848402,0.150786690401,-0.0130125919976,-0.0877228723271,-0.00123254625146,-0.144101699268,-0.0164544136301,0.0496568572669,-0.014339442767,0.573958573736,0.818870115525,0.00200908815049,0.0,0.818826002732,-0.573898031828,-0.0120736578993,0.0,-0.00873391405837,0.0085750381831,-0.999925090927,0.0,0.654113434192,0.251166630773,0.303352350103,1.0,-0.01742,-0.0228948571429,0.872
0.459398915669,0.505828045838,-0.124137533157,-1.42197494631,0.0756178873282,1.91838680185,0.150452905651,-0.0134893595945,-0.0941200745182,0.000739617937833,-0.147207623569,-0.00600042737755,0.053791949058,-0.0181033773202,0.573951757844,0.818874807686,0.00204350351238,0.0,0.818831150351,-0.573891074416,-0.0120552403857,0.0,-0.00869915171179,0.00859257617612,-0.999925243403,0.0,0.653816456785,0.250791736733,0.303364960488,1.0,-0.01776,-0.0233417142857,0.889
0.45919509127,0.504287950033,-0.124141448691,-1.42430144598,0.0754731188729,1.91927504406,0.150122962106,-0.0104987837221,-0.0928653035902,0.00120596052312,-0.147578779754,-0.0123780080305,0.0492806717596,-0.0198071977271,0.57393217002,0.818888321379,0.00212796288903,0.0,0.818845815641,-0.573871180166,-0.0120060686045,0.0,-0.00861061857256,0.00863330873308,-0.999925658851,0.0,0.653535818518,0.250437314782,0.30341081866,1.0,-0.01808,-0.0237622857143,0.905
0.458966480606,0.50261015309,-0.124147951693,-1.42677163674,0.0753095239839,1.92022132677,0.149782968359,-0.00884684052815,-0.0955983820684,0.000861283138871,-0.152317356486,-0.0112515922292,0.0517152633779,-0.0160682702742,0.573928178757,0.818890788472,0.00225146311089,0.0,0.818850059637,-0.573866851754,-0.0119232206846,0.0,-0.00847193865134,0.00868685028385,-0.999926379734,0.0,0.653242688444,0.250050944049,0.30348889702,1.0,-0.01842,-0.0242091428571,0.922
0.458735591004,0.500895487783,-0.124151186094,-1.42933380565,0.0751479245402,1.92111726006,0.149424414608,-0.0135394195658,-0.0969380591929,0.0015316092707,-0.150382963885,-0.00907977351037,0.0431238973259,-0.0136121313793,0.573912871754,0.818901399242,0.00229365525532,0.0,0.818861163896,-0.573851320107,-0.01190813066,0.0,-0.00843553017381,0.00871258242047,-0.999926463665,0.0,0.652916919286,0.24965170106,0.303543840137,1.0,-0.01876,-0.024656,0.939
0.458509048916,0.499295862393,-0.12415424679,-1.43178731759,0.0749875750207,1.92201513697,0.149079267782,-0.0139606016957,-0.0965942646661,7.10173415051e-05,-0.152133889705,-0.0102380483745,0.058578167789,-0.0204276631695,0.573899471882,0.818910698746,0.00232605975484,0.0,0.818870929337,-0.573837839137,-0.0118862257546,0.0,-0.00839913804418,0.0087264094068,-0.999926649439,0.0,0.652612417597,0.249267161758,0.303569834833,1.0,-0.01908,-0.0250765714286,0.955
0.45825123287,0.497517063004,-0.124154325745,-1.4345866961,0.0748234077043,1.92305269828,0.148673317813,-0.016315306776,-0.0964318165833,0.000113516503058,-0.156168191515,-0.00583968871236,0.0476190224886,-0.0141791125848,0.573876268204,0.818926907377,0.0023443691708,0.0,0.818887251913,-0.573814436819,-0.0118914950336,0.0,-0.00839319397151,0.00874418917373,-0.999926544027,0.0,0.652263182087,0.248834214262,0.303567645352,1.0,-0.01944,-0.0255497142857,0.973
0.458006235345,0.495955261705,-0.124149036035,-1.43711807439,0.0746652600796,1.92393453802,0.148299384745,-0.0133728121032,-0.09897798629,0.000307144801437,-0.162299849712,-0.00541095769505,0.0528425531576,-0.0187820023713,0.573854484585,0.818942402957,0.00226231346432,0.0,0.818901527241,-0.573792827433,-0.0119510154371,0.0,-0.00848925750515,0.00871092346725,-0.999926023423,0.0,0.651914304718,0.248405746449,0.303524319782,1.0,-0.01978,-0.0259965714286,0.99
0.457736160489,0.494272540627,-0.124156748301,-1.43986538107,0.0744935969889,1.92489077848,0.147908946778,-0.0157183055931,-0.100242164676,0.00177833498722,-0.163990547662,-0.0155469297615,0.0595494666544,-0.0262727888438,0.573850787167,0.818945227478,0.00217608831586,0.0,0.81890310685,-0.573789362287,-0.01200900573,0.0,-0.00858626691457,0.00867354986663,-0.999925520003,0.0,0.651583071158,0.247985584075,0.303475156896,1.0,-0.0227257142857,-0.0298680816327,1.006
0.45742378894,0.492011547495,-0.124233892732,-1.44330430199,0.0742949483642,1.92617062546,0.147410223922,-0.0178366666849,-0.146948359331,-0.00461370597161,-0.223870517918,-0.0157977255518,0.0802050487603,-0.0397689407708,0.573872948845,0.818929487718,0.00225380364405,0.0,0.818888572605,-0.573811397174,-0.0119470930111,0.0,-0.00849073201422,0.00870189508383,-0.999926089515,0.0,0.651168117548,0.247413715384,0.303525291022,1.0,-0.0320611428571,-0.0421375020408,1.023
0.457026943879,0.489058275904,-0.124252600394,-1.44801421797,0.0740450138063,1.92793070517,0.146706313467,-0.0276232115198,-0.190554194425,-0.000151008340601,-0.301326549221,-0.0204034256985,0.102861158546,-0.046554594321,0.57380364684,0.818977994411,0.00227298145316,0.0,0.818936958833,-0.573741645888,-0.011980322736,0.0,-0.00850768036594,0.00873594958908,-0.999925648516,0.0,0.650565808287,0.246704033602,0.303490688339,1.0,-0.0413965714286,-0.054406922449,1.04
0.456482793835,0.485508729339,-0.124317514174,-1.45360672835,0.0737149302045,1.93004542894,0.145882854104,-0.0360805808758,-0.241886081486,-0.00524563151785,-0.37139460455,-0.0253455651123,0.138006997681,-0.0607122613611,0.573810530672,0.818973024135,0.00232540993058,0.0,0.818932767039,-0.573748414461,-0.0119426493502,0.0,-0.00844667001844,0.00875734095616,-0.999925978633,0.0,0.649881043822,0.245786264541,0.30348006443,1.0,-0.0501828571429,-0.0659546122449,1.056
0.455790475912,0.480970066323,-0.124435527089,-1.46075798332,0.0732817928434,1.93255580764,0.144781709314,-0.0415108267136,-0.282139009246,-0.00679936612251,-0.451324895509,-0.0305163625309,0.162785060476,-0.0665250239415,0.573794813908,0.818984316637,0.0022243058374,0.0,0.818942778305,-0.573733148927,-0.01198943641,0.0,-0.00854316687523,0.0087012231615,-0.999925648744,0.0,0.648966072723,0.244580851611,0.303446302382,1.0,-0.0595182857143,-0.0782240326531,1.073
0.454941653013,0.475606727644,-0.124554020231,-1.46912616644,0.0727794928414,1.93551447695,0.14356495431,-0.0487991516573,-0.334779142496,-0.00862678980539,-0.519735106136,-0.0358357131793,0.188949655412,-0.0680079052368,0.573858176332,0.818940045249,0.00217776168838,0.0,0.818897882967,-0.573796679392,-0.0120156103468,0.0,-0.00859063745222,0.00867878777092,-0.999925437016,0.0,0.64782846486,0.243069903773,0.303437095006,1.0,-0.0694028571429,-0.0912151836735,1.091
0.454009987082,0.469886984652,-0.124651063816,-1.47795217666,0.0722674480351,1.93870562873,0.142255919575,-0.0613199363188,-0.379268004414,-0.00560393230896,-0.563521020127,-0.0325743966714,0.203429923643,-0.0866070052225,0.573896770952,0.818912790152,0.0022550650957,0.0,0.818871363668,-0.573834670569,-0.0120086434981,0.0,-0.00854016164128,0.00873849820034,-0.999925349358,0.0,0.646768131133,0.241665907572,0.303470577765,1.0,-0.07764,-0.102041142857,1.106
0.452795375058,0.462618731574,-0.124696971197,-1.48901593543,0.0715707182275,1.94278794694,0.140456243811,-0.0721624869084,-0.406843533169,-0.000763057633664,-0.64526250477,-0.0411395885063,0.226687752975,-0.106801636263,0.573784878965,0.818990496356,0.00249528582349,0.0,0.818952186494,-0.573721816954,-0.0118886453771,0.0,-0.00830524756371,0.00886521541273,-0.999926212687,0.0,0.645353238678,0.239807066575,0.303572673882,1.0,-0.0875245714286,-0.115032293878,1.124
0.451393237586,0.454614847729,-0.124791759662,-1.50157727118,0.0707530812116,1.94701585873,0.138589411937,-0.0793825536802,-0.459813391134,-0.0032282668245,-0.731147370205,-0.0452766693747,0.236240691473,-0.111788941985,0.573831478296,0.818958687095,0.00220232843858,0.0,0.818916123745,-0.573769151288,-0.0120867779633,0.0,-0.00863510994562,0.00873946419643,-0.999924525473,0.0,0.643648400339,0.237627222128,0.30346979297,1.0,-0.0974091428571,-0.128023444898,1.142
0.450113386428,0.447120966867,-0.124921039269,-1.51261689886,0.069975647783,1.95112474421,0.136828455765,-0.0820666541247,-0.508640427318,-0.00794162812991,-0.75086946661,-0.0450562622632,0.274943723238,-0.112668049445,0.573820854493,0.818964896972,0.0026213315008,0.0,0.81892889856,-0.573758042538,-0.0117437058786,0.0,-0.00811382906053,0.00888563853694,-0.999927602982,0.0,0.642242247316,0.235679550154,0.303715223659,1.0,-0.105646285714,-0.138849404082,1.157
0.448495067645,0.438204825413,-0.124963396561,-1.5263229316,0.0690918788011,1.95583846753,0.134670454469,-0.101067705849,-0.533387235645,-0.000720844882179,-0.834732268861,-0.0498753273547,0.275954975348,-0.137070698987,0.573778497216,0.818994746449,0.00256677270088,0.0,0.818957377505,-0.5737151734,-0.0118516050854,0.0,-0.0082339643861,0.00890244499492,-0.999926471449,0.0,0.64035504441,0.233300878052,0.303701083639,1.0,-0.114981714286,-0.15111882449,1.174
0.446699827278,0.428518152018,-0.12505109697,-1.54084117612,0.0681036556555,1.96101248974,0.132287764402,-0.112381385081,-0.568500471158,-0.0068096227861,-0.890808109701,-0.0650266140564,0.307595207335,-0.138668973979,0.573721415237,0.819033864467,0.00283080498815,0.0,0.819000166612,-0.573657406928,-0.0116898874275,0.0,-0.00795065450062,0.0090253422816,-0.999927662529,0.0,0.638392876283,0.230717797253,0.303845795779,1.0,-0.124317142857,-0.163388244898,1.191
0.444826420229,0.418910959364,-0.125121478441,-1.55544438356,0.0670619538901,1.96600263824,0.129857419991,-0.124363592094,-0.604730767607,-0.00586000700772,-0.927741213516,-0.06406534475,0.307262850538,-0.144846185118,0.573646140419,0.819086732616,0.00278871592493,0.0,0.819052547875,-0.573582355574,-0.0117026533296,0.0,-0.00798608358632,0.00899746002781,-0.999927631472,0.0,0.636348324853,0.22807272823,0.303857549509,1.0,-0.133103428571,-0.174935934694,1.207
0.442661579012,0.408054826154,-0.125244420308,-1.57174142179,0.065909780897,1.97172998134,0.127155975178,-0.135645782515,-0.632539795095,-0.000544849278778,-0.982290722802,-0.060305519322,0.332743241024,-0.170666543968,0.573649455087,0.819083716746,0.00298572282375,0.0,0.819052474996,-0.573585454794,-0.011554918935,0.0,-0.00775202801479,0.00907411132384,-0.999928780747,0.0,0.634082379902,0.225071114628,0.303949281561,1.0,-0.142438857143,-0.187205355102,1.224
0.440087893209,0.395834292902,-0.125354170827,-1.59003726445,0.0646789313746,1.97792916248,0.124064279143,-0.150422603197,-0.699141926926,-0.00597183499003,-1.02905858165,-0.0674009567145,0.365825480538,-0.167512885718,0.573695802977,0.819050829582,0.00310017894456,0.0,0.819020442684,-0.573630687602,-0.0115799657612,0.0,-0.00770637115512,0.00918266448214,-0.999928142677,0.0,0.631458620951,0.221637377521,0.304018910254,1.0,-0.152323428571,-0.200196506122,1.242
0.437775549724,0.38529614888,-0.125476029628,-1.606075338,0.0634322897852,1.98328774645,0.12128225715,-0.159729587967,-0.706614299981,-0.00487074632402,-1.0899517759,-0.0892262587961,0.351727846848,-0.190346928909,0.573666510201,0.819072088877,0.00289744672168,0.0,0.819039580343,-0.573602653929,-0.0116149962462,0.0,-0.00785168727781,0.00903643188887,-0.999928344386,0.0,0.629114062368,0.218558284861,0.303927828073,1.0,-0.160560571429,-0.211022465306,1.257
0.434743739345,0.371916160504,-0.125614304307,-1.62594151211,0.0619644556256,1.989904658,0.117696979959,-0.179307489078,-0.746373555895,-0.00795785733369,-1.13583391611,-0.0874667393591,0.368314859314,-0.202405269538,0.573639840836,0.819090516282,0.00296749787708,0.0,0.819058902021,-0.57357574141,-0.0115814846721,0.0,-0.00778434933725,0.00907433128589,-0.999928527654,0.0,0.626178994667,0.214680136616,0.303989878716,1.0,-0.170445142857,-0.224013616327,1.275
0.431601417249,0.358725104672,-0.125802556348,-1.64544312112,0.0604468564237,1.99637089851,0.114227111001,-0.186970990536,-0.773546173362,-0.0137833993738,-1.17330456819,-0.0934999897096,0.376991054319,-0.214822310728,0.573773681471,0.81899658402,0.00301740214993,0.0,0.818966203364,-0.573710095445,-0.0114817695911,0.0,-0.00767256371878,0.00905926200967,-0.999929528286,0.0,0.623271735245,0.21074825285,0.304042575014,1.0,-0.179780571429,-0.236283036735,1.292
0.428357920987,0.345868350061,-0.125976089887,-1.66446244254,0.0590316587142,2.00246443615,0.110604751902,-0.212064499218,-0.824717388821,-0.0200949146028,-1.17424705957,-0.0931487559353,0.387846583685,-0.227478458094,0.573839681944,0.818950615039,0.00294218533042,0.0,0.818918761954,-0.573775742967,-0.0115846883152,0.0,-0.00779928320724,0.00905733900828,-0.999928565344,0.0,0.620356873775,0.20682895051,0.304027433307,1.0,-0.188566857143,-0.247830726531,1.308
0.424534812549,0.330869259102,-0.126102302965,-1.68650790693,0.0573417249804,2.00956812814,0.106420855328,-0.222107041708,-0.826382459737,-0.00397351027972,-1.2343054559,-0.0953326357161,0.390629699607,-0.237731431255,0.573869104029,0.818929912981,0.00296579978319,0.0,0.818897892355,-0.5738045327,-0.0116338751353,0.0,-0.00782568966226,0.00910518399487,-0.999927924505,0.0,0.616904140097,0.202318936379,0.304021119676,1.0,-0.198451428571,-0.260821877551,1.326
0.420693974521,0.316097859853,-0.126202425948,-1.70793161803,0.055509099193,2.01642209168,0.102207352452,-0.236110392432,-0.857972874976,-0.00440207857643,-1.28445176926,-0.114007212789,0.399797939992,-0.250069501782,0.5737552531,0.819009460014,0.00302668922507,0.0,0.818979011297,-0.573691418281,-0.0115014150047,0.0,-0.00768352998994,0.00907796700508,-0.99992927444,0.0,0.613485587701,0.197878175286,0.304079487715,1.0,-0.207786857143,-0.273091297959,1.343
0.416830094977,0.301780529567,-0.126302302692,-1.72856723105,0.0537957252833,2.02289158524,0.0979115125836,-0.250889686341,-0.911339609874,-0.0146300637221,-1.31024008839,-0.114557307027,0.395912146298,-0.267873189656,0.573568728874,0.819139822672,0.00310017297479,0.0,0.819110332374,-0.573504701199,-0.0114615881251,0.0,-0.00761082602073,0.00911356771199,-0.999929506621,0.0,0.610117548011,0.193533795402,0.304127359737,1.0,-0.216573142857,-0.284638987755,1.359
0.412079871588,0.285144294756,-0.126470485666,-1.75241018941,0.0518446731743,2.0301741471,0.0930037305891,-0.265128495141,-0.924745667206,-0.00637122101261,-1.3407455149,-0.109686741232,0.401960706073,-0.281776526208,0.573638315325,0.819090954073,0.00313672567169,0.0,0.8190613946,-0.573573515966,-0.011515231592,0.0,-0.00763302621834,0.00917492559989,-0.999928776289,0.0,0.606152355674,0.188349281563,0.304158825803,1.0,-0.226457714286,-0.297630138775,1.377
0.40724824731,0.268957513081,-0.126656818866,-1.77546358595,0.0498605382388,2.0370853223,0.0879760374812,-0.294354776384,-0.973945597576,-0.0144934926921,-1.36669884657,-0.124208481656,0.422473361116,-0.298944116787,0.57360715658,0.819112826553,0.0031231710353,0.0,0.819082795911,-0.573542049243,-0.0115601943855,0.0,-0.00767798140778,0.0091893228176,-0.999928299903,0.0,0.602005022057,0.182911320281,0.304174362043,1.0,-0.236342285714,-0.310621289796,1.395
0.402630315192,0.254311834246,-0.126863750557,-1.79609952409,0.0480067942474,2.0431800474,0.0834297494986,-0.314325401253,-1.00789214404,-0.0172477922596,-1.36727592469,-0.121474704201,0.422564049498,-0.302147807092,0.573741265664,0.819018887624,0.00312549034273,0.0,0.818989328038,-0.573676662158,-0.0115028151956,0.0,-0.0076281489041,0.00915955933448,-0.999928954385,0.0,0.598704962541,0.17843946743,0.304212892106,1.0,-0.244030285714,-0.320725518367,1.409
0.396796323849,0.236293292916,-0.127042152691,-1.82135934229,0.0457467811641,2.05043874476,0.0776082330394,-0.326200515465,-1.03271569087,-0.0105827155308,-1.3741603816,-0.13126149367,0.405648461665,-0.333216639891,0.573737598153,0.819021577664,0.00309365290139,0.0,0.818991143642,-0.573672542799,-0.0115787380863,0.0,-0.00770864102356,0.00917700839288,-0.999928177106,0.0,0.594238724735,0.172592728954,0.304221235509,1.0,-0.253914857143,-0.333716669388,1.427
0.391028077455,0.218918334497,-0.127182172673,-1.84560858139,0.0435395045521,2.0573252585,0.0718092929822,-0.346748480626,-1.03018167392,-0.0136175685926,-1.4170956589,-0.125525313079,0.38879341377,-0.3512182004,0.573605804005,0.819113981711,0.00306813913143,0.0,0.819082625829,-0.573540148982,-0.0116660392028,0.0,-0.00779626494995,0.00920494447638,-0.999927240978,0.0,0.589842947433,0.166960069328,0.304184925175,1.0,-0.263250285714,-0.345986089796,1.444
0.385533800622,0.203107466941,-0.127357898454,-1.86735500051,0.0414068537426,2.0633677683,0.0664682084986,-0.377791475606,-1.03050048504,-0.0173629010421,-1.45110944433,-0.146339260347,0.400899674619,-0.348152280674,0.573569585227,0.819139374658,0.00305985106119,0.0,0.819108339249,-0.573504467917,-0.0116146783655,0.0,-0.00775935150997,0.00916835229291,-0.999927864288,0.0,0.585847403064,0.161726969842,0.304208726553,1.0,-0.271487428571,-0.35681204898,1.459
0.378476665517,0.183706663523,-0.12763190568,-1.8937264755,0.0388651451469,2.07045894198,0.0596658665238,-0.407911813365,-1.07792651286,-0.0259360826206,-1.4777712477,-0.14646901119,0.387640251481,-0.393295079063,0.573588456712,0.819125992256,0.00310451904278,0.0,0.819095266241,-0.573522870734,-0.0116279175914,0.0,-0.00774436596427,0.00921271353118,-0.99992757273,0.0,0.580902086316,0.155198229489,0.304259690004,1.0,-0.281372,-0.3698032,1.477
0.371296203293,0.165037100764,-0.12791428468,-1.91892829407,0.036362855941,2.07704372676,0.0529424088347,-0.43544576121,-1.09903660324,-0.0186078068027,-1.49545724789,-0.166779341618,0.380481358756,-0.404040699155,0.573707749125,0.819042496116,0.00309112460455,0.0,0.819011321337,-0.573641865078,-0.0116710347696,0.0,-0.0077860248717,0.00922760679444,-0.999927111888,0.0,0.576078194329,0.14877168933,0.304268487349,1.0,-0.290707428571,-0.382072620408,1.494
0.364731851446,0.148190652535,-0.128103883532,-1.94126953098,0.0340552215197,2.08277962981,0.0467131496294,-0.444245572214,-1.10262792339,-0.017582297083,-1.52326838689,-0.151895789407,0.377519159796,-0.415333862339,0.573620110995,0.819103365424,0.00322364943795,0.0,0.819074097474,-0.573554032937,-0.0115819277673,0.0,-0.00763800593166,0.00928421319524,-0.999927729514,0.0,0.571700882629,0.143064477089,0.304356512507,1.0,-0.298944571429,-0.392898579592,1.509
0.357271057136,0.129914703418,-0.128352821703,-1.96532849701,0.0315711847058,2.08871892164,0.0397254014118,-0.473793151199,-1.1429510818,-0.0178998357369,-1.47996676031,-0.14562606596,0.357297337007,-0.452526986345,0.573599727636,0.819117257812,0.00331923361709,0.0,0.81908886152,-0.573532900768,-0.0115842812209,0.0,-0.00758534102399,0.00936366811735,-0.999927389524,0.0,0.566885950429,0.136753351436,0.30441703155,1.0,-0.307730857143,-0.404446269388,1.525
0.347709068632,0.107803421903,-0.12880424993,-1.99424085049,0.0283590104403,2.09562506909,0.0310212869847,-0.513921705877,-1.16530323051,-0.0283332084037,-1.53323842853,-0.168934402013,0.343086146483,-0.467811356456,0.573767727862,0.818999771581,0.00327345627042,0.0,0.81897138375,-0.573701761628,-0.011528582088,0.0,-0.00756406409942,0.00929577433397,-0.999928184178,0.0,0.56099775436,0.128845264485,0.304426381714,1.0,-0.318164571429,-0.41815915102,1.544
0.339287258076,0.088878458036,-0.129061938777,-2.01865364879,0.0256678517832,2.10121331606,0.0232528337383,-0.534875403528,-1.1798721105,-0.0157203543552,-1.52161336722,-0.157866428532,0.321099653745,-0.488543448668,0.573694205822,0.819051108698,0.00331458113787,0.0,0.819022930042,-0.573627723969,-0.0115508121163,0.0,-0.00755951538026,0.00934153179249,-0.999927792149,0.0,0.555866900014,0.122164126291,0.304444002777,1.0,-0.326950857143,-0.429706840816,1.56
0.32979883007,0.068458635075,-0.129387990351,-2.04467411516,0.0227501340975,2.10691293679,0.014532887173,-0.558146982976,-1.19601651844,-0.0178918704453,-1.52775722433,-0.16569281933,0.316137210605,-0.510183156619,0.573629617086,0.819096111846,0.00337177437192,0.0,0.819068136225,-0.573562298209,-0.0115941880129,0.0,-0.00756297727436,0.00941266380382,-0.99992709891,0.0,0.550275477881,0.114852070783,0.304462199835,1.0,-0.32998,-0.433688,1.577
0.319716927843,0.0482298438694,-0.129805120028,-2.07024528565,0.0197023089841,2.11216707161,0.00564919984424,-0.602717921731,-1.17008166747,-0.0203361090897,-1.47103229245,-0.166342498538,0.28451103203,-0.533679819024,0.573863584753,0.818932787045,0.00322851325698,0.0,0.818902740098,-0.573796436296,-0.0116918285778,0.0,-0.00772246104276,0.00935353309702,-0.999926434801,0.0,0.544662845035,0.107310096199,0.304417139667,1.0,-0.32998,-0.433688,1.594
0.310058502335,0.0292278846146,-0.13002800421,-2.09378702468,0.0169180608697,2.11679866213,-0.0028996098276,-0.604645359855,-1.19369079619,-0.014524742704,-1.45301496672,-0.168231856002,0.281339037173,-0.538879089012,0.573901047299,0.818906255388,0.00329843840969,0.0,0.81887650081,-0.573832910029,-0.0117394501247,0.0,-0.00772090528212,0.00943847814431,-0.999925648612,0.0,0.539349062229,0.100388878458,0.304454081876,1.0,-0.32998,-0.433688,1.61
0.299420447903,0.00932147416607,-0.130315362858,-2.11812854483,0.0138265288279,2.12138126871,-0.0122920707146,-0.632726604249,-1.16111678855,-0.0252719066182,-1.43253636146,-0.179130216018,0.250861395464,-0.561092003808,0.573913694115,0.818897268769,0.00332893538998,0.0,0.818868385917,-0.573846037967,-0.0116635396631,0.0,-0.00764109150479,0.00942000644842,-0.999926435894,0.0,0.533754888414,0.0929682739153,0.304497659878,1.0,-0.32998,-0.433688,1.627
0.287854239475,-0.0116079448258,-0.130550160891,-2.14319196818,0.0107192048921,2.12583771077,-0.0225435929898,-0.637810484745,-1.17130184258,-0.00130602669144,-1.37349392212,-0.175537319408,0.243084195037,-0.576312120274,0.573868933933,0.818927529469,0.00359096727225,0.0,0.818901868201,-0.573800236363,-0.0115657212264,0.0,-0.00741113232815,0.00957804232526,-0.999926665422,0.0,0.527848846645,0.0852099955907,0.304622251825,1.0,-0.32998,-0.433688,1.645
0.277282083677,-0.0299721821439,-0.130795424171,-2.16495125696,0.0078337130712,2.12939053813,-0.0318595783547,-0.669377955966,-1.17174520446,-0.0185141293759,-1.34789295014,-0.188868106657,0.238704953961,-0.597579499418,0.573820555015,0.818961134385,0.00365758248962,0.0,0.818936690058,-0.573752127223,-0.0114865610672,0.0,-0.00730864206187,0.00958673791888,-0.999927336464,0.0,0.522584974345,0.0782903760342,0.304694458367,1.0,-0.32998,-0.433688,1.661
0.265595621163,-0.0492157595354,-0.131119130058,-2.18761690667,0.00490644652039,2.13276686162,-0.0420064339635,-0.694645500335,-1.15883120756,-0.00975256010561,-1.30718889613,-0.164492370714,0.193782089994,-0.588102181013,0.573994488861,0.818839198481,0.00366615451292,0.0,0.818813819827,-0.573924643224,-0.011626661677,0.0,-0.00741641269673,0.00967572399494,-0.999925685833,0.0,0.516962089735,0.0708571243926,0.304689013882,1.0,-0.32998,-0.433688,1.678
0.253736346103,-0.0682338852921,-0.131325466622,-2.20976123138,0.00189523526285,2.13589351844,-0.0525002717486,-0.707198649245,-1.1146755043,-0.0140429078437,-1.29378351339,-0.171094974995,0.158907073626,-0.610313983787,0.573839904077,0.818947596708,0.00365311320677,0.0,0.818921760858,-0.573769746752,-0.0116693704576,0.0,-0.00746070069346,0.00968815085086,-0.999925236044,0.0,0.511332555223,0.0635682311807,0.304668150039,1.0,-0.32998,-0.433688,1.695
0.241358418857,-0.0870362133644,-0.131681428185,-2.2312995296,-0.00112984174976,2.13871648917,-0.0633224950624,-0.738282770209,-1.0913725436,-0.0141470614715,-1.27750001911,-0.179975021065,0.162396140704,-0.643470574628,0.57390734605,0.818900142186,0.00369623835787,0.0,0.818874974743,-0.573837184837,-0.0116364916795,0.0,-0.00740822830844,0.00970521200444,-0.999925460729,0.0,0.505754943561,0.0561228894326,0.304672870007,1.0,-0.32998,-0.433688,1.712
0.228117763069,-0.106802947388,-0.131889228992,-2.25352014463,-0.00427331909748,2.14119321692,-0.0750303256118,-0.744367842137,-1.09695783995,-0.0176408467901,-1.2317912266,-0.171595421359,0.126546383806,-0.655579470933,0.573721524323,0.819030192206,0.00372876459909,0.0,0.819005077427,-0.573650802603,-0.0116699067146,0.0,-0.00741913997596,0.00974934151325,-0.999924950535,0.0,0.499799167423,0.0484608867775,0.304707547473,1.0,-0.32998,-0.433688,1.73
0.214978127425,-0.125167192293,-0.132256113166,-2.27405893367,-0.00727949449152,2.14322913761,-0.0864362489526,-0.77910962442,-1.07091848889,-0.0187627556419,-1.20322678959,-0.177187020561,0.113018986401,-0.681323227164,0.5738571493,0.818935596905,0.00363417402152,0.0,0.818908637513,-0.573785917506,-0.0117945402275,0.0,-0.00757387678671,0.00974462534294,-0.999923836433,0.0,0.494167826355,0.0410055152305,0.304652138063,1.0,-0.32998,-0.433688,1.747
0.202442049436,-0.14230816022,-0.132501645444,-2.29290579016,-0.0100603702044,2.14482995217,-0.0975380940301,-0.79675648971,-1.0815973243,-0.0226240871397,-1.15296747105,-0.174210206696,0.105692798948,-0.712335500604,0.573725946094,0.81902772348,0.0035880147428,0.0,0.818999480186,-0.573654020132,-0.0119022494672,0.0,-0.007690141263,0.00976739959821,-0.999922726831,0.0,0.488854708372,0.0341299817334,0.304625158191,1.0,-0.32998,-0.433688,1.763
0.189443155858,-0.159275430383,-0.132911990725,-2.31135076597,-0.0128693069818,2.14618392418,-0.108897311651,-0.815552703725,-1.05840550371,-0.0239534597732,-1.1541994374,-0.177611059179,0.0633299303133,-0.700026713475,0.573849381223,0.818941508571,0.00352705424819,0.0,0.818911797883,-0.573776811098,-0.0120160407231,0.0,-0.00781684307616,0.00978393224032,-0.999921582742,0.0,0.483537443983,0.0271107532214,0.30457993585,1.0,-0.32998,-0.433688,1.779
0.175400321619,-0.177106532098,-0.133196054314,-2.33025840417,-0.0157158484105,2.14733386348,-0.121301567863,-0.846864439801,-1.04106826764,-0.0192377089723,-1.1165993952,-0.181142229202,0.0544217282594,-0.733580163025,0.573803377542,0.818973169638,0.0036576270626,0.0,0.818944737716,-0.573729791141,-0.0120162484195,0.0,-0.00774264451452,0.00989054878768,-0.999921111139,0.0,0.477946979811,0.019813605372,0.304626603899,1.0,-0.32998,-0.433688,1.796
0.161659353262,-0.19374674825,-0.133616763705,-2.34755414439,-0.018495751489,2.14817249073,-0.133359823813,-0.858915748704,-1.05067904886,-0.0198454365139,-1.07268596193,-0.183484916332,0.0595701071682,-0.747344028966,0.57392438302,0.818887729198,0.00379953227151,0.0,0.81886176898,-0.573851074788,-0.0118783066368,0.0,-0.00754677916971,0.00992873268385,-0.999922230172,0.0,0.47270918856,0.0127806913846,0.304713745582,1.0,-0.32998,-0.433688,1.812
0.14600074372,-0.21213039682,-0.133930772044,-2.36662120463,-0.021411161676,2.14872734178,-0.147337664748,-0.887987016107,-1.02433287914,-0.0221436250328,-1.03747197585,-0.158283186207,0.0195576477092,-0.7858647759,0.57382076201,0.818960084303,0.00385490662158,0.0,0.818933394605,-0.573745360425,-0.0120458911064,0.0,-0.00765351656092,0.0100692880443,-0.999920013362,0.0,0.466735100142,0.00507006786595,0.304694889808,1.0,-0.32998,-0.433688,1.83
0.130720367881,-0.229179928518,-0.1343154906,-2.38393334063,-0.02434420274,2.14905104116,-0.160826570079,-0.889342747911,-0.996069986371,-0.0166705573241,-1.00466228704,-0.16697749728,0.00758370323425,-0.8085549299,0.573856260354,0.818935062179,0.00388629481327,0.0,0.818909412562,-0.573781572411,-0.0119510702211,0.0,-0.00755741158939,0.0100409131856,-0.999921029678,0.0,0.461169583528,-0.00231610713251,0.304730018356,1.0,-0.32998,-0.433688,1.847
0.116009745744,-0.245096043773,-0.134672796037,-2.39979874095,-0.0269459174577,2.14915448204,-0.173971017973,-0.934085134641,-0.987823921825,-0.034080676825,-0.988379447813,-0.161497698509,0.0110180561472,-0.8280324165,0.573837215842,0.818947510366,0.00407085757819,0.0,0.818924514094,-0.573762224147,-0.0118447144021,0.0,-0.00736463686438,0.0101308580495,-0.999921560843,0.0,0.455927185057,-0.0092289945701,0.304795064518,1.0,-0.32998,-0.433688,1.863
0.100024323108,-0.261703308138,-0.135030335123,-2.41636618589,-0.0297336185428,2.14901938154,-0.188348774211,-0.942850180325,-0.988828011785,-0.0181192641656,-0.979149868702,-0.166065541106,-0.0101819467809,-0.850968091443,0.57371792287,0.819031055562,0.00407699684802,0.0,0.819007694271,-0.57364231714,-0.0119010761015,0.0,-0.00740875564436,0.010167148198,-0.999920866588,0.0,0.450281927802,-0.0165477939622,0.304749281119,1.0,-0.32998,-0.433688,1.88
0.083516280335,-0.278002134147,-0.13549880963,-2.4321579427,-0.0324974021217,2.14870021661,-0.203082606741,-0.980156512391,-0.937250762863,-0.0206154575725,-0.917662492725,-0.167569311188,-0.0339962395272,-0.883421001668,0.573822199578,0.818957121925,0.00425001414502,0.0,0.818936837811,-0.573747155418,-0.0117219549135,0.0,-0.00716148281387,0.0102070076129,-0.999922262058,0.0,0.444734303925,-0.0239713584783,0.304811405987,1.0,-0.32998,-0.433688,1.897
0.0687556269153,-0.292152272808,-0.135808626384,-2.44579627462,-0.0347855126972,2.14810086589,-0.216479977949,-0.990146571801,-0.937534848957,-0.021987943889,-0.893798978049,-0.156973839877,-0.0295658466202,-0.904809297972,0.573718917753,0.819028946895,0.00435137463534,0.0,0.819009276058,-0.573642551651,-0.0117803041877,0.0,-0.00715241419012,0.0103225983013,-0.999921140358,0.0,0.439453134628,-0.0308249920808,0.304815815898,1.0,-0.32998,-0.433688,1.913
0.0504480138484,-0.308795989681,-0.13631647484,-2.46146863674,-0.0376628453919,2.14726393112,-0.232948906941,-1.0162774378,-0.910851696132,-0.0239687537464,-0.864866261966,-0.155367211285,-0.0599032875641,-0.922348804369,0.57379945963,0.818971969893,0.00445416210733,0.0,0.81895441394,-0.573723895335,-0.0116321412861,0.0,-0.00697107264323,0.010322470842,-0.999922422362,0.0,0.433878963366,-0.0382526327386,0.304862074529,1.0,-0.32998,-0.433688,1.93
0.0327899655543,-0.324216096325,-0.136802499503,-2.4757497556,-0.0402183416283,2.14621106575,-0.248930704586,-1.05308333138,-0.922608968328,-0.0281429961908,-0.840836999936,-0.156275716445,-0.0550943620708,-0.955155999328,0.573893623454,0.818904970052,0.0046374436213,0.0,0.818889907792,-0.573817675288,-0.0115473522837,0.0,-0.00679526788794,0.0104247083307,-0.999922571898,0.0,0.428296936734,-0.0456358445644,0.304921967071,1.0,-0.32998,-0.433688,1.947
0.0148451730739,-0.339198590978,-0.137178816866,-2.48953717025,-0.0427810973566,2.14500125112,-0.265442035762,-1.0689128188,-0.882454333137,-0.0237194030982,-0.786529717949,-0.158197260299,-0.0812405824981,-0.981836495804,0.573693360824,0.819044958468,0.00469368248711,0.0,0.819030871669,-0.573617665284,-0.0114870461239,0.0,-0.00671615733243,0.0104345138522,-0.999923004111,0.0,0.422715226994,-0.0529256832403,0.30493282972,1.0,-0.32998,-0.433688,1.964
-0.00476602167656,-0.354671048421,-0.137691810683,-2.50344005208,-0.0454579709391,2.14343451166,-0.283323111753,-1.09702317501,-0.869631411437,-0.0222293737793,-0.760550128784,-0.133077445002,-0.0831127847981,-1.00926128669,0.573759724949,0.818998002918,0.00477453078189,0.0,0.818985279385,-0.57368429362,-0.0114100966332,0.0,-0.00660590022074,0.0104571256643,-0.999923502377,0.0,0.416808041302,-0.0607632165547,0.304990538342,1.0,-0.32998,-0.433688,1.982
-0.0214599085644,-0.367177968335,-0.138135707745,-2.51470797307,-0.0475748960313,2.14205292151,-0.298661591367,-1.11405081691,-0.811863142597,-0.0230274578349,-0.735886822546,-0.154135143581,-0.103608555689,-1.04293689595,0.573775867056,0.818986447158,0.00481670599775,0.0,0.818973668327,-0.573699364682,-0.0114854887469,0.0,-0.00664324635499,0.010535054477,-0.999922436945,0.0,0.411513126234,-0.0677123415099,0.304956440945,1.0,-0.32998,-0.433688,1.998
-0.0395148455089,-0.380168947427,-0.13853337288,-2.52621558045,-0.0498273502192,2.14036336502,-0.315340592143,-1.14902007373,-0.804393621753,-0.0354055964606,-0.687697369641,-0.132304973168,-0.106675526312,-1.05274945428,0.573737818428,0.819013184991,0.00480264683366,0.0,0.818999536018,-0.573660277509,-0.0115927956454,0.0,-0.00673969452911,0.0105847946016,-0.999921266221,0.0,0.406552438008,-0.0741659144467,0.304938644603,1.0,-0.32998,-0.433688,2.013
-0.0603195563141,-0.394331452852,-0.139005130817,-2.53852333601,-0.0523089067698,2.13852523189,-0.334619744782,-1.15509678248,-0.76104314023,-0.0222667181585,-0.6687597664,-0.129706333654,-0.113143736879,-1.07972317155,0.573696378638,0.819041719828,0.00488602286663,0.0,0.819029744363,-0.573619544387,-0.0114735803932,0.0,-0.00659474977656,0.0105843533626,-0.999922237346,0.0,0.400651796329,-0.0819580208304,0.304964147182,1.0,-0.32998,-0.433688,2.031
-0.0804014556641,-0.407184160976,-0.139482147821,-2.54968008439,-0.0544969243401,2.1364532675,-0.353301689621,-1.18374981357,-0.727531643187,-0.0253109691964,-0.632925516821,-0.131492605003,-0.112853254582,-1.11488627599,0.573719680954,0.819025475231,0.00487293650801,0.0,0.81901154649,-0.573640049585,-0.0117442381587,0.0,-0.00682365007549,0.0107290984032,-0.999919158856,0.0,0.394990094876,-0.0893061795764,0.304902393587,1.0,-0.32998,-0.433688,2.048
-0.0996681078385,-0.418934542774,-0.139978610566,-2.55940930881,-0.0565318289397,2.1347011982,-0.371289493778,-1.20995052382,-0.70556749555,-0.016589248573,-0.605973608131,-0.128185155766,-0.120435628785,-1.12455488041,0.573740381678,0.819009567555,0.00510387959177,0.0,0.819000297414,-0.573662750235,-0.0114152848996,0.0,-0.00642144557838,0.0107296953988,-0.99992181628,0.0,0.389475222778,-0.0967015864257,0.305025357283,1.0,-0.32998,-0.433688,2.065
-0.121737270834,-0.431480794588,-0.140430358846,-2.57011453262,-0.0587756680407,2.132367449,-0.392004836953,-1.25090474817,-0.686907480333,-0.0354820581158,-0.584125216045,-0.122566461109,-0.12525829102,-1.14876805279,0.573707909809,0.81903298715,0.00499470567121,0.0,0.819020345312,-0.573627412615,-0.0117478663293,0.0,-0.00675692005306,0.0108308179269,-0.999918515387,0.0,0.383784642527,-0.104038141785,0.304924872664,1.0,-0.32998,-0.433688,2.082
-0.141578961192,-0.442221255725,-0.140782094949,-2.57890134122,-0.060611073057,2.1304032698,-0.410795039236,-1.25772633148,-0.676097041791,-0.0143878746795,-0.528681766043,-0.115103557648,-0.10883944342,-1.17675580849,0.573578772693,0.819122704403,0.0051120981832,0.0,0.819111916035,-0.573498452983,-0.0116593455002,0.0,-0.00661878165023,0.0108751430004,-0.999918958213,0.0,0.378554821258,-0.110883765481,0.304975575887,1.0,-0.32998,-0.433688,2.098
-0.163194929871,-0.453000179337,-0.141279563544,-2.58765006362,-0.0626153045949,2.12835592888,-0.431232102636,-1.27928560444,-0.621173449142,-0.0320739942989,-0.516830822386,-0.100322599846,-0.133770992794,-1.21059492387,0.57357895399,0.81912222519,0.00516823386557,0.0,0.819112806429,-0.573499525378,-0.0115434672809,0.0,-0.00649165592107,0.0108546654202,-0.999920014122,0.0,0.372979431621,-0.11829049487,0.305011653247,1.0,-0.32998,-0.433688,2.115
-0.185114391549,-0.463215613411,-0.141703721825,-2.59597644367,-0.0645370340568,2.12613304055,-0.452074241413,-1.29734270851,-0.581307788343,-0.024027675186,-0.481625306079,-0.117475328082,-0.114019507076,-1.24116944447,0.573490364233,0.819184707846,0.00509543556004,0.0,0.819173382197,-0.573409587797,-0.0117115935684,0.0,-0.00667231521439,0.0108907409233,-0.999918432659,0.0,0.367328010238,-0.125624879705,0.304973492085,1.0,-0.328899428571,-0.432267820408,2.132
-0.20728484057,-0.472633822913,-0.142074062238,-2.60351254732,-0.0660994666502,2.12416386043,-0.47310097022,-1.30565940098,-0.538502186655,-0.00455717345078,-0.423099722361,-0.100496428303,-0.107699655191,-1.20475266695,0.573607207689,0.819101733681,0.00527902164278,0.0,0.819092491242,-0.573525312605,-0.0117027130821,0.0,-0.00655818630178,0.0110369800582,-0.999917584236,0.0,0.361810760258,-0.13291694316,0.304981070507,1.0,-0.319564,-0.4199984,2.149
-0.228093542864,-0.480742490704,-0.14234769725,-2.60980632874,-0.0674451489991,2.12237373077,-0.492790813937,-1.30499228975,-0.488056041254,-0.0241354198868,-0.380082962997,-0.0920140308474,-0.112865270641,-1.20326384967,0.573787836314,0.81897403982,0.00545782925675,0.0,0.818967602721,-0.573706169929,-0.0115777018521,0.0,-0.00635076921063,0.0111131438001,-0.999918079527,0.0,0.356760057723,-0.139669824974,0.305046946064,1.0,-0.310777714286,-0.408450710204,2.165
-0.251151167842,-0.488959584302,-0.142384343875,-2.61638757207,-0.0687484176096,2.12035429835,-0.514719586376,-1.28085034748,-0.438545566962,-0.00273030100434,-0.35519248968,-0.0620605170062,-0.111408863363,-1.20057118746,0.573803589239,0.818962735087,0.00549785561048,0.0,0.818955287228,-0.573719123428,-0.0118047378214,0.0,-0.00651354087747,0.0112763159566,-0.999915205647,0.0,0.351160802252,-0.146923341242,0.304989548903,1.0,-0.300893142857,-0.395459559184,2.183
-0.271386162427,-0.495486928208,-0.142337890622,-2.62147979313,-0.0697870689603,2.11881694716,-0.533958183907,-1.25107297709,-0.392055190858,0.00851007857749,-0.30475680659,-0.0560793404309,-0.0973270957286,-1.2010375337,0.57384591851,0.818932619894,0.00556531975373,0.0,0.818926189409,-0.573761453037,-0.0117659768405,0.0,-0.0064425003292,0.011309661632,-0.999915289284,0.0,0.346384664931,-0.153225157182,0.304998606256,1.0,-0.292106857143,-0.383911869388,2.199
-0.291255157995,-0.501256024681,-0.142200271775,-2.62598603398,-0.070707912083,2.11736593793,-0.552857626778,-1.23424857794,-0.345722930764,0.0033337109423,-0.270378252839,-0.0521300232963,-0.0879139491219,-1.15450045936,0.573883579728,0.818906161341,0.00557518942732,0.0,0.818899620955,-0.573798654479,-0.0118009244722,0.0,-0.00646493803807,0.0113380955825,-0.999914822455,0.0,0.341750965461,-0.159328119546,0.304987969171,1.0,-0.283320571429,-0.372364179592,2.215
-0.311930278735,-0.50670055491,-0.142006347083,-2.63013539998,-0.071437201703,2.11600925112,-0.572620241816,-1.20716855501,-0.307072201685,0.0242944983509,-0.231627902259,-0.0515059501981,-0.0781465881506,-1.15363733304,0.573935710536,0.818868675433,0.00571309606137,0.0,0.81886417776,-0.573850736642,-0.0117276313631,0.0,-0.00632504735369,0.0114093758139,-0.999914906339,0.0,0.337014693738,-0.165608016271,0.305018612107,1.0,-0.273985142857,-0.360094759184,2.232
-0.332161776242,-0.511492088063,-0.141808254531,-2.63375267811,-0.0720479733142,2.11478802279,-0.591991375109,-1.19335781223,-0.276627549037,0.00548550615389,-0.206079650453,-0.0402034783051,-0.0651968984568,-1.12253666866,0.574023337729,0.818806168696,0.00586623808406,0.0,0.818803956151,-0.57393836497,-0.0116439473024,0.0,-0.00616739552616,0.0114874176142,-0.999914997622,0.0,0.332415684438,-0.171700043127,0.305052298157,1.0,-0.264649714286,-0.347825338776,2.249
-0.35173095078,-0.51556311299,-0.141388502125,-2.63700448562,-0.0725604920519,2.11357449534,-0.610887898036,-1.13934542265,-0.228021904938,0.0213180491218,-0.181716000528,-0.0347655352011,-0.0666298191049,-1.10294726616,0.573864047716,0.81891792071,0.00585156215027,0.0,0.818914074449,-0.573776500666,-0.0118748833022,0.0,-0.00636718847662,0.0116067186656,-0.999912367657,0.0,0.327954798517,-0.177447199917,0.304986003947,1.0,-0.255314285714,-0.335555918367,2.266
-0.370925324057,-0.518984038245,-0.141061262143,-2.63976855211,-0.072995510062,2.11260263281,-0.629277653716,-1.11071237067,-0.191908335356,0.0212613460538,-0.150264926077,-0.0104287766726,-0.0461992768224,-1.07372054844,0.573941191375,0.81886360292,0.00588689713819,0.0,0.818859094581,-0.573851450324,-0.0120433833794,0.0,-0.00648380867813,0.0117329589612,-0.999910144913,0.0,0.323624748011,-0.183090652529,0.304915583188,1.0,-0.245978857143,-0.323286497959,2.283
-0.389534578693,-0.521875303352,-0.140668986216,-2.64198117038,-0.0733582326138,2.11175060997,-0.647178151021,-1.07513213815,-0.162064430152,0.0345684534631,-0.122636726943,-0.0219478360216,-0.0457197950454,-1.04800723773,0.573956599177,0.818852669311,0.00590551643142,0.0,0.818848214878,-0.573866435706,-0.0120690456312,0.0,-0.00649391759367,0.0117630564489,-0.999909725694,0.0,0.31948950381,-0.188535892379,0.304909909436,1.0,-0.236643428572,-0.311017077551,2.3
-0.406449907697,-0.524156768496,-0.140271435947,-2.64368203905,-0.0735636403804,2.11106073745,-0.663521693926,-1.05912568193,-0.133459638136,0.0138368565822,-0.0954609131601,-0.0104341938723,-0.0421471805403,-1.00837115537,0.573953894998,0.818854069039,0.00597385436834,0.0,0.818850540625,-0.5738635099,-0.0120503537306,0.0,-0.00643942812915,0.0118082686847,-0.999909545187,0.0,0.315760409366,-0.193449345069,0.30492508367,1.0,-0.227857142857,-0.299469387755,2.316
-0.424883974496,-0.526219831364,-0.139814396851,-2.64521681807,-0.0737145144265,2.11044351272,-0.681378763365,-1.00139580834,-0.100504983533,0.0276186349672,-0.0788584731449,-0.00236941456051,-0.0289317787953,-0.980014321924,0.573946994886,0.818858316322,0.00605406912178,0.0,0.818856059667,-0.573856695535,-0.0119997265902,0.0,-0.00635203010751,0.0118448462519,-0.999909671586,0.0,0.311722110726,-0.198782385233,0.304942145694,1.0,-0.217972571429,-0.286478236735,2.334
-0.440766784543,-0.527660017876,-0.139421536856,-2.64630153323,-0.0738466953691,2.10999777114,-0.696625584042,-0.980886102651,-0.0829291634731,0.0294947792068,-0.0615822731539,-0.0126210661348,-0.0247259192653,-0.942917965708,0.574069156372,0.818772480128,0.00608082132149,0.0,0.818770758357,-0.573979070053,-0.0119674266785,0.0,-0.00630845691236,0.0118491573551,-0.999909896361,0.0,0.308242627613,-0.203366769651,0.304947906554,1.0,-0.209186285714,-0.274930546939,2.35
-0.45587199694,-0.528739981404,-0.13889492391,-2.64713511079,-0.0738631214358,2.10962872197,-0.711326959703,-0.940589315049,-0.0562279264546,0.0314568570739,-0.049936255842,-0.00146130722991,-0.0263758876235,-0.909796032995,0.57397156156,0.818840824509,0.00609077489495,0.0,0.818839214976,-0.573881422062,-0.0119666340988,0.0,-0.00630350733595,0.0118561012606,-0.999909845265,0.0,0.304961315317,-0.207664764501,0.3049458644,1.0,-0.2004,-0.263382857143,2.366
-0.471482446677,-0.529548166047,-0.138385564227,-2.6477376744,-0.0738642675956,2.10931828987,-0.726356124469,-0.895568913961,-0.0452925153616,0.0436868571436,-0.0300570163013,0.000442601769976,-0.0138432308351,-0.876665467948,0.574051832356,0.818784507717,0.00609676900177,0.0,0.8187830931,-0.573961871638,-0.0119483580214,0.0,-0.00628393847867,0.0118511363681,-0.999910027294,0.0,0.301576448987,-0.212118612954,0.304953857903,1.0,-0.191064571429,-0.251113436735,2.383
-0.487177910425,-0.530024673535,-0.137838773651,-2.64812117037,-0.0738526920515,2.10909991548,-0.741555168495,-0.866745128465,-0.0265742971655,0.027884921677,-0.0175726234313,0.00990559640432,-0.00737240689012,-0.82171017165,0.574055118953,0.818782469114,0.00606098799131,0.0,0.818780631194,-0.573965383219,-0.0119483784974,0.0,-0.006304446933,0.0118218750205,-0.999910244582,0.0,0.298181683895,-0.216587034555,0.304949084343,1.0,-0.18118,-0.238122285714,2.401
-0.500427506722,-0.530207587201,-0.137263462764,-2.64826612212,-0.0737959083334,2.10895367205,-0.754511630658,-0.824373462273,-0.00902048235707,0.043448928486,-0.00461768856687,0.0115277463482,-0.00616580226058,-0.795798749502,0.573905201605,0.818888068623,0.00599145546038,0.0,0.81888540129,-0.573815919101,-0.0119472775297,0.0,-0.00634561267254,0.0117631466053,-0.999910676802,0.0,0.295336588333,-0.220325759597,0.304952505699,1.0,-0.172393714286,-0.226574595918,2.417
-0.513991771469,-0.53024575731,-0.136731547624,-2.64831814913,-0.0737214321598,2.10887934069,-0.767586078324,-0.80209117066,-0.000156269890296,0.0284381328571,-9.99963735065e-05,0.0110731051774,-0.00534043039199,-0.754907028046,0.573960113999,0.818849909943,0.00594637933253,0.0,0.818846820706,-0.573871304966,-0.0119313225771,0.0,-0.0063576283544,0.0117175026759,-0.999911136398,0.0,0.292400328179,-0.224155295699,0.304950344424,1.0,-0.163058285714,-0.21430517551,2.434
-0.526691294972,-0.530082667053,-0.136075337373,-2.64824957435,-0.073516738136,2.10887009099,-0.780000261534,-0.728955581858,0.0188993100657,0.0384474727934,0.00332305691894,0.0203162935061,0.000229701063722,-0.72640535271,0.57382259424,0.818946463234,0.0059217900648,0.0,0.818943057444,-0.573733917008,-0.0119334840061,0.0,-0.00637547545897,0.0116975368258,-0.999911256535,0.0,0.289682135951,-0.227684147108,0.304938423646,1.0,-0.153722857143,-0.202035755102,2.451
-0.538132972294,-0.52981469434,-0.135551028767,-2.64808998835,-0.0733069138072,2.10887201848,-0.791005710956,-0.715962905513,0.0157325645829,0.0304869331711,0.014928720088,0.0197764631413,-0.00141831266227,-0.676613246785,0.573908963089,0.818885802418,0.00594067217918,0.0,0.818882495702,-0.573819923699,-0.011954091372,0.0,-0.00638028248896,0.0117254983964,-0.999910898372,0.0,0.287209386659,-0.230870523824,0.304927068724,1.0,-0.144936571429,-0.190488065306,2.467
-0.549521069975,-0.529367609842,-0.134899892479,-2.64781008011,-0.0730318044878,2.10889960613,-0.802041610266,-0.646217580408,0.0317153695711,0.0445530057592,0.0168246416647,0.019612743679,0.0028477131372,-0.640153714588,0.573871797431,0.818911889821,0.00593495782643,0.0,0.818908191196,-0.573782206735,-0.0120041879224,0.0,-0.00642512272231,0.0117492766882,-0.999910332127,0.0,0.284774195404,-0.23400690583,0.304910448126,1.0,-0.135601142857,-0.178218644898,2.484
-0.560788514849,-0.528775001214,-0.134228460386,-2.64743736255,-0.0726947818743,2.10896432601,-0.813012633237,-0.61648913121,0.0396332390298,0.0345343112045,0.0245487659001,0.0164932940452,0.00488953295086,-0.599980532653,0.573806217756,0.818957668975,0.00595884156301,0.0,0.818953817672,-0.573715693605,-0.0120703907617,0.0,-0.00646658266318,0.0118063086248,-0.999909393088,0.0,0.282368240644,-0.237096679462,0.304886454614,1.0,-0.125716571429,-0.165227493878,2.502
-0.569746863012,-0.528233929227,-0.133736808919,-2.64703127017,-0.0724180001152,2.10907322667,-0.821510118052,-0.579777608168,0.0375023668315,0.0391076659732,0.0300740035058,0.0210725686501,0.0042631633375,-0.567520826202,0.573977702194,0.818837243433,0.00599274995371,0.0,0.818834078125,-0.573887447986,-0.0120289836012,0.0,-0.00641073922255,0.0118116636621,-0.999909689434,0.0,0.280458786786,-0.239577003271,0.304895416425,1.0,-0.117479428572,-0.154401534694,2.517
-0.579426581038,-0.527418044389,-0.133007544121,-2.64649692614,-0.0720093007393,2.10920473408,-0.831042364679,-0.525217880922,0.0414035285101,0.0320478566893,0.0314090324699,0.0167681291816,0.00309681120085,-0.511090314381,0.573788542884,0.818969667658,0.00601152324851,0.0,0.81896626148,-0.57369735516,-0.0120976915784,0.0,-0.00645897181851,0.0118649799813,-0.999908747803,0.0,0.278440330079,-0.242204097004,0.304870095549,1.0,-0.107594857143,-0.141410383674,2.535
-0.588086220448,-0.526699820582,-0.132406174475,-2.64597860848,-0.0716711863225,2.10932258291,-0.839287895781,-0.497200991824,0.0422667285479,0.0324418947232,0.0274839235521,0.018519505492,0.00666198436925,-0.471475043387,0.573876359383,0.81890802782,0.00602602811895,0.0,0.818904714807,-0.573784914199,-0.0121114493735,0.0,-0.0064606434807,0.0118854461431,-0.999908493941,0.0,0.276611242182,-0.244564483689,0.304868463347,1.0,-0.0982594285715,-0.129140963265,2.552
-0.595587261628,-0.525962606286,-0.131873443175,-2.64543451328,-0.0713290690324,2.10945267856,-0.846435114728,-0.448313808263,0.050923715447,0.0283872397904,0.0343074177166,0.0136650393799,0.0126765932988,-0.434005891088,0.573966054216,0.818844892617,0.00606278350373,0.0,0.818842010685,-0.573874341304,-0.0121139932081,0.0,-0.00644032957432,0.0119177121699,-0.999908240936,0.0,0.275042211203,-0.246615285252,0.304870683053,1.0,-0.0894731428572,-0.11759327347,2.568
-0.602599421975,-0.525154588521,-0.131169467683,-2.64489432233,-0.0709007661538,2.10959048008,-0.853284950178,-0.398097688669,0.048597729499,0.0426859604262,0.0307842380481,0.0313359364546,0.01287839044,-0.390463367276,0.573814464246,0.818950974126,0.00608354351964,0.0,0.81894789662,-0.573721829441,-0.0121799813523,0.0,-0.00648467072576,0.0119713851299,-0.999907313196,0.0,0.273621146081,-0.248473601403,0.304849943888,1.0,-0.0801377142858,-0.105323853061,2.585
-0.609156848978,-0.524460220402,-0.130525671657,-2.6443671097,-0.0705440669042,2.10973019505,-0.859435521152,-0.366310270199,0.0438449555112,0.0372545781241,0.0264281666918,0.0189134636462,0.0093433518459,-0.335419513835,0.573873617821,0.818909634756,0.00606858911201,0.0,0.818906564389,-0.573781410645,-0.0121523043281,0.0,-0.00646972003962,0.0119437242637,-0.999907740831,0.0,0.272282694147,-0.250219754891,0.304863269053,1.0,-0.0708022857144,-0.0930544326532,2.602
-0.614621431629,-0.523791648628,-0.129891762493,-2.64386100728,-0.0701604381322,2.10987490593,-0.864606181843,-0.326392257389,0.0479630734567,0.0370633375514,0.0348567563239,0.0250971468902,0.00808923504008,-0.313678188524,0.573857262072,0.818921070262,0.00607209596555,0.0,0.818918250724,-0.573765422088,-0.0121196513469,0.0,-0.00644120316068,0.0119277297913,-0.999908115861,0.0,0.27120513637,-0.25165765379,0.304876418682,1.0,-0.0620160000001,-0.0815067428573,2.618
-0.620007922934,-0.523092290299,-0.129260529955,-2.64336098838,-0.0697222174785,2.11001581542,-0.869644381661,-0.286090746188,0.0356593067545,0.0365007038468,0.0272190662998,0.0196711634596,0.00671332479106,-0.262311072838,0.57391013312,0.818883635916,0.00612346570175,0.0,0.818881402062,-0.573817899198,-0.0121249667185,0.0,-0.00641530612151,0.0119732639652,-0.999907738143,0.0,0.270141341328,-0.253062183407,0.304874925222,1.0,-0.0521314285715,-0.0685155918369,2.636
-0.624292702876,-0.522554385309,-0.128554303166,-2.64296844151,-0.0693235531733,2.11014575895,-0.873675481581,-0.235758609724,0.0308957038661,0.0475040933952,0.0208555514711,0.0273970431168,0.00893879341469,-0.223166417416,0.573809351022,0.818954399462,0.00610468531377,0.0,0.818952117928,-0.573717588849,-0.0120956061481,0.0,-0.00640350781765,0.0119402467678,-0.999908208585,0.0,0.269339776419,-0.254127166577,0.304884486411,1.0,-0.0427960000001,-0.0562461714287,2.653
-0.627739103892,-0.522160838001,-0.127855471455,-2.64267311003,-0.0689501366661,2.11021612846,-0.876834236775,-0.201072115641,0.0249026905754,0.044089509435,0.0190254976445,0.0301455185639,0.00186792767604,-0.187447364328,0.573725290219,0.819013523133,0.00607348248591,0.0,0.819010927827,-0.573633854261,-0.0120850422841,0.0,-0.00641398138012,0.011907972183,-0.999908526337,0.0,0.268715150973,-0.254938302583,0.304897407613,1.0,-0.0340097142858,-0.0446984816328,2.669
-0.630770783579,-0.521805152964,-0.127208360957,-2.64240122533,-0.0685802616681,2.11031290135,-0.879475329106,-0.160351301539,0.0194803093867,0.0381419818197,0.0132979085728,0.0234256374188,0.00493242121035,-0.141763479506,0.573759154556,0.818989906846,0.00605903856422,0.0,0.818987451933,-0.573668383855,-0.0120368535259,0.0,-0.00638230556625,0.0118687599678,-0.999909195233,0.0,0.268182500153,-0.255646798732,0.304914437732,1.0,-0.0246742857144,-0.0324290612246,2.686
-0.633116083868,-0.521483644302,-0.12664946658,-2.64218812724,-0.0682182461689,2.11038124066,-0.881480189042,-0.136509682339,0.0147836918998,0.0247090307145,0.0104588125252,0.0244285703462,0.000150386824133,-0.109182903593,0.573808005941,0.818955495232,0.00608408161213,0.0,0.818953293267,-0.57371698216,-0.012044697148,0.0,-0.00637365268862,0.0118941513247,-0.999908948713,0.0,0.267786900964,-0.256172463988,0.304912640467,1.0,-0.0198109677419,-0.0260372718894,2.703
-0.634927115054,-0.521241739736,-0.126316918274,-2.64203383366,-0.0679685185258,2.11037834747,-0.883098184574,-0.106140282482,0.0138741845357,0.0275331212915,0.0115768658988,0.00993650347959,-0.000323121338552,-0.10683898325,0.573845413123,0.818928903326,0.00613514759083,0.0,0.818926893198,-0.573753274841,-0.0121107434803,0.0,-0.00639790003432,0.0119741624913,-0.999907838907,0.0,0.267445746802,-0.256592693437,0.304901727215,1.0,-0.0194909677419,-0.0256167004608,2.719
-0.636593967796,-0.521001293129,-0.126035591702,-2.6418502857,-0.0678031770284,2.11041155272,-0.884596960051,-0.0959580837057,0.0169458184749,0.0112823760141,0.00758372984826,0.0108383517092,0.000535486122655,-0.080497684191,0.573863993822,0.818915909947,0.00613155211086,0.0,0.818913816466,-0.573771799223,-0.0121173643143,0.0,-0.00640511405525,0.011975162379,-0.999907780748,0.0,0.267135189345,-0.257006330723,0.304906405008,1.0,-0.0191509677419,-0.025169843318,2.736
-0.638184677687,-0.520702114555,-0.125825588556,-2.64161989027,-0.0676876641359,2.11052033919,-0.886211254408,-0.0850357414773,0.0150236477148,0.00837791934914,0.0120951359159,0.0085498052642,0.00499166578698,-0.0947685621744,0.573757288357,0.818990832799,0.00611038054233,0.0,0.81898881724,-0.573665870634,-0.0120637061543,0.0,-0.00637487071223,0.0119262022802,-0.999908559181,0.0,0.266845521025,-0.25744146559,0.304915460349,1.0,-0.0187909677419,-0.0246967004608,2.754
-0.639573912373,-0.520468336427,-0.125695821434,-2.6414664641,-0.0676512336558,2.11054542627,-0.887593013619,-0.0883071556994,0.0169388983819,0.00707488465693,0.00966456732119,0.00333276249448,-0.000303765449853,-0.0803800059684,0.573695262378,0.819034534931,0.00607646424393,0.0,0.819031804589,-0.573603497186,-0.0121110688486,0.0,-0.006434026376,0.0119251098913,-0.999908193315,0.0,0.266553105054,-0.257818233954,0.304904457638,1.0,-0.0184709677419,-0.0242761290323,2.77
-0.641000175812,-0.520266417134,-0.125639467253,-2.64130509683,-0.0676182313566,2.11054937331,-0.888989755179,-0.0820338011249,0.00990257731684,0.00439139906251,0.00578272310733,0.00207194186621,0.000466604728701,-0.0860605131386,0.573702074709,0.81902976199,0.006076623347,0.0,0.81902685433,-0.573609975244,-0.012138990361,0.0,-0.00645670693013,0.0119413115671,-0.999907853761,0.0,0.266233657433,-0.258220636236,0.304905212801,1.0,-0.0181309677419,-0.0238292718894,2.787
-0.642359252132,-0.52005811065,-0.125583342886,-2.64111740037,-0.067578481238,2.11058278049,-0.89041147204,-0.0755496315431,0.0123437355373,-0.000294241765637,0.0124139506728,0.00125455747085,0.0082442855055,-0.0732585233884,0.573637668458,0.819074873838,0.00607645244882,0.0,0.819072097013,-0.57354582963,-0.0121172649752,0.0,-0.00643994730879,0.011928201933,-0.999908118318,0.0,0.265942178159,-0.258614843968,0.304918080374,1.0,-0.0177909677419,-0.0233824147465,2.804
-0.643626297973,-0.519865066279,-0.12558117376,-2.64095455973,-0.0675496578648,2.11067249302,-0.891605157832,-0.0783336727216,0.0134181374378,-0.000449771340597,0.0145204087101,0.00407458750447,0.000940279512564,-0.075493700703,0.573716967809,0.819019244717,0.00608806471371,0.0,0.819017043948,-0.573625851568,-0.0120503542353,0.0,-0.00637732350184,0.011899950569,-0.999908856307,0.0,0.26566487741,-0.258998990647,0.304928773267,1.0,-0.0174709677419,-0.022961843318,2.82
-0.644991938086,-0.519679139158,-0.125580707116,-2.64077820687,-0.0675236802341,2.11069597961,-0.892997504876,-0.0748823781833,0.00923409693383,0.00067769762824,0.0122926797462,0.000132361198746,0.000499631465622,-0.0802036391458,0.573714937115,0.819020539001,0.00610528683456,0.0,0.819018686354,-0.573623979452,-0.0120278219831,0.0,-0.00634901655209,0.011901114269,-0.999909022596,0.0,0.26535358679,-0.25940400974,0.304942520191,1.0,-0.0171309677419,-0.0225149861751,2.837
-0.646404895058,-0.519468861167,-0.125577902422,-2.64059890661,-0.0674955044213,2.11071833458,-0.894335777764,-0.0789091187334,0.0090509535834,-0.000836123307803,0.011039369078,-0.000122263150083,0.00277010725564,-0.0808997009052,0.573795477621,0.818963982625,0.00612306507341,0.0,0.818962349609,-0.573704405043,-0.0120279864686,0.0,-0.00633778031822,0.0119163934274,-0.999908911906,0.0,0.26503005235,-0.259820652652,0.304948593539,1.0,-0.0167709677419,-0.022041843318,2.855
-0.647604881402,-0.519290252638,-0.125563449638,-2.64044560311,-0.0674712795084,2.1107694096,-0.895543126651,-0.072889688295,0.00942069365272,0.00256173055441,0.00942458432785,0.000381110982813,-0.000235323194123,-0.07518879047,0.57379749094,0.818962523049,0.00612961121198,0.0,0.818961176918,-0.573706770097,-0.011994980062,0.0,-0.00630696111369,0.0119028322421,-0.999909268297,0.0,0.264762752937,-0.260176269859,0.304957223829,1.0,-0.0164509677419,-0.0216212718894,2.871
-0.648838226068,-0.519092185896,-0.125516598144,-2.64028157733,-0.0674481464886,2.1108233559,-0.896786627441,-0.0667792203843,0.0111909845254,0.00152307185125,0.00976492644216,0.000146257415598,0.00448593672827,-0.0697878884963,0.573774358476,0.81897881403,0.0061183843637,0.0,0.818977498893,-0.573684023712,-0.0119684646094,0.0,-0.00629202073211,0.0118782459197,-0.999909654793,0.0,0.264495737089,-0.260536293579,0.304964564435,1.0,-0.0161109677419,-0.0211744147465,2.888
-0.649873863411,-0.518903013284,-0.12546548549,-2.64012984544,-0.0674240955138,2.11085182801,-0.897829096181,-0.0699743286696,0.013544943496,0.00123022510367,0.00671601520867,0.00080375727792,-0.000434713244609,-0.0670880425297,0.573750711154,0.818995460529,0.00610769884884,0.0,0.818993995027,-0.573660404368,-0.0119717780802,0.0,-0.00630120822854,0.0118712134256,-0.999909680455,0.0,0.264274177672,-0.260836201765,0.304967508949,1.0,-0.0158109677419,-0.0207801290323,2.903
-0.6510420942,-0.518684276723,-0.125391479735,-2.63997426837,-0.0673966326945,2.11089279727,-0.899082570255,-0.0679802633338,0.0115693349547,0.00324612272945,0.00615552636237,0.00514320404071,0.000188595438193,-0.0724326847292,0.573648357518,0.819067284749,0.00609030976972,0.0,0.819065503565,-0.573557976483,-0.0119873009422,0.0,-0.00632538206972,0.0118650865746,-0.999909600545,0.0,0.26402516481,-0.261167833997,0.304962911386,1.0,-0.0154709677419,-0.0203332718894,2.92
-0.6522006151,-0.518475504667,-0.125365374358,-2.63981219561,-0.0673691957489,2.11092316316,-0.900258144996,-0.0728784612897,0.0138934720292,0.000245195462967,0.00800856183831,-0.000242080354023,0.00490465787039,-0.0646096098587,0.573636075754,0.819075847117,0.00609558562187,0.0,0.819074068686,-0.57354555159,-0.0119965477969,0.0,-0.00633010840571,0.0118746173403,-0.999909457496,0.0,0.263767844323,-0.261507466125,0.304962881746,1.0,-0.0151309677419,-0.0198864147465,2.937
-0.653279011574,-0.518295724564,-0.125361268845,-2.63966545603,-0.0673466811708,2.11095351357,-0.901319426251,-0.0707164985678,0.012149792581,0.000398267638215,0.00780433354967,-0.00018877713587,0.00357710043976,-0.0672029907436,0.573664436067,0.819055896852,0.0061073337893,0.0,0.81905428554,-0.573573883412,-0.0119926855617,0.0,-0.0063197943452,0.011882243883,-0.999909432139,0.0,0.26352295216,-0.261827572081,0.304966027955,1.0,-0.0148109677419,-0.019465843318,2.953
-0.654543317171,-0.518070540345,-0.125366284632,-2.6394972981,-0.0673179985745,2.11102308178,-0.902600597375,-0.0658617386766,0.00802832656706,0.000414553585815,0.013137744082,-0.000238256452621,0.00328821642844,-0.065576537152,0.573675249944,0.819048186444,0.00612558443889,0.0,0.819046923959,-0.573584828549,-0.0119719552666,0.0,-0.00629218709329,0.0118853843525,-0.999909568921,0.0,0.263237555782,-0.262208035096,0.304965301039,1.0,-0.0144309677419,-0.0189664147465,2.972
-0.655593969301,-0.517890284066,-0.125368075799,-2.63935336083,-0.067298153846,2.11102702915,-0.903574164834,-0.0631097782808,0.0124041992565,0.000272528464141,0.00825941684359,0.00395512388516,-0.000354518693859,-0.0599011007533,0.573755658354,0.818991749611,0.00614047857321,0.0,0.818990508025,-0.573664830838,-0.011998188419,0.0,-0.00630396209425,0.0119132515286,-0.999909163124,0.0,0.262992770656,-0.262517453701,0.304964582186,1.0,-0.0141109677419,-0.018545843318,2.988
-0.656674244845,-0.51770796873,-0.125362680811,-2.63919753487,-0.06727929688,2.11106078441,-0.904612888588,-0.0642151807069,0.0101921306497,0.00333085211395,0.00847314371439,0.000105531278667,0.0077443595567,-0.0659429126494,0.573801976064,0.818959253663,0.00614654421906,0.0,0.8189581725,-0.573711267375,-0.0119850024439,0.0,-0.00628900806562,0.0119110100301,-0.999909283994,0.0,0.262748685174,-0.262840218588,0.304971208944,1.0,-0.0137709677419,-0.0180989861751,3.005
-0.657754852239,-0.517509925466,-0.125354647048,-2.63902741028,-0.0672602361835,2.11111829774,-0.905759626891,-0.0612813647135,0.00958108583142,0.000445507739579,0.00926424870019,0.00258942145385,0.00153986288284,-0.0551884765876,0.573759034786,0.818989324637,0.00614841710067,0.0,0.818988485538,-0.573668740283,-0.0119492208243,0.0,-0.00625925010991,0.0118916851681,-0.999909700729,0.0,0.26251136344,-0.263169045681,0.304980614127,1.0,-0.0134109677419,-0.017625843318,3.023
-0.658643164994,-0.517341914392,-0.12533300747,-2.63890097285,-0.0672451356823,2.11115742457,-0.906663155203,-0.0611619499907,0.0117284107765,0.00165416094425,0.00280386042978,-0.000200842082631,0.00423216233952,-0.0552309118277,0.573744286728,0.818999683262,0.00614484858126,0.0,0.818998814112,-0.573654041178,-0.0119469839201,0.0,-0.00625967934364,0.0118873663374,-0.999909749395,0.0,0.26231479155,-0.263431284233,0.304979981121,1.0,-0.0131109677419,-0.0172315576037,3.038
-0.659697819766,-0.517132398791,-0.125287906864,-2.63875884723,-0.067226665593,2.11118209615,-0.907712368147,-0.0576439830293,0.0114442946213,0.00224836450962,0.0101516762566,0.000132389115569,0.000946494913147,-0.0552052903566,0.573732169295,0.819008241183,0.00613560852242,0.0,0.819007025715,-0.573641536389,-0.0119844257021,0.0,-0.00629582473051,0.0119011861774,-0.999909358071,0.0,0.262079959214,-0.263732848907,0.304970485827,1.0,-0.0127509677419,-0.0167584147465,3.056
-0.660553221843,-0.516965545162,-0.125250148156,-2.63864154976,-0.0672143336411,2.1112109261,-0.908563737475,-0.0599014123166,0.00994695833317,0.00264171843446,0.00960431084885,6.45969325235e-05,0.00355382655025,-0.0614843799271,0.573720126749,0.819016765354,0.00612381692583,0.0,0.819015301832,-0.573629367463,-0.0120012936723,0.0,-0.00631658110768,0.011901112628,-0.999909228041,0.0,0.261891175454,-0.263979127627,0.304965607849,1.0,-0.0124509677419,-0.0163641290323,3.071
-0.661481858537,-0.516774854493,-0.125225412755,-2.63850323342,-0.0671993051979,2.11126160356,-0.90952004463,-0.0570686786691,0.0108840637317,0.000155121619336,0.00667154696364,0.000195194608613,0.00702318115318,-0.0524370480428,0.573693580367,0.819035409873,0.00611719874592,0.0,0.819033883189,-0.573602897822,-0.0119983623483,0.0,-0.00631836234461,0.0118938054899,-0.999909303731,0.0,0.261687839975,-0.26425513273,0.304963036985,1.0,-0.0121109677419,-0.0159172718894,3.088
-0.662487615427,-0.516580246009,-0.12521000208,-2.63834832162,-0.0671812761277,2.11130404872,-0.910491102177,-0.0526101275773,0.00978297933867,-4.64512138732e-06,0.00769021298351,0.000341384796293,-8.86138252799e-05,-0.0444107590265,0.573726805764,0.819012141508,0.00611647861697,0.0,0.81901065931,-0.573636220673,-0.01199054506,0.0,-0.00631188983326,0.0118889872013,-0.999909401911,0.0,0.261464412493,-0.264555935931,0.304965628389,1.0,-0.0117309677419,-0.015417843318,3.107
-0.663322892563,-0.51641468783,-0.125190916425,-2.63821119744,-0.0671649492246,2.11132193576,-0.911326571598,-0.0496379862799,0.0109161740024,-0.000173847413921,0.0103032118809,0.00123194666432,-0.000148578814305,-0.0528502394222,0.573727171062,0.819011894455,0.00611529455039,0.0,0.819010359242,-0.57363652006,-0.0119967166237,0.0,-0.00631761895792,0.0118915608265,-0.999909335126,0.0,0.26127923398,-0.264803776158,0.304968835037,1.0,-0.0114109677419,-0.0149972718894,3.123
-0.664183138645,-0.516253557598,-0.125174076172,-2.63809255852,-0.0671466454545,2.11136176468,-0.912226985381,-0.0516560211324,0.0104788810951,0.00164199168885,0.00335295379438,0.00107369816205,0.00502175301663,-0.0515188281672,0.573696339397,0.819033473919,0.00611765186767,0.0,0.819031978874,-0.573605702832,-0.0119942553343,0.0,-0.00631469819177,0.0118918418491,-0.999909350233,0.0,0.261086236257,-0.265056698095,0.304967089776,1.0,-0.0110709677419,-0.0145504147465,3.14
-0.665048562627,-0.516086741734,-0.125166785777,-2.63796518104,-0.0671329533114,2.11139623351,-0.913048844376,-0.0517479916833,0.00928523762609,-0.00188375638395,0.00650401879932,0.000803895561904,8.39966350985e-05,-0.0465604123448,0.573739333862,0.819003343053,0.00611945668792,0.0,0.819001870153,-0.57364867814,-0.0119949012213,0.0,-0.00631356751557,0.0118940221049,-0.999909331441,0.0,0.260890096406,-0.265314767042,0.304966522896,1.0,-0.0107309677419,-0.0141035576037,3.157
-0.665825238818,-0.515936391431,-0.125162729271,-2.63785555376,-0.0671146031561,2.11141769502,-0.913796172249,-0.0469669160908,0.00179713233623,0.000258228716579,0.011211811287,0.000126607263603,-6.23282614631e-05,-0.0405354398815,0.573774080481,0.818978925303,0.00612954966688,0.0,0.818977485045,-0.573683188812,-0.012009361562,0.0,-0.00631911608931,0.0119108528789,-0.999909096046,0.0,0.260711307372,-0.265543599205,0.304962777645,1.0,-0.0104109677419,-0.0136829861751,3.173
-0.666639146059,-0.515773885347,-0.125167359875,-2.6377437931,-0.0670969141663,2.11144811309,-0.914607853062,-0.0461239445932,0.0111777603948,-0.000173680062237,0.00870434713426,0.000700656100602,-0.000565744607135,-0.0474532382771,0.573792653056,0.818965809832,0.00614333182688,0.0,0.818964440832,-0.573701494871,-0.012024405857,0.0,-0.00632326037018,0.0119309157596,-0.999908830658,0.0,0.260522041512,-0.265785579205,0.304956067151,1.0,-0.0100709677419,-0.0132361290323,3.19
-0.667453563443,-0.515608043493,-0.125161006772,-2.63763892382,-0.0670746172044,2.11148539655,-0.915419776589,-0.040846050261,0.0104750232943,-0.000158228010236,0.00809265846389,0.000596454350816,0.00642828604475,-0.0408445633761,0.573805299425,0.818956853729,0.00615605253822,0.0,0.818955523246,-0.573713844053,-0.0120425490996,0.0,-0.00633063743996,0.0119518418295,-0.99990853407,0.0,0.260334730521,-0.266023861562,0.304945834534,1.0,-0.00971096774194,-0.0127629861751,3.208
-0.668143497759,-0.515470913874,-0.125137094934,-2.63753463881,-0.0670578350535,2.11150209512,-0.916100137152,-0.0389043018622,0.00600728904736,0.00241653662232,0.00857676446522,0.00393377141717,0.00062222072293,-0.0424403640404,0.573808760823,0.818954435868,0.00615506909351,0.0,0.818953015739,-0.573717163983,-0.0120549021224,0.0,-0.00634126887171,0.0119581510764,-0.99990839127,0.0,0.260181058572,-0.266223793263,0.304944582441,1.0,-0.00939096774194,-0.0123424147466,3.224
-0.668866254678,-0.515312572836,-0.125102144509,-2.6374272412,-0.0670352616292,2.11154505861,-0.916769246471,-0.0388145300102,0.0150647248326,0.00325068768808,0.0117212406599,0.0018932532013,0.00376826253937,-0.0424996103634,0.573843163822,0.818930362842,0.00615069518892,0.0,0.818928867702,-0.573751544617,-0.0120590876499,0.0,-0.00634670435326,0.0119572370703,-0.999908367715,0.0,0.260025805553,-0.266433425604,0.304939410947,1.0,-0.00905096774194,-0.0118955576037,3.241
-0.669511609891,-0.515184335441,-0.125046146681,-2.63733471051,-0.0670123167817,2.11156615023,-0.917423470968,-0.0390439123267,0.00869322670466,0.00443114666514,0.00329092449189,0.00339572181632,0.00455599762089,-0.0434626372264,0.573812610413,0.818951851851,0.00613998222234,0.0,0.818950150086,-0.573720918028,-0.0120709069159,0.0,-0.00636297784208,0.0119550081409,-0.999908290941,0.0,0.25988046379,-0.266624221145,0.304936658714,1.0,-0.00871096774194,-0.0114487004608,3.258
-0.670176674843,-0.515054967705,-0.125011269783,-2.63722686821,-0.0669910782195,2.11159251323,-0.918099497973,-0.0369455767898,0.00365172071806,0.00257874297642,0.00559328898282,0.0024338901078,0.000314055728999,-0.0358218232369,0.573791610567,0.818966604308,0.00613478382957,0.0,0.818964897223,-0.573700062427,-0.0120616080662,0.0,-0.00635865075824,0.0119452521099,-0.999908435064,0.0,0.259747539636,-0.266804660862,0.304941520871,1.0,-0.00839096774194,-0.0110281290323,3.274
-0.670802107159,-0.514946540068,-0.124983419356,-2.63714454157,-0.0669702440395,2.11161936805,-0.918759490302,-0.0362898511998,0.00031820472861,0.0011067908475,0.0102571673191,0.000124791573274,0.000662056641247,-0.0358721956349,0.573756686723,0.818991064759,0.0061357304164,0.0,0.818989396405,-0.573665191502,-0.0120566801995,0.0,-0.00635458073506,0.0119429289727,-0.999908488688,0.0,0.2596090372,-0.266982485544,0.304941832214,1.0,-0.00805096774194,-0.0105812718894,3.291
-0.671418816231,-0.514819306662,-0.124967205605,-2.63706838686,-0.0669486584641,2.11164090823,-0.91936795979,-0.0367682501202,0.0119769075086,0.000499685096767,0.00590177174501,0.000579298812641,0.000263480382462,-0.0317751137365,0.573765217601,0.818985016583,0.00614528961217,0.0,0.818983303944,-0.573673361817,-0.0120817508808,0.0,-0.00636950662702,0.0119652083807,-0.999908127367,0.0,0.259467586273,-0.267157697872,0.304931663917,1.0,-0.00771096774194,-0.0101344147466,3.308
-0.67197372346,-0.514707315657,-0.124959342963,-2.63699291722,-0.0669244538093,2.11165139963,-0.919910572524,-0.0355245853999,0.00302623343431,-0.000463944949033,0.00539333347572,0.000479163944434,0.000128319041289,-0.0394310100865,0.573784028525,0.818971719142,0.00616106788902,0.0,0.818970061623,-0.573691816564,-0.0121030852885,0.0,-0.00637765312603,0.0119905180378,-0.999907772256,0.0,0.259339376309,-0.26731684269,0.304925672778,1.0,-0.00739096774194,-0.00971384331798,3.324
-0.672542224763,-0.514619829126,-0.124951453423,-2.63691965884,-0.0669037239962,2.11166920757,-0.920468149928,-0.0289459785961,0.00882526353226,-0.000316601508415,0.00400721057426,1.2380625661e-05,-0.000249998868931,-0.0342047796886,0.573799986942,0.818960455921,0.00617199521212,0.0,0.81895898166,-0.573707800211,-0.0120951740723,0.0,-0.00636467001626,0.0119950525804,-0.999907800594,0.0,0.259208298648,-0.267480692219,0.304928348092,1.0,-0.00705096774194,-0.00926698617512,3.341
-0.673123176856,-0.514510992729,-0.1249249628,-2.63684510643,-0.0668783950808,2.11168868548,-0.921034382823,-0.031597157466,0.00290028935066,0.000642870488685,0.00401830708333,-3.09618978003e-06,0.000223951514716,-0.0308286586871,0.573807951757,0.818954825269,0.00617863821283,0.0,0.818953365053,-0.573715597226,-0.0121056296088,0.0,-0.00636930529756,0.0120065542498,-0.999907633037,0.0,0.259078462799,-0.267643460283,0.304924303951,1.0,-0.00669096774194,-0.00879384331798,3.359
-0.673545259313,-0.514446627951,-0.124896221036,-2.6367832323,-0.0668586678228,2.11170799739,-0.921465525508,-0.034282710499,0.00471801638747,0.00303020752056,0.0017249507489,0.000128480601191,0.000915542245418,-0.0367716395191,0.573791651066,0.818966256797,0.00617724023749,0.0,0.818964903682,-0.573699542592,-0.0120858706154,0.0,-0.00635416265666,0.0119939455317,-0.999907880701,0.0,0.258989171901,-0.267762529051,0.304930963003,1.0,-0.00641096774194,-0.00842584331798,3.373
-0.674063330907,-0.514352790123,-0.124861671734,-2.63671291425,-0.0668346947056,2.11173553031,-0.922004743688,-0.0261764412742,0.00774641795228,0.000238881709344,0.00261503907431,-6.77908453873e-05,0.000237380184353,-0.0285378777999,0.573763655509,0.818985871232,0.00617715465368,0.0,0.818984563235,-0.573671640689,-0.0120781104654,0.0,-0.00634826560112,0.0119892059477,-0.999907974998,0.0,0.258878324489,-0.267907633661,0.304931406504,1.0,-0.00605096774194,-0.00795270046084,3.391
-0.674572044947,-0.514252894559,-0.124830478934,-2.63662405289,-0.0668128757225,2.11175556768,-0.92248792848,-0.0255192489966,0.00121093042703,-0.00184636707718,0.00773091933887,0.00328534957361,-0.000293542621134,-0.0260061279672,0.573776235398,0.818977078224,0.00617445847106,0.0,0.818975815672,-0.573684381894,-0.0120660770702,0.0,-0.00633977221334,0.0119801910958,-0.999908136935,0.0,0.258771810705,-0.268054880067,0.304937311597,1.0,-0.00567096774194,-0.00745327188941,3.41
-0.674937545659,-0.514184527895,-0.124815150093,-2.63656408499,-0.0667946492556,2.11177829961,-0.922863183237,-0.0263451919387,0.000517111990297,0.000237293008978,0.00315774023371,0.000143875308739,0.00422461702542,-0.0233635894868,0.573768186609,0.818982692052,0.00617778733536,0.0,0.818981577214,-0.57367651773,-0.0120489041292,0.0,-0.00632391416915,0.0119730024059,-0.999908323459,0.0,0.258694372007,-0.268162160128,0.304941596252,1.0,-0.00537096774194,-0.00705898617512,3.425
-0.675337734319,-0.514110786769,-0.124790652694,-2.63650789639,-0.0667751160341,2.11179141343,-0.923254552156,-0.024505360869,0.0016810695743,0.000353686766017,0.00393168629294,0.000111276333061,0.000342636625214,-0.0212991482253,0.573769246993,0.818981930827,0.00618021721676,0.0,0.818980835904,-0.573677545133,-0.0120503748234,0.0,-0.00632370914975,0.0119758445228,-0.99990829072,0.0,0.258607317366,-0.268273820941,0.304941572139,1.0,-0.00503096774194,-0.00661212903227,3.442
-0.675705642427,-0.514065831656,-0.124774670166,-2.63647037469,-0.0667552218004,2.11181474811,-0.923614930495,-0.0177434169453,0.00450316032801,0.00262585960616,0.000144865175565,0.000470313694128,0.00624323843438,-0.0202370452003,0.573774457949,0.818978231057,0.00618670846404,0.0,0.818977335331,-0.573682944336,-0.0120312299028,0.0,-0.00630422763172,0.011970216892,-0.999908481123,0.0,0.258525034908,-0.268375980081,0.304944378486,1.0,-0.00471096774194,-0.00619155760369,3.458
-0.676058352926,-0.514002605241,-0.12474886569,-2.63643555151,-0.066738564467,2.11182670106,-0.923939579477,-0.0173554170821,0.00249239170093,0.00145740388825,0.000308091106578,0.000125687321198,0.00197472473368,-0.0200445214386,0.573790091728,0.818967284715,0.00618579846434,0.0,0.818966203601,-0.573698249608,-0.0120591317221,0.0,-0.00632737443262,0.0119856009415,-0.999908150633,0.0,0.258439524257,-0.268475878852,0.304935388259,1.0,-0.00437096774194,-0.00574470046084,3.475
-0.676446435506,-0.513937118174,-0.124726750919,-2.63638891715,-0.0667231166608,2.11182997923,-0.924337193792,-0.0175589113714,0.00255763379554,-5.54319244488e-05,-0.00107197972389,3.75045692883e-05,0.00480040647281,-0.0190042698973,0.573773598492,0.81897879963,0.00619114941676,0.0,0.818977788821,-0.573681737722,-0.0120578656156,0.0,-0.00632350869919,0.0119891296319,-0.999908132784,0.0,0.258357627306,-0.268575312478,0.304936248359,1.0,-0.00401096774194,-0.00527155760369,3.493
-0.676751517516,-0.513860349036,-0.12470827006,-2.63634071357,-0.0667050129391,2.11183905016,-0.924616308632,-0.0176908143033,0.0032348474315,0.000551642306833,0.00351648004175,0.00367485243735,0.000204387415325,-0.0176798169701,0.573792019381,0.818965856033,0.00619613168271,0.0,0.818964799412,-0.573699923006,-0.0120748734363,0.0,-0.0063343107461,0.0120031108505,-0.999907896677,0.0,0.258291991284,-0.268660996258,0.30493098535,1.0,-0.00369096774194,-0.00485098617512,3.509
-0.677035083589,-0.513806264015,-0.124697540127,-2.63630341448,-0.0666962130612,2.11185223174,-0.924912560794,-0.01709806758,0.00404151719954,-0.000612085515242,0.00098959285125,-0.00024965167912,-0.000112654076758,-0.0110992737533,0.573779711041,0.818974472004,0.00619712072858,0.0,0.818973414835,-0.573687587503,-0.0120766153929,0.0,-0.00633535044989,0.0120048251458,-0.99990786951,0.0,0.258228203388,-0.268741815064,0.304929316074,1.0,-0.00335096774194,-0.00440412903227,3.526
-0.677304727234,-0.513748089173,-0.124663320049,-2.63627352135,-0.0666775691634,2.11186236809,-0.925161236082,-0.0164335547571,0.00380350248489,0.00129040005815,4.33239550762e-05,-1.55157495361e-05,0.00018746547528,-0.0127660532793,0.573782144156,0.818972773603,0.00619629295625,0.0,0.818971605082,-0.573689833321,-0.0120926471068,0.0,-0.00634892070433,0.0120133642679,-0.999907680881,0.0,0.258172124484,-0.268810565692,0.304923067072,1.0,-0.00301096774194,-0.00395727188941,3.543
-0.677552822048,-0.513721586302,-0.12464576847,-2.63625079055,-0.0666689079037,2.1118717086,-0.925401693903,-0.0115574261858,0.00244328168745,0.00404674232209,-0.000204312970281,-6.01022223891e-05,0.00173214679375,-0.0100297692871,0.573780771556,0.818973749626,0.00619439400097,0.0,0.818972603023,-0.573688557708,-0.0120855763131,0.0,-0.00634423893548,0.012007741467,-0.999907778136,0.0,0.258116115052,-0.268876855493,0.304924807299,1.0,-0.00267096774194,-0.00351041474655,3.56
-0.677780171427,-0.513703823204,-0.124625263857,-2.63623018646,-0.0666556346661,2.11187766353,-0.925603047194,-0.016275379146,0.000833624365447,0.00108134291784,0.000902502207108,-0.000273957697679,-0.00272771092804,-0.0142390650115,0.573794167348,0.818964361784,0.00619471924334,0.0,0.818963287455,-0.57370207803,-0.0120750307093,0.0,-0.00633521848826,0.0120020609048,-0.999907903529,0.0,0.258065953791,-0.268935798087,0.304928595286,1.0,-0.00233096774194,-0.00306355760369,3.577
