nelsonifechukwu/NELSON_IML_WORK/CNN-GradCAM/train2dof/data_sample_2022-02-21-14-10-19/robot_state.csv
position_joint1,position_joint2,position_joint3,position_joint4,position_joint5,position_joint6,position_joint7,velocity_joint1,velocity_joint2,velocity_joint3,velocity_joint4,velocity_joint5,velocity_joint6,velocity_joint7,ee_T_00,ee_T_10,ee_T_20,ee_T_30,ee_T_01,ee_T_11,ee_T_21,ee_T_31,ee_T_02,ee_T_12,ee_T_22,ee_T_32,ee_T_03,ee_T_13,ee_T_23,ee_T_33,v_x,v_y,time
0.465093995087,0.547815112696,-0.123985188465,-1.35576732486,0.079502111329,1.89408996709,0.159154089083,0.000444928094816,0.00140993150056,-0.000119217078506,-0.000337410040117,0.000387920847504,0.00032012661823,0.000481245131525,0.573779572433,0.818995665517,0.00196189284517,0.0,0.818952687557,-0.573720967995,-0.0118950967855,0.0,-0.00861661954259,0.00843202330845,-0.999927324784,0.0,0.661682947182,0.260912820817,0.303220578127,1.0,0.0,0.0,0.0
0.465094074221,0.547810013122,-0.123994905215,-1.35576949712,0.0795015009774,1.89409231912,0.159156468255,0.000419487989446,-0.000546434611389,-0.00261415514322,-0.000250659246673,0.000172484743378,-0.000101869816582,0.00148180300503,0.573788209341,0.818989610118,0.00196373120434,0.0,0.818946712811,-0.573729651786,-0.0118876044235,0.0,-0.00860933944842,0.00842932076069,-0.999927410278,0.0,0.661685299405,0.260907120996,0.30322368178,1.0,-8e-05,-0.000105142857143,0.005
0.465088890782,0.547811127916,-0.123990574695,-1.35577304476,0.0795007889006,1.89409314599,0.159154902885,0.000554417616879,0.000323076879644,-2.4653406908e-05,-0.00149808012061,-9.56793617962e-05,-5.88011827988e-05,0.00114757522284,0.573788159602,0.818989651042,0.00196119531022,0.0,0.818946702389,-0.573729594556,-0.0118910839492,0.0,-0.00861364474322,0.00842923989591,-0.999927373882,0.0,0.661685018665,0.260905701483,0.303221130661,1.0,-0.00038,-0.000499428571429,0.02
0.465085459345,0.547807377828,-0.123988601512,-1.35578233719,0.079500178549,1.89409165937,0.159155614962,-0.000462624298229,-0.00123906944434,-0.0012045536935,-0.00144809392491,-0.000417108355135,-6.77550901212e-05,0.000936884104676,0.573790502957,0.818988022213,0.00195578364868,0.0,0.818944987026,-0.573731944232,-0.0118958519486,0.0,-0.00862063067851,0.00842756834428,-0.999927327769,0.0,0.661683166489,0.260903317692,0.30321916898,1.0,-0.00072,-0.000946285714286,0.037
0.465087534468,0.547758486383,-0.123988156748,-1.35582495093,0.0795001759808,1.89410396011,0.159146617886,0.00948169573488,0.00109330593937,-0.000709462189505,-0.00328189105438,0.000676791374208,0.00382156862066,-0.00128044645222,0.573783449917,0.818992920096,0.00197391358262,0.0,0.818950090704,-0.573724787698,-0.0118896517203,0.0,-0.0086052231074,0.00843878456265,-0.999927365887,0.0,0.661676503469,0.260901370977,0.303234576054,1.0,-0.00106,-0.00139314285714,0.054
0.465089646169,0.547631466599,-0.123983182022,-1.35597706704,0.0794986355902,1.89412969124,0.159150567642,0.000893853834919,-0.0116674685269,0.000960939892115,-0.0105302080299,0.000113055476017,0.000272286822804,-0.00295769900354,0.573789329565,0.818988782111,0.00198165453905,0.0,0.818945919388,-0.573730503149,-0.0119011670121,0.0,-0.00861015239332,0.00845179326253,-0.999927213584,0.0,0.661648513895,0.260890756609,0.303254223864,1.0,-0.00138,-0.00181371428571,0.07
0.465075110575,0.547486261271,-0.12398560112,-1.35618119764,0.0794958795546,1.89417260102,0.159144108155,-0.00230499172192,-0.0114697040117,-0.000301636937582,-0.0149544540693,0.000549200860485,0.0040696880657,0.000317797949332,0.573808087546,0.818975658008,0.00197412219445,0.0,0.81893257947,-0.573749174536,-0.0119189724506,0.0,-0.00862886345839,0.00845603857325,-0.9999270164,0.0,0.661618607425,0.260859879002,0.303263728073,1.0,-0.00174,-0.00228685714286,0.088
0.46505484437,0.547328412652,-0.123981377513,-1.35638196601,0.0794888647335,1.8942962817,0.159139902932,0.00109031620188,-0.0094799587209,-0.000576835904368,-0.0140424763389,-0.0031582162486,0.00686603757602,-0.00214688659358,0.57382568008,0.8189631374,0.00205313467246,0.0,0.818921116017,-0.573766468775,-0.0118740031921,0.0,-0.00854651562366,0.0084951268518,-0.999927392309,0.0,0.66160616998,0.260833381759,0.303295069864,1.0,-0.00208,-0.00273371428571,0.105
0.465037938938,0.547130476389,-0.123985364959,-1.35660062732,0.0794903669575,1.89442499903,0.15913156424,-0.00459346054647,-0.00938307564704,5.50975350524e-05,-0.0127608878384,0.000136113556331,0.00936930822551,-0.00181660576817,0.573846776487,0.818948134214,0.00213950556709,0.0,0.818907150887,-0.5737871304,-0.0118386702983,0.0,-0.00846779922393,0.00854580373002,-0.999927630189,0.0,0.661591929172,0.260802500898,0.303331992923,1.0,-0.0024,-0.00315428571429,0.121
0.465003792812,0.546916619382,-0.123985730745,-1.35691571984,0.0794822384673,1.8945526062,0.159105299976,0.00044609876604,-0.00876597404602,-0.000292951125064,-0.0192390230848,-0.00140757967938,0.00981117323507,-0.00201164508183,0.57387288784,0.818929752726,0.00217154408927,0.0,0.818889123107,-0.573813048172,-0.011829484614,0.0,-0.00844161910402,0.00856703927418,-0.999927669837,0.0,0.661560406427,0.260756543987,0.303350589498,1.0,-0.00274,-0.00360114285714,0.138
0.464961702376,0.546660853709,-0.123986008851,-1.35730475483,0.0794731285449,1.89469162351,0.159074333011,-0.00279388923989,-0.0132226296416,-0.000439309110501,-0.0230132969923,-0.00135835867272,0.00590398442263,-0.0021850692381,0.573901506376,0.818909663417,0.00218427185474,0.0,0.818869066284,-0.573841477849,-0.0118388126763,0.0,-0.00844165484284,0.00858311033428,-0.999927531714,0.0,0.661517179088,0.260693680395,0.303358626217,1.0,-0.00308,-0.004048,0.155
0.46492389954,0.546389666514,-0.123988552452,-1.35770935918,0.0794620628008,1.89484118265,0.158937398479,0.000142720709355,-0.0163894685678,-0.000782543282657,-0.0253461791632,2.8287607577e-05,0.0124462312217,-0.00135046629095,0.573841788422,0.818951453205,0.00220591377411,0.0,0.818911022113,-0.573781564449,-0.011840652946,0.0,-0.00843136961066,0.00860127416724,-0.999927462414,0.0,0.661472373865,0.260631097875,0.303371145305,1.0,-0.0034,-0.00446857142857,0.171
0.464868490875,0.546087878227,-0.123986047135,-1.35821329784,0.0794432450662,1.89500912119,0.158911559096,-0.00712706355159,-0.0205323559438,-0.000237058255164,-0.0361789341883,-0.000730343205094,0.0153406644912,-0.00143100831179,0.573887360649,0.818919579428,0.00218325854578,0.0,0.818878710359,-0.573827074959,-0.0118698216505,0.0,-0.00846777951968,0.008599930136,-0.999927166303,0.0,0.661413063939,0.260548389446,0.30335945064,1.0,-0.00374,-0.00491542857143,0.188
0.464813469735,0.545753588375,-0.123983542455,-1.35877863316,0.0793857110505,1.89519824593,0.158847698108,-0.00212359279233,-0.0209575779814,0.00105873658919,-0.0326485711401,-0.00990548830552,0.00673212871148,-0.00542061609813,0.573894609847,0.818914626703,0.00213491496728,0.0,0.818873291314,-0.573834681387,-0.0118759467642,0.0,-0.00850046192133,0.00856393156296,-0.999927197962,0.0,0.661346755633,0.260454246419,0.303343292945,1.0,-0.00408,-0.00536228571429,0.205
0.464746484081,0.545409277125,-0.123988927635,-1.35937723977,0.0793094335748,1.89540248272,0.158760287931,-0.00426835051742,-0.0218933855547,-0.000559958297718,-0.0397729276329,-0.00223365828047,0.0130945163021,-0.0124618296668,0.573894774574,0.818914682369,0.00206824039755,0.0,0.818872835507,-0.573835471655,-0.0118691886736,0.0,-0.00853318745891,0.00850545499343,-0.99992741834,0.0,0.661281995488,0.260341799539,0.303319909329,1.0,-0.0044,-0.00578285714286,0.221
0.464681961614,0.544996096968,-0.123996927119,-1.36007274606,0.0792978606363,1.89561851303,0.158692782097,-0.0113003982791,-0.0246783963908,-0.00105589087009,-0.0374690292083,0.00095958121438,0.0142091130404,-0.000705985069404,0.573933456132,0.818887676586,0.00202681237819,0.0,0.818844992772,-0.573874022368,-0.0119260708097,0.0,-0.0086031430813,0.0085045799446,-0.999926826347,0.0,0.661195394013,0.260230151782,0.303300357208,1.0,-0.00474,-0.00622971428571,0.238
0.46460863266,0.544533665404,-0.123994570719,-1.36084352171,0.0792698272815,1.89589719883,0.158582823152,-0.00565724479432,-0.0280984773658,0.000569089556857,-0.0428473909109,0.000380286282323,0.0142391919619,-0.00795521374224,0.573937371601,0.818884970093,0.00201150096176,0.0,0.818841887038,-0.573877803888,-0.0119573048025,0.0,-0.00863746772915,0.00851000917713,-0.999926484245,0.0,0.661106031097,0.260111988375,0.303284869422,1.0,-0.0051,-0.00670285714286,0.256
0.464550160766,0.544081342881,-0.124000357595,-1.36158411692,0.0792325387334,1.89616684886,0.158515868026,-0.00598023563359,-0.028304850203,0.00034637666183,-0.0447864164964,-0.00258747236012,0.0172228436117,-0.00281748938947,0.573965848792,0.818865045366,0.0019971977996,0.0,0.81882172521,-0.573906287665,-0.0119708898928,0.0,-0.00865650558482,0.00850639470044,-0.999926350368,0.0,0.661019964089,0.260000274653,0.303276011973,1.0,-0.00542,-0.00712342857143,0.272
0.464484078243,0.543565440177,-0.124001348347,-1.36241668178,0.0791846859385,1.89644788461,0.158381911616,-0.0028936804955,-0.0355031790436,0.000177718960995,-0.0441312463357,-0.00274123860785,0.0118045941545,-0.00500612247615,0.573944439162,0.81888012097,0.00196853659099,0.0,0.818836359739,-0.573884935827,-0.0119934691214,0.0,-0.00869166729133,0.00849565781241,-0.999926136631,0.0,0.660918037497,0.259875293291,0.303269129471,1.0,-0.00576,-0.00757028571429,0.289
0.464403565284,0.54298015438,-0.124007318001,-1.3633412876,0.0791261840501,1.89678157259,0.158287238704,-0.00501076678311,-0.0383671442564,-0.000865853312104,-0.053472705135,-0.000513199053053,0.0206031931173,-0.0102431420897,0.573972843086,0.818860232077,0.00196026100667,0.0,0.818816399553,-0.573913407177,-0.0119938228397,0.0,-0.00869641191359,0.00848938590142,-0.999926148646,0.0,0.660812604464,0.259729735503,0.303272175561,1.0,-0.00612,-0.00804342857143,0.307
0.464349930658,0.54250372084,-0.124003092613,-1.36409098796,0.0790895178444,1.8970480936,0.158177370866,-0.00498216008231,-0.0350544819215,0.000168497832741,-0.0502510902922,-0.00411239684,0.0216051590532,-0.0037680204032,0.573952719934,0.81887435911,0.00195094204493,0.0,0.8188302978,-0.57389322171,-0.0120108442999,0.0,-0.00871590782118,0.00849131069434,-0.999925962556,0.0,0.66071357335,0.259615028943,0.303272690657,1.0,-0.00642,-0.00843771428571,0.322
0.464259849641,0.541823108686,-0.124007993977,-1.36515695211,0.0790293363195,1.89744666678,0.158029978758,-0.00327342832815,-0.0383505208614,-0.000345509730489,-0.0577255278055,-0.000554140347507,0.0184723860525,-0.0142394512035,0.57395537634,0.818872446044,0.00197230371812,0.0,0.818828627018,-0.573895751081,-0.0120038897081,0.0,-0.00869792526569,0.00850483952507,-0.999926004163,0.0,0.660600019134,0.259463517875,0.303283908562,1.0,-0.00678,-0.00891085714286,0.34
0.464177429649,0.541203771904,-0.124007683171,-1.36610408041,0.0789717649,1.89779419091,0.157921445725,-0.0103691946027,-0.0398371109991,-5.28638105678e-05,-0.0581856247072,-5.2704233675e-05,0.0196610615283,-0.0133877796791,0.573970915265,0.818861514277,0.00198891093963,0.0,0.818817903843,-0.573911209623,-0.0119962793209,0.0,-0.00868200032258,0.00851423523349,-0.999926062601,0.0,0.660491607309,0.259319229311,0.303301072691,1.0,-0.0071,-0.00933142857143,0.356
0.464088481265,0.540547808303,-0.124010540365,-1.36710857619,0.0789123146657,1.89815917689,0.157792482013,-0.00548424388341,-0.0404259728859,-0.00372559100131,-0.0660718862256,-0.00288453724407,0.0192093517868,-0.0133320466627,0.573979879315,0.818855196316,0.0020031248499,0.0,0.818811757545,-0.573920098907,-0.0119905245035,0.0,-0.00866903659009,0.00852266607411,-0.999926103253,0.0,0.660376754672,0.259163353265,0.303318352325,1.0,-0.00742,-0.009752,0.372
0.46399542014,0.539775118017,-0.124016295515,-1.36828840558,0.0788472558937,1.89861225198,0.157640220795,-0.00403720275873,-0.0405045231302,-0.00171571590368,-0.0684975585932,-0.000656901428248,0.0287483313266,-0.00992103375275,0.573983458305,0.818852587625,0.00204358342172,0.0,0.818809663307,-0.573923494429,-0.0119709948809,0.0,-0.0086297857462,0.00854462340502,-0.999926255385,0.0,0.660243882475,0.258988877733,0.303342304445,1.0,-0.00778,-0.0102251428571,0.39
0.463884430596,0.539020618488,-0.124011479538,-1.36945796141,0.0787774591815,1.89905665831,0.157495819045,-0.0113118298017,-0.0458456702413,0.000723777975594,-0.0677403174712,-0.00477397688252,0.0288729424661,-0.00310021756298,0.573998781384,0.818841781804,0.00206935795426,0.0,0.818799168698,-0.573938683551,-0.0119605921503,0.0,-0.00860631370591,0.00855991869654,-0.999926326864,0.0,0.660113417587,0.258808334502,0.303357056174,1.0,-0.00812,-0.010672,0.407
0.463775910569,0.538294204877,-0.124024734946,-1.37059212266,0.0787151253895,1.89949993171,0.157361409121,-0.00598957024705,-0.0442312127683,-0.00149839623107,-0.0695427213022,-0.00251512547674,0.0306841094954,-0.00527073727701,0.57403300352,0.81881771795,0.00209822362172,0.0,0.818775515888,-0.573972816757,-0.0119418217823,0.0,-0.00857401701401,0.00857313901302,-0.999926491058,0.0,0.659993024418,0.258623910555,0.303369199611,1.0,-0.00844,-0.0110925714286,0.423
0.463660498769,0.537497907846,-0.124023694539,-1.37185084392,0.0786220104974,1.8999673824,0.157198318987,-0.00824283707497,-0.0489581158328,0.000449758538524,-0.0775596620259,-0.000885225516295,0.029568970074,-0.00687346547079,0.574037704532,0.818814436841,0.00209253363879,0.0,0.81877229739,-0.573977677262,-0.0119288697304,0.0,-0.00856662808702,0.00856109440012,-0.999926657583,0.0,0.659850408285,0.258426051135,0.303372865087,1.0,-0.00878,-0.0115394285714,0.44
0.463548568748,0.536656830443,-0.12403776153,-1.37315361909,0.0785638275602,1.90045442992,0.157041829788,-0.00952682967468,-0.0513697569357,0.000188522631907,-0.0757637149892,-9.64857967055e-06,0.0293441611593,-0.0101794852309,0.574067299856,0.818793613639,0.00212141490343,0.0,0.818751731037,-0.574007030994,-0.011928042322,0.0,-0.0085490624022,0.00858457645249,-0.999926606596,0.0,0.65970300225,0.258224062494,0.303389289272,1.0,-0.00912,-0.0119862857143,0.457
0.46342477789,0.53579430778,-0.12404494266,-1.37451825136,0.0784946151707,1.90095616798,0.156876521619,-0.00924064254775,-0.0560334727907,-0.000531206758105,-0.0798156080418,0.000474769222389,0.0312358406216,-0.0116178694456,0.574094846535,0.818774287976,0.0021258958832,0.0,0.818732360331,-0.574034452004,-0.0119380467261,0.0,-0.00855439292819,0.00859427632384,-0.999926477685,0.0,0.659546523545,0.25801041544,0.303392286048,1.0,-0.00946,-0.0124331428571,0.474
0.463311744435,0.534944657942,-0.124051017512,-1.37585107119,0.0784003605334,1.90143814536,0.156714339094,-0.00920228378748,-0.0573337890441,-0.00179889834634,-0.0812327823727,-0.00965044782139,0.0369587755596,-0.0131751070847,0.574101804411,0.818769460602,0.00210605304956,0.0,0.81872734373,-0.57404155999,-0.0119403071288,0.0,-0.00856756180137,0.0085794002669,-0.999926492686,0.0,0.659376323178,0.257795956959,0.303391239512,1.0,-0.0098,-0.01288,0.491
0.463196587199,0.534059052675,-0.124049159597,-1.37732189087,0.0783227388575,1.90196688641,0.156529615678,-0.00658015377013,-0.0561075550359,-0.000522734327923,-0.0899155797238,-0.00234676655552,0.0341793343977,-0.0143219716314,0.574118090152,0.818758122416,0.00207423206242,0.0,0.818715500272,-0.574057884902,-0.011967510094,0.0,-0.00860793255337,0.00856913496209,-0.999926233991,0.0,0.659202443988,0.257571540321,0.303370509913,1.0,-0.01014,-0.0133268571429,0.508
0.463062532173,0.533124342503,-0.124046769403,-1.37879010785,0.0782431919309,1.9025374356,0.156343821807,-0.00624174745262,-0.0543837163017,0.000672539784146,-0.0813639153642,-0.0016629131497,0.0296805898613,-0.0115041836628,0.57412330224,0.818754380865,0.00210820789135,0.0,0.818712111707,-0.574062865636,-0.0119604073366,0.0,-0.00858255728113,0.00859292933139,-0.999926247918,0.0,0.65904657984,0.257365106658,0.303379581394,1.0,-0.01046,-0.0137474285714,0.524
0.462940977692,0.532176205815,-0.124047018726,-1.38034695445,0.0781600068422,1.90312070976,0.156160342212,-0.00765562004917,-0.0539852642896,0.000715028896209,-0.0933827704277,-0.00773348085916,0.0418315325387,-0.0115777520118,0.574135607479,0.818745798272,0.00209020029428,0.0,0.818703180177,-0.574075130039,-0.0119831022504,0.0,-0.0086113484072,0.00859134472817,-0.999926014,0.0,0.658861071938,0.257138612371,0.303357620332,1.0,-0.0108,-0.0141942857143,0.541
0.462811078215,0.531172584728,-0.124051737525,-1.38196125288,0.0780509738991,1.90369521121,0.155951768374,-0.00326894734381,-0.0606910052763,-0.000569249528124,-0.098288936587,-0.00485231226915,0.0344647170731,-0.00657167420999,0.574133044021,0.818747693359,0.00205165379855,0.0,0.818704638802,-0.574072794292,-0.0119953390603,0.0,-0.00864352397222,0.00856678394796,-0.999925947111,0.0,0.658666031244,0.256893210045,0.303346541883,1.0,-0.01114,-0.0146411428571,0.558
0.462691731434,0.530197281979,-0.124057755678,-1.38350645521,0.0779590537059,1.90424592777,0.155751556219,-0.0114165188209,-0.061026745463,-0.00203144806033,-0.0980998247315,-0.00321711089482,0.0359978287028,-0.015722927888,0.574130289823,0.818749666655,0.00203483715606,0.0,0.818706353631,-0.574070072707,-0.0120085406135,0.0,-0.00866401631936,0.00856056582847,-0.999925823016,0.0,0.658477838712,0.256663001982,0.30334617325,1.0,-0.01146,-0.0150617142857,0.574
0.46254928559,0.529140887955,-0.124060944545,-1.38516281746,0.0778520368605,1.90486024269,0.155521333023,-0.00899819208821,-0.0699813353542,-0.00133450620272,-0.100837360112,-0.00882828594402,0.0327151806048,-0.0116207545634,0.574121782576,0.818755613973,0.00204212176849,0.0,0.818712450611,-0.574061589779,-0.0119983855758,0.0,-0.00865160845011,0.00856060985058,-0.999925930072,0.0,0.658284175895,0.256408995368,0.303355191973,1.0,-0.0118,-0.0155085714286,0.591
0.462405837667,0.527998934803,-0.124050666054,-1.38696779293,0.0777389972462,1.90556051203,0.155268580313,-0.00700044674646,-0.0637184677529,0.00179634199661,-0.098670263961,-0.00484930120487,0.0400260552043,-0.0172716636833,0.574092595184,0.818776004186,0.00207220299922,0.0,0.818733233955,-0.574032280559,-0.0119824619755,0.0,-0.00862160691583,0.00857578926568,-0.999926059133,0.0,0.658072159796,0.256150514536,0.303360487825,1.0,-0.01216,-0.0159817142857,0.609
0.462277960297,0.526956111816,-0.124056006368,-1.38853119491,0.0776481699887,1.90615222714,0.155054035555,-0.00713899476099,-0.0732209377107,0.000264537207675,-0.105044930921,-0.00955674748289,0.037760270288,-0.0188133303294,0.574085479555,0.81878083474,0.0021339466206,0.0,0.818738865009,-0.574024905402,-0.0119509749696,0.0,-0.00856045556982,0.00860819196508,-0.9999263061,0.0,0.657890311251,0.25591682949,0.303401779538,1.0,-0.01246,-0.016376,0.624
0.462115271397,0.525724687119,-0.124056361134,-1.39045581659,0.0775215409244,1.90685414897,0.154800600111,-0.00892905239669,-0.0711604962538,0.000493273328831,-0.111027710403,-0.0104829323273,0.037645238804,-0.0186504117991,0.574080984459,0.818783981745,0.0021357487297,0.0,0.818742083957,-0.574020452209,-0.0119443419359,0.0,-0.00855403708969,0.0086058126316,-0.999926381509,0.0,0.657659920078,0.255624490509,0.303412963901,1.0,-0.01282,-0.0168491428571,0.642
0.461962446452,0.524551200558,-0.124064870578,-1.39231427555,0.0774062696783,1.90751652347,0.154548982319,-0.00247347753472,-0.0682242437699,-0.000750528734283,-0.11424479029,-0.00474635541072,0.0404279199221,-0.0115338876029,0.574074872584,0.818788325053,0.0021133683415,0.0,0.818746131782,-0.574014429375,-0.0119563147682,0.0,-0.00857675214934,0.00859429749865,-0.99992628597,0.0,0.657433725614,0.255340179769,0.303411416916,1.0,-0.01316,-0.017296,0.659
0.461806104659,0.523423465839,-0.124068369653,-1.39411436483,0.077297046358,1.90817502653,0.1543052172,-0.00890201309763,-0.072319665271,0.000104148861084,-0.111647839043,-0.0056289889509,0.042001651251,-0.00968961464213,0.574072929957,0.818789721297,0.00210006915785,0.0,0.818747328577,-0.574012515906,-0.0119662204976,0.0,-0.00859251779791,0.00858907464066,-0.999926195494,0.0,0.657218121117,0.255063539919,0.303404701325,1.0,-0.01348,-0.0177165714286,0.675
0.461643979564,0.522198462137,-0.124071644532,-1.39605023972,0.0771729303908,1.9089346504,0.154044091195,-0.00810321128407,-0.0814987130184,-0.000455503050973,-0.120078252869,-0.00158479294314,0.0381831091068,-0.0192236744242,0.574062710248,0.818796788582,0.00213789908093,0.0,0.818755005869,-0.574002259097,-0.011932888053,0.0,-0.0085436160052,0.00860080722353,-0.99992651367,0.0,0.65698183022,0.254753672234,0.303412945813,1.0,-0.01384,-0.0181897142857,0.693
0.461477461335,0.520948659715,-0.124080725907,-1.39807084915,0.07705451138,1.90969748005,0.153769206914,-0.00740274043527,-0.075514282576,-0.00025758467679,-0.121910325772,-0.0123276763385,0.0369650783281,-0.0209636617357,0.574058542512,0.8187997423,0.00212571867407,0.0,0.818757777088,-0.573998117839,-0.011941946087,0.0,-0.00855806862997,0.0085959903612,-0.999926431499,0.0,0.656754540995,0.254467350218,0.303392885241,1.0,-0.01416,-0.0186102857143,0.709
0.461329022258,0.519789544198,-0.124081947811,-1.39988420395,0.0769367129843,1.91035597813,0.153528283643,-0.00748877636063,-0.0841963712672,0.000360103499239,-0.122952390247,-0.00772426976178,0.054051890451,-0.0162326414049,0.574048354193,0.818806887082,0.00212499802333,0.0,0.81876493847,-0.573987959859,-0.0119391947568,0.0,-0.00855633634894,0.00859371443198,-0.999926465887,0.0,0.656532764196,0.25419481759,0.303400865539,1.0,-0.01446,-0.0190045714286,0.724
0.461125894755,0.518297914648,-0.124086560191,-1.4022048597,0.0767850182332,1.9111756894,0.153211129497,-0.013139112753,-0.0754833417268,5.78807028885e-05,-0.123364646684,-0.00416506243547,0.0472585206754,-0.0142147546142,0.574040234789,0.818812613825,0.00211167844489,0.0,0.818770514079,-0.573979918671,-0.0119434140389,0.0,-0.0085675219965,0.00858514553564,-0.999926443716,0.0,0.656247814032,0.253834105429,0.303414507762,1.0,-0.01484,-0.019504,0.743
0.460932034727,0.516841271221,-0.124090444631,-1.40446002159,0.0766390991289,1.91199244157,0.152901455479,-0.0152547837745,-0.0821492202013,0.00159335467212,-0.123051657677,-0.0135154862456,0.0410027733048,-0.0192085922122,0.574027980642,0.818821177147,0.00212230941389,0.0,0.818779250467,-0.573967657079,-0.0119337560178,0.0,-0.00855363987246,0.00858817812857,-0.999926536522,0.0,0.655973112547,0.253487994509,0.303433997392,1.0,-0.0152,-0.0199771428571,0.761
0.460756051747,0.515563902514,-0.124096936157,-1.4065121509,0.0765147465725,1.91278703328,0.152618756478,-0.0096993758378,-0.0857924172925,0.000785780380484,-0.132255086373,-0.00510129707961,0.0537195046227,-0.0167751236905,0.574020320033,0.818826514082,0.00213516442094,0.0,0.818784790306,-0.573959980535,-0.0119228691631,0.0,-0.00853742683707,0.0085923747552,-0.999926639029,0.0,0.655731479709,0.253175799716,0.30342219716,1.0,-0.01552,-0.0203977142857,0.777
0.460582921411,0.514252977207,-0.124102581555,-1.40861158464,0.0763886641289,1.91353532834,0.152333385667,-0.0122184159685,-0.0840424351607,-0.0020881643383,-0.134004756483,-0.00338087066846,0.0465002468495,-0.0228804063151,0.574008819434,0.818834665334,0.0021007046192,0.0,0.81879241764,-0.57394854751,-0.0119494153638,0.0,-0.00857906433901,0.00857927599747,-0.99992639513,0.0,0.655468669581,0.25285749621,0.303406979762,1.0,-0.01584,-0.0208182857143,0.793
0.460410916008,0.513011797388,-0.124100332021,-1.41061511913,0.0762614400043,1.91423336656,0.152056540021,-0.00660578789889,-0.0866424716875,0.00175563104824,-0.136016251217,-0.0105567393919,0.042856832928,-0.019479478399,0.573991938382,0.81884664158,0.00204429631698,0.0,0.818803584325,-0.573931829649,-0.011987164525,0.0,-0.00864252908327,0.0085545776553,-0.999926060213,0.0,0.655214031089,0.252551497315,0.303383548602,1.0,-0.01614,-0.0212125714286,0.808
0.460199970267,0.511507532867,-0.124106459918,-1.41305297181,0.0761168574606,1.91513732788,0.15171656412,-0.00928268229835,-0.0823654365418,-0.000190749420895,-0.135663419089,-0.00986531122375,0.0584022216058,-0.01790555479,0.573979384288,0.818855506495,0.00201811695984,0.0,0.81881204617,-0.573919326818,-0.0120077580055,0.0,-0.00867454944835,0.00854482853838,-0.999925866301,0.0,0.65491589185,0.252178174129,0.303355442839,1.0,-0.0165,-0.0216857142857,0.826
0.460005224322,0.510040126357,-0.124109677508,-1.41537986436,0.0759773175764,1.91601195195,0.151377738691,-0.0148441846315,-0.0852444723494,-3.96108450414e-05,-0.13688578946,-0.00784314263912,0.0521383333335,-0.0169730328558,0.573947590202,0.818877761367,0.00203040440183,0.0,0.818834424268,-0.573887448107,-0.0120053921069,0.0,-0.00866589185734,0.00855319556413,-0.999925869834,0.0,0.654631387983,0.251828731267,0.303351158294,1.0,-0.01684,-0.0221325714286,0.843
0.459801777666,0.508541544874,-0.124111049531,-1.4177615235,0.0758222630408,1.916854765,0.151056188119,-0.0136767892594,-0.0834382775004,0.000727935443016,-0.142364088429,-0.00847545839955,0.0491122262842,-0.0249480542126,0.573933224361,0.818887916514,0.00199526037453,0.0,0.818844105067,-0.573873218011,-0.0120253128008,0.0,-0.00870252440349,0.00853569808407,-0.999925701203,0.0,0.654314479201,0.251440505235,0.303340839641,1.0,-0.0172,-0.0226057142857,0.861
0.459578261112,0.507003944666,-0.124118511476,-1.42016138423,0.0756711268405,1.91772404606,0.150715164998,-0.0144127497244,-0.089482326915,-0.00511591502827,-0.145630702965,-0.0114797171871,0.0488601831834,-0.0183736600004,0.573925991824,0.818892988938,0.00199386026201,0.0,0.818849159906,-0.57386599304,-0.0120258993241,0.0,-0.0087038836197,0.00853481131926,-0.999925696942,0.0,0.654035609046,0.251083593117,0.303347984539,1.0,-0.01752,-0.0230262857143,0.877
0.459387297081,0.505597001391,-0.124125105121,-1.42231324947,0.0755340829787,1.91855543743,0.150417716892,-0.0162299674008,-0.0972957626174,0.000261110507054,-0.14237814503,-0.0121315389956,0.0531695494049,-0.0218754457011,0.573917792886,0.818898566624,0.00206191439378,0.0,0.818855722796,-0.573857603397,-0.011979280867,0.0,-0.00862673677016,0.00856369771453,-0.999926118518,0.0,0.653779701673,0.250752307696,0.303379512266,1.0,-0.01782,-0.0234205714286,0.892
0.459139372701,0.503748965909,-0.124128992066,-1.42509244565,0.0753563128715,1.91961695821,0.150037450828,-0.0123339113597,-0.0979095059445,0.000750539170152,-0.144682973414,-0.0114594189296,0.0536780877154,-0.0223907846293,0.573907260912,0.818905674454,0.00216774570119,0.0,0.818864306292,-0.573846733845,-0.011913053219,0.0,-0.00851187697065,0.00861224313418,-0.999926685922,0.0,0.653445685401,0.250325877071,0.303439896034,1.0,-0.0182,-0.02392,0.911
0.458918857375,0.50215540025,-0.124137633104,-1.42743536333,0.0752106802909,1.92049760072,0.149703047236,-0.0128117145933,-0.102900825613,-5.6249432919e-05,-0.148204703297,-0.0104516419456,0.0541549446568,-0.0213685031638,0.573900819445,0.818909882594,0.00228046740561,0.0,0.818869995533,-0.573839858323,-0.011853029849,0.0,-0.0083981018786,0.00867003680259,-0.99992714852,0.0,0.653184059407,0.249981463205,0.303512844363,1.0,-0.0185,-0.0243142857143,0.926
0.458696138154,0.5004421007,-0.124140064136,-1.43002738626,0.0750416741539,1.92140142296,0.149344764395,-0.0129685285147,-0.0996698897652,-0.000174790085102,-0.154675357248,-0.00366212838239,0.0512188891448,-0.0298523097996,0.573877843861,0.818925937239,0.0022970727175,0.0,0.81888628217,-0.573816837264,-0.0118423413323,0.0,-0.00838006281509,0.00867726571179,-0.999927237156,0.0,0.652831458843,0.249558409428,0.303554226758,1.0,-0.01886,-0.0247874285714,0.944
0.458446666465,0.498748944245,-0.124140476625,-1.43264571998,0.0748689617519,1.92236836835,0.148983350614,-0.0157563638672,-0.0978596412935,-0.00551345249028,-0.153194633583,-0.0110797387251,0.0556216522002,-0.0209622068666,0.57386231586,0.818936731204,0.00232800834207,0.0,0.818897543784,-0.573801259228,-0.0118184006385,0.0,-0.00834286889484,0.00868870235783,-0.999927448863,0.0,0.652491853385,0.249124602195,0.303569782088,1.0,-0.01922,-0.0252605714286,0.962
0.458204056297,0.497177834493,-0.124140857358,-1.43514764917,0.0747240233112,1.92328192115,0.148604986669,-0.016598502257,-0.10172111393,-0.00156420849812,-0.155928468395,-0.0105108747697,0.0498483312612,-0.0288899775225,0.573849908516,0.818945458897,0.00231619272648,0.0,0.818905957024,-0.573788731947,-0.0118436287517,0.0,-0.00837044185258,0.00869337667146,-0.999927177801,0.0,0.652196226074,0.248748946444,0.303556465533,1.0,-0.01952,-0.0256548571429,0.977
0.45793710532,0.495502953279,-0.124133805618,-1.43784634739,0.0745542612103,1.92421010339,0.148215063726,-0.0182487050333,-0.0992790630362,0.000831451659664,-0.15969351998,-0.00913095062947,0.0555774594306,-0.0223969119515,0.573834230231,0.818956666957,0.00223623862589,0.0,0.818915950614,-0.573773192108,-0.0119053244519,0.0,-0.00846701407372,0.00866314096492,-0.999926627139,0.0,0.651846086436,0.248316819532,0.303519296392,1.0,-0.01986,-0.0261017142857,0.994
0.457640854259,0.493704604542,-0.124143867154,-1.44080408824,0.0743706662103,1.92526551175,0.147809650283,-0.0185409047052,-0.100925900167,0.00297104377415,-0.162556729287,-0.0119479460926,0.0608952378432,-0.0251543360107,0.573851250236,0.818944988329,0.002143733864,0.0,0.818902982657,-0.573790500767,-0.011962989834,0.0,-0.00856714138663,0.00862065270231,-0.99992614149,0.0,0.651472287186,0.247832982024,0.303455818902,1.0,-0.0220165714286,-0.0289360653061,1.012
0.457392051202,0.49194725016,-0.124177443759,-1.44354396041,0.0742032580999,1.92629917055,0.147411687291,-0.0208940755452,-0.117744707641,-0.00192721481968,-0.190714416635,-0.0114932902261,0.0734905485202,-0.0216819166984,0.573840933076,0.818952145665,0.00217106853731,0.0,0.818910605165,-0.573780182702,-0.0119360624505,0.0,-0.00852951207218,0.00862747836929,-0.999926404312,0.0,0.651110334073,0.247364048179,0.303460217537,1.0,-0.0249788571429,-0.032829355102,1.028
0.457033786446,0.489642039198,-0.124189449704,-1.44730446235,0.0739848811233,1.92762510283,0.146873419467,-0.0214673771864,-0.136172840499,-0.00120574983062,-0.222384626474,-0.0154623014466,0.0744659774776,-0.0264939289194,0.573835505841,0.818956198012,0.0020748191769,0.0,0.81891312866,-0.573774881287,-0.0120174961704,0.0,-0.00865149041445,0.00859532814417,-0.999925633259,0.0,0.650649740625,0.246791994237,0.303394377859,1.0,-0.0281262857143,-0.0369659755102,1.045
0.456734408466,0.487726631723,-0.124199479659,-1.45029236681,0.0738028441734,1.92872862663,0.146441236405,-0.02672048262,-0.149863540436,-0.0034958404431,-0.231716951005,-0.0107256912851,0.0882900471323,-0.0317467299499,0.573848695769,0.818946802166,0.00213459279754,0.0,0.818904531481,-0.573787837887,-0.0119846699419,0.0,-0.00859016912523,0.00862558099931,-0.999925901428,0.0,0.650196689924,0.246187092426,0.303411990811,1.0,-0.0309034285714,-0.0406159346939,1.061
0.45621578972,0.484466335088,-0.124243399691,-1.45528083181,0.0734911445291,1.93061253093,0.145689909349,-0.0266201471131,-0.171958936831,-0.00184630129961,-0.270153925912,-0.0161726569872,0.0906522847913,-0.038717667476,0.573836522197,0.81895510047,0.0022217352971,0.0,0.818914091635,-0.573775436299,-0.0119250208751,0.0,-0.008491443016,0.00866258963043,-0.999926424762,0.0,0.649672429949,0.245474679852,0.303453559573,1.0,-0.034236,-0.0449958857143,1.078
0.455727930166,0.481424539562,-0.12429549719,-1.46004169131,0.0731990794372,1.93224194611,0.144964845926,-0.0252234195856,-0.182998257673,-0.00441845613879,-0.295501525878,-0.0190493631539,0.101267046108,-0.0431147064785,0.573833645884,0.818957327522,0.00214230042833,0.0,0.818915167902,-0.573772768508,-0.0119793488967,0.0,-0.00858154713154,0.00862868189654,-0.999925948707,0.0,0.649055863624,0.244667364067,0.303440424762,1.0,-0.0373834285714,-0.0491325061224,1.095
0.455185910787,0.478108266624,-0.12433868734,-1.46517710665,0.0728947095173,1.93410251923,0.144219995187,-0.0329595224648,-0.200714171877,0.000334133062702,-0.314509856207,-0.0183480384566,0.114372148813,-0.0415882026795,0.573866583546,0.818934151104,0.00217884057549,0.0,0.818892357133,-0.57380543919,-0.0119738166872,0.0,-0.00855570155459,0.00865577581946,-0.999925936015,0.0,0.648408255013,0.243803365847,0.303456663745,1.0,-0.0405308571429,-0.0532691265306,1.112
0.454620832596,0.474740430055,-0.124369159101,-1.47031207443,0.0725793793972,1.93600824504,0.143478099759,-0.0390791415855,-0.212030405131,-0.000606616999543,-0.327974168427,-0.0256891543515,0.126181150561,-0.0499579072799,0.573906684964,0.81890573365,0.00229417738582,0.0,0.818865454075,-0.573845079319,-0.0119138560328,0.0,-0.00843998510707,0.00871623204217,-0.999926394266,0.0,0.647769841786,0.242934453081,0.303509573489,1.0,-0.0434931428571,-0.0571624163265,1.128
0.453977240038,0.470919332558,-0.124393350434,-1.47617552567,0.072215166736,1.93806974298,0.14260461823,-0.0381251837773,-0.234020376747,-0.0020157240704,-0.351260869746,-0.0189078167215,0.127782770619,-0.0527317150388,0.573913895591,0.818900628643,0.00231252183581,0.0,0.818860385506,-0.573852006303,-0.011928571295,0.0,-0.0084414317609,0.00873977361043,-0.999926176569,0.0,0.646963281112,0.241880445726,0.303540980077,1.0,-0.0468257142857,-0.0615423673469,1.146
0.45322056008,0.466331885998,-0.124407552157,-1.48304635527,0.0717723569916,1.94066934966,0.141492592557,-0.0429280176172,-0.245035443388,-0.000295102311024,-0.367784688426,-0.0289647357012,0.138303882934,-0.0546356713741,0.573842594063,0.818949810732,0.00257519750765,0.0,0.818913145366,-0.57377987412,-0.0117755382982,0.0,-0.00816613558226,0.00886633923899,-0.99992734849,0.0,0.646147611125,0.240797662023,0.30366132376,1.0,-0.0501582857143,-0.0659223183673,1.164
0.452572478037,0.462514394448,-0.124413346253,-1.48896727018,0.071383914997,1.94268446618,0.14060244024,-0.0485117231934,-0.2597355403,0.00417247059514,-0.398888367082,-0.0264816097457,0.141982848802,-0.055256568103,0.573819712141,0.818966078838,0.00249931442572,0.0,0.818928179134,-0.573757012461,-0.0118437735704,0.0,-0.00826580876396,0.00884312001005,-0.999926735133,0.0,0.645347865806,0.239801602367,0.303649454743,1.0,-0.0529354285714,-0.069572277551,1.179
0.451796611984,0.457979920762,-0.124424953739,-1.49596887491,0.0709041795311,1.94511032604,0.139564230068,-0.0444434085391,-0.269300051647,-0.000302103607003,-0.424149687677,-0.0287278906934,0.14516987253,-0.0588638960884,0.573806330659,0.818975604212,0.00244979634742,0.0,0.818937020801,-0.5737437809,-0.0118733627174,0.0,-0.00831859914551,0.00881940941672,-0.999926506762,0.0,0.644407642328,0.238615982783,0.303648670632,1.0,-0.0560828571429,-0.0737088979592,1.196
0.450945810976,0.453262600247,-0.124442071176,-1.50329865672,0.0704159568265,1.94773249235,0.138394951669,-0.0482150204205,-0.287098857607,-0.00202252047845,-0.433687749621,-0.0312801162825,0.163379814142,-0.0729894519967,0.573760929115,0.819007422299,0.00244649584493,0.0,0.818968758621,-0.573698358425,-0.0118790927505,0.0,-0.00832567477771,0.00881953276197,-0.999926446786,0.0,0.643439392575,0.23735570617,0.303629742127,1.0,-0.0592302857143,-0.0778455183673,1.213
0.450035460644,0.448204240748,-0.124492579528,-1.51085377756,0.0698854462257,1.95056717846,0.137218373985,-0.0509110169341,-0.299867305088,-0.00174010688698,-0.451287373798,-0.0347157329385,0.157405329044,-0.0624097911512,0.573776923826,0.818995427808,0.0026977426796,0.0,0.818960628273,-0.573714073691,-0.0116789506588,0.0,-0.00801742860904,0.00891062897956,-0.999928158184,0.0,0.642479453831,0.236024272546,0.3037506328,1.0,-0.0623777142857,-0.0819821387755,1.23
0.449143229092,0.443290457933,-0.124523699884,-1.51847653343,0.0693865946379,1.95309292065,0.136077861518,-0.055644463699,-0.309770277392,-0.00254720849224,-0.478994808952,-0.0382127339142,0.155598085472,-0.076262978896,0.573800221356,0.818979597838,0.00254385515244,0.0,0.818942385309,-0.573737471938,-0.0118080371154,0.0,-0.00821119455483,0.00885889567821,-0.999927045464,0.0,0.641415992959,0.234693339376,0.30370774036,1.0,-0.06534,-0.0858754285714,1.246
0.448061869147,0.437560678137,-0.124550852839,-1.52739502228,0.0687704512669,1.95614598438,0.134630320447,-0.0646353361526,-0.323403082941,-0.00097693209057,-0.496617453764,-0.0323379548113,0.177545713845,-0.0821505724591,0.573743635045,0.81901964063,0.00241172314757,0.0,0.818980568408,-0.573681248628,-0.0118911918552,0.0,-0.00835572020676,0.00879781941954,-0.999926387447,0.0,0.640186139657,0.233121154732,0.303645426824,1.0,-0.0686725714286,-0.0902553795918,1.264
0.447029122315,0.432159963459,-0.124567952709,-1.53537980003,0.0682310761301,1.95914833679,0.133316571142,-0.0636704291956,-0.337307768915,-0.00214348627787,-0.504516925198,-0.0331852651155,0.186149896061,-0.0744828502576,0.573725770385,0.819031079063,0.00275296683462,0.0,0.818996730378,-0.573662437297,-0.0116837735706,0.0,-0.00799025384809,0.00895812530088,-0.999927951322,0.0,0.639147047472,0.231701254271,0.30378940956,1.0,-0.0716348571429,-0.0941486693877,1.28
0.445934013938,0.426695650633,-0.124628590736,-1.54387625719,0.0676192564708,1.96198641768,0.131967184496,-0.0654087621679,-0.345736928365,-0.00967164038873,-0.54098904573,-0.0398125197441,0.180756604667,-0.090942358826,0.573756004574,0.819010534178,0.0025571511711,0.0,0.818973689855,-0.573693422495,-0.0117770629586,0.0,-0.00817867528244,0.00885157053902,-0.999927376848,0.0,0.637959564485,0.230138560862,0.303714304719,1.0,-0.0745971428571,-0.0980419591837,1.296
0.444694258384,0.4206015429,-0.124738623137,-1.55325596199,0.066950312587,1.96503166748,0.130425433168,-0.0760699192858,-0.367613881598,-0.00836821014895,-0.561100737687,-0.0407894486678,0.178083712125,-0.0934181623936,0.57380426622,0.818977399665,0.00233019463798,0.0,0.818937643692,-0.573742587274,-0.0118880693527,0.0,-0.00839928993746,0.00872987709508,-0.999926617895,0.0,0.63656064772,0.228262534988,0.303665536187,1.0,-0.0779297142857,-0.102421910204,1.314
0.443382908678,0.414237419048,-0.124778899364,-1.56266255244,0.0662985050139,1.96849432415,0.128915428731,-0.0810681851798,-0.370837798793,-0.00214291318732,-0.559146321627,-0.0420865495902,0.200334871363,-0.091048247762,0.573876643058,0.818925689775,0.00265708118941,0.0,0.81889049052,-0.573814064675,-0.0116846317423,0.0,-0.00804432943013,0.00888156675587,-0.99992820069,0.0,0.635375587602,0.22662594977,0.303796068316,1.0,-0.080892,-0.1063152,1.33
0.4419287447,0.407364517133,-0.124804800931,-1.57312466083,0.0655844800655,1.9719956749,0.127138686997,-0.0851486395957,-0.390864267176,-0.0038855348658,-0.588554459597,-0.0397080132304,0.185182691333,-0.096791971287,0.573859291244,0.818938076365,0.00258608465971,0.0,0.818901459459,-0.573796427956,-0.0117815899194,0.0,-0.00816466364003,0.00887889428921,-0.999927249106,0.0,0.633876376322,0.224684381702,0.303769384712,1.0,-0.0842245714286,-0.11069515102,1.348
0.440481577852,0.400677265493,-0.124894052109,-1.5832842741,0.0648589665858,1.975434892,0.125434647447,-0.0863388200038,-0.407695370218,-0.000135644815504,-0.592599677971,-0.034789894084,0.21481395276,-0.103931493835,0.573918531953,0.818896733656,0.00253084753151,0.0,0.818859449188,-0.573855920808,-0.0118038777601,0.0,-0.00821397324604,0.00884704294406,-0.999927127582,0.0,0.632432478852,0.222741412552,0.303746219416,1.0,-0.087372,-0.114831771429,1.365
0.439135863639,0.394531488756,-0.124923129506,-1.59235813584,0.0641623643496,1.97868030596,0.123884673449,-0.0894645928427,-0.40299412556,0.000470903845741,-0.626241319649,-0.0447985971039,0.218636047777,-0.104262425651,0.573931813967,0.818886706116,0.00275360917477,0.0,0.818852917862,-0.573869072267,-0.011616096819,0.0,-0.00793220883909,0.00892182019862,-0.999928738055,0.0,0.631169926968,0.221012195188,0.303845133789,1.0,-0.0901491428571,-0.118481730612,1.38
0.437374214929,0.386642498655,-0.124964873177,-1.60443469502,0.0632511407633,1.98252869024,0.121797464557,-0.0883699507575,-0.42214438803,-0.00582040334186,-0.65477049552,-0.0556220492821,0.199259101323,-0.122694052248,0.573900375902,0.818909741252,0.00243744184509,0.0,0.818871540476,-0.57383843763,-0.01181501578,0.0,-0.00827689305097,0.00877676273585,-0.999927228091,0.0,0.629356755406,0.218704239192,0.303728810861,1.0,-0.0936668571428,-0.123105012245,1.399
0.435738758538,0.379227143792,-0.124993373604,-1.61526461424,0.0624681550167,1.98623457576,0.119860966303,-0.0963020545642,-0.435067401679,-0.000202792738547,-0.647133584133,-0.0406537248281,0.217135779703,-0.112462460802,0.573860211646,0.818937149217,0.00267395281364,0.0,0.818901988174,-0.573797376029,-0.0116983728671,0.0,-0.00804607993013,0.0089031074172,-0.999927995046,0.0,0.627777239764,0.216636313885,0.303858535709,1.0,-0.0968142857143,-0.127241632653,1.416
0.434183781563,0.372673717787,-0.125014365916,-1.62513603622,0.061729365128,1.98951118073,0.118088112878,-0.108597756845,-0.44309701765,-0.00416310295765,-0.671798552188,-0.0507670530904,0.211950114752,-0.115546235663,0.57384930614,0.818944963742,0.00262051626459,0.0,0.818908957753,-0.573786496796,-0.0117440158566,0.0,-0.00811424201695,0.00888543066572,-0.999927601478,0.0,0.626306831261,0.214707396594,0.303820334346,1.0,-0.0995914285714,-0.130891591837,1.431
0.432356516038,0.365004570854,-0.125121947603,-1.63654036903,0.0608400446902,1.99318336075,0.116131164706,-0.105358219022,-0.460999964151,-0.00190650616748,-0.671912153674,-0.0516345187706,0.224294167399,-0.11392727977,0.573977345355,0.81885554178,0.00252103473368,0.0,0.818818446926,-0.573915104756,-0.0117707437346,0.0,-0.0081918365429,0.0088205798104,-0.999927542968,0.0,0.624590416927,0.212406621192,0.303819363418,1.0,-0.102738857143,-0.135028212245,1.448
0.430466826557,0.357135503584,-0.125156326959,-1.64815273677,0.0599502560991,1.99700994182,0.11393963985,-0.112716488719,-0.466923855205,8.53510887748e-05,-0.698880274267,-0.0403514785369,0.215291649591,-0.129565370072,0.573904850617,0.81890618391,0.00257512981423,0.0,0.818869617664,-0.573842231568,-0.0117639040035,0.0,-0.00815597252394,0.00886022772304,-0.999927485609,0.0,0.622722075779,0.209971296475,0.303851511121,1.0,-0.106071428571,-0.139408163265,1.466
0.42855435026,0.349627559014,-0.125186917613,-1.65940602832,0.0591109637035,2.000570215,0.111861369016,-0.126508333778,-0.474188070146,0.000392969229463,-0.709145394029,-0.0534229194735,0.224376927044,-0.136815578705,0.573935610927,0.818885124906,0.00241114467466,0.0,0.818845917503,-0.573873067796,-0.0119084990002,0.0,-0.00836816281291,0.00880923722735,-0.999926182871,0.0,0.62107707388,0.207831053263,0.303771437025,1.0,-0.108848571429,-0.143058122449,1.481
0.426376001264,0.340867136811,-0.125258179318,-1.67195031758,0.0581406799426,2.00485448402,0.109495002064,-0.122744676208,-0.488632265316,-0.000197217308462,-0.708444512381,-0.0515861647218,0.237356440796,-0.129425746601,0.573971333254,0.818858856435,0.00279798890407,0.0,0.818825149506,-0.573907877893,-0.0116562914405,0.0,-0.0079392224596,0.00898161374551,-0.999928147099,0.0,0.619190959037,0.205271472185,0.303951081989,1.0,-0.112181142857,-0.147438073469,1.499
0.424239039804,0.332566957499,-0.125254889644,-1.68436290997,0.0571387213564,2.00865820044,0.107112810602,-0.130124189709,-0.483315588707,0.000208918343689,-0.724565394368,-0.0619128036463,0.21967438718,-0.145622182355,0.573871878541,0.818929473107,0.00251634624288,0.0,0.818891570633,-0.573808866814,-0.0118628332908,0.0,-0.00827108127416,0.0088685318992,-0.999926466475,0.0,0.61718108548,0.202768982952,0.303831786411,1.0,-0.115328571429,-0.151574693878,1.516
0.422147219867,0.324447992477,-0.125265173777,-1.69596794581,0.0561605349715,2.0124804851,0.104800365501,-0.136359910722,-0.493918058294,-0.00112983543829,-0.723909509025,-0.0529588940193,0.240132289213,-0.145977937972,0.573770568419,0.818999716669,0.00274696424797,0.0,0.818965369464,-0.573707339428,-0.01167729451,0.0,-0.00798790113683,0.00894992881274,-0.999928043516,0.0,0.615362887107,0.200387285943,0.303958613168,1.0,-0.118290857143,-0.155467983673,1.532
0.419934651126,0.316280169379,-0.125285970094,-1.70794444706,0.0552082843442,2.01621935632,0.10250934659,-0.140675748472,-0.510685947153,-0.0012117194284,-0.752729194447,-0.0559287072829,0.211814725146,-0.148087336195,0.573791237334,0.81898556664,0.00264660058518,0.0,0.818949379388,-0.573727769931,-0.0117943592954,0.0,-0.00814113852121,0.00893510394883,-0.999926940222,0.0,0.613292831976,0.197742471747,0.303905007549,1.0,-0.121438285714,-0.159604604082,1.549
0.417351683759,0.306853410239,-0.125372091313,-1.72142611382,0.0540421996407,2.02050064749,0.0997037039413,-0.141402965243,-0.528860782905,-0.00454089100751,-0.769653292849,-0.0675522031201,0.239401801679,-0.150902950492,0.57373112614,0.819027185631,0.00279481598906,0.0,0.818993705497,-0.573668015588,-0.0116217532735,0.0,-0.00791538772902,0.00895687074387,-0.999928558,0.0,0.611261662371,0.195003401433,0.304008799749,1.0,-0.124585714286,-0.16374122449,1.566
0.414919555942,0.29840198896,-0.12540465122,-1.73381163628,0.0530375493848,2.02422238581,0.0971945345101,-0.160474841148,-0.533901406948,0.000695254986281,-0.806507283903,-0.0667294983355,0.227197772409,-0.153201377518,0.573742217743,0.819020027587,0.00260938526882,0.0,0.818983488954,-0.573679038844,-0.0117962753529,0.0,-0.00816459332573,0.00890523608698,-0.99992701543,0.0,0.609196939394,0.192347083528,0.303919053025,1.0,-0.127548,-0.167634514286,1.582
0.412225964842,0.289120971177,-0.125521869965,-1.74688788215,0.0519982859706,2.02831832396,0.0944733793315,-0.151334509316,-0.546841207684,-0.00590010909138,-0.780764744618,-0.0697015072349,0.251908107987,-0.162164653301,0.57385683727,0.818938908997,0.00285316480903,0.0,0.818905432298,-0.57379265551,-0.0116888124731,0.0,-0.00793545110381,0.00904435125039,-0.999927611543,0.0,0.607067189611,0.189448602541,0.304046684414,1.0,-0.130695428571,-0.171771134694,1.599
0.409470276427,0.279864789782,-0.125580620508,-1.76032714954,0.0508426047959,2.03231476517,0.0916013690951,-0.166349285975,-0.552115536025,0.000945836237655,-0.807031314019,-0.0659006340856,0.233922831665,-0.177271954512,0.573806422369,0.818974874058,0.00266312058655,0.0,0.818938610887,-0.573742572592,-0.0118219666089,0.0,-0.00815410494996,0.0089646252358,-0.999926570337,0.0,0.604782545738,0.186502705005,0.303956247636,1.0,-0.133842857143,-0.175907755102,1.616
0.40672611445,0.270857579665,-0.125639448145,-1.77295102432,0.0497338264112,2.03617008231,0.0888472638747,-0.170535308213,-0.562672135575,-0.00860774219988,-0.809743304128,-0.0727482671606,0.243973026867,-0.172989262404,0.573820221119,0.818964680794,0.0028199909137,0.0,0.818930751098,-0.573756133856,-0.0117077184124,0.0,-0.00797037424272,0.00902767665602,-0.999927484465,0.0,0.602664135704,0.183661098876,0.30405523115,1.0,-0.136805142857,-0.179801044898,1.632
0.403698804885,0.26127859192,-0.125778680212,-1.78661922332,0.0485315344404,2.04023481797,0.0858649984497,-0.179767743507,-0.56052491121,-0.00393175915514,-0.795594222039,-0.0719178397112,0.234669972445,-0.177142501555,0.573923973449,0.81889220931,0.0027512057377,0.0,0.818857460868,-0.573860198783,-0.0117336240944,0.0,-0.00802992048717,0.00898722653986,-0.999927372431,0.0,0.600332037502,0.180516518867,0.304021558014,1.0,-0.139952571429,-0.183937665306,1.649
0.400368091098,0.250869971481,-0.125888978645,-1.80114356347,0.0472113425502,2.04452323998,0.0826373941382,-0.189236058179,-0.579377140742,-0.00361257084331,-0.81464702352,-0.0718826763703,0.244561352098,-0.183099985291,0.57401510221,0.81882804226,0.0028366431094,0.0,0.818794759206,-0.573951421363,-0.0116471074892,0.0,-0.0079090351523,0.00900841754755,-0.999928145207,0.0,0.597828397865,0.17714569932,0.304097498086,1.0,-0.143285142857,-0.188317616327,1.667
0.397333616871,0.241597656944,-0.125889661955,-1.81435691704,0.0460386626031,2.04830173374,0.0795828205762,-0.19512870002,-0.575683605794,-0.00057264877229,-0.829109732951,-0.0758073175193,0.219954933619,-0.188983387582,0.573919918901,0.818895256977,0.00268918019655,0.0,0.818859426381,-0.573856061526,-0.0117986175874,0.0,-0.00811878593668,0.00897369497353,-0.999926776376,0.0,0.595466633329,0.174150565656,0.304007256704,1.0,-0.146247428571,-0.192210906122,1.683
0.394018182826,0.231428731537,-0.125906301167,-1.82822402249,0.0448120479833,2.05245345387,0.0763379259187,-0.193727294746,-0.592601143098,0.00244020185616,-0.814900808079,-0.0754968319314,0.241205739373,-0.193762393905,0.57389249346,0.818913207662,0.00305142074776,0.0,0.818882174392,-0.573827492811,-0.0116077499655,0.0,-0.00775489994664,0.00916053099667,-0.999927970505,0.0,0.593026384173,0.170956577067,0.304172492752,1.0,-0.149394857143,-0.196347526531,1.7
0.390336531409,0.220673186459,-0.12591925565,-1.84338083039,0.0433448518494,2.05657980093,0.072694586927,-0.212588845965,-0.605993056539,-0.00420820352088,-0.834217130346,-0.0703453231783,0.227910557302,-0.205639303234,0.573756493067,0.819009512056,0.00276635608592,0.0,0.818974502338,-0.573692173098,-0.0117814238239,0.0,-0.00806221656551,0.00902541728256,-0.999926768572,0.0,0.590235631545,0.167417548223,0.304065448639,1.0,-0.152727428571,-0.200727477551,1.718
0.387133184402,0.211436084648,-0.126020024865,-1.85588339321,0.0422332523543,2.06017798219,0.0696295310919,-0.214208041898,-0.613232165102,-0.00886324051671,-0.852868484486,-0.0779583005782,0.238475135785,-0.208641977532,0.573827595726,0.818958711968,0.00304390807858,0.0,0.818927234627,-0.573762219655,-0.0116553243112,0.0,-0.00779890008289,0.00918106271606,-0.99992743999,0.0,0.587834512311,0.164195103162,0.304197015623,1.0,-0.155689714286,-0.204620767347,1.734
0.383407614581,0.20101618613,-0.126112323738,-1.87036667715,0.0408315256903,2.0640020608,0.0659997199642,-0.22378594866,-0.620155408961,-0.00297865081173,-0.851640454673,-0.0781126313087,0.227210019131,-0.211969512003,0.573771775367,0.818998695536,0.0027988217534,0.0,0.8189636404,-0.573706810888,-0.0118236096481,0.0,-0.00807797330195,0.00907636149912,-0.99992618028,0.0,0.585268692832,0.160893038989,0.304111412459,1.0,-0.158652,-0.208514057143,1.75
0.379004349576,0.189080875808,-0.12625330832,-1.88652798847,0.0392906274277,2.06849194057,0.0618360988616,-0.236926339223,-0.621731538856,-0.013368125438,-0.836333735633,-0.0874029205654,0.228405217082,-0.224361713166,0.573837193035,0.818952233136,0.00297701732935,0.0,0.818919681566,-0.57377180142,-0.0117141768829,0.0,-0.00788537453956,0.00916014482572,-0.99992695364,0.0,0.582282517301,0.156868717441,0.304189032807,1.0,-0.162169714286,-0.213137338775,1.769
0.375099258566,0.178915834715,-0.126407832044,-1.90027162071,0.0379825418265,2.07209856372,0.0582189870241,-0.241472426677,-0.639287230883,-0.00654005899155,-0.841269430803,-0.0812519854287,0.23186440379,-0.230821377979,0.57397067256,0.818858650271,0.00298744346083,0.0,0.818825874058,-0.573904808671,-0.0117560817699,0.0,-0.00791221341744,0.00919401917653,-0.999926430739,0.0,0.579687496425,0.15335309682,0.304214441169,1.0,-0.165132,-0.217030628571,1.785
0.370919755485,0.168052702544,-0.126463113408,-1.91502780511,0.0364589362404,2.07596902406,0.0542934688702,-0.250476885705,-0.645181226983,-0.0014741323762,-0.873838595184,-0.0872078688442,0.235824180378,-0.242134799324,0.573912896386,0.818899445405,0.00290389010858,0.0,0.818865737625,-0.573847512789,-0.011776362353,0.0,-0.00797742007361,0.00913667825203,-0.999926438234,0.0,0.576840559725,0.149664410897,0.304177261509,1.0,-0.168279428571,-0.22116724898,1.802
0.366585433077,0.156947164087,-0.126489519703,-1.9297488204,0.0349929611328,2.07983140484,0.0502227980279,-0.257975180144,-0.654870980292,-0.00762335211282,-0.845342006787,-0.0913528566385,0.237890595443,-0.230227063273,0.573840914883,0.818949223022,0.00308567959246,0.0,0.818917846475,-0.573774876076,-0.0116918437747,0.0,-0.00780469121373,0.00923635424357,-0.999926885605,0.0,0.573981647592,0.14594967576,0.30426446831,1.0,-0.171426857143,-0.225303869388,1.819
0.362358912422,0.146529166331,-0.126567274474,-1.94383181561,0.0334816075206,2.0833211486,0.0463194943819,-0.269251543951,-0.64910904684,-0.00901074707005,-0.880946951677,-0.0910503763252,0.211160893306,-0.247883683395,0.573808794657,0.818972497955,0.00287431198193,0.0,0.818938380784,-0.573743502108,-0.0117927591817,0.0,-0.00800898181988,0.00912084893669,-0.999926330449,0.0,0.5711792964,0.142326138471,0.30417676563,1.0,-0.174389142857,-0.229197159184,1.835
0.357410530604,0.134512252769,-0.126691982223,-1.95954532054,0.0319114630702,2.08728118159,0.0417218022458,-0.280765330956,-0.678195593749,-0.0108708667527,-0.874858130674,-0.0915029343299,0.222625002927,-0.266381066508,0.573819946206,0.818963912287,0.00308652060998,0.0,0.8189323411,-0.573753664213,-0.0117175254846,0.0,-0.00782547866826,0.0092515795138,-0.999926582385,0.0,0.568061870557,0.138191193606,0.304276458824,1.0,-0.177721714286,-0.233577110204,1.853
0.352520342224,0.123157188073,-0.126856218278,-1.97461122207,0.0302856424515,2.0908556234,0.0373068871372,-0.293255411086,-0.668190415451,-0.00985530831714,-0.881017839259,-0.0943163832457,0.204481844465,-0.264976956894,0.573908817711,0.818902235632,0.00292306865874,0.0,0.818868383603,-0.573842914846,-0.0118163580491,0.0,-0.00799921379363,0.00917529723823,-0.999925910505,0.0,0.565002227781,0.134131930747,0.304217353417,1.0,-0.180869142857,-0.237713730612,1.87
0.348016316211,0.112899652706,-0.126999699088,-1.98782383868,0.0288676107021,2.09410558908,0.0332615060949,-0.302109970448,-0.668291050416,-0.0052639434118,-0.883396550458,-0.0915482686942,0.208682869941,-0.275536535541,0.57400574964,0.818833557501,0.00312272169182,0.0,0.818802742483,-0.573939660746,-0.0116654029653,0.0,-0.00775991898384,0.00925307960968,-0.999927079429,0.0,0.562338071148,0.130494586669,0.304316107721,1.0,-0.183646285714,-0.241363689796,1.885
0.342850706626,0.101248805118,-0.127076926422,-2.00294268707,0.027177700106,2.09754499195,0.0285307730408,-0.30658324807,-0.690807878112,-0.00697401367017,-0.890955030495,-0.101169924732,0.210708443554,-0.285856058855,0.573922343664,0.81889229392,0.00304980371768,0.0,0.81886049097,-0.573856461959,-0.0117048834776,0.0,-0.00783504015877,0.00921523534925,-0.999926843116,0.0,0.559174195651,0.126394236148,0.304316751421,1.0,-0.186793714286,-0.245500310204,1.902
0.337543860683,0.089481121291,-0.127114354762,-2.01809713172,0.0256048049536,2.10101721843,0.0236808897824,-0.314991289937,-0.696944543437,0.000241528265828,-0.899156381558,-0.0928554364814,0.195565012702,-0.286270799747,0.573851462749,0.818941590673,0.00314907407342,0.0,0.81891026234,-0.573784285412,-0.0117610777011,0.0,-0.0078248971172,0.00932810031274,-0.999925876018,0.0,0.555968353627,0.122297856889,0.304329870308,1.0,-0.189941142857,-0.249636930612,1.919
0.332647469889,0.0789273094922,-0.127210816933,-2.0314809005,0.024093050538,2.10394302162,0.0191855553631,-0.329161790114,-0.711376510781,-0.00552573856852,-0.881212885654,-0.10629807081,0.216452181006,-0.297770160803,0.57376503273,0.819001846067,0.00322649284558,0.0,0.818971613333,-0.573697711339,-0.011712363579,0.0,-0.00774156488099,0.009362730985,-0.999926200998,0.0,0.552916015535,0.118295976721,0.304400825946,1.0,-0.192903428571,-0.253530220408,1.935
0.327260673718,0.067650811342,-0.127370057811,-2.0458556234,0.0224638374062,2.10710990802,0.0143791142771,-0.337634104968,-0.706243494543,-0.011675655492,-0.913460145886,-0.108196659035,0.194359606605,-0.305678936731,0.57382342595,0.818960955228,0.00322126446345,0.0,0.818930566336,-0.573756007553,-0.0117268162122,0.0,-0.00775573409101,0.00936729413516,-0.99992604846,0.0,0.550013658984,0.114459666676,0.304378443959,1.0,-0.195680571429,-0.257180179592,1.95
0.320515154248,0.0540466665954,-0.127559939567,-2.0628478751,0.020455086051,2.11064281333,0.00842757254035,-0.361477596425,-0.730543317017,-0.00557053315824,-0.90129083662,-0.097384257614,0.191420220841,-0.323328629134,0.573915984038,0.818895855796,0.00328139092686,0.0,0.818866579883,-0.573848757463,-0.0116565350992,0.0,-0.00766261370861,0.00937707371519,-0.999926674732,0.0,0.546304314414,0.109463635296,0.304453839026,1.0,-0.199198285714,-0.261803461224,1.969
0.314794005738,0.0426662877928,-0.127630296592,-2.07732925478,0.0188239556621,2.1135383763,0.00333349420188,-0.359393446169,-0.714146994059,-0.00468838677851,-0.895661312511,-0.107023580653,0.166230102256,-0.327184951461,0.573891256548,0.818913746246,0.00313827472844,0.0,0.818881498681,-0.57382318634,-0.0118654472424,0.0,-0.00791611545762,0.00937953212538,-0.99992467691,0.0,0.543045366429,0.105329222738,0.304346526774,1.0,-0.19998,-0.262830857143,1.985
0.30849265083,0.0304935990937,-0.127710122754,-2.09230630419,0.0169981472585,2.11657247279,-0.00225047675875,-0.369737410891,-0.717804140097,-0.00195075948298,-0.892512853455,-0.109848492054,0.173486748266,-0.326067728325,0.573845393459,0.818945379851,0.00326743441216,0.0,0.818915391491,-0.573777574616,-0.0117312978461,0.0,-0.00773266045617,0.00940788469002,-0.999925846085,0.0,0.539687246866,0.100881016859,0.304417285949,1.0,-0.19998,-0.262830857143,2.002
0.30168481733,0.0176920139023,-0.12785407716,-2.10805225097,0.0151011668666,2.11947453727,-0.00827374196036,-0.380366037078,-0.716026295728,-0.00836676057788,-0.851228058361,-0.102798528487,0.159777465889,-0.338869853212,0.573854823536,0.818938941766,0.00322460295212,0.0,0.818907944615,-0.573786603472,-0.0118092685534,0.0,-0.00782098649491,0.00941764001626,-0.999925067306,0.0,0.536062923626,0.0961283819267,0.304420346711,1.0,-0.19998,-0.262830857143,2.02
0.29620780456,0.00782153391989,-0.128013705699,-2.12009028994,0.0135972714488,2.12169175187,-0.0130188862716,-0.392856902263,-0.691544956295,-0.00678651045241,-0.880372024074,-0.100716669765,0.144734675833,-0.343538703875,0.57397038438,0.818857924926,0.00323164673984,0.0,0.818827148768,-0.573902279797,-0.0117906991189,0.0,-0.00780040816445,0.00941385343703,-0.999925263705,0.0,0.533284906698,0.0923612031644,0.304433538065,1.0,-0.19998,-0.262830857143,2.034
0.288795062439,-0.00559313082335,-0.12806953931,-2.13617809773,0.0116959916012,2.12456344118,-0.0195903866631,-0.386585409518,-0.713559852975,0.00060717339861,-0.845648528519,-0.106206339079,0.160584870853,-0.35794420313,0.573906731711,0.818901735839,0.00342888291093,0.0,0.818873042866,-0.573837371028,-0.011762575389,0.0,-0.00766491982227,0.00955862501406,-0.999924938029,0.0,0.529494856196,0.0874375100029,0.304515712648,1.0,-0.19998,-0.262830857143,2.053
0.281622442341,-0.0181119629196,-0.128106785169,-2.15128993052,0.00972209267418,2.12711506838,-0.025856734943,-0.406474510311,-0.702017956931,-0.00263325640764,-0.863553847829,-0.114523677289,0.124650028328,-0.356341082561,0.573823118582,0.818960688496,0.0033415834125,0.0,0.818930992235,-0.573754229601,-0.0117839243927,0.0,-0.00773347211069,0.00949859734124,-0.999924982215,0.0,0.52586491384,0.0827472358906,0.304486206506,1.0,-0.19998,-0.262830857143,2.071
0.275112854428,-0.0292897572486,-0.128239402751,-2.16433765865,0.00806118072932,2.129231454,-0.031569601501,-0.411148141404,-0.697569051393,-0.0137163373597,-0.804573053962,-0.106236631292,0.141116825031,-0.352140593166,0.573843156421,0.818945860134,0.00352943334946,0.0,0.818918883591,-0.573773991091,-0.0116625960784,0.0,-0.00752608261805,0.0095830050665,-0.999925759291,0.0,0.522709781296,0.0785396982949,0.304607692504,1.0,-0.19998,-0.262830857143,2.087
0.267963828737,-0.0409302863277,-0.128403260555,-2.17826515128,0.00627270025561,2.13136971762,-0.0377233687587,-0.421271902912,-0.687942285349,-0.00463298785217,-0.837630884032,-0.0955839014164,0.117395145098,-0.366023008703,0.573975487232,0.818853585165,0.00341950578108,0.0,0.818824517912,-0.573905834563,-0.0118003738123,0.0,-0.007700452341,0.00957328479655,-0.999924524778,0.0,0.51927694811,0.0739841559942,0.304532412416,1.0,-0.19998,-0.262830857143,2.104
0.260430264137,-0.0532661117889,-0.128456971105,-2.19251047402,0.00443781417911,2.13355047823,-0.0443518836618,-0.427153247651,-0.687395841117,-0.00223737740443,-0.7934240739,-0.105240605462,0.125161382865,-0.366756912719,0.573900491517,0.818905211839,0.00363686152198,0.0,0.818879242594,-0.573830477908,-0.0116668579578,0.0,-0.00746725256991,0.00967395217851,-0.999925324606,0.0,0.515731224724,0.0693369184248,0.304633420547,1.0,-0.19998,-0.262830857143,2.122
0.254417378885,-0.0626919381844,-0.128535820789,-2.20369788549,0.00295434642675,2.1350652858,-0.0496243315734,-0.42739964816,-0.681366206891,-0.0102989529381,-0.802717998008,-0.108239672765,0.100294779615,-0.371972684559,0.573859154332,0.818935070696,0.00343043368957,0.0,0.818905509474,-0.573788689973,-0.0118765615296,0.0,-0.00775793806742,0.00962485991239,-0.999923585315,0.0,0.512659504354,0.0653892520107,0.304519019498,1.0,-0.19998,-0.262830857143,2.137
0.246554828831,-0.0749038190251,-0.128734143576,-2.21761924658,0.00106506832911,2.13692107151,-0.0564943034897,-0.439365750395,-0.686844313191,-0.0164152324879,-0.762409132381,-0.104952413567,0.103796765186,-0.383569352018,0.573915563648,0.818894989233,0.00355939776048,0.0,0.818867406815,-0.573845022904,-0.0117816232144,0.0,-0.00760551595569,0.00967651804471,-0.999924257694,0.0,0.509301607411,0.0608844702242,0.304599831641,1.0,-0.19998,-0.262830857143,2.154
0.238943512904,-0.0862422750102,-0.128852128985,-2.23075714825,-0.000651497285995,2.13855682624,-0.0631134419828,-0.441778407066,-0.676968613304,-0.00617863786031,-0.764543471092,-0.0994299470967,0.0886182085193,-0.391715986997,0.573965653583,0.818860191017,0.00348754575045,0.0,0.818830571185,-0.573893969728,-0.011956341563,0.0,-0.00778924062783,0.00971842558834,-0.999922436959,0.0,0.505860758603,0.0563914282681,0.304521229477,1.0,-0.19998,-0.262830857143,2.171
0.231783198587,-0.096936320371,-0.12888870446,-2.24275358317,-0.00232503320959,2.13997393119,-0.0694273489068,-0.450751039152,-0.674438550488,-0.00143642207918,-0.748192124264,-0.109966306747,0.0906948394244,-0.396672423672,0.573839966364,0.818947944809,0.00356421060189,0.0,0.818919611139,-0.573768386691,-0.0118851095151,0.0,-0.0076884026699,0.0097391403131,-0.999923015842,0.0,0.50267927636,0.0522623457885,0.304578601057,1.0,-0.19998,-0.262830857143,2.187
0.223968902266,-0.108154268048,-0.12901376143,-2.25544795186,-0.00410524693964,2.14133942171,-0.0761878594219,-0.465411942001,-0.662950709797,-0.0120635604655,-0.74036253002,-0.0957146312542,0.0727732877578,-0.392750938106,0.573885795009,0.818916157378,0.00348831950242,0.0,0.818886365735,-0.573813893118,-0.0119784380526,0.0,-0.00780784059243,0.00973098007616,-0.999922169797,0.0,0.499253768067,0.0477881312987,0.304538903743,1.0,-0.19998,-0.262830857143,2.204
0.21591725241,-0.119397891366,-0.129219064578,-2.2678368814,-0.00591365173024,2.14261685655,-0.0831510098866,-0.469020094661,-0.663580468479,-0.0116677782099,-0.724421607924,-0.101768940183,0.0829159739251,-0.411314591982,0.573997783331,0.818837324818,0.00356750850943,0.0,0.818809062123,-0.573926204618,-0.0118818491556,0.0,-0.00768196285928,0.00974145092703,-0.999923042829,0.0,0.495885305133,0.0432249426032,0.304602168471,1.0,-0.19998,-0.262830857143,2.221
0.208373181174,-0.129816097359,-0.129290263514,-2.2793788259,-0.00747216524833,2.14368850249,-0.0898053483884,-0.473536851857,-0.650731780033,-0.00474375152777,-0.728494042889,-0.0933221197655,0.0593306977813,-0.424763491928,0.573944098328,0.81887481647,0.0035991452653,0.0,0.818846106989,-0.573871324327,-0.0119792772936,0.0,-0.00774423133582,0.00982277071263,-0.999921766968,0.0,0.492673591505,0.039084831174,0.304587946414,1.0,-0.19998,-0.262830857143,2.237
0.200149251886,-0.140877493479,-0.12940422476,-2.29144192971,-0.00923939026626,2.14472635433,-0.0970066232827,-0.487116523571,-0.651858586327,-0.00821413040527,-0.68566773837,-0.0998079515102,0.0671839663931,-0.41766257661,0.573917836652,0.818893098173,0.00362731835857,0.0,0.818864852971,-0.573845087227,-0.011954720234,0.0,-0.00770826747841,0.00983149997572,-0.999921959065,0.0,0.489276874689,0.0346167631266,0.304612644359,1.0,-0.19998,-0.262830857143,2.254
0.191751722448,-0.151864807649,-0.129606208064,-2.30330503582,-0.0109722525936,2.14572843534,-0.104313735241,-0.500327177781,-0.655745291719,-0.0113912259369,-0.703418504181,-0.101620238199,0.0356507282728,-0.431422207533,0.574020750997,0.818820454244,0.00374005852633,0.0,0.818793891943,-0.573947861355,-0.0118811558498,0.0,-0.00758208081592,0.00988255735035,-0.999922420546,0.0,0.485903482553,0.0300954392116,0.304649214947,1.0,-0.19998,-0.262830857143,2.271
0.183812306742,-0.16210117022,-0.129670176416,-2.31438176053,-0.0126135121944,2.14637946114,-0.111313669468,-0.492760558987,-0.634989424705,-0.00650667468707,-0.678167623698,-0.0996030254001,0.046720213407,-0.424862415536,0.573926092703,0.818887312427,0.00362719748357,0.0,0.818858533687,-0.573852665121,-0.0120236201909,0.0,-0.00776466257468,0.00987102101682,-0.99992113337,0.0,0.482651369014,0.0259397968322,0.304614233431,1.0,-0.19998,-0.262830857143,2.287
0.174692596202,-0.173545483074,-0.129730528049,-2.32644064177,-0.0143364194579,2.14720804073,-0.119353876536,-0.509498341811,-0.623027610133,-0.00206703700387,-0.675393128519,-0.100071733862,0.0385110514892,-0.451265535822,0.573875445679,0.81892183272,0.00384078682142,0.0,0.818896081344,-0.573801567352,-0.0119044598761,0.0,-0.00754511786815,0.00997707458387,-0.999921761529,0.0,0.479110130807,0.0212710931814,0.304691526626,1.0,-0.19998,-0.262830857143,2.305
0.16590393613,-0.184254992452,-0.129931934261,-2.33788599173,-0.0160928986213,2.14773172447,-0.127075789187,-0.530578367493,-0.631950975901,-0.0151567322528,-0.667162883091,-0.102580886693,0.028299585523,-0.467868188855,0.573908270285,0.818899406925,0.00371558047312,0.0,0.818871224089,-0.573833801086,-0.0120596016375,0.0,-0.00774362405136,0.00996387888189,-0.999920375532,0.0,0.475649867335,0.0167602900801,0.304629663377,1.0,-0.19998,-0.262830857143,2.322
0.157538542868,-0.194348825729,-0.130014406137,-2.348205424,-0.0176680426331,2.14827951158,-0.134468693787,-0.518969700829,-0.631236291164,0.000615629771859,-0.649133908223,-0.0989897423547,0.0363854668924,-0.466119033402,0.573857151796,0.818934107344,0.00395525750624,0.0,0.818910153081,-0.573783293011,-0.0118169684477,0.0,-0.00740800045753,0.0100204453108,-0.999922353088,0.0,0.472524070415,0.0125943932863,0.304755280719,1.0,-0.19998,-0.262830857143,2.338
0.149023549617,-0.204211720865,-0.130120814642,-2.35858643875,-0.0192269719924,2.14858803461,-0.142008133812,-0.535777000398,-0.623871453725,-0.00607541840467,-0.644805154081,-0.0984854470159,0.0117880566605,-0.479047396392,0.573822336459,0.818958914213,0.00386909716246,0.0,0.818932799097,-0.573747395994,-0.0119892891434,0.0,-0.0075989971015,0.0100484459417,-0.99992063884,0.0,0.469282751052,0.00840676768177,0.304691967194,1.0,-0.19998,-0.262830857143,2.354
0.138697232395,-0.215956973983,-0.130352141082,-2.37054540156,-0.0210538606712,2.14889420071,-0.151072150172,-0.54747757532,-0.629298460621,-0.00796157508169,-0.611761438497,-0.0996602721899,0.0187828805992,-0.471492272386,0.573952471551,0.818867049,0.00400791270889,0.0,0.818842662971,-0.573876903052,-0.0119473989825,0.0,-0.00748342689407,0.0101392843027,-0.999920593465,0.0,0.465503721181,0.00336762524423,0.304751533229,1.0,-0.19998,-0.262830857143,2.373
0.130546881709,-0.225070782894,-0.130411084755,-2.37984891881,-0.0225426614437,2.14910735607,-0.158329457168,-0.539591849684,-0.6014884533,-0.00193740964983,-0.623970255191,-0.104291137524,0.00925168778747,-0.486753831535,0.5738426253,0.818943950577,0.00402418969192,0.0,0.818920083203,-0.573767432802,-0.0118986252802,0.0,-0.00743550136121,0.0101236230367,-0.999921109676,0.0,0.462519847694,-0.000500722495936,0.304755801568,1.0,-0.19998,-0.262830857143,2.388
0.121060322728,-0.235285991393,-0.130546539865,-2.39033740306,-0.0241989525753,2.14914040141,-0.166767869304,-0.560670352815,-0.599484906271,-0.0100503584759,-0.607158662551,-0.101546826573,-0.000949897050534,-0.501637484999,0.573805868916,0.818970248237,0.00391205839616,0.0,0.818943907033,-0.573729730287,-0.0120756209046,0.0,-0.00764525723626,0.0101330136253,-0.999919432793,0.0,0.459069661391,-0.00496239329579,0.304682809775,1.0,-0.19998,-0.262830857143,2.405
0.110771823833,-0.246134603975,-0.130757028439,-2.40093635108,-0.0259090230133,2.14923110043,-0.175846535791,-0.57152962052,-0.598675745411,-0.00912027814754,-0.587102928873,-0.0887852605626,-0.000956347183927,-0.511509626837,0.573920071388,0.818888902385,0.00417900823211,0.0,0.818867291748,-0.573844673148,-0.011806629747,0.0,-0.00727035643823,0.0101983112896,-0.999921565106,0.0,0.455558750798,-0.0097530197249,0.30481637577,1.0,-0.19998,-0.262830857143,2.423
0.101684717221,-0.255582278343,-0.130860274211,-2.41045234874,-0.0273614224443,2.14917671914,-0.184068769147,-0.574429153507,-0.583950642035,-0.00844343155223,-0.604234210933,-0.0923055702625,-0.00571217266166,-0.521365640864,0.573800826691,0.818972411698,0.00418892212775,0.0,0.818950069267,-0.573724208737,-0.0119190292718,0.0,-0.00735821178298,0.0102698646429,-0.999920190115,0.0,0.452330845435,-0.0138718811016,0.304762496274,1.0,-0.19998,-0.262830857143,2.439
0.0916936511417,-0.265539952671,-0.131051466371,-2.42027479973,-0.0289973540781,2.14902785869,-0.192881177245,-0.588634157964,-0.58570019009,-0.0149091108413,-0.560170565509,-0.0926582593768,-0.00803868684061,-0.518347869873,0.573905338151,0.818899071695,0.00420952722186,0.0,0.818877071604,-0.573828735079,-0.0119025753972,0.0,-0.00733160141855,0.0102782347703,-0.999920299579,0.0,0.448933797303,-0.0183844612176,0.304758992404,1.0,-0.19998,-0.262830857143,2.456
0.0815880978111,-0.275433053464,-0.13119785315,-2.4297418307,-0.0305805425719,2.14885850688,-0.201914990521,-0.586930909076,-0.57408947634,-0.00695692856463,-0.558137867037,-0.0909318028085,-0.013745369267,-0.530934550389,0.573909056801,0.818895469517,0.00439902583577,0.0,0.818877101906,-0.573833503137,-0.0116683140495,0.0,-0.00703095647401,0.0102990109261,-0.99992224499,0.0,0.445610968788,-0.0228612407573,0.304854609957,1.0,-0.19998,-0.262830857143,2.473
0.0720781499493,-0.284575567456,-0.131324436848,-2.4387433866,-0.0320769080425,2.14849859526,-0.210613372423,-0.60566308219,-0.571688940666,-0.0158588989912,-0.551485623982,-0.0927338856124,-0.017518736116,-0.548953722214,0.573728021126,0.81902281374,0.0043052582294,0.0,0.819002422012,-0.573651632381,-0.0118145802523,0.0,-0.0072068311041,0.0103045710608,-0.999920935575,0.0,0.442365086865,-0.0270012660497,0.304783395037,1.0,-0.19998,-0.262830857143,2.489
0.060916640776,-0.294813802547,-0.131543846866,-2.44845534046,-0.0336134661228,2.14808840465,-0.220488387679,-0.625482617901,-0.568186680579,-0.00995133134217,-0.526048533581,-0.0845270757356,-0.0212317618769,-0.545943342725,0.573957655494,0.818860815865,0.00450786448386,0.0,0.818843027774,-0.573880519717,-0.0117469935137,0.0,-0.00703231247356,0.0104337111402,-0.999920838993,0.0,0.438797054772,-0.0318146687532,0.304836500833,1.0,-0.19998,-0.262830857143,2.507
0.0505082140752,-0.304368776055,-0.131631962923,-2.45741665758,-0.0351967284066,2.14763048652,-0.229966262586,-0.60924472336,-0.558140852069,-0.00701888202316,-0.532652561208,-0.0877634284049,-0.0367619404105,-0.568550690273,0.5737850432,0.818981379694,0.00457939029504,0.0,0.818965572097,-0.573709292935,-0.0115665820639,0.0,-0.00684570836992,0.0103872947697,-0.999922617198,0.0,0.435445525112,-0.0362043207761,0.304897370704,1.0,-0.19998,-0.262830857143,2.524
0.0410787697355,-0.312643686962,-0.131795736838,-2.46537171377,-0.0365072634325,2.14702069757,-0.238434254017,-0.638753045665,-0.555502441899,-0.00767348930475,-0.527723764284,-0.0885734912882,-0.0310625319096,-0.569194297269,0.573845236988,0.81893966368,0.004496458601,0.0,0.818921376104,-0.573767637069,-0.0117993776706,0.0,-0.00708319232794,0.0104534640024,-0.99992027356,0.0,0.432376687192,-0.040143833143,0.304818853456,1.0,-0.19998,-0.262830857143,2.539
0.029502809424,-0.322478164175,-0.131983025653,-2.47443192465,-0.0381386693949,2.1463809159,-0.2488100631,-0.626332212577,-0.55125802956,-0.00204994904015,-0.488581477809,-0.0880213279111,-0.0260299870725,-0.570222902462,0.573927542858,0.818881463961,0.00459025387114,0.0,0.818865367331,-0.573851085517,-0.0116270691956,0.0,-0.0068872018777,0.0104320960266,-0.999921865859,0.0,0.428824920598,-0.0449369366162,0.304882459796,1.0,-0.19998,-0.262830857143,2.557
0.0187080462763,-0.331611924612,-0.132102526851,-2.48283950535,-0.0395165849803,2.14573928317,-0.25880090025,-0.647871538729,-0.523152158893,-0.00838282627704,-0.505619014971,-0.0828213739429,-0.0500210029208,-0.595292406653,0.573760994531,0.818997302825,0.00474194279536,0.0,0.818983335399,-0.573684362501,-0.0115453653987,0.0,-0.00673537436896,0.0105080547728,-0.999922104725,0.0,0.425475831612,-0.0492945311163,0.30491414705,1.0,-0.19998,-0.262830857143,2.574
0.00674405603192,-0.341132874038,-0.132346849189,-2.49166852959,-0.0410623638601,2.14479666292,-0.26952078926,-0.665385178074,-0.530479071222,-0.00770824794751,-0.486784381374,-0.0892625333621,-0.0538576868456,-0.594298980545,0.573951926203,0.818863818275,0.00468832905075,0.0,0.818848064219,-0.573873742071,-0.0117270110408,0.0,-0.00691244918748,0.0105699732478,-0.999920243675,0.0,0.421814856912,-0.0541126856467,0.304863419003,1.0,-0.19998,-0.262830857143,2.592
-0.00310824518829,-0.348963811649,-0.132434248519,-2.49877733821,-0.0423310423419,2.14402327723,-0.278606704154,-0.654144790925,-0.525225987907,-0.0130522790688,-0.468240944348,-0.0803066883485,-0.0506449758322,-0.608320137299,0.573810604765,0.818962827537,0.0046929600404,0.0,0.818947173104,-0.573732489513,-0.011717723478,0.0,-0.00690400922828,0.0105672438062,-0.999920330834,0.0,0.418824743949,-0.0579827750743,0.304871525909,1.0,-0.19998,-0.262830857143,2.607
-0.0145750097244,-0.357700856106,-0.132667328861,-2.50650234275,-0.0437199082237,2.14320702434,-0.289097913257,-0.687412958508,-0.501571387016,-0.015200716028,-0.459591296921,-0.0905966798161,-0.0523859225754,-0.621153809218,0.573868188736,0.818921412292,0.00487538188237,0.0,0.818909052446,-0.573790961382,-0.0115170899258,0.0,-0.00663426922041,0.010601990014,-0.999921789081,0.0,0.415494042214,-0.0624953126205,0.304952247185,1.0,-0.19998,-0.262830857143,2.624
-0.026176458058,-0.366262619831,-0.132789403282,-2.51430744885,-0.0451748466932,2.14214105979,-0.299737213635,-0.676136886737,-0.501784172847,-0.000989482625317,-0.455458104114,-0.0714688159812,-0.0515104597663,-0.623157398049,0.573790625513,0.818976644356,0.00472450776345,0.0,0.818961429197,-0.573712458395,-0.0117021139866,0.0,-0.00687338141487,0.0105839567084,-0.999920365073,0.0,0.412030182432,-0.0669449418989,0.304880560952,1.0,-0.19998,-0.262830857143,2.641
-0.0371048639006,-0.374174217711,-0.132966087541,-2.52141703557,-0.0463756524575,2.14115459053,-0.309857107339,-0.696334920741,-0.489243625824,-0.00989103701866,-0.442990667209,-0.0798945549444,-0.0596311438765,-0.636086236582,0.573786683675,0.818979216389,0.00475727461279,0.0,0.818963209861,-0.573706539126,-0.0118665395162,0.0,-0.00698930424618,0.0107051013491,-0.999918271876,0.0,0.408605283074,-0.0713572420903,0.304833699814,1.0,-0.19998,-0.262830857143,2.658
-0.0498324373953,-0.382970711198,-0.133168827414,-2.52892319594,-0.0478463815857,2.14011150611,-0.321414351325,-0.696702130628,-0.47995564685,-0.00340128960028,-0.415114605617,-0.0803873682198,-0.0572964058225,-0.646787641442,0.573907895342,0.818893425186,0.00490232101923,0.0,0.818881105689,-0.573830089174,-0.0115546702792,0.0,-0.00664907222943,0.0106459395253,-0.999921223802,0.0,0.405283776184,-0.075907409582,0.304953891493,1.0,-0.19998,-0.262830857143,2.675
-0.0610343666072,-0.390577967884,-0.133298870028,-2.53561826853,-0.0490668750428,2.13907549156,-0.331891686654,-0.708884651882,-0.47318186432,-0.00359479060907,-0.425877162506,-0.0785939797095,-0.0669166765804,-0.647603651648,0.573772769371,0.818988096055,0.00490454384155,0.0,0.818975427097,-0.57369437467,-0.0116086685412,0.0,-0.00669378101006,0.0106776443627,-0.99992058745,0.0,0.402084012258,-0.0800425989755,0.304930951621,1.0,-0.19998,-0.262830857143,2.691
-0.0733059359581,-0.398539669529,-0.133531474607,-2.54255341265,-0.0503928655785,2.13784114078,-0.343183149624,-0.727742882469,-0.46517537779,-0.0101616656703,-0.400742197474,-0.0744644427718,-0.0677225772787,-0.669389130286,0.573861141165,0.818926377662,0.00487088615696,0.0,0.818912508341,-0.573781627814,-0.0117343157723,0.0,-0.00681484692863,0.0107229038896,-0.999919285339,0.0,0.398632234957,-0.0845619787259,0.304904852345,1.0,-0.19998,-0.262830857143,2.708
-0.0854634786293,-0.406321704831,-0.133632607755,-2.54923657591,-0.051615115743,2.13665463921,-0.354627558926,-0.718020917495,-0.458722760065,-0.004970974105,-0.381973243651,-0.0714000280056,-0.0651593041045,-0.68225972704,0.57368311135,0.819050903973,0.00490421796327,0.0,0.819037260353,-0.573603192612,-0.0117511905872,0.0,-0.00681187934199,0.0107584039556,-0.999918924235,0.0,0.395247137575,-0.0889270745301,0.304907769043,1.0,-0.19998,-0.262830857143,2.725
-0.0973289834957,-0.413444304434,-0.133861001919,-2.55516492098,-0.0527034333063,2.13564276017,-0.365542720607,-0.750675857568,-0.442311769115,-0.0123620062957,-0.372073650725,-0.0697250221657,-0.0675561419226,-0.68584906454,0.573882661294,0.818909830937,0.00511143444187,0.0,0.818899725641,-0.573803431901,-0.0115588834243,0.0,-0.00653285042375,0.0108194033502,-0.999920127998,0.0,0.392109950224,-0.0932145031232,0.304982554313,1.0,-0.19998,-0.262830857143,2.741
-0.109843344536,-0.420877799424,-0.133975948377,-2.5614555311,-0.0539016947383,2.13438173723,-0.37732854283,-0.738207634853,-0.430550447767,-0.00806376254672,-0.372197126698,-0.0743902567761,-0.0784668771668,-0.69956320675,0.573746114008,0.81900547759,0.0051157833122,0.0,0.818995200246,-0.573666517168,-0.0115903388322,0.0,-0.00655792365573,0.0108399225453,-0.999919741638,0.0,0.388709320132,-0.0976177062036,0.304981763512,1.0,-0.19998,-0.262830857143,2.758
-0.123408800292,-0.428503138321,-0.134210168002,-2.56796997895,-0.055214650594,2.13294071486,-0.389916827305,-0.762286899098,-0.42369170082,-0.0100474995219,-0.354522197065,-0.0744531240478,-0.0793804089185,-0.699486225743,0.573836658547,0.818942606488,0.00502428974256,0.0,0.818929891057,-0.57375530528,-0.0118080522866,0.0,-0.00678753490312,0.0108906439982,-0.999917658232,0.0,0.385035464636,-0.102377061648,0.304919744379,1.0,-0.19998,-0.262830857143,2.776
-0.135409644317,-0.43505060229,-0.134312694424,-2.57346795138,-0.0562485804241,2.13181606303,-0.401294523269,-0.757419002089,-0.401255651588,-0.0147669981317,-0.342839238526,-0.0650687937325,-0.0723493954793,-0.719023279373,0.573705909775,0.819033938411,0.0050679108937,0.0,0.819021664793,-0.57362422899,-0.0118111564326,0.0,-0.00676679177287,0.0109270694438,-0.99991740143,0.0,0.381867518358,-0.10650307973,0.304907333265,1.0,-0.19998,-0.262830857143,2.792
-0.148552127316,-0.441850479979,-0.13453457766,-2.57893283762,-0.0574081831467,2.13056469746,-0.413552537454,-0.784438576019,-0.404147758335,-0.0157367729612,-0.311042107273,-0.0716004069328,-0.0722107440637,-0.73099631342,0.573807969187,0.818961986143,0.00514068599755,0.0,0.818951467918,-0.573727352499,-0.0116689798329,0.0,-0.0066072259424,0.0109059359373,-0.999918699258,0.0,0.378705606476,-0.110783518101,0.304975407917,1.0,-0.19998,-0.262830857143,2.808
-0.161632954072,-0.448511689121,-0.134644364529,-2.58429534441,-0.0584235600904,2.12931765471,-0.425931746361,-0.771448611745,-0.386743697744,-0.0149797937763,-0.314448116529,-0.0587403236285,-0.0748266645051,-0.73549508822,0.573764165386,0.818991888047,0.0052646683931,0.0,0.818983557983,-0.573684145479,-0.0115403587807,0.0,-0.00643132726118,0.0109333316768,-0.999919546908,0.0,0.375152940576,-0.11546622818,0.305036734293,1.0,-0.19998,-0.262830857143,2.826
-0.174159361917,-0.454512730671,-0.134873053902,-2.58935810857,-0.0594144402342,2.12801017854,-0.437766902068,-0.787517930456,-0.373230385465,-0.0187529448737,-0.312182010617,-0.0650829711441,-0.0803557209729,-0.732376513206,0.573812412619,0.818958288593,0.00523293124564,0.0,0.818947733386,-0.573729444633,-0.0118271401385,0.0,-0.0066837763928,0.0110722701753,-0.999916362486,0.0,0.371871156712,-0.119670326452,0.30495082029,1.0,-0.19998,-0.262830857143,2.842
-0.18749842983,-0.460703076627,-0.134987730269,-2.59434727444,-0.0604198063155,2.12675740403,-0.450487528924,-0.779356652753,-0.361531114637,-0.0102852180018,-0.284472909549,-0.0529672714758,-0.0665235102056,-0.751374776157,0.57371026125,0.819029556618,0.00527905526139,0.0,0.819019738669,-0.573627381169,-0.0117916133239,0.0,-0.00662959682813,0.0110888335156,-0.999916539626,0.0,0.368497026228,-0.124088098168,0.304967369598,1.0,-0.19998,-0.262830857143,2.859
-0.201145556505,-0.466566171787,-0.135215022573,-2.59913918986,-0.0614667220305,2.12554804917,-0.46337434368,-0.811156110254,-0.345633863924,-0.0152906333957,-0.271259812256,-0.056896378654,-0.0758277557318,-0.75868689035,0.573796469427,0.81896917078,0.00527786762798,0.0,0.818959068308,-0.573713128405,-0.0118337497594,0.0,-0.00666362257492,0.0111127353419,-0.9999160481,0.0,0.365083171808,-0.128617409017,0.304937082769,1.0,-0.19998,-0.262830857143,2.876
-0.213931866126,-0.471974579746,-0.135314754936,-2.60335203043,-0.0623437233393,2.12439031228,-0.475573261632,-0.798884678299,-0.339262033862,-0.0149606692095,-0.255725202899,-0.0467930784882,-0.0721468077714,-0.781912807096,0.573748045899,0.819002623924,0.00535058268129,0.0,0.818994094846,-0.573665523625,-0.0117169327242,0.0,-0.00652687949254,0.0111048766777,-0.999917037338,0.0,0.361935309866,-0.132785136454,0.304992926182,1.0,-0.19998,-0.262830857143,2.892
-0.229427408542,-0.478174952729,-0.135555111555,-2.60816808074,-0.0634076441116,2.12303415874,-0.490283778159,-0.816909108199,-0.320924450498,-0.00841994835913,-0.254490558845,-0.0650980684684,-0.0766331894657,-0.778820960973,0.573848419782,0.818931712884,0.00543945299491,0.0,0.818924940676,-0.57376663076,-0.0115992183487,0.0,-0.00637811393082,0.0111109107607,-0.999917930295,0.0,0.358137271058,-0.137835464998,0.305046522257,1.0,-0.19998,-0.262830857143,2.911
-0.243199580453,-0.483383143397,-0.135636419087,-2.61236061818,-0.0642901891254,2.1218098548,-0.503582342334,-0.809518415135,-0.306182664387,-0.00675421615053,-0.243484712219,-0.0432002296628,-0.0641396307554,-0.783040447057,0.573688862538,0.819043628294,0.00541948814596,0.0,0.819035963131,-0.57360606929,-0.0117010799721,0.0,-0.0064751683694,0.0111517496587,-0.99991685188,0.0,0.354740241056,-0.142213424441,0.305011269435,1.0,-0.19998,-0.262830857143,2.928
-0.254835842683,-0.487466615669,-0.135832503801,-2.61563434106,-0.0649826027969,2.12080492792,-0.514649442401,-0.829922329604,-0.289458117556,-0.0136299869541,-0.230816615372,-0.0488931457549,-0.0730211989715,-0.792161127371,0.573820637207,0.818951032603,0.00546163109596,0.0,0.818943010169,-0.573736118033,-0.0118304632827,0.0,-0.00655516130561,0.0112615454092,-0.999915100124,0.0,0.35189782727,-0.145932259173,0.304976795669,1.0,-0.19998,-0.262830857143,2.942
-0.269650875688,-0.492363553239,-0.135904390748,-2.61954352924,-0.0657845493003,2.11964992366,-0.528985611945,-0.831835044614,-0.264549366881,-0.00500569232849,-0.213177603132,-0.039030053193,-0.0628085002474,-0.800125926949,0.573705409972,0.819031525457,0.00549634219116,0.0,0.819023454673,-0.573619927591,-0.0118956407163,0.0,-0.00659022023465,0.0113264446727,-0.999914136638,0.0,0.348348380536,-0.150584099214,0.304944643079,1.0,-0.197285142857,-0.259289044898,2.96
-0.283831637265,-0.496773481003,-0.136020047831,-2.62295810566,-0.0665225839172,2.11856769391,-0.542477265587,-0.815590007821,-0.259053475194,-0.00685756551839,-0.199719958589,-0.0449794011238,-0.0658529622632,-0.792272989994,0.573846354336,0.818932368204,0.00555741171708,0.0,0.818925018476,-0.57376049189,-0.0118936521419,0.0,-0.00655159957334,0.0113764514464,-0.999913822734,0.0,0.344988342733,-0.155031113953,0.304952581174,1.0,-0.194137714286,-0.25515242449,2.977
-0.297644316111,-0.500921176518,-0.135999606602,-2.62612440344,-0.0671782003426,2.11749002927,-0.555867730446,-0.81018147123,-0.235750695056,0.000542855278584,-0.185919708998,-0.0433419182755,-0.0599081467103,-0.799636123084,0.573718747944,0.819021541382,0.00559105639165,0.0,0.819014584046,-0.573632705865,-0.0118901969511,0.0,-0.00653124037423,0.0114010051372,-0.999913676265,0.0,0.341724200617,-0.159277673491,0.304973327674,1.0,-0.190990285714,-0.251015804082,2.994
-0.310859922959,-0.504474852056,-0.136034081528,-2.62881411232,-0.0677457305142,2.11662064049,-0.568415935211,-0.813601455409,-0.2148090358,0.00500214039573,-0.160286533318,-0.0372348127616,-0.0479244362879,-0.780101408752,0.573895135618,0.818897433129,0.00566694181466,0.0,0.818891862838,-0.573809486257,-0.0118125933142,0.0,-0.00642168100956,0.0114200222521,-0.999914168869,0.0,0.338672174019,-0.163359959605,0.305000792724,1.0,-0.188028,-0.247122514286,3.01
-0.324490815106,-0.507950820806,-0.135971951496,-2.63142025513,-0.068254832429,2.11579420278,-0.581625431644,-0.804559692711,-0.198295846513,0.00130674588961,-0.146926263788,-0.0402454826834,-0.0488950621755,-0.773844253043,0.57383006182,0.818942436384,0.00575264649477,0.0,0.818938691516,-0.57374540592,-0.0116779974369,0.0,-0.00626317376029,0.0114124705097,-0.999915260495,0.0,0.335551332591,-0.167512188716,0.305039731259,1.0,-0.184880571429,-0.242985893878,3.027
-0.337370141098,-0.510998608912,-0.13595467067,-2.6337476509,-0.068747372701,2.114962517,-0.593990229722,-0.790025604582,-0.186403515923,0.00666968749036,-0.137400552769,-0.0284061036307,-0.0540653061926,-0.766387530071,0.573895994791,0.818896001077,0.00578562739206,0.0,0.81889250931,-0.573810893282,-0.0116988823799,0.0,-0.00626043250866,0.0114519691603,-0.999914826066,0.0,0.332574301375,-0.17141603008,0.305041498651,1.0,-0.181918285714,-0.239092604082,3.043
-0.350693641382,-0.513894390389,-0.135825068071,-2.63604034582,-0.0691452494468,2.1141242876,-0.606958463984,-0.792240471555,-0.167514955923,0.00696423105608,-0.131288369076,-0.0208130358026,-0.0416142434109,-0.758813197788,0.573796483977,0.81896551152,0.00581659855523,0.0,0.818961441969,-0.57370950363,-0.0118452063259,0.0,-0.00636390011263,0.011560530258,-0.999912923667,0.0,0.329321451733,-0.175619176632,0.304998478416,1.0,-0.178585714286,-0.234712653061,3.061
-0.364862349364,-0.516619295284,-0.135753892425,-2.638214964,-0.0696226315752,2.11334302011,-0.620588552285,-0.768698309669,-0.143510488703,0.0147567927051,-0.119063216157,-0.0311214669299,-0.0367865933576,-0.755925497227,0.573856969829,0.818923229809,0.00580247868481,0.0,0.818918273079,-0.573768760868,-0.0119590121216,0.0,-0.00646435628587,0.0116147419021,-0.999911651031,0.0,0.326259215625,-0.179619105768,0.304954798596,1.0,-0.175438285714,-0.230576032653,3.078
-0.377105021724,-0.518766773416,-0.13563190657,-2.63991402157,-0.0699430876143,2.11276316459,-0.632498366188,-0.765473056864,-0.124323741931,0.0068063869513,-0.105764133823,-0.0261710277386,-0.036480818572,-0.747403334096,0.573809070341,0.818956596457,0.00583016429942,0.0,0.818951689323,-0.573720201662,-0.012000319172,0.0,-0.00648298232541,0.0116607393953,-0.999910995088,0.0,0.323493281771,-0.183250712417,0.304927196919,1.0,-0.172476,-0.226682742857,3.094
-0.390110752062,-0.520861401729,-0.135546820632,-2.64145524258,-0.0702804493136,2.11215461232,-0.645036303631,-0.745233391699,-0.11467826701,0.0122302671927,-0.0918632310295,-0.0162805618019,-0.03290424625,-0.744267678797,0.573898756597,0.818893460235,0.00587067811138,0.0,0.818889269658,-0.573810048982,-0.0119640556529,0.0,-0.00642875661089,0.0116738167312,-0.999911192602,0.0,0.320576286611,-0.187125581103,0.304947110259,1.0,-0.169328571429,-0.222546122449,3.111
-0.402706772291,-0.522736395429,-0.135390467997,-2.64283422398,-0.0705411112315,2.11160644868,-0.657453535448,-0.746983886828,-0.109338967963,0.00340664081029,-0.0782499836523,-0.0173918652778,-0.030916753781,-0.731677226934,0.573743404196,0.819001987346,0.00591589098602,0.0,0.818998562836,-0.573654872799,-0.0119242563265,0.0,-0.00637243262698,0.0116867946397,-0.999911401542,0.0,0.317759288102,-0.19083337999,0.304965910106,1.0,-0.166181142857,-0.218409502041,3.128
-0.415407688505,-0.524431201944,-0.135326911423,-2.64404537548,-0.0708056554994,2.11108660272,-0.669655296687,-0.730674954884,-0.0921011117591,0.0119836936746,-0.0626092237233,-0.0171794280894,-0.0237259595304,-0.715313695862,0.573923945817,0.818875006171,0.00598126975478,0.0,0.818872667746,-0.573835556927,-0.0118766378217,0.0,-0.0062933377749,0.011714410701,-0.999911579332,0.0,0.31491166885,-0.194592335373,0.304993962504,1.0,-0.163033714286,-0.214272881633,3.145
-0.428383309734,-0.525887668413,-0.135154067827,-2.64512174133,-0.0710044209936,2.11065661003,-0.682401814123,-0.723740989614,-0.0704568924158,0.0144356579092,-0.0533418890008,-0.0178836925101,-0.0257303942337,-0.710568673125,0.573842250425,0.818931909103,0.00602882912256,0.0,0.818930394853,-0.573754079566,-0.0118326441967,0.0,-0.00623118456729,0.0117274883787,-0.999911815289,0.0,0.312035743208,-0.198393810296,0.30500571476,1.0,-0.159701142857,-0.209892930612,3.163
-0.439946902995,-0.52701847784,-0.135094166084,-2.64595392359,-0.0711900993149,2.11029246165,-0.693547576171,-0.715738961395,-0.0652477145601,0.00759813713126,-0.0531033675401,-0.0156026274088,-0.0198770789087,-0.700789823602,0.574014688059,0.818810616736,0.0060875869043,0.0,0.818809878739,-0.57392627946,-0.0118218072477,0.0,-0.00618611428239,0.0117706939168,-0.999911587469,0.0,0.309452035953,-0.201797895982,0.305011483433,1.0,-0.156738857143,-0.205999640816,3.179
-0.451008369208,-0.52792605767,-0.134911882652,-2.64667892453,-0.0713030899857,2.10999276575,-0.704513348728,-0.693434494548,-0.0519060639978,0.0106943137963,-0.0440964699739,-0.00945393974453,-0.0140185298216,-0.679772203509,0.573874559911,0.81890859517,0.00611957069124,0.0,0.818908001771,-0.573785539259,-0.011856916733,0.0,-0.00619852919666,0.0118159757727,-0.999910976514,0.0,0.306995536843,-0.205002119997,0.304992704955,1.0,-0.153776571429,-0.20210635102,3.195
-0.462891386057,-0.52870328239,-0.134802786174,-2.64729506031,-0.0714481318536,2.10969565214,-0.715988586839,-0.698383425565,-0.0489141415451,0.00812467397885,-0.0278480618518,-0.0159360099038,-0.0227605487377,-0.676929159289,0.574034292276,0.818796388736,0.00615239667241,0.0,0.818795866954,-0.573944429249,-0.0119108057792,0.0,-0.00622151074569,0.0118749965636,-0.999910134592,0.0,0.30434645086,-0.208470859431,0.304973873286,1.0,-0.150629142857,-0.197969730612,3.212
-0.474289362396,-0.52923735732,-0.134574668363,-2.64772836946,-0.0715229143533,2.10947152268,-0.727271786254,-0.661589686174,-0.0266367033582,0.0121948873488,-0.0256331625402,-0.000967027007582,-0.012057153578,-0.658443632415,0.573910674422,0.818882984075,0.0061597953177,0.0,0.818882305786,-0.573820325195,-0.0119478267856,0.0,-0.00624937661894,0.0119013618594,-0.999909647357,0.0,0.301842882566,-0.211766325546,0.304958541874,1.0,-0.147481714286,-0.193833110204,3.229
-0.485617315736,-0.529655676077,-0.134446326028,-2.64804263005,-0.0715802322324,2.10927000897,-0.738346645494,-0.667985509427,-0.0249984108298,0.00452023730737,-0.0197096906231,-0.00332770360751,-0.00442882085649,-0.651995699108,0.573984839996,0.818830555496,0.00621866079603,0.0,0.818830461668,-0.573893882204,-0.0119680372135,0.0,-0.00623106314067,0.011961731116,-0.999909041284,0.0,0.29933480886,-0.215060636678,0.30495439728,1.0,-0.144334285714,-0.189696489796,3.246
-0.4966418202,-0.529889598972,-0.134220646985,-2.64824630758,-0.0716289438907,2.1091086257,-0.749228176541,-0.627194081686,-0.0132384560483,0.0212485138036,-0.00902104478038,-0.00132072640537,-0.00626831056845,-0.632709386067,0.573910496459,0.818882691968,0.00621496179835,0.0,0.818882239196,-0.573818975129,-0.0120170301214,0.0,-0.00627439576725,0.0119862523294,-0.999908476668,0.0,0.296906914379,-0.218237311559,0.304939095731,1.0,-0.141186857143,-0.185559869388,3.263
-0.507402572498,-0.530044302691,-0.134046337758,-2.64837339685,-0.0716482201031,2.10900389759,-0.759873675283,-0.637518159624,-0.00965627171621,0.0123760014961,-0.0104789278233,0.000957071908078,-0.0146840530668,-0.611943727793,0.573866530652,0.81891321108,0.0062533684379,0.0,0.818913207187,-0.573774754972,-0.0120181759295,0.0,-0.00625393850627,0.0120180263129,-0.999908223437,0.0,0.294524374839,-0.221340853099,0.304933247105,1.0,-0.138039428571,-0.18142324898,3.28
-0.517553522435,-0.530070020876,-0.133907310549,-2.64839779206,-0.0716652653229,2.10892904868,-0.769702303338,-0.623873879037,-0.0010224565664,0.0119092928895,-0.000765150946094,-9.54629353643e-06,-0.00382267181214,-0.601269978831,0.574023837581,0.818802684525,0.00628845008526,0.0,0.818803091467,-0.573931786924,-0.0120228225942,0.0,-0.0062352980701,0.0120506211462,-0.999907947557,0.0,0.292268318933,-0.224273566749,0.304928665233,1.0,-0.135077142857,-0.177529959184,3.296
-0.527746157992,-0.529966258455,-0.133693668185,-2.64832603223,-0.0716641206202,2.10893084994,-0.77993106592,-0.60465512488,0.00440343259345,0.00978504022999,0.00650967949908,-0.000328736733812,0.000382838634818,-0.605815849859,0.573848299946,0.818925678793,0.00629350167622,0.0,0.818926399894,-0.573756746454,-0.0119789129669,0.0,-0.00619901973739,0.0120282250923,-0.999908442786,0.0,0.290023802351,-0.227205131966,0.304929004424,1.0,-0.131929714286,-0.173393338776,3.313
-0.537988287104,-0.52979423108,-0.133551706566,-2.64819365855,-0.0716653511829,2.10891688975,-0.789893683174,-0.599312377854,0.0159577441746,0.00713721284409,0.00983280724467,-0.000514948081618,0.000523028893636,-0.581628299514,0.573984145503,0.81883025242,0.00632181420437,0.0,0.818831422184,-0.573892597492,-0.0119639244621,0.0,-0.00616849967538,0.0120438349562,-0.999908443634,0.0,0.287735575479,-0.230156823986,0.304928804057,1.0,-0.128782285714,-0.169256718367,3.33
-0.547309721556,-0.529509613232,-0.133348147334,-2.64794771836,-0.0716633439898,2.1089334719,-0.799082931171,-0.56964800098,0.0260083277994,0.011580217157,0.0188132527675,-0.000198461902946,0.00038840022913,-0.557924278986,0.573963568192,0.818844847998,0.0062995393798,0.0,0.818846011265,-0.573872671992,-0.0119211189638,0.0,-0.00614653168947,0.0120008717252,-0.999909095481,0.0,0.28567500482,-0.232836580457,0.304943289261,1.0,-0.12582,-0.165363428571,3.346
-0.557420710667,-0.529028080393,-0.13313072175,-2.6476146136,-0.0716649388846,2.10895206642,-0.809190201594,-0.571688927044,0.0270069892423,0.0116635248124,0.0179186178765,-0.000830889019529,0.00083635204579,-0.556489507145,0.573831832338,0.81893745944,0.00626199836384,0.0,0.818937784235,-0.573740443674,-0.0119814751446,0.0,-0.0062194368391,0.0120037700111,-0.999908609879,0.0,0.283423235711,-0.235736872767,0.304925971831,1.0,-0.122487428571,-0.160983477551,3.364
-0.566428437933,-0.528544873267,-0.132987855706,-2.64723836147,-0.0716430458223,2.10900702005,-0.817962412981,-0.566591840743,0.0389551810798,0.00361184638664,0.0267301349496,0.000347150355071,0.0100004929036,-0.544695782937,0.573954565351,0.818851433229,0.00626371398148,0.0,0.818851828729,-0.573863236406,-0.0119756164878,0.0,-0.00621185514496,0.0120027444944,-0.999908669319,0.0,0.281409026265,-0.238334659943,0.304928821211,1.0,-0.119525142857,-0.157090187755,3.38
-0.575489161857,-0.527838912451,-0.132734995092,-2.64672861985,-0.0715868595649,2.10915266155,-0.827087736136,-0.517973436111,0.048743463385,0.0195513219376,0.0281372868701,0.00584009122845,0.0069080491833,-0.52986653117,0.573776215516,0.818976734531,0.00622171246304,0.0,0.818976675578,-0.573685280085,-0.0119645800201,0.0,-0.00622952775567,0.0119606591133,-0.999909063674,0.0,0.279425770749,-0.240941624151,0.304921400156,1.0,-0.116377714286,-0.152953567347,3.397
-0.584962795829,-0.527039173781,-0.132538754673,-2.64614119671,-0.0715634281149,2.10926720518,-0.83642505854,-0.524451915182,0.0466508765979,0.0127710949212,0.0396254075703,-0.000556775521988,0.0134318949106,-0.518592644697,0.573792627377,0.81896558427,0.00617571457386,0.0,0.818964732612,-0.573701512514,-0.0120036735545,0.0,-0.00628769979181,0.0119455418104,-0.99990888028,0.0,0.277315151443,-0.243676450528,0.304910716385,1.0,-0.113045142857,-0.148573616327,3.415
-0.593235434203,-0.526248311572,-0.132380005462,-2.64553122226,-0.071490518399,2.10939310784,-0.844523641367,-0.513683519198,0.0539075532329,0.0114454184862,0.037699530788,0.0120936861434,0.0146123282454,-0.499981935589,0.573888386989,0.818898492637,0.00617453946439,0.0,0.818897612718,-0.573797232157,-0.0120076290507,0.0,-0.00629021678143,0.0119475845225,-0.999908840043,0.0,0.275477610545,-0.246072564278,0.30491339438,1.0,-0.110082857143,-0.144680326531,3.431
-0.601038129297,-0.525335601317,-0.132124382049,-2.64487018064,-0.0713711393485,2.10953928613,-0.852401578571,-0.478481174373,0.0588071274157,0.019458001778,0.0442779554779,0.00458343248484,0.00751006561758,-0.480864339569,0.573734298845,0.819006608548,0.00615437923436,0.0,0.819005128924,-0.573642625627,-0.012061664954,0.0,-0.00634829126864,0.0119608893278,-0.999908313959,0.0,0.273772925179,-0.248312944429,0.304898655541,1.0,-0.107120571429,-0.140787036735,3.447
-0.609227676288,-0.524367049009,-0.13190405213,-2.64416626851,-0.0712568534495,2.1096935137,-0.860532110029,-0.482487324476,0.0577103274649,0.00988851976934,0.0362540239944,0.00565197648304,0.0101595050477,-0.46945696797,0.573715128764,0.81902009517,0.00614667694868,0.0,0.819018143803,-0.573622795867,-0.0121208532596,0.0,-0.00640147162181,0.0119883876472,-0.999907645597,0.0,0.271955634366,-0.250666098674,0.304882465645,1.0,-0.103973142857,-0.136650416327,3.464
-0.617751549371,-0.52332105369,-0.131713308654,-2.64330983679,-0.0710905508623,2.10988861406,-0.868902184847,-0.470180977946,0.0616746012179,0.0089313266879,0.0540216502754,0.00616938901611,0.00710982047683,-0.461120799179,0.57382433538,0.818943325994,0.00618124881509,0.0,0.818942179467,-0.573732494132,-0.012061457979,0.0,-0.00633138911297,0.011983474204,-0.999908150711,0.0,0.27007267193,-0.25314010593,0.304909663203,1.0,-0.100640571429,-0.132270465306,3.482
-0.624506821007,-0.522318037723,-0.13150774757,-2.64254358079,-0.0709312175027,2.11006659117,-0.87566904372,-0.438895585699,0.0631191464126,0.01823061407,0.0486569799232,0.0159212279064,0.00425984672882,-0.462152586425,0.573779785823,0.818974432924,0.00619536106519,0.0,0.818973357289,-0.573687678453,-0.0120761973942,0.0,-0.00633601659407,0.0120031447033,-0.999907885463,0.0,0.268598817245,-0.255098431465,0.304910220985,1.0,-0.0978634285715,-0.128620506123,3.497
-0.632331437916,-0.521148147317,-0.131251052733,-2.64165254027,-0.0707470914109,2.11027743149,-0.883547364323,-0.438590592039,0.0694530997323,0.0126515045864,0.0588972053412,0.00853109713852,0.00655219951118,-0.432783182524,0.573681786574,0.819043027331,0.00620274422083,0.0,0.819041918623,-0.573589422821,-0.0120936540255,0.0,-0.00634751673634,0.0120184479673,-0.999907628704,0.0,0.266879532231,-0.257353511572,0.304909938621,1.0,-0.0945308571429,-0.124240555102,3.515
-0.639626318246,-0.520062311679,-0.131032713555,-2.64077044404,-0.0705683622482,2.11049266023,-0.89070013656,-0.423117451986,0.0619896538385,0.0145263526765,0.0545506091513,0.0110029728103,0.0153193595272,-0.420435715597,0.573767899222,0.818982609773,0.00621527254093,0.0,0.818982021847,-0.573676141434,-0.012036591799,0.0,-0.00629232694186,0.0119966374346,-0.999908239446,0.0,0.265270855192,-0.259465327338,0.304935485013,1.0,-0.0913834285715,-0.120103934694,3.532
-0.64623358195,-0.518961123378,-0.130891138335,-2.63991581552,-0.0703978053912,2.11071470167,-0.897211246196,-0.40709672937,0.0711388712853,0.0060989396274,0.0558809673134,0.00731099317072,0.0206292322067,-0.399557750996,0.573865819194,0.818913698023,0.00625489029224,0.0,0.818913707018,-0.573774023766,-0.0120190270046,0.0,-0.00625377268431,0.0120197555917,-0.999908203688,0.0,0.263802522703,-0.261397066007,0.304941205764,1.0,-0.0884211428572,-0.116210644898,3.548
-0.652871072153,-0.517749422432,-0.130618820271,-2.63902869507,-0.070194848824,2.11094543167,-0.903996413396,-0.381643910612,0.0729412896063,0.0124983315976,0.0505385168483,0.0105443382599,0.0120364979545,-0.390128017138,0.573687011184,0.819038937694,0.00625928439285,0.0,0.819038666025,-0.573594586979,-0.0120689786357,0.0,-0.00629479298904,0.0120506442332,-0.999907574506,0.0,0.262350445327,-0.263304734234,0.30492458783,1.0,-0.0852737142858,-0.11207402449,3.565
-0.659760710742,-0.516538766268,-0.130369668242,-2.63808612704,-0.0699879788929,2.11118371987,-0.910793523051,-0.385556894322,0.0674521163335,0.0097025056867,0.0528659856448,0.0131575906307,0.0137539238269,-0.375135189774,0.573725405977,0.819011961124,0.00627000589305,0.0,0.819011909644,-0.573633080487,-0.012055195293,0.0,-0.00627678719115,0.0120518133483,-0.999907673607,0.0,0.260826939821,-0.26529040449,0.304933148866,1.0,-0.0819411428572,-0.107694073469,3.583
