nelsonifechukwu/NELSON_IML_WORK/CNN-GradCAM/train2dof/data_sample_2022-02-22-08-50-13/robot_state.csv
position_joint1,position_joint2,position_joint3,position_joint4,position_joint5,position_joint6,position_joint7,velocity_joint1,velocity_joint2,velocity_joint3,velocity_joint4,velocity_joint5,velocity_joint6,velocity_joint7,ee_T_00,ee_T_10,ee_T_20,ee_T_30,ee_T_01,ee_T_11,ee_T_21,ee_T_31,ee_T_02,ee_T_12,ee_T_22,ee_T_32,ee_T_03,ee_T_13,ee_T_23,ee_T_33,v_x,v_y,time
0.465057791158,0.547796273135,-0.12400100452,-1.35583913573,0.0795218823883,1.89411241454,0.159152001861,-0.00152217999795,0.000379882544777,0.00262860913663,0.000557549658997,0.000236279000918,2.31770380517e-05,-0.000373096612947,0.573827845918,0.818961884834,0.00194456647075,0.0,0.8189185368,-0.573769166334,-0.0119214408378,0.0,-0.00864763986955,0.00843345861537,-0.999927044889,0.0,0.661683422859,0.260876157725,0.303202256362,1.0,0.0,0.0,0.0
0.465065864931,0.54779064638,-0.124000890681,-1.35584450121,0.0795211703115,1.89411474185,0.159159998642,0.0013763096189,-0.00131317535278,0.000336903286493,-0.000680222122578,3.59435140352e-05,-6.21991294246e-05,0.000509666216588,0.57382781361,0.818961902814,0.00194652690795,0.0,0.818918584184,-0.573769129632,-0.0119199522265,0.0,-0.00864529615586,0.0084342095687,-0.999927058821,0.0,0.661680713777,0.260881046104,0.303203885788,1.0,-0.00014,-0.000184,0.008
0.465063077955,0.547796289311,-0.124003773631,-1.35584215839,0.0795224932274,1.89411548865,0.159155615017,0.000128167637653,-0.000266515128655,0.000788275514392,-6.40521289415e-05,0.00140203147224,0.000151876020153,0.00125677019893,0.573828758195,0.818961246578,0.00194416377252,0.0,0.818917902841,-0.573770089483,-0.0119205587952,0.0,-0.00864713915328,0.00843263232409,-0.999927056188,0.0,0.661682564949,0.260878002057,0.303201166121,1.0,-0.00044,-0.000578285714286,0.023
0.465063411069,0.54777550062,-0.123998141725,-1.35585999308,0.0795218823884,1.89411726443,0.159156875219,0.00150804110971,-0.00464912982723,0.00126771482127,-0.00305024946752,4.81942104361e-05,7.73946333199e-06,-0.00137826141659,0.573826370178,0.818962905319,0.00195025678112,0.0,0.81891960188,-0.57376763825,-0.0119218226165,0.0,-0.00864470269671,0.00843832216853,-0.999927029255,0.0,0.661678035261,0.260879660651,0.303207371287,1.0,-0.0008,-0.00105142857143,0.041
0.465062294223,0.54772217727,-0.124003390048,-1.35591156107,0.0795230865272,1.89412181799,0.159157954642,0.00138890533195,-0.00259810853701,-0.000227954435936,-0.0079672468842,0.000346107835863,-0.000224762735125,0.000414877938816,0.573834907891,0.818956905149,0.00195777827513,0.0,0.818913669057,-0.573776113675,-0.0119214474683,0.0,-0.00863999166001,0.00844435668042,-0.999927019029,0.0,0.661669962033,0.260870969513,0.303221173527,1.0,-0.0011,-0.00144571428571,0.056
0.465058813606,0.54758387633,-0.124001963876,-1.35608011313,0.0795184278947,1.89416254644,0.159154784315,0.000238521921105,-0.00589944939377,-0.000932065252322,-0.00506303151656,-0.000148898040251,0.00287758169433,0.00193617658307,0.57384217233,0.818951781932,0.00197155476475,0.0,0.818908640288,-0.573783236729,-0.0119240518015,0.0,-0.00863414463046,0.00845720984792,-0.999926960907,0.0,0.661643941478,0.260853314002,0.303242403121,1.0,-0.00146,-0.00191885714286,0.074
0.465044587535,0.547433361926,-0.12400060321,-1.3562992035,0.07951433699,1.89422048524,0.159151481947,-4.69798198849e-05,-0.00762600199174,0.000939899929568,-0.0112132429745,-0.000224266979109,0.00370800423254,-0.00322769676724,0.573861179376,0.818938470134,0.0019687154156,0.0,0.818895170788,-0.573802135081,-0.0119396791225,0.0,-0.00864837595368,0.00846405284834,-0.999926780021,0.0,0.661612864761,0.260823928445,0.303249724229,1.0,-0.0018,-0.00236571428571,0.091
0.465032245294,0.547255985421,-0.124004137904,-1.35649292355,0.079512182646,1.89434991459,0.159141945476,-0.000373589199925,-0.0122473756817,-0.000835064901596,-0.0169271047781,-0.000364920217,0.0100502228942,-0.000599678007284,0.573876535109,0.818927464218,0.00206826033449,0.0,0.818885476139,-0.57381709338,-0.0118855884932,0.0,-0.0085467962643,0.00851469262522,-0.999927223493,0.0,0.661603107379,0.260801512721,0.3032945172,1.0,-0.00212,-0.00278628571429,0.107
0.465010156488,0.547072584416,-0.124001345423,-1.35671395391,0.0795089688408,1.89446475365,0.159123705386,-0.00190262448398,-0.0132042646554,0.000410904231251,-0.0178880210354,-0.00356579792035,0.00426529309282,-0.00126675605114,0.573889413428,0.818918255354,0.00213988402578,0.0,0.818877142907,-0.573829625306,-0.0118546550771,0.0,-0.00848022787551,0.00855572789004,-0.999927439995,0.0,0.661585470334,0.260771977235,0.303329094118,1.0,-0.00244,-0.00320685714286,0.123
0.464975741763,0.546836140547,-0.12400205373,-1.35704811615,0.0795019472573,1.89460065826,0.159105292042,-0.00356937197948,-0.012501590926,-0.00385160831989,-0.0201169249274,-0.000276215626506,0.00706859951544,-0.00106747248303,0.573919903616,0.818896783733,0.00217915746275,0.0,0.818856087827,-0.573859860233,-0.0118454692831,0.0,-0.00844984838651,0.00858293219199,-0.999927464038,0.0,0.661551698656,0.260720334076,0.303349321545,1.0,-0.0028,-0.00368,0.141
0.464946459063,0.546587076836,-0.124001424063,-1.35741411468,0.0794947487778,1.89473418745,0.159036333823,-0.00306810005768,-0.0160100335351,-0.00160030342395,-0.0231309157294,-5.43320048863e-05,0.00585261891763,-0.0149250145805,0.573905513437,0.818906807093,0.00220223642826,0.0,0.818866270134,-0.573845236857,-0.0118500073587,0.0,-0.00844047131058,0.00860428734658,-0.999927359703,0.0,0.661508823062,0.260669053899,0.303363068986,1.0,-0.00312,-0.00410057142857,0.157
0.464904841305,0.546290665063,-0.123999548851,-1.35787663972,0.079485955526,1.89490062182,0.158923845772,-0.00285543420916,-0.0143896067213,0.000630544282942,-0.0272396543145,0.000269399907155,0.00561751089506,5.77794449093e-05,0.57386968806,0.818931880972,0.00221412626166,0.0,0.818891304737,-0.57380917101,-0.0118664734624,0.0,-0.00844751011913,0.008623104189,-0.999927138169,0.0,0.66145459683,0.260601472581,0.30336720084,1.0,-0.00348,-0.00457371428571,0.175
0.464852577535,0.546002991862,-0.124001584683,-1.35836243133,0.0794699624036,1.8950678293,0.158901212603,-0.00547138811243,-0.0163311062215,-0.000195844813573,-0.0315099403891,0.000209428739105,0.0144538600318,-0.00701152570633,0.573918267125,0.818897891568,0.00219379723539,0.0,0.818856922154,-0.573857694083,-0.0118926398988,0.0,-0.0084800935836,0.00862197533401,-0.999926872103,0.0,0.661398985784,0.260520592063,0.303354235183,1.0,-0.0038,-0.00499428571429,0.191
0.464792591258,0.545648137942,-0.124004874466,-1.35898312576,0.0794134528786,1.89526994261,0.158818382195,-0.00568595336805,-0.0204407795018,-0.0011014798868,-0.0382768022987,-0.00161929378486,0.0119316441405,-0.00253368037343,0.57392144598,0.818895837645,0.00212787062058,0.0,0.818854147664,-0.573861278073,-0.0119107213448,0.0,-0.00853270185965,0.00857839926098,-0.999926799353,0.0,0.661325640884,0.260414552538,0.30332760299,1.0,-0.00416,-0.00546742857143,0.209
0.464733323632,0.545292827234,-0.124008028739,-1.35960478562,0.079327666824,1.89546714376,0.158723136471,-0.00525403220302,-0.0268689040139,-1.28296878436e-05,-0.0352242920191,-0.000538944758958,0.0128618791835,-0.00594629030967,0.573905968692,0.818906904266,0.00204160373128,0.0,0.818864485974,-0.57384654954,-0.011909579925,0.0,-0.00858143519001,0.00850693957851,-0.99992699281,0.0,0.661252454505,0.260303888938,0.303300323224,1.0,-0.00448,-0.005888,0.225
0.464660900711,0.544873828557,-0.124001900388,-1.36031509507,0.0793125364703,1.8956997116,0.158665810168,-0.0026975611614,-0.0281798816636,0.00133824142913,-0.0393651014127,-0.00010878447799,0.0181077363838,-0.00310545403854,0.573949530139,0.818876457148,0.00200790506365,0.0,0.818833268399,-0.573889918038,-0.011966095356,0.0,-0.00864660377251,0.00851223816002,-0.999926386313,0.0,0.661164888036,0.260194065669,0.303278798046,1.0,-0.00482,-0.00633485714286,0.242
0.464600540404,0.544466853821,-0.124007727606,-1.3609978552,0.0792902015743,1.89594665124,0.158559967329,-0.00392390553231,-0.0269863818992,0.000246843580465,-0.0418323010141,-0.0011259593938,0.0177139116277,-0.00511965854423,0.573948532601,0.818877196118,0.00199160823594,0.0,0.818833633103,-0.573888830325,-0.0119932743194,0.0,-0.00867822420869,0.00851448193443,-0.99992609328,0.0,0.661086131442,0.260088222924,0.30326346741,1.0,-0.00514,-0.00675542857143,0.258
0.464533106543,0.543976951467,-0.124010207486,-1.36179539934,0.0792552685126,1.89623180748,0.158453977285,-0.00513143865844,-0.0293749504736,-6.29103108035e-05,-0.048309110739,-0.00655858243836,0.0140346611247,-0.0044735810191,0.573953832451,0.818873512857,0.00197865056548,0.0,0.818829648431,-0.573894054916,-0.0120153020812,0.0,-0.00870364439915,0.00851657039485,-0.999925854553,0.0,0.660992460522,0.259967666543,0.30325533166,1.0,-0.00548,-0.00720228571429,0.275
0.464459902366,0.543460573837,-0.12401442123,-1.36263733822,0.0792165647256,1.89651126777,0.158366015365,-0.00776986532575,-0.0274842239457,-0.00115366598978,-0.052043152032,-0.000452839854134,0.0177380426058,-0.00175214943869,0.573981108195,0.81885447474,0.00194513106859,0.0,0.818810028242,-0.573921330344,-0.0120495281283,0.0,-0.00875062629241,0.00850905815923,-0.99992550846,0.0,0.660890119339,0.25983637632,0.303244300017,1.0,-0.00582,-0.00764914285714,0.292
0.464381186084,0.542944362032,-0.124011644796,-1.36346211193,0.0791687930026,1.89681242911,0.158247168768,-0.00737833091816,-0.0367495483072,0.000287267560978,-0.0532469014597,-0.00452424825591,0.0146673730534,-0.00416023049102,0.573979469179,0.81885563518,0.00194025693887,0.0,0.818811076481,-0.573919665469,-0.0120575918671,0.0,-0.0087600440918,0.00850967788989,-0.999925420724,0.0,0.66079627582,0.259707545512,0.303242897433,1.0,-0.00614,-0.00806971428571,0.308
0.464321677314,0.54235151828,-0.124017280165,-1.36438476232,0.0791133028579,1.8971476713,0.158121423405,-0.0033326962651,-0.0369684983927,-6.08625890468e-05,-0.0578859368235,-0.000594989252536,0.018963481765,-0.00759625247055,0.573965639614,0.818865320871,0.00194363528896,0.0,0.818820814589,-0.573905831046,-0.012054774516,0.0,-0.00875594175535,0.00851067925301,-0.999925448132,0.0,0.660685937299,0.25957699243,0.303252266815,1.0,-0.00648,-0.00851657142857,0.325
0.464226583318,0.541691181164,-0.124017657214,-1.36539440954,0.079051215777,1.89751589471,0.157981181354,-0.00798047104003,-0.0398243875251,1.17224566332e-05,-0.0520669595194,-0.00179065202644,0.0215181357231,-0.00685372398662,0.573968386598,0.818863357966,0.00195935382335,0.0,0.81881905388,-0.573908506706,-0.0120469844536,0.0,-0.00874051259812,0.00851910849329,-0.999925511341,0.0,0.660572136278,0.259417715914,0.303270550465,1.0,-0.00684,-0.00898971428571,0.343
0.464155776964,0.541076249499,-0.124020590124,-1.36634457411,0.0789986096608,1.8978714739,0.157862349472,-0.0027438834057,-0.0411135751334,-0.000373475326366,-0.0600464784085,-0.0033813845379,0.028916993953,-0.00534037869287,0.573969813023,0.81886231286,0.00197818534712,0.0,0.818818223599,-0.573909821495,-0.0120407804788,0.0,-0.00872460932779,0.00853098297977,-0.999925548989,0.0,0.660461929057,0.259280148272,0.303283954333,1.0,-0.00716,-0.00941028571429,0.359
0.464066903234,0.540363869688,-0.124021227423,-1.3674108884,0.0789391360824,1.89826147297,0.157734191298,-0.00234980078375,-0.0482236617389,-0.00155680045018,-0.0637773387652,-0.00265498340865,0.0255939213502,-0.00471609031683,0.573981222327,0.818854233279,0.00201195401749,0.0,0.818810532022,-0.573921032867,-0.012029446576,0.0,-0.00869582794661,0.0085522502464,-0.99992561803,0.0,0.660338704907,0.259120706494,0.303313761118,1.0,-0.0075,-0.00985714285714,0.376
0.46396005585,0.539635537658,-0.124021198961,-1.36856340558,0.0788633435386,1.89869915815,0.15759167464,-0.00596039167397,-0.0451479272575,0.000848839670439,-0.0687758603696,-0.00510935042497,0.029307891595,-0.0130974637805,0.573995619843,0.818844124263,0.00201877738573,0.0,0.818800573014,-0.573935459485,-0.0120190215082,0.0,-0.00868322439387,0.00855200643334,-0.999925729642,0.0,0.660210686249,0.258940361255,0.303317798706,1.0,-0.00784,-0.010304,0.393
0.463853856858,0.538869273323,-0.124029416871,-1.3697211209,0.0788011171079,1.89913692025,0.157437601388,-0.0105999124446,-0.0468528728392,-0.000818388358578,-0.0679346747817,-0.00272147782355,0.0220504100196,-0.0195843168606,0.574009574113,0.81883423874,0.00206038699308,0.0,0.818791208407,-0.5739492142,-0.0120001439391,0.0,-0.00864373765022,0.00857538937042,-0.999925871501,0.0,0.660083214939,0.25875775692,0.303346332084,1.0,-0.00818,-0.0107508571429,0.41
0.463743501106,0.538134088252,-0.124029854759,-1.37086710724,0.078737525884,1.89957665872,0.157297759255,-0.00318666296812,-0.0465742586262,0.000488152722467,-0.0725410734388,-0.00486451470176,0.0196951092733,-0.00955571325482,0.574032102173,0.818818378805,0.00208688926252,0.0,0.818775658442,-0.573971592669,-0.0119907819921,0.0,-0.00862062349135,0.00859195334537,-0.999925928851,0.0,0.659957165016,0.258577829138,0.303358287688,1.0,-0.0085,-0.0111714285714,0.426
0.463624887385,0.537282694381,-0.124036321089,-1.37220569899,0.0786606644765,1.90007767101,0.157139822983,-0.00718569486735,-0.0488204159131,-0.000484666049671,-0.0742173449685,-0.00272955508545,0.0296651685118,-0.00728013461381,0.574057719917,0.818800389917,0.00209823202955,0.0,0.818757808775,-0.573997151093,-0.0119861590197,0.0,-0.00861005824192,0.00859885653084,-0.999925960541,0.0,0.659805762627,0.25836964347,0.303366003253,1.0,-0.00886,-0.0116445714286,0.444
0.463521835468,0.536538256411,-0.124044860372,-1.37335877398,0.0785944742908,1.90051832309,0.156997199302,-0.00800947003124,-0.0493602643408,-9.32356732274e-05,-0.0787962176832,-0.00850510930004,0.0376414072966,-0.00896992909658,0.574077158667,0.818786693562,0.00212443971481,0.0,0.818744475709,-0.574016500028,-0.0119703004532,0.0,-0.00858182450609,0.00861141514945,-0.999926095178,0.0,0.659678099348,0.258188784529,0.303381193758,1.0,-0.00916,-0.0120388571429,0.459
0.463392622309,0.535628544685,-0.124050408227,-1.3748003483,0.0785063405969,1.90104020021,0.156823578969,-0.00462213471689,-0.0513529564185,-0.000402553400441,-0.0805925510006,-0.00531477678595,0.0284395676906,-0.00786247257809,0.574100258433,0.818770525387,0.00211351047284,0.0,0.818728168179,-0.574039645355,-0.0119757710743,0.0,-0.00859233500117,0.00860584951578,-0.999926052833,0.0,0.659511033269,0.257962312272,0.303382510662,1.0,-0.00952,-0.012512,0.477
0.463274550819,0.534733403152,-0.124054194474,-1.37625274901,0.0784313983489,1.90155775207,0.15664330818,-0.00833992094467,-0.0464766999576,0.000388928794827,-0.0852247929947,-0.000113156729449,0.0285123679939,-0.0127422617388,0.574111551847,0.818762679239,0.00208519143434,0.0,0.818719803408,-0.574050906617,-0.0120077900106,0.0,-0.00863469053203,0.0086011640775,-0.99992572829,0.0,0.659335826349,0.257744588593,0.303367812631,1.0,-0.00986,-0.0129588571429,0.494
0.463150140046,0.533873160969,-0.124055313265,-1.37765888342,0.0783513454418,1.90206705597,0.156470823257,-0.00955643895938,-0.0554477287315,0.00145858322108,-0.0875131548306,-0.00170509726639,0.0330178932129,-0.017383273756,0.574128537929,0.818750844007,0.00205530419228,0.0,0.818707499089,-0.574067938412,-0.0120324529658,0.0,-0.00867186374101,0.00859103298809,-0.99992549369,0.0,0.659169761565,0.257527903545,0.303349533279,1.0,-0.01018,-0.0133794285714,0.51
0.463029808056,0.53295027718,-0.124058141449,-1.37915411342,0.0782690842608,1.90263784429,0.156283043961,-0.00208827403777,-0.054886296389,0.000292739491869,-0.0940086604158,-0.00208400528789,0.0380114785844,-0.0120584773976,0.574135203142,0.818746169497,0.00205556508722,0.0,0.818702769333,-0.574074543571,-0.0120391366551,0.0,-0.00867711649256,0.00859515448193,-0.999925412703,0.0,0.658995983722,0.257306983548,0.303338244506,1.0,-0.01052,-0.0138262857143,0.527
0.462896346444,0.53198142536,-0.124056358263,-1.38070117368,0.0781820313688,1.90320837802,0.156078171313,-0.00822564714336,-0.0621638429965,0.000518434454608,-0.0945195145948,-0.000532415687448,0.0274711475053,-0.0132073773417,0.574136593857,0.818745202849,0.00205214684613,0.0,0.818701662989,-0.574075854576,-0.0120518509903,0.0,-0.00868947452864,0.00859967028316,-0.999925266559,0.0,0.658813476574,0.257073781902,0.30333431266,1.0,-0.01086,-0.0142731428571,0.544
0.462762481773,0.530969137609,-0.124058863917,-1.3823141714,0.078085002864,1.9037829462,0.155877236736,-0.00695203426319,-0.05988275457,-0.000509516599686,-0.0975695794023,-0.00435169893325,0.0304355582441,-0.006661550543,0.574145135948,0.818739269338,0.00202943671672,0.0,0.818695382268,-0.574084443113,-0.0120693881596,0.0,-0.00871678182086,0.0085912363822,-0.999925101381,0.0,0.658618733135,0.256829266088,0.303329868131,1.0,-0.0112,-0.01472,0.561
0.462630282287,0.529931553659,-0.124063857876,-1.38395964312,0.0779784065596,1.90436781233,0.155661524775,-0.00939467192778,-0.0548946610942,-0.000541546802433,-0.0960365479133,-0.0117634368929,0.0281580157619,-0.00294674582149,0.574140927433,0.818742280918,0.0020049402205,0.0,0.818698100688,-0.574080367415,-0.0120788484313,0.0,-0.00873863534291,0.0085765671167,-0.999925036565,0.0,0.658419334298,0.256580064743,0.303328513283,1.0,-0.01154,-0.0151668571429,0.578
0.462491885764,0.528879341294,-0.124064816543,-1.3856212748,0.077879344962,1.90500072885,0.155436533414,-0.00628890100111,-0.0624852269825,-0.000603855488457,-0.0977043900346,-0.00873184914463,0.03778121082,-0.0146421756258,0.57413437615,0.81874682771,0.00202413908568,0.0,0.8187028906,-0.574073726395,-0.0120698172018,0.0,-0.00872028736994,0.00858703081679,-0.99992510694,0.0,0.658225925334,0.256331881397,0.303333580422,1.0,-0.01188,-0.0156137142857,0.595
0.462353810742,0.527846795373,-0.124059899266,-1.38723130785,0.0777750852218,1.90562600416,0.155207072762,-0.00762900781067,-0.0638365410045,0.00161911282201,-0.0998611877358,-0.00512408098449,0.036612353079,-0.0168358746317,0.57411537805,0.818760057877,0.00206087671295,0.0,0.818716658831,-0.574054630744,-0.0120441012755,0.0,-0.00867834032193,0.00860214347169,-0.999925341982,0.0,0.658040950973,0.256091866807,0.303348239286,1.0,-0.0122,-0.0160342857143,0.611
0.462207837318,0.526611590567,-0.124065246768,-1.38913347872,0.0776553040072,1.90634521396,0.154950891218,-0.00841529118006,-0.0642887267607,0.00186639030026,-0.105033606926,-0.00373882525534,0.0407111794546,-0.0104842018812,0.574099499277,0.818771089859,0.00210100971511,0.0,0.818728281101,-0.574038650069,-0.0120156919571,0.0,-0.00863220661519,0.00861852474196,-0.999925600252,0.0,0.657816302142,0.255812567556,0.303374679095,1.0,-0.01256,-0.0165074285714,0.629
0.462064788879,0.52549981628,-0.124068452449,-1.3908626958,0.0775442735816,1.90696924591,0.154724491158,-0.0101449900108,-0.0682899108873,0.00107065092379,-0.108478476027,-0.0138118947394,0.0376437450142,-0.00808441059262,0.574096674008,0.818773066169,0.00210283410581,0.0,0.818730305409,-0.574035841642,-0.0120119280999,0.0,-0.00862810717301,0.00861782790016,-0.99992564164,0.0,0.657607674504,0.255550359529,0.30338795811,1.0,-0.01288,-0.016928,0.645
0.461918745566,0.524385901756,-0.124082513639,-1.39261332028,0.0774395506619,1.90759593166,0.154477203811,-0.00909424947763,-0.0720243983885,-0.00178973756163,-0.114271861589,-0.00526830498286,0.0366252060761,-0.0172067503733,0.574089548471,0.818778089327,0.00209228957651,0.0,0.81873518638,-0.57402875681,-0.0120178134151,0.0,-0.00863905425,0.00861249799075,-0.999925593042,0.0,0.657396965873,0.255278576276,0.30339287739,1.0,-0.0132,-0.0173485714286,0.661
0.461746749174,0.523127337028,-0.124081208183,-1.39464261153,0.0773052009702,1.90835219327,0.154193444397,-0.0105639459946,-0.0720867753012,0.00104243395007,-0.111491538533,-0.00392038521346,0.0458561638679,-0.0167136307777,0.574069825911,0.818791967856,0.00207249983494,0.0,0.818748868789,-0.574009182143,-0.0120206311511,0.0,-0.00865292889554,0.00859770406012,-0.999925600386,0.0,0.657154534889,0.254971538922,0.303377300062,1.0,-0.01356,-0.0178217142857,0.679
0.461603719932,0.521952270183,-0.124079521933,-1.39647915874,0.0771975584876,1.90907625375,0.153951573237,-0.00811855629207,-0.0712987003707,0.00080266358027,-0.117465260596,-0.00412441352102,0.0441681158665,-0.0186877348605,0.574057300563,0.818800612464,0.00212593519778,0.0,0.818758206087,-0.573996429521,-0.0119935717171,0.0,-0.00860023023576,0.00862579036602,-0.999925813138,0.0,0.656939299209,0.254707666281,0.303391637788,1.0,-0.01388,-0.0182422857143,0.695
0.461429858436,0.520701618186,-0.124087208295,-1.39849121403,0.0770706698768,1.90983188669,0.153676315791,-0.01235553025,-0.0749834657346,-3.23028297685e-05,-0.118613692227,-0.00884108165345,0.0410412695627,-0.011279553939,0.574053035525,0.818803631486,0.0021147978424,0.0,0.818761135958,-0.573992267717,-0.0119927372717,0.0,-0.00860598491206,0.00861614740636,-0.999925846764,0.0,0.656701357001,0.254397346347,0.303378266843,1.0,-0.01422,-0.0186891428571,0.712
0.461264829727,0.519383504884,-0.124090407178,-1.40055518553,0.0769422472223,1.91056138389,0.153398758405,-0.00942593475159,-0.0805176094024,-4.95671164321e-05,-0.123095118573,-0.00178564165318,0.0398209120563,-0.0181374695944,0.574038155164,0.818814102977,0.00209954365819,0.0,0.818771364619,-0.573977409253,-0.0120055423834,0.0,-0.00862538285319,0.00861085141316,-0.999925725246,0.0,0.656443805116,0.254088234698,0.303384743405,1.0,-0.01456,-0.019136,0.729
0.461083406009,0.518043692213,-0.124100014454,-1.40265169215,0.0768000701745,1.91132199594,0.153113717654,-0.00936841150587,-0.0797085117469,-0.00108923263393,-0.127926603895,-0.00469498045068,0.0422408279155,-0.0179472308331,0.574032863633,0.818817829925,0.00209278934698,0.0,0.818775124299,-0.573972267296,-0.0119949616753,0.0,-0.00862065141677,0.00859919161841,-0.999925866388,0.0,0.656190967939,0.253760990635,0.303393451543,1.0,-0.0149,-0.0195828571429,0.746
0.460914426263,0.516754164946,-0.124096845995,-1.40466693442,0.076672933059,1.91205691043,0.15283770033,-0.00736171073897,-0.0791339379115,-0.00157137745968,-0.124672920875,-0.00335013753426,0.0491262537862,-0.0183113917114,0.574015236109,0.818830171332,0.00209907872153,0.0,0.818787522145,-0.573954590122,-0.0119945386834,0.0,-0.00861688019961,0.00860391307158,-0.999925858279,0.0,0.655943304223,0.253459070125,0.303402542503,1.0,-0.01522,-0.0200034285714,0.762
0.460724684274,0.515384430202,-0.124111725447,-1.40683439805,0.076539295088,1.91288330963,0.152533401029,-0.00737693962021,-0.0803779200787,-0.000469237039534,-0.13103787679,-0.00257597639651,0.0493231360424,-0.0151798778905,0.5740105709,0.818833394826,0.00211728950936,0.0,0.818791065105,-0.573949931596,-0.0119755846433,0.0,-0.00859095586195,0.00860789563913,-0.999926047071,0.0,0.655688891536,0.253121158565,0.303403579325,1.0,-0.01556,-0.0204502857143,0.779
0.460531320784,0.51399740485,-0.12410958501,-1.409079046,0.0764000045995,1.91367297537,0.152239565717,-0.0115425558132,-0.083902334017,-0.000450927590721,-0.127263835138,-0.0150573187489,0.0496539506287,-0.0141460937041,0.574007111127,0.818835969777,0.00205861050429,0.0,0.818792775869,-0.573946619789,-0.0120172674844,0.0,-0.00865880504312,0.00858373766517,-0.999925669509,0.0,0.655405761708,0.252778605021,0.303375874342,1.0,-0.0159,-0.0208971428571,0.796
0.460335545837,0.512581847266,-0.124110641189,-1.41136107275,0.0762688360202,1.91446309138,0.151911767054,-0.014199964879,-0.0822551629218,-6.70641500294e-05,-0.130194858008,-0.010858860915,0.0456254135832,-0.0217498233266,0.573983880988,0.81885240154,0.0019989394094,0.0,0.818808224998,-0.57392344733,-0.0120712129822,0.0,-0.00873747176655,0.0085655946197,-0.999925140786,0.0,0.655114586392,0.2524299575,0.303350087436,1.0,-0.01624,-0.021344,0.813
0.460125811357,0.511055835226,-0.124115739867,-1.41378722121,0.0761193190971,1.91539080563,0.151572647947,-0.00806935932731,-0.0904856603681,0.000226446469087,-0.140896311605,0.000875361452364,0.0501294721254,-0.0173708381712,0.573968350886,0.818863240254,0.00201812859537,0.0,0.818819347366,-0.573907868802,-0.012057421287,0.0,-0.00871532698011,0.00857322601258,-0.999925268643,0.0,0.654823982461,0.252060517151,0.30334461271,1.0,-0.0166,-0.0218171428571,0.831
0.459922905403,0.509575216605,-0.124121640103,-1.41614574737,0.0759696613524,1.91627388068,0.151238422121,-0.0118164649469,-0.0837139435995,-0.00116128157557,-0.139031690073,-0.00265650304737,0.0518235990674,-0.0208980933971,0.5739476404,0.818877760155,0.00201665665655,0.0,0.818833891757,-0.573887210255,-0.0120529879101,0.0,-0.00871275802788,0.00856925577389,-0.999925325063,0.0,0.654536862557,0.251699567342,0.303335180779,1.0,-0.01694,-0.022264,0.848
0.459742998517,0.508248059175,-0.124122662426,-1.41823782499,0.0758354005902,1.91701198815,0.150948325777,-0.0146218050455,-0.0855155998369,-0.000319485209577,-0.143970037549,-0.0134221138822,0.0504300076795,-0.0214527420212,0.573930303513,0.818889973535,0.00199119399144,0.0,0.818845736963,-0.573869950467,-0.0120700418552,0.0,-0.00874151815949,0.00855800826493,-0.999925170378,0.0,0.654271801196,0.251378908694,0.303331975287,1.0,-0.01724,-0.0226582857143,0.863
0.459513962156,0.506624344395,-0.124125555759,-1.42079690479,0.0756754993096,1.91794556841,0.150595098575,-0.0165896150766,-0.0894902168946,0.000108173283274,-0.147248936049,-0.00599001433639,0.0545000594644,-0.0109720277298,0.573919948046,0.818897241103,0.00198712085885,0.0,0.818852922678,-0.573859585936,-0.0120753282495,0.0,-0.00874829306738,0.0085575962448,-0.999925114654,0.0,0.653955084592,0.250982668806,0.303330449429,1.0,-0.0176,-0.0231314285714,0.881
0.4592937034,0.505015992588,-0.124134101729,-1.42325029508,0.0755250774874,1.91889782777,0.150269040872,-0.0125574620315,-0.0915421928268,-0.000212910604379,-0.143674408214,-0.0113097371472,0.0522669393675,-0.0189752988629,0.573925688761,0.818893000192,0.00207482960085,0.0,0.818849902199,-0.57386502419,-0.0120215881311,0.0,-0.00865388884682,0.00859863781429,-0.999925584049,0.0,0.653664528781,0.25060400087,0.30336961459,1.0,-0.01794,-0.0235782857143,0.898
0.459082851088,0.503448988114,-0.124133015172,-1.42558363915,0.0753718995945,1.91977530785,0.149928987826,-0.0150224821871,-0.0965055484576,0.000469918567796,-0.143673993378,-0.0052695301756,0.060235722545,-0.0221760091342,0.573897587991,0.8189124599,0.00216527587332,0.0,0.81887062127,-0.573836629208,-0.0119655965642,0.0,-0.00855642624581,0.00864027415871,-0.999926063883,0.0,0.653381369983,0.250245450726,0.303429574979,1.0,-0.01826,-0.0239988571429,0.914
0.458866765114,0.501841139578,-0.124135292395,-1.42794965733,0.0752186774879,1.92064123744,0.14960523509,-0.0131595752108,-0.0884286905256,-0.000590305524612,-0.147936435508,-0.00977375821909,0.0462911025628,-0.0197971133871,0.57389117718,0.818916720641,0.00225129093657,0.0,0.818876075331,-0.573829943499,-0.0119128542204,0.0,-0.00846394031776,0.00868037734282,-0.999926503681,0.0,0.653072539198,0.249852020461,0.303499509121,1.0,-0.0186,-0.0244457142857,0.931
0.458617672525,0.500032369977,-0.124138667561,-1.43070544616,0.0750397077276,1.9216129953,0.149219889797,-0.0158259629409,-0.100674701816,0.000889713080063,-0.153100723152,-0.0103313168409,0.0579748325654,-0.0210573577182,0.573873300772,0.818929189276,0.00227255679979,0.0,0.81888878163,-0.573811943912,-0.0119064371894,0.0,-0.00844667134433,0.00869392506427,-0.999926532006,0.0,0.652740353528,0.249446976203,0.303535748945,1.0,-0.01894,-0.0248925714286,0.948
0.458399447185,0.498538661913,-0.124138748032,-1.4330173745,0.0748991343292,1.92248189879,0.148874955962,-0.0145277701735,-0.0960628557842,0.0007526924939,-0.159043813744,-0.0114717477505,0.056613047591,-0.0283832237253,0.573849373466,0.818945833631,0.00231625852726,0.0,0.818905960691,-0.573787810705,-0.0118879238313,0.0,-0.00840668663754,0.00871884342163,-0.999926652005,0.0,0.652457111918,0.249086220992,0.303552416641,1.0,-0.01924,-0.0252868571429,0.963
0.458119989789,0.496780055391,-0.124136241982,-1.43585143421,0.0747256522736,1.92349548302,0.14846233927,-0.0175810267977,-0.0934360576883,0.00271195469993,-0.157038510535,-0.0107117051315,0.0589409078104,-0.0204633441313,0.573835253448,0.818955871598,0.00226476849284,0.0,0.81891518454,-0.573773749652,-0.0119311207133,0.0,-0.00847175976034,0.00870131851405,-0.999926255452,0.0,0.652098837278,0.248633326187,0.303517250701,1.0,-0.0196,-0.02576,0.981
0.457851536765,0.495098195799,-0.124138756386,-1.43857181006,0.0745559309108,1.92443253767,0.148078268717,-0.0155868846991,-0.0978469717052,0.000125711824409,-0.16039940328,-0.0161126291193,0.0558445695707,-0.0221747017492,0.573833518119,0.818957322472,0.00217815372006,0.0,0.81891535822,-0.573772217645,-0.0119927157638,0.0,-0.00857192333681,0.00866571265427,-0.999925711018,0.0,0.651747578757,0.248192781646,0.303475563409,1.0,-0.01994,-0.0262068571429,0.998
0.457572697782,0.493337580077,-0.124180849485,-1.44133249428,0.0743932867948,1.92542448593,0.147686862314,-0.0173618133725,-0.124407783201,-0.0112504704844,-0.194622683729,-0.0110312588564,0.067115785451,-0.0307088148673,0.573866552205,0.818934204862,0.00216685711796,0.0,0.818892117024,-0.573805318434,-0.0119960041311,0.0,-0.00858074917205,0.00865869445025,-0.999925696116,0.0,0.651409375002,0.247723429454,0.303474766504,1.0,-0.0271188571429,-0.0356419265306,1.014
0.457254614856,0.490726261055,-0.124237451892,-1.44535357331,0.0741671915064,1.92695912096,0.147080033014,-0.0257680475585,-0.168245709286,-0.00296394044797,-0.269130325143,-0.0156622346073,0.093004835355,-0.0397086316264,0.573811857486,0.818972246073,0.0022714032126,0.0,0.818931579505,-0.573750262158,-0.0119353116593,0.0,-0.00847163391372,0.00870891484709,-0.999926190387,0.0,0.650910185241,0.247108344973,0.303512501296,1.0,-0.0364542857143,-0.0479113469388,1.031
0.456756135363,0.487409825101,-0.124260298069,-1.45068348903,0.0738733111682,1.92893237484,0.146303271336,-0.0294922697058,-0.215042994056,-0.00500708573278,-0.335735152291,-0.0224626476245,0.124542277823,-0.0468074759389,0.573787147606,0.818989619616,0.00224924516237,0.0,0.818948312818,-0.573725285315,-0.0119876947152,0.0,-0.00852751289344,0.00872056858583,-0.999925613837,0.0,0.650235174243,0.246269042853,0.303452919621,1.0,-0.0457897142857,-0.0601807673469,1.048
0.45617299285,0.483505027671,-0.124367184156,-1.45679223508,0.0734974092092,1.93118665766,0.145365799536,-0.0408044254032,-0.253575779958,-0.00569755334002,-0.40899199295,-0.0258945572285,0.140415313386,-0.0609431430695,0.573774228638,0.818998612722,0.00227020089494,0.0,0.818957886253,-0.573712597476,-0.011940809944,0.0,-0.0084772271396,0.00871069564911,-0.999926127472,0.0,0.649479700398,0.245247376644,0.303455016313,1.0,-0.054576,-0.0717284571429,1.064
0.455401200385,0.478577425397,-0.124494299632,-1.46456572841,0.0730390603029,1.93388818562,0.144194685222,-0.0521534264549,-0.302237453718,-0.00521042234658,-0.479460503313,-0.0193647361581,0.163740376833,-0.0736552342715,0.573794894635,0.818984482875,0.00214070116813,0.0,0.818941938998,-0.573733663741,-0.0120220855962,0.0,-0.00861787515173,0.00865148787136,-0.999925439213,0.0,0.648478459005,0.243925944104,0.303409297646,1.0,-0.0639114285714,-0.083997877551,1.081
0.454491591437,0.472858877611,-0.124617525487,-1.47344003675,0.0724971170986,1.93707408265,0.142925382482,-0.0527378289948,-0.348786256412,-0.00574034102598,-0.538379362687,-0.0394088639834,0.194845282543,-0.0818812220422,0.573871483448,0.818930790269,0.00215131029388,0.0,0.818888471448,-0.573810285444,-0.012007270721,0.0,-0.00859884528113,0.00865248004604,-0.999925594456,0.0,0.647348261715,0.242418257803,0.303422433231,1.0,-0.0732468571429,-0.0962672979592,1.098
0.453496962684,0.466756650495,-0.124673934765,-1.48267719654,0.0719469878142,1.9405377574,0.141465157357,-0.0645698074823,-0.398900795573,-0.00055329399725,-0.599235079828,-0.0373120870315,0.226742513226,-0.101993963183,0.573823295887,0.81896375207,0.00243819490272,0.0,0.818925074184,-0.573760848749,-0.0118725825274,0.0,-0.00832443422774,0.00880963299086,-0.999926544383,0.0,0.646185542927,0.240875900132,0.303541497962,1.0,-0.0820331428571,-0.107814987755,1.114
0.452187156901,0.459167814723,-0.124723081901,-1.49443545907,0.0712015771359,1.94463827198,0.139658402807,-0.0758474133632,-0.440173536717,-0.0041891661855,-0.671525832581,-0.0443382066535,0.235089049314,-0.0884284252255,0.573799656649,0.818980482097,0.00238135987205,0.0,0.818940635014,-0.573736985152,-0.0119522003408,0.0,-0.00842250672299,0.00880853040905,-0.999925732828,0.0,0.644624718493,0.238871712429,0.303530351016,1.0,-0.0919177142857,-0.120806138776,1.132
0.450800301393,0.451197422129,-0.124867276948,-1.50663886025,0.0703753358052,1.94885595506,0.137717526712,-0.0782329091466,-0.494156609739,-0.00935965228996,-0.717158877838,-0.0492030951381,0.273901891732,-0.114222919274,0.573785119939,0.818990818239,0.00232866443371,0.0,0.818950590945,-0.573722980834,-0.0119422675941,0.0,-0.00844476179606,0.00875952520591,-0.999925975618,0.0,0.643003198048,0.236713908427,0.303568045405,1.0,-0.101253142857,-0.133075559184,1.149
0.449382052564,0.443040372902,-0.12494228083,-1.51891263507,0.0695698710613,1.95333939203,0.135856234561,-0.0943697157571,-0.509429895455,0.000281419278046,-0.785342838827,-0.044456134192,0.269031726286,-0.121857861133,0.573810609693,0.818972073969,0.00262167201683,0.0,0.818935869087,-0.573747566962,-0.0117693937084,0.0,-0.00813478345345,0.00890055559434,-0.999927300061,0.0,0.641386639794,0.234595759502,0.303705269862,1.0,-0.110039428571,-0.14462324898,1.165
0.447564328392,0.433154699559,-0.125004248601,-1.53386796579,0.0685741549961,1.95853438494,0.133401291602,-0.101821993956,-0.574481079032,-0.00607485915214,-0.81386459594,-0.054591434161,0.30380089386,-0.138405636662,0.57371489937,0.819038894749,0.00269258789615,0.0,0.819003293124,-0.573651260375,-0.0117721800626,0.0,-0.00809742280743,0.00895928594796,-0.999927078811,0.0,0.63945204084,0.232117959693,0.303778873221,1.0,-0.119374857143,-0.156892669388,1.182
0.445807933119,0.423797394462,-0.125076794885,-1.54801672782,0.0675649379089,1.96351987381,0.131081779292,-0.112265012285,-0.593387967926,-0.00403257083996,-0.899640602233,-0.06104550047,0.307342488369,-0.148849580321,0.573638566236,0.819091858849,0.00284059755632,0.0,0.819058599854,-0.573574889587,-0.0116448675981,0.0,-0.00790907309142,0.00900673441776,-0.999928160068,0.0,0.637397037529,0.229439861867,0.303858946813,1.0,-0.128710285714,-0.169162089796,1.199
0.443844525977,0.413846142111,-0.125184382054,-1.5629902627,0.0664778345504,1.9687324547,0.128621219616,-0.119626235235,-0.640380357513,-0.0065380922627,-0.965667849117,-0.0715544653134,0.346367404805,-0.160956378173,0.573633982668,0.819094701346,0.00294466586421,0.0,0.819063298598,-0.573570548444,-0.0115276080747,0.0,-0.00775337835499,0.00902466921936,-0.99992921773,0.0,0.635320884975,0.2266885439,0.303936103892,1.0,-0.137496571429,-0.180709779592,1.215
0.44142481194,0.402147191035,-0.12528386622,-1.58089460655,0.0652798600819,1.97474223187,0.125603518115,-0.136176001058,-0.654336019953,-0.00413642700583,-1.02097537291,-0.0643062464239,0.316682493964,-0.166771360432,0.573613223871,0.819109787613,0.00278785551003,0.0,0.819075471903,-0.573549311395,-0.0117177483432,0.0,-0.00799930376001,0.00900509284704,-0.99992745709,0.0,0.632740044462,0.22338238738,0.303842925809,1.0,-0.147381142857,-0.193700930612,1.233
0.438865550195,0.390291348027,-0.125427074473,-1.598462272,0.0640036923408,1.98080249221,0.122602344643,-0.15409227691,-0.693665603138,-0.00582709854507,-1.04054801726,-0.0804307399811,0.357167411132,-0.175672207982,0.57368917287,0.819055728428,0.00303208867531,0.0,0.819025027989,-0.57362494982,-0.0115398168454,0.0,-0.00771261986982,0.00910379976961,-0.999928815629,0.0,0.63024933532,0.220008688793,0.303984485163,1.0,-0.156716571429,-0.20597035102,1.25
0.436463442258,0.379418361265,-0.125558113177,-1.61475908424,0.0627550591561,1.98620772084,0.119683219019,-0.167433712958,-0.740139924223,-0.00488416726017,-1.08826497638,-0.0892626175753,0.374812825793,-0.190093777418,0.573621425683,0.819103472115,0.00295107905503,0.0,0.819072096065,-0.573557907013,-0.0115315069298,0.0,-0.00775303190858,0.00903203984736,-0.999929153867,0.0,0.627683263673,0.216639558419,0.303981391849,1.0,-0.165502857143,-0.217518040816,1.266
0.433287287477,0.365835548165,-0.125704319465,-1.63505106626,0.0612560593326,1.99287938868,0.116098635583,-0.181946039013,-0.780103946442,-0.00892793602899,-1.11847545267,-0.0862958903613,0.37617096333,-0.205467497033,0.573716947481,0.81903681081,0.00288333369062,0.0,0.819004281335,-0.573653317908,-0.0116019356137,0.0,-0.00784852951449,0.0090178633441,-0.999928536809,0.0,0.624816423947,0.212842783089,0.303962775725,1.0,-0.174838285714,-0.229787461224,1.283
0.429996477044,0.352459297985,-0.125893888324,-1.65495406314,0.0597131596463,1.99940027125,0.112424494739,-0.199143047512,-0.775037125757,-0.00679621983141,-1.19055288074,-0.0881760421853,0.384243679956,-0.220849019894,0.573798375031,0.818980027812,0.00280815916305,0.0,0.81894680347,-0.573735304824,-0.0116051706689,0.0,-0.00789341491649,0.00895893352923,-0.999928713215,0.0,0.621813247288,0.208786258524,0.303932189249,1.0,-0.184173714286,-0.242056881633,1.3
0.4266719371,0.339236457252,-0.126051076765,-1.67412863834,0.0582915212198,2.00567432639,0.10879369858,-0.208430599267,-0.818976503411,-0.00479964796118,-1.21616301528,-0.0938619319656,0.396702225756,-0.230862946608,0.573900462681,0.818907553821,0.00306987485538,0.0,0.818877432369,-0.573836199703,-0.0115114538269,0.0,-0.00766535875566,0.0091204555137,-0.999929027265,0.0,0.618880752442,0.20483584485,0.304076352252,1.0,-0.19296,-0.253604571429,1.316
0.422753239141,0.323962131312,-0.126170357132,-1.69645781071,0.0564613198686,2.01284416246,0.104420166647,-0.226190752522,-0.881383645049,-0.00640176913255,-1.25059095142,-0.105239447537,0.40280034965,-0.238904801077,0.573790221021,0.818984742026,0.00308569122248,0.0,0.818955139126,-0.573726298019,-0.0114613246603,0.0,-0.00761645445868,0.00910361396724,-0.999929554436,0.0,0.615352203016,0.200242274495,0.304093884286,1.0,-0.202844571429,-0.266595722449,1.334
0.419017984964,0.309934889339,-0.126254903259,-1.71685475252,0.05479893316,2.01925126741,0.100330591174,-0.246903509816,-0.909322853004,-0.00572065565907,-1.2717514331,-0.0966199954792,0.422492671801,-0.259759814609,0.573686151412,0.819057688886,0.00307389927666,0.0,0.81902770752,-0.573622008548,-0.0114957611639,0.0,-0.00765258262964,0.0091127431059,-0.999929195439,0.0,0.612046287469,0.195992537772,0.304091876187,1.0,-0.211630857143,-0.278143412245,1.35
0.414744469773,0.294539139154,-0.12636760748,-1.7391814366,0.0529050679609,2.02603222624,0.0957587523953,-0.257139541047,-0.918544796392,-0.00919979059344,-1.31946309992,-0.103741695165,0.383129209935,-0.26322792999,0.573592367881,0.81912405856,0.00288428464071,0.0,0.819091387672,-0.573528574658,-0.0116197931543,0.0,-0.00786398387535,0.0090276911895,-0.999928326706,0.0,0.608334424899,0.19123201299,0.30403707544,1.0,-0.220966285714,-0.290412832653,1.367
0.409835225327,0.277678106858,-0.126543278731,-1.76330266206,0.0509306742709,2.03335804529,0.0906395182705,-0.283598452186,-0.929023755527,-0.00579370443262,-1.3594271337,-0.104520435397,0.384962910342,-0.292169156411,0.573603144702,0.819116373511,0.00292334308446,0.0,0.819083477952,-0.573538376667,-0.0116933116526,0.0,-0.00790168572008,0.0091019575977,-0.999927356227,0.0,0.604286045439,0.185942888573,0.304051985538,1.0,-0.230850857143,-0.303403983673,1.385
0.405122369151,0.262163518626,-0.126748891403,-1.78512542675,0.0489805336593,2.03994741191,0.0858524119894,-0.302895764643,-0.974145352191,-0.0188556870115,-1.38950670403,-0.129877009576,0.416963026055,-0.296847531279,0.573639958905,0.819090070502,0.00306608133964,0.0,0.81905965006,-0.573575444898,-0.0115432038267,0.0,-0.00769644284811,0.00913312231877,-0.999928672878,0.0,0.600590326139,0.180992705668,0.30415943388,1.0,-0.239637142857,-0.314951673469,1.401
0.400057859054,0.246410392763,-0.126935970819,-1.80731756791,0.0470161325572,2.04641741022,0.0808849496243,-0.323541971279,-0.980290411516,-0.0107309883907,-1.40448686168,-0.126653911995,0.396839826273,-0.323176906475,0.573764442285,0.819002965362,0.00304210442244,0.0,0.818971985955,-0.573699694913,-0.0115884933677,0.0,-0.00774590518582,0.00914063971998,-0.999928222253,0.0,0.596732265732,0.17585048715,0.304166394173,1.0,-0.248423428571,-0.326499363265,1.417
0.394459955044,0.229155119135,-0.127082098031,-1.83129848877,0.0448959489453,2.05335711642,0.0752765342546,-0.331525600276,-1.01424229882,-0.00310922461485,-1.40978293565,-0.113358211893,0.405106118589,-0.327651248112,0.57371138673,0.819039528987,0.0032002491127,0.0,0.819010063358,-0.573645498825,-0.0115803582933,0.0,-0.00764910997253,0.00926499802377,-0.999927822859,0.0,0.592461431963,0.170314874977,0.304234711051,1.0,-0.257758857143,-0.338768783673,1.434
0.388516832814,0.2114613605,-0.127265246001,-1.85570747337,0.0425356016152,2.0602269897,0.0693280892429,-0.356121527031,-1.04680677732,-0.0130509748291,-1.43586497333,-0.12982356392,0.391145559112,-0.355180652339,0.573556859542,0.819147658881,0.00322315413508,0.0,0.819118959647,-0.573491491661,-0.0115059046081,0.0,-0.00757672922579,0.00923961506635,-0.999928608795,0.0,0.588016042859,0.164549120183,0.304282420193,1.0,-0.267094285714,-0.351038204082,1.451
0.382477520382,0.194446656413,-0.127463645266,-1.87900707936,0.0402809523909,2.06658642359,0.0634724902734,-0.387007514092,-1.09908205688,-0.0152191791069,-1.47613104156,-0.152419313121,0.411406027773,-0.371509325122,0.573529914586,0.819166556128,0.0032151668177,0.0,0.819137728148,-0.573464543871,-0.0115128688174,0.0,-0.00758731900711,0.00923681694948,-0.999928554349,0.0,0.583687757206,0.158879841155,0.304304852278,1.0,-0.275880571429,-0.362585893878,1.467
0.375526328226,0.176014745705,-0.127780339678,-1.90397307017,0.0378941371355,2.07324498024,0.0569064513988,-0.417416453107,-1.11008913544,-0.0220112570355,-1.48313353253,-0.149967575358,0.411935822943,-0.394641430204,0.573693925985,0.819051344457,0.00330474393526,0.0,0.819023278694,-0.573627771331,-0.011523706741,0.0,-0.00754295982633,0.00931792217414,-0.99992813746,0.0,0.578703605516,0.152175830615,0.304353725077,1.0,-0.285765142857,-0.375577044898,1.485
0.368266140867,0.157144381594,-0.128019543367,-1.92928812109,0.035310825245,2.07977289054,0.0500356075766,-0.431137441091,-1.14928205695,-0.0211176531611,-1.48373938998,-0.153466734932,0.405066313928,-0.419706608369,0.573668133059,0.819069515558,0.00327852057443,0.0,0.819041039493,-0.573601975503,-0.01154539845,0.0,-0.00757606389981,0.00930864929384,-0.999927973558,0.0,0.574077762326,0.146119762635,0.304373291967,1.0,-0.294551428571,-0.387124734694,1.501
0.360558101118,0.138010576253,-0.128260989478,-1.95477192338,0.032650410501,2.086170808,0.0428515794511,-0.463568506967,-1.1597562129,-0.0187774853068,-1.49440235891,-0.152045802803,0.392380257893,-0.437710691476,0.573663957567,0.819072569741,0.00324594948218,0.0,0.819043556333,-0.573597761152,-0.0115761881526,0.0,-0.00762001553107,0.00929959496274,-0.999927723836,0.0,0.569024628391,0.139508258313,0.30436297701,1.0,-0.303886857143,-0.399394155102,1.518
0.352310760355,0.118404246953,-0.128584088444,-1.98046316627,0.0299315073902,2.09241223475,0.0352195950891,-0.499528212128,-1.17189026227,-0.022446182014,-1.51489238462,-0.162124403338,0.37992123322,-0.453822671606,0.573715986399,0.819035829755,0.00332015505419,0.0,0.819007628516,-0.573649367149,-0.0115609213924,0.0,-0.00756434963682,0.0093520977944,-0.999927656824,0.0,0.563833386323,0.132630532463,0.304409843822,1.0,-0.313222285714,-0.41166357551,1.535
0.3435124344,0.0984346574983,-0.128966071496,-2.00634107811,0.0270249119103,2.09846902454,0.0271494874815,-0.519064548807,-1.19794421587,-0.0202488347347,-1.50031534764,-0.167814039202,0.363739393517,-0.484855252781,0.573767518871,0.818999673937,0.00333395878644,0.0,0.818972142318,-0.573701459176,-0.0114896800731,0.0,-0.00749749156285,0.00932300409461,-0.999928432046,0.0,0.558493180795,0.125490193151,0.304448569535,1.0,-0.322557714286,-0.423932995918,1.552
0.334846165151,0.0793624323174,-0.129247661945,-2.03088394557,0.0244007496618,2.10384617357,0.019151321808,-0.555078418252,-1.18693563109,-0.0159227833919,-1.48903552284,-0.158668085843,0.328430596345,-0.511838354216,0.573724837248,0.819029715442,0.00329897702277,0.0,0.819000171788,-0.573656971855,-0.0117108562648,0.0,-0.0076992063386,0.00942085323353,-0.999925982134,0.0,0.553244968165,0.118712791868,0.30441848185,1.0,-0.32998,-0.433688,1.568
0.325086622158,0.0590699572088,-0.129623398343,-2.05675837089,0.0213252146223,2.10942226953,0.0103699364391,-0.592785745502,-1.18985760816,-0.0242665482264,-1.47386672284,-0.171203671402,0.305034488357,-0.52390785982,0.573772995382,0.818996413707,0.00318920157016,0.0,0.818965716781,-0.573705823076,-0.0117273273419,0.0,-0.00777512521886,0.00934085032695,-0.999926145244,0.0,0.547641414678,0.111277610628,0.304364006548,1.0,-0.32998,-0.433688,1.585
0.314307167923,0.037658005855,-0.129916767887,-2.08354567951,0.018186691268,2.11477620984,0.000885575381139,-0.605874324434,-1.18725319205,-0.00390606888916,-1.45374261206,-0.161401604858,0.292796558599,-0.527203329324,0.573920774431,0.818892962678,0.00316342432809,0.0,0.818861026903,-0.573852591235,-0.0118561820639,0.0,-0.00789375678778,0.00939509497042,-0.999924707563,0.0,0.541663004519,0.103421923093,0.304361315679,1.0,-0.32998,-0.433688,1.603
0.305073141813,0.0199991170539,-0.130155026386,-2.10533792838,0.0154740056384,2.11896783948,-0.00733362822617,-0.624134024212,-1.14511747966,-0.00958137251982,-1.41884053673,-0.167895523018,0.267932198221,-0.552760888086,0.573885091755,0.818918030079,0.00314775684393,0.0,0.818885981251,-0.573817077646,-0.0118514983553,0.0,-0.00789932113972,0.00937923275226,-0.999924812533,0.0,0.536697974194,0.0968873596237,0.304371767318,1.0,-0.32998,-0.433688,1.618
0.293619306022,-0.0010530794527,-0.130494878569,-2.13077492638,0.0123067379606,2.12355668632,-0.0173972507767,-0.647250485887,-1.14828141667,-0.0118207498587,-1.39062321007,-0.170434231577,0.23719468879,-0.561193401027,0.573997032694,0.818839011817,0.00329030179108,0.0,0.818808647526,-0.573928295261,-0.0118092140632,0.0,-0.00778159769584,0.00947276377027,-0.999924853918,0.0,0.530775351253,0.0890197367397,0.304471896531,1.0,-0.32998,-0.433688,1.636
0.282615405489,-0.0207175380708,-0.130677862119,-2.15428817488,0.00929034728671,2.12762209198,-0.0272045583322,-0.661696219246,-1.13920431939,-0.0151968197859,-1.39412106175,-0.188090899723,0.217971672427,-0.584157037759,0.573822688368,0.818960744542,0.00340119325274,0.0,0.81893184073,-0.573753618383,-0.0117546813172,0.0,-0.00767532340156,0.00953063177968,-0.999925125431,0.0,0.524827414213,0.0813127306023,0.304523596203,1.0,-0.32998,-0.433688,1.654
0.271806450466,-0.0389930718021,-0.130968785688,-2.17572050642,0.00642668944733,2.13103449017,-0.0365847564392,-0.690297574827,-1.12793351473,-0.0244424949173,-1.33368100116,-0.181352730488,0.203922787289,-0.598702778159,0.573934973552,0.818881291753,0.00358092886271,0.0,0.818855347683,-0.573866100427,-0.0115916026859,0.0,-0.00743731608999,0.0095852734761,-0.999926401723,0.0,0.519931384503,0.0747653526401,0.304645904121,1.0,-0.32998,-0.433688,1.669
0.259380828455,-0.0593315532097,-0.131206395762,-2.19936409916,0.00333865061681,2.13451604334,-0.0475387383804,-0.692394064371,-1.10843238739,-0.00896475442326,-1.29770653115,-0.169349967176,0.175979213536,-0.60128146494,0.573880033152,0.818919011478,0.00375594073435,0.0,0.818894839437,-0.573809983676,-0.0115797874583,0.0,-0.00732785289088,0.00972131646051,-0.999925896543,0.0,0.5140045593,0.0670263630913,0.304713907663,1.0,-0.32998,-0.433688,1.687
0.247232519585,-0.0782795082028,-0.131513767454,-2.22115140427,0.000339984505308,2.13744382403,-0.0581832715412,-0.723171632604,-1.09410008927,-0.0209619759679,-1.26723656948,-0.166959391579,0.155688044109,-0.633716378785,0.573892772003,0.818909856909,0.00380518077353,0.0,0.818886209833,-0.573822421127,-0.0115737313558,0.0,-0.00729448508565,0.00975827870868,-0.999925780488,0.0,0.508084027179,0.0591994154386,0.304735045916,1.0,-0.32998,-0.433688,1.705
0.236260170459,-0.0947380321961,-0.131743632492,-2.23997549422,-0.0022818129746,2.13968166617,-0.0678515615641,-0.732002409813,-1.0946452872,-0.00441496073427,-1.23201039342,-0.170102291392,0.143902877773,-0.647054630525,0.573835379268,0.81895037609,0.00373977318547,0.0,0.818925142835,-0.573764262318,-0.0117016503585,0.0,-0.00743746595321,0.00977760351076,-0.999924538438,0.0,0.503439491986,0.0531632103394,0.304693123902,1.0,-0.32998,-0.433688,1.719
0.222775665564,-0.114287583003,-0.132019823174,-2.2621110708,-0.00551037891927,2.1420151738,-0.0796748147925,-0.766086957196,-1.0710363536,-0.0237159146903,-1.2152575416,-0.173428238081,0.11208240737,-0.658514085566,0.573752402149,0.819009434782,0.00353180787051,0.0,0.818980778383,-0.573681075033,-0.0118851036916,0.0,-0.00770802912429,0.00971177653355,-0.999923130887,0.0,0.49743952346,0.0454089350689,0.304597639637,1.0,-0.32998,-0.433688,1.737
0.209540811941,-0.132643179422,-0.13235118203,-2.28240697427,-0.00847805521858,2.14395061696,-0.0912464805529,-0.775820330461,-1.07512583766,-0.0175055476028,-1.19061467293,-0.170723009733,0.104112289083,-0.680206321982,0.573801411984,0.818975004298,0.0035537081801,0.0,0.818946230937,-0.573729492417,-0.0119284225662,0.0,-0.00773036156544,0.0097550294457,-0.999922537455,0.0,0.49182202937,0.0380074685499,0.304596029539,1.0,-0.32998,-0.433688,1.754
0.197648504788,-0.14869738254,-0.132619145813,-2.29983919875,-0.0110621680534,2.14542519399,-0.101775760166,-0.807363054891,-1.05676167525,-0.015023540804,-1.16344690291,-0.169481602968,0.0965617045569,-0.70228763464,0.573722278197,0.81902998923,0.00365665730851,0.0,0.819002478901,-0.573649904019,-0.0118942874677,0.0,-0.00764428419867,0.0098190181502,-0.999922572903,0.0,0.486883072063,0.0315428931792,0.304632320343,1.0,-0.32998,-0.433688,1.769
0.18286540503,-0.167739967406,-0.133031027279,-2.32023718843,-0.0141273963172,2.14677953489,-0.114685324575,-0.827276526925,-1.06883022023,-0.0125062677217,-1.11938353026,-0.15740218884,0.0715013414753,-0.736568634951,0.573873047321,0.818924019735,0.00373126801664,0.0,0.818896800489,-0.573799505801,-0.0119542541374,0.0,-0.00764877336975,0.00991593860341,-0.999921582139,0.0,0.480937454533,0.023687075501,0.304659706678,1.0,-0.32998,-0.433688,1.787
0.168573649785,-0.185430272706,-0.133419180116,-2.33905587328,-0.0170709238418,2.14772409967,-0.127308614546,-0.862634394742,-1.04698815581,-0.0315506851344,-1.09713890335,-0.179266466903,0.0448679255253,-0.745192116316,0.573873831929,0.818923851903,0.0036464657228,0.0,0.818894614068,-0.573799436246,-0.0121063997727,0.0,-0.00782203015683,0.00993380842581,-0.999920064452,0.0,0.475282120783,0.0162949759861,0.304612775654,1.0,-0.32998,-0.433688,1.804
0.154773806149,-0.201921081492,-0.13374796479,-2.35609050133,-0.0197872581841,2.14849651535,-0.139541214156,-0.85244210006,-1.01928361035,-0.0217693101563,-1.06644499065,-0.166165264266,0.0306626667755,-0.782192445118,0.573842721709,0.818944784932,0.00383625805498,0.0,0.818918721678,-0.573768530414,-0.0119393338322,0.0,-0.00757667690542,0.00999307576173,-0.99992136311,0.0,0.47006401349,0.00936734693081,0.304699273573,1.0,-0.32998,-0.433688,1.82
0.139696570509,-0.219223856547,-0.13416880592,-2.37372378704,-0.0225946546302,2.14895459085,-0.152853711166,-0.895534146917,-1.02671147379,-0.0326420876782,-1.02639111533,-0.177546279565,0.0302288173312,-0.782192550344,0.57395616718,0.818864418656,0.00401608225888,0.0,0.81884061496,-0.573881215803,-0.0118804184334,0.0,-0.0074238406963,0.0101075652971,-0.999921358764,0.0,0.464489119161,0.00196776019644,0.304773102923,1.0,-0.32998,-0.433688,1.837
0.124363922116,-0.236185607632,-0.134444680755,-2.39104552608,-0.0255208451493,2.14910861422,-0.166551855332,-0.916482489397,-0.992625929143,-0.0186879203538,-1.01771826823,-0.173358377249,0.00769549306558,-0.812879803078,0.573764446934,0.818999449027,0.00387412310916,0.0,0.818973439426,-0.573689549931,-0.0119813486782,0.0,-0.00759032016037,0.0100474692703,-0.999920714557,0.0,0.458832723161,-0.00531498591363,0.30471190823,1.0,-0.32998,-0.433688,1.854
0.108503326567,-0.252898038734,-0.134880374338,-2.40762291851,-0.0282523266253,2.149134169,-0.180708351488,-0.945165387848,-0.957225617089,-0.0234815940557,-0.969443312686,-0.175224047215,-0.000696139271549,-0.835788619311,0.573828550801,0.81895351567,0.00408415956525,0.0,0.81893040947,-0.573753125427,-0.0118778116603,0.0,-0.00738421847148,0.0101606655411,-0.999921113985,0.0,0.453283854168,-0.0127059521157,0.304769251416,1.0,-0.32998,-0.433688,1.871
0.0923201557987,-0.269379907792,-0.135227046347,-2.4237888826,-0.0309975139059,2.1489595344,-0.195207926391,-0.961413947841,-0.965280850345,-0.0298811671195,-0.926902873814,-0.161335801767,-0.00770465373944,-0.859343099487,0.573777408001,0.818988571183,0.00423712638522,0.0,0.818967998497,-0.573702239859,-0.0117432670176,0.0,-0.00718689094795,0.0102082887671,-0.999922066683,0.0,0.447710519577,-0.0200227910922,0.304804264926,1.0,-0.32998,-0.433688,1.888
0.0757040418854,-0.285569838588,-0.135633842021,-2.43950779913,-0.0336698355554,2.14839707652,-0.21019037821,-0.981846636076,-0.96323109835,-0.018812828704,-0.918340780853,-0.142441893096,-0.0298752582178,-0.893020280202,0.573746924429,0.819009602284,0.00429941567827,0.0,0.818989132694,-0.573670549573,-0.0118172747479,0.0,-0.00721215219264,0.0103014980949,-0.999920928873,0.0,0.442077987816,-0.0273660627792,0.304791406399,1.0,-0.32998,-0.433688,1.905
0.0596159341919,-0.300622072796,-0.136107295835,-2.45365738647,-0.0362105481918,2.14776582523,-0.224677343319,-1.0205880527,-0.942574343942,-0.0304492041829,-0.882910811664,-0.155146342627,-0.0509721913089,-0.904430621285,0.573821636196,0.818955993288,0.00453407024546,0.0,0.818939710505,-0.573746183048,-0.0115678388858,0.0,-0.00687227780053,0.0103512057037,-0.99992280919,0.0,0.436853684002,-0.0343594790509,0.30490270301,1.0,-0.32998,-0.433688,1.921
0.0411813179385,-0.317030716918,-0.136520839357,-2.46920307123,-0.0390065333206,2.14669354814,-0.241343014372,-1.04061621944,-0.908725137216,-0.0317352442757,-0.847152022259,-0.157510263079,-0.0657559226661,-0.939288267661,0.573797628816,0.818973037919,0.0044934651493,0.0,0.818955503418,-0.57372121868,-0.0116873247042,0.0,-0.00699374216779,0.0103863071845,-0.999921603024,0.0,0.430882668242,-0.042119545229,0.304855125908,1.0,-0.32998,-0.433688,1.939
0.0243754543207,-0.331262574674,-0.136977991209,-2.48228622489,-0.0413665258716,2.14567709117,-0.256642314934,-1.05350052042,-0.852028483575,-0.0231633442746,-0.837938646384,-0.152012520244,-0.06868584459,-0.967852919623,0.573848808165,0.818936038646,0.00469647492816,0.0,0.818921510677,-0.57377233933,-0.0115589304146,0.0,-0.00677144764993,0.0104793245446,-0.999922162598,0.0,0.425677520557,-0.0490678982896,0.30491560804,1.0,-0.32998,-0.433688,1.955
0.00719527877445,-0.345221063696,-0.137443494592,-2.49510842246,-0.0437848943876,2.14439572292,-0.272316007839,-1.08858987306,-0.84536076944,-0.0369339973331,-0.767910116193,-0.15307954744,-0.0947248891499,-0.975669913848,0.57386791766,0.81892264537,0.004696901261,0.0,0.818907684709,-0.573790767665,-0.0116235006471,0.0,-0.00682384069828,0.0105168851319,-0.999921412075,0.0,0.420373732364,-0.0560199456327,0.304891307938,1.0,-0.32998,-0.433688,1.971
-0.0113832758531,-0.359705382861,-0.137835656363,-2.50799610793,-0.0462560503915,2.14294512488,-0.289434973825,-1.11144971695,-0.8339440673,-0.0275270755902,-0.75240983119,-0.139153893522,-0.0875085028749,-1.00438609351,0.57377198763,0.818988983943,0.00484740057214,0.0,0.818976871528,-0.573695829359,-0.0114335549727,0.0,-0.00658314882445,0.0105303652601,-0.999922883806,0.0,0.414503434946,-0.0637852862036,0.304975827601,1.0,-0.32998,-0.433688,1.989
-0.0315407357133,-0.374470333655,-0.138339379108,-2.521321923,-0.0488620425803,2.14111847081,-0.308031548171,-1.11978021531,-0.789936373648,-0.0288639731215,-0.722223554752,-0.143071539748,-0.108351951262,-1.04899789202,0.57368709246,0.819049145836,0.00472901158225,0.0,0.819034237023,-0.573609310553,-0.0116629469973,0.0,-0.00684005339504,0.0105643079412,-0.999920801397,0.0,0.408841167993,-0.0711291503456,0.30488534321,1.0,-0.32998,-0.433688,2.006
-0.0499154291953,-0.387316424772,-0.13878395577,-2.53240409713,-0.051091910581,2.13948624115,-0.324906697801,-1.15214749969,-0.80824081625,-0.027338387357,-0.692708435465,-0.147920777659,-0.10564891792,-1.0668274493,0.573777208094,0.818985191046,0.004870238127,0.0,0.818973108178,-0.573700560098,-0.0114657021717,0.0,-0.00659630894165,0.0105675560955,-0.999922404723,0.0,0.403616961102,-0.0780958410854,0.304973876818,1.0,-0.32998,-0.433688,2.022
-0.0709736405574,-0.401164109263,-0.139328638305,-2.54451429876,-0.0533875675962,2.13747576706,-0.344492010244,-1.1825194892,-0.777693818304,-0.0411130654373,-0.67074848967,-0.123840433053,-0.117301679146,-1.10019696162,0.573829623362,0.818947912536,0.00496254038211,0.0,0.818935459396,-0.57375018115,-0.0116700417794,0.0,-0.00671002710009,0.0107608231457,-0.999919586878,0.0,0.397646362251,-0.085891082833,0.304913723184,1.0,-0.32998,-0.433688,2.04
-0.0899321080211,-0.413120877583,-0.139670726748,-2.55458725774,-0.0555036919054,2.13561482381,-0.362281221434,-1.19080029821,-0.743713017648,-0.0248355879493,-0.616826664997,-0.132643776083,-0.101954588784,-1.13404087686,0.573635097851,0.819083893309,0.00500970420919,0.0,0.81907287245,-0.5735568729,-0.0115277954388,0.0,-0.0065690077627,0.0107162672027,-0.999921001757,0.0,0.392419819512,-0.0927501354245,0.304978659566,1.0,-0.32998,-0.433688,2.056
-0.109394483735,-0.424545936456,-0.140149936805,-2.56424710414,-0.0575690798605,2.13370017768,-0.380471351832,-1.21096501746,-0.689158587992,-0.0342748131396,-0.607903523767,-0.121068262217,-0.129992395794,-1.14497582549,0.573657507792,0.819068151786,0.00501730861158,0.0,0.819057020547,-0.57357891598,-0.0115572980094,0.0,-0.00658851913507,0.010739599386,-0.99992062306,0.0,0.387136272812,-0.099712618604,0.304967708062,1.0,-0.32998,-0.433688,2.072
-0.130362569158,-0.436179008996,-0.140563859643,-2.57408864288,-0.0596052119832,2.13148675506,-0.400164379009,-1.24345082784,-0.668054866087,-0.0149253562386,-0.566865715196,-0.11306265464,-0.128189502629,-1.17861500188,0.573608863751,0.819102512623,0.00496911885633,0.0,0.81908895789,-0.573527544753,-0.0118398215384,0.0,-0.00684823288357,0.0108617860884,-0.999917558256,0.0,0.381141410523,-0.10743733548,0.304891594335,1.0,-0.32998,-0.433688,2.09
-0.151757206755,-0.447377341817,-0.141066397426,-2.58301039202,-0.0615269086612,2.12949096948,-0.420377246026,-1.26157396964,-0.644387352848,-0.0289827049579,-0.51931418655,-0.120434104649,-0.112761528395,-1.18328208829,0.573649891334,0.819072176104,0.00522679700556,0.0,0.819063769323,-0.573570705403,-0.0114862782051,0.0,-0.00641027665699,0.0108703915898,-0.999920368299,0.0,0.375629871978,-0.114844947033,0.305038182412,1.0,-0.32998,-0.433688,2.107
-0.17223116963,-0.457302966039,-0.141466764251,-2.59119052892,-0.06332395572,2.1273705299,-0.439761021986,-1.29091973733,-0.614362000031,-0.0374785862128,-0.501739999612,-0.106094449636,-0.139063711619,-1.23597802395,0.573635346753,0.819082595164,0.00519019799289,0.0,0.819072239932,-0.573553806615,-0.0117236338884,0.0,-0.00662589422315,0.0109764492172,-0.999917804166,0.0,0.370621274375,-0.121313303731,0.304980080787,1.0,-0.32998,-0.433688,2.122
-0.195509084251,-0.467746144727,-0.141892184391,-2.59968203987,-0.0652213997807,2.12519219956,-0.462024882646,-1.30304480115,-0.558470214364,-0.0181956329056,-0.456593190302,-0.0925096994889,-0.121481387489,-1.23114202709,0.573493684881,0.81918160501,0.00521903410676,0.0,0.819171046181,-0.573411115573,-0.0117998532635,0.0,-0.00667369905527,0.0110426355634,-0.999916757506,0.0,0.364703008191,-0.129041090414,0.304944452139,1.0,-0.324506285714,-0.42649397551,2.14
-0.218975285159,-0.477285720378,-0.142202717451,-2.60709405748,-0.0668139814467,2.12315623456,-0.484178125241,-1.3026207625,-0.506661189911,-0.0103377253546,-0.400142235478,-0.0771875607952,-0.109783368821,-1.20602702732,0.573693892107,0.819040052776,0.00542743107526,0.0,0.819033153303,-0.57361221878,-0.0115958250346,0.0,-0.00638432728505,0.0110979136534,-0.99991803498,0.0,0.358980620997,-0.136710450307,0.305037023605,1.0,-0.314621714286,-0.41350282449,2.158
-0.239650534801,-0.484965742074,-0.142357559588,-2.6131831489,-0.0681314159564,2.12133963695,-0.50378571146,-1.27796039223,-0.462091845114,-0.0102125247569,-0.371656193827,-0.0710878606671,-0.123257876574,-1.1827066497,0.573768283607,0.818987727584,0.00545945925446,0.0,0.818980645155,-0.573685453838,-0.0116811736162,0.0,-0.00643484936614,0.0111736935269,-0.999916867188,0.0,0.353945030074,-0.143317091487,0.305023126442,1.0,-0.305835428571,-0.401955134694,2.174
-0.261324021788,-0.49227043962,-0.142361628876,-2.61902020948,-0.0693094501251,2.11951786506,-0.524397937861,-1.26029616406,-0.407931666102,0.0145040770043,-0.322710821339,-0.0767340133297,-0.0964743813506,-1.21699147022,0.573799627233,0.818965641576,0.00547837630745,0.0,0.81895747282,-0.573714426319,-0.0118811467138,0.0,-0.00658735424768,0.0113041724117,-0.999914407562,0.0,0.348737336152,-0.150096998234,0.304968262785,1.0,-0.2965,-0.389685714286,2.191
-0.282678329333,-0.498816321638,-0.14232098236,-2.62407270069,-0.0702999627901,2.11800805813,-0.544680253671,-1.24159994404,-0.356237324114,0.00456073943075,-0.286746971398,-0.0648236957517,-0.0843535591014,-1.19034398506,0.573929762736,0.818873482324,0.00562088017987,0.0,0.818867695045,-0.573844948212,-0.0117652167236,0.0,-0.00640883368293,0.0113553838661,-0.99991498744,0.0,0.343751111944,-0.156721309959,0.304998012718,1.0,-0.287164571429,-0.377416293878,2.208
-0.302220621871,-0.504224258848,-0.142108197531,-2.62824665008,-0.071050816964,2.11661525347,-0.563376481284,-1.21643990572,-0.324753178323,0.00202110529381,-0.242959054741,-0.0397612509838,-0.0803150524025,-1.18310297358,0.573903821964,0.818891134201,0.00569739971845,0.0,0.818886092929,-0.573818299049,-0.0117844551984,0.0,-0.00638103652265,0.0114288853149,-0.999914327807,0.0,0.33923189563,-0.162659907292,0.305005220875,1.0,-0.278378285714,-0.365868604082,2.224
-0.32265723411,-0.509292104938,-0.141889236629,-2.63207741524,-0.0717381301254,2.11535766022,-0.582922294514,-1.18407148528,-0.284633857212,0.0184800074336,-0.212242423377,-0.0367054395191,-0.0733716612071,-1.15035854411,0.573956325384,0.818853484619,0.00581843451873,0.0,0.818850589061,-0.573871412305,-0.0116645546283,0.0,-0.00621264758199,0.0114595940775,-0.999915036747,0.0,0.334586127665,-0.16884216526,0.305045297035,1.0,-0.269042857143,-0.353599183674,2.241
-0.342609156446,-0.513724675661,-0.141589082536,-2.63553271182,-0.0723393958993,2.11409395419,-0.602062069883,-1.1547446551,-0.243547756134,0.0228245449967,-0.194274803419,-0.0319735129585,-0.0704387462048,-1.11290641087,0.573945869446,0.818860618493,0.00584579579863,0.0,0.81885721096,-0.573859266727,-0.0117964804985,0.0,-0.00630513061992,0.0115576358199,-0.999913329435,0.0,0.33002446094,-0.174773436482,0.305015293289,1.0,-0.259707428572,-0.341329763265,2.258
-0.360900757161,-0.517233948162,-0.141307410721,-2.63838043112,-0.0727652963844,2.11306357831,-0.619635550083,-1.13315615259,-0.210143089556,0.0251859850092,-0.167297866461,-0.02659997509,-0.0611376874442,-1.09379609031,0.573983442107,0.818833891693,0.00590024609645,0.0,0.818829628363,-0.573893766151,-0.0120304525926,0.0,-0.00646495233207,0.0117368028774,-0.999910221895,0.0,0.325863016267,-0.180161215534,0.304935082149,1.0,-0.250921142857,-0.329782073469,2.274
-0.378641736642,-0.520237473376,-0.140882995176,-2.64075143145,-0.0731346009122,2.11223708617,-0.636731648235,-1.10405913657,-0.175552927206,0.0227731099283,-0.141912079902,-0.0256996649155,-0.0536393484607,-1.0608875008,0.573911801859,0.818884102998,0.00590054618887,0.0,0.818879532984,-0.573821576496,-0.0120770736376,0.0,-0.00650398811821,0.0117632380788,-0.999909658103,0.0,0.321904682286,-0.185340555888,0.304903242069,1.0,-0.242134857143,-0.318234383674,2.29
-0.398028253904,-0.523059094554,-0.140469122817,-2.64287069343,-0.0734260680394,2.11139467974,-0.655458045927,-1.05366955544,-0.145899214438,0.0227397141024,-0.107396391701,-0.00951585559221,-0.0440090799401,-1.0328760724,0.573907977363,0.818886249746,0.00597414407503,0.0,0.818882589849,-0.573817352721,-0.0120704871405,0.0,-0.00645641271514,0.0118196989987,-0.999909300612,0.0,0.317617918368,-0.191000084612,0.304914841997,1.0,-0.232250285714,-0.305243232653,2.308
-0.414766901728,-0.525141794218,-0.140096675818,-2.64440023656,-0.0736567132976,2.11076193854,-0.671546810616,-1.03172122229,-0.125083286649,0.0268846997308,-0.0913496993867,-0.0138026844428,-0.0343373419762,-0.999514770012,0.573986480294,0.818830959649,0.00601056247599,0.0,0.818828058212,-0.573896208744,-0.0120207975771,0.0,-0.00639368529667,0.0118216200954,-0.999909680965,0.0,0.313933303497,-0.195870011607,0.304938499942,1.0,-0.223464,-0.293695542857,2.324
-0.431891664007,-0.526868953836,-0.139643542197,-2.64570389606,-0.0737452959576,2.11023597077,-0.688102428574,-1.0045358849,-0.0933715468952,0.026118033112,-0.0717940904747,-0.010846907501,-0.0316688076081,-0.962769102187,0.574016609621,0.818809241391,0.00609138677775,0.0,0.818807473355,-0.573926145358,-0.011993671419,0.0,-0.00632464463182,0.0118724682033,-0.999909517591,0.0,0.310192694001,-0.200807040311,0.304944944564,1.0,-0.214128571429,-0.281426122449,2.341
-0.449312783501,-0.528294001478,-0.139122301197,-2.6467758267,-0.0738298544715,2.10978195073,-0.704967278693,-0.939708304796,-0.0681846957531,0.0285513221243,-0.0541916540839,0.00438113407697,-0.0307740033873,-0.917951916024,0.574004040693,0.818817904194,0.00611129610472,0.0,0.818816612777,-0.573913906053,-0.0119553327498,0.0,-0.00628200363564,0.0118666685525,-0.999909855241,0.0,0.306394155478,-0.205800369621,0.30495342967,1.0,-0.204244,-0.268434971429,2.359
-0.464304626369,-0.529188859325,-0.138684138507,-2.64746485125,-0.0738469410389,2.10946051575,-0.719361311637,-0.922469777783,-0.0488868815993,0.0284283569164,-0.035608621553,-0.000481361378662,-0.0209303225252,-0.887245824662,0.574136147668,0.818725056409,0.00614107896164,0.0,0.818724133573,-0.574045826419,-0.0119552991428,0.0,-0.00626296279885,0.0118920479049,-0.999909673167,0.0,0.303129955838,-0.210090700526,0.304951052845,1.0,-0.195457714286,-0.256887281633,2.375
-0.479367365434,-0.529797249021,-0.138083005614,-2.64794281502,-0.0738426565624,2.10920292573,-0.734091349605,-0.869233821958,-0.031602249154,0.0362784735538,-0.026330986361,0.000501598322779,-0.0107866533486,-0.862449256968,0.573958189224,0.818850276485,0.00608018298847,0.0,0.818848615496,-0.573868258487,-0.0119546519267,0.0,-0.0062999673065,0.0118404477601,-0.999910053059,0.0,0.299881382216,-0.214358187287,0.304949598491,1.0,-0.186122285714,-0.244617861225,2.392
-0.493918556111,-0.530123380742,-0.137586882624,-2.64820495196,-0.073831837309,2.10899975766,-0.748151145433,-0.841167333945,-0.00710933136006,0.0313876030438,-0.00812001811513,-0.00142509718301,-0.0111839682507,-0.815099941769,0.573999973034,0.818821292599,0.00603892748263,0.0,0.81881899053,-0.573910008142,-0.0119795743854,0.0,-0.00634345179345,0.0118212914759,-0.999910004794,0.0,0.296725089025,-0.218499429974,0.30494505409,1.0,-0.176786857143,-0.232348440816,2.409
-0.50760850947,-0.530220742177,-0.136942463364,-2.6483100933,-0.0737653356803,2.10890474951,-0.761519280356,-0.79417862521,0.00108073066113,0.0362118342996,-0.00523399037561,0.00168626646918,-0.00298129467654,-0.775038085595,0.573831519026,0.81894007444,0.00594046713662,0.0,0.818936664197,-0.573742311034,-0.0119686033109,0.0,-0.00639339463547,0.0117330540568,-0.999910725989,0.0,0.293788845907,-0.222344539174,0.304941526529,1.0,-0.167451428572,-0.220079020408,2.426
-0.520111914009,-0.530177865564,-0.136442321501,-2.64830078768,-0.073672074262,2.10884798769,-0.773506004084,-0.752242830891,0.00306721298156,0.0399819589382,0.00146394765779,0.00619394653909,0.00178088790626,-0.733747162276,0.573942420656,0.818862601579,0.00590630244886,0.0,0.818858826887,-0.573853474555,-0.0119648766299,0.0,-0.00640836120349,0.0117038034848,-0.999910972982,0.0,0.291078430949,-0.225865308431,0.304938344245,1.0,-0.158665142857,-0.208531330612,2.442
-0.533158725002,-0.529927248295,-0.135745527256,-2.64816865062,-0.0734517774643,2.10885442274,-0.786255364934,-0.718638318086,0.0145309331911,0.0353273023029,0.0131711994876,0.0109966073077,0.00193543839721,-0.681704579504,0.57379652896,0.818965097621,0.00587019028871,0.0,0.818960830815,-0.573707717111,-0.011973296063,0.0,-0.00643806206215,0.0116779164731,-0.999911084859,0.0,0.288285589441,-0.229482323303,0.304925743589,1.0,-0.148780571429,-0.195540179592,2.46
-0.543647571513,-0.529627463861,-0.135280657099,-2.64798194069,-0.0732232650018,2.1088523983,-0.796280407709,-0.684346437869,0.0219070416915,0.0388950346479,0.0154928730996,0.0172587111909,-0.00026684396412,-0.651811527539,0.573956838244,0.818852390843,0.00592087363647,0.0,0.81884848862,-0.573867251062,-0.0120115670917,0.0,-0.0064380289052,0.0117426455812,-0.999910327009,0.0,0.286009990151,-0.232398392101,0.30491320859,1.0,-0.140543428572,-0.184714220408,2.475
-0.555819392805,-0.529051865064,-0.134493008241,-2.64762574822,-0.0728419005474,2.10893431246,-0.808246093722,-0.629951963776,0.033572676358,0.0446466094753,0.0152786702786,0.0163510159453,0.00252761690035,-0.603658885087,0.573754578942,0.818994015059,0.00593576805464,0.0,0.818990010864,-0.573664431965,-0.0120510789326,0.0,-0.0064647469779,0.0117759231854,-0.999909763268,0.0,0.283563383995,-0.235555721926,0.304892588988,1.0,-0.130658857143,-0.171723069388,2.493
-0.565651330173,-0.528494418444,-0.13396028004,-2.64724393495,-0.0725573413657,2.10900875083,-0.817612901533,-0.606111257977,0.0372234757566,0.0296902646831,0.0255811201219,0.01561897923,0.00429187742851,-0.573083191345,0.573901678459,0.81889070551,0.00596848334041,0.0,0.818886938002,-0.573811017232,-0.0120766789066,0.0,-0.00646482308098,0.0118185668859,-0.999909259653,0.0,0.281324828367,-0.238437908326,0.304882624213,1.0,-0.121323428572,-0.15945364898,2.51
-0.574658847614,-0.527823381024,-0.133347402579,-2.64677621507,-0.0722167454714,2.10914544711,-0.826426261637,-0.539749024901,0.0462247233001,0.0437087804673,0.0281344189546,0.0263020078033,6.56751865812e-05,-0.546276051935,0.573799983755,0.818961816143,0.00598909366887,0.0,0.818958323136,-0.57370926688,-0.0120701683427,0.0,-0.00644913261487,0.0118309082888,-0.999909215028,0.0,0.279438014606,-0.240905336936,0.304877514732,1.0,-0.112537142857,-0.147905959184,2.526
-0.583562156372,-0.527085239199,-0.132718570228,-2.64626127308,-0.0718675163053,2.10925156109,-0.835024647952,-0.513267369681,0.0339397238785,0.0335406782921,0.0257689599987,0.0229837985728,0.00195563077902,-0.496773045108,0.573783824106,0.818973036529,0.00600296042524,0.0,0.818969411564,-0.573692477821,-0.0121157218205,0.0,-0.00647872098394,0.0118682746662,-0.999908580937,0.0,0.277563798931,-0.243330796863,0.304866899435,1.0,-0.103201714286,-0.135636538776,2.543
-0.591932315687,-0.526342732769,-0.132141123362,-2.64571848992,-0.0715172474728,2.1093776758,-0.842915659505,-0.483907893012,0.0467745275833,0.0302729871735,0.0329244459837,0.0152552727732,0.0103991127964,-0.451463007034,0.573948158327,0.81885765659,0.00603296762795,0.0,0.81885435656,-0.573856525272,-0.0121234502738,0.0,-0.00646544672085,0.011898582867,-0.999908306658,0.0,0.275799174766,-0.245615560677,0.304867501333,1.0,-0.0938662857144,-0.123367118367,2.56
-0.598978499742,-0.525593379383,-0.131542105043,-2.6451786382,-0.0711321291171,2.1095142014,-0.849740125185,-0.41294784218,0.0476451523746,0.039754888535,0.028585092224,0.0225916006872,0.00620261073331,-0.409194672,0.573900848229,0.81889054471,0.00606952129123,0.0,0.818887597842,-0.573808836877,-0.0121353913766,0.0,-0.00645493657969,0.0119349969005,-0.999907940584,0.0,0.274352124104,-0.247516502275,0.304865468206,1.0,-0.0850800000001,-0.111819428572,2.576
-0.606141349483,-0.524796615023,-0.130832894702,-2.64460596047,-0.0707252606478,2.10966052447,-0.856665091082,-0.392300340178,0.0387742292954,0.032583211634,0.0300989816848,0.0210153189815,0.00339793925587,-0.358659768577,0.573799661555,0.818961467011,0.00606719471553,0.0,0.818958384146,-0.573707486716,-0.0121503754967,0.0,-0.00647001887774,0.0119408912274,-0.999907772733,0.0,0.2728961341,-0.249422414851,0.30486431125,1.0,-0.0751954285715,-0.0988282775511,2.594
-0.612308416364,-0.524105862099,-0.130168489056,-2.64407754522,-0.0703467161538,2.10980540773,-0.862398090179,-0.349313199544,0.036757145341,0.040882729934,0.0318789299372,0.0262502369207,0.0106949945676,-0.33265966127,0.573875686476,0.818908284994,0.00605509223765,0.0,0.818905299052,-0.573784019286,-0.0121143426252,0.0,-0.0064463444939,0.0119109031317,-0.999908283309,0.0,0.271657154846,-0.251052790341,0.304880346676,1.0,-0.0658600000001,-0.086558857143,2.611
-0.617411303266,-0.52344435743,-0.129586413697,-2.64359233945,-0.0699623396964,2.10994339091,-0.867196107001,-0.305171178398,0.0394019290271,0.0375404117401,0.0282897451097,0.0223610060533,0.00539276145757,-0.279252658029,0.573904068978,0.818888181771,0.00608377077762,0.0,0.8188856051,-0.573812336172,-0.0121043594749,0.0,-0.00642129782912,0.0119288831375,-0.99990823013,0.0,0.270649900019,-0.252395554645,0.304884621998,1.0,-0.0570737142858,-0.0750111673471,2.627
-0.622131911104,-0.522832547217,-0.128942852046,-2.64315565599,-0.0695613284974,2.11008072363,-0.871649436839,-0.26066390993,0.0312043348202,0.0428221700787,0.0256831487843,0.0306476859187,0.002794204649,-0.242225018781,0.573862392296,0.818917284542,0.00609776080598,0.0,0.818914932055,-0.573770685078,-0.0120947055807,0.0,-0.00640597039113,0.0119344738304,-0.999908261731,0.0,0.269737224881,-0.253604315636,0.304886330179,1.0,-0.0477382857144,-0.0627417469389,2.644
-0.626100676558,-0.522356964644,-0.128207592117,-2.64280446461,-0.0691529750583,2.11017926168,-0.87532147435,-0.219650166156,0.0255258903788,0.0425423763592,0.0143654393641,0.0161126969514,0.00143829693645,-0.203080105313,0.573778041392,0.818976552188,0.00607561393831,0.0,0.818974038337,-0.573686684837,-0.0120772129454,0.0,-0.00640557872668,0.0119056388922,-0.999908607986,0.0,0.269007732014,-0.254561874138,0.30489792012,1.0,-0.038402857143,-0.0504723265307,2.661
-0.629254019567,-0.521998199184,-0.127549739885,-2.64253318561,-0.0688055608021,2.11025896741,-0.878180170604,-0.184757180656,0.0167541701437,0.0414102005598,0.0149890012236,0.0227462256113,0.00135634935114,-0.162799826869,0.573716232126,0.819020109054,0.00604093225174,0.0,0.819017350069,-0.573625420553,-0.0120500656711,0.0,-0.00640413709613,0.0118611749629,-0.999909145651,0.0,0.2684423366,-0.25530104927,0.304912401723,1.0,-0.0296165714287,-0.0389246367348,2.677
-0.631950923061,-0.521646202461,-0.126940331785,-2.64228655364,-0.0684236886021,2.11034545808,-0.880542977155,-0.143767722756,0.0242814530454,0.0338665838951,0.0123698046755,0.0193011871756,0.00377515042677,-0.130227838519,0.57373436326,0.819007294314,0.00605633360449,0.0,0.819004823152,-0.573643644477,-0.0120339397504,0.0,-0.00638183002391,0.0118646796248,-0.999909246693,0.0,0.267979998669,-0.255918618257,0.304917477177,1.0,-0.0202811428572,-0.0266552163267,2.694
-0.634073123369,-0.521362220023,-0.126491935594,-2.64210760469,-0.0681061932698,2.11038549147,-0.882276180118,-0.112833848049,0.0159490668868,0.0254650347727,0.00549790474517,0.0158202943577,-0.000444791464953,-0.0904473482272,0.573872131841,0.818910417863,0.00610333622777,0.0,0.818908325491,-0.573780748221,-0.0120645892612,0.0,-0.00637796380139,0.0119218339416,-0.999908591549,0.0,0.267582789588,-0.256425923276,0.304911947319,1.0,-0.0196309677419,-0.0258007004608,2.712
-0.635732089872,-0.521150062801,-0.126172488705,-2.64196236016,-0.0679197176547,2.11038701033,-0.883816365503,-0.0968807731346,0.0145165467137,0.0158418567094,0.00700832650995,0.0064563639693,-0.0018490964655,-0.0921477155042,0.573838775425,0.818933778564,0.00610516560304,0.0,0.818931372248,-0.573746760749,-0.0121164755186,0.0,-0.00641989569361,0.0119528452485,-0.999907952979,0.0,0.267290322219,-0.256788832035,0.304904728457,1.0,-0.0193309677419,-0.0254064147465,2.727
-0.637318943329,-0.520877091959,-0.125928693112,-2.64175211645,-0.0677640297934,2.11045207815,-0.885299339782,-0.0862137951385,0.0209957140777,0.00998814486925,0.011374439512,0.0119886192469,0.00847094350367,-0.0838599297324,0.573828622285,0.818940886616,0.00610601154389,0.0,0.818938607877,-0.573736823218,-0.0120979796785,0.0,-0.00640440984322,0.0119428455416,-0.999908171771,0.0,0.26700170341,-0.257200818936,0.304911383063,1.0,-0.0189909677419,-0.0249595576037,2.744
-0.638879392909,-0.520593803512,-0.12575800228,-2.64154575026,-0.0676914723515,2.11055551403,-0.886927672432,-0.0874145704054,0.0179551422634,0.00929120700655,0.0108852954807,0.00502410401731,0.00184340499365,-0.0845220849956,0.573693960217,0.819035483657,0.00607152553812,0.0,0.819033018402,-0.573602828286,-0.0120605576584,0.0,-0.00639550358752,0.0118920779326,-0.999908833853,0.0,0.26670119845,-0.257634202655,0.304913927737,1.0,-0.0186309677419,-0.0244864147465,2.762
-0.640260244031,-0.520386607424,-0.125656997719,-2.64140149898,-0.0676592919481,2.11054619442,-0.888255304365,-0.0837276026577,0.0138318053419,0.00416907155564,0.0122437728193,0.000926472915781,-9.40777637632e-05,-0.0831134462168,0.573687425715,0.819040207246,0.00605172643064,0.0,0.819037091334,-0.573595653961,-0.012125002154,0.0,-0.00645974466756,0.0119127790437,-0.999908174481,0.0,0.266397087119,-0.258008669615,0.304904901498,1.0,-0.0183109677419,-0.024065843318,2.778
-0.641651023521,-0.520188309244,-0.125608532995,-2.64122426637,-0.0676295432581,2.11055567208,-0.889679282601,-0.0822952944557,0.0126351025181,0.00460904544137,0.0127184282974,0.00129633738626,0.00151258365601,-0.0842923326125,0.573647784118,0.819067981083,0.00605054059644,0.0,0.819064826153,-0.573555982481,-0.0121281664315,0.0,-0.00646359348118,0.0119133101487,-0.999908143281,0.0,0.26608917048,-0.258408374479,0.304914474204,1.0,-0.0179709677419,-0.0236189861751,2.795
-0.642989916546,-0.519980389763,-0.125591709359,-2.64104210252,-0.0675885062907,2.11062910914,-0.891005205931,-0.0784439581684,0.0107337977111,0.000455898346536,0.00998439491093,0.00168863545157,0.010120020259,-0.0739833337659,0.573673426643,0.819049904413,0.00606634534006,0.0,0.819047304517,-0.57358219651,-0.0120716076302,0.0,-0.00640782476118,0.01189401331,-0.99990873195,0.0,0.265799362657,-0.258809719701,0.304927448968,1.0,-0.0176309677419,-0.0231721290323,2.812
-0.644257056782,-0.519787929047,-0.125585315281,-2.64087929993,-0.0675615774295,2.11069099221,-0.892262022247,-0.0786154789853,0.0119457640318,0.000640701939587,0.0106292573979,-0.000161585429219,0.00139900799076,-0.0876069041593,0.573697305887,0.819033093067,0.00607787628051,0.0,0.819030887943,-0.57360647662,-0.0120316863316,0.0,-0.00636816267927,0.0118807431817,-0.999909143095,0.0,0.265518086383,-0.259189129624,0.304936059309,1.0,-0.0173109677419,-0.0227515576037,2.828
-0.645627828376,-0.519600004113,-0.125593410206,-2.6407104173,-0.0675352276634,2.11070371648,-0.893599520416,-0.0802319761461,0.00554674804011,-0.00146662108877,0.0132934031824,0.00025071878853,0.00278257528129,-0.0784228768283,0.57374942191,0.818996449901,0.00609613058744,0.0,0.818994422886,-0.573658392737,-0.0120387135993,0.0,-0.00636268972598,0.0119001310348,-0.999908947385,0.0,0.265181500153,-0.259615725925,0.304941573708,1.0,-0.0169509677419,-0.0222784147465,2.846
-0.647009231086,-0.519398208062,-0.125586059036,-2.6405283409,-0.0675058063703,2.11075308061,-0.894938492908,-0.0740578112107,0.0138052384998,0.00151373990713,0.0105986939553,0.000403543751439,0.00365042297393,-0.0836153324687,0.573801797655,0.818959620795,0.00611419797227,0.0,0.818958113964,-0.573711215877,-0.0119914657786,0.0,-0.00631286385625,0.0118882255452,-0.999909404818,0.0,0.264890466082,-0.260005334357,0.30495741642,1.0,-0.0166109677419,-0.0218315576037,2.863
-0.64820222802,-0.519210390794,-0.125548465407,-2.64036708481,-0.0674781708467,2.11079525741,-0.896128439321,-0.0779103611335,0.0120241121678,0.000732682966368,0.0123898465224,0.000242898839035,0.00939347850016,-0.0700530969935,0.573797800972,0.818962437039,0.0061120552873,0.0,0.818961046661,-0.573707500985,-0.011968887466,0.0,-0.00629565849401,0.0118734851048,-0.99990968844,0.0,0.264630296482,-0.260354191555,0.304966057757,1.0,-0.0162909677419,-0.0214109861751,2.879
-0.649399425484,-0.519009740513,-0.125492137331,-2.64020318165,-0.0674581043606,2.11084424449,-0.897334708629,-0.0667675357149,0.0079380448579,0.00174066964966,0.00856539638572,-0.000144229989942,0.00174060648316,-0.0691076458787,0.573767532823,0.818983779878,0.00609372441307,0.0,0.81898228303,-0.573677563641,-0.0119507305238,0.0,-0.00629174261745,0.0118478216073,-0.999910017501,0.0,0.264373389108,-0.260701995402,0.304972185739,1.0,-0.0159509677419,-0.0209641290323,2.896
-0.650564380885,-0.518796856165,-0.125421763639,-2.64004155284,-0.0674324660243,2.11087825874,-0.898552065039,-0.0616859336558,0.00804896147273,0.00293895129111,0.00801272194246,7.79608770119e-05,0.000614007095422,-0.0700412578015,0.573694141004,0.819035325534,0.00607577209693,0.0,0.81903353909,-0.573604155607,-0.0119616644522,0.0,-0.00631205914193,0.0118388258702,-0.999909996005,0.0,0.264124856984,-0.261034509937,0.30497181993,1.0,-0.0156109677419,-0.0205172718894,2.913
-0.651650884241,-0.518590884493,-0.125377758528,-2.63989123685,-0.0674091011746,2.11090611942,-0.899722043137,-0.0711795942101,0.011765467882,0.00295140316918,0.00991341273703,0.00340340257252,0.000558957458487,-0.0655477973538,0.573612465254,0.819092568042,0.00607055065267,0.0,0.819090575874,-0.573522260394,-0.0119829983019,0.0,-0.00633371086333,0.0118461561022,-0.999909772276,0.0,0.263887046466,-0.261348415288,0.30496769446,1.0,-0.0152909677419,-0.0200967004608,2.929
-0.652806979294,-0.518393696649,-0.125365916111,-2.63973757978,-0.0673837917715,2.11094363376,-0.900857147625,-0.0685505797823,0.00720070800441,-0.000168461907569,0.0111737303876,0.00321996267911,0.00336648023049,-0.0655279698083,0.573640103609,0.819073137852,0.00608056598605,0.0,0.819071273374,-0.573549846435,-0.0119820569691,0.0,-0.00632679512249,0.0118540335531,-0.999909722701,0.0,0.263626281783,-0.26168963633,0.304968373639,1.0,-0.0149509677419,-0.019649843318,2.946
-0.654003460657,-0.518173571873,-0.125365910298,-2.63956413237,-0.0673569459132,2.11099477812,-0.902061803065,-0.0690415187897,0.0172190157134,0.000372145969652,0.00850763751896,6.35183227963e-05,-8.15711286298e-05,-0.0617498833883,0.573653923673,0.819063351586,0.00609498524098,0.0,0.819061734905,-0.573563716694,-0.011970138166,0.0,-0.00630856055653,0.0118591142362,-0.999909777667,0.0,0.263358207231,-0.262050289516,0.304970466062,1.0,-0.0145909677419,-0.0191767004608,2.964
-0.65500516777,-0.517996939432,-0.125371200007,-2.63943368439,-0.0673428245507,2.11101500318,-0.903043755091,-0.0699139166574,0.0124042020833,-0.000390276810409,0.00626412895427,-0.000400503615208,0.00214351090544,-0.0616976511528,0.573686766691,0.819040259789,0.00610683789615,0.0,0.819038659784,-0.573596244824,-0.0119903546146,0.0,-0.0063178455116,0.0118806728361,-0.999909463122,0.0,0.263124727593,-0.262347159239,0.304966262055,1.0,-0.0142909677419,-0.0187824147465,2.979
-0.656179769613,-0.517808924775,-0.125368351904,-2.63927198578,-0.0673145516111,2.1110419071,-0.904120973262,-0.0663196856196,0.0126226456109,0.00042730905422,0.00973804142766,0.00138633350783,0.00106158498995,-0.0625052191393,0.573784943425,0.818971365529,0.0061227481042,0.0,0.818970013871,-0.573694412144,-0.0119826856641,0.0,-0.00630101138067,0.0118900606362,-0.999909457758,0.0,0.262856492622,-0.262694893358,0.304972823581,1.0,-0.0139309677419,-0.0183092718894,2.997
-0.657217694043,-0.517631715693,-0.1253639894,-2.63912005623,-0.0672929692611,2.11108722932,-0.905195168458,-0.0584334014159,0.0104889438478,0.000515599714724,0.00891785355777,0.00170685823944,0.00282133132153,-0.0593013783991,0.573769206505,0.818982329002,0.00613101541443,0.0,0.81898124,-0.573678937279,-0.0119562683258,0.0,-0.00627485888272,0.0118815539534,-0.999909723336,0.0,0.26262439595,-0.263007079715,0.304980522076,1.0,-0.0135909677419,-0.0178624147465,3.014
-0.658165005417,-0.51744282054,-0.125348836045,-2.63898675829,-0.0672731739378,2.1111452058,-0.906190799494,-0.0599909274026,0.0106480733753,0.000900939705042,0.0039222832777,0.00104920490162,0.00494674805227,-0.0594378721648,0.573734360777,0.819006722766,0.0061333701144,0.0,0.819005708259,-0.573644172226,-0.0119482388832,0.0,-0.00626743661587,0.0118786090326,-0.999909804875,0.0,0.262415501814,-0.263289903004,0.304976771846,1.0,-0.0132709677419,-0.017441843318,3.03
-0.659163297691,-0.51723918441,-0.125301168148,-2.63884311265,-0.0672530770189,2.11117148782,-0.907179888972,-0.0544455213891,0.0142359931037,0.0102391419244,0.00812878894445,0.00249030634905,-0.000303048458431,-0.0584599566083,0.573724238709,0.819013892695,0.00612277645768,0.0,0.819012570616,-0.573633775193,-0.0119769792574,0.0,-0.00629720227092,0.0118863430413,-0.999909525954,0.0,0.262197125245,-0.263576779773,0.304970340681,1.0,-0.0129309677419,-0.0169949861751,3.047
-0.660163418728,-0.517057209054,-0.125272912724,-2.6387129324,-0.0672411902905,2.11119284077,-0.908158209957,-0.057390918318,0.00915226168961,0.0011610620102,0.00300555794598,7.03733067248e-05,0.00279968027411,-0.0575207030975,0.573733982946,0.819007114098,0.00611643453246,0.0,0.819005555311,-0.57364325342,-0.0120027112135,0.0,-0.00632177618158,0.0118959862061,-0.999909256212,0.0,0.261969580074,-0.263865175094,0.304964882353,1.0,-0.0125909677419,-0.0165481290323,3.064
-0.661050068285,-0.516865744538,-0.125239904582,-2.63858233741,-0.0672247601052,2.1112373312,-0.909092314627,-0.059229315594,0.0139959433586,0.00629814323439,0.00963507927352,-0.000314347332513,0.00469460539705,-0.0530811464749,0.57368561055,0.819041055931,0.00610867001363,0.0,0.81903932481,-0.57359479005,-0.0120144972134,0.0,-0.00633658718912,0.0118960141679,-0.999909162129,0.0,0.26177666859,-0.264125420836,0.304958192071,1.0,-0.0122709677419,-0.0161275576037,3.08
-0.661963949572,-0.516689977097,-0.125221971605,-2.63843715922,-0.0672098060221,2.11129228687,-0.90998993811,-0.0564887890708,0.0136956828785,0.00219257661677,0.0044390448664,0.000630578368448,0.0035125124793,-0.0528032803746,0.573698019221,0.81903242011,0.00610118436656,0.0,0.819030740231,-0.573607506833,-0.0119925628067,0.0,-0.00632273431791,0.0118773957523,-0.999909471153,0.0,0.261566703293,-0.264415541777,0.304962900338,1.0,-0.0119109677419,-0.0156544147465,3.098
-0.662899540763,-0.516509556715,-0.125206129135,-2.6382907745,-0.067197406124,2.11131371583,-0.910903403087,-0.0503807600693,0.00399534334968,-0.000926084211627,0.0113505471976,-6.33121316726e-05,-2.06317394553e-05,-0.0415492562167,0.573719851481,0.819017142282,0.0060991446846,0.0,0.819015430809,-0.57362933358,-0.0119941091549,0.0,-0.00632485447651,0.0118767807993,-0.999909465049,0.0,0.261367788247,-0.264679489151,0.304966601672,1.0,-0.0115709677419,-0.0152075576037,3.115
-0.663729173805,-0.516347541572,-0.125181679975,-2.63816314152,-0.0671800838163,2.11133894668,-0.911754845394,-0.0530317035029,0.0113792060855,0.00310864080298,0.0104898522406,0.000256349268704,0.000202150364762,-0.0500078810927,0.573698664083,0.819032001281,0.00609677036744,0.0,0.819030229809,-0.573608105962,-0.0119987638825,0.0,-0.00633033657123,0.0118773427208,-0.999909423682,0.0,0.261184350208,-0.264923171682,0.304967553904,1.0,-0.0112509677419,-0.0147869861751,3.131
-0.664586351637,-0.516189278927,-0.125175581141,-2.63803280766,-0.0671654421129,2.11137988583,-0.912628769584,-0.0485206155285,0.00596228047335,0.000923475208093,0.00903194358946,0.00329089866382,0.000698459293515,-0.0526421945485,0.573693605507,0.819035529223,0.00609883360541,0.0,0.819033893351,-0.573603244038,-0.0119811048145,0.0,-0.00631476136022,0.0118688631641,-0.999909622854,0.0,0.260992214992,-0.265181160096,0.30497201551,1.0,-0.0109109677419,-0.0143401290323,3.148
-0.665529445087,-0.516009453955,-0.1251667993,-2.63790964019,-0.0671461698125,2.11141919653,-0.913526606115,-0.049849686395,0.00964508804748,0.000545685304194,0.00621884081274,-6.420760289e-05,0.00299431813023,-0.0462979506595,0.573739171332,0.819003555193,0.00610628864557,0.0,0.819001937202,-0.573648620391,-0.0119930848189,0.0,-0.00631963671972,0.0118821935446,-0.999909433733,0.0,0.260775695632,-0.265457907879,0.304965183688,1.0,-0.0105309677419,-0.0138407004608,3.167
-0.666261302662,-0.515864735627,-0.125165537913,-2.63781784284,-0.067126278892,2.11143756724,-0.914226101871,-0.0521711828491,0.012306809841,0.000942375026703,0.00742660111212,0.00249701941359,-0.000131403756178,-0.0473478132121,0.573778182581,0.818976111678,0.00612148641838,0.0,0.818974492043,-0.573687184184,-0.0120226031604,0.0,-0.00633452844144,0.0119118779618,-0.999908986315,0.0,0.260603828245,-0.265670447885,0.304955085321,1.0,-0.0102309677419,-0.0134464147466,3.182
-0.667097565933,-0.515695649502,-0.12517018004,-2.63770103775,-0.0671087715079,2.11146710742,-0.915068989871,-0.0465612337479,0.00658610127686,-0.000323458324596,0.0106660025553,0.000823419456524,0.000817095858184,-0.0431736219811,0.573789701326,0.818967939086,0.00613516929553,0.0,0.818966373902,-0.573698409302,-0.0120399536149,0.0,-0.00634072121156,0.0119331284896,-0.999908693681,0.0,0.260409337741,-0.26591926941,0.304948158942,1.0,-0.00987096774194,-0.0129732718894,3.2
-0.667763839239,-0.515555705688,-0.125155653451,-2.63760043156,-0.0670938810771,2.11149819833,-0.915731129503,-0.0443184277765,0.00731698893447,0.000658007170931,0.00374376806302,6.96915157747e-05,-0.000449308115307,-0.0462028902242,0.57379440304,0.818964639639,0.00613587497948,0.0,0.818963054347,-0.573703051858,-0.0120445342587,0.0,-0.00634399959893,0.0119363710713,-0.999908634184,0.0,0.260261125477,-0.266116348184,0.30494520616,1.0,-0.00957096774194,-0.0125789861751,3.215
-0.668445963392,-0.515411877506,-0.125128419015,-2.63749744394,-0.0670753121896,2.11152457514,-0.91638612198,-0.0435559558354,0.00921601933895,0.00121587570252,0.00589405531063,0.000380935652014,0.000349914960831,-0.0392651595923,0.573810608067,0.818953301153,0.00613379997887,0.0,0.818951624358,-0.573719141147,-0.0120553284479,0.0,-0.00635379490327,0.0119409907044,-0.999908516831,0.0,0.260111435548,-0.266314243979,0.304941794541,1.0,-0.00925096774194,-0.0121584147466,3.231
-0.669144605962,-0.515269462301,-0.125077797487,-2.63738937258,-0.0670507754136,2.11154599327,-0.91706147873,-0.0397066830862,0.00917331801412,0.00196932255223,0.00830361235618,2.75294074691e-05,0.000633194829039,-0.0429282998218,0.573809816762,0.818953919599,0.00612524796342,0.0,0.818952082121,-0.573718294452,-0.0120645224486,0.0,-0.00636624370264,0.0119392558564,-0.999908458365,0.0,0.259963369486,-0.266511362009,0.304941338672,1.0,-0.00891096774194,-0.0117115576037,3.248
-0.669859934407,-0.515130824036,-0.125025880562,-2.63728598497,-0.0670276475051,2.11158198049,-0.917782748741,-0.0392883370585,0.00460734379564,0.00474165490482,0.00272392612348,0.00109114879666,0.00466986087672,-0.0370606650833,0.573783315002,0.818972571139,0.00611408606828,0.0,0.818970626025,-0.573691917294,-0.0120600431625,0.0,-0.00636936542784,0.011927338078,-0.999908580716,0.0,0.25981216494,-0.266713527823,0.304941415572,1.0,-0.00855096774194,-0.0112384147466,3.266
-0.670469355076,-0.515025922504,-0.12498929693,-2.63720523266,-0.0670083690826,2.11161184409,-0.918424383606,-0.0390816420007,0.00229979260296,0.00510571295693,0.00803238258996,-0.000113673054135,0.00248100858909,-0.0355613041386,0.573743348972,0.819000609446,0.00610885743729,0.0,0.81899865694,-0.573652095886,-0.0120507143724,0.0,-0.00636530609473,0.0119173927048,-0.999908725149,0.0,0.259679998551,-0.26688558445,0.304942777835,1.0,-0.00823096774194,-0.010817843318,3.282
-0.671094862329,-0.514903808422,-0.124975041825,-2.6371169405,-0.0669824676217,2.11162708495,-0.919052593727,-0.03774096111,0.00809986899283,-2.14334678171e-05,0.00161937218464,0.00287279025994,-0.00019715261378,-0.0368038205238,0.573746692314,0.818998171096,0.00612174010823,0.0,0.818996285876,-0.573655194712,-0.0120643359848,0.0,-0.00636902371668,0.0119357850788,-0.999908482098,0.0,0.259538078452,-0.2670654668,0.304939435561,1.0,-0.00789096774194,-0.0103709861751,3.299
-0.671702732843,-0.514777952817,-0.1249568313,-2.63703973725,-0.0669613876136,2.11165243815,-0.919654368645,-0.036317334437,0.00664972123245,0.00152011290229,0.00431244452161,0.00319020468411,-0.000226753124176,-0.0278040695012,0.573751868877,0.818994489936,0.00612905495612,0.0,0.818992571217,-0.573660097065,-0.0120833864762,0.0,-0.00638035552438,0.0119527461782,-0.999908207248,0.0,0.259400192763,-0.267238816353,0.304930622709,1.0,-0.00755096774194,-0.00992412903226,3.316
-0.672253821463,-0.51469275976,-0.124950477694,-2.6369780914,-0.0669352972206,2.11166765579,-0.920180891558,-0.0359030375251,0.000805416954592,0.00362092502242,0.00725797659841,8.57013556162e-05,-0.000104381750994,-0.0309847870276,0.573781840047,0.818973357816,0.00614704165703,0.0,0.818971636234,-0.573689913376,-0.0120867380614,0.0,-0.00637234334677,0.0119696340214,-0.999908056324,0.0,0.259271010935,-0.267394606833,0.304928618667,1.0,-0.00723096774194,-0.00950355760369,3.332
-0.672813178653,-0.514594897998,-0.124942630572,-2.63690222505,-0.0669147379312,2.1116780899,-0.920733478863,-0.0307016041963,0.00530020653532,0.00449387909103,0.00729183002545,0.000272388895641,0.000213852803562,-0.0261778603933,0.573793959165,0.818964780024,0.00615860437452,0.0,0.818963100776,-0.573701775472,-0.0121020365768,0.0,-0.00637806225632,0.0119879760221,-0.999907800126,0.0,0.259133545977,-0.26756172001,0.304924254877,1.0,-0.00687096774194,-0.00903041474655,3.35
-0.673373716065,-0.514482522791,-0.124918151058,-2.63681448316,-0.0668885195943,2.11170822473,-0.921293924934,-0.0286835871162,0.00682197244827,-0.000861471113326,0.00634177438254,0.0029979856901,0.00646084531659,-0.0259403950633,0.57379293595,0.818965457697,0.00616381823316,0.0,0.818963953698,-0.573700931441,-0.0120843165931,0.0,-0.00636057206878,0.011982071139,-0.999907982313,0.0,0.259021261609,-0.267718238806,0.304929515965,1.0,-0.00653096774194,-0.00858355760369,3.367
-0.673844926471,-0.514407542837,-0.124888085036,-2.63674587633,-0.0668692074277,2.11173604761,-0.921777403919,-0.0271217802006,0.00295981375606,0.00421142476963,0.00593639456804,0.00436026930862,-8.42351146606e-06,-0.034137479764,0.573773240204,0.818979282523,0.0061603998244,0.0,0.818977890659,-0.573681550154,-0.0120598725757,0.0,-0.00634280018709,0.0119650937831,-0.999908298504,0.0,0.258921630741,-0.267852570626,0.304936067464,1.0,-0.00621096774194,-0.00816298617512,3.383
-0.674317914625,-0.514322550343,-0.124859893137,-2.636684193,-0.0668496879632,2.11174920868,-0.922243299433,-0.0294903029922,0.00414235682627,0.000649960362632,0.00522441671565,4.11826666623e-05,0.000704203988411,-0.0281138942725,0.573770563388,0.818981148393,0.00616166111254,0.0,0.818979727468,-0.573678782623,-0.0120667835973,0.0,-0.00634777625631,0.0119700712226,-0.999908207353,0.0,0.258817015745,-0.267983604436,0.304934478207,1.0,-0.00587096774194,-0.00771612903227,3.4
-0.674748991505,-0.514231436773,-0.124831184123,-2.63661365898,-0.0668267696123,2.11176190804,-0.922671568415,-0.0210795679329,0.00443461149544,0.00242056880177,0.00591691847772,0.00234797136588,-0.00186297126987,-0.024680454762,0.573765894746,0.818984401381,0.00616402655054,0.0,0.818982978818,-0.573674043464,-0.0120714192722,0.0,-0.00635028431381,0.0119746320542,-0.999908136819,0.0,0.258725776001,-0.268105454426,0.304934619526,1.0,-0.00553096774194,-0.00726927188941,3.417
-0.675130372552,-0.514160828572,-0.124806407763,-2.63656314919,-0.0668055860848,2.1117792679,-0.92305438592,-0.0202329518544,0.00594091414155,0.000511740231579,0.00908970945353,-0.000103300069121,0.00054637974793,-0.0183720557372,0.573758784217,0.818989354395,0.00616780536958,0.0,0.818987978831,-0.573666913744,-0.0120710192591,0.0,-0.00634789261557,0.0119774423907,-0.999908118345,0.0,0.258643459038,-0.268211215125,0.304933544748,1.0,-0.00521096774194,-0.00684870046084,3.433
-0.675548270694,-0.514089257522,-0.124779604839,-2.63650537174,-0.0667879290063,2.11179470085,-0.923458302166,-0.0203780456483,0.00069127946878,0.00468703888306,0.00368720339449,-0.000397682125051,0.000267174157396,-0.0169629204717,0.573761691087,0.818987324347,0.00616695235257,0.0,0.818985966427,-0.573669877982,-0.012066681085,0.0,-0.00634478620876,0.0119742773195,-0.999908175969,0.0,0.258552738997,-0.268327919043,0.304935294493,1.0,-0.00485096774194,-0.00637555760369,3.451
-0.675916521221,-0.514028950531,-0.124758031896,-2.6364575266,-0.0667674729505,2.1118107621,-0.923809443838,-0.0250637696885,0.00872066160579,-0.000709395354695,0.00602017662286,-0.000359203152111,0.00191108202658,-0.0196639986041,0.573771563422,0.818980375325,0.00617128371561,0.0,0.818979112212,-0.573679801835,-0.012060084115,0.0,-0.00633675339808,0.0119741163151,-0.999908228836,0.0,0.258472499934,-0.268430286163,0.304936626742,1.0,-0.00453096774194,-0.00595498617512,3.467
-0.67626209728,-0.513968958647,-0.124727693282,-2.63641956643,-0.0667521604846,2.11182044097,-0.924135457912,-0.0239327182012,0.00590062181872,0.00182971429563,0.000155100193841,0.00367833814783,0.000149451783638,-0.0176246403975,0.573774563746,0.818978288675,0.00616924458106,0.0,0.818976937083,-0.573682693477,-0.0120702374812,0.0,-0.0063461957722,0.0119782948955,-0.999908118904,0.0,0.258396623626,-0.268521889548,0.304933242527,1.0,-0.00421096774194,-0.00553441474655,3.483
-0.676616936513,-0.513911439453,-0.124718653772,-2.63637450305,-0.0667390617286,2.1118377505,-0.924474831115,-0.0187903740409,0.00144441085943,-0.00321543785893,0.000837016294237,0.000510623195416,0.00787042411135,-0.0311692228093,0.573788718619,0.818968339469,0.00617351065419,0.0,0.818967087256,-0.573696909455,-0.0120628758441,0.0,-0.00633751143322,0.0119776747194,-0.999908181413,0.0,0.258316044292,-0.268623656462,0.304934147356,1.0,-0.00385096774194,-0.00506127188941,3.501
-0.67690936238,-0.513847113006,-0.124700469244,-2.63633239749,-0.066724781007,2.1118488898,-0.92478404297,-0.0169713606042,0.00302191169661,-0.000432155451206,0.00152357262776,0.00287944412903,0.000511896788646,-0.0172271371214,0.573770362345,0.818981183218,0.00617573724089,0.0,0.818979899879,-0.573678433759,-0.0120716665976,0.0,-0.00634370266177,0.0119843999219,-0.999908061571,0.0,0.258252605104,-0.268705418431,0.304930880388,1.0,-0.00351096774194,-0.00461441474655,3.518
-0.6771801554,-0.513805794425,-0.124681309494,-2.63630008534,-0.0667152921404,2.1118570577,-0.925034043148,-0.0144126868334,0.00410768859064,-0.000372515370532,0.00212981746611,0.000351252376398,0.00327444710611,-0.0133639504837,0.573779484891,0.818974810083,0.00617333529275,0.0,0.81897350307,-0.573687579248,-0.0120710225992,0.0,-0.00634441981042,0.0119821338526,-0.999908084179,0.0,0.258192592982,-0.268779246541,0.304931435173,1.0,-0.00319096774194,-0.00419384331798,3.534
-0.67745191499,-0.513755102127,-0.124656085509,-2.63627354704,-0.066701673897,2.11187155105,-0.925295196854,-0.0117025564897,0.00427567190541,0.00180415868209,0.00109146684766,0.00181817176479,-0.000153614919373,-0.0128473773037,0.573777489863,0.818976215484,0.0061723172037,0.0,0.818974846717,-0.573685497561,-0.0120787927564,0.0,-0.00635139739723,0.0119857426868,-0.999907996629,0.0,0.258133531599,-0.268850837636,0.304926586037,1.0,-0.00283096774194,-0.00372070046084,3.552
-0.677681456964,-0.513726998544,-0.124636985664,-2.63624756781,-0.0666890740918,2.11188485005,-0.92551126734,-0.00987784740601,0.0010119566465,0.000851272527411,0.000527579784494,0.0005124821593,-3.44513325538e-06,-0.00704178820734,0.573781629202,0.818973320332,0.00617166721193,0.0,0.818972025715,-0.57368979484,-0.0120659559931,0.0,-0.00634119563365,0.0119778772974,-0.999908155629,0.0,0.258084513697,-0.268913009368,0.304929586286,1.0,-0.00249096774194,-0.00327384331798,3.569
