nelsonifechukwu/NELSON_IML_WORK/CNN-GradCAM/train2dof/data_sample_2022-02-21-10-56-18/robot_state.csv
position_joint1,position_joint2,position_joint3,position_joint4,position_joint5,position_joint6,position_joint7,velocity_joint1,velocity_joint2,velocity_joint3,velocity_joint4,velocity_joint5,velocity_joint6,velocity_joint7,ee_T_00,ee_T_10,ee_T_20,ee_T_30,ee_T_01,ee_T_11,ee_T_21,ee_T_31,ee_T_02,ee_T_12,ee_T_22,ee_T_32,ee_T_03,ee_T_13,ee_T_23,ee_T_33,v_x,v_y,time
0.465089427978,0.547707190029,-0.123966187225,-1.35574871246,0.0795076215797,1.89409472195,0.15918089848,-0.00128897647723,-0.000239727002642,-0.00170865713521,-0.000102020789419,-8.40198400048e-05,0.000514854744589,-0.00117122430568,0.573792273216,0.818986467055,0.00208347774371,0.0,0.818944960443,-0.573733063411,-0.0118435896353,0.0,-0.00850454330305,0.00850217751155,-0.999927690246,0.0,0.661687551419,0.260925664782,0.303305686384,1.0,0.0,0.0,0.0
0.465091415478,0.547707267889,-0.12396902069,-1.35574618064,0.0795062991513,1.89409775723,0.159178913834,-0.000165247756331,-0.000527226288203,-0.000812455219674,0.00061914854084,-0.000472476382362,0.000294436940065,-0.00051153004271,0.573790532199,0.818987679019,0.00208654610305,0.0,0.818946245036,-0.573731343066,-0.0118381006473,0.0,-0.00849830529381,0.0085015228475,-0.999927748848,0.0,0.661688942175,0.260925632521,0.303307191386,1.0,-6e-05,-7.88571428571e-05,0.004
0.465090460679,0.547712449953,-0.123958390786,-1.35574905311,0.0795076215616,1.89409461749,0.159183558216,0.000742457094395,0.00059710707111,0.000552316443662,-0.0017996896083,-0.000119472355552,0.000255625874732,0.00121885675704,0.57378812399,0.818989390594,0.00207695995345,0.0,0.818947784127,-0.573728925746,-0.0118487778945,0.0,-0.00851257527765,0.00849977343824,-0.999927642339,0.0,0.661683663401,0.260931078334,0.303301373144,1.0,-0.00036,-0.000473142857143,0.019
0.465092953262,0.54769798644,-0.123969135537,-1.35575853814,0.0795076214172,1.89409638849,0.159181619852,0.000385412197596,-0.00173313095724,-0.00118720275833,0.000373757506281,0.000119309173049,-0.000421582692706,-0.00472918602889,0.573792568373,0.818986258677,0.00208410175506,0.0,0.818944767207,-0.573733363059,-0.0118424355178,0.0,-0.00850323696308,0.00850202940856,-0.999927702615,0.0,0.661685632206,0.260925359026,0.303307772004,1.0,-0.00068,-0.000893714285714,0.035
0.465090329257,0.547652036971,-0.123964363686,-1.35579992712,0.0795026444594,1.89410520518,0.159185844754,0.000377512300781,0.000463042076609,0.000649310236867,-0.00609764623901,-8.30423822612e-05,-2.12553397883e-05,0.00158153118209,0.573795762939,0.818983990161,0.00209599476517,0.0,0.818942644845,-0.573736501209,-0.0118371675829,0.0,-0.00849206553467,0.0085087799212,-0.999927740133,0.0,0.661678986665,0.260921869164,0.303321222136,1.0,-0.00102,-0.00134057142857,0.052
0.465090355991,0.547532158614,-0.1239615806,-1.35594333594,0.0795048585881,1.89413416267,0.159179573847,-0.000332797095206,-0.00554661408151,0.00114579358205,-0.0126369293198,0.000222119864016,0.00171361659988,0.000904900686123,0.573797063804,0.818983045663,0.00210888323819,0.0,0.818941725584,-0.57373760768,-0.011847131786,0.0,-0.00849281796156,0.00852506604537,-0.999927595025,0.0,0.661654283677,0.260910374466,0.303340312383,1.0,-0.00134,-0.00176114285714,0.068
0.465078708107,0.547402209358,-0.123966878109,-1.35611971704,0.0795005928495,1.89417642365,0.159171150092,-0.00203525067334,-0.00660142311447,0.000872634535755,-0.0129282677916,5.92628462898e-05,0.00415914627974,0.00137954291575,0.573812600425,0.818972172968,0.00210390074609,0.0,0.818930682767,-0.573753056695,-0.0118622787782,0.0,-0.00850792054709,0.00852983813295,-0.999927425941,0.0,0.661624817733,0.260885249656,0.303349319001,1.0,-0.00168,-0.002208,0.085
0.465058872302,0.547212205473,-0.123961670348,-1.35635043853,0.0794976158069,1.89430238642,0.159158015563,-0.000130882643494,-0.0102701724352,-2.22504583725e-05,-0.0135104208831,-0.000241888558191,0.00856946301117,-0.00478677351214,0.573826147394,0.818962461144,0.00218785413608,0.0,0.818922042852,-0.573766248658,-0.0118205978628,0.0,-0.0084254712741,0.00857481520187,-0.999927739378,0.0,0.661611592458,0.26085563293,0.303387785541,1.0,-0.00202,-0.00265485714286,0.102
0.465038927591,0.547032041222,-0.123959152895,-1.35656250232,0.0794958120059,1.89440974606,0.159147143875,-0.000558137800966,-0.0134517733283,0.00509711262592,-0.0165031138402,0.000111636174737,0.00972444298771,-0.00293741720153,0.573843324368,0.81895023343,0.00225857159127,0.0,0.818910668523,-0.573783081396,-0.0117914962839,0.0,-0.00836087943985,0.00861620568721,-0.99992792575,0.0,0.661593861111,0.260828097689,0.303423700126,1.0,-0.00234,-0.00307542857143,0.118
0.465006873135,0.54681419552,-0.123959319505,-1.35686601636,0.0794922997197,1.89455437584,0.159126900068,-0.00188589837125,-0.0101462620649,0.00079589826991,-0.0195903601926,0.000231115263432,0.0153143176742,-0.00107958212275,0.573869345629,0.818931839545,0.00231586442769,0.0,0.818892936477,-0.573808794946,-0.0117716750007,0.0,-0.00831149610839,0.00865201502938,-0.999928028244,0.0,0.661567442235,0.260782887818,0.303446090077,1.0,-0.0027,-0.00354857142857,0.136
0.46497087277,0.546563604602,-0.123959161664,-1.35724637336,0.0794821447099,1.8946805494,0.159077995172,-0.0012152969937,-0.0177777800011,-0.00174634950004,-0.0214020542407,0.00043180788707,0.0136631023213,-0.00282779829376,0.573877152293,0.818926355778,0.00232051505113,0.0,0.818887379075,-0.573816443377,-0.0117854402697,0.0,-0.008320018144,0.00866380219387,-0.999927855312,0.0,0.66152188082,0.260724224433,0.30345345348,1.0,-0.00304,-0.00399542857143,0.153
0.464929131879,0.54626295424,-0.123962539685,-1.35770269945,0.0794652302775,1.8948507967,0.158948664882,-0.00142539263747,-0.0186411150829,0.000403298587727,-0.0313048454651,-0.000748338773972,0.0139411083244,-0.00173361215898,0.573828824936,0.818960168071,0.0023387359517,0.0,0.818921345617,-0.57376796664,-0.0117854592939,0.0,-0.0083100899476,0.00867824413366,-0.999927812636,0.0,0.661471658377,0.260653257895,0.303464024938,1.0,-0.0034,-0.00446857142857,0.171
0.464882738158,0.545987034135,-0.123962267348,-1.3581668757,0.0794467313714,1.89500994461,0.158931638001,3.75353192709e-05,-0.02160512505,0.00199540494984,-0.0264812207949,-0.00467430550119,0.0140002695261,0.000334404708783,0.573873695415,0.818928784105,0.00231844284205,0.0,0.818889593982,-0.573812800775,-0.01180887106,0.0,-0.00834043281737,0.00867551622206,-0.999927583677,0.0,0.661417191565,0.260579056431,0.303452240709,1.0,-0.00372,-0.00488914285714,0.187
0.464836927009,0.545698533758,-0.123964065203,-1.35865590885,0.079403067868,1.89517055528,0.158881813895,0.000159746041372,-0.0207954083425,0.00125243700641,-0.0317186295916,-0.00229262535574,0.00762740591269,-0.00271423041899,0.573887323814,0.818919352918,0.00227593575846,0.0,0.818879709991,-0.573826694973,-0.0118191202311,0.0,-0.00837307480513,0.00864672736942,-0.999927560238,0.0,0.661359332885,0.260497281017,0.303437663525,1.0,-0.00402,-0.00528342857143,0.202
0.464764571494,0.545328831844,-0.123967861017,-1.35928492844,0.0793096724513,1.89538201106,0.158755135767,-0.00278030615755,-0.0237473193323,0.000385643651211,-0.0375052953557,-0.00211743416279,0.0207205048238,-0.00796847330366,0.573855740275,0.818941682562,0.00220381868868,0.0,0.818901570764,-0.573795876447,-0.0118006980104,0.0,-0.00839970312834,0.00857677400783,-0.999927939371,0.0,0.661291705505,0.260376645307,0.30341831237,1.0,-0.00436,-0.00573028571429,0.219
0.464712701855,0.544927833575,-0.123965701994,-1.35998012508,0.0793033615942,1.89560494253,0.158698117008,-0.000145435985866,-0.0228534042762,0.00296549853099,-0.0376533051575,0.000915002974554,0.0151112421679,-0.00360994725495,0.573886998536,0.818919887507,0.00216278961579,0.0,0.818878859426,-0.573826903396,-0.0118678315701,0.0,-0.00847789965228,0.00858202216319,-0.999927234409,0.0,0.661200327564,0.260280444189,0.303390548748,1.0,-0.0047,-0.00617714285714,0.236
0.464637507752,0.544491936681,-0.123971037897,-1.36070506409,0.0792766933359,1.89586057905,0.158613293378,-0.00338541479793,-0.0280090766486,-0.000867704444432,-0.04378575573,-0.000349719585005,0.0167480521197,-0.00648456890218,0.5739161688,0.818899499972,0.00214173694658,0.0,0.818858046454,-0.573856001639,-0.0118968921061,0.0,-0.00851347430695,0.00858176249579,-0.999926934385,0.0,0.661118401527,0.260160340695,0.303376342793,1.0,-0.00504,-0.006624,0.253
0.464579864417,0.54401757583,-0.123979661985,-1.36147345955,0.0792439672857,1.89613499766,0.158486851639,-0.00278012604521,-0.0275148443353,-0.00109190790932,-0.0481294555466,-0.00620448432731,0.0146901734891,-0.00712934315173,0.573899966739,0.818910884508,0.00213033166348,0.0,0.818869177772,-0.573839742433,-0.011914973803,0.0,-0.00853499708799,0.00858263124915,-0.99992674345,0.0,0.66102767147,0.260045582302,0.303370356404,1.0,-0.00538,-0.00707085714286,0.27
0.46450613882,0.543505327654,-0.123975062881,-1.36230763567,0.0792009757743,1.89641904724,0.158403311134,-0.00467946454021,-0.0296272908296,0.000566207372909,-0.0518851661807,4.16905148959e-05,0.0187287844107,-0.00960445495066,0.573923602218,0.818894390659,0.00210301364914,0.0,0.818852196178,-0.573863354566,-0.0119447897814,0.0,-0.00857484397449,0.00857761927,-0.999926445544,0.0,0.660926332219,0.259919538099,0.303360198078,1.0,-0.00572,-0.00751771428571,0.287
0.464423438191,0.542899599472,-0.123991393902,-1.36327194295,0.0791443287,1.89676824768,0.15826750079,-0.00403262711064,-0.0308891937588,-0.00211282613042,-0.0529333588758,-0.00332047064423,0.0160832636226,-0.00597981691272,0.573930096462,0.818889868405,0.00209157832092,0.0,0.818847571559,-0.57386994177,-0.0119453499353,0.0,-0.00858179733352,0.0085686446424,-0.999926462838,0.0,0.660818246292,0.259763437149,0.303360490053,1.0,-0.0061,-0.00801714285714,0.306
0.464367881984,0.542426740133,-0.12398602737,-1.36402411043,0.0791028607594,1.89703029995,0.158176051823,-0.00313276238092,-0.0290313960828,-0.000907017534551,-0.0511561667026,-0.00170223515574,0.0227332216074,-0.0150727631296,0.573927616911,0.818891634654,0.00208041880617,0.0,0.818849098657,-0.573867415269,-0.0119620325497,0.0,-0.00860188943844,0.00856905487977,-0.999926286681,0.0,0.660725146219,0.259657831844,0.303359446383,1.0,-0.00638,-0.00838514285714,0.32
0.464269180835,0.54174092894,-0.123987040444,-1.36507023356,0.0790387296595,1.89742926967,0.158024742182,-0.00732339599667,-0.0361756128839,-0.000126142863837,-0.052027272516,-0.00560160136705,0.0288555134743,-0.00386446735986,0.573926302803,0.81889247415,0.00211225761282,0.0,0.818850376455,-0.573865993062,-0.0119427755479,0.0,-0.00856786116193,0.00858406122662,-0.999926450119,0.0,0.660610999682,0.25949356127,0.303381077799,1.0,-0.00676,-0.00888457142857,0.339
0.464207383346,0.541174238875,-0.123989930829,-1.3659494931,0.0789881872736,1.89775191597,0.157919399377,-0.00678950797552,-0.0388535448932,-0.00102561124407,-0.0590195465525,-0.00482141424835,0.0232663171755,-0.0112096485506,0.573927945958,0.81889129918,0.00212129113738,0.0,0.818849299689,-0.573867579331,-0.0119403807996,0.0,-0.0085606985556,0.00859010137463,-0.999926459595,0.0,0.660506910532,0.259367849747,0.303391272232,1.0,-0.00706,-0.00927885714286,0.354
0.464112685238,0.540512511465,-0.123984670695,-1.36695903007,0.0789319830235,1.89812490076,0.157790666629,-0.00411263554595,-0.0419992335125,0.00068110239876,-0.0665395577149,-0.000235181828466,0.0230741442551,-0.00706069850042,0.573934391633,0.81888673048,0.00214094501702,0.0,0.818844910685,-0.573873866834,-0.0119391838433,0.0,-0.00854837140909,0.00860557583096,-0.999926431999,0.0,0.660384394182,0.259202762746,0.303406953468,1.0,-0.0074,-0.00972571428571,0.371
0.464019965551,0.539799567612,-0.123989632078,-1.36807007813,0.0788624024993,1.89854255633,0.157643165308,-0.00532088792258,-0.0427336084082,0.000817880029325,-0.0671575704202,-0.00803450416448,0.0290165655791,-0.00909812391487,0.573938886694,0.818883529699,0.0021600992017,0.0,0.818842006033,-0.57387833016,-0.0119238512863,0.0,-0.00852477543439,0.00861250771335,-0.999926573762,0.0,0.660266520783,0.259043878595,0.303422008773,1.0,-0.00772,-0.0101462857143,0.387
0.463911384185,0.53904372535,-0.12399601429,-1.36923238622,0.0787964440833,1.89898155691,0.157504858659,-0.0123544747325,-0.0441912778956,-0.000963956409781,-0.0662674629958,-0.00304349032142,0.024443308647,-0.0123808999843,0.573965701043,0.818864661496,0.00218793981403,0.0,0.818823499778,-0.573905027718,-0.0119097553567,0.0,-0.0084969717221,0.0086274937244,-0.999926681224,0.0,0.660138463506,0.258859559176,0.303441064132,1.0,-0.00806,-0.0105931428571,0.404
0.463799950406,0.538282515845,-0.123999630027,-1.37043788473,0.0787302193962,1.89944673116,0.157363909338,-0.00613163099011,-0.0435923065981,-0.00117306223335,-0.0707784239969,-0.00503237305039,0.0266015728046,-0.00174635037628,0.57399308077,0.818845419146,0.00220673361918,0.0,0.818804477173,-0.573932302937,-0.0119032225393,0.0,-0.00848054681812,0.00863941707927,-0.999926717714,0.0,0.660005647349,0.258671647258,0.303445414812,1.0,-0.0084,-0.01104,0.421
0.463681681494,0.537446679611,-0.124002709044,-1.37176163258,0.0786501859479,1.89995290411,0.157199205386,-0.00518761361928,-0.0445623761559,-0.00119531989316,-0.0811394016194,-0.00151307139692,0.0219868360823,-0.00786341663086,0.574008921356,0.818834279411,0.00221990222606,0.0,0.81879353387,-0.573948114235,-0.0118936100094,0.0,-0.00846494986174,0.00864484628114,-0.999926802949,0.0,0.659857723923,0.258467044525,0.303449569139,1.0,-0.00876,-0.0115131428571,0.439
0.46357622693,0.536661070166,-0.12400907241,-1.3729835423,0.0785844516217,1.90040625629,0.157054656768,-0.00321047679875,-0.0543201448709,-0.000590038751322,-0.0752560777345,0.000114555102729,0.0275545775923,-0.00434856508973,0.574031067409,0.818818708492,0.0022367776734,0.0,0.818778133396,-0.573970139762,-0.011890913967,0.0,-0.00845282196641,0.00865734536589,-0.999926797407,0.0,0.659717900196,0.258279165498,0.30346212138,1.0,-0.00908,-0.0119337142857,0.455
0.463473679275,0.535914019036,-0.124017972,-1.37417646382,0.0785137970789,1.9008413074,0.156896508769,-0.00953806605797,-0.0509501990116,-0.000141910635081,-0.0839558135824,-0.000478934357237,0.0266461932893,-0.0139738113878,0.5740384477,0.818813564915,0.00222561783167,0.0,0.818772850502,-0.573977569791,-0.0118960312099,0.0,-0.00846333995454,0.0086512213085,-0.999926761441,0.0,0.659579976111,0.258092644991,0.303459610467,1.0,-0.00938,-0.012328,0.47
0.463349987522,0.534952748959,-0.124029718593,-1.37567066555,0.0784295222726,1.90138115512,0.156711191976,-0.00197058443881,-0.0548786991606,-0.00197704637159,-0.0833537449398,-0.00719592295056,0.0296120078417,-0.00855236271396,0.574055599352,0.818801522732,0.00223206753215,0.0,0.818760862812,-0.573994663357,-0.0118963383708,0.0,-0.00845970799685,0.00865685586333,-0.99992674341,0.0,0.659405202473,0.257862498322,0.303473889611,1.0,-0.00974,-0.0128011428571,0.488
0.463221111319,0.534019719935,-0.124021976002,-1.37722484988,0.0783467684901,1.90194438011,0.156528682958,-0.00751356895156,-0.0485566207358,0.000776526555987,-0.0846988856676,-0.0062868529208,0.0314262200798,-0.00672194181767,0.574069267086,0.81879205691,0.0021888421237,0.0,0.818750651126,-0.57400831739,-0.0119402575097,0.0,-0.00852033846483,0.00864681726941,-0.999926315477,0.0,0.659216797794,0.257634606444,0.303440921513,1.0,-0.0101,-0.0132742857143,0.506
0.46309960818,0.533150300193,-0.124026039445,-1.37861791824,0.0782577382589,1.90247489893,0.156346104374,-0.005723293237,-0.0514487584538,0.000135873312771,-0.08851774669,-0.0140593939177,0.0349560116045,-0.00576172759131,0.574078450319,0.818785624296,0.00218660148309,0.0,0.818744195542,-0.574017514908,-0.0119407598886,0.0,-0.00852193906426,0.00864536665481,-0.99992631438,0.0,0.659046854322,0.257408828676,0.303432426936,1.0,-0.01044,-0.0137211428571,0.523
0.462968232731,0.532194420238,-0.124025882591,-1.38017106875,0.0781785251629,1.90306243047,0.156149232042,-0.00549562544865,-0.0584112909141,-3.08223871709e-05,-0.0931046895073,-0.00632945033148,0.035218244437,-0.0102291812398,0.574084566856,0.81878133446,0.00218708456551,0.0,0.818739831157,-0.574023546695,-0.0119500467984,0.0,-0.0085292014388,0.00865115724964,-0.999926202377,0.0,0.658877127808,0.257188534421,0.303422723226,1.0,-0.01076,-0.0141417142857,0.539
0.462844099375,0.531202760165,-0.12402754414,-1.38176410513,0.0780772544335,1.90363478486,0.1559505268,-0.00504000277215,-0.0648129303183,-0.000440097708499,-0.0962240460274,-0.00813276664774,0.0412150905322,-0.0135696364968,0.574084211753,0.818781658905,0.00215864735917,0.0,0.818739786455,-0.574023309795,-0.011964480288,0.0,-0.00855734787179,0.0086361559858,-0.999926091572,0.0,0.658683756523,0.256952173354,0.303413062856,1.0,-0.0111,-0.0145885714286,0.556
0.462703877699,0.530167343803,-0.124030768689,-1.38340860825,0.0779747659116,1.90420815282,0.155723718459,-0.00619582714179,-0.0667564789289,-0.000762034944562,-0.0964694594114,-0.00919279202909,0.0388508244889,-0.0226018148105,0.574077266901,0.818786612229,0.00212653773088,0.0,0.818744285957,-0.574016463304,-0.0119850310545,0.0,-0.00859268074299,0.00862159047988,-0.999925914263,0.0,0.658483826823,0.256698679433,0.303409643785,1.0,-0.01144,-0.0150354285714,0.573
0.462566061471,0.529123571888,-0.124030494627,-1.38505474415,0.0778728486982,1.90481681325,0.155514428324,-0.00778648734492,-0.0660552313133,0.00055952939275,-0.0971394020771,-0.00629428896102,0.0418705667659,-0.0120426782656,0.57408050028,0.818784336353,0.00212993952895,0.0,0.818742049709,-0.574019677381,-0.0119838607817,0.0,-0.00858973567483,0.00862373788219,-0.999925921049,0.0,0.658288868532,0.256451220464,0.303414041034,1.0,-0.01178,-0.0154822857143,0.59
0.462433539599,0.528100389811,-0.12403648687,-1.38666920479,0.0777704959122,1.90544088687,0.15528176133,-0.00679292090093,-0.0631976325028,-0.0026827843081,-0.104635671645,-0.00405524715784,0.0402778839448,-0.0244319019831,0.57406283624,0.818796662585,0.00215227529063,0.0,0.818754751478,-0.574002008008,-0.0119623842267,0.0,-0.00855951473992,0.00862951198288,-0.999926130387,0.0,0.658103492708,0.256208081487,0.303420316251,1.0,-0.0121,-0.0159028571429,0.606
0.462271622618,0.526873785742,-0.124031006646,-1.38851963453,0.077662612149,1.90615384869,0.155019828185,-0.010402693484,-0.0703013376058,-0.00296702298451,-0.101053185854,-0.00507250487588,0.0419515812465,-0.0169604657145,0.574048178337,0.818806727054,0.0022314974136,0.0,0.818765808553,-0.573986988689,-0.0119262089937,0.0,-0.00848457302593,0.00867345932241,-0.999926388853,0.0,0.657890660742,0.255932093765,0.303464508135,1.0,-0.01246,-0.016376,0.624
0.4621307487,0.525771203413,-0.124034064173,-1.39022828509,0.0775448648286,1.90677994581,0.154803842925,-0.015441498185,-0.0716561225454,-0.000886538006499,-0.107944161246,-0.00704667335773,0.0368480495,-0.0129126369147,0.574049140877,0.81880602914,0.00223995594386,0.0,0.818765331361,-0.573988030214,-0.0119088300467,0.0,-0.00846547692889,0.00867041886018,-0.999926577073,0.0,0.657687000717,0.255672769784,0.303481329977,1.0,-0.01278,-0.0167965714286,0.64
0.461984783002,0.524673597762,-0.124042614314,-1.39196246066,0.0774435029879,1.90739901003,0.15455092028,-0.0104257147756,-0.0754156696193,-0.000808352089326,-0.109496652073,-0.00290671059986,0.0422706158585,-0.0146995011599,0.574033515697,0.818817022513,0.00222562351895,0.0,0.818776083027,-0.573972408336,-0.0119225514707,0.0,-0.00848510496931,0.00866639829895,-0.999926445562,0.0,0.657476946408,0.255405999774,0.303481843008,1.0,-0.0131,-0.0172171428571,0.656
0.461814752762,0.523332141659,-0.124047076961,-1.3940998786,0.0773133467184,1.90817903178,0.154274288392,-0.0103057286441,-0.0705842742987,-0.000339309307023,-0.116905505163,-0.00467004086786,0.0394738538762,-0.0148537098977,0.574029019015,0.81882021748,0.00220990403332,0.0,0.81877904624,-0.573967948275,-0.0119337627372,0.0,-0.00850335583191,0.00865991596411,-0.999926346685,0.0,0.657216810397,0.255087428084,0.30347539134,1.0,-0.01348,-0.0177165714286,0.675
0.461668424812,0.522257203306,-0.124050565384,-1.3958202254,0.0772054039724,1.90885424873,0.154042689411,-0.00687392308402,-0.0710059672035,-0.000112842371354,-0.112669342524,-0.0141893387953,0.0483550036194,-0.0146965246519,0.574024977975,0.818822996626,0.00222974390537,0.0,0.81878215804,-0.573963903361,-0.01191478972,0.0,-0.0084764745057,0.00866522826582,-0.999926528901,0.0,0.657018776524,0.254827493037,0.303470673796,1.0,-0.01378,-0.0181108571429,0.69
0.461490189385,0.520939147513,-0.124051660457,-1.39794745676,0.0770747287917,1.9096636472,0.153746309117,-0.00867287142698,-0.0743612254286,-0.00140722459629,-0.122330979672,-0.00657153916095,0.0438352677628,-0.0232266738134,0.574007617708,0.818835175676,0.00222638493781,0.0,0.818794302099,-0.573946567742,-0.0119153316521,0.0,-0.00847902994063,0.00866260921923,-0.999926529927,0.0,0.656766226238,0.254508366895,0.30345436851,1.0,-0.01414,-0.018584,0.708
0.461334275865,0.519792788643,-0.124057304336,-1.39975036353,0.0769513971042,1.91032075244,0.153512599975,-0.0130968402623,-0.075723074751,-0.000350148272909,-0.119833482413,-0.0113630235722,0.0489806365458,-0.0178231610447,0.574010539185,0.818833151297,0.00221768855412,0.0,0.81879227008,-0.57394963165,-0.0119073795275,0.0,-0.00847747879121,0.00865095414612,-0.999926643982,0.0,0.656549552879,0.254228438957,0.303458376222,1.0,-0.01444,-0.0189782857143,0.723
0.461168922141,0.518430418189,-0.12406546617,-1.40182104544,0.0768248073307,1.9110565448,0.153235064975,-0.0083802988917,-0.0784171923317,-0.00124015150482,-0.122141037575,-0.00542744734728,0.048760715584,-0.00945750048945,0.574000058002,0.818840435898,0.0022407260503,0.0,0.818799829339,-0.573939033614,-0.0118984061802,0.0,-0.00845701878304,0.00866455876477,-0.999926699441,0.0,0.656293504823,0.253916756928,0.303493109726,1.0,-0.01478,-0.0194251428571,0.74
0.460988091177,0.517079446153,-0.124069134671,-1.40396164072,0.0766829668461,1.91182234352,0.152930936387,-0.00966482575236,-0.080979735247,0.000526451874727,-0.12301489931,-0.00658332775746,0.045122023763,-0.0205022449493,0.573976603229,0.818856950726,0.00221361558661,0.0,0.818816032114,-0.573915732287,-0.0119073375437,0.0,-0.00848014057091,0.00864724357434,-0.999926653507,0.0,0.656029570582,0.253588729997,0.303488647582,1.0,-0.01512,-0.019872,0.757
0.460802078423,0.515725751288,-0.124075518376,-1.40611095897,0.0765490420601,1.91264722216,0.152631498539,-0.010512079306,-0.0822402148801,-0.000599100488279,-0.12606046531,-0.00568477140827,0.0494603702179,-0.0157205450656,0.573965884153,0.818864411159,0.00223312925112,0.0,0.8188238073,-0.573904998427,-0.0118900075998,0.0,-0.00845486281484,0.00865316472043,-0.99992681634,0.0,0.655776155454,0.253259995487,0.303486770157,1.0,-0.01546,-0.0203188571429,0.774
0.460616998037,0.514336057702,-0.124078728329,-1.40833452647,0.0764248462311,1.91345328091,0.152334427762,-0.0114874682089,-0.0843497901813,0.000194366199699,-0.133827489762,-0.00794951333766,0.0500143119813,-0.0201900747407,0.573960124923,0.818868498905,0.00221436236203,0.0,0.818827497052,-0.573899158262,-0.0119177648297,0.0,-0.00848842492919,0.00865366919086,-0.999926527627,0.0,0.655499984368,0.252925764468,0.303472668488,1.0,-0.0158,-0.0207657142857,0.791
0.460439722334,0.513025472578,-0.124076200335,-1.41046991618,0.076298072045,1.91420527084,0.152031472218,-0.00604645090176,-0.0874721628754,0.00067388598917,-0.132209033341,-0.00644493835837,0.0508218694604,-0.0230349297361,0.57393900757,0.818883459824,0.00215446432098,0.0,0.818841531722,-0.573878140034,-0.0119655012097,0.0,-0.00856211589909,0.00863179894288,-0.999926088378,0.0,0.655211544693,0.252578770827,0.303445464257,1.0,-0.01614,-0.0212125714286,0.808
0.460242130836,0.511609808396,-0.124079395612,-1.41276036269,0.0761604839355,1.91503776164,0.151708512617,-0.00740986157076,-0.0834928666015,0.000218454652847,-0.139930227154,-0.00963517557161,0.0558999423081,-0.0185782479874,0.573915632307,0.818899936488,0.00211847000546,0.0,0.818857454336,-0.573854831947,-0.0119936746189,0.0,-0.00860609082859,0.00861824823631,-0.999925827748,0.0,0.654943971867,0.252255201681,0.303413533319,1.0,-0.01646,-0.0216331428571,0.824
0.460039430354,0.510138299964,-0.124085827648,-1.4150879783,0.0760177979635,1.91591667359,0.15136791607,-0.0110318509718,-0.0857374100575,-0.00203225560105,-0.142373302577,-0.0129798672716,0.0528723415681,-0.0206241021906,0.573890418008,0.818917564839,0.00213471727312,0.0,0.81887530953,-0.573829568152,-0.0119833658792,0.0,-0.00858859027036,0.00862537218646,-0.999925916792,0.0,0.654663292721,0.251898412941,0.303412268955,1.0,-0.0168,-0.02208,0.841
0.459808987809,0.508460942841,-0.124091473568,-1.41774187976,0.0758482535996,1.91686493558,0.151021004442,-0.0128849088315,-0.086574090818,-0.00377269120714,-0.136761652156,-0.00839553249597,0.0466105599278,-0.0186387920959,0.573891054087,0.818917194275,0.00210567378371,0.0,0.818874549581,-0.573830314714,-0.0119995360837,0.0,-0.00861849290494,0.00861087486883,-0.999925784453,0.0,0.654331148,0.251488448854,0.303405186542,1.0,-0.01718,-0.0225794285714,0.86
0.459637289528,0.507181656671,-0.124097948601,-1.4197236338,0.0757092220615,1.91758255994,0.150740243311,-0.00948702485838,-0.0940061352144,-0.000492512501268,-0.142193604367,-0.00960588020691,0.0504105214265,-0.0153527734719,0.573871214344,0.818931091329,0.00210805675684,0.0,0.818888609214,-0.573810598952,-0.0119828682405,0.0,-0.00860368370276,0.00860305244967,-0.999925979318,0.0,0.654086022899,0.251180319096,0.303419019486,1.0,-0.01746,-0.0229474285714,0.874
0.459362674879,0.505237536687,-0.124101786113,-1.42274513254,0.075528225591,1.91872733715,0.150321643,-0.0110655351897,-0.0911314381,0.00230453895009,-0.143383621889,-0.0132383748425,0.0557508583128,-0.0260954186942,0.573863484641,0.818936358253,0.00216541618419,0.0,0.818894593829,-0.573802602678,-0.0119567661834,0.0,-0.00854947371618,0.00863496536349,-0.999926169211,0.0,0.65372114038,0.250713985639,0.303439224972,1.0,-0.01788,-0.0234994285714,0.895
0.459187289285,0.503961261247,-0.12410498156,-1.42464541669,0.075404638978,1.91945165845,0.150059290787,-0.0172849288055,-0.0995689435402,0.00119048747474,-0.145975510497,-0.00626781598171,0.044928441764,-0.0213704000929,0.573858933859,0.818939328877,0.00224645274802,0.0,0.818898710147,-0.573797815476,-0.0119044686813,0.0,-0.00846019079805,0.00867126991221,-0.999926614432,0.0,0.653494499368,0.250418003312,0.303489207265,1.0,-0.01814,-0.0238411428571,0.908
0.458948706587,0.502174620931,-0.124115532498,-1.42727187015,0.0752422654422,1.92043871011,0.149690776585,-0.0156453384311,-0.109616381672,-0.00187663761318,-0.148969720106,-0.0129785441607,0.0559681116452,-0.0192975241608,0.573850885758,0.818944619061,0.00237038540052,0.0,0.8189056734,-0.573789344195,-0.0118335735331,0.0,-0.00833109988422,0.00873199682428,-0.999927169851,0.0,0.653177966419,0.250008620042,0.303572429943,1.0,-0.0185,-0.0243142857143,0.926
0.458712301955,0.500470105361,-0.124113537817,-1.42987027454,0.0750717986733,1.92134396532,0.149329331522,-0.0180125987538,-0.103428526514,-0.000627637355521,-0.157016851805,-0.018545898271,0.0539014532972,-0.0218243795712,0.573833219732,0.818956976153,0.00237782336131,0.0,0.818918090612,-0.573771613359,-0.0118339964832,0.0,-0.00832736675699,0.00873815110759,-0.999927147185,0.0,0.652845511151,0.249603654835,0.303603560242,1.0,-0.01884,-0.0247611428571,0.943
0.458479374584,0.498877774332,-0.1241116363,-1.43234111549,0.0749113774013,1.92224321353,0.148980535269,-0.0155263454772,-0.102531811607,-0.000275463860718,-0.158397470879,-0.0100463602471,0.0492155253221,-0.0180677724873,0.573819224149,0.818966741589,0.00239187568127,0.0,0.81892803861,-0.573757565365,-0.0118266929481,0.0,-0.00831347148003,0.00874532620662,-0.999927200081,0.0,0.652537164765,0.249215817738,0.303616060975,1.0,-0.01916,-0.0251817142857,0.959
0.458207425392,0.497115672965,-0.12411638985,-1.43515473071,0.0747378373343,1.92327790708,0.148567224118,-0.0145517439428,-0.0968118071463,-0.00126370819958,-0.152301492859,-0.0131234940571,0.0562953811014,-0.0193277830992,0.573802794697,0.818978300821,0.00237539137046,0.0,0.818939335321,-0.573741150854,-0.0118407677717,0.0,-0.00833463255897,0.00873973533581,-0.999927072804,0.0,0.652188276262,0.248767375004,0.303595216789,1.0,-0.01952,-0.0256548571429,0.977
0.457986827214,0.495741264897,-0.124116626062,-1.43737887444,0.0746089917943,1.92403779543,0.148234910671,-0.0202123475789,-0.102339165896,-0.00223448724502,-0.160889072227,-0.00612312101277,0.052783642723,-0.0203851793367,0.573788938834,0.818988209507,0.00230505125401,0.0,0.818948105363,-0.573727339776,-0.0119032439588,0.0,-0.00842630776568,0.00871783492238,-0.999926495644,0.0,0.651899551552,0.248408638656,0.303560239362,1.0,-0.0198,-0.0260228571429,0.991
0.4576861777,0.493957909048,-0.124122618179,-1.44028329781,0.0744195687928,1.92507177788,0.147824611879,-0.0160212340702,-0.0985154559125,6.02373537565e-05,-0.169380931495,-0.00465459785983,0.0596150654294,-0.0247903475594,0.573798269519,0.81898189777,0.00222349335291,0.0,0.818940710097,-0.57373697557,-0.0119475148577,0.0,-0.00850926186997,0.00867653962602,-0.999926152335,0.0,0.651534760195,0.247928051684,0.303509749573,1.0,-0.0213011428571,-0.0279957877551,1.009
0.457416476217,0.492044644248,-0.124157801948,-1.4433070864,0.0742313532047,1.92620535966,0.147398736953,-0.0141602597493,-0.109714903526,-0.00296512317313,-0.181169976873,-0.0117568527898,0.0733516084488,-0.030574029041,0.573796663436,0.818982998213,0.00223261470181,0.0,0.818942059865,-0.573735465898,-0.0119274748552,0.0,-0.00848763229512,0.00867249433031,-0.999926371259,0.0,0.651161620001,0.247445046208,0.303501561751,1.0,-0.0241085714286,-0.0316855510204,1.026
0.457103535186,0.490071808224,-0.124167555042,-1.44651402428,0.0740409143373,1.92734009929,0.146943158821,-0.0218182634185,-0.128371889206,-0.000640099557759,-0.207058912639,-0.0126641181883,0.0776181387426,-0.0345340394956,0.573800982944,0.81898016929,0.00215897728999,0.0,0.818938072428,-0.573739884755,-0.0119885391172,0.0,-0.00857984960292,0.00864727071656,-0.999925802692,0.0,0.650723611026,0.246893612349,0.303449227105,1.0,-0.026916,-0.0353753142857,1.043
0.456721627347,0.487662069595,-0.124182786414,-1.45029626335,0.0738149117785,1.92873425054,0.146390186736,-0.0211822126539,-0.152083421317,-0.00121032673501,-0.229114602235,-0.0143396440596,0.0887023034801,-0.0380544426948,0.573793429609,0.818985433415,0.00216953738174,0.0,0.818943387744,-0.573732201252,-0.0119931571222,0.0,-0.0085776526724,0.00865848975298,-0.999925724456,0.0,0.650277734343,0.246312212081,0.303442271481,1.0,-0.0295582857143,-0.0388480326531,1.059
0.456292318922,0.485013564412,-0.124215149614,-1.45434037016,0.0735616255804,1.93028807217,0.145790134781,-0.0274568202308,-0.164048570784,-0.00353427700097,-0.244095996021,-0.019218041469,0.0984828979733,-0.033983800677,0.573808555298,0.818974496619,0.00229404813221,0.0,0.818934267039,-0.573747015979,-0.0119069234021,0.0,-0.00843542573721,0.00871113685746,-0.999926477141,0.0,0.649794848066,0.245634412421,0.303492248156,1.0,-0.0323657142857,-0.0425377959184,1.076
0.455757831286,0.481780740879,-0.124261077656,-1.45937364615,0.0732551310105,1.93201047629,0.145027033628,-0.0290572102624,-0.173369206333,-0.000467650308394,-0.279451582402,-0.0141150598865,0.102683534821,-0.0370573407849,0.573814674605,0.818970406147,0.00222260322331,0.0,0.818929121713,-0.573753295389,-0.0119581161181,0.0,-0.00851828129357,0.0086820641714,-0.999926027587,0.0,0.649110008313,0.244724030398,0.30349096556,1.0,-0.0356685714286,-0.0468786938775,1.096
0.455301721161,0.47900478017,-0.124300604345,-1.46367245631,0.0729864520317,1.93357040064,0.144386041615,-0.0332893450674,-0.185470623092,-0.00110795190563,-0.287991485822,-0.0129412499367,0.107879979321,-0.0462029977915,0.573831821726,0.818958311331,0.00225201648597,0.0,0.818917409588,-0.573770320083,-0.0119433230946,0.0,-0.00848910693482,0.00869784181626,-0.999926138578,0.0,0.648607791469,0.244045735619,0.303504366269,1.0,-0.0379805714286,-0.049917322449,1.11
0.454709949258,0.475434573171,-0.124326048387,-1.4690941902,0.0726586632378,1.93558134358,0.143622963974,-0.0335738687091,-0.196283175748,-0.00303008650598,-0.312136831838,-0.0224504486222,0.116719365912,-0.0441458703849,0.57388383096,0.81892147784,0.00238926695795,0.0,0.818882311965,-0.573821723286,-0.0118800646602,0.0,-0.0083579877423,0.00877447440548,-0.999926573624,0.0,0.647932202455,0.24313617891,0.303570438479,1.0,-0.0409531428571,-0.0538241306122,1.128
0.454173499786,0.472267983547,-0.124348475816,-1.47395556347,0.0723586069183,1.93730549561,0.142889455701,-0.0348087508284,-0.217995757226,-0.00314776251318,-0.333221458603,-0.0218606314612,0.116018027944,-0.0512682513111,0.573890527884,0.818916705098,0.00241640572235,0.0,0.818877749346,-0.573828162886,-0.0118835182854,0.0,-0.00834517065321,0.00879874886454,-0.999926467369,0.0,0.647306879219,0.242311154121,0.303596432362,1.0,-0.0434302857143,-0.0570798040816,1.143
0.453545012548,0.468467896117,-0.124356159136,-1.47970692939,0.0720061827608,1.93943412159,0.141979623024,-0.0372587178425,-0.224201084373,-0.00312451713133,-0.347373707693,-0.0263513692683,0.125646878057,-0.0579970493884,0.573844253251,0.818948654584,0.00257314359983,0.0,0.818911619532,-0.573781168672,-0.0118184928836,0.0,-0.00820247542745,0.00888932256299,-0.999926846995,0.0,0.646575088096,0.24135781648,0.303668248261,1.0,-0.0462377142857,-0.0607695673469,1.16
0.452875378906,0.464431563398,-0.124356556149,-1.48584425582,0.0715971851381,1.94161765201,0.141031726476,-0.0419750561714,-0.242956023702,-0.001460964758,-0.373923534541,-0.0261714217115,0.127920224236,-0.0655255421381,0.573796532282,0.818981915339,0.00262845784823,0.0,0.818945551865,-0.573733196405,-0.0117961572311,0.0,-0.00815296288966,0.00892132973974,-0.999926966869,0.0,0.645719995848,0.240264562645,0.303715980384,1.0,-0.0492102857143,-0.0646763755102,1.178
0.452152614891,0.460232913145,-0.124369794264,-1.49239895235,0.0711618697011,1.94387926268,0.14006654489,-0.0363467587532,-0.259310335078,-0.000883137987729,-0.3826823124,-0.0246219061055,0.131893872936,-0.051985500914,0.573791669657,0.818985572144,0.00254938306719,0.0,0.818948024108,-0.573728461107,-0.0118546879511,0.0,-0.00824632353758,0.00889010458035,-0.999926479392,0.0,0.644888821355,0.239226980412,0.303689144967,1.0,-0.0518525714286,-0.0681490938775,1.194
0.451426161207,0.456131288724,-0.124377403294,-1.49878665012,0.0707262263899,1.94615365008,0.139068437331,-0.0462362819301,-0.2537737011,7.77886024243e-05,-0.404564617006,-0.0215123941038,0.152215315586,-0.0715624842608,0.573750324685,0.819014613305,0.00252487961825,0.0,0.818976759656,-0.573687229206,-0.0118649522241,0.0,-0.00826923727386,0.00887550880026,-0.999926419822,0.0,0.644042533853,0.238139515234,0.303667536778,1.0,-0.0544948571429,-0.0716218122449,1.21
0.450535628039,0.451216733363,-0.124418678491,-1.5062304073,0.0702102980984,1.9488861599,0.137864488419,-0.0513213783734,-0.274374612512,-0.00923962046712,-0.406951952938,-0.0239284792563,0.162077743352,-0.0629293639725,0.57372231239,0.819033778309,0.0026692988866,0.0,0.818998191038,-0.573659106876,-0.0117447467862,0.0,-0.00808823244389,0.00892454606926,-0.999927463856,0.0,0.643085156889,0.23683211848,0.303737390228,1.0,-0.0574674285714,-0.0755286204082,1.228
0.44982550803,0.447223812903,-0.124477777996,-1.51229424633,0.0698084124345,1.95103275463,0.136974448458,-0.0505376910636,-0.287575411156,-0.00397425701959,-0.444313542547,-0.0331462180253,0.149113556666,-0.0651113187249,0.573783763884,0.818990515497,0.00273399527817,0.0,0.818955921677,-0.573720490856,-0.0116937429203,0.0,-0.00800866962111,0.00894887374315,-0.999927886835,0.0,0.642347564945,0.23583827322,0.303781794658,1.0,-0.0596142857143,-0.0783502040816,1.241
0.448848020579,0.441931920279,-0.124496684331,-1.52054909441,0.0692466942733,1.95377746578,0.135705634279,-0.0514396306891,-0.300135081607,-0.00141709808486,-0.471707818008,-0.0360283376651,0.160800273317,-0.0792315373053,0.573770375668,0.81900056328,0.00252591662876,0.0,0.81896289542,-0.57370745867,-0.0118437617293,0.0,-0.00825106917644,0.00886440227986,-0.999926668426,0.0,0.641130043097,0.234318530155,0.303709173861,1.0,-0.062752,-0.0824740571429,1.26
0.44786242015,0.436744145008,-0.124505199147,-1.52855379196,0.0686992197407,1.95658029783,0.134411379982,-0.0576529534505,-0.313585052196,-0.000323818923804,-0.472649329048,-0.0358319967477,0.17033837557,-0.0739469024943,0.573720754992,0.819035364558,0.00251272689914,0.0,0.818997435074,-0.573657798101,-0.0118608145104,0.0,-0.00827314043984,0.0088628829791,-0.999926499525,0.0,0.639974095163,0.232828587213,0.303693358728,1.0,-0.0657245714286,-0.0863808653061,1.278
0.446730674881,0.430985989403,-0.124531832282,-1.53715989675,0.068103943867,1.95975814649,0.133000426106,-0.0660894516671,-0.315889740218,-0.00071189782434,-0.484360142932,-0.0357553676766,0.174342256738,-0.0770390619933,0.573725754096,0.819031065916,0.00276026329303,0.0,0.818996669118,-0.573662235361,-0.0116979740321,0.0,-0.0079976993102,0.00897224815942,-0.999927765175,0.0,0.638908568982,0.231359885151,0.303793919727,1.0,-0.068532,-0.0900706285714,1.295
0.445611416391,0.42541168557,-0.124606776917,-1.54584038742,0.0674684845062,1.96258130915,0.131590219538,-0.0713619086591,-0.333370554135,-0.00470813752682,-0.520163173722,-0.0389285185619,0.159271430698,-0.0896735594944,0.573735691812,0.81902498754,0.00248447727662,0.0,0.818987048204,-0.573673223231,-0.0118319365321,0.0,-0.00826553272057,0.00882332887925,-0.999926912247,0.0,0.63768013328,0.229749652636,0.303703607221,1.0,-0.0713394285714,-0.0937603918367,1.312
0.444507011344,0.419918805931,-0.124694752008,-1.55420815827,0.066867357639,1.96536078622,0.130241003502,-0.0728048119848,-0.345584959683,-0.00184621892671,-0.525034145804,-0.0378797285094,0.17612852459,-0.085429077562,0.573784483503,0.818991135561,0.00237345018536,0.0,0.818951880544,-0.573722572608,-0.0118732445262,0.0,-0.00836254107585,0.00875659356222,-0.999926692301,0.0,0.636506408133,0.228181758828,0.303695331328,1.0,-0.0739817142857,-0.0972331102041,1.328
0.443264753617,0.413854709579,-0.124715358428,-1.56313711799,0.0662550884622,1.96867838972,0.128781936604,-0.0761662853163,-0.361653475638,-0.00172365527481,-0.535163120292,-0.0385686593226,0.197189367283,-0.0892824308937,0.57382340863,0.818962709499,0.00274281952616,0.0,0.818928523633,-0.573760428273,-0.0116529407992,0.0,-0.00796975610706,0.0089330753445,-0.999928339009,0.0,0.635313573341,0.226543710332,0.303843129932,1.0,-0.0767891428571,-0.100922873469,1.345
0.44195472357,0.407734737607,-0.124743666699,-1.5724674219,0.0655973767319,1.97178746255,0.127202893126,-0.079797505305,-0.363748663117,-0.00347746197529,-0.548735813576,-0.0363941614835,0.185710680013,-0.0869628491225,0.573820199464,0.818965271313,0.00264763508262,0.0,0.818929578749,-0.573757253386,-0.0117348258743,0.0,-0.00809147080888,0.00890207819935,-0.999927637934,0.0,0.633978770272,0.224796643768,0.303811944646,1.0,-0.0795965714286,-0.104612636735,1.362
0.440583190522,0.40144156888,-0.124818529475,-1.58213904692,0.0649142698589,1.97502120229,0.125592530983,-0.0821559440328,-0.379858374295,-0.00133351889092,-0.560539505002,-0.0390295763358,0.203881430175,-0.102252924034,0.573876503548,0.818926265049,0.00250559167306,0.0,0.818888578868,-0.573813913984,-0.0118251604709,0.0,-0.0082463499011,0.00883815231114,-0.99992693972,0.0,0.632591869864,0.222954315576,0.303738329658,1.0,-0.082404,-0.1083024,1.379
0.439229921525,0.395227323416,-0.124848416479,-1.59125403279,0.0642258922799,1.97828909576,0.124027116897,-0.089848224568,-0.389688702037,0.000719311162701,-0.578425499427,-0.0539351458555,0.207839647984,-0.0951920150313,0.573888979367,0.818916647729,0.00277674895596,0.0,0.818883040131,-0.573826030372,-0.0116189653024,0.0,-0.00792174580295,0.00894200092668,-0.999928640735,0.0,0.631328013906,0.221218237182,0.303866603595,1.0,-0.0850462857143,-0.111775118367,1.395
0.437736220838,0.388545417415,-0.124880707917,-1.60141725886,0.0634747020229,1.98157423491,0.122319181937,-0.0867287779939,-0.39840191926,-0.000187192121086,-0.611650161526,-0.044178370859,0.196209159215,-0.105228495112,0.573916192529,0.818898180506,0.00259245408847,0.0,0.818861901481,-0.573853576409,-0.0117475974651,0.0,-0.00813255371598,0.00886516897488,-0.999927632556,0.0,0.629817556966,0.219275313544,0.303803255202,1.0,-0.0878537142857,-0.115464881633,1.412
0.436297501641,0.382039003141,-0.124916932174,-1.61107706226,0.0627604551501,1.9847599815,0.120553177986,-0.0870138163117,-0.418924034087,-0.000544092246331,-0.603960885803,-0.0425595505694,0.213162187061,-0.108430087911,0.573837259789,0.818953455796,0.00260449976085,0.0,0.818917220921,-0.573774487375,-0.0117545658481,0.0,-0.00813220337763,0.00887824849611,-0.999927519359,0.0,0.628386569481,0.217424269518,0.303841346333,1.0,-0.090496,-0.1189376,1.428
0.434575610938,0.374618105363,-0.124929904478,-1.6221593963,0.0619711058096,1.98853071098,0.118598030855,-0.100242708291,-0.428902945135,-0.00112111594096,-0.625680646998,-0.0367779166698,0.205832226104,-0.115077770996,0.573843176632,0.818949016777,0.0026950794184,0.0,0.818913645966,-0.573779731797,-0.0117476266107,0.0,-0.00807448077519,0.00894850497129,-0.999927360871,0.0,0.626754215316,0.215290158099,0.303852627175,1.0,-0.0934685714286,-0.122844408163,1.446
0.432867426763,0.367423865076,-0.125009056261,-1.63295639712,0.06111423482,1.99197533759,0.116747526185,-0.0974988298126,-0.425197783796,-0.00836723969007,-0.638552041191,-0.0477949382249,0.204499421982,-0.113192840409,0.573928678327,0.8188896776,0.00251296924075,0.0,0.818852098571,-0.573866066257,-0.0118205569308,0.0,-0.00823778288417,0.00884207699022,-0.999926975638,0.0,0.62511894832,0.213131982798,0.303808600408,1.0,-0.096276,-0.126534171429,1.463
0.431120686649,0.360003555525,-0.125052360008,-1.64375305406,0.0602657531113,1.99566387853,0.11472850417,-0.106195394884,-0.436967129084,-0.000381651777208,-0.653279477667,-0.0527335079945,0.219487974175,-0.121809984321,0.57387468181,0.818926812852,0.00273343569497,0.0,0.818892574875,-0.573811805175,-0.0116494616944,0.0,-0.00797173234695,0.00892389313026,-0.999928405244,0.0,0.623517937945,0.210996712236,0.303920067347,1.0,-0.0990834285714,-0.130223934694,1.48
0.429703079251,0.354270891833,-0.125057420496,-1.65230288515,0.05964606284,1.99838926694,0.113124473117,-0.108825965747,-0.445071046812,-0.000400890834929,-0.653404949334,-0.0560862486305,0.213341646987,-0.121923781124,0.573843648517,0.818948777982,0.00266702062799,0.0,0.818913084177,-0.573780350742,-0.0117565541975,0.0,-0.00809788757143,0.00893065398551,-0.999927331178,0.0,0.622190434911,0.209301406333,0.303887127012,1.0,-0.101230285714,-0.133045518367,1.493
0.427430728148,0.345240641339,-0.125127776413,-1.66554264316,0.0586338428559,2.00277601887,0.110632404264,-0.119087635504,-0.468397126562,-0.0102760314255,-0.657866990542,-0.055450050254,0.233496645343,-0.11612519118,0.573870955368,0.818929237218,0.00278889138713,0.0,0.81889517261,-0.573807273676,-0.0116899894577,0.0,-0.00797314149394,0.00899252824622,-0.999927779117,0.0,0.620176489615,0.206604581666,0.303935029525,1.0,-0.104533142857,-0.137386416327,1.513
0.425442097082,0.337436605755,-0.125135908694,-1.67700804606,0.0577225594461,2.00646134732,0.108475064118,-0.12270209188,-0.452894114024,-0.00128117430514,-0.679057514382,-0.0502166647909,0.216535241864,-0.137861509524,0.5738471683,0.818945921267,0.00278430877557,0.0,0.818911680115,-0.573783373751,-0.0117067108348,0.0,-0.00798972683381,0.00899813908209,-0.999927596258,0.0,0.618377823468,0.204285430159,0.303938136231,1.0,-0.107340571429,-0.141076179592,1.53
0.423377322605,0.329441235696,-0.125145043665,-1.68876174118,0.0567367870257,2.01010180529,0.106212296154,-0.120028063529,-0.484319081322,-0.000461133163432,-0.690329745789,-0.0542575893852,0.222683953966,-0.138837657003,0.573772326205,0.818998828912,0.00264250326097,0.0,0.818962717847,-0.573709018344,-0.0117803203794,0.0,-0.00813219721315,0.00892350528521,-0.999927116555,0.0,0.616488150109,0.201885618445,0.303909956466,1.0,-0.110148,-0.144765942857,1.547
0.421222384053,0.321300090261,-0.125151778984,-1.70057895231,0.0558094835367,2.01396453596,0.103897930133,-0.127665715817,-0.486085939925,-0.00195759931514,-0.701348558458,-0.0572318675776,0.222365709927,-0.131433882535,0.573739305469,0.819021488314,0.0027853081594,0.0,0.818987104344,-0.573675346008,-0.0117246408215,0.0,-0.00800502427499,0.00900819218157,-0.999927383393,0.0,0.614618807891,0.199458310558,0.303948615296,1.0,-0.112955428571,-0.148455706122,1.564
0.419088007394,0.31352641298,-0.125201549068,-1.71195390314,0.0548971119694,2.01744763155,0.101637787165,-0.142504101239,-0.481960380875,-0.00757419017704,-0.71053884901,-0.055916099628,0.211193515436,-0.149723848832,0.573744421197,0.819018284196,0.00267136641772,0.0,0.818982025518,-0.573680435827,-0.01182989132,0.0,-0.00815654367911,0.0089753080304,-0.999926454616,0.0,0.612766320607,0.197052655338,0.303909881587,1.0,-0.115597714286,-0.15192842449,1.58
0.416759211117,0.305026154173,-0.125279634116,-1.72402462385,0.0538444071285,2.02133814399,0.0991303938193,-0.14491761018,-0.504094808499,4.76033108159e-05,-0.724771342893,-0.0585771941516,0.220266306131,-0.153167473964,0.573690834783,0.819055151732,0.00286904295174,0.0,0.819022282749,-0.573627079392,-0.0116284586356,0.0,-0.00787873991331,0.00902112393414,-0.999928269818,0.0,0.610840552561,0.194459112187,0.304028880597,1.0,-0.118405142857,-0.155618187755,1.597
0.414425652518,0.297014459036,-0.125314366575,-1.73580557709,0.0528921542052,2.02479207509,0.0967966094465,-0.149820386824,-0.495059436212,-0.00180211674686,-0.736141863365,-0.0563269264108,0.214256796363,-0.14206934685,0.573762462792,0.819005862633,0.00260387497204,0.0,0.818968713529,-0.573698715215,-0.0118649619713,0.0,-0.00822379202183,0.00894033406674,-0.999926217114,0.0,0.608857656738,0.191915792511,0.303915483108,1.0,-0.121047428571,-0.159090906122,1.613
0.411730926085,0.287707943833,-0.125428378827,-1.74884226668,0.0518151903818,2.02898511431,0.0940142049421,-0.152879933943,-0.513622160212,-0.00610295952886,-0.721021069318,-0.0612563214865,0.232666937814,-0.157753200596,0.573808444257,0.818972454951,0.00295537360382,0.0,0.818940345865,-0.573743969947,-0.0116324444997,0.0,-0.00783117461922,0.00909524467417,-0.99992797202,0.0,0.606755907146,0.189025365197,0.304082635685,1.0,-0.12402,-0.162997714286,1.631
0.409097918007,0.278931544716,-0.125452194332,-1.76161555484,0.0507197049944,2.03269348485,0.0912832873901,-0.16169827532,-0.512924510651,-0.00266202167401,-0.768687980347,-0.0664969417989,0.209100037531,-0.167411051651,0.573744226903,0.819018346785,0.00269381250712,0.0,0.81898223224,-0.573679995083,-0.0118369513555,0.0,-0.00814945088649,0.00899774031904,-0.999926310845,0.0,0.60455821154,0.186233237305,0.303972252772,1.0,-0.126827428571,-0.166687477551,1.648
0.406496079935,0.270392627217,-0.125528934675,-1.77351791331,0.0496584210669,2.03640335734,0.0886865297535,-0.165444682916,-0.531113859183,-0.00489187676499,-0.741144538009,-0.0812573400501,0.231194972282,-0.16581329574,0.573779037618,0.818993161596,0.00292645689287,0.0,0.818960725335,-0.573714719281,-0.0116403668653,0.0,-0.00785458069141,0.00907582649494,-0.999927964873,0.0,0.602582373902,0.183536281994,0.304100099423,1.0,-0.129469714286,-0.170160195918,1.664
0.403453479847,0.260813334393,-0.125678673634,-1.78726723492,0.0484499802687,2.04042746043,0.0857180952732,-0.167185781401,-0.528728999548,-0.00845364207995,-0.768552493169,-0.0669880705936,0.217525244708,-0.169801551939,0.573913782996,0.818899328122,0.00275807728034,0.0,0.818864623313,-0.573849934158,-0.0117357852391,0.0,-0.00802785874267,0.00899399397847,-0.999927328138,0.0,0.600221237792,0.180365994372,0.304024307323,1.0,-0.132442285714,-0.174067004082,1.682
0.400830557493,0.252565415693,-0.125766872725,-1.7986651535,0.0474108594938,2.04380208691,0.0831725273019,-0.168548295571,-0.551685487637,-0.00274656119719,-0.756122063146,-0.073038585694,0.232706282315,-0.165195591163,0.573983044467,0.818850301754,0.0028973923558,0.0,0.818817809296,-0.573919166715,-0.0116160301933,0.0,-0.00784907194143,0.00904001488472,-0.999928332532,0.0,0.598264618857,0.177714218469,0.30413573702,1.0,-0.134919428571,-0.177322677551,1.697
0.397783881217,0.24325723461,-0.125771713512,-1.81192425209,0.0462532991604,2.04765312875,0.0801325218545,-0.179507830512,-0.556437552069,-0.00116693659896,-0.784231668768,-0.063033001325,0.218408768803,-0.180983840045,0.57392309168,0.81889263949,0.0028065504582,0.0,0.818858357799,-0.573858837557,-0.0117376029003,0.0,-0.00800142688911,0.00903482259308,-0.999927171922,0.0,0.595913568496,0.174707630477,0.304057033953,1.0,-0.137726857143,-0.181012440816,1.714
0.394651533423,0.233664614094,-0.125786584442,-1.82502892159,0.0451029399444,2.05149402542,0.0770682914404,-0.18388946216,-0.571380790798,-1.31600580235e-05,-0.760162909923,-0.0720893282552,0.236610431808,-0.17663605407,0.573903666818,0.818905287922,0.00307530943003,0.0,0.818874347705,-0.573838330209,-0.0116241281276,0.0,-0.0077544788607,0.00918959868774,-0.999927707054,0.0,0.593596726781,0.171682870076,0.304200616109,1.0,-0.140534285714,-0.184702204082,1.731
0.391628388918,0.224679634217,-0.125780272894,-1.8377113091,0.0438866495724,2.05505237191,0.074032205197,-0.198064756205,-0.57237645747,-0.000886765144566,-0.824303764116,-0.0710849732839,0.214921026037,-0.197749231327,0.57374936524,0.81901400467,0.00291083191721,0.0,0.818980824926,-0.573684481117,-0.0117162891303,0.0,-0.00792605838366,0.00910630430085,-0.999927123755,0.0,0.59128082895,0.168765746698,0.304118719756,1.0,-0.143176571429,-0.188174922449,1.747
0.388048320861,0.214272122435,-0.125865676985,-1.85190270375,0.0425815841167,2.05906072513,0.070586909172,-0.196281960867,-0.579231063023,-0.0102695995743,-0.772641033165,-0.0682760140189,0.230190449732,-0.18488984987,0.573776175538,0.818994636826,0.00307117826886,0.0,0.818963539261,-0.57371074652,-0.011638195337,0.0,-0.00776980117881,0.00919307923068,-0.999927556118,0.0,0.588713053316,0.165367692202,0.304219453539,1.0,-0.146149142857,-0.192081730612,1.765
0.384537506909,0.204470345266,-0.125944996692,-1.86558725634,0.0412908938106,2.06274492976,0.0672245813777,-0.209833740763,-0.578438853231,-0.00500977702216,-0.847329190461,-0.0767593091727,0.21391654865,-0.193797511999,0.573784670919,0.818989379398,0.00288006132004,0.0,0.818955303751,-0.573719323073,-0.0117938836667,0.0,-0.00800687279104,0.00912596685485,-0.999926300643,0.0,0.586165471517,0.16206681612,0.304130729452,1.0,-0.148956571429,-0.195771493878,1.782
0.381112110461,0.194981179969,-0.126022393681,-1.8783737842,0.0400718709685,2.0662701025,0.0639436253087,-0.216659565122,-0.597088043124,-0.00739287365293,-0.798581230706,-0.0710723761271,0.222479773453,-0.198848791066,0.573779047628,0.818992741614,0.00303983356644,0.0,0.818960861783,-0.573713280727,-0.0117015078697,0.0,-0.00783960805974,0.00920376195951,-0.999926912985,0.0,0.583800885647,0.158924380505,0.304229651357,1.0,-0.151598857143,-0.199244212245,1.798
0.377056237245,0.184355629533,-0.126199066597,-1.89305264191,0.038704102864,2.07013754044,0.0601694123146,-0.231889291135,-0.584970340597,-0.0115900049453,-0.795582596322,-0.0753593064493,0.204368373861,-0.212796115427,0.573932041745,0.818886113306,0.00287954734891,0.0,0.818851392964,-0.573865949998,-0.0118749557636,0.0,-0.00807191760538,0.00917351558338,-0.999925342592,0.0,0.581032943548,0.155215455636,0.304137359485,1.0,-0.154571428571,-0.203151020408,1.816
0.373334214328,0.174677950909,-0.126316695821,-1.90598271693,0.0374203327634,2.07366737056,0.0567511239883,-0.228505483518,-0.606950435858,-0.000788829795662,-0.801764908638,-0.0880642586047,0.215321937094,-0.218790891342,0.574034180065,0.81881385916,0.00306121969329,0.0,0.818781959722,-0.573967956356,-0.0117317692975,0.0,-0.00784924440424,0.00924108594857,-0.999926493145,0.0,0.578610889044,0.151908386955,0.304228760053,1.0,-0.157213714286,-0.206623738775,1.832
0.369349889258,0.164415533806,-0.126328168027,-1.92004734002,0.0359500158804,2.07719615151,0.0529406762107,-0.235322598268,-0.59802979069,-0.00140515836659,-0.801999161876,-0.0814124831624,0.202076145105,-0.234871156099,0.573874740549,0.818926609104,0.00278171926009,0.0,0.81889075337,-0.573809178412,-0.0119041049958,0.0,-0.00815256925764,0.00910956473383,-0.99992527293,0.0,0.575840895639,0.148416417709,0.304113182936,1.0,-0.160021142857,-0.210313502041,1.849
0.365444473478,0.154472179004,-0.126374111631,-1.93303986416,0.0346248730792,2.08072948483,0.0492985884981,-0.24657792846,-0.608285360878,-0.000336933240174,-0.790961814606,-0.0912488193172,0.215173846161,-0.225465270361,0.57383703612,0.818951759841,0.00313335781829,0.0,0.818921195805,-0.573771069523,-0.0116439572959,0.0,-0.00773815823596,0.00924788512529,-0.999927296121,0.0,0.573351926505,0.145090471537,0.304276205944,1.0,-0.162663428571,-0.213786220408,1.865
0.361143403041,0.143982403433,-0.126440967055,-1.94724779591,0.033171942054,2.084104167,0.0453635404788,-0.256474944204,-0.621303327515,-0.00567568123358,-0.834840680904,-0.0735675230456,0.197859929983,-0.225700523675,0.573851585346,0.818942640201,0.00283847813274,0.0,0.818907301577,-0.573785563072,-0.0119040302205,0.0,-0.00812019650313,0.00915577335933,-0.999925114308,0.0,0.570485405634,0.14143123572,0.304155483932,1.0,-0.165470857143,-0.217475983673,1.882
0.355890962381,0.131325933976,-0.126582819043,-1.96373911828,0.0314983773538,2.08831950701,0.0404899978693,-0.263938939198,-0.628694926989,-0.0051863034467,-0.857978422368,-0.0881861130388,0.216201849407,-0.247168520117,0.573864812714,0.818932318307,0.00312756489512,0.0,0.818900938893,-0.573797979538,-0.0117421403228,0.0,-0.00782157836838,0.00929974603521,-0.999926166092,0.0,0.567224079864,0.137062444381,0.304280956005,1.0,-0.168773714286,-0.221816881633,1.902
0.351221928573,0.120467145629,-0.126749815325,-1.97795412116,0.0299366104954,2.091682979,0.0363116280124,-0.278546496242,-0.652729402756,-0.0116822782158,-0.807866114159,-0.0929798765006,0.204046039503,-0.248659892158,0.573969817754,0.818859073003,0.0030354189991,0.0,0.818826600462,-0.573903413068,-0.0117736037921,0.0,-0.00789903704441,0.00924335300608,-0.999926080087,0.0,0.564500096843,0.13343134958,0.304275313493,1.0,-0.171416,-0.2252896,1.918
0.346958941257,0.110818405867,-0.1268474953,-1.99049620069,0.0285841508344,2.09474533158,0.0324032214622,-0.283103338828,-0.644103100992,-0.00604948642964,-0.819621818744,-0.0972159371302,0.192937369945,-0.266667372754,0.573964191536,0.818862506045,0.0031701622765,0.0,0.818832153101,-0.573897767384,-0.011662098483,0.0,-0.00773045497203,0.00928963658425,-0.999926968692,0.0,0.561786363497,0.12978222636,0.304333165307,1.0,-0.174058285714,-0.228762318367,1.934
0.342341149218,0.100424891666,-0.126878369881,-2.00395328212,0.0270767128582,2.0978094355,0.0282251767821,-0.290332586085,-0.650305812545,-0.00346512652233,-0.844817636998,-0.101801324731,0.199663359799,-0.26416317634,0.573898276859,0.818908874011,0.00312582560907,0.0,0.818877948722,-0.573832012546,-0.0116821819598,0.0,-0.00777309333071,0.00926423212468,-0.999926873838,0.0,0.558963924166,0.126147256719,0.304342651759,1.0,-0.176700571429,-0.232235036735,1.95
0.337620985795,0.0899856222245,-0.126893387285,-2.01743402789,0.0256891159959,2.10090866381,0.0238960895601,-0.296505322527,-0.647729318704,-0.000971279928507,-0.81651594091,-0.0864972172053,0.192191115265,-0.269782886122,0.57381230081,0.818968813902,0.00320502663005,0.0,0.818938105439,-0.573744808182,-0.0117482528924,0.0,-0.00778273518944,0.0093661907872,-0.999925849002,0.0,0.556110561834,0.122515846938,0.304338470065,1.0,-0.179342857143,-0.235707755102,1.966
0.331122012394,0.0759876644064,-0.127037075379,-2.03514594279,0.0236575972984,2.10482809326,0.0179829424799,-0.308949867643,-0.664663509042,-0.00399054441929,-0.840959089658,-0.106598459918,0.196533023213,-0.278845667586,0.573743571389,0.81901655188,0.00330891790907,0.0,0.818987629045,-0.573676273981,-0.0116422955088,0.0,-0.00763713206503,0.00938983582085,-0.999926749916,0.0,0.55233365576,0.11753599692,0.304429317081,1.0,-0.182810857143,-0.240265697959,1.987
0.325614947062,0.0647135733,-0.127225187221,-2.04967120091,0.0220206046077,2.10785157863,0.0131070881514,-0.329960490174,-0.67515503997,-0.0116904310877,-0.876259304598,-0.0970779971487,0.160392350331,-0.292438964907,0.573856903189,0.818937915026,0.00311334168401,0.0,0.818905706201,-0.573789356884,-0.0118306880207,0.0,-0.00790234880308,0.00933883506207,-0.999925166722,0.0,0.549166143137,0.113361024778,0.304329520628,1.0,-0.185618285714,-0.243955461224,2.004
0.319899491794,0.0531579860433,-0.127377199067,-2.06396021513,0.0203682885849,2.11090852932,0.00802872378851,-0.329804243217,-0.676996283721,-0.00728685798148,-0.822932846066,-0.094888647523,0.180402323884,-0.295948182746,0.573915657257,0.818895841289,0.00334161283962,0.0,0.818867067771,-0.57384789147,-0.0116648907622,0.0,-0.00763490004765,0.00943118173572,-0.999926377846,0.0,0.546062758941,0.10915781633,0.304458137443,1.0,-0.188425714286,-0.24764522449,2.021
0.314105952423,0.0416970353231,-0.127431705655,-2.07854769184,0.018715548689,2.11376291122,0.00290879273574,-0.34882338316,-0.680238379304,-0.0016947049683,-0.854107486711,-0.0960987205219,0.161896748703,-0.303477245267,0.573905559686,0.818903697673,0.00314474166405,0.0,0.818871125955,-0.573836980337,-0.011914108316,0.0,-0.00795209139639,0.00941289237587,-0.999924077968,0.0,0.542764841576,0.104985814222,0.304339965744,1.0,-0.18998,-0.249688,2.038
0.308125319312,0.0301116600322,-0.12749997512,-2.09272395113,0.0169660630924,2.11667616587,-0.00241357827709,-0.351153050545,-0.674450433308,-0.00405711618,-0.815197422264,-0.102811781613,0.167306865345,-0.315825877288,0.573828885048,0.818956680523,0.00333361847521,0.0,0.818927519085,-0.573760807068,-0.0117047707838,0.0,-0.00767314833245,0.00944670935449,-0.999925938496,0.0,0.53959539768,0.100772634235,0.30444301052,1.0,-0.18998,-0.249688,2.055
0.302737486232,0.0200265705104,-0.127599455628,-2.10530194054,0.0154850045286,2.11894257575,-0.00719593070467,-0.361523507904,-0.667778352698,-0.0069987822757,-0.848681938603,-0.0974091308726,0.146998660179,-0.329318462479,0.573822724732,0.818961646997,0.00316989443136,0.0,0.818929350826,-0.573754002861,-0.0119083776611,0.0,-0.00793391771629,0.00942939885066,-0.999924066811,0.0,0.536682157094,0.0970090518046,0.304367687793,1.0,-0.18998,-0.249688,2.07
0.296077952625,0.00791545161967,-0.127799278718,-2.11994767438,0.0136391200826,2.12168196039,-0.012957338033,-0.370044869549,-0.658444401417,-0.00970898106568,-0.84188567509,-0.101733085784,0.146333986444,-0.329578908653,0.573969333847,0.818858482405,0.00327665955109,0.0,0.818828209247,-0.573900974213,-0.0117805958683,0.0,-0.00776631227162,0.00944490387907,-0.999925236297,0.0,0.53331992261,0.0924190239509,0.304447268595,1.0,-0.18998,-0.249688,2.088
0.289774205718,-0.00347685372589,-0.127833388801,-2.13369238384,0.0120257788093,2.12408842223,-0.0185137263292,-0.374983672115,-0.675366876701,-0.00126555963316,-0.810840355623,-0.101437364441,0.147591743927,-0.325836989098,0.573933891335,0.818882975295,0.00336274445269,0.0,0.818853076083,-0.573864325741,-0.0118373279387,0.0,-0.00776377672077,0.00954762114733,-0.999924280484,0.0,0.530070709516,0.0882293743655,0.304480781476,1.0,-0.18998,-0.249688,2.105
0.28375668745,-0.0140766430247,-0.127869294683,-2.14639715829,0.0103979275622,2.1263760623,-0.0238042637823,-0.382659902703,-0.653692006568,-0.00146684926265,-0.796346401605,-0.106443027131,0.139706989415,-0.332166334701,0.573842157119,0.818946880365,0.00345438186115,0.0,0.818918734444,-0.573772990054,-0.0117221654648,0.0,-0.00761794649838,0.00955571471559,-0.999925324816,0.0,0.526869564878,0.0840414737763,0.30451611566,1.0,-0.18998,-0.249688,2.122
0.278762483849,-0.0226365086098,-0.127930533556,-2.1567567475,0.00906150264543,2.12788721103,-0.0282105560289,-0.386730932934,-0.654785919875,-0.00280565163604,-0.807386099945,-0.103956480124,0.121886302003,-0.337607857958,0.573800329295,0.818977081797,0.00323550512914,0.0,0.818945211079,-0.573730857198,-0.011932797303,0.0,-0.00791653079939,0.00949692729806,-0.999923565535,0.0,0.524511420147,0.0810297277132,0.304448698591,1.0,-0.18998,-0.249688,2.134
0.272063359875,-0.0338672576623,-0.128101762861,-2.16984959354,0.00734457261893,2.13014670559,-0.0339639446823,-0.395281355781,-0.646216091022,-0.0118756201581,-0.796262371317,-0.107085786583,0.124507327499,-0.341101331875,0.573942744903,0.818876198493,0.00349914513564,0.0,0.818848852117,-0.573873692555,-0.0116743000652,0.0,-0.0075518845149,0.00956583497394,-0.999925729163,0.0,0.521372579661,0.0767203660748,0.304574019494,1.0,-0.18998,-0.249688,2.151
0.26530856271,-0.0448548314514,-0.128197385044,-2.18303638719,0.00575202778764,2.13203398858,-0.0398983440234,-0.394972838742,-0.64992914885,-0.00248983180011,-0.77688900949,-0.091362857328,0.113331186423,-0.343257827881,0.57395634852,0.818867333298,0.00333876506558,0.0,0.818836063037,-0.573885571174,-0.011983320471,0.0,-0.00789683262001,0.00961198916299,-0.999922621856,0.0,0.518067592387,0.0724762032197,0.30445910798,1.0,-0.18998,-0.249688,2.168
0.258480630907,-0.0559349653707,-0.128236073618,-2.19570602834,0.00398672370948,2.13403167994,-0.0458549464014,-0.403457081292,-0.642145809066,-0.00256061449964,-0.745806040911,-0.111426167025,0.113995679534,-0.357826401691,0.573872607558,0.81892503458,0.00357280475686,0.0,0.8188983947,-0.573803009952,-0.0116735525595,0.0,-0.00750982289738,0.00962508143941,-0.999925477407,0.0,0.514926777906,0.0682833349415,0.304598976623,1.0,-0.18998,-0.249688,2.185
0.251940323251,-0.0661463345005,-0.128311903495,-2.20785648313,0.00243444505253,2.1355680895,-0.0516094108249,-0.408178554924,-0.633639640687,-0.00633050187243,-0.746485523506,-0.106903952226,0.0954890346555,-0.359546689349,0.573829078909,0.818956610857,0.00331732329242,0.0,0.818924926247,-0.573758236581,-0.0120082483155,0.0,-0.00793104547752,0.00960750577701,-0.999922394164,0.0,0.511783424019,0.0643033475549,0.304451943391,1.0,-0.18998,-0.249688,2.201
0.244786009329,-0.0770996271372,-0.128516459236,-2.22020322181,0.000745895964401,2.13728240777,-0.0577872018899,-0.432268432063,-0.629901145995,-0.0113677612352,-0.716542919676,-0.100031955985,0.106697401431,-0.371863825057,0.573968584748,0.818857892261,0.00354441877865,0.0,0.818829991637,-0.57389793048,-0.0118049603355,0.0,-0.00763259728785,0.0096781391098,-0.999924035656,0.0,0.508637802392,0.0599821256988,0.304574830269,1.0,-0.18998,-0.249688,2.218
0.237589507776,-0.0878455258646,-0.128589468191,-2.23270733965,-0.000873590340548,2.13875357324,-0.0640931649179,-0.420967662456,-0.626888668478,-0.00121248744615,-0.730845263446,-0.0890251019796,0.0711085569495,-0.3732335866,0.573943478373,0.818876137917,0.00339135433046,0.0,0.818844690252,-0.573871450475,-0.0120697339659,0.0,-0.0079375685298,0.00970452442387,-0.999921405517,0.0,0.505330655068,0.0557597626888,0.304463512765,1.0,-0.18998,-0.249688,2.235
0.230304741778,-0.0986810537236,-0.128637487198,-2.24473506733,-0.00259472787303,2.1402128294,-0.0704958992713,-0.434054469945,-0.63578003469,-0.00192613987665,-0.69719935055,-0.100315883407,0.0850516328876,-0.381096578638,0.573832374782,0.81895331845,0.0035517252694,0.0,0.818924987942,-0.573761049953,-0.0118688071157,0.0,-0.00768230526193,0.00971948947676,-0.99992325391,0.0,0.502152440767,0.0515658459748,0.304575836846,1.0,-0.18998,-0.249688,2.252
0.223301619256,-0.108716249778,-0.128768462138,-2.25611902931,-0.00414050096512,2.14139257002,-0.0765375405554,-0.440619528274,-0.624087062686,-0.00717754167113,-0.703842310834,-0.0952071938599,0.066727651094,-0.379201011219,0.573923448979,0.818889855694,0.00346783136433,0.0,0.818859456997,-0.573851195595,-0.0120308728723,0.0,-0.00786209194539,0.00974465417586,-0.99992161154,0.0,0.499066124576,0.0475578096362,0.304520448328,1.0,-0.18998,-0.249688,2.268
0.215191672052,-0.120050088702,-0.128954024117,-2.26855163995,-0.0059649130224,2.14268848243,-0.0835488666332,-0.455810820762,-0.636397250023,-0.0034765574876,-0.687942707977,-0.114146124401,0.0767941076754,-0.386634291667,0.574019306819,0.818822161686,0.0035846661592,0.0,0.81879408182,-0.57394761304,-0.0118800658024,0.0,-0.00767039825459,0.00975467838108,-0.999923002656,0.0,0.495688152374,0.0429764666746,0.304608335465,1.0,-0.18998,-0.249688,2.286
0.207585040091,-0.130562938038,-0.128992444597,-2.28020889262,-0.00753192680151,2.14376222544,-0.0902800321028,-0.456379742883,-0.6309892629,-0.00185858276646,-0.691885600707,-0.096826382853,0.0531222910281,-0.398774114778,0.573921475865,0.818890650138,0.00360410313867,0.0,0.818861904526,-0.573848559156,-0.0119899696627,0.0,-0.00775041387854,0.0098327531556,-0.999921620953,0.0,0.492437854901,0.038821851161,0.30458670387,1.0,-0.18998,-0.249688,2.303
0.200223140025,-0.140428165406,-0.129088264523,-2.290986731,-0.00911674603271,2.14468525528,-0.0967151620809,-0.458090075736,-0.628934903468,-0.00227021049289,-0.655075109993,-0.0853946058583,0.0615855370828,-0.399695824101,0.573901406417,0.818904700686,0.00360746548257,0.0,0.818876082854,-0.573828586878,-0.0119775086166,0.0,-0.00773852027908,0.00982816546649,-0.999921758173,0.0,0.489401759422,0.0348252350666,0.304599553978,1.0,-0.18998,-0.249688,2.319
0.192275680617,-0.150868394296,-0.129269212235,-2.30221245142,-0.0107624703864,2.14568879107,-0.10365073908,-0.470136626801,-0.606049464837,-0.0119745054358,-0.665475866317,-0.0964544608462,0.045292721507,-0.415841302872,0.573972996086,0.818853778037,0.0037731762932,0.0,0.818827936868,-0.573900378844,-0.011828434775,0.0,-0.00752047599213,0.00987897450728,-0.999922921181,0.0,0.486225434059,0.0305467115226,0.30466259436,1.0,-0.18998,-0.249688,2.336
0.184260091809,-0.161194408878,-0.129333585118,-2.31344406953,-0.0124343066457,2.14634669539,-0.110736159278,-0.47219727423,-0.603508175675,-0.000245178147887,-0.648112367195,-0.0966867562197,0.0394374781515,-0.417035966104,0.573856656611,0.818936044965,0.00361093091382,0.0,0.818907241475,-0.573783537883,-0.0120053494177,0.0,-0.00775987005731,0.00984655672881,-0.999921411781,0.0,0.482929024091,0.0263425512301,0.304604522261,1.0,-0.18998,-0.249688,2.353
0.176097282522,-0.171492814517,-0.129394876622,-2.32422655993,-0.0139389035591,2.14713019771,-0.117927928676,-0.484376702198,-0.594459423206,-0.00323090602255,-0.639322991276,-0.0773124838371,0.048101800591,-0.428839344526,0.573840480008,0.818946071495,0.00389645839176,0.0,0.818921379298,-0.573766859226,-0.0118369204186,0.0,-0.00745828437697,0.00998358939043,-0.999922347954,0.0,0.479779584779,0.0221566718849,0.304713591319,1.0,-0.18998,-0.249688,2.37
0.168266907177,-0.1810646286,-0.129558953171,-2.33448666566,-0.0155151975954,2.14761571785,-0.124778101165,-0.494923151056,-0.596797943702,-0.0161796126332,-0.642456681887,-0.100983223152,0.0303265293479,-0.433940144136,0.573879249912,0.818919513236,0.00376620005137,0.0,0.818892459482,-0.573805204285,-0.0119780733138,0.0,-0.00764816002856,0.00995827227928,-0.999921166123,0.0,0.476689215359,0.0181275454076,0.304654333684,1.0,-0.18998,-0.249688,2.386
0.159771173808,-0.191246466023,-0.129690077009,-2.34503397566,-0.0171158647025,2.14813371677,-0.132231045102,-0.496999861433,-0.610248330809,-0.00218773442308,-0.606006270817,-0.10214908661,0.0367963161134,-0.442891847002,0.573913413666,0.818894945006,0.00389994345735,0.0,0.818870052039,-0.573839440623,-0.0118693369879,0.0,-0.0074819427385,0.0100057112515,-0.999921950092,0.0,0.473494088816,0.0138545112984,0.304725583823,1.0,-0.18998,-0.249688,2.403
0.15075229734,-0.201841331796,-0.129776911278,-2.35611697714,-0.0187828952481,2.14856750043,-0.140239499829,-0.509030572889,-0.588080679354,-0.0119870723309,-0.611631846593,-0.0927832215805,0.0143736942436,-0.442169517837,0.573832196163,0.81895182608,0.00390693078042,0.0,0.818926643475,-0.573757702424,-0.0119163089055,0.0,-0.00751739604338,0.0100376446755,-0.999921364131,0.0,0.470067614894,0.00941232177158,0.304707168572,1.0,-0.18998,-0.249688,2.421
0.142556795668,-0.21123209668,-0.129952087995,-2.36587950692,-0.0202354227055,2.14876546528,-0.147484597627,-0.510972566106,-0.589398213171,-0.0166359115924,-0.601249464917,-0.0884265603593,0.0121071256606,-0.462590551446,0.573884380868,0.818915419881,0.00387290303535,0.0,0.818888626723,-0.573808456378,-0.0120838451695,0.0,-0.00767349036681,0.0101064008312,-0.999919485863,0.0,0.466978058431,0.00539670651106,0.304670966703,1.0,-0.18998,-0.249688,2.437
0.134238830261,-0.220596601512,-0.13006757264,-2.37522685476,-0.0217003111774,2.14907146138,-0.154755762478,-0.516158139551,-0.575207553182,-0.00487519564405,-0.591514841693,-0.0932640851286,0.0110101009829,-0.457739491634,0.573934707633,0.818879032573,0.00410222959335,0.0,0.81885650027,-0.573859671708,-0.0118260751945,0.0,-0.00733016201504,0.0101467277333,-0.999921653251,0.0,0.463834440925,0.0011637057117,0.304791407795,1.0,-0.18998,-0.249688,2.454
0.125371344384,-0.230322064562,-0.130121815453,-2.38527800035,-0.0233166243387,2.14916327564,-0.162694478493,-0.536356334204,-0.576285870551,-0.00829468800473,-0.584824368515,-0.0934153092589,0.0032387715792,-0.470033479735,0.573796033238,0.818976913086,0.00395916328833,0.0,0.818951840051,-0.573720594144,-0.0119712335437,0.0,-0.00753285541019,0.0101116050601,-0.999920502606,0.0,0.460747001632,-0.00277173862131,0.304714020343,1.0,-0.18998,-0.249688,2.47
0.116248782011,-0.240043627368,-0.130291863544,-2.39504059425,-0.0248843261942,2.14919429253,-0.170774445139,-0.544959156651,-0.565153431776,-0.0108011434129,-0.56305982785,-0.100222141184,0.00657423202165,-0.478628013822,0.573834306296,0.818949951871,0.00398900353303,0.0,0.818925205153,-0.573758669401,-0.0119684816648,0.0,-0.00751300677264,0.0101348160368,-0.99992041695,0.0,0.457520142946,-0.00704892091561,0.304727447844,1.0,-0.18998,-0.249688,2.487
0.10594387752,-0.25083027681,-0.130438806127,-2.40567935369,-0.0265164086001,2.14923378855,-0.179950321199,-0.528351300615,-0.557424287336,-0.00315519018574,-0.570953434808,-0.0801493354138,0.000579918901023,-0.482270586722,0.573861506062,0.818929825866,0.00420226953705,0.0,0.818908177307,-0.573785560741,-0.0118437462712,0.0,-0.007288135808,0.0102381400757,-0.999921028664,0.0,0.453961514963,-0.0117745881369,0.304795337535,1.0,-0.18998,-0.249688,2.506
0.097693353749,-0.25920056925,-0.130580607375,-2.4141348104,-0.0278974771512,2.14913060569,-0.187352165578,-0.55430638068,-0.557142102806,-0.0133296919771,-0.551376023821,-0.094025083287,-0.00738835265076,-0.481823193016,0.573816526598,0.818961803697,0.00411154350989,0.0,0.818938291027,-0.573739956817,-0.0119701438203,0.0,-0.00744427710316,0.0102359638393,-0.999919900683,0.0,0.451063175102,-0.0155227614551,0.304719828346,1.0,-0.18998,-0.249688,2.521
0.0864114114662,-0.270344582757,-0.130801197652,-2.42481381111,-0.0296695965908,2.14899095241,-0.19730848403,-0.563348900227,-0.554553030017,-0.00982328265292,-0.525278568954,-0.0879261855332,-0.0116597301365,-0.499238232519,0.57397394795,0.818850194537,0.00436037644486,0.0,0.81883126732,-0.573898420373,-0.0116921193082,0.0,-0.00707181717052,0.0102815824019,-0.999922136201,0.0,0.447355032724,-0.0205884170563,0.304844988595,1.0,-0.18998,-0.249688,2.541
0.0791574702167,-0.277462498975,-0.130863091763,-2.43179561944,-0.0308039298903,2.14879068877,-0.203901319355,-0.55335198275,-0.55044694941,-0.00228394581278,-0.543072424238,-0.0762554793466,-0.0185861318655,-0.512107296996,0.573847998458,0.818938496804,0.0043543103487,0.0,0.818919267104,-0.573772185227,-0.0117243476394,0.0,-0.00710327422796,0.0102940202574,-0.999921785262,0.0,0.444877919304,-0.0237598260367,0.304823029127,1.0,-0.18998,-0.249688,2.554
0.0682318312945,-0.287739039319,-0.131030793589,-2.4418626869,-0.032462520023,2.1483538143,-0.213699118134,-0.58705409275,-0.542306721482,-0.0103120340879,-0.519868892655,-0.0842234861849,-0.0267899410301,-0.523502199955,0.573866792301,0.818925662846,0.00429072589806,0.0,0.81890465072,-0.573789815998,-0.0118813714146,0.0,-0.00726812507163,0.010332218822,-0.999920206623,0.0,0.441031320154,-0.0287641051618,0.304759432025,1.0,-0.18998,-0.249688,2.574
0.0582066876855,-0.29693358845,-0.131225711489,-2.45043346708,-0.0338483519926,2.14800588799,-0.222611566191,-0.584723424466,-0.534800224926,-0.00807618316452,-0.500648284355,-0.0852429878647,-0.0281025584235,-0.535673995354,0.574020006197,0.818816909837,0.00454395778677,0.0,0.818800017912,-0.57394338327,-0.0116734899619,0.0,-0.00695061029286,0.0104216101458,-0.999921536451,0.0,0.438063034853,-0.0328171909273,0.304864581357,1.0,-0.18998,-0.249688,2.59
0.0483189380866,-0.305929728358,-0.131326442277,-2.45900881447,-0.0353494267903,2.1475093937,-0.231641356955,-0.589446962628,-0.528073615294,-0.00676950238694,-0.508539688682,-0.0926440043184,-0.032116254896,-0.522855968591,0.57384687473,0.818938489644,0.00450127137639,0.0,0.81892113563,-0.573770549982,-0.0116737523334,0.0,-0.00697752249004,0.01038533251,-0.999921726461,0.0,0.434833287499,-0.036977469821,0.304848358653,1.0,-0.18998,-0.249688,2.607
0.0386406276108,-0.314299644527,-0.131501384839,-2.46698634261,-0.0366827045575,2.14688453999,-0.240265441383,-0.603196335491,-0.519950947346,-0.0134237183939,-0.495610266447,-0.0872192963598,-0.0346639695466,-0.54561224382,0.573979590289,0.81884578713,0.00444451717449,0.0,0.818826581288,-0.573901787261,-0.0118539131599,0.0,-0.00715594827618,0.01044339409,-0.999919860751,0.0,0.431738561843,-0.0410192388075,0.304794995036,1.0,-0.18998,-0.249688,2.623
0.0289529631497,-0.322602830465,-0.131621034958,-2.47459075193,-0.0380020041213,2.14638744339,-0.249065656078,-0.598237382077,-0.528760854792,0.000411506419616,-0.466863363237,-0.0769021988294,-0.0313036060012,-0.549502739346,0.573943701894,0.818870092031,0.00459851443374,0.0,0.818853933591,-0.573866960721,-0.0116487654529,0.0,-0.00690002298336,0.010451448422,-0.999921575379,0.0,0.428766262573,-0.0450028425169,0.304871303595,1.0,-0.18998,-0.249688,2.639
0.0186416329177,-0.33126213934,-0.131736392814,-2.48259908502,-0.0393416271665,2.14575806922,-0.258577156332,-0.618015936275,-0.499740270941,-0.00534062307818,-0.48178831002,-0.0875466346194,-0.0455460406967,-0.555184460345,0.573802868873,0.818968273101,0.0046885208782,0.0,0.818953332647,-0.573725953481,-0.0116067286453,0.0,-0.00681574762804,0.0104998561481,-0.999921646233,0.0,0.425569736577,-0.0491705500547,0.304882949907,1.0,-0.18998,-0.249688,2.656
0.00852976431051,-0.339304178205,-0.131935745489,-2.49008000111,-0.0406107701461,2.14495256985,-0.267602344625,-0.631314123555,-0.50420387283,-0.0148709085697,-0.458266912,-0.0797764358232,-0.0487006959604,-0.566106182742,0.574005254453,0.818826657247,0.00464974658231,0.0,0.818809980355,-0.573926546877,-0.0118017694519,0.0,-0.00699512510791,0.0105817403163,-0.999919544262,0.0,0.422472227554,-0.0532417370287,0.304831864054,1.0,-0.18998,-0.249688,2.672
-0.00202945333915,-0.347756544557,-0.132028269483,-2.49777855729,-0.0419766945282,2.14413767853,-0.27737518505,-0.613702786922,-0.496129284533,-0.00912747647512,-0.447879505197,-0.081252466107,-0.0490183906369,-0.583883614042,0.57382057639,0.818956071379,0.0046525439096,0.0,0.818939437847,-0.573741900676,-0.0117972644317,0.0,-0.00699221656813,0.0105798684651,-0.999919584412,0.0,0.419251100271,-0.0573965877128,0.30483499825,1.0,-0.18998,-0.249688,2.689
-0.0129207051336,-0.35612978104,-0.132232474354,-2.50511441146,-0.0432767997902,2.14336308473,-0.287318154917,-0.656308868138,-0.484195027583,-0.0160020959445,-0.432087619557,-0.0719432234223,-0.0503198999246,-0.584572242029,0.573889895851,0.818906194353,0.00487639114672,0.0,0.818893649741,-0.573812346087,-0.0115468087874,0.0,-0.00665774797898,0.0106200471049,-0.99992144141,0.0,0.416098219843,-0.0616847531364,0.304947769435,1.0,-0.18998,-0.249688,2.706
-0.0239899381402,-0.364282331547,-0.13235302958,-2.51254800962,-0.0446664636033,2.14236128823,-0.297368586191,-0.644556518539,-0.484601232769,-0.00123633164243,-0.426131704261,-0.081945350535,-0.0577975109658,-0.601379725799,0.573903610455,0.818897424525,0.00473296037272,0.0,0.818882251865,-0.573825294063,-0.0117105241261,0.0,-0.00687395801401,0.0105966533427,-0.999920226638,0.0,0.412808970533,-0.0659480316853,0.304884588242,1.0,-0.18998,-0.249688,2.723
-0.0342926134239,-0.371875623605,-0.132459792302,-2.5193489039,-0.0458218945611,2.14145697432,-0.306987161067,-0.655499222365,-0.476127496147,-0.0113590886345,-0.426470473727,-0.0722530287087,-0.0568382335094,-0.592529059357,0.573756505373,0.819000269551,0.00477262182042,0.0,0.818985019515,-0.573677170272,-0.0117808751688,0.0,-0.00691072881099,0.010668264939,-0.999919211712,0.0,0.409760639841,-0.0698453805488,0.304865056241,1.0,-0.18998,-0.249688,2.739
-0.0456759661717,-0.379779396613,-0.13268001298,-2.52619916099,-0.0470934365327,2.14047567393,-0.317274552935,-0.674787068641,-0.455055332275,-0.0121194913287,-0.387860861754,-0.084113624677,-0.0522231101286,-0.615296408457,0.573972286782,0.818848339349,0.00489469650427,0.0,0.818835407005,-0.573893672555,-0.0116351079908,0.0,-0.00671848285512,0.0106863860907,-0.999920328396,0.0,0.406380973412,-0.0744293970132,0.304936911949,1.0,-0.18998,-0.249688,2.757
-0.0569380420306,-0.387523609446,-0.132795411136,-2.53291629124,-0.0483436604105,2.13950880342,-0.327831733175,-0.665770419718,-0.453418963471,-0.0122221126611,-0.390913118093,-0.0731218554879,-0.060557785522,-0.623359387582,0.573798552964,0.818969766782,0.00494859727416,0.0,0.818957922487,-0.573720428521,-0.0115558640739,0.0,-0.0066249195071,0.0106836367198,-0.999920982052,0.0,0.403387459283,-0.07835993444,0.304959856648,1.0,-0.18998,-0.249688,2.773
-0.0685246057593,-0.39516406086,-0.133015700746,-2.53964377643,-0.0495788314847,2.13835410045,-0.33848074611,-0.691385204576,-0.448904619321,-0.0173006287242,-0.390889129548,-0.0721680166002,-0.060427569998,-0.623852018516,0.573895789644,0.818901795841,0.00492120897859,0.0,0.81888851743,-0.573816007873,-0.0117274051113,0.0,-0.00677985514944,0.010760437113,-0.999919120008,0.0,0.400090909072,-0.0826387031761,0.304912729741,1.0,-0.18998,-0.249688,2.79
-0.0807729645209,-0.403031306107,-0.133119449804,-2.5464736601,-0.0508904604349,2.13715584048,-0.349896651332,-0.672210337086,-0.443503461185,-0.00107931293456,-0.371819367864,-0.0615245595773,-0.0716193630531,-0.64627446169,0.573774729279,0.818986958586,0.00486503927027,0.0,0.818972685436,-0.573694735126,-0.011782966501,0.0,-0.00685918054269,0.0107453095706,-0.999918741681,0.0,0.396665254256,-0.0870695028394,0.304890751427,1.0,-0.18998,-0.249688,2.808
-0.0911696876967,-0.40943649535,-0.133297623862,-2.55187459726,-0.0518948385342,2.13621957914,-0.359565432228,-0.70199860602,-0.426668579654,-0.0170217282956,-0.352726311152,-0.0616393136817,-0.0579344387594,-0.653232198089,0.573818554983,0.818955548694,0.00498218047898,0.0,0.818943206836,-0.573738821829,-0.0116848279809,0.0,-0.00671101356013,0.0107853016162,-0.999919316528,0.0,0.393860298903,-0.0908319961993,0.304932192452,1.0,-0.18998,-0.249688,2.823
-0.103872758987,-0.417006255124,-0.133434924594,-2.55818934802,-0.0530614011854,2.13506077622,-0.371324791898,-0.686186428532,-0.427471785278,-0.0089366132622,-0.353566333814,-0.0676585915179,-0.0709406145518,-0.653353836331,0.573890929241,0.818904008757,0.00511592404159,0.0,0.818894064957,-0.573811856352,-0.0115416978194,0.0,-0.00651609019586,0.0108132837103,-0.999920303556,0.0,0.390482156742,-0.0953528416873,0.304992544929,1.0,-0.18998,-0.249688,2.841
-0.11509548299,-0.423577540461,-0.133575312304,-2.56381228048,-0.054170516197,2.13383745546,-0.38195053473,-0.709824204576,-0.407054907489,-0.00911855420403,-0.351460896887,-0.0741487572744,-0.0801176958862,-0.66191120406,0.573735173626,0.819013676668,0.0050294012785,0.0,0.819001632183,-0.573654794345,-0.0117153876908,0.0,-0.00671005177939,0.0108408265663,-0.999918722539,0.0,0.387394783049,-0.0992891264448,0.304947185995,1.0,-0.18998,-0.249688,2.857
-0.127365977385,-0.430373433195,-0.13375536657,-2.56955419625,-0.055286673135,2.13264972366,-0.393287651204,-0.717654738632,-0.401302555909,-0.00451300669663,-0.331038522546,-0.0616002944597,-0.0678413758399,-0.6750970543,0.57387202687,0.818917729331,0.0050394707396,0.0,0.818905425936,-0.573790961582,-0.0117721145511,0.0,-0.00674892049369,0.0108827466971,-0.999918005587,0.0,0.384132846301,-0.10357316286,0.304925141466,1.0,-0.18998,-0.249688,2.874
-0.13880060519,-0.436506615963,-0.133841557054,-2.57470662035,-0.0562647187626,2.13153693101,-0.404152523501,-0.72847391325,-0.379329878817,-0.00500761407513,-0.314619917176,-0.0667906768996,-0.0716915858151,-0.680009022783,0.573726464354,0.819019676947,0.00504576797361,0.0,0.819007069998,-0.573644782665,-0.0118249531438,0.0,-0.00679052156973,0.0109170183887,-0.999917350348,0.0,0.381122258918,-0.107492060704,0.304904489855,1.0,-0.18998,-0.249688,2.89
-0.152816239278,-0.443704177442,-0.134057251165,-2.58043008322,-0.0574821278826,2.13022910334,-0.417208641626,-0.739208057625,-0.368903813576,-0.00245704996175,-0.297332352349,-0.0653079236214,-0.066510109227,-0.684486288673,0.573858018451,0.818926843582,0.00515232185206,0.0,0.818917022159,-0.573778261507,-0.0115829332165,0.0,-0.00652941037483,0.0108664923854,-0.999919639843,0.0,0.377567461925,-0.112330003236,0.30500886058,1.0,-0.18998,-0.249688,2.909
-0.163744649665,-0.449262409872,-0.134172720198,-2.58497855289,-0.0583066972012,2.12914667835,-0.427613268398,-0.731548395766,-0.362120499665,-0.00946211652381,-0.302985008353,-0.0606613861952,-0.0751994549739,-0.691805256346,0.573786590862,0.818976347659,0.00523803617238,0.0,0.818967295053,-0.573706009689,-0.0116073675114,0.0,-0.00650119178745,0.0109501429729,-0.999918911149,0.0,0.374723064787,-0.115999681211,0.305015261124,1.0,-0.18998,-0.249688,2.924
-0.17649402363,-0.455292535132,-0.134399282548,-2.59005812657,-0.0593113181055,2.12784074613,-0.439613995441,-0.753050525746,-0.342669132246,-0.00849744072285,-0.292667496022,-0.0663756360014,-0.0718828824189,-0.709987152878,0.573873867699,0.818915416047,0.00520309857048,0.0,0.818904204968,-0.573790551839,-0.0118765570352,0.0,-0.00674053662185,0.0110766982797,-0.999915932427,0.0,0.371404197178,-0.120277671353,0.30493184807,1.0,-0.18998,-0.249688,2.941
-0.189137674325,-0.461118441467,-0.134488292717,-2.59472206856,-0.0602245144849,2.12669316702,-0.451705133334,-0.746573485978,-0.33964822577,-0.00987458472827,-0.275900993661,-0.0600396017304,-0.0685928966996,-0.720858278596,0.573756154943,0.818997372851,0.00528439486679,0.0,0.818987641976,-0.573673277776,-0.0117881108768,0.0,-0.00662304322879,0.011091568809,-0.999916552718,0.0,0.368232200213,-0.124457534878,0.304963905031,1.0,-0.18998,-0.249688,2.958
-0.202142084549,-0.466676016057,-0.134690985834,-2.59927496469,-0.0612232278877,2.12552679361,-0.463953224363,-0.765963528601,-0.324853360623,-0.00854214040099,-0.262872451283,-0.0521370877966,-0.0696728407406,-0.728169918567,0.573855154805,0.818928154748,0.00526170742213,0.0,0.818917754994,-0.573771715048,-0.0118522769266,0.0,-0.00668727313216,0.0111106097538,-0.999915913829,0.0,0.364978229827,-0.128766743399,0.30492857121,1.0,-0.18998,-0.249688,2.975
-0.214257245975,-0.471840002125,-0.134785769993,-2.60329190768,-0.0620298577167,2.12441387329,-0.475536099087,-0.754506649501,-0.3269470324,-0.00889278403504,-0.242836577359,-0.048628672089,-0.0706976752111,-0.734460812494,0.573799625131,0.818966477158,0.0053522324376,0.0,0.818957752805,-0.573716719601,-0.0117503902706,0.0,-0.00655263664705,0.0111258359888,-0.999916635888,0.0,0.361985799799,-0.132708292396,0.304983890558,1.0,-0.18998,-0.249688,2.991
-0.227421344177,-0.477156911859,-0.135002592858,-2.60737941099,-0.0629038732179,2.12327767075,-0.488032903507,-0.780810309363,-0.312378552072,-0.0124162809362,-0.243201837729,-0.0514741882121,-0.0706321072854,-0.731128403312,0.573908316062,0.818889468898,0.00547990728564,0.0,0.818883182476,-0.573826320965,-0.0115945559072,0.0,-0.00635026695433,0.0111418304887,-0.99991776348,0.0,0.35876973871,-0.137007622899,0.30505217515,1.0,-0.18998,-0.249688,3.008
-0.242069222981,-0.482723337742,-0.135086606664,-2.6118553121,-0.0638830847486,2.12198463999,-0.502142726648,-0.772314397072,-0.287899145949,-0.0102436009603,-0.235243793716,-0.0541259720159,-0.0624609161496,-0.741078018374,0.573747603344,0.819002410811,0.00543006852394,0.0,0.818995046867,-0.573665047208,-0.0116736335404,0.0,-0.00644581759832,0.0111451330697,-0.999917115287,0.0,0.355160889412,-0.14167808033,0.305019649821,1.0,-0.18998,-0.249688,3.027
-0.25390021365,-0.486907487692,-0.135268348892,-2.61519685586,-0.0646146447856,2.120950824,-0.513394843425,-0.788829537598,-0.274919717678,-0.0150454775678,-0.220979132828,-0.0443268770975,-0.0690081316721,-0.747208690076,0.573857108033,0.818925584433,0.00544551403975,0.0,0.818917654887,-0.573773158546,-0.0117891452936,0.0,-0.00653006863308,0.0112249285261,-0.999915676036,0.0,0.352271286495,-0.145461655724,0.304991129505,1.0,-0.18998,-0.249688,3.042
-0.268000040455,-0.491608334588,-0.135373078703,-2.61896124496,-0.0653647679496,2.11983344831,-0.527030653081,-0.787512177836,-0.261201335158,-0.00854203610909,-0.19833168402,-0.0385049170823,-0.0577300735965,-0.756275963378,0.573784788647,0.818975880436,0.00550186180409,0.0,0.818967972093,-0.573699426843,-0.0118817182248,0.0,-0.00657455226117,0.0113236157995,-0.999914271819,0.0,0.348879902387,-0.149899292336,0.304954356192,1.0,-0.189950857143,-0.249649697959,3.06
-0.281565265658,-0.495881802771,-0.135520014003,-2.6222978812,-0.066119994915,2.11879438634,-0.539991621315,-0.795337302646,-0.248735640587,-0.00595053334054,-0.187003099556,-0.0472955631511,-0.0622141745203,-0.761650204168,0.573876702647,0.818911238481,0.00553719693492,0.0,0.818903657315,-0.573790964172,-0.0118943840397,0.0,-0.00656337756219,0.01136055944,-0.999913926178,0.0,0.345646808243,-0.154170160433,0.304950527175,1.0,-0.187143428571,-0.245959934694,3.077
-0.293309413508,-0.499457611969,-0.135519526725,-2.62504494826,-0.0666529390381,2.11787565938,-0.551317877403,-0.787108305093,-0.234930323077,-0.00290206086,-0.173699993084,-0.035904056486,-0.0616107248358,-0.758762150113,0.573836960584,0.818938689053,0.00559581454002,0.0,0.818931680324,-0.573750680238,-0.0119082655595,0.0,-0.00654166293465,0.011416212516,-0.999913434622,0.0,0.342866382046,-0.1577880668,0.304962352623,1.0,-0.184666285714,-0.242704261225,3.092
-0.308327561374,-0.503636920871,-0.135580660712,-2.62820661128,-0.0673752891671,2.11683569616,-0.565649660143,-0.786699014124,-0.211248463022,0.00108142071686,-0.168461705639,-0.0403611643192,-0.049732897761,-0.750989443514,0.573955639133,0.818855216773,0.00563960743392,0.0,0.818849248975,-0.57387000234,-0.0118268663433,0.0,-0.0064482138201,0.0114063045495,-0.999914154693,0.0,0.339368835356,-0.162440563809,0.30499479621,1.0,-0.181528571429,-0.238580408163,3.111
-0.321458429234,-0.507036924072,-0.135505301155,-2.63077011329,-0.0678608945643,2.11603059425,-0.578432033585,-0.761135081504,-0.194152830137,-0.000220921228153,-0.143388006346,-0.0305952671538,-0.0516764170981,-0.757189756353,0.573834604629,0.818939460651,0.00572304286101,0.0,0.818935195766,-0.57374980295,-0.0117070769572,0.0,-0.0063039139452,0.0114049466834,-0.999915090325,0.0,0.336360084022,-0.166438819159,0.305027968477,1.0,-0.178721142857,-0.234890644898,3.128
-0.33467767821,-0.510219892524,-0.135512658199,-2.63319630196,-0.0684161912495,2.11520787894,-0.591066515988,-0.773036163599,-0.181857987242,0.000568419881021,-0.139684579412,-0.0375217344226,-0.0493822053216,-0.743020640167,0.573943684968,0.818862892247,0.00574082639305,0.0,0.818859027255,-0.573859108036,-0.0116775215354,0.0,-0.00626798422357,0.0114033868077,-0.999915333987,0.0,0.333306307258,-0.170468411731,0.305035926691,1.0,-0.175913714286,-0.231200881633,3.145
-0.347488249988,-0.513087788623,-0.135395480971,-2.63543571926,-0.0688080463806,2.11438969294,-0.603617880028,-0.75031869851,-0.163227089091,0.00807759254107,-0.125049264074,-0.0258170185219,-0.0501880247134,-0.733951864008,0.573778037554,0.818978693772,0.00578010979481,0.0,0.818974649242,-0.573692101681,-0.0117746876397,0.0,-0.00632733678743,0.0114900417774,-0.999913968174,0.0,0.330351680174,-0.174288695609,0.30501285937,1.0,-0.173106285714,-0.227511118367,3.162
-0.359734648396,-0.515510471921,-0.135397209962,-2.63736468467,-0.069218932947,2.11369607231,-0.615301035975,-0.759398686237,-0.143410724875,-0.000167128525356,-0.114000996135,-0.030541588252,-0.0377981088253,-0.741143857784,0.573955531791,0.818854146728,0.00580351739475,0.0,0.818849653084,-0.573868109267,-0.011890572443,0.0,-0.00640631433889,0.01157709093,-0.99991246122,0.0,0.327538297433,-0.177976006557,0.304971710736,1.0,-0.170464,-0.2240384,3.178
-0.371587701383,-0.517697674539,-0.135261118793,-2.63907740371,-0.0695442427071,2.1131025729,-0.626825458475,-0.734311300238,-0.133417324707,0.0114254023863,-0.10327654753,-0.014278996903,-0.0312321203257,-0.705961597415,0.573891453669,0.818898942113,0.00581970050422,0.0,0.818894443007,-0.573803591179,-0.0119195999887,0.0,-0.00642170641,0.0116065004286,-0.999912021547,0.0,0.324857404746,-0.181493148323,0.304952446829,1.0,-0.167821714286,-0.220565681633,3.194
-0.383479647651,-0.519726668021,-0.135211330231,-2.64061029335,-0.0698742707119,2.11252148281,-0.638301731718,-0.744276904814,-0.124410195921,0.000151892480218,-0.0950932370792,-0.0162409838196,-0.0349580586968,-0.706930156936,0.57396770447,0.818845216254,0.00585943209764,0.0,0.818841168804,-0.573879553504,-0.0119224679568,0.0,-0.00640017079947,0.0116412799228,-0.999911755314,0.0,0.322168220579,-0.185042221829,0.30495414179,1.0,-0.165179428571,-0.217092963265,3.21
-0.395039117741,-0.521530846384,-0.135067440778,-2.6419557731,-0.0701523032024,2.11198162614,-0.649653686971,-0.71781830555,-0.102275850126,0.00408545200336,-0.0811067057023,-0.0130236915218,-0.0295208552177,-0.719600228209,0.573839541107,0.81893494868,0.00587177946491,0.0,0.818931076657,-0.573751394552,-0.0119153613612,0.0,-0.00638908719809,0.0116463124023,-0.999911767594,0.0,0.319576714647,-0.188454008049,0.304963161223,1.0,-0.162537142857,-0.213620244898,3.226
-0.40731594641,-0.523298242429,-0.134967788693,-2.64324838884,-0.0704241255797,2.11143503695,-0.661515719567,-0.731703275357,-0.102624145084,0.00850439262439,-0.067314680198,-0.0169645926924,-0.0248225717682,-0.694504273796,0.573918031453,0.818879645548,0.00591322101529,0.0,0.818876352447,-0.573829780203,-0.0119016661058,0.0,-0.00635297212102,0.0116730023801,-0.999911686481,0.0,0.31681776251,-0.192078479782,0.304980055661,1.0,-0.159729714286,-0.209930481633,3.243
-0.419373276205,-0.52481883118,-0.13483266872,-2.64433755662,-0.0706477064004,2.11098405358,-0.673287607077,-0.695951268707,-0.0769073985963,0.0108953682682,-0.057356250014,-0.00522107557545,-0.0208053020423,-0.689735468936,0.573897713527,0.818893577414,0.00595568469074,0.0,0.81889119663,-0.573809968538,-0.0118353280515,0.0,-0.00627456368772,0.0116695501457,-0.999912221872,0.0,0.314138122639,-0.19562792531,0.30500719889,1.0,-0.156922285714,-0.206240718367,3.26
-0.43125045058,-0.526082565468,-0.134730312409,-2.6453060622,-0.0708673950208,2.11059069239,-0.68488598561,-0.706634900792,-0.0701063397476,0.00616932587512,-0.0558867894524,-0.00844840569649,-0.0190659453114,-0.677672560633,0.57390434243,0.818888742196,0.00598168419951,0.0,0.818886579488,-0.573816273333,-0.0118491051648,0.0,-0.00627083182188,0.0116987990598,-0.999911903504,0.0,0.311487118409,-0.199120438366,0.304998575241,1.0,-0.154114857143,-0.202550955102,3.277
-0.443007765347,-0.527181184053,-0.134627415282,-2.64615126431,-0.0710515781358,2.11021355155,-0.696320464555,-0.681773193156,-0.0634630890207,0.014606980334,-0.0442195621894,-0.00461616703813,-0.0185440576713,-0.674565529141,0.573968934364,0.818843215236,0.00601648962648,0.0,0.818841202511,-0.573880151409,-0.0118913325556,0.0,-0.00628451400187,0.0117520313388,-0.999911193378,0.0,0.308856859762,-0.202561807957,0.304986571203,1.0,-0.151307428571,-0.198861191837,3.294
-0.453740166139,-0.528015327501,-0.134483943331,-2.64680975642,-0.0711898545874,2.10996708475,-0.706912811635,-0.672195180963,-0.0492797470127,0.00737610131677,-0.0374515682681,-0.0128464779408,-0.013275933017,-0.646504253189,0.573885696525,0.818901396966,0.00603790299833,0.0,0.818899671838,-0.573796863346,-0.0118841903034,0.0,-0.00626757090978,0.0117648301233,-0.999911149216,0.0,0.306477632945,-0.205689695245,0.304974679104,1.0,-0.148665142857,-0.195388473469,3.31
-0.465874854024,-0.528767790584,-0.134373829154,-2.64739905546,-0.0713229671042,2.10966708973,-0.71866527247,-0.661271460144,-0.0363324965986,0.00682182275799,-0.0272356482127,-0.0160761429463,-0.0180391875512,-0.653387557938,0.574030478497,0.818799595792,0.00608100227503,0.0,0.818798052006,-0.573940729758,-0.0119388297915,0.0,-0.0062854951394,0.0118325928091,-0.99991023712,0.0,0.303775210979,-0.209231775513,0.304958771931,1.0,-0.145692571429,-0.191481665306,3.328
-0.476839493278,-0.529271920793,-0.134187582926,-2.64781029455,-0.0713764606521,2.10945760081,-0.72958630547,-0.646832808175,-0.0293079572408,0.00570051169353,-0.0212031647252,-0.00551139286925,-0.0128773596523,-0.647043244936,0.573888548903,0.81889878309,0.00612073463205,0.0,0.818897459936,-0.573798107507,-0.0119761777341,0.0,-0.00629533262876,0.0118854741366,-0.999909548055,0.0,0.301357335903,-0.212403831581,0.304942723587,1.0,-0.142885142857,-0.187791902041,3.345
-0.488521985674,-0.529675123653,-0.134064703214,-2.64811591857,-0.0714709957498,2.10926670402,-0.740914367528,-0.646238876781,-0.0181882529457,0.00681386441125,-0.00994781017419,-0.00387426904519,-0.0143710730134,-0.617879502126,0.574034298573,0.818796381635,0.00615275422885,0.0,0.818795368729,-0.573943490853,-0.0119900107222,0.0,-0.00628616518282,0.0119207535738,-0.999909185757,0.0,0.298765915011,-0.215806871861,0.304937713039,1.0,-0.139912571429,-0.183885093878,3.363
-0.497891848035,-0.529861891238,-0.133851522635,-2.64824822715,-0.0715024412697,2.10915339623,-0.750236030623,-0.613767091746,-0.0101602651077,0.0143669267417,-0.00782731055523,-0.00216646538451,-0.00495294094771,-0.614599912169,0.573902397049,0.818888874527,0.00614790530194,0.0,0.818887861153,-0.573811756341,-0.0119785659501,0.0,-0.00628149498846,0.0119092020243,-0.999909352755,0.0,0.296717070286,-0.218508394915,0.304941441998,1.0,-0.137435428571,-0.180629420408,3.378
-0.508390426903,-0.530013996169,-0.133717959726,-2.64836465616,-0.0715203668214,2.10904357505,-0.760608894362,-0.618588226324,-0.00739190119758,0.00840115564458,-0.00740405910998,-6.09916871336e-05,-0.0113560632873,-0.602320388022,0.573896871007,0.818892325959,0.00620377595804,0.0,0.818891960849,-0.573805846174,-0.0119814128785,0.0,-0.00625184451466,0.0119565478208,-0.999908973559,0.0,0.294384184984,-0.22154414909,0.304938013339,1.0,-0.134628,-0.176939657143,3.395
-0.519461656905,-0.530037294512,-0.133569908387,-2.64836917378,-0.0715362901748,2.10893915944,-0.771372711785,-0.598653285523,-0.000806496186059,0.00736178626112,0.00233667784837,0.00134674035829,-0.00258576163274,-0.594274714437,0.574037092748,0.818793723875,0.00624506163641,0.0,0.818793799477,-0.573945676946,-0.0119925290581,0.0,-0.00623520144462,0.0119978052554,-0.999908583287,0.0,0.291921067652,-0.224742847726,0.30493927969,1.0,-0.131655428571,-0.17303284898,3.413
-0.528218957001,-0.529950318708,-0.1334179538,-2.64830713323,-0.0715361962279,2.10895345925,-0.780173524144,-0.593510909842,0.00800445814402,0.00755312608551,0.00782215417679,-6.06306982597e-05,0.000772448227811,-0.575858225142,0.573897962871,0.818891096546,0.00626475151709,0.0,0.818891711266,-0.573807039766,-0.0119412410208,0.0,-0.00618393649068,0.0119834377048,-0.999909073941,0.0,0.289986690407,-0.227269230919,0.304940816747,1.0,-0.129178285714,-0.16977717551,3.428
-0.540589470742,-0.529731694782,-0.133247841624,-2.64812080344,-0.0715473170294,2.1089375906,-0.792209873829,-0.58828782688,0.0124468762491,0.00181588479815,0.0157391065122,-0.000988745080322,-0.000162183277185,-0.577492372271,0.574057434064,0.818779125063,0.00628916984029,0.0,0.818780260333,-0.573966769523,-0.0119071269982,0.0,-0.00613965073673,0.0119850536402,-0.999909327478,0.0,0.287223970475,-0.230838467435,0.304948668445,1.0,-0.125710285714,-0.165219232653,3.449
-0.547914285353,-0.52946748939,-0.133070314859,-2.64790720716,-0.0715420794831,2.10896196047,-0.799513473226,-0.555669472615,0.0297096290283,0.014920325151,0.0202528795993,-0.000746859641416,-0.000711251301626,-0.569249408239,0.573963957224,0.818844856896,0.00626283038789,0.0,0.818845823209,-0.573873759512,-0.0118816184709,0.0,-0.00613524627915,0.0119481432992,-0.999909796244,0.0,0.285611656678,-0.232943237404,0.304955894299,1.0,-0.123563428571,-0.16239764898,3.462
-0.557863608165,-0.529009350384,-0.132886395252,-2.64759064333,-0.0715410884236,2.10898498179,-0.809438342546,-0.559475780104,0.0208984913798,0.0100127479411,0.0118596134147,0.000172392476107,0.00153074951083,-0.543250559185,0.573872934932,0.818908793687,0.00624412332308,0.0,0.818909208939,-0.573782236762,-0.0119331132873,0.0,-0.00618948352681,0.0119616911357,-0.999909300006,0.0,0.283387781301,-0.235801584546,0.304939115191,1.0,-0.120590857143,-0.158490840816,3.48
-0.567255575477,-0.52849362888,-0.132746477168,-2.6471792334,-0.071537881811,2.10906382264,-0.818568607737,-0.552609219517,0.0314581969763,0.00588448880942,0.0239299969258,-0.000263862584296,0.00167731414092,-0.522785060046,0.574009354558,0.818813299836,0.00622798472098,0.0,0.818813813425,-0.573919289992,-0.0118884153792,0.0,-0.00616015065932,0.011923851129,-0.999909933103,0.0,0.281172547532,-0.238678287436,0.304951689569,1.0,-0.117618285714,-0.154584032653,3.498
-0.575627339384,-0.527824507836,-0.132531541131,-2.64669959757,-0.0714873803618,2.10918413738,-0.827052395507,-0.51580252231,0.0444332751094,0.0102729717441,0.0283907709285,0.0013467784359,0.00382985507156,-0.52377003994,0.573818536851,0.818947251053,0.00619948874216,0.0,0.818947258235,-0.573728367169,-0.0119120039143,0.0,-0.0061985996491,0.0119126123196,-0.99990982945,0.0,0.279453489013,-0.240933666397,0.304937218047,1.0,-0.115141142857,-0.151328359184,3.513
-0.584992893127,-0.527033787033,-0.132354979245,-2.64611366866,-0.0714728597681,2.10929084816,-0.836291898326,-0.517890762189,0.0449857078494,0.0145221236643,0.0355223179083,0.00611906832276,0.0121501256207,-0.511749299482,0.573836474263,0.818935017722,0.00615503493733,0.0,0.818934243343,-0.573746095404,-0.0119528235104,0.0,-0.00625727894297,0.0118997640872,-0.999909616953,0.0,0.277363117635,-0.243642938139,0.304927967451,1.0,-0.112168571429,-0.14742155102,3.531
-0.592675880113,-0.526297469979,-0.132224980763,-2.64554895421,-0.0714147156783,2.10940994407,-0.843828234395,-0.509232672952,0.0578556374026,0.00694715350985,0.0432849915051,0.00919683613659,0.00746579307854,-0.503068500359,0.573921243933,0.818875616576,0.00615444883518,0.0,0.81887480861,-0.573830800265,-0.0119585698263,0.0,-0.006261089485,0.0119032295565,-0.999909551852,0.0,0.275653036184,-0.245873830616,0.304928713113,1.0,-0.109691428571,-0.144165877551,3.546
-0.601405577435,-0.525267423047,-0.131973020774,-2.64481780052,-0.0713035233807,2.10958083887,-0.852634458448,-0.472982910624,0.0598569253908,0.01933029022,0.0390071584593,0.00434139110304,0.00507714715357,-0.48744005297,0.57376922095,0.818982327558,0.00612985645888,0.0,0.818980756328,-0.573678074822,-0.0120305500313,0.0,-0.0063363656088,0.0119232233569,-0.999908839453,0.0,0.2737364922,-0.248389720826,0.304904878204,1.0,-0.106718857143,-0.140259069388,3.564
-0.609092729533,-0.52437025042,-0.131812640652,-2.64415165797,-0.0712088960781,2.10972615889,-0.86026045839,-0.48188616504,0.0555348866302,0.0129529285858,0.037155394882,0.00597466557087,0.0107205283721,-0.466000791749,0.573783550966,0.818972254704,0.00613429434366,0.0,0.818970492141,-0.57369191445,-0.0120692667013,0.0,-0.00636532204936,0.0119491828218,-0.999908345652,0.0,0.272021537666,-0.250611982265,0.304895383429,1.0,-0.104076571429,-0.13678635102,3.58
