nelsonifechukwu/NELSON_IML_WORK/CNN-GradCAM/train2dof/data_sample_2022-02-22-07-49-32/robot_state.csv
position_joint1,position_joint2,position_joint3,position_joint4,position_joint5,position_joint6,position_joint7,velocity_joint1,velocity_joint2,velocity_joint3,velocity_joint4,velocity_joint5,velocity_joint6,velocity_joint7,ee_T_00,ee_T_10,ee_T_20,ee_T_30,ee_T_01,ee_T_11,ee_T_21,ee_T_31,ee_T_02,ee_T_12,ee_T_22,ee_T_32,ee_T_03,ee_T_13,ee_T_23,ee_T_33,v_x,v_y,time
0.465081758037,0.547700413493,-0.124027634862,-1.3558209713,0.0795185254547,1.89414386423,0.159132706145,0.000749282959156,-0.000401816171266,-0.00010481252761,-0.00306884188785,0.000120633087704,0.000139617685481,0.000850912481781,0.573809187508,0.818974672883,0.00206116701429,0.0,0.818933072891,-0.573750261265,-0.0118324437022,0.0,-0.00850804040356,0.00847768596545,-0.999927868443,0.0,0.661696467448,0.260881641759,0.303282417687,1.0,0.0,0.0,0.0
0.465081367795,0.54769480953,-0.124025661729,-1.35582697627,0.0795185239944,1.89414264926,0.159135947575,0.000828623214125,-0.000180343531598,-0.00059519855164,-0.000836877556974,-4.99121649186e-05,-4.27449287699e-05,0.000858813549172,0.573811092273,0.818973339695,0.00206061986355,0.0,0.818931715217,-0.573752150678,-0.0118347921811,0.0,-0.00851025804758,0.00847860522697,-0.999927841777,0.0,0.661694645238,0.260881803154,0.303283358506,1.0,-0.0002,-0.000262857142857,0.011
0.465078620325,0.547695476686,-0.124025114811,-1.35582132463,0.0795192360712,1.8941434186,0.159130601379,-0.00102886257807,-0.00111921539486,0.000318464079518,0.000957574350182,5.98620432617e-05,-0.000281085518863,-0.000125951376407,0.573808468211,0.818975164927,0.00206590028414,0.0,0.8189336066,-0.573749503316,-0.0118322578888,0.0,-0.00850517984509,0.00848144823939,-0.999927860874,0.0,0.661696628527,0.260881132605,0.303285625984,1.0,-0.0005,-0.000657142857143,0.026
0.465077896287,0.547667632772,-0.124020103647,-1.35584508279,0.0795185254547,1.89414661259,0.159130364934,-0.000195875381513,0.000963253076178,0.00152544042874,-0.000909845534567,0.000167957986932,0.000621980506266,-0.000148244497338,0.573806447727,0.818976559366,0.00207428468982,0.0,0.818935071524,-0.573747411131,-0.0118323180483,0.0,-0.00850043931358,0.0084883282951,-0.999927842804,0.0,0.661691633954,0.260881202193,0.303294152976,1.0,-0.00086,-0.00113028571429,0.044
0.465072255545,0.547605076975,-0.124027503203,-1.35591245113,0.0795181685453,1.89415893594,0.15912856399,-0.000324405685051,-0.00702018591317,-0.000488387505497,-0.00637851637074,-2.70080717902e-05,0.0025729433904,-0.000666703935544,0.573818321275,0.81896822095,0.00208186087349,0.0,0.818926820307,-0.573759241701,-0.0118297272325,0.0,-0.00849384728268,0.00849316944696,-0.999927857713,0.0,0.661683492751,0.260866792183,0.303307717134,1.0,-0.00116,-0.00152457142857,0.059
0.465076885599,0.547470978358,-0.124022925151,-1.35606769246,0.0795157692376,1.89419006222,0.159132156887,0.00072178175689,-0.0103880286579,0.000325809287026,-0.011471794624,0.000112164187712,0.000312576345721,-0.000239943814245,0.573822091599,0.81896554043,0.0020970652096,0.0,0.818924219056,-0.573762832407,-0.0118356449984,0.0,-0.00848993078552,0.00850905588318,-0.999927755912,0.0,0.661655529282,0.260857564358,0.303331367372,1.0,-0.00148,-0.00194514285714,0.075
0.465059473293,0.547302090222,-0.124027486713,-1.35630343117,0.0795123009687,1.8942851797,0.159119633416,0.000314186622827,-0.0130357938706,0.000155896076555,-0.0145500686991,-0.00444545970513,0.0111681934079,-0.00091409125999,0.573841594259,0.818951801119,0.00212580439769,0.0,0.818910791641,-0.573782156393,-0.0118279009154,0.0,-0.00846689514069,0.00852834987736,-0.99992778686,0.0,0.661630696017,0.260823539328,0.303347201853,1.0,-0.00186,-0.00244457142857,0.094
0.465042194019,0.547125432274,-0.124025089407,-1.35651339881,0.0795101476285,1.89440257833,0.15910787611,-0.000931972353993,-0.00782966488474,0.000218594539744,-0.0144281856928,0.00012272534804,0.00518010706291,-0.00655620025738,0.573855823573,0.818941626165,0.00220308582684,0.0,0.818901572081,-0.573796031239,-0.011793077633,0.0,-0.00839388187857,0.00857180175832,-0.999928030891,0.0,0.661614711175,0.260798526642,0.30338250885,1.0,-0.0022,-0.00289142857143,0.111
0.465022652043,0.546906672308,-0.124027507541,-1.3567630562,0.0795031255376,1.89453291834,0.15910126979,-0.000547512968004,-0.0105128148415,-0.000529171160312,-0.0149596431011,-5.95973287356e-05,0.00383780729047,0.000516856169364,0.573880368062,0.818924184533,0.00229129669285,0.0,0.81888527404,-0.5738202329,-0.0117471348229,0.0,-0.00830538030779,0.00861792509782,-0.999928373447,0.0,0.661595275743,0.260765161498,0.303430012424,1.0,-0.00254,-0.00333828571429,0.128
0.465000249224,0.546704880799,-0.124023292062,-1.35705844268,0.0794991250204,1.89464759519,0.159072288075,-0.000398246537488,-0.0146390798418,0.0042145161593,-0.0159384812895,-5.2662860136e-05,0.00656864664349,-0.00615781757573,0.573887525407,0.818919094214,0.00231780385029,0.0,0.818880393167,-0.57382714931,-0.0117495234835,0.0,-0.00829205000015,0.00864107545235,-0.999928284289,0.0,0.66156081389,0.260727505656,0.303442144976,1.0,-0.00284,-0.00373257142857,0.143
0.464965119646,0.546435121948,-0.124023371309,-1.35745022027,0.0794873128581,1.8947829261,0.158976404802,-0.00160243212699,-0.0198035293262,0.000708096809438,-0.0220450675193,4.24613653636e-05,0.01066741518,0.000460314044001,0.5738565269,0.818940762329,0.0023369277094,0.0,0.818902189091,-0.573795956889,-0.0117537849894,0.0,-0.00828489347813,0.00865886815894,-0.999928189693,0.0,0.661514871895,0.260668529714,0.303458440355,1.0,-0.00318,-0.00417942857143,0.16
0.464926396172,0.546126509695,-0.124024084881,-1.35793513408,0.0794718642707,1.89494803836,0.158924294555,-0.000965985572598,-0.0150403674131,0.000532351145951,-0.0306232111863,0.00029141426917,0.0160411853073,0.000154480510547,0.573869009879,0.818932020409,0.00233502703703,0.0,0.818893283056,-0.573808299829,-0.0117716996812,0.0,-0.00830052372017,0.00866771847744,-0.999927983388,0.0,0.66145577426,0.260597694078,0.303460500445,1.0,-0.00354,-0.00465257142857,0.178
0.464875736863,0.545810999967,-0.124026113883,-1.35846009508,0.0794448894955,1.89512394232,0.158868221093,-0.00264030715166,-0.0194043099875,-0.000569179022899,-0.0321151285167,-0.000115583686861,0.0145341464475,-0.00186909778363,0.573888119046,0.818918704939,0.0023083370847,0.0,0.818879559436,-0.573827444297,-0.0117931425491,0.0,-0.00833319829344,0.00865836115035,-0.999927792687,0.0,0.661393830592,0.260512403559,0.303449320581,1.0,-0.00388,-0.00509942857143,0.195
0.464841911468,0.545597913452,-0.124026476654,-1.35884400597,0.0793857781761,1.89524564632,0.158804878246,-0.00589142877919,-0.0208923591225,0.000327427699185,-0.0355572217516,-0.00506439896737,0.0123283221355,-0.000203739044767,0.573869892963,0.8189316493,0.00224646980681,0.0,0.818891982315,-0.573809750117,-0.0117914745128,0.0,-0.00836752649275,0.00860655403268,-0.999927953269,0.0,0.661347757139,0.260445727849,0.303427922684,1.0,-0.0041,-0.00538857142857,0.206
0.464764163408,0.545123506539,-0.124031499015,-1.35967497626,0.0793324783881,1.89550254246,0.158716773132,-0.00404345741097,-0.0251020763466,-0.000721635352502,-0.0427686639181,-0.000453503002207,0.0152609891546,-0.00792467459478,0.573896956291,0.818912920576,0.00215846598011,0.0,0.818872083369,-0.573837127282,-0.011841002203,0.0,-0.00845830462783,0.00856318752566,-0.999927561827,0.0,0.661244955875,0.260307783784,0.303390619543,1.0,-0.00452,-0.00594057142857,0.227
0.464695061227,0.544676382011,-0.124029469522,-1.36041105666,0.0793101471239,1.89574883623,0.158615216812,-0.00228786624782,-0.0266215824883,-0.000105503004971,-0.0427030704775,-0.00278118418105,0.0143792638475,-0.0153976760718,0.573903985609,0.818908055954,0.00213497021554,0.0,0.818866660336,-0.573843994363,-0.011883165646,0.0,-0.008506244013,0.00856821702097,-0.999927112079,0.0,0.661155421444,0.260194856274,0.303378027437,1.0,-0.00488,-0.00641371428571,0.245
0.46463638872,0.544295881652,-0.124031235659,-1.36107029689,0.0792820991733,1.89598289052,0.158571034714,-0.00346812469602,-0.0291258989729,-0.000240518006995,-0.0500624344495,-0.00814016076058,0.0159980819735,-0.00533961528692,0.573946416551,0.818878404837,0.00210140909245,0.0,0.818836455134,-0.573886438485,-0.0119147961863,0.0,-0.00855096374772,0.00855932974076,-0.999926806768,0.0,0.661077748319,0.260093120409,0.303353872627,1.0,-0.00518,-0.006808,0.26
0.464564172201,0.543799877306,-0.124031960446,-1.36187275144,0.0792467067262,1.89626860227,0.15843055154,-0.00796349447625,-0.0239360944896,-0.00406184298183,-0.0536074620576,-0.000754531315161,0.0193250150305,-0.0111251370904,0.573926298243,0.818892532363,0.00209081947264,0.0,0.818850302524,-0.573866223934,-0.0119367493505,0.0,-0.00857522932786,0.00856304739067,-0.999926567134,0.0,0.660984080525,0.259969875311,0.303347684123,1.0,-0.00552,-0.00725485714286,0.277
0.464467611025,0.543205657441,-0.124037154192,-1.36282329415,0.0791940366018,1.89658838359,0.158337683785,-0.00590664408819,-0.0351686484997,-0.00151638140236,-0.053729425653,-0.00748009507354,0.0166431631357,-0.00635156886164,0.573971681775,0.818860798261,0.00206118695037,0.0,0.818818114199,-0.573911656637,-0.0119604822744,0.0,-0.00861119663773,0.00855288000706,-0.999926345056,0.0,0.66087388924,0.259811183893,0.303343510857,1.0,-0.0059,-0.00775428571429,0.296
0.464396647388,0.542645053341,-0.124037900043,-1.36372095011,0.0791420223615,1.89690078736,0.158209208515,-0.00160581941384,-0.0379189306507,-0.000687033313147,-0.0548265525875,-3.38258728892e-05,0.0171430929511,-0.00346510208034,0.573961086959,0.818868274011,0.00204141512664,0.0,0.818825276481,-0.573901090469,-0.0119771388799,0.0,-0.00863629495036,0.00854613849531,-0.999926186239,0.0,0.660765664263,0.25967743888,0.303339869816,1.0,-0.00624,-0.00820114285714,0.313
0.464319062655,0.5421320561,-0.124040964499,-1.36452400504,0.0790949491623,1.89719991173,0.158093265189,-0.00760682510156,-0.0379737546527,0.000385074961922,-0.0543883136799,-5.54538233639e-05,0.0222208176911,-0.00422582231497,0.573963933513,0.818866260199,0.00204886177684,0.0,0.818823357275,-0.57390390303,-0.0119735779819,0.0,-0.00862907538919,0.0085502224137,-0.999926213655,0.0,0.660677191281,0.259548487954,0.303346449136,1.0,-0.00654,-0.00859542857143,0.328
0.464232979882,0.541503717544,-0.124039273883,-1.36547588308,0.0790378018971,1.89754937956,0.157986055038,-0.00169917573273,-0.0386350097372,0.000674924583994,-0.0566006854056,-0.00244597475291,0.022815674735,-0.00573876838439,0.573983012616,0.818852829609,0.0020716108124,0.0,0.818810203774,-0.573922865515,-0.0119641771829,0.0,-0.00860812125949,0.00856365541125,-0.99992627931,0.0,0.660569023715,0.259402324098,0.303367880259,1.0,-0.00688,-0.00904228571429,0.345
0.464138289294,0.540832793765,-0.1240424697,-1.36650757146,0.0789754781398,1.8979241132,0.157846744619,-0.00512513567898,-0.0389580979283,-0.0029327216112,-0.061484095447,-0.00262642600463,0.0254833951243,-0.0137684771764,0.573991259016,0.818847031033,0.0020787601606,0.0,0.818804470765,-0.573931053658,-0.0119637453556,0.0,-0.00860357800075,0.00856934835888,-0.999926269639,0.0,0.660446843208,0.259225758133,0.303379974113,1.0,-0.00724,-0.00951542857143,0.363
0.46403820432,0.54006999208,-0.124051383702,-1.36765951035,0.0789069430882,1.89834174421,0.15770813315,-0.0110476523378,-0.0413604170546,2.54593257483e-05,-0.0605314790689,-0.000767149902208,0.0215391881404,-0.00239046104283,0.574009367061,0.818834267536,0.00210611894885,0.0,0.818792106714,-0.573949089074,-0.0119447074169,0.0,-0.00857209573589,0.00858101272632,-0.999926439992,0.0,0.660321161205,0.259058873444,0.303410987786,1.0,-0.00758,-0.00996228571429,0.38
0.463951855514,0.539471223632,-0.124048827687,-1.36860996327,0.0788521151944,1.89870267349,0.157591194093,-0.00488121367896,-0.0455340381012,0.000417015920384,-0.0749525871114,-0.00203809176852,0.0271287022206,-0.0102206638905,0.574020556556,0.81882640076,0.00211493987996,0.0,0.818784322076,-0.573960208003,-0.0119440550841,0.0,-0.00856638123093,0.00858797810792,-0.999926429166,0.0,0.660214041743,0.258913995501,0.303412892452,1.0,-0.00786,-0.0103302857143,0.394
0.463826260852,0.53857963928,-0.124054564731,-1.3699618425,0.0787718048519,1.8992266735,0.157419147234,-0.00555209892266,-0.0499420739463,0.000249212903324,-0.0706448681472,-0.00264344487219,0.0262303220172,-0.0140471007074,0.574039905818,0.818812698003,0.00216772208785,0.0,0.81877134917,-0.573979382098,-0.0119119102497,0.0,-0.0085095594208,0.00861294640227,-0.99992669959,0.0,0.660067576994,0.25870154688,0.303444880606,1.0,-0.00826,-0.010856,0.414
0.463731531178,0.537844754315,-0.124060952626,-1.37112136159,0.0787076538089,1.89967803595,0.157273318419,-0.00868656912091,-0.0471224909327,-0.000503549034242,-0.0732641176037,-0.00627836289223,0.0261379081804,-0.00524288078649,0.574049557917,0.818805870422,0.00219055222779,0.0,0.818764816874,-0.573988938876,-0.011900403261,0.0,-0.00848693070139,0.00862513438519,-0.999926786852,0.0,0.659938002728,0.258527564685,0.303451338787,1.0,-0.00858,-0.0112765714286,0.43
0.463633273015,0.537068550522,-0.124066659139,-1.37231007754,0.0786373251688,1.90011275377,0.157127111177,-0.00698182241587,-0.0490230223922,-0.00107762080559,-0.0750424354822,-0.00917953855267,0.0302814542264,-0.0177212722744,0.574060934058,0.818797845068,0.00220902729229,0.0,0.818757030288,-0.574000237712,-0.0118911463543,0.0,-0.00846862586672,0.00863506546062,-0.999926856335,0.0,0.65980028726,0.258346615929,0.303471464088,1.0,-0.0089,-0.0116971428571,0.446
0.463516564163,0.536182436556,-0.124072775978,-1.37372061992,0.0785632934163,1.90064334821,0.156958811847,-0.00519496957074,-0.0504436548051,-0.000866091881432,-0.0762983329218,-0.00917660498825,0.0229640645196,-0.00695106230112,0.574080903515,0.818783821234,0.00221747755277,0.0,0.818743042485,-0.574020095374,-0.0118956879272,0.0,-0.00846728316232,0.00864479803051,-0.999926783611,0.0,0.659637933854,0.258134275853,0.303471800696,1.0,-0.00926,-0.0121702857143,0.464
0.463419622161,0.535399522625,-0.124072704376,-1.37494946116,0.0784830115886,1.90108194788,0.156809831119,-0.00826097872301,-0.0537998565197,-0.00053670192098,-0.0852263060389,-0.00659903855045,0.0306623761543,-0.00859025820378,0.574084135951,0.818781580496,0.00220798324748,0.0,0.818740694294,-0.574023381918,-0.0118987149968,0.0,-0.00847517783348,0.00863879557851,-0.999926768604,0.0,0.65949019667,0.257951559856,0.303477410423,1.0,-0.00956,-0.0125645714286,0.479
0.463306742659,0.534515145117,-0.12407384751,-1.37638953078,0.0784063270249,1.90160169991,0.156631911261,-0.00785827011264,-0.0472443675106,0.000298374178013,-0.0833993869701,-0.00593303478462,0.0256784125221,-0.0068848325242,0.574090135622,0.818777444102,0.00218176806685,0.0,0.818736087792,-0.574029355748,-0.0119274552055,0.0,-0.00851369628507,0.00863389285729,-0.999926483733,0.0,0.6593161379,0.257739977507,0.303461038405,1.0,-0.0099,-0.0130114285714,0.496
0.46316783252,0.533539370004,-0.124071328373,-1.37795321891,0.0783252884469,1.90217182601,0.156441998625,-0.0067598335142,-0.0576476947915,0.000803338329795,-0.0879907054244,0.000815021071372,0.0339475653006,-0.00478516963589,0.574110520462,0.818763172222,0.00217370843519,0.0,0.818721543874,-0.574049601657,-0.011951373785,0.0,-0.00853769262829,0.00864123772052,-0.999926215686,0.0,0.659131516989,0.257502618414,0.303454357657,1.0,-0.01026,-0.0134845714286,0.514
0.463045089375,0.532655032598,-0.124076931376,-1.37938480853,0.0782391809677,1.90272002768,0.156256568461,-0.00602096666512,-0.0596580884622,0.000207608465445,-0.0896140695745,-0.00843364578976,0.0357361754332,-0.0156265474856,0.574118481155,0.818757596592,0.0021712945519,0.0,0.818715963952,-0.574057598717,-0.0119495031778,0.0,-0.00853746273837,0.00863827044056,-0.999926243287,0.0,0.658968444239,0.257283391882,0.303444227138,1.0,-0.01058,-0.0139051428571,0.53
0.462908927057,0.531627629531,-0.12407943703,-1.38104269561,0.0781448065113,1.90332609796,0.156051715875,-0.00686936123996,-0.055055024595,-0.0010475608754,-0.0927803370392,-0.00578721069345,0.0323317286327,-0.0144328022819,0.574129157879,0.818750161008,0.00215193497188,0.0,0.81870819794,-0.574068274773,-0.0119686852166,0.0,-0.00856417023822,0.00863354418971,-0.999926055718,0.0,0.658770738306,0.257034755232,0.303431964004,1.0,-0.01094,-0.0143782857143,0.548
0.462762379657,0.530560863105,-0.124081804768,-1.38277318752,0.0780423805356,1.90392886881,0.155822232219,-0.00969318826337,-0.0627099541956,-0.00121826130058,-0.0919112820178,-0.00546420528664,0.0282283571481,-0.0171133729832,0.574129458314,0.818750083184,0.00210078170479,0.0,0.81870735719,-0.574068691895,-0.0120061305125,0.0,-0.00862419339305,0.00861316447525,-0.999925715584,0.0,0.658559047123,0.256769775381,0.303412343435,1.0,-0.0113,-0.0148514285714,0.566
0.462630654367,0.529586875643,-0.124082633292,-1.38433007819,0.077934787836,1.90450148917,0.155627729327,-0.00554040940159,-0.0601443357731,-0.00108750519828,-0.102540802152,-0.0089190572297,0.0404077047399,-0.015544662415,0.574134288654,0.818746740263,0.00208345914284,0.0,0.818703883295,-0.57407368914,-0.012004074992,0.0,-0.00863240439377,0.00859785268269,-0.999925776507,0.0,0.658375101745,0.256531990141,0.303407057715,1.0,-0.01162,-0.015272,0.582
0.462514606734,0.528702813246,-0.124083323601,-1.38570502361,0.0778566129381,1.90501556169,0.155436280454,-0.00743687619425,-0.0625068688383,-0.00026702332542,-0.105129606452,-0.00546305677779,0.0402223328568,-0.0127811342559,0.574126646782,0.818752042545,0.00210551292361,0.0,0.818709419841,-0.574065902424,-0.0119988515667,0.0,-0.00861554692787,0.00861282950306,-0.999925793006,0.0,0.658213598438,0.256325814777,0.303419782732,1.0,-0.0119,-0.01564,0.596
0.462368252938,0.527584248308,-0.124083190507,-1.38743445344,0.077746089765,1.90568217898,0.155190765193,-0.0106020338861,-0.0720974281637,-8.51970118403e-05,-0.104915114463,-0.00643778080637,0.0375986955029,-0.0174211080433,0.57410938802,0.818764032075,0.00214878308115,0.0,0.818722041537,-0.57404853414,-0.0119685443472,0.0,-0.00856607277331,0.00863067590893,-0.999926064182,0.0,0.658014702499,0.256066312565,0.303441845806,1.0,-0.01224,-0.0160868571429,0.613
0.462205564375,0.526365283453,-0.124091817108,-1.38932813001,0.0776246959115,1.90640025351,0.154931984717,-0.00943584371201,-0.0623618673144,-0.00211192195385,-0.108684483346,-0.00840126510877,0.0485365944051,-0.0166419432233,0.574106489402,0.81876598453,0.00217906020224,0.0,0.818724490052,-0.574045614185,-0.0119410688909,0.0,-0.00852622523095,0.00863966143382,-0.999926327153,0.0,0.657796437338,0.255774560596,0.303460835401,1.0,-0.0126,-0.01656,0.631
0.462052876956,0.525181161381,-0.124095414145,-1.39115185419,0.0775082671198,1.90705026839,0.15468651828,-0.00991793459188,-0.0694391804537,0.000597497731576,-0.105969329746,-0.00896539543267,0.0376732776457,-0.0115016842226,0.574099750521,0.818770693822,0.002185015198,0.0,0.818729286734,-0.57403886183,-0.0119367941348,0.0,-0.00851937760285,0.00864201285491,-0.999926365198,0.0,0.657575489351,0.255496412124,0.303482202079,1.0,-0.01294,-0.0170068571429,0.648
0.461905202298,0.524079548791,-0.124106724944,-1.39291686338,0.0774019751075,1.90768396198,0.154447672711,-0.00751280227263,-0.0655952378913,-0.000952233204328,-0.115473658107,-0.00633386391007,0.0409725097128,-0.0105066144041,0.574099291617,0.818771089329,0.00215720761782,0.0,0.818729306813,-0.574038503384,-0.011952644056,0.0,-0.00854832374336,0.00862833970535,-0.999926236237,0.0,0.657362257778,0.255223510582,0.303472074089,1.0,-0.01326,-0.0174274285714,0.664
0.461758624655,0.522941367901,-0.124105618983,-1.39471994192,0.0772954779988,1.90836721219,0.154201159143,-0.0117231103161,-0.0746050703339,0.000660247888076,-0.114987248719,-0.00642946886137,0.04210942649,-0.0197367562737,0.574084858543,0.818781166697,0.00217328225776,0.0,0.818739554636,-0.574023966823,-0.0119488112069,0.0,-0.00853610982455,0.00863915006968,-0.999926247238,0.0,0.657147293662,0.254957856889,0.303473150796,1.0,-0.01358,-0.017848,0.68
0.46159532163,0.521712615853,-0.124110682475,-1.3966779894,0.0771743095096,1.90913959424,0.153944020174,-0.0121978954241,-0.0709531804758,-0.000113515807004,-0.118525095417,-0.00600367021489,0.0436814723121,-0.00829687034785,0.574084088087,0.818781624037,0.002204278941,0.0,0.818740496915,-0.574023152708,-0.0119233287411,0.0,-0.00849745892581,0.00864989228001,-0.999926483575,0.0,0.656921883192,0.254664106363,0.303471736559,1.0,-0.01392,-0.0182948571429,0.697
0.461416132342,0.520371902945,-0.124112368198,-1.39882397883,0.0770365038221,1.90993453911,0.153655787007,-0.0104843261804,-0.076270153384,-0.000375841964623,-0.121107656715,-0.00487674274821,0.0469439401203,-0.0135537621531,0.574073376833,0.818789173329,0.00218964659819,0.0,0.818747890357,-0.574012537381,-0.0119266871968,0.0,-0.00850872156989,0.00863972846795,-0.999926475672,0.0,0.656663051432,0.2543399859,0.303460989889,1.0,-0.01428,-0.018768,0.715
0.461238466185,0.519046226352,-0.124113046487,-1.40087178117,0.0768999338278,1.91066713153,0.153369012074,-0.0151753279341,-0.0825895865442,0.00037525836328,-0.123582796398,-0.0099867347373,0.0433770992758,-0.0138422141515,0.574056361538,0.8188010939,0.00219301321721,0.0,0.818759897573,-0.57399555406,-0.0119197712374,0.0,-0.00850130556799,0.00863833809876,-0.999926550762,0.0,0.656413105789,0.254024967885,0.303480518445,1.0,-0.01462,-0.0192148571429,0.732
0.461052874015,0.517616896551,-0.124118479204,-1.40311384586,0.0767525745447,1.91147785977,0.153070609245,-0.0135819321364,-0.0760982611298,0.00119106622006,-0.123691737578,-0.00461065884463,0.0443662467555,-0.0189845676992,0.57404685134,0.818807784883,0.00218421196915,0.0,0.818766531601,-0.573986139224,-0.011917449819,0.0,-0.00850455703139,0.00862970035132,-0.999926597697,0.0,0.656138433835,0.253683889851,0.303486862187,1.0,-0.01498,-0.019688,0.75
0.460902915721,0.516522471983,-0.124129094833,-1.40487675962,0.0766390018947,1.91212245304,0.152821717824,-0.00968638009092,-0.0733229614805,-0.00328883601103,-0.126095556385,-0.0174711245739,0.0500312343701,-0.0159462573277,0.574035994543,0.81881546792,0.00215716603177,0.0,0.818773920066,-0.57397545192,-0.0119245676901,0.0,-0.00852602427733,0.00861152816013,-0.999926571551,0.0,0.655924831515,0.25340986074,0.303471735909,1.0,-0.01526,-0.020056,0.764
0.460720532958,0.515142845843,-0.124131105176,-1.40705980562,0.0765115301651,1.91294137062,0.152531599175,-0.011763591626,-0.0766182918985,-0.00111317098743,-0.127857932856,-0.00603360103052,0.0469025272869,-0.0158903140952,0.574030184002,0.818819503408,0.00217154196552,0.0,0.818778079526,-0.573969519686,-0.011924506706,0.0,-0.00851778375419,0.00862320376211,-0.99992654116,0.0,0.655660284091,0.25308305635,0.303471162666,1.0,-0.0156,-0.0205028571429,0.781
0.46051949171,0.513653671694,-0.12412885392,-1.40945903809,0.0763725090294,1.91377939415,0.152207941932,-0.0161221231502,-0.0870698464878,-0.000391606141307,-0.134226301084,-0.00488178393479,0.0495083419108,-0.0192024860849,0.574016707288,0.818829098109,0.00211535944043,0.0,0.818786740497,-0.573956072497,-0.0119769500374,0.0,-0.00859311724503,0.00860716339961,-0.999926034802,0.0,0.655354553921,0.252721851534,0.303445575037,1.0,-0.01596,-0.020976,0.799
0.460323562099,0.512268297382,-0.124133728298,-1.41173377133,0.0762252823877,1.91458173822,0.151882026867,-0.0104070702318,-0.0831256112371,-0.00132951679438,-0.139567678092,-0.0118622097974,0.0461423167882,-0.0228289326915,0.573993074574,0.818845867712,0.00203523317364,0.0,0.818802447303,-0.573932761847,-0.0120201527,0.0,-0.00867473238678,0.00856610323255,-0.999925682685,0.0,0.655068388965,0.252369597514,0.303403189963,1.0,-0.0163,-0.0214228571429,0.816
0.460136022893,0.510886990485,-0.124129021349,-1.41390436662,0.0761016764638,1.91540979489,0.151579296387,-0.0134644997128,-0.0891437794605,0.00156327243676,-0.13897062161,-0.00859414689807,0.0523604260587,-0.0209240274178,0.573975803513,0.818857880066,0.002072712218,0.0,0.818814841735,-0.573915228303,-0.0120130170043,0.0,-0.00864755902381,0.0085925140469,-0.999925691452,0.0,0.654805671748,0.252046256322,0.303408971856,1.0,-0.01662,-0.0218434285714,0.832
0.459972248399,0.509671796787,-0.124142093827,-1.41584168587,0.0759743097047,1.91614862136,0.151305666986,-0.00996205681241,-0.0848607319558,-0.00385874536696,-0.140606900052,-0.0160075033131,0.053859032295,-0.0122594574584,0.573961899112,0.818867615081,0.00207707500674,0.0,0.818824768886,-0.573901441731,-0.0119949964377,0.0,-0.00863044394767,0.00858559669689,-0.999925898738,0.0,0.654573900718,0.251747024112,0.303401929696,1.0,-0.0169,-0.0222114285714,0.846
0.459709954698,0.507813781975,-0.124142297578,-1.41877859143,0.0757950729949,1.91718879759,0.150890384872,-0.0135223277869,-0.0943016402362,-0.000451967911977,-0.13850548527,-0.00739642785654,0.0451862424013,-0.0216229669613,0.573940702658,0.818882550943,0.00204560371581,0.0,0.81883916012,-0.573880247953,-0.0120265441407,0.0,-0.00867456258954,0.00857770877074,-0.999925584669,0.0,0.654204085825,0.251292892219,0.303394128885,1.0,-0.01732,-0.0227634285714,0.867
0.459504025052,0.506346813848,-0.124146149986,-1.42106232728,0.0756473968619,1.9180294673,0.15058876191,-0.0141450692688,-0.0964822737496,-0.00143137237651,-0.144808619034,-0.00592440723546,0.0488151423476,-0.0233697902671,0.573943311743,0.818880684682,0.00206059710568,0.0,0.818837531939,-0.573882835149,-0.0120139382072,0.0,-0.00865560728303,0.00858277897517,-0.999925705424,0.0,0.653924212097,0.250937490001,0.303405854237,1.0,-0.01764,-0.023184,0.883
0.459295653581,0.504837898416,-0.124152529238,-1.42337447195,0.0754948541542,1.9189347265,0.15027219387,-0.0143382616402,-0.0971973651286,-0.000458261680778,-0.151106701409,-0.0107390417862,0.0491998486824,-0.0254868458957,0.573937540406,0.818884531042,0.00213809105288,0.0,0.818842555989,-0.573876908124,-0.011954485531,0.0,-0.00856250704996,0.00861205377386,-0.999926255282,0.0,0.653652084845,0.25057979752,0.303438517126,1.0,-0.01796,-0.0236045714286,0.899
0.459081795868,0.503268081963,-0.124150438799,-1.42570346439,0.0753609050684,1.91981069135,0.149940808422,-0.012645748375,-0.100049667658,0.00128399478014,-0.144394351463,-0.013001492228,0.0582416649162,-0.0214562187849,0.573923484462,0.818894098641,0.00224412452227,0.0,0.818853412813,-0.573862329574,-0.0119105802476,0.0,-0.00846584834374,0.00867353773397,-0.99992654688,0.0,0.653369187882,0.250223374293,0.303502305075,1.0,-0.01828,-0.0240251428571,0.915
0.458835446112,0.501461033347,-0.124159335595,-1.42838156923,0.0751837180299,1.92078172983,0.149565741594,-0.01711957071,-0.101168476537,0.00100787215847,-0.154056869273,-0.0104726902112,0.0486054254531,-0.0201406646428,0.57391334241,0.818900986305,0.00232313032327,0.0,0.818861424756,-0.57385197503,-0.0118585286966,0.0,-0.00837798922379,0.0087082573077,-0.99992698511,0.0,0.653039399473,0.249800679484,0.303573449571,1.0,-0.01864,-0.0244982857143,0.933
0.458581306879,0.499643069005,-0.124162444238,-1.43113015096,0.0750035078705,1.92176417532,0.149173558435,-0.0166025451043,-0.102499774545,0.00314658901256,-0.155228660345,-0.0115676904425,0.0563910885966,-0.0170946699717,0.573893636596,0.818914681912,0.00236316009217,0.0,0.818875663957,-0.57383214019,-0.0118350650223,0.0,-0.00833601178894,0.00872737082347,-0.999927169301,0.0,0.652694705762,0.249368507256,0.303618773763,1.0,-0.019,-0.0249714285714,0.951
0.458361463551,0.49818575569,-0.124165309969,-1.43345755175,0.074862305109,1.92263696273,0.148847158724,-0.0187669184027,-0.100975737262,-0.00113838630161,-0.156772795082,-0.00788282113834,0.0581270161529,-0.0296666019991,0.573898666721,0.818911102126,0.00238202698758,0.0,0.818872319941,-0.573837087039,-0.0118265833272,0.0,-0.00831818510986,0.00873800460246,-0.999927224888,0.0,0.652394246018,0.248972345028,0.303614198323,1.0,-0.01932,-0.025392,0.967
0.458086203942,0.49640811243,-0.124160337756,-1.43628009109,0.0746892767319,1.92364906054,0.148422474213,-0.0188689969375,-0.095619765071,-0.000392849839535,-0.157828981028,-0.00738459420318,0.0646169380295,-0.0253333934364,0.573859059964,0.818938982488,0.00233862336365,0.0,0.818899466213,-0.573797476222,-0.011868758081,0.0,-0.00837805378583,0.00872625978699,-0.999926827625,0.0,0.652051306382,0.248555822167,0.30358624714,1.0,-0.01966,-0.0258388571429,0.984
0.457809286362,0.494728831589,-0.124160838032,-1.43903045392,0.0745171984918,1.92458295595,0.148029492542,-0.0147547856491,-0.0983635725375,-9.43197835137e-06,-0.165122028588,-0.00682322914117,0.0549722947215,-0.0227042261717,0.573856249631,0.818941276589,0.0022219720018,0.0,0.818900061104,-0.573794946389,-0.0119497415586,0.0,-0.00851134417103,0.00867717394543,-0.999926129108,0.0,0.651693635731,0.248106809532,0.303528043031,1.0,-0.01998,-0.0262594285714,1.001
0.457538721082,0.492889726477,-0.124208902289,-1.44188867708,0.0743433672525,1.92562388853,0.147634034007,-0.0151913295043,-0.131149164626,-0.00216384798519,-0.200104617513,-0.0091613270426,0.0728625182067,-0.0326307104634,0.573885243558,0.818920932666,0.00223162906574,0.0,0.818879961174,-0.573824018063,-0.0119311517591,0.0,-0.00849027103305,0.00867471527107,-0.999926329593,0.0,0.65134324746,0.247630343889,0.303539678559,1.0,-0.0276691428571,-0.0363651591837,1.017
0.457156071804,0.489977236293,-0.124254983955,-1.44648760757,0.0740923696981,1.92735892202,0.146954345249,-0.0261930342127,-0.169065821152,0.000294252461642,-0.271171354959,-0.00677011313292,0.0975809589043,-0.0429880446606,0.573838372565,0.81895364816,0.00227842903044,0.0,0.818913148705,-0.573776823384,-0.011923033415,0.0,-0.00845726476954,0.00870789723635,-0.999926320885,0.0,0.650765737877,0.246924491839,0.303528731058,1.0,-0.0368,-0.0483657142857,1.036
0.456706762036,0.487053527668,-0.124284678091,-1.45115182783,0.0738246306007,1.92907242518,0.146262833522,-0.0350130106902,-0.208829806014,-0.0036776533166,-0.3248953283,-0.0173343093143,0.116598209685,-0.0500664129702,0.573829144475,0.818960140411,0.00226898006333,0.0,0.818919310807,-0.573767421662,-0.0119522018112,0.0,-0.00848667342751,0.00871680115503,-0.999925994137,0.0,0.650137557633,0.246120951207,0.303493266326,1.0,-0.0444891428571,-0.058471444898,1.052
0.456139347956,0.483308467994,-0.124377145415,-1.4569777708,0.0734715732093,1.93121928389,0.145377503,-0.0337519197756,-0.245988388119,-0.00464460222266,-0.38838915083,-0.0273970695633,0.133408417827,-0.066480335526,0.573819980263,0.818966473838,0.00230040905976,0.0,0.818926276912,-0.573758362306,-0.0119097258148,0.0,-0.00843394959981,0.00871807190855,-0.999926429152,0.0,0.649457689356,0.245198466104,0.303505967541,1.0,-0.0516977142857,-0.0679455673469,1.067
0.455357827124,0.478370653106,-0.124494342139,-1.46476751928,0.0730063219494,1.93393708421,0.144196971758,-0.0469990930052,-0.28919693373,-0.0109915441176,-0.456099485396,-0.0250488311776,0.156589113153,-0.0715009872872,0.573832432913,0.818958082851,0.00217815783951,0.0,0.818916188185,-0.57377120286,-0.0119845900585,0.0,-0.00856527756258,0.00866104193782,-0.999925808434,0.0,0.648456207128,0.243874808213,0.303460438007,1.0,-0.060348,-0.0793145142857,1.085
0.454489098178,0.472979767208,-0.124597637418,-1.47310905618,0.0724972851741,1.93695548024,0.142999609937,-0.0554180715847,-0.327490148839,-0.00776371614282,-0.512512617992,-0.0310159720841,0.183356482089,-0.0744077993522,0.57390326853,0.818908321976,0.00222384147326,0.0,0.818867089252,-0.573841909295,-0.0119540862715,0.0,-0.00851333120033,0.00868168692701,-0.999926073019,0.0,0.6473996321,0.242457949701,0.303485178366,1.0,-0.0685177142857,-0.0900518530612,1.102
0.453546949455,0.467268135424,-0.12465456964,-1.48173473677,0.0719847440018,1.94017870721,0.141630560697,-0.0608437396111,-0.370763084225,-0.00553114790264,-0.559441253688,-0.0400913698283,0.211823506382,-0.0982823322211,0.573868361246,0.81893200586,0.00249412119116,0.0,0.818894198899,-0.57380584654,-0.011827442124,0.0,-0.00825488851353,0.00882998620882,-0.999926941411,0.0,0.646317012996,0.241006100166,0.303605112093,1.0,-0.0762068571429,-0.100157583673,1.118
0.45234728236,0.460238139619,-0.124694421948,-1.49263915685,0.0712844289872,1.94398352357,0.139947202356,-0.0678323144085,-0.396826587184,-0.000916737906777,-0.631978530567,-0.0379100823582,0.20972532187,-0.0833287575142,0.573826685191,0.818961320058,0.00245733828779,0.0,0.818922823058,-0.573764091196,-0.0118711596153,0.0,-0.00831224811628,0.00882452847881,-0.999926514414,0.0,0.644958768263,0.239262173517,0.303606848024,1.0,-0.0843765714286,-0.110894922449,1.135
0.451071784958,0.452899808705,-0.124821154282,-1.50395535734,0.0705338365946,1.94783998237,0.138184106634,-0.0789281775358,-0.444278357593,-0.00856183218221,-0.683130834849,-0.0386500269421,0.232892703808,-0.118013365024,0.573830826325,0.818958867012,0.0023029985816,0.0,0.818918258638,-0.573768736667,-0.0119611618678,0.0,-0.00847447414456,0.00874981944761,-0.999925809222,0.0,0.643351557805,0.237166366309,0.303587217908,1.0,-0.0930268571428,-0.122263869388,1.153
0.449851791819,0.445805765931,-0.124897128868,-1.51443988409,0.0698145238245,1.95179348153,0.136551693246,-0.0826054010115,-0.471895788405,-0.00247654985579,-0.720492332686,-0.0387020480966,0.254486445854,-0.109422746916,0.57382706732,0.818960149119,0.00274187282664,0.0,0.818925992627,-0.573764136442,-0.0116482288123,0.0,-0.00796640028834,0.00892963182811,-0.999928396507,0.0,0.642011611869,0.235348049118,0.30380511845,1.0,-0.100235428571,-0.131737991837,1.168
0.448208605607,0.436877676336,-0.124936576901,-1.52818442928,0.0689045400934,1.95648898136,0.134359832021,-0.0924599134724,-0.511594943863,-0.00443825100736,-0.758442524985,-0.0522056869625,0.263978751595,-0.124926132706,0.573766499938,0.81900292316,0.00263861825968,0.0,0.818966893965,-0.573703352248,-0.0117659300001,0.0,-0.00812270331008,0.00891200905893,-0.99992729625,0.0,0.640113083706,0.23294664564,0.303776308255,1.0,-0.108885714286,-0.143106938775,1.186
0.446513421794,0.42774226753,-0.124996225476,-1.54189375516,0.0679599132776,1.96139549641,0.132121995836,-0.10750086899,-0.535391993853,-0.00586382810464,-0.828663639741,-0.0589561627523,0.294128886356,-0.132277490797,0.573699900227,0.81904871894,0.00289264297179,0.0,0.819016235355,-0.57363615598,-0.011606622196,0.0,-0.00784721552909,0.00902801337002,-0.999928455532,0.0,0.638255974597,0.230521500167,0.303903934705,1.0,-0.117055428571,-0.153844277551,1.203
0.442958564811,0.40977470906,-0.12516123422,-1.56907599296,0.0660285236025,1.97079899941,0.127624772015,-0.124569244775,-0.599128473975,-0.00616444258668,-0.897512720839,-0.0514474121448,0.307604404398,-0.151470838321,0.573645499543,0.819086466446,0.00299136113558,0.0,0.819055524424,-0.57358174747,-0.0115227505488,0.0,-0.00772248756515,0.00906023929603,-0.999929135114,0.0,0.634332684421,0.225386785281,0.303976968197,1.0,-0.132433714286,-0.174055738775,1.235
0.442198514122,0.406114186886,-0.125176424194,-1.57469854699,0.0656612454466,1.97267611926,0.126689318476,-0.125562230139,-0.618796290611,-0.00241168438242,-0.947922596297,-0.0678163703436,0.318792538249,-0.152698427781,0.573643465668,0.819088154491,0.00291828201936,0.0,0.819055927912,-0.573579556909,-0.0116028336678,0.0,-0.00783002746053,0.00904630007336,-0.999928425001,0.0,0.633645094597,0.224524595597,0.303932675452,1.0,-0.134836571429,-0.177213779592,1.24
0.440432153293,0.397833960145,-0.125270705983,-1.58705044223,0.0648215264648,1.97686755049,0.124582228926,-0.14276433848,-0.659189870319,-0.00815005330119,-0.949188642254,-0.0725998945347,0.335999242022,-0.169450095738,0.573694079675,0.819052344731,0.00301768753145,0.0,0.819021144211,-0.573629532962,-0.0115875428563,0.0,-0.00775991885933,0.00911943020683,-0.999928307256,0.0,0.631886842083,0.222175799791,0.304000813168,1.0,-0.141084,-0.185424685714,1.253
0.437993497809,0.386697858072,-0.125405477604,-1.60394029591,0.0635298424057,1.98256610185,0.121683189318,-0.144561699406,-0.66509831411,-0.00470784803239,-1.02833139708,-0.0790177948192,0.335045998692,-0.181208209452,0.573706298984,0.819044245765,0.002890136067,0.0,0.81901192828,-0.573642790735,-0.0115826108846,0.0,-0.00782891580776,0.00901224625006,-0.999928741208,0.0,0.629438813615,0.21893224289,0.303940059778,1.0,-0.149253714286,-0.19616202449,1.27
0.435697297528,0.376342495658,-0.125509856933,-1.61927855924,0.0623933780349,1.98766937161,0.118918858908,-0.150456081835,-0.690520968335,-0.00295355870763,-1.04171856243,-0.0789649704827,0.342371490578,-0.186744214195,0.573654221475,0.819080477676,0.00295840753253,0.0,0.819049078984,-0.573590538158,-0.0115432946924,0.0,-0.00775812212979,0.00904511484127,-0.999928996198,0.0,0.627174507051,0.215963354318,0.304011482043,1.0,-0.156462285714,-0.205636146939,1.285
0.432972332222,0.364980407117,-0.12566161208,-1.63620685064,0.0611150975482,1.99325890645,0.115922746379,-0.174955884993,-0.732213217694,-0.0118566539276,-1.04956404288,-0.0781867783235,0.354454658517,-0.187676211978,0.57379521004,0.818981680701,0.00296825085539,0.0,0.818950641891,-0.573731748741,-0.0115097148033,0.0,-0.00772341451971,0.00903524412283,-0.99992935412,0.0,0.624513094012,0.212342479621,0.304031570431,1.0,-0.164632,-0.216373485714,1.302
0.429522648224,0.350922523815,-0.125834441854,-1.65713409842,0.059510884872,2.00006410155,0.112051751701,-0.185063445379,-0.747065306113,-0.00443751258218,-1.13636226621,-0.0826543479891,0.35438259832,-0.21043138433,0.573848896643,0.818944595677,0.0028177890298,0.0,0.818911486872,-0.573785777204,-0.0116019588361,0.0,-0.00788470602463,0.00896546369402,-0.999928723396,0.0,0.62148050171,0.208313564962,0.303966413065,1.0,-0.173282285714,-0.227742432653,1.32
0.426196969026,0.337733778832,-0.125989901344,-1.67624192797,0.0580481660277,2.00634746812,0.108396002002,-0.202941235417,-0.768874665944,-0.00705713791919,-1.13624810695,-0.0906188806552,0.368577063666,-0.226155193022,0.573909669908,0.81890103174,0.00308834960168,0.0,0.818871538067,-0.57384581291,-0.0114513776888,0.0,-0.00760545494502,0.00910119320394,-0.999929660195,0.0,0.618561235298,0.204368076885,0.304115298702,1.0,-0.181452,-0.238479771429,1.337
0.422937433677,0.325042965406,-0.126064693523,-1.69480864782,0.0565194531054,2.01231156039,0.104771971053,-0.206117082422,-0.7898016025,-0.00529463635195,-1.16097833105,-0.103972939528,0.384303925185,-0.23402529031,0.573806985254,0.81897296356,0.00309443577897,0.0,0.818943796415,-0.573743420224,-0.0114145943502,0.0,-0.00757297779861,0.00908411785398,-0.999930061959,0.0,0.615622196532,0.200561889051,0.304122533347,1.0,-0.189141142857,-0.248585502041,1.353
0.418984167144,0.310267846403,-0.126115561677,-1.71630055056,0.0547817460164,2.01903009092,0.100484994444,-0.228769751034,-0.818096233939,-0.00170002371966,-1.19467477969,-0.0909009773638,0.385124904395,-0.251764736633,0.57370606727,0.819043773366,0.00306473333173,0.0,0.819013738675,-0.573642027866,-0.0114920245185,0.0,-0.0076545586559,0.00910327816183,-0.999929266528,0.0,0.612131862396,0.196094551246,0.304116266346,1.0,-0.197791428571,-0.25995444898,1.371
0.414987283777,0.295896816986,-0.126240779666,-1.73719985376,0.0529752576917,2.0254065116,0.0962010810017,-0.241892556451,-0.851379049581,-0.0121185396846,-1.23779009558,-0.100212819097,0.365119969666,-0.247552490978,0.573616851252,0.819107028465,0.00285145239701,0.0,0.819074377632,-0.573553674529,-0.0115798636693,0.0,-0.00784983785384,0.00897812939016,-0.99992888409,0.0,0.608671340425,0.191623216724,0.304045391117,1.0,-0.205961142857,-0.270691787755,1.388
0.411204197765,0.282727496842,-0.126386086066,-1.75580715876,0.0514650167685,2.03116620783,0.0923047388909,-0.254400863947,-0.87891871996,-0.00640168325295,-1.25984943356,-0.102520038819,0.381063752275,-0.265525518771,0.573684394211,0.819058798708,0.00310596186849,0.0,0.819029192243,-0.573620105046,-0.0114849571819,0.0,-0.00762535987112,0.00913278997821,-0.999929220512,0.0,0.605591977066,0.187541622097,0.304180433566,1.0,-0.213169714286,-0.280165910204,1.403
0.406369679506,0.266582625504,-0.126553576932,-1.77868960849,0.0495021182297,2.03800989443,0.0873192422561,-0.275052110203,-0.917051087528,-0.00956065154823,-1.28108873637,-0.111053954842,0.377508387349,-0.266336246588,0.573668523255,0.819069755316,0.00314773778339,0.0,0.819040466029,-0.573603839646,-0.0114933481388,0.0,-0.0076084458552,0.00917167325821,-0.99992899346,0.0,0.601699244642,0.182435251795,0.304230128317,1.0,-0.22182,-0.291534857143,1.421
0.401697263589,0.251902327098,-0.126766763232,-1.7993748493,0.047637829457,2.0441133107,0.0827318398868,-0.294082150831,-0.93236586261,-0.00772787306249,-1.3108308939,-0.11317783143,0.37630387952,-0.28480336606,0.57382121744,0.818962857662,0.00312971049055,0.0,0.818933466689,-0.573756727513,-0.0114865865667,0.0,-0.00761154185613,0.0091544480012,-0.999929127745,0.0,0.597912978015,0.17733729637,0.304250173843,1.0,-0.229989714286,-0.302272195918,1.438
0.396522816849,0.23596713641,-0.126899897097,-1.82172736731,0.0456382411424,2.0505245315,0.0775452277757,-0.306227032037,-0.968269535204,-0.00842898998381,-1.30215370632,-0.116685697243,0.396274904025,-0.306471033259,0.573764858091,0.819002432032,0.00310658105837,0.0,0.818972442082,-0.573700088065,-0.0115366791149,0.0,-0.0076664700292,0.00916372176113,-0.999928623173,0.0,0.594180926055,0.17246964232,0.304255575193,1.0,-0.237678857143,-0.312377926531,1.454
0.390790800108,0.218738123796,-0.127025957948,-1.84575970006,0.043423255913,2.05734973152,0.0718146422833,-0.327532775735,-0.960765278405,-0.00914129058508,-1.32424683009,-0.128837100066,0.378608135394,-0.337852973603,0.573638118292,0.819091330491,0.00307383444206,0.0,0.819060541125,-0.573573023007,-0.0116001789534,0.0,-0.00773868649339,0.00917213792019,-0.999927989716,0.0,0.589824584319,0.166883256096,0.304224075479,1.0,-0.246329142857,-0.323746873469,1.472
0.385286299826,0.20297923349,-0.127207165893,-1.86749726223,0.041338063058,2.06334420253,0.0664682115452,-0.35635597721,-0.967363181793,-0.011806202303,-1.36104495079,-0.12852108814,0.356220325622,-0.343202758328,0.573627369542,0.819099066106,0.00301789961175,0.0,0.819067517606,-0.573562419118,-0.0116318476131,0.0,-0.00779683182819,0.00914438575037,-0.999927792204,0.0,0.585820380314,0.161646465626,0.30421590155,1.0,-0.254018285714,-0.333852604082,1.488
0.379413683788,0.186818849779,-0.127412831443,-1.88938168045,0.0392158943755,2.06930757906,0.0608373858621,-0.384583716558,-1.01694274208,-0.0190024939763,-1.37873834781,-0.147397694179,0.375281527889,-0.362276765765,0.573649136251,0.819083299252,0.00315662257276,0.0,0.819053666741,-0.573583875506,-0.0115488379753,0.0,-0.00764901976988,0.0092106015546,-0.999928326089,0.0,0.581742870468,0.156228339812,0.304308060902,1.0,-0.261707428571,-0.343958334694,1.504
0.372334114374,0.168399740272,-0.127709940382,-1.91423134558,0.0367916764637,2.0758592666,0.0542307035074,-0.392010490266,-1.02520634153,-0.0154849194816,-1.39641994074,-0.148275978848,0.356098619627,-0.376738580544,0.573827176411,0.818958359513,0.0032130823064,0.0,0.818929143276,-0.573761333319,-0.0115644966798,0.0,-0.0076274456933,0.00926748764472,-0.999927965278,0.0,0.577022807997,0.149873728279,0.304345448745,1.0,-0.270357714286,-0.355327281633,1.522
0.365387242089,0.150642055128,-0.127901017173,-1.93793829784,0.0343273931572,2.0819650017,0.0476771657819,-0.407885662465,-1.04001729179,-0.00994689469496,-1.40499480912,-0.137993282541,0.345647193612,-0.38514607209,0.573759442076,0.819005647193,0.00325567133379,0.0,0.818977247337,-0.573693799343,-0.0115082510039,0.0,-0.00755770961397,0.00926946688842,-0.999928476447,0.0,0.572393811144,0.143817350903,0.30438562541,1.0,-0.278527428571,-0.366064620408,1.539
0.358456447375,0.13358967154,-0.128109581169,-1.96049113031,0.0320005011221,2.08754192636,0.0412099802733,-0.436526939587,-1.07880483018,-0.0152737164808,-1.40290706842,-0.131626398522,0.336662383616,-0.415783027226,0.573745792515,0.819015097951,0.00328356524142,0.0,0.818986661151,-0.573679576855,-0.0115472446142,0.0,-0.00757379917962,0.00931455848042,-0.999927935687,0.0,0.567886332407,0.137936100776,0.304412052854,1.0,-0.286216571429,-0.37617035102,1.555
0.350602669163,0.115179445949,-0.128426977073,-1.98458593298,0.0293632031284,2.09340796029,0.0340013105239,-0.472215704951,-1.09024715895,-0.021338358224,-1.42096623627,-0.160695154802,0.348123912439,-0.423818461211,0.573813948962,0.818967157775,0.00333067014642,0.0,0.818939852487,-0.57374822739,-0.0114558489998,0.0,-0.00747114184535,0.00930132355097,-0.999928831177,0.0,0.563014755112,0.131421721941,0.30444953818,1.0,-0.294386285714,-0.386907689796,1.572
0.342343013921,0.0964628759782,-0.128721836256,-2.00882345052,0.0266494999398,2.09906822517,0.026380740895,-0.490434022411,-1.12848587834,-0.0148109595099,-1.43000985413,-0.171408677286,0.359148404381,-0.459955992778,0.57377064453,0.818997401043,0.00335431993485,0.0,0.818970722685,-0.573705261173,-0.0114006837099,0.0,-0.00741288205523,0.00928864629672,-0.999929382621,0.0,0.557986479326,0.124775647782,0.304477501648,1.0,-0.302556,-0.397645028571,1.589
0.334206206781,0.0785941882856,-0.128938409244,-2.03177601015,0.0242205721672,2.10405078457,0.0188820127371,-0.518984531478,-1.15816794822,-0.0212154979948,-1.41687065429,-0.164576468,0.325311466751,-0.483465150487,0.573709161039,0.819040571232,0.003329882438,0.0,0.819011885191,-0.573641757399,-0.0116367085201,0.0,-0.00762092350628,0.00940348062146,-0.999926745355,0.0,0.553058382595,0.118455636243,0.304456383826,1.0,-0.30998,-0.407402285714,1.605
0.324490262991,0.0583996957506,-0.129290696776,-2.0574720762,0.0211791457252,2.10956521338,0.0101466544095,-0.555059349348,-1.13801901992,-0.026754397329,-1.4025154165,-0.169319529898,0.299439873248,-0.491392029322,0.57374993833,0.819012355232,0.0032430148141,0.0,0.818982766096,-0.573683084729,-0.0116487782112,0.0,-0.00768017840314,0.0093396388402,-0.999926890331,0.0,0.547485049103,0.111076053284,0.304419595521,1.0,-0.30998,-0.407402285714,1.623
0.315517807358,0.0405532323616,-0.12953586861,-2.07990156797,0.0185550991102,2.11402223195,0.00221173549158,-0.55318321363,-1.09985283689,-0.0138310859966,-1.37186101035,-0.162624998327,0.258273634771,-0.497793823649,0.573839541225,0.818950001519,0.00313414106107,0.0,0.818918067361,-0.573771928222,-0.0118203314515,0.0,-0.00788213005566,0.00934975832964,-0.999925224227,0.0,0.542473711734,0.104518241845,0.304376242901,1.0,-0.30998,-0.407402285714,1.639
0.306313174079,0.0227190108036,-0.129747518698,-2.10178922576,0.0158392363082,2.11832333612,-0.00593863692193,-0.577921508805,-1.09403867818,-0.0173975697553,-1.37701796946,-0.176927588135,0.265049355318,-0.514097377274,0.573821366611,0.818962252584,0.00325806136339,0.0,0.818932490266,-0.573754005577,-0.0116903538237,0.0,-0.00770478108418,0.00937648763946,-0.999926356202,0.0,0.537517767978,0.0979922558063,0.30446357302,1.0,-0.30998,-0.407402285714,1.655
0.295599977554,0.00291274441056,-0.130037767063,-2.12573015471,0.0128901548218,2.12271236609,-0.0153596258031,-0.604335045839,-1.10201662776,-0.0131154254754,-1.33428905948,-0.166235392713,0.240043847421,-0.532341217507,0.573913709305,0.818896781949,0.00344407980691,0.0,0.818869359391,-0.573845642614,-0.0116145428665,0.0,-0.00753488665709,0.00948617944192,-0.999926616249,0.0,0.531974101525,0.0906162526197,0.304580511161,1.0,-0.30998,-0.407402285714,1.673
0.28652290602,-0.0134120874012,-0.13015686382,-2.14520970674,0.0104753725711,2.12617257543,-0.0234403465344,-0.60556676432,-1.08452054936,-0.00946815906539,-1.30793464086,-0.160522588214,0.225581500047,-0.545138528555,0.573796397829,0.818977911028,0.00369079775552,0.0,0.818953682451,-0.573727595011,-0.0115004183826,0.0,-0.00730121667403,0.00962167630162,-0.99992705513,0.0,0.527363807837,0.0846004675157,0.304687860398,1.0,-0.30998,-0.407402285714,1.688
0.276541935485,-0.0306540721751,-0.130380607895,-2.16562544831,0.00775224273651,2.12950905222,-0.0321932687849,-0.630906670264,-1.08415856877,-0.0189842159579,-1.26961333749,-0.165439291471,0.214143659124,-0.543964010105,0.573803821177,0.818972570696,0.00372157913832,0.0,0.818949208755,-0.573735549474,-0.0114218935138,0.0,-0.00721915423248,0.00960189530018,-0.999927841106,0.0,0.522112926824,0.0776669989626,0.304742384336,1.0,-0.30998,-0.407402285714,1.705
0.264240437302,-0.0508482911198,-0.130700777452,-2.18939157153,0.00467350506597,2.13308956707,-0.0429167974924,-0.653086477008,-1.07446291902,-0.0146446900645,-1.22470595075,-0.165884344145,0.194744628028,-0.572461014133,0.573897664229,0.818906280658,0.00383684676752,0.0,0.818883819769,-0.573828264788,-0.0114524735958,0.0,-0.00717694961236,0.00971466662059,-0.999927055663,0.0,0.51623117776,0.0698852431255,0.304781052458,1.0,-0.30998,-0.407402285714,1.724
0.253730131554,-0.0675901430852,-0.130885410124,-2.20902214668,0.00200911458909,2.13579984597,-0.0521843253209,-0.665802747745,-1.02913352487,-0.00858384841513,-1.22137743549,-0.161356955608,0.15333791419,-0.587880840976,0.573799116831,0.818976218536,0.00364333601642,0.0,0.81895042236,-0.57372921256,-0.011650891491,0.0,-0.00745165821958,0.00966916897875,-0.999925487204,0.0,0.511522596302,0.0638253222799,0.304668971995,1.0,-0.30998,-0.407402285714,1.739
0.241399125821,-0.0863001522353,-0.131219930871,-2.23046725146,-0.000983905846317,2.13857857074,-0.0629325440157,-0.686221034104,-1.01966649509,-0.0156343201784,-1.1947275298,-0.170729941142,0.146354479723,-0.596410205088,0.573888394042,0.818913581464,0.00366117172235,0.0,0.818887953351,-0.57381833833,-0.0116525256903,0.0,-0.00744170734801,0.0096855251499,-0.999925403015,0.0,0.505965972257,0.0564135991745,0.304670062801,1.0,-0.30998,-0.407402285714,1.757
0.231087054312,-0.101845681709,-0.131354679494,-2.24792121342,-0.00344367378761,2.14057444216,-0.072079853934,-0.696216935349,-1.0361751735,-0.00914603209609,-1.15238003727,-0.170470260503,0.116842090324,-0.597685401214,0.573698100151,0.819046588842,0.00373123175216,0.0,0.819021823475,-0.573627791685,-0.0116256689923,0.0,-0.0073817684228,0.00972577169857,-0.999925456652,0.0,0.501308820525,0.0504334227137,0.304725861528,1.0,-0.30998,-0.407402285714,1.772
0.219577407964,-0.11813872267,-0.131665286874,-2.26621034501,-0.00611980461283,2.14244455538,-0.082040328517,-0.735268714947,-1.02708815024,-0.0278772583338,-1.1160071578,-0.170732576613,0.111806563382,-0.632627994967,0.573832907805,0.818952497946,0.00365334506836,0.0,0.818926344315,-0.573762334613,-0.0117120821177,0.0,-0.00749563142498,0.00971278566061,-0.99992473582,0.0,0.496024325018,0.0434299831551,0.304693694815,1.0,-0.30998,-0.407402285714,1.789
0.205661887009,-0.137298129969,-0.131943397288,-2.28747817212,-0.00913994281125,2.144319479,-0.0942937070433,-0.739831922877,-1.00002895567,-0.0158677217642,-1.11006946813,-0.150789002234,0.080302646376,-0.650559702415,0.573765636191,0.819000142981,0.00353658378706,0.0,0.818970709042,-0.573693234014,-0.0119915753288,0.0,-0.0077923377453,0.00977690061475,-0.999921842789,0.0,0.490067458156,0.0357456567143,0.30459897776,1.0,-0.30998,-0.407402285714,1.808
0.19354939733,-0.153342770949,-0.132302719845,-2.30478627228,-0.0117341316863,2.14580476224,-0.104954401552,-0.769919496709,-1.00047932867,-0.0286721478887,-1.08038256059,-0.163272775721,0.0792054244383,-0.677157908126,0.573840171232,0.818947073734,0.00372762724771,0.0,0.818920670834,-0.573767769952,-0.0118417881282,0.0,-0.00755915089934,0.00984811434024,-0.999922933971,0.0,0.48546824387,0.0295769997233,0.30467128972,1.0,-0.30998,-0.407402285714,1.823
0.179638723112,-0.171183102593,-0.132585217525,-2.32378979257,-0.0145865088321,2.14698015845,-0.11717483851,-0.772449008572,-0.992754851803,-0.016183238575,-1.05095543533,-0.151742545156,0.0582359644572,-0.699542263848,0.573846371893,0.818942379498,0.00380360729806,0.0,0.81891644581,-0.573773026232,-0.0118792277349,0.0,-0.00754614104443,0.00993187952581,-0.999922203736,0.0,0.479886988857,0.0222795662433,0.304715548993,1.0,-0.30998,-0.407402285714,1.841
0.167726930555,-0.185823040546,-0.132901420799,-2.33935345859,-0.0170265435098,2.14773668427,-0.127677364918,-0.807702250802,-0.974360554842,-0.029239303904,-1.03771421803,-0.168019192495,0.0480822343859,-0.710461657343,0.573862291214,0.818931625915,0.00371614053906,0.0,0.818903839381,-0.573788328002,-0.0120084719036,0.0,-0.00770198764139,0.00993456222682,-0.999920988808,0.0,0.475196005249,0.0161387800324,0.304670550473,1.0,-0.30998,-0.407402285714,1.856
0.153133236989,-0.203196013617,-0.133194251581,-2.35738062325,-0.0198712697124,2.14851569513,-0.140626824149,-0.804795933467,-0.941720399804,-0.0226090906525,-1.01113694392,-0.15642331319,0.0368578355612,-0.736475553964,0.573786892787,0.81898386825,0.00384345071675,0.0,0.81895802307,-0.573712848548,-0.0119193440359,0.0,-0.00755685891949,0.00998698045947,-0.999921573977,0.0,0.469657175017,0.00884814798848,0.304718484737,1.0,-0.30998,-0.407402285714,1.874
0.137249809165,-0.221372634587,-0.133598510774,-2.37589781247,-0.0228672411506,2.14897460062,-0.154652648914,-0.843707958207,-0.942822487003,-0.021158880965,-0.967016284383,-0.168670132702,0.0221819609879,-0.750179160398,0.573855902186,0.818934868611,0.0039788693787,0.0,0.818911025144,-0.573781697778,-0.0118339804849,0.0,-0.00740839946083,0.0100495330341,-0.999922058214,0.0,0.463786553037,0.00108313005661,0.30478813734,1.0,-0.30998,-0.407402285714,1.893
0.125382589161,-0.234512916209,-0.13378263734,-2.38929843874,-0.0250776524912,2.14907639801,-0.165258190875,-0.858913786552,-0.931645574347,-0.0155551979546,-0.963350187917,-0.160180851633,0.0119640318624,-0.760257385021,0.573707110329,0.819039511347,0.00389580697999,0.0,0.819014107141,-0.573632572738,-0.0119294048248,0.0,-0.00753603720958,0.0100348984482,-0.999921251377,0.0,0.459406793845,-0.00453328326726,0.304747505677,1.0,-0.30998,-0.407402285714,1.907
0.109569396693,-0.251209297015,-0.13421362012,-2.40582096675,-0.0277834733853,2.14911158149,-0.179304802158,-0.8864579611,-0.915126226115,-0.0225371041704,-0.913411880154,-0.159416539176,-0.00139606914413,-0.789515585808,0.573837059094,0.818947286393,0.00413746559396,0.0,0.818925368311,-0.573762137253,-0.0117897367636,0.0,-0.00728139201715,0.0101538589005,-0.999921937193,0.0,0.453892079289,-0.0119201240357,0.304832903057,1.0,-0.30998,-0.407402285714,1.925
0.0962530988123,-0.26489515232,-0.134465166819,-2.41938074295,-0.0300546951568,2.14897396278,-0.191265145847,-0.886682095867,-0.9061533135,-0.0205990971175,-0.883004018385,-0.154770513477,-0.014956740011,-0.795769000054,0.573738599051,0.819016032647,0.00418391283044,0.0,0.81899465859,-0.573663455379,-0.0117786274677,0.0,-0.00724686637193,0.0101846515683,-0.999921874848,0.0,0.449238950837,-0.0179529169544,0.304815689976,1.0,-0.30998,-0.407402285714,1.94
0.0806296950501,-0.280131062578,-0.134910127243,-2.43415600808,-0.0326347873444,2.14862458556,-0.205229949219,-0.918824285081,-0.873966845961,-0.0219541694013,-0.879417725537,-0.151981842349,-0.0259506047318,-0.821966594881,0.573840399772,0.818944066267,0.00430799442821,0.0,0.818924819834,-0.57376557912,-0.0116596130725,0.0,-0.00707692827553,0.0102188773327,-0.999922742832,0.0,0.444015203811,-0.0249518453893,0.304850672166,1.0,-0.30998,-0.407402285714,1.957
0.0628650569067,-0.296900593947,-0.135314156279,-2.45012691937,-0.0354084602518,2.1479485814,-0.221311971045,-0.951573958146,-0.869170471552,-0.0322875754744,-0.798183290409,-0.166879277376,-0.0255046503441,-0.856164543928,0.573774902594,0.818989048891,0.00447725929733,0.0,0.818972408768,-0.573700190866,-0.0115339315679,0.0,-0.00687769154818,0.0102848303081,-0.999923456883,0.0,0.438170949137,-0.032667544618,0.304910940697,1.0,-0.30998,-0.407402285714,1.976
0.0475687356912,-0.31070780723,-0.13563511989,-2.46320241134,-0.0377249196401,2.14715600014,-0.235104890538,-0.957289023276,-0.844279062264,-0.0227790225574,-0.781717696949,-0.143775660882,-0.0559654116424,-0.858800213174,0.573772457843,0.818990579685,0.00451042224323,0.0,0.818974214366,-0.573697418424,-0.0115436215207,0.0,-0.00686663188791,0.0103175302499,-0.999923196019,0.0,0.433214089663,-0.0391476017525,0.304906128273,1.0,-0.30998,-0.407402285714,1.992
0.0328656402912,-0.32339280555,-0.136038833423,-2.47503893426,-0.0398397884127,2.14626631092,-0.248400912092,-0.990359317897,-0.870474546199,-0.027784372127,-0.773722000475,-0.138843113953,-0.051950971607,-0.890850951714,0.573869062568,0.818922443512,0.00459101745613,0.0,0.818906809752,-0.573793299915,-0.0115599660374,0.0,-0.00683255212591,0.0103937224431,-0.99992264039,0.0,0.42857461503,-0.0452912797102,0.304911530738,1.0,-0.30998,-0.407402285714,2.007
0.0160170238693,-0.337492668229,-0.136344899942,-2.48806261426,-0.0422198486164,2.14517893491,-0.263905590965,-1.00691045461,-0.812780901339,-0.0139082733202,-0.77048589971,-0.150817457579,-0.0685421727977,-0.923442578278,0.573656496252,0.819071038907,0.00464805691472,0.0,0.819056378561,-0.573580962125,-0.0115011098362,0.0,-0.00675431906654,0.0104049073623,-0.999923055578,0.0,0.423328511111,-0.0521263223719,0.304911407242,1.0,-0.30998,-0.407402285714,2.024
-0.00137089709132,-0.351294209246,-0.136788793981,-2.50057597406,-0.0446050709665,2.14377781181,-0.279714827361,-1.02356767693,-0.834580335426,-0.0189445952247,-0.704640714113,-0.134911219814,-0.0855447984882,-0.943070153011,0.573737672234,0.819014140311,0.00465492552748,0.0,0.818999367842,-0.573661795771,-0.0115293733013,0.0,-0.00677249721699,0.0104274176247,-0.999922698134,0.0,0.418045339816,-0.059093057993,0.304923954925,1.0,-0.30998,-0.407402285714,2.041
-0.0190663498148,-0.364741617231,-0.137269826625,-2.5125788152,-0.0468117268188,2.14237313278,-0.295956665726,-1.05351060233,-0.774839144652,-0.0339692397332,-0.71562855608,-0.12930556095,-0.0936296298483,-0.967662662198,0.573825249052,0.818951704535,0.00484108366888,0.0,0.818939259232,-0.573748698572,-0.0114746449391,0.0,-0.00661974202767,0.0105491975684,-0.999922443716,0.0,0.412802615737,-0.0660364098483,0.304959135368,1.0,-0.30998,-0.407402285714,2.058
-0.0370266091625,-0.377797505517,-0.137616639917,-2.52424245939,-0.0490933320594,2.14068561286,-0.312588312896,-1.06457077446,-0.760476426536,-0.0227046675863,-0.672865668806,-0.131627112272,-0.106374828819,-0.981196402408,0.57366986974,0.819061145795,0.00473992646974,0.0,0.819046565584,-0.573592346307,-0.011631447184,0.0,-0.00680821199183,0.0105550345042,-0.999921116637,0.0,0.407489096995,-0.0728890085553,0.30490803716,1.0,-0.30998,-0.407402285714,2.075
-0.0544132520001,-0.389761256723,-0.138041519286,-2.53450509527,-0.051151396897,2.1392154955,-0.328573531489,-1.08586561166,-0.751739010812,-0.0168146149618,-0.643733713283,-0.127919916029,-0.0953705825308,-1.00783223371,0.573776072606,0.818985631348,0.00492960963453,0.0,0.818974913536,-0.573700229927,-0.0113527124854,0.0,-0.00646971478362,0.0105513445536,-0.999923403026,0.0,0.402609411438,-0.0794607310748,0.30501049028,1.0,-0.30998,-0.407402285714,2.091
-0.0731791047401,-0.401986719042,-0.138461947559,-2.54519917089,-0.0531802188613,2.13733228452,-0.346003096358,-1.11875328692,-0.719521458198,-0.0187431382538,-0.618949719764,-0.115441609926,-0.116983914434,-1.03549319327,0.573805814466,0.818964765669,0.00493424553868,0.0,0.818952378408,-0.573727158209,-0.0116145053536,0.0,-0.00668108861609,0.0107055889393,-0.99992037354,0.0,0.397289966123,-0.0863656366222,0.30494235661,1.0,-0.30998,-0.407402285714,2.108
-0.0921625753789,-0.413902064892,-0.138805668881,-2.55520510722,-0.0552422322761,2.13554315522,-0.363829212955,-1.12976035844,-0.691260996398,-0.0289741954842,-0.579471463904,-0.125379855012,-0.0961331600185,-1.04746964137,0.573632077729,0.819085770239,0.00504849413741,0.0,0.819076021145,-0.573555010017,-0.0113960068218,0.0,-0.00643884188741,0.010672421039,-0.999922317355,0.0,0.392090608387,-0.0932273570091,0.305024672917,1.0,-0.30998,-0.407402285714,2.125
-0.11158135429,-0.425271328578,-0.139181725589,-2.56481794889,-0.057256123507,2.1335853462,-0.382040401381,-1.1385959815,-0.653828497723,-0.0210517821934,-0.562029558017,-0.119532253436,-0.131213352135,-1.08100426309,0.573551669316,0.819142241113,0.00502178756494,0.0,0.819131767372,-0.573474063176,-0.0114626981114,0.0,-0.00650984063553,0.0106881611403,-0.999921689527,0.0,0.386819049276,-0.10012421421,0.305009304649,1.0,-0.30998,-0.407402285714,2.142
-0.130157429741,-0.435548426157,-0.139561976275,-2.57354155658,-0.0590962665261,2.13165044663,-0.399473961781,-1.15280584824,-0.634294220619,-0.0143196560431,-0.537497833797,-0.117921334001,-0.115368883114,-1.10010408524,0.573544913296,0.819147392075,0.00495271543308,0.0,0.819134567765,-0.573465161266,-0.0117053666342,0.0,-0.00674834072361,0.0107707012762,-0.999919222683,0.0,0.38149048108,-0.107008727913,0.30493106052,1.0,-0.30998,-0.407402285714,2.159
-0.151487449167,-0.446704419581,-0.140070661448,-2.58242978985,-0.0609258509962,2.12967497344,-0.419564749658,-1.19343231426,-0.605265677377,-0.0259118282245,-0.483667120406,-0.11418229089,-0.106145810792,-1.14147136026,0.573666286831,0.819060409022,0.00527111245284,0.0,0.819053202044,-0.573588045044,-0.0113733770547,0.0,-0.00629215691886,0.0108420532596,-0.999921426234,0.0,0.376318578187,-0.113986035353,0.305078435409,1.0,-0.30998,-0.407402285714,2.176
-0.173148519234,-0.457208051091,-0.140487934995,-2.59107566268,-0.0628449249959,2.1274597124,-0.4400709937,-1.219995043,-0.578429140991,-0.0376978228926,-0.466015610314,-0.100125907308,-0.137337876488,-1.14003700116,0.57362960383,0.819086508635,0.00520729129306,0.0,0.819077343362,-0.573549625563,-0.0115706313564,0.0,-0.00649083303776,0.0109026409091,-0.999919497514,0.0,0.370683816936,-0.121298046188,0.305027865552,1.0,-0.30998,-0.407402285714,2.194
-0.192588391492,-0.465968818602,-0.140820176959,-2.59823613265,-0.0644611719845,2.12561867162,-0.458650762777,-1.22302929144,-0.541139465041,-0.017084684418,-0.443725043426,-0.0952825220403,-0.0992610865967,-1.17889085423,0.573491348294,0.819183515134,0.00517579622187,0.0,0.819173348277,-0.573410502554,-0.01166910174,0.0,-0.00659140677413,0.0109322136903,-0.999918516711,0.0,0.365727420096,-0.127755131334,0.304983493421,1.0,-0.308969142857,-0.406073730612,2.21
-0.216035858138,-0.47566547902,-0.14119160944,-2.60580758692,-0.0661012725181,2.12356815632,-0.48083390224,-1.22787787651,-0.485078796379,-0.0155983242394,-0.376366015637,-0.0776190208326,-0.107160561336,-1.177484619,0.573671166387,0.819056309353,0.00537604563262,0.0,0.819049549339,-0.573591052706,-0.0114842014945,0.0,-0.00632267774926,0.0109916146416,-0.999919600845,0.0,0.359974208305,-0.135455888764,0.305066254218,1.0,-0.299838285714,-0.39407317551,2.229
-0.235597116842,-0.483069084319,-0.141330387646,-2.61168306416,-0.0673836586588,2.12186623388,-0.499469464538,-1.21140190349,-0.449419979885,-0.00187390990764,-0.364371928465,-0.0856697824666,-0.105826683798,-1.18238478792,0.573648095453,0.819072350241,0.00539393680926,0.0,0.819065557788,-0.573567473755,-0.0115200693113,0.0,-0.00634210564164,0.0110266659787,-0.999919091894,0.0,0.355203800154,-0.14172609924,0.305059049252,1.0,-0.292149142857,-0.383967444898,2.245
-0.255013315614,-0.489774839668,-0.141418543783,-2.61711892133,-0.068434881568,2.12017124458,-0.517910850423,-1.21021069249,-0.394079486378,-0.00539077187481,-0.32513935431,-0.0731993316762,-0.105279626667,-1.15865133114,0.573750579125,0.819000293484,0.00543499098705,0.0,0.818992011978,-0.573666317404,-0.0118231761,0.0,-0.00656543983625,0.0112349846463,-0.999915331475,0.0,0.350487211707,-0.147830814221,0.304974140489,1.0,-0.28446,-0.373861714286,2.261
-0.275352542927,-0.496272950118,-0.141341721101,-2.62219099829,-0.0694276186316,2.11866238045,-0.537262167521,-1.19371682805,-0.364205606048,0.00256511522726,-0.284379464168,-0.0508207613261,-0.0808543640199,-1.13510633405,0.573786844329,0.818974287975,0.00552447392352,0.0,0.818967369143,-0.573702606404,-0.0117692219698,0.0,-0.00646940964999,0.0112776057382,-0.999915477602,0.0,0.345696167648,-0.154141377054,0.304983219875,1.0,-0.276290285714,-0.36312437551,2.278
-0.295257679739,-0.502025779856,-0.141233546871,-2.62664767454,-0.0703072335558,2.11718105978,-0.556281474454,-1.15525377482,-0.320159370219,0.00595332377518,-0.250773132863,-0.0404299669341,-0.086768496071,-1.10969357531,0.57379896079,0.818965448133,0.00557622294145,0.0,0.818958835158,-0.573713897138,-0.0118125969958,0.0,-0.00647507686256,0.011344971351,-0.999914678862,0.0,0.341047396211,-0.160248255473,0.304984451817,1.0,-0.268120571429,-0.352387036735,2.295
-0.312624351039,-0.506589310255,-0.14110237928,-2.63009499396,-0.0710159072869,2.11606267071,-0.572831507197,-1.14202411378,-0.301249045006,0.0085355742886,-0.222448329858,-0.0485256288327,-0.067961748326,-1.09895645013,0.573868463747,0.818916369535,0.00563142301635,0.0,0.818911181899,-0.573784447503,-0.0116889206316,0.0,-0.0063411475901,0.0113197561442,-0.999915822941,0.0,0.337068321385,-0.165545576015,0.305024360664,1.0,-0.260912,-0.342912914286,2.31
-0.333005974353,-0.511450649707,-0.14093748833,-2.6337510338,-0.0715893942498,2.11481356271,-0.592354101834,-1.13052069425,-0.259857478574,0.00891005091601,-0.195527318991,-0.0341614544195,-0.0654389048388,-1.07451410753,0.573993696301,0.818827158676,0.00583675612307,0.0,0.818824786896,-0.573909243759,-0.0116144390616,0.0,-0.00616056845385,0.0114461157693,-0.999915513346,0.0,0.332426583623,-0.171685282197,0.305063296131,1.0,-0.252261714286,-0.331543967347,2.328
-0.349456426616,-0.514950952139,-0.140608412862,-2.63651751314,-0.0720579522877,2.11376507253,-0.608245355022,-1.0873413743,-0.222981449904,0.0210061314226,-0.182185519782,-0.0284599646051,-0.0595356098263,-1.04851248671,0.5738542428,0.818925075202,0.00581172325107,0.0,0.818921301181,-0.573767922248,-0.0117907070556,0.0,-0.00632124699135,0.011525713142,-0.999913596154,0.0,0.328664530734,-0.176527461649,0.305018731329,1.0,-0.245053142857,-0.322069844898,2.343
-0.367873369519,-0.518326256794,-0.140336555244,-2.63921867401,-0.0724826757471,2.11282234209,-0.625911859124,-1.07630616118,-0.185224052226,0.0235400122636,-0.148324700389,-0.0185842502965,-0.0414717104027,-1.0232542466,0.573935217746,0.818867905196,0.00587082380677,0.0,0.818863972248,-0.573846967332,-0.0119247616082,0.0,-0.0063959732631,0.0116516710837,-0.999911661142,0.0,0.324505925776,-0.181963141866,0.304961787377,1.0,-0.236883428572,-0.311332506123,2.36
-0.385728816181,-0.521199830547,-0.140056375953,-2.6414267868,-0.0728292482791,2.1120066382,-0.643081790791,-1.04745506646,-0.168685876444,0.0175828307,-0.119091211347,-0.0186088029972,-0.0455031686448,-1.00198140197,0.574018983556,0.818808641991,0.00594652999452,0.0,0.81880547007,-0.573930005992,-0.0119455977755,0.0,-0.00636838930816,0.0117262769477,-0.99991096506,0.0,0.3205214498,-0.18721797506,0.30495240178,1.0,-0.228713714286,-0.300595167347,2.377
-0.402937430551,-0.523605034251,-0.139620809017,-2.6432674413,-0.073098866342,2.11128039715,-0.659863488129,-1.00889520446,-0.134797295157,0.0258227408865,-0.0995316931116,-0.0199774488981,-0.0391832155305,-0.971621970692,0.573835738311,0.818937026165,0.00595310965086,0.0,0.818933781478,-0.573746480209,-0.0119659894225,0.0,-0.00638393899494,0.0117419410416,-0.999910682083,0.0,0.316715160175,-0.192211831092,0.304947684441,1.0,-0.220544,-0.289857828572,2.394
-0.418860258141,-0.525515468532,-0.139303772367,-2.64466666573,-0.0733036724036,2.11070734065,-0.675200316829,-0.978251788459,-0.111271311259,0.032261942324,-0.084709067892,-0.0129371179276,-0.0298267881429,-0.955679593694,0.573920476828,0.818877230873,0.00600948721496,0.0,0.81887501535,-0.573831522897,-0.0119096375456,0.0,-0.0063042191894,0.0117564301421,-0.999911017626,0.0,0.313208006343,-0.196851399165,0.304970833269,1.0,-0.212854857143,-0.279752097959,2.41
-0.435216032082,-0.527128051957,-0.138950745318,-2.64587686105,-0.073439220813,2.11021136643,-0.690957532272,-0.959002666547,-0.088898300228,0.0135813850958,-0.064886674205,-0.00808809675768,-0.0276846039602,-0.917069031697,0.574031368445,0.818799011555,0.0060756579209,0.0,0.818797757517,-0.573942318573,-0.0118825139304,0.0,-0.0062424336532,0.0117958979207,-0.999910940441,0.0,0.309615242064,-0.20158916735,0.304977531167,1.0,-0.204685142857,-0.269014759184,2.427
-0.451796762944,-0.528413153697,-0.138479260421,-2.64684971912,-0.0735058788666,2.10979489919,-0.707077467874,-0.910923148966,-0.0638466043596,0.0251641025538,-0.0440354425261,-0.00290481029533,-0.022003942233,-0.881192118136,0.57398963626,0.818828021003,0.00610871406722,0.0,0.818827312931,-0.573900684869,-0.0118567451809,0.0,-0.00620295943131,0.0118078581166,-0.999911044934,0.0,0.306000356631,-0.206348498622,0.304981701705,1.0,-0.196034857143,-0.257645812245,2.445
-0.467033042068,-0.529297440182,-0.138082856977,-2.64751584652,-0.0735293945863,2.10946419103,-0.721739756905,-0.875834224705,-0.0473451623104,0.0297238738096,-0.031430216351,-0.00238084750078,-0.0190760977778,-0.850540000674,0.574130400352,0.818728991341,0.00615378179834,0.0,0.818728842412,-0.574041190657,-0.0118549961211,0.0,-0.00617362364736,0.0118448203669,-0.999910789321,0.0,0.302673358012,-0.210721572499,0.304983910029,1.0,-0.187865142857,-0.246908473469,2.462
-0.48231895362,-0.529863187148,-0.137536589295,-2.6479513992,-0.0735253104349,2.10922387447,-0.736717370415,-0.841460727617,-0.0209413397504,0.0270565544712,-0.0226779731617,-0.00302133615985,-0.0161768857765,-0.81512534166,0.573973628285,0.818839178049,0.00611730556399,0.0,0.818838675914,-0.5738848262,-0.0118395940367,0.0,-0.00618421367432,0.0118049284163,-0.99991119564,0.0,0.299371290172,-0.215073088861,0.304986140422,1.0,-0.179214857143,-0.235539526531,2.48
-0.49390381769,-0.530087597913,-0.13719095329,-2.64814226361,-0.0735216168651,2.10906710679,-0.747902571333,-0.815755435735,-0.00999036120386,0.0334805973559,-0.00868226571854,0.000215435694942,-0.0167942656985,-0.806057355145,0.574047653645,0.818787415922,0.00609965354233,0.0,0.818786498411,-0.573958551768,-0.0118742482991,0.0,-0.00622165655356,0.0118109257373,-0.999910892541,0.0,0.296850559708,-0.218384550842,0.304976869323,1.0,-0.172486857143,-0.226697012245,2.494
-0.507205813514,-0.530221592638,-0.136617286525,-2.6482637185,-0.0734730797328,2.10894609696,-0.760941095403,-0.773033383793,-0.00401716249667,0.0373995699281,-0.00435358517734,-0.0010873434684,-0.0047721437443,-0.758283411351,0.573872627171,0.818910691255,0.00601950438744,0.0,0.818908815094,-0.573784034339,-0.0118735589158,0.0,-0.00626960953662,0.0117435617542,-0.999911386451,0.0,0.293979681976,-0.222130139809,0.304975162833,1.0,-0.164317142857,-0.215959673469,2.511
-0.520157661359,-0.530168891621,-0.136138789144,-2.64827324851,-0.0734187720066,2.10888400802,-0.773409436301,-0.737472008808,0.00929323915027,0.0387486544137,-0.000751073881435,0.003553917009,-0.00532447843393,-0.713746632665,0.573954129146,0.818853954103,0.00596710878989,0.0,0.818851303724,-0.573865552132,-0.0119003094955,0.0,-0.00632041899277,0.0117166321666,-0.999911382491,0.0,0.291157583351,-0.22578826591,0.30495874885,1.0,-0.156147428572,-0.205222334694,2.528
-0.532243171044,-0.529964107216,-0.135571991431,-2.64816446455,-0.0732472698653,2.108888079,-0.785260319436,-0.706577909256,0.0122933561843,0.0316289640026,0.00859800335356,0.00417557192807,0.0011967236483,-0.68736581044,0.573826244246,0.818943716336,0.00594792305819,0.0,0.81894084026,-0.573737812644,-0.0118982938901,0.0,-0.00633160655427,0.0116987756406,-0.999911520789,0.0,0.288552318684,-0.229160089996,0.304948617572,1.0,-0.147977714286,-0.194484995918,2.545
-0.543976535542,-0.529653340355,-0.135119882545,-2.64796015068,-0.0730601269659,2.10888725098,-0.796522534668,-0.676937993502,0.0294101744696,0.0342132882155,0.0199845904019,0.00638334557678,0.000202691690017,-0.652162205687,0.573984915587,0.818832265008,0.00598208680444,0.0,0.818829661312,-0.573895998321,-0.0119212318221,0.0,-0.00632851541939,0.0117411434065,-0.999911043765,0.0,0.285989564349,-0.232446571462,0.304939801991,1.0,-0.139808,-0.183747657143,2.562
-0.554800656513,-0.529170510065,-0.134497271686,-2.64764309487,-0.0727605729617,2.10893690059,-0.807209638326,-0.63208852168,0.0288558487331,0.0277269549483,0.0211527581129,0.0202924861723,0.00564315008498,-0.616874294747,0.573804019994,0.818958884911,0.00600319622478,0.0,0.818956322006,-0.573714621191,-0.011950856817,0.0,-0.00634326105198,0.0117740318711,-0.999910563607,0.0,0.283678534757,-0.23542512268,0.304928107537,1.0,-0.131638285714,-0.173010318367,2.579
-0.565864479038,-0.528541486165,-0.133981906277,-2.64720991667,-0.0724949672625,2.10901762594,-0.817822141817,-0.60478378151,0.0381298064739,0.0251500173688,0.0277142171072,0.0172890523193,0.00385423107207,-0.581349580783,0.573948140297,0.818857657907,0.00603450401121,0.0,0.818855265688,-0.573858143732,-0.011984641375,0.0,-0.00635088837124,0.0118201755897,-0.99990997078,0.0,0.28128578334,-0.238506086672,0.304915535508,1.0,-0.122988,-0.161641371429,2.597
-0.57599250361,-0.527747933667,-0.133362465643,-2.64667974116,-0.0721541605308,2.10916532782,-0.82778724813,-0.544653081249,0.0503749766841,0.0333055172877,0.0286526830967,0.0190531524642,0.00266140170378,-0.531589856544,0.573820080832,0.818947248922,0.00605518112772,0.0,0.818944863841,-0.573729537061,-0.0120197834175,0.0,-0.00636965493274,0.0118562808465,-0.999909423948,0.0,0.279143739097,-0.241299253924,0.304895148723,1.0,-0.114337714286,-0.15027242449,2.615
-0.583982093347,-0.527076162701,-0.132893494744,-2.64620736324,-0.0718939950166,2.1092611276,-0.835506485015,-0.523391119272,0.0437652479241,0.0286615700815,0.0347415652996,0.0181269176071,0.00942023857764,-0.500016528093,0.573848119975,0.818927501122,0.00606877325842,0.0,0.818925009732,-0.57375698555,-0.0120622083571,0.0,-0.00639619624373,0.0118919747455,-0.999908830649,0.0,0.277438405097,-0.243504284097,0.304884465377,1.0,-0.107129142857,-0.140798302041,2.63
-0.593061506326,-0.526232157081,-0.132358300824,-2.64559715402,-0.0715647936851,2.10940189101,-0.844195552566,-0.490474048078,0.046699334926,0.0219296149789,0.0354233690249,0.0182989802004,0.0123607636832,-0.47821252301,0.573964498575,0.818845691521,0.00610202864813,0.0,0.818843458228,-0.573872869718,-0.0120858272514,0.0,-0.00639476200089,0.0119336717788,-0.999908343048,0.0,0.275503811275,-0.246012325387,0.304878759352,1.0,-0.0984788571429,-0.129429355102,2.648
-0.599873878303,-0.525449155578,-0.131826375727,-2.64505677448,-0.0712521712141,2.10953860894,-0.850868145202,-0.438527172708,0.0514674662959,0.0399578812041,0.0348325243436,0.0191065033776,0.0017754998544,-0.428980544508,0.573866860914,0.818914076507,0.00610803932953,0.0,0.818911586072,-0.573774601302,-0.0121354026948,0.0,-0.00643333812154,0.0119662800135,-0.999907705893,0.0,0.274091368205,-0.247869879798,0.304862933319,1.0,-0.0912702857144,-0.119955232653,2.663
-0.607083470189,-0.524633720437,-0.131238507442,-2.64446564136,-0.0709060258484,2.10968706025,-0.857881617007,-0.419950008798,0.0435770246983,0.032928490433,0.033185739773,0.024235845904,0.01284462535,-0.406734875524,0.573792438744,0.81896618186,0.00611368231944,0.0,0.818963645712,-0.573699947994,-0.0121516902091,0.0,-0.00644452818208,0.0119796621666,-0.999907473595,0.0,0.272595107504,-0.249825208199,0.304860449215,1.0,-0.0831005714287,-0.109217893878,2.68
-0.614154002403,-0.523810348726,-0.130626852674,-2.64382086247,-0.0705446044138,2.10985891076,-0.864614364832,-0.378064516281,0.0440199417198,0.0403390839588,0.0364405145026,0.0232935514685,0.00560294453336,-0.361657127015,0.573830711961,0.818939399711,0.00610905162019,0.0,0.818937229329,-0.573739027456,-0.0120867569754,0.0,-0.00639344326025,0.0119389120292,-0.999908288926,0.0,0.271067780441,-0.251847893545,0.304886524579,1.0,-0.0739697142858,-0.0972173387756,2.699
-0.620170132592,-0.523006041344,-0.130106950279,-2.64322543499,-0.0701807566872,2.11000812535,-0.870323668654,-0.339117923844,0.0500960156601,0.0340909421919,0.0375107492564,0.0222798677749,0.00557406457009,-0.331955196953,0.573897329026,0.818892408066,0.00615033739728,0.0,0.818890600258,-0.573805120692,-0.0121084754708,0.0,-0.0063865665049,0.0119857059763,-0.999907773057,0.0,0.269910378222,-0.253373533597,0.304883115334,1.0,-0.0662805714287,-0.0871116081634,2.715
-0.624841253913,-0.522384392303,-0.129574112458,-2.6427645782,-0.0698428315608,2.11013985262,-0.874814385579,-0.301361063654,0.0436796203652,0.0357265302572,0.0326765136732,0.0259077937526,0.00998521796997,-0.291405793505,0.573837219763,0.818934426941,0.00616412907084,0.0,0.818932872006,-0.573745100874,-0.0120936872897,0.0,-0.0063674206072,0.0119880466214,-0.999907867102,0.0,0.268981484866,-0.254602602561,0.304888944256,1.0,-0.0590720000001,-0.0776374857144,2.73
-0.629647632611,-0.521804731976,-0.128963540779,-2.64231312275,-0.0695029539322,2.11027030078,-0.879375037963,-0.2719933264,0.0359355665478,0.0352922448139,0.0229553397005,0.0157470229793,0.0021283337381,-0.249037709186,0.573775493134,0.818977836793,0.00614273731059,0.0,0.818976310697,-0.573684059618,-0.0120477864255,0.0,-0.00634300170984,0.0119437108911,-0.999908552868,0.0,0.268027858935,-0.255845273563,0.304907527012,1.0,-0.0509022857144,-0.0669001469389,2.747
-0.633941845863,-0.521229945509,-0.12840780259,-2.64187870002,-0.0691487605477,2.11040048639,-0.883360323089,-0.239455560074,0.0391783206507,0.0325034274429,0.0253756267436,0.0178826155846,0.0127419151522,-0.225666239216,0.573809370561,0.818953999242,0.00615632051367,0.0,0.818952837944,-0.573718226343,-0.0120163590958,0.0,-0.00630897351926,0.0119370654307,-0.999908847507,0.0,0.267185884359,-0.256953875724,0.304918629406,1.0,-0.0427325714287,-0.0561628081634,2.764
-0.637516620117,-0.520682629108,-0.127882159097,-2.6414994188,-0.0688069866061,2.11049321973,-0.886609550143,-0.200195209541,0.0353356625912,0.0332324644505,0.0247230096574,0.0166186265542,-0.000528271305311,-0.186100051613,0.57386993248,0.818911410907,0.00617645389234,0.0,0.818910255838,-0.573778204398,-0.0120545403375,0.0,-0.00632780784165,0.0119759302605,-0.999908263763,0.0,0.266499329852,-0.25785714211,0.30491067163,1.0,-0.034562857143,-0.0454254693879,2.781
-0.640703891973,-0.520244249306,-0.127343089515,-2.64118902959,-0.0684515399599,2.11057773188,-0.88947657944,-0.162421839177,0.0214678160006,0.0281385176945,0.0181327968054,0.0220262291714,0.00119731639682,-0.145964623599,0.573918490688,0.81887716578,0.00620486202728,0.0,0.818876312685,-0.573826499317,-0.0120615134139,0.0,-0.00631650527583,0.0120035712175,-0.999908003788,0.0,0.26589941593,-0.258634303934,0.304910953211,1.0,-0.0259125714287,-0.0340565224491,2.799
-0.643187892146,-0.519907437281,-0.126749802612,-2.64097223148,-0.0681056691669,2.11063234193,-0.891586325163,-0.128413780384,0.0167059081268,0.0322347435541,0.00988984733085,0.0191308479665,0.00831185265387,-0.101345872861,0.573963735382,0.81884547004,0.00620270613256,0.0,0.81884438055,-0.573871348521,-0.0120955648661,0.0,-0.00634496532566,0.0120216981079,-0.999907605826,0.0,0.265466516355,-0.259186131822,0.304904694471,1.0,-0.0198668965517,-0.0261107783251,2.817
-0.644927743644,-0.519644625345,-0.126359747584,-2.64079931252,-0.0678640727927,2.11068360713,-0.893207870135,-0.107654748632,0.014991452104,0.0212602024268,0.0101713740034,0.0159139419593,0.000284680671955,-0.0984890635528,0.573896481221,0.818892538182,0.0062118156114,0.0,0.818891450318,-0.573803846451,-0.0121113705125,0.0,-0.00635366957636,0.0120377073782,-0.999907357951,0.0,0.265163385187,-0.25958460481,0.304900420738,1.0,-0.0195468965517,-0.0256902068966,2.833
-0.646655179437,-0.519386016437,-0.12601557183,-2.64060158299,-0.0676893443032,2.11072926864,-0.894841885839,-0.0928338103626,0.0121327246557,0.0210938859327,0.012484996638,0.0114982835888,0.00638119946333,-0.0957166548389,0.573813938353,0.818950587562,0.0061843499331,0.0,0.818949173629,-0.573721504073,-0.0121092393788,0.0,-0.00636889677984,0.0120133498997,-0.999907554016,0.0,0.264851894688,-0.260001901396,0.30490729847,1.0,-0.0191868965517,-0.0252170640394,2.851
-0.648168558927,-0.51913048135,-0.125815178282,-2.6404046296,-0.067594953016,2.11079957739,-0.896353579683,-0.0902754562611,0.0129812252202,0.00742944866822,0.0102453826983,0.00371535754021,0.00459208850323,-0.0893375420355,0.573723839566,0.81901392227,0.00615613051381,0.0,0.819012308177,-0.573631864845,-0.0120859252889,0.0,-0.00636731103872,0.0119761607012,-0.999908010231,0.0,0.264560841022,-0.260405073734,0.304913546807,1.0,-0.0188468965517,-0.0247702068966,2.868
-0.649361101691,-0.5189254553,-0.125704070471,-2.64024583349,-0.067559245187,2.11084747347,-0.897523639757,-0.0835233406826,0.0176110410736,0.00584304799482,0.0144316134908,0.00437597638749,0.00013711033392,-0.0826205184349,0.573687029579,0.819039943144,0.00612458394589,0.0,0.819037997893,-0.57359535042,-0.0120780332074,0.0,-0.00637948158167,0.0119455079549,-0.999908299323,0.0,0.264316970562,-0.260736495518,0.304916959231,1.0,-0.0185668965517,-0.0244022068966,2.882
-0.650712945213,-0.518699681143,-0.125645152641,-2.64007166868,-0.0675235019604,2.11087921584,-0.898873136134,-0.0843053540923,0.0133762086972,0.00486032723165,0.00925366181635,0.00111999085192,0.000833898886796,-0.0884304518177,0.573671575927,0.819050790406,0.00612148754674,0.0,0.819048731824,-0.573579776986,-0.0120897159258,0.0,-0.00639105297049,0.0119495530656,-0.999908177096,0.0,0.264020223028,-0.26112246549,0.304917082298,1.0,-0.0182468965517,-0.023981635468,2.898
-0.652133860891,-0.518489468735,-0.125616617182,-2.63988665003,-0.0674938095336,2.11093380586,-0.900312377658,-0.0816524212809,0.0124168960952,0.000641636506725,0.0163659514841,0.000475597273044,0.00459557278088,-0.0793796588022,0.573663541738,0.819056393539,0.00612470289925,0.0,0.819054585675,-0.573572121608,-0.0120562805574,0.0,-0.00636193732374,0.0119329443464,-0.999908561116,0.0,0.263723162688,-0.261515927321,0.304928181227,1.0,-0.0179268965517,-0.0235610640394,2.914
-0.653584369056,-0.51824284474,-0.125619714022,-2.63967546176,-0.0674593050798,2.11099816762,-0.901733476242,-0.0803198861407,0.0130733096219,-0.00168324353914,0.0111454076896,0.000790324942688,0.00185566996208,-0.0780820790536,0.573710530157,0.819023339839,0.00614355649333,0.0,0.819022030797,-0.573619496035,-0.0120138977277,0.0,-0.00631572045906,0.0119244373325,-0.99990895559,0.0,0.263379819942,-0.261978501596,0.304939621157,1.0,-0.0175468965517,-0.023061635468,2.933
-0.654781027373,-0.518029254993,-0.125632170387,-2.63951328543,-0.0674281808839,2.11103794722,-0.902921292453,-0.0846522078553,0.0153998421152,-0.000926998496854,0.0116511704119,-0.000422511274014,0.000881979842752,-0.0736001106008,0.573748427539,0.818996591068,0.00617030115495,0.0,0.81899558466,-0.573657185203,-0.0120171991094,0.0,-0.00630252885559,0.0119485285406,-0.999908751235,0.0,0.2631047336,-0.262336841453,0.304937729855,1.0,-0.0172468965517,-0.0226673497537,2.948
-0.656209430345,-0.517794071304,-0.125631800601,-2.6393268265,-0.0674053713592,2.1110557517,-0.90421989657,-0.0777909505712,0.0117805602378,0.000508400547367,0.0107957931763,0.000862510692407,-0.000331257769504,-0.072965260805,0.573873977495,0.818908512767,0.00618486634809,0.0,0.818907548804,-0.573782366614,-0.0120403146176,0.0,-0.00631127039789,0.0119746875305,-0.999908383165,0.0,0.262771949837,-0.262756647302,0.304937322741,1.0,-0.0168868965517,-0.0221942068966,2.966
-0.657401076537,-0.517594543152,-0.125626485154,-2.63915207697,-0.0673775459966,2.11110991359,-0.905466318663,-0.0747411937592,0.0113761260635,-0.000946132291332,0.0102301373871,0.00112371186961,0.00858625686616,-0.0882955156521,0.57384625223,0.818927853621,0.00619647209824,0.0,0.818927259129,-0.573755012732,-0.0120031879751,0.0,-0.00627460884309,0.0119626746646,-0.999908757687,0.0,0.262506190282,-0.263115050278,0.304947943505,1.0,-0.0165668965517,-0.021773635468,2.982
-0.658611341286,-0.51737060468,-0.125600673709,-2.63896443789,-0.0673493044326,2.11117733009,-0.906736530224,-0.071321145712,0.00964917624339,0.00162852451791,0.00894349029526,0.00265826022821,0.0015764826073,-0.0749774326108,0.573800621693,0.818959829552,0.00619604926806,0.0,0.818959464856,-0.57370984296,-0.0119648616805,0.0,-0.00624412684871,0.0119399881453,-0.999909219661,0.0,0.262244074201,-0.263478382614,0.304957026071,1.0,-0.0162268965517,-0.0213267783251,2.999
-0.659813449711,-0.517144623602,-0.125531852594,-2.63879816851,-0.0673172272585,2.11119369186,-0.907959906129,-0.0757956322955,0.0126346545936,0.00225743053295,0.0111471932624,0.00635030538805,-0.000350066064743,-0.0740931714776,0.573756818583,0.818990589061,0.0061866841125,0.0,0.818989879672,-0.573665663668,-0.0120012592994,0.0,-0.00627995108431,0.0119528661612,-0.999908841448,0.0,0.261980563527,-0.263816803485,0.304952295119,1.0,-0.0158868965517,-0.0208799211823,3.016
-0.661133496157,-0.516901824116,-0.125485312264,-2.63861536586,-0.0672933647265,2.11121066831,-0.909309863877,-0.0637882825484,0.0121296194931,0.000263811346132,0.0129919243651,0.00786061672063,0.00470987207737,-0.0723620916978,0.573719083666,0.819017065193,0.0061811699421,0.0,0.819016059938,-0.573627534774,-0.012037101558,0.0,-0.00631302386086,0.0119686227607,-0.999908444708,0.0,0.261683274339,-0.264195560626,0.304948376947,1.0,-0.0155068965517,-0.0203804926108,3.035
-0.662201417131,-0.516683453524,-0.12546560214,-2.63844544139,-0.0672678117036,2.11126524544,-0.910378321324,-0.0690553468083,0.00666379109499,0.00177064579579,0.0124028362021,0.00280121798424,0.0067775571978,-0.0639535701499,0.573724428396,0.819013306175,0.0061831602374,0.0,0.819012402602,-0.573633013532,-0.0120248522335,0.0,-0.00630177047248,0.0119632667259,-0.99990857979,0.0,0.261449867405,-0.264516142681,0.304950175054,1.0,-0.0151868965517,-0.0199599211823,3.051
-0.663330594621,-0.516447751355,-0.125448018935,-2.63827553798,-0.067238069356,2.11134744355,-0.911518343754,-0.0735968909731,0.01203588473,0.000790968861825,0.00874329472443,0.000294021558383,0.000952383307449,-0.0733992285105,0.573724684858,0.819013089854,0.00618801530338,0.0,0.819012390637,-0.573633517492,-0.0120016038003,0.0,-0.00627993853523,0.0119539077148,-0.999908829075,0.0,0.261203694926,-0.264856198013,0.304947864407,1.0,-0.0148468965517,-0.0195130640394,3.068
-0.6644471953,-0.516233045565,-0.125446228364,-2.63811158438,-0.0672148130715,2.11136149516,-0.912677311145,-0.0630615642162,0.0158750913854,-0.000704314648666,0.0118342701009,0.000472023113189,-2.16697189977e-05,-0.0689037185881,0.573707246556,0.819025185426,0.00620385268687,0.0,0.819024489016,-0.573615627826,-0.0120309936246,0.0,-0.00629518113211,0.0119836062241,-0.999908377741,0.0,0.260944808165,-0.265185907572,0.304944389432,1.0,-0.0145068965517,-0.0190662068966,3.085
-0.665433857635,-0.516050826042,-0.125434878302,-2.63797036573,-0.0671925677003,2.11138014545,-0.913612352234,-0.0622119052759,0.00977234956413,0.00181986383703,0.0103557749227,-0.000168118335908,0.00282824557961,-0.0670699328935,0.573758348402,0.818989319301,0.00621284242275,0.0,0.818988632382,-0.573666474916,-0.0120475096292,0.0,-0.00630280364716,0.0120008375996,-0.999908123061,0.0,0.260718347784,-0.265474834277,0.304943178297,1.0,-0.0142068965517,-0.0186719211823,3.1
-0.666585777248,-0.515849948737,-0.125424904153,-2.63780614404,-0.0671711744495,2.11142501872,-0.914759755859,-0.0611127975853,0.0103270540401,-9.47766279663e-05,0.0104095078184,0.000142744749746,0.00318470922077,-0.0688105728553,0.573772611717,0.818979285438,0.00621827693136,0.0,0.81897875837,-0.573680881349,-0.01203273101,0.0,-0.00628737190535,0.011996919196,-0.999908267235,0.0,0.260456129627,-0.265816417121,0.304947724599,1.0,-0.0138468965517,-0.0181987783251,3.118
-0.667504541572,-0.515671682219,-0.125409899111,-2.63765202886,-0.0671483222587,2.11148574571,-0.915701911881,-0.0582304607109,0.0128824090369,0.00283512328089,0.00869679045785,0.00141413681496,0.00193831560906,-0.0555591092493,0.573760473497,0.818987789084,0.00621830246866,0.0,0.818987523457,-0.573669244694,-0.0119908721649,0.0,-0.0062532493975,0.011972831144,-0.999908769932,0.0,0.260257468368,-0.266095872153,0.304957485923,1.0,-0.0135468965517,-0.0178044926108,3.133
-0.668515889086,-0.515476325498,-0.125376672476,-2.63747490315,-0.0671245481843,2.11152513429,-0.916673844482,-0.0574407220396,0.00745158721756,0.00177855278361,0.00883824945757,0.00276621419239,0.000102887056943,-0.0524016751513,0.573788373159,0.818968302695,0.00621038724278,0.0,0.818968108186,-0.573697505451,-0.0119648198914,0.0,-0.00623604463266,0.0119516137376,-0.99990913121,0.0,0.260039487484,-0.266397895524,0.304969991036,1.0,-0.0132068965517,-0.017357635468,3.15
-0.669529772102,-0.515282449096,-0.125328085372,-2.63732186125,-0.0671053646489,2.11156162266,-0.91766925073,-0.0557922537514,0.0128488659559,0.00584419021471,0.00395023978504,0.000407370755967,0.00479992960799,-0.0580417551434,0.573785125971,0.818970689798,0.00619559265266,0.0,0.818970319004,-0.573694352146,-0.0119646900563,0.0,-0.00624447418105,0.0119393975527,-0.999909224544,0.0,0.259817675091,-0.266690875413,0.304972202357,1.0,-0.0128668965517,-0.0169107783251,3.167
-0.670439539083,-0.515095212954,-0.125290607306,-2.63716853176,-0.0670887382803,2.11160556163,-0.918642976774,-0.0578153991079,0.0114438952926,0.000143324822245,0.00877673352624,2.4976980162e-05,0.00357670989509,-0.0592017133395,0.573721134317,0.81901561919,0.00618243175387,0.0,0.819015173536,-0.573630613213,-0.0119503976239,0.0,-0.00624125035482,0.0119199305917,-0.999909476927,0.0,0.259621987753,-0.26696054896,0.304977356608,1.0,-0.0125468965517,-0.0164902068966,3.183
-0.671556412656,-0.514880241332,-0.125283095992,-2.63698944669,-0.0670659681341,2.11164047794,-0.91975304086,-0.0588586251737,0.0149244956427,-0.000421838032058,0.00588012456818,8.01299753802e-05,-0.00010860956407,-0.0511774406638,0.573740347581,0.819002107759,0.00618934115702,0.0,0.819001780216,-0.573649847621,-0.011945008527,0.0,-0.00623259254592,0.0119226443179,-0.999909498576,0.0,0.259368298004,-0.267294595397,0.304982482562,1.0,-0.0121468965517,-0.0159644926108,3.203
-0.672387448007,-0.514718604642,-0.125265849725,-2.63685883063,-0.0670526343662,2.11167272768,-0.920548478729,-0.0562452953253,0.0118577197683,0.00177033626243,0.0089655126152,-8.04415572933e-05,0.00966235506281,-0.0507885337758,0.573769697616,0.818981578657,0.0061850480186,0.0,0.818981234369,-0.573679284055,-0.0119400041383,0.0,-0.00623052947623,0.0119164802541,-0.999909584913,0.0,0.259181891006,-0.26754103532,0.30498527601,1.0,-0.0118468965517,-0.0155702068966,3.218
-0.673347278547,-0.514525831017,-0.125253365729,-2.63669816026,-0.0670301443046,2.11171218419,-0.921501468723,-0.055304820741,0.00892818678708,0.00123922453998,0.00722559531127,0.000434350075927,0.00126573013019,-0.0502512337775,0.573784313875,0.818971312128,0.00618853483621,0.0,0.818971090467,-0.573694030724,-0.0119272374596,0.0,-0.006217859531,0.0119121222307,-0.999909715708,0.0,0.258967697962,-0.267829187955,0.304990718022,1.0,-0.0114868965517,-0.0150970640394,3.236
-0.674227172092,-0.514341173572,-0.125238506902,-2.63654688153,-0.0670095674463,2.11174033988,-0.922396549064,-0.0499716070992,0.0116586279555,-1.53304166313e-06,0.00904700901065,-0.000222220149495,0.000302604692871,-0.0554044091841,0.573777919018,0.818975772485,0.00619117366325,0.0,0.818975580214,-0.57368761689,-0.0119274532609,0.0,-0.00621661527263,0.0119143587426,-0.999909696798,0.0,0.258771312786,-0.268092221021,0.304993972013,1.0,-0.0111468965517,-0.0146502068966,3.253
-0.67496944854,-0.514190853317,-0.12522914813,-2.63641380638,-0.066993008349,2.11177791474,-0.923095587426,-0.0519321218322,0.0123336216095,0.00119562497532,0.00961116088468,4.04340125173e-05,0.00145068154279,-0.0515565375745,0.573820553396,0.818945906552,0.00619043965369,0.0,0.818945859058,-0.573730541331,-0.0119034774725,0.0,-0.00619677916349,0.0119003240689,-0.999909987056,0.0,0.258608129793,-0.268318288717,0.305002308268,1.0,-0.0108468965517,-0.0142559211823,3.268
-0.675826373173,-0.513997057165,-0.125216425762,-2.63626775442,-0.0669702376242,2.11183333815,-0.923940701394,-0.0486174865001,0.00669004966374,-0.000570658853663,0.00902868277468,0.000877937453491,0.00155676708128,-0.0446892819331,0.57383849753,0.818933313024,0.0061930988567,0.0,0.818933376734,-0.573748618125,-0.0118909449794,0.0,-0.00618472813122,0.0118954463846,-0.999910119707,0.0,0.258420001129,-0.268577778884,0.30500206885,1.0,-0.0104868965517,-0.0137827783251,3.286
-0.676679258669,-0.513809238884,-0.125193011889,-2.63614464694,-0.0669467421609,2.1118558209,-0.924807249411,-0.0502196926283,0.0103241250176,0.000131728466635,0.00977864201297,0.000426673925129,0.000481309829181,-0.0455089521161,0.573827228138,0.818941160881,0.00619952919481,0.0,0.818941071807,-0.57373687057,-0.0119277473817,0.0,-0.00621134439585,0.011921744832,-0.999909641518,0.0,0.258225111499,-0.268823053996,0.30499104684,1.0,-0.0101268965517,-0.013309635468,3.304
-0.677357213057,-0.5136623634,-0.125174756268,-2.63604412397,-0.0669253222468,2.11187788194,-0.925490660341,-0.0448189787689,0.0112158405234,-0.000808957586316,0.00771122524236,0.000148942919983,0.000551729029776,-0.0454360828404,0.573824224503,0.818943217215,0.00620590465936,0.0,0.818943080924,-0.573733591391,-0.0119475193266,0.0,-0.00622392377682,0.011938288543,-0.999909365912,0.0,0.258071498739,-0.269019077725,0.304984734348,1.0,-0.00982689655173,-0.0129153497537,3.319
-0.678193243346,-0.513476148702,-0.125151378135,-2.63591001306,-0.0669006021135,2.111929576,-0.926304237058,-0.0408958784692,0.0057147409821,0.000117507501819,0.0107563998744,0.00130662575439,0.0038817153744,-0.0432813463128,0.573843544512,0.818929673254,0.00620673719098,0.0,0.818929576108,-0.573752958152,-0.0119431691381,0.0,-0.00621960152269,0.0119366209847,-0.999909412715,0.0,0.257887833763,-0.269266797475,0.304981776664,1.0,-0.00944689655173,-0.0124159211823,3.338
-0.678906063087,-0.513311270654,-0.125127478138,-2.63579473364,-0.0668827724464,2.11195213048,-0.927000503381,-0.0416545616093,0.00847755777799,0.00326464842112,0.00841097050635,0.000837628706278,0.000127189300528,-0.0439696312842,0.573853772939,0.81892251079,0.00620608621257,0.0,0.818922262017,-0.573762912658,-0.0119664419476,0.0,-0.00623888670129,0.011949520085,-0.999909138503,0.0,0.257728410812,-0.269474406011,0.304975667181,1.0,-0.00910689655173,-0.0119690640394,3.355
-0.679466695369,-0.513182441086,-0.125108457017,-2.63571050852,-0.0668656114326,2.11196798677,-0.927578424517,-0.0405141039759,0.00991440362103,-0.000240205214684,0.00685900330742,0.00183700998122,0.000204822371908,-0.0435620844245,0.573837878418,0.818933620053,0.00620984221462,0.0,0.818933257562,-0.573746694448,-0.0119915458165,0.0,-0.00625752405857,0.0119668799236,-0.999908814431,0.0,0.257601547384,-0.269635313704,0.304968090068,1.0,-0.00882689655173,-0.0116010640394,3.369
-0.680186622912,-0.513003768947,-0.125057106204,-2.63560332029,-0.0668384447081,2.11200046856,-0.928353425522,-0.036532154158,0.00787927279078,0.00125273432882,0.00965935946909,0.00447254014751,0.00658339705092,-0.0381818687031,0.573773583018,0.81897870107,0.00620560445989,0.0,0.818978064239,-0.573682012569,-0.0120260405321,0.0,-0.00628914848384,0.0119827089979,-0.999908426455,0.0,0.257446427234,-0.269836868742,0.304954686581,1.0,-0.00844689655173,-0.011101635468,3.388
-0.680744873894,-0.512875575508,-0.125029036849,-2.63553742069,-0.066822459473,2.11202356503,-0.928906797022,-0.0349263393263,0.00906189512283,0.000849006270929,0.00440868631407,0.00103965082929,0.000890294039666,-0.0297521229144,0.573768046946,0.81898257736,0.00620589928892,0.0,0.818981717068,-0.573676043957,-0.0120619484071,0.0,-0.00631847149135,0.0120035097403,-0.999907992103,0.0,0.257318985548,-0.269991447168,0.304939839464,1.0,-0.00814689655173,-0.0107073497537,3.403
-0.681333068079,-0.512749092173,-0.125014789454,-2.63546726817,-0.0667995864305,2.11203597934,-0.929486049136,-0.0356768994955,0.00995053072099,0.00297661979979,0.00827138139594,0.000221577313647,4.0216214725e-05,-0.0369422308865,0.573778812557,0.81897492977,0.00621977248628,0.0,0.818973989684,-0.57368625124,-0.0121010851121,0.0,-0.00634240947966,0.0120374098917,-0.999907433018,0.0,0.257180206162,-0.270155539979,0.304926320314,1.0,-0.00782689655173,-0.0102867783251,3.419
-0.681937396651,-0.512615172578,-0.124994590962,-2.635385508,-0.0667742244562,2.11205262444,-0.930046043852,-0.0328804440771,0.00849397433784,0.000826945935845,0.00398859647094,0.000624411449893,0.00236588176051,-0.0355122880885,0.573826050801,0.818941722841,0.00623417304038,0.0,0.818940765728,-0.573733026099,-0.012131936907,0.0,-0.00635872077345,0.0120672722197,-0.999906969478,0.0,0.257032395742,-0.270338348308,0.304915945699,1.0,-0.00746689655173,-0.00981363546799,3.437
-0.682531279207,-0.512482697367,-0.124991731718,-2.63529268858,-0.0667493495235,2.11207827934,-0.930620733644,-0.0379670673889,0.00582729218012,-6.49388848055e-05,0.00764615190453,0.000835536869478,0.000350430690005,-0.0336876848995,0.573845123974,0.818928267173,0.00624610416162,0.0,0.818927397437,-0.573751911599,-0.0121411929162,0.0,-0.00635917430733,0.012082502805,-0.999906782669,0.0,0.25690560764,-0.270501193166,0.304911230795,1.0,-0.00714689655173,-0.00939306403942,3.453
-0.683054698175,-0.512375727305,-0.1249908381,-2.63520757116,-0.0667310320034,2.11209601636,-0.931144129414,-0.0340313046751,0.00619462573718,-0.000779826379413,0.00869245359486,5.27891347465e-05,0.000270413931781,-0.0307452773196,0.573856724936,0.81892005283,0.00625725341737,0.0,0.818919318459,-0.573763440303,-0.0121413066957,0.0,-0.0063526985822,0.0120917890052,-0.999906711578,0.0,0.256785143228,-0.27065681155,0.304911851327,1.0,-0.00682689655173,-0.00897249261084,3.469
-0.683563356757,-0.51227568304,-0.124970305775,-2.63512116982,-0.0667069831077,2.11211662512,-0.931676072444,-0.0306494089434,0.011437164769,0.00258303360449,0.00278364103157,0.0044311171824,0.00403300095574,-0.0323102794915,0.573837729549,0.818933322771,0.00626257948717,0.0,0.818932720186,-0.573744543618,-0.0121303494793,0.0,-0.0063409486786,0.0120897162231,-0.999906811224,0.0,0.256674456468,-0.270804724111,0.304916323242,1.0,-0.00648689655173,-0.00852563546799,3.486
-0.684043806546,-0.512189227177,-0.124936282528,-2.63504170255,-0.0666868006831,2.11214792723,-0.932162726777,-0.0278706433688,0.00318047247022,0.00308419362363,0.00285434528792,0.0031225934539,0.000868688046539,-0.0247740247561,0.573821070147,0.818945044738,0.00625620127086,0.0,0.818944534471,-0.573728251325,-0.0121033050667,0.0,-0.00632270402587,0.0120688456657,-0.999907178881,0.0,0.256574441489,-0.27094282664,0.304923897606,1.0,-0.00614689655173,-0.00807877832513,3.503
-0.684495988618,-0.512100155819,-0.124892348618,-2.63496284641,-0.0666667825686,2.11217663833,-0.932608167384,-0.0256554903387,0.00776885398868,0.00657124361682,0.00207024981148,0.000159630200507,0.00523179654111,-0.0255187915181,0.573807870719,0.818954378646,0.006245005829,0.0,0.818953862234,-0.573715371439,-0.0120826739014,0.0,-0.0063124243922,0.0120477369835,-0.999907498388,0.0,0.256483669465,-0.271070963552,0.304930235205,1.0,-0.00580689655173,-0.00763192118227,3.52
-0.68493638842,-0.512017720258,-0.12484479687,-2.63487936228,-0.0666478558762,2.11219572004,-0.933050060763,-0.0287911523119,0.0100738466592,0.0047663916258,0.00599698345518,6.82669717042e-05,0.000294103993276,-0.0276803989397,0.573785068778,0.818970460038,0.00623115839478,0.0,0.818969912961,-0.573692921283,-0.0120607062694,0.0,-0.00630271204608,0.0120236159164,-0.999907849995,0.0,0.256396447242,-0.271195324973,0.304940390678,1.0,-0.00546689655173,-0.00718506403942,3.537
-0.685402613846,-0.511939960288,-0.124812296817,-2.63481483404,-0.0666235502473,2.11222525689,-0.933499062663,-0.021165310037,0.0064058798073,0.00102633658441,-0.000485116580005,0.00537725044318,-0.00048321171246,-0.0224646302823,0.573789711484,0.818967209829,0.00623082026479,0.0,0.818966782647,-0.57369780178,-0.0120410985686,0.0,-0.00628677804878,0.0120121245698,-0.999908088419,0.0,0.256296743883,-0.271325545691,0.304944208017,1.0,-0.00508689655173,-0.00668563546799,3.556
-0.685718770925,-0.511878545929,-0.12480781912,-2.63476703303,-0.0666135283644,2.1122464418,-0.933818656855,-0.0224324339891,0.00537352991679,0.002283163505,0.00141645565074,0.000691201831544,0.0042938448245,-0.0298371092986,0.573790447116,0.818966672905,0.00623364829363,0.0,0.818966340613,-0.573698635965,-0.0120314145636,0.0,-0.00627721288814,0.0120088900819,-0.999908187364,0.0,0.256225375564,-0.271419283726,0.304945100466,1.0,-0.00480689655173,-0.00631763546799,3.57
