nelsonifechukwu/NELSON_IML_WORK/CNN-GradCAM/train2dof/data_sample_2022-02-21-10-44-33/robot_state.csv
position_joint1,position_joint2,position_joint3,position_joint4,position_joint5,position_joint6,position_joint7,velocity_joint1,velocity_joint2,velocity_joint3,velocity_joint4,velocity_joint5,velocity_joint6,velocity_joint7,ee_T_00,ee_T_10,ee_T_20,ee_T_30,ee_T_01,ee_T_11,ee_T_21,ee_T_31,ee_T_02,ee_T_12,ee_T_22,ee_T_32,ee_T_03,ee_T_13,ee_T_23,ee_T_33,v_x,v_y,time
0.465080072965,0.547693549185,-0.123957527579,-1.35573401871,0.0794995849515,1.89409202968,0.159172493054,0.000186264775742,0.00128015046227,0.000639736207083,0.000534548825971,0.000179772669692,-9.03077406239e-05,-0.000720251947291,0.573784024297,0.818992195869,0.00210320426845,0.0,0.818950987338,-0.573724778466,-0.0118281788053,0.0,-0.00848068900942,0.00850940507963,-0.999927831365,0.0,0.661691648966,0.260924928699,0.303321808571,1.0,0.0,0.0,0.0
0.465075223181,0.547693424018,-0.123957287929,-1.35573401871,0.0795015004838,1.8940919641,0.159171535082,-0.00304004744609,0.00020487406436,0.000466566599599,0.000658250367574,-0.000181303644197,0.000264379209441,-0.00280220340818,0.573787550966,0.818989722038,0.00210438909951,0.0,0.818948510617,-0.573728281635,-0.0118297384398,0.0,-0.00848124994502,0.00851130683579,-0.999927810422,0.0,0.661692742041,0.260922166004,0.303321887169,1.0,-0.00014,-0.000184,0.008
0.465069459568,0.547683811886,-0.123957367823,-1.35574431492,0.0795015002551,1.89409114918,0.159169312756,-0.00039831394607,0.000814075099939,0.000809871430557,9.0199957127e-05,-0.000282559668384,-0.000118947491461,-0.00202391631577,0.57379104655,0.818987274729,0.00210371860082,0.0,0.818946043605,-0.573731768432,-0.0118314182494,0.0,-0.00848297411866,0.00851175776221,-0.999927791958,0.0,0.661691995361,0.260917154347,0.303323727665,1.0,-0.00048,-0.000630857142857,0.025
0.465071590016,0.547662311732,-0.123955584236,-1.3557577307,0.0794973577113,1.89409657076,0.159180290309,0.00117525296854,-0.00424534909007,0.00107456180303,4.18207020511e-05,2.65304789363e-05,0.000628803368572,0.00200198603845,0.573796678742,0.818983302217,0.00211401396504,0.0,0.818942228341,-0.57373738256,-0.0118232565388,0.0,-0.00847032392411,0.00851556459217,-0.999927866785,0.0,0.661689837842,0.260917985307,0.303332977642,1.0,-0.00082,-0.00107771428571,0.042
0.465073672449,0.547579326536,-0.123957978526,-1.35583483215,0.0794980254695,1.89410668974,0.159169007588,-0.00241661459025,-0.00667432484589,0.000751902344574,-0.00997893195751,-0.00027092179715,0.000707444196698,-0.000422077389012,0.573801801252,0.818979672486,0.00212975008607,0.0,0.818938746869,-0.573742385485,-0.0118216274878,0.0,-0.00845990759279,0.00852757019502,-0.999927852652,0.0,0.661678037639,0.260902953974,0.303355058564,1.0,-0.00116,-0.00152457142857,0.059
0.465067259775,0.547438462196,-0.123955431241,-1.35602053481,0.0794959911854,1.89414852446,0.159170554464,0.000559031429121,-0.00941287477174,-0.00251547269805,-0.0121007007629,-9.92852862189e-05,0.00190267680557,-0.000375808573199,0.573806089761,0.818976651114,0.00213616120797,0.0,0.818935677863,-0.573746516009,-0.0118337564535,0.0,-0.0084661181787,0.00853982456273,-0.999927695506,0.0,0.66164703792,0.260890261079,0.303370967799,1.0,-0.0015,-0.00197142857143,0.076
0.465049877299,0.547303530584,-0.12395590774,-1.35622434065,0.0794911019746,1.89423157103,0.159163580471,-0.00132349485256,-0.0100466911043,0.00127582550458,-0.0184364939336,5.89834709298e-05,0.00636950369473,-0.000804947407674,0.573825111065,0.818963283116,0.00215167873785,0.0,0.818922458893,-0.573765420252,-0.0118319797524,0.0,-0.00845556092425,0.00855170978518,-0.99992768326,0.0,0.661625356464,0.260860914511,0.303376761546,1.0,-0.00184,-0.00241828571429,0.093
0.465035672439,0.547118579526,-0.123955770032,-1.35642615311,0.0794889609579,1.89434399744,0.159153846182,-0.000619389096142,-0.0129229828747,0.00187481364014,-0.0108504409818,0.000155937779435,0.00617968850692,-0.00318457212171,0.573839558725,0.818952927499,0.00223836669312,0.0,0.818913196662,-0.57377949348,-0.0117905087576,0.0,-0.00837170393758,0.008599053925,-0.999927982829,0.0,0.661610187026,0.260837372778,0.303421468196,1.0,-0.00216,-0.00283885714286,0.109
0.465022939145,0.546926928345,-0.123950446255,-1.35666920972,0.0794875076311,1.89447918377,0.15913380358,-0.000169510971437,-0.0104174158549,0.00200564056811,-0.0206296986279,0.000657397360172,0.0134482079727,-0.00175815093498,0.573843308375,0.818950080801,0.00231721612769,0.0,0.818911295637,-0.573782860301,-0.0117586565395,0.0,-0.00830033363263,0.00864538728259,-0.999928178291,0.0,0.661588652333,0.260814652869,0.303453089569,1.0,-0.0025,-0.00328571428571,0.126
0.464990323291,0.546684861535,-0.123960428987,-1.35703069772,0.0794786254507,1.89460616146,0.159102794613,-0.00256902756996,-0.0131107878776,-0.000525538347028,-0.0226877762265,0.00034887810652,0.00412820710302,-0.0015617554649,0.573869415544,0.818931754615,0.00232853778597,0.0,0.818893043795,-0.573808845668,-0.0117617328294,0.0,-0.0082960806495,0.00865668880782,-0.999928115809,0.0,0.661548743666,0.26075474895,0.303463811695,1.0,-0.00286,-0.00375885714286,0.144
0.464951629413,0.546452108003,-0.123953486856,-1.3573856317,0.0794703633678,1.8947337523,0.158964914026,-0.00545341558453,-0.0152367869122,0.0010086462395,-0.024455783332,0.000313209366374,0.0115275574223,-0.00637284320647,0.573800972748,0.818979669689,0.00234333319206,0.0,0.818940987303,-0.57374018443,-0.0117731468821,0.0,-0.00829766328267,0.00867466174528,-0.999927946918,0.0,0.661507855907,0.260701419933,0.303470540159,1.0,-0.00316,-0.00415314285714,0.159
0.464900892369,0.546137512023,-0.123957563096,-1.35789687153,0.0794524382313,1.89491378622,0.158942674802,-0.000601634519379,-0.0151867866059,4.15952838459e-05,-0.0282760855678,9.18448994993e-05,0.0121679660153,-0.000943496658409,0.573850970667,0.818944662478,0.00233455869971,0.0,0.818905759875,-0.573790098505,-0.0117909373465,0.0,-0.00831673866228,0.00867819148941,-0.999927757816,0.0,0.661449896769,0.260618261231,0.303465711181,1.0,-0.00354,-0.00465257142857,0.178
0.464848323709,0.54584391684,-0.123954832699,-1.35838228833,0.0794317804824,1.89508112574,0.158898151298,-0.00151718172842,-0.0205840239135,0.00149045572801,-0.0318812481076,-0.00519373023977,0.00981562274,-0.00368126031003,0.57387726256,0.818926283614,0.00231871163984,0.0,0.81888706549,-0.57381633368,-0.011812538992,0.0,-0.00834324467803,0.0086778775871,-0.999927539729,0.0,0.661393801688,0.260539318653,0.303456950068,1.0,-0.00386,-0.00507314285714,0.194
0.464786231513,0.545524539937,-0.123955174835,-1.35894570182,0.0793582510945,1.89526674009,0.158815519665,0.00046250333973,-0.0235554785759,0.00034526699564,-0.0384375930727,-0.00222123765716,0.0155703460046,-0.00125282738136,0.573872566864,0.818929775002,0.00224666807413,0.0,0.818889928979,-0.573812236176,-0.0118130746415,0.0,-0.00838507436533,0.00861913927187,-0.999927697869,0.0,0.661330216711,0.260436056689,0.303430888059,1.0,-0.00418,-0.00549371428571,0.21
0.464725411858,0.545109975156,-0.12396683872,-1.359656109,0.0792918329398,1.89549323747,0.158707213356,-0.00126089006891,-0.0258695389059,-0.000200299078444,-0.0438912477581,-5.87870869478e-05,0.00981125870832,-0.0126393399782,0.573863689433,0.818936197405,0.0021719649068,0.0,0.818895586264,-0.573803862446,-0.0118276431167,0.0,-0.00843996572113,0.00856623231846,-0.999927690707,0.0,0.661245320504,0.260314813826,0.303406157788,1.0,-0.00454,-0.00596685714286,0.228
0.464657286942,0.544712104308,-0.123962641793,-1.36031829354,0.0792807045804,1.89572791073,0.158659937444,-0.00291872927544,-0.0246339575354,-0.000917410538996,-0.0405141537243,-0.00556069157657,0.0152548833998,-0.00514132309508,0.573903963674,0.818908015546,0.0021562594872,0.0,0.818866924247,-0.573843914526,-0.0118688262141,0.0,-0.00848228384724,0.00857742112453,-0.999927236707,0.0,0.661161513792,0.260207062178,0.303389890063,1.0,-0.00488,-0.00641371428571,0.245
0.464609029837,0.544290501387,-0.123970012226,-1.36101521276,0.0792548662265,1.89597232005,0.15854042863,-0.000898145633355,-0.0293268945338,0.000730626087813,-0.0520809631642,0.000168162471067,0.013940481711,-0.016847241587,0.573890563096,0.818917440729,0.0021433061251,0.0,0.818876021134,-0.573830406395,-0.0118942679446,0.0,-0.00851069309692,0.00858127533625,-0.999926962241,0.0,0.661083054933,0.260111989614,0.303380905792,1.0,-0.00518,-0.006808,0.26
0.464534616147,0.543764462427,-0.123971000497,-1.36186145746,0.0792167808855,1.89627661039,0.158460970065,-0.00146125991218,-0.0312359200165,-0.000390548992834,-0.0503328108065,-0.000778797604313,0.0204764826131,-0.0100742260965,0.573924116915,0.818893944917,0.00213586111645,0.0,0.818852298372,-0.573863855209,-0.0119136911062,0.0,-0.00853052025296,0.00858667475164,-0.999926746937,0.0,0.660984594074,0.259983170011,0.303376742211,1.0,-0.00554,-0.00728114285714,0.278
0.464448668323,0.5432362556,-0.123971167192,-1.36270952589,0.0791756519325,1.89657402909,0.158333652957,-0.000776234948332,-0.0304595313233,0.000527472773262,-0.0571276549851,-0.00465812768702,0.0178207781844,-0.0103035193816,0.573926541241,0.818892280916,0.00212236103366,0.0,0.818850335705,-0.573866210887,-0.0119351002944,0.0,-0.0085557749437,0.00858793222055,-0.999926520368,0.0,0.660887251542,0.259846062937,0.303372553363,1.0,-0.00588,-0.007728,0.295
0.464385931654,0.542714311826,-0.123978842085,-1.36355006313,0.0791096404279,1.8968629171,0.15825014701,-0.00215258263733,-0.0330751836322,0.000224691644969,-0.0567011284294,-0.000560809232147,0.0165941343232,-0.00250311223726,0.573943945475,0.81888017479,0.0020865497161,0.0,0.818837900333,-0.573883897538,-0.0119378400771,0.0,-0.00857838844598,0.00856036183624,-0.999926563032,0.0,0.660786729047,0.259716159234,0.303366917705,1.0,-0.0062,-0.00814857142857,0.311
0.464311875408,0.542116970537,-0.12397255726,-1.36447264587,0.079065415478,1.89719906585,0.158107747685,-0.000704719827004,-0.0370305189769,0.00153047291875,-0.0602844460422,-0.000121106401219,0.0258314364154,-0.0058655844441,0.573923012444,0.818894801467,0.00210400053462,0.0,0.818852602291,-0.573862743236,-0.0119463194668,0.0,-0.00857553649511,0.00857929914709,-0.999926425193,0.0,0.660677107795,0.259584858002,0.303379173144,1.0,-0.00654,-0.00859542857143,0.328
0.464245402216,0.541567660338,-0.123983566919,-1.3653174535,0.0790161788349,1.8975179118,0.158002126376,-0.00921437691867,-0.0362576362869,-0.00530770061751,-0.0571524055823,-0.000408791619032,0.0262133674675,-0.00699037633459,0.573932470461,0.818888126964,0.00212173726978,0.0,0.818846201169,-0.573872169565,-0.0119322559307,0.0,-0.00855374142535,0.00858585093197,-0.999926555639,0.0,0.660582845044,0.259455165261,0.303393463158,1.0,-0.00684,-0.00898971428571,0.343
0.464161635756,0.540908779711,-0.123977922852,-1.3663295273,0.0789594252538,1.89789067263,0.157876479777,-0.00648263057599,-0.0416201740001,0.00596917988897,-0.0594738570899,-0.00844297671107,0.0218010989203,-0.0035193903402,0.573935171521,0.818886180895,0.00214208557047,0.0,0.818844443362,-0.573874709828,-0.0119307123401,0.0,-0.00854077116468,0.0086016559084,-0.999926530673,0.0,0.66046456844,0.259307735592,0.303409650832,1.0,-0.00718,-0.00943657142857,0.36
0.464066110198,0.54012762241,-0.123989160561,-1.36753658183,0.0788815605671,1.89833912759,0.157719443274,-0.00812954253351,-0.0436950409353,-0.000663264150081,-0.0641495968779,-0.00329291929339,0.0260088339471,-0.00655447012329,0.573938744806,0.818883641322,0.0021554782951,0.0,0.818842171342,-0.57387832207,-0.0119128834167,0.0,-0.00851844709014,0.00860242750601,-0.999926714465,0.0,0.660327471192,0.259122943387,0.303426446336,1.0,-0.00756,-0.009936,0.379
0.463967663321,0.539433967055,-0.123991669083,-1.36862449861,0.0788259168173,1.898753978,0.157588524276,-0.00557412976159,-0.0433441037626,-0.00297305911684,-0.0714709902067,-0.00610278000737,0.0317075517181,-0.00977055425184,0.573959331779,0.81886915554,0.00217680282325,0.0,0.818827893902,-0.573898749981,-0.0119101570131,0.0,-0.0085037595202,0.00861853856542,-0.999926700747,0.0,0.66020618509,0.258955597333,0.303434823909,1.0,-0.00788,-0.0103565714286,0.395
0.46386070885,0.538693629557,-0.123990670334,-1.36979030817,0.078750776591,1.89919792278,0.1574468732,-0.00494190615389,-0.0434150647522,0.000813047071204,-0.068270095244,-0.00209562119835,0.0261547951744,-0.00605242091427,0.573974630397,0.818858400012,0.00218890194828,0.0,0.818817340196,-0.573914042847,-0.0118988116194,0.0,-0.00848736368621,0.00862209287466,-0.999926809408,0.0,0.660076178903,0.258774871841,0.303441373801,1.0,-0.00822,-0.0108034285714,0.412
0.463736704904,0.537900464891,-0.12399563603,-1.37101544649,0.0786884680824,1.89967361019,0.157290606371,-0.00841957196109,-0.0454813259652,-0.000496414682076,-0.0758186678455,-0.000492225793743,0.0232422498306,-0.00662545981308,0.574002779058,0.818838557245,0.00223018032136,0.0,0.818797978162,-0.573941965087,-0.0118843835103,0.0,-0.00845156008988,0.00864790279929,-0.999926889782,0.0,0.659944977509,0.258577323331,0.303459843937,1.0,-0.00856,-0.0112502857143,0.429
0.463611457933,0.536942261794,-0.123992434975,-1.37251658105,0.0785991908099,1.900230382,0.157108593654,-0.0064610730298,-0.0520018002396,0.00310211385348,-0.0780154493993,-0.00606076436593,0.0261484126513,-0.0108346423231,0.574012856893,0.818831458471,0.00224268603484,0.0,0.818791001219,-0.573951949969,-0.0118828595615,0.0,-0.00844302775711,0.00865737199007,-0.999926879923,0.0,0.659769980678,0.258354263246,0.30347006059,1.0,-0.00896,-0.011776,0.449
0.46352617057,0.536299660751,-0.124007355789,-1.37352176488,0.0785405209226,1.9006174213,0.156985241223,-0.00702166085489,-0.0545587006374,0.000148034694189,-0.0757034754788,-0.000681461083701,0.0284868014117,-0.00717735953138,0.574031866583,0.818818084713,0.00225991025597,0.0,0.818777918241,-0.573970957508,-0.0118662310767,0.0,-0.00841932384757,0.00866212616185,-0.999927038616,0.0,0.659659652813,0.258195221267,0.303479269114,1.0,-0.00922,-0.0121177142857,0.462
0.463405372175,0.535373430396,-0.124012573341,-1.37498132061,0.0784592077817,1.90115067789,0.156803083438,-0.00780078145599,-0.050186668058,-8.52948963793e-05,-0.0833337829702,-0.00173525910259,0.0349371519357,-0.0135637915401,0.574043661618,0.818809810308,0.00226185757054,0.0,0.818769607534,-0.573982679948,-0.0118726492332,0.0,-0.00842333677187,0.00866752615102,-0.999926958026,0.0,0.659488457106,0.25797444842,0.303484620048,1.0,-0.00958,-0.0125908571429,0.48
0.46328899743,0.534487638261,-0.124011650011,-1.37642393749,0.0783755027628,1.90167642309,0.15662967057,-0.00812800418555,-0.0513658626061,0.00159917538259,-0.0884765224161,-0.00529648969395,0.0251458351258,-0.0134284634374,0.574052999843,0.818803333991,0.00223618385478,0.0,0.818762728021,-0.573992048105,-0.011894150567,0.0,-0.00845558118462,0.00865894351835,-0.99992676024,0.0,0.659315850955,0.257760761511,0.303468470038,1.0,-0.00992,-0.0130377142857,0.497
0.463167114228,0.533567764896,-0.124017687348,-1.37790477919,0.0782940616147,1.90222070449,0.156437609637,-0.00583409219236,-0.0532037250429,-0.000521318888869,-0.0844184477265,-0.00781164054423,0.038912118525,-0.0233976678174,0.574059056726,0.818799121102,0.00222386483776,0.0,0.818758284893,-0.573998082113,-0.0119088014033,0.0,-0.0084745851327,0.00865732974116,-0.999926613331,0.0,0.659141468661,0.257536949743,0.303459826669,1.0,-0.01026,-0.0134845714286,0.514
0.463044716675,0.532667078707,-0.12401549702,-1.37933601544,0.0782140460454,1.90276147129,0.156266652497,-0.00807522851176,-0.0590777185514,0.000203442557861,-0.0917991197289,-0.00940201255929,0.0374164820842,-0.00876238447652,0.574074613868,0.818788183037,0.0022351580593,0.0,0.818747423355,-0.574013519827,-0.0119114527675,0.0,-0.00847010889967,0.00866825944079,-0.99992655657,0.0,0.658975234677,0.257323224165,0.303460500923,1.0,-0.01058,-0.0139051428571,0.53
0.46291683236,0.531756696699,-0.124018418517,-1.38080220596,0.0781294740545,1.90329597111,0.156075842051,-0.00912322746199,-0.0640828848606,-0.000278848414341,-0.0973775640267,-0.00575318247308,0.0350178683263,-0.00603620933716,0.574082435943,0.818782746207,0.00221769173781,0.0,0.818741702084,-0.574021353087,-0.0119272113381,0.0,-0.00849295595769,0.00866308603837,-0.999926407612,0.0,0.658802319779,0.257097758876,0.303450811959,1.0,-0.0109,-0.0143257142857,0.546
0.462787927604,0.530753456512,-0.124018667011,-1.38242843556,0.0780270977764,1.90386834069,0.155865253045,-0.0111649958358,-0.0575764214233,-0.000962657121666,-0.0993361744455,-0.00236625180138,0.0279309300039,-0.0195236391911,0.574076626205,0.818786941962,0.00217205416391,0.0,0.81874526835,-0.574015694465,-0.0119547046553,0.0,-0.00854172734216,0.00864144195961,-0.999926179463,0.0,0.65860229261,0.256855127145,0.303433373505,1.0,-0.01124,-0.0147725714286,0.563
0.462648843393,0.52973421266,-0.124018693319,-1.3840687094,0.0779275643395,1.90445798113,0.155653499029,-0.00306596195132,-0.0617521017725,-0.000209780220877,-0.0987635307045,-0.0118991047296,0.0353270280826,-0.0113130605965,0.574079455803,0.818785030449,0.00214458372428,0.0,0.818742948497,-0.574018586128,-0.0119747220221,0.0,-0.00857385729159,0.00863047086688,-0.999925999234,0.0,0.658404801049,0.256606116202,0.303421795098,1.0,-0.01158,-0.0152194285714,0.58
0.462514594901,0.5287295295,-0.124016607234,-1.38563879287,0.0778297273789,1.90504752172,0.155438333006,-0.00421845837528,-0.0699116087606,0.00130267996326,-0.101094378263,-0.0065966444728,0.0352374707402,-0.0222030099555,0.574070608847,0.81879118376,0.00216341305641,0.0,0.81874935332,-0.574009668681,-0.0119642634705,0.0,-0.00855457814022,0.00863979139855,-0.999926083867,0.0,0.658221057182,0.256369946533,0.303433044991,1.0,-0.0119,-0.01564,0.596
0.462364003184,0.527548531247,-0.124019115932,-1.38746845427,0.0777185217771,1.90576004389,0.155179790878,-0.0101488504947,-0.0667510528025,0.000555170103861,-0.102889079772,-0.00540301178851,0.0344875769472,-0.0175881237177,0.574053304454,0.818803176844,0.00221543149369,0.0,0.818762068668,-0.573992199131,-0.0119321896036,0.0,-0.00849863798414,0.00866379094889,-0.999926353227,0.0,0.658011235178,0.256098044607,0.303455432566,1.0,-0.01226,-0.0161131428571,0.614
0.462214884408,0.52639152737,-0.124021978925,-1.38927530672,0.077596040268,1.90643377783,0.154942490725,-0.00930858443452,-0.0656642547958,3.44879796196e-05,-0.109350788706,-0.00542270186019,0.0389782059589,-0.00498165700088,0.57404767404,0.818807092257,0.00222721793824,0.0,0.81876624996,-0.57398663655,-0.011912845554,0.0,-0.00847609228636,0.00866227893629,-0.999926557695,0.0,0.657798121989,0.255824907581,0.303468106316,1.0,-0.0126,-0.01656,0.631
0.462066459086,0.525266202652,-0.124033536811,-1.39098993671,0.0774888362665,1.90704585268,0.154708058794,-0.0125269228019,-0.0730894679607,-0.000845019940326,-0.107768732053,-0.0085950939543,0.0355179224144,-0.015719264747,0.574048696745,0.818806330934,0.00224345463318,0.0,0.818765733321,-0.573987628088,-0.0119005732074,0.0,-0.00845671229825,0.00866853921437,-0.999926667534,0.0,0.657593919568,0.255556026314,0.303497019391,1.0,-0.01292,-0.0169805714286,0.647
0.46191238501,0.524106239159,-0.124048743894,-1.39286345478,0.0773684759516,1.9077202002,0.154433136233,-0.00855914578288,-0.0656809310124,-0.00079931277753,-0.113195585528,-0.0109574095189,0.0391494838485,-0.0210912823706,0.574028692761,0.818820466535,0.00220235605684,0.0,0.818779401301,-0.573967860604,-0.0119136014496,0.0,-0.00849118258445,0.00864215922823,-0.999926603758,0.0,0.657368167891,0.25526503443,0.303479937297,1.0,-0.01326,-0.0174274285714,0.664
0.461765154225,0.522981946924,-0.124050651918,-1.39468091251,0.0772567815808,1.90840411511,0.154201157437,-0.0102670653371,-0.0700361178587,0.0013099927992,-0.115016687164,-0.0126342167294,0.0464617120703,-0.0191711177704,0.574028146407,0.818820879586,0.0021911612509,0.0,0.818779672904,-0.573967363952,-0.0119188614489,0.0,-0.00850192125639,0.00863600650696,-0.999926565667,0.0,0.657150738782,0.254994528761,0.303464584124,1.0,-0.01358,-0.017848,0.68
0.461605469943,0.521737226265,-0.124053852597,-1.39663318737,0.0771496253327,1.9091795688,0.153940335248,-0.00837908055176,-0.0733401451071,0.000689035705196,-0.117904623516,-0.000873569662797,0.0495394222989,-0.0193014914821,0.574023588917,0.818823910582,0.00225160559454,0.0,0.818783453388,-0.573962526095,-0.0118920981116,0.0,-0.00844535964528,0.0086700891682,-0.999926750044,0.0,0.656925635482,0.254707595693,0.303477365377,1.0,-0.01392,-0.0182948571429,0.697
0.461439472758,0.520486884488,-0.124064180893,-1.39865156277,0.077014090157,1.9099197836,0.15366153419,-0.01082408514,-0.0780817816342,-0.00502095048504,-0.118869374356,-0.010427319924,0.0385736083425,-0.0176985657984,0.574009632439,0.818833788325,0.00221717524359,0.0,0.818792996248,-0.573948824873,-0.0118963281311,0.0,-0.00846873335454,0.00864418092609,-0.999926776665,0.0,0.65668213259,0.254397736673,0.303459435923,1.0,-0.01426,-0.0187417142857,0.714
0.461269459245,0.519080660227,-0.124057538764,-1.40083941771,0.0768801212372,1.9107027151,0.153366509391,-0.00957643629149,-0.080673388891,0.000432579590289,-0.115854761594,-0.00667591566744,0.0434570069287,-0.0127266419843,0.573982612853,0.81885272029,0.00222025154376,0.0,0.818811871701,-0.573921697777,-0.0119059011962,0.0,-0.00847509221833,0.00865191517535,-0.999926655898,0.0,0.65640756546,0.254080266997,0.303473040381,1.0,-0.01462,-0.0192148571429,0.732
0.461099097671,0.517802401874,-0.12406275097,-1.4028252783,0.0767516995666,1.91141944781,0.153092748067,-0.00579670725396,-0.0748412835873,0.00432082031806,-0.128361543928,-0.00423355775586,0.0442751952215,-0.0175418562984,0.573972157259,0.818860040933,0.00222327605454,0.0,0.818819266715,-0.573911267102,-0.0119001197553,0.0,-0.0084687324217,0.00865096523417,-0.999926718001,0.0,0.65616589798,0.253774413393,0.303487183915,1.0,-0.01494,-0.0196354285714,0.748
0.460914532611,0.51646151851,-0.12406807565,-1.40495767975,0.0766115964756,1.91220833858,0.152797525167,-0.0117202075608,-0.0746872440541,0.000134715548691,-0.121170055373,-0.00634877125707,0.0465627924336,-0.0130279319253,0.573960298285,0.818868380701,0.00221313854053,0.0,0.818827550685,-0.573899527992,-0.0118962561726,0.0,-0.00847151196754,0.00864032390478,-0.999926786464,0.0,0.655909118406,0.253445655368,0.303481423581,1.0,-0.01528,-0.0200822857143,0.765
0.460744992788,0.515236626898,-0.124072328898,-1.40688802711,0.0764994648646,1.91292927348,0.152533567397,-0.0117777063916,-0.077714445316,-1.89443557092e-05,-0.129305210563,-0.00284799103628,0.0405427775038,-0.0175438328847,0.573957711491,0.81887015508,0.00222742928765,0.0,0.818829459034,-0.573896831158,-0.0118950033932,0.0,-0.00846231158916,0.00865128020833,-0.999926769635,0.0,0.655677336792,0.253149763473,0.303484201646,1.0,-0.01558,-0.0204765714286,0.78
0.46055950274,0.513837608768,-0.124076217461,-1.40913586356,0.0763593896335,1.91372520459,0.152227030189,-0.0110227314795,-0.0857456014732,0.000621488194375,-0.134829588319,-0.0145095269817,0.0490605048015,-0.0123867237466,0.573941617495,0.818881563039,0.00217998227096,0.0,0.818840194564,-0.573880874795,-0.0119257792582,0.0,-0.00851491456524,0.00862992429704,-0.999926507618,0.0,0.655394430785,0.252808928085,0.303464051803,1.0,-0.01592,-0.0209234285714,0.797
0.460340084714,0.512273028114,-0.124084407985,-1.41167145635,0.076209058168,1.91462157166,0.151875276669,-0.0123141192517,-0.0890733512753,-0.000311259861203,-0.135005849629,-0.00771913481772,0.0448647191587,-0.0243109275245,0.573931349825,0.818888924823,0.00211692975277,0.0,0.818846614986,-0.573870746606,-0.0119722269193,0.0,-0.00858924534153,0.0086048427883,-0.999926088041,0.0,0.655076627176,0.25241660008,0.303431345333,1.0,-0.0163,-0.0214228571429,0.816
0.460147004938,0.510829650341,-0.124087859916,-1.41397263798,0.0760696621455,1.91549852941,0.151543304537,-0.0119960763209,-0.090547845508,-0.000859908466677,-0.13188158025,-0.00698723182006,0.053177450892,-0.0205942315532,0.573902969685,0.81890877839,0.00213095391179,0.0,0.818866647368,-0.573842307937,-0.0119652142058,0.0,-0.00857575254745,0.00861200485887,-0.999926142193,0.0,0.654798285596,0.252070970007,0.30342294468,1.0,-0.01664,-0.0218697142857,0.833
0.459957295765,0.509429066507,-0.124089023931,-1.41620388824,0.0759337354413,1.91633361257,0.151235805488,-0.0120894954458,-0.0924597753509,-0.000239050368513,-0.143369546872,-0.00786463387036,0.0530884917679,-0.0204891912131,0.573887028837,0.818919943891,0.00213319752256,0.0,0.81887781188,-0.57382632945,-0.011967445071,0.0,-0.00857645966516,0.00861495547875,-0.999926110711,0.0,0.6545246881,0.251734428176,0.303413704363,1.0,-0.01696,-0.0222902857143,0.849
0.459722970567,0.5077410858,-0.124093936786,-1.4188572961,0.0757601554257,1.91727587299,0.150865053934,-0.00846394342485,-0.0865278349704,-0.000426806276816,-0.136491317726,-0.0101915857944,0.049518729605,-0.0156792509029,0.573869343322,0.818932404375,0.00210731123095,0.0,0.818889948099,-0.573808766827,-0.0119791033056,0.0,-0.00860104781036,0.00860026171377,-0.999926026001,0.0,0.654192258732,0.251321549154,0.303413447618,1.0,-0.01734,-0.0227897142857,0.868
0.459538794557,0.506459631982,-0.124091375002,-1.42087287366,0.0756309618646,1.91800924475,0.150598737782,-0.012811458067,-0.0965291676773,0.000892813838879,-0.145822962677,-0.0118331880117,0.0546894811953,-0.0189893301747,0.573862686323,0.81893707335,0.00210571611648,0.0,0.818894554568,-0.57380207562,-0.011984715856,0.0,-0.00860662955403,0.00860210631439,-0.999925962107,0.0,0.653961729525,0.25103619672,0.30341126645,1.0,-0.0176,-0.0231314285714,0.881
0.459312249686,0.504850870657,-0.124103191042,-1.42332277063,0.0754795124847,1.91896871471,0.1502515146,-0.0155558038505,-0.100479735935,-0.00112605467169,-0.142416754768,-0.0112757361749,0.0639214917078,-0.0174934609467,0.573864935014,0.818935250824,0.00219959567418,0.0,0.818894092685,-0.573804076668,-0.0119202963715,0.0,-0.00849997758491,0.00864204239254,-0.999926530043,0.0,0.653656494368,0.250625259507,0.303455394706,1.0,-0.01796,-0.0236045714286,0.899
0.459087250877,0.503185694791,-0.124107090289,-1.42580367438,0.0753255353674,1.91989791715,0.149905020793,-0.00735920786788,-0.100866388655,-0.00210250111516,-0.146391608409,-0.00888922388587,0.0550814847972,-0.0126064196962,0.573854099745,0.818942580428,0.00229544543447,0.0,0.818902694032,-0.573792885019,-0.0118680120437,0.0,-0.00840227191916,0.00869042113493,-0.999926936534,0.0,0.653355460224,0.250241698986,0.30351826598,1.0,-0.0183,-0.0240514285714,0.916
0.458866021079,0.501597364109,-0.124109247498,-1.42816943482,0.0751736343421,1.92076801407,0.149570133812,-0.0176175211464,-0.0940492068878,-0.00120612546799,-0.152860475685,-0.0112291033302,0.0535803236674,-0.0276158671115,0.573842467061,0.818950513386,0.00237202961349,0.0,0.81891165808,-0.57378099255,-0.0118243710207,0.0,-0.00832270944979,0.00872797698234,-0.999927274818,0.0,0.653065793652,0.249870726674,0.303576479822,1.0,-0.01862,-0.024472,0.932
0.458615536298,0.499762468562,-0.124107570513,-1.4309315928,0.0749971476881,1.92174270626,0.149183553461,-0.0149739147001,-0.106079008436,-0.00180506239079,-0.153144645899,-0.0169904454035,0.0632532539147,-0.0199673916281,0.573822574159,0.818964333543,0.0024126067736,0.0,0.818925951708,-0.573760890185,-0.0118098863193,0.0,-0.00828777583397,0.00875269418291,-0.999927348919,0.0,0.652714644422,0.249442432267,0.303626382108,1.0,-0.01898,-0.0249451428571,0.95
0.458359010454,0.49809612433,-0.124110006995,-1.4335638903,0.0748253517863,1.92272037218,0.148812096448,-0.0140014628291,-0.100283754293,-0.000728234539918,-0.158518294753,-0.00374946334321,0.0563395148936,-0.029314201107,0.573817545398,0.81896784835,0.00241554616253,0.0,0.818929554035,-0.573755902993,-0.0118023815029,0.0,-0.00827999653076,0.00875074420444,-0.999927430433,0.0,0.652391907449,0.249021994003,0.303620366289,1.0,-0.01932,-0.025392,0.967
0.45812808805,0.496633226844,-0.124110332757,-1.4359223791,0.0746843663122,1.92355094228,0.14845513803,-0.0149993915853,-0.0961220452107,-0.000108419586923,-0.156420041138,-0.00675252023756,0.0509377621239,-0.0242764657917,0.573795860065,0.818983194591,0.00236322890133,0.0,0.818944063658,-0.573734256569,-0.0118477989042,0.0,-0.00834744353277,0.00873373839345,-0.999927018337,0.0,0.652090984863,0.248644447606,0.303589533302,1.0,-0.01962,-0.0257862857143,0.982
0.457838752251,0.494856380944,-0.124103027507,-1.43881181683,0.0745091059211,1.92455207098,0.148038776002,-0.0154476390039,-0.0960021589591,0.000629285542962,-0.15863270132,-0.00977566381788,0.0472083787486,-0.0224161911729,0.573784805143,0.818991196038,0.00227268568027,0.0,0.818950649528,-0.573723314362,-0.0119222101936,0.0,-0.00846045531489,0.00870216801056,-0.999926343771,0.0,0.651717286142,0.248180700518,0.30353875015,1.0,-0.01998,-0.0262594285714,1.0
0.457555433502,0.493086566196,-0.12412155478,-1.44164607736,0.0743263348882,1.92559131185,0.147651931309,-0.0156528071441,-0.108524534599,-0.00177779892529,-0.172008516102,-0.0118253723284,0.071585588559,-0.0314331175936,0.573806331364,0.818976200474,0.00224143810912,0.0,0.818935320905,-0.573745039547,-0.011929655118,0.0,-0.00848425297313,0.00868107161243,-0.99992632551,0.0,0.651367684104,0.247713639315,0.30351266099,1.0,-0.0223205714286,-0.0293356081633,1.017
0.457280490185,0.491230357591,-0.124145108155,-1.44460437062,0.0741411011725,1.92666837108,0.147224929084,-0.0199647689667,-0.126641481237,-0.000189517519327,-0.193940687293,-0.0141342551868,0.0614040371864,-0.0227049896293,0.573796724483,0.818983008577,0.00221303754672,0.0,0.818941790838,-0.573735581435,-0.0119403817384,0.0,-0.00850943520907,0.00866386766857,-0.999926260736,0.0,0.650995482671,0.247237846145,0.303490343881,1.0,-0.0246611428571,-0.0324117877551,1.033
0.456937732455,0.489072482479,-0.124158281513,-1.4480968601,0.0739377733864,1.92790113498,0.146719746814,-0.0261417492009,-0.134478714301,-0.00212425828437,-0.207591498966,-0.00771743676116,0.0801429234605,-0.0308000477054,0.573792284466,0.818986336819,0.00213103086012,0.0,0.81894381045,-0.573731238654,-0.0120103297057,0.0,-0.00861382279745,0.00863679533687,-0.999925601144,0.0,0.65054583722,0.24667254789,0.303435972468,1.0,-0.027148,-0.0356802285714,1.05
0.456525135095,0.486477314458,-0.124188328851,-1.45210174231,0.0736848817002,1.92944436659,0.14613261072,-0.023643700466,-0.149862569736,-0.00139750112411,-0.230256253909,-0.018858496925,0.0872969367947,-0.0325409578596,0.57380143957,0.818979651398,0.00223281069646,0.0,0.818938654617,-0.573740178327,-0.0119345987769,0.0,-0.00849330386113,0.00867679200178,-0.999926285818,0.0,0.650065948425,0.24601009126,0.303467524872,1.0,-0.0297811428571,-0.0391409306122,1.068
0.456069508601,0.483669104278,-0.12421363566,-1.45641887226,0.073413910183,1.93098575276,0.14547292019,-0.0266431189477,-0.160247935671,-0.00340980905234,-0.244682463255,-0.0218183207264,0.089414550228,-0.0334802372887,0.573791489582,0.818986556422,0.0022569414071,0.0,0.818945847128,-0.573730104688,-0.0119253237752,0.0,-0.00847196773475,0.00869112941646,-0.999926342303,0.0,0.649522248326,0.245285860937,0.303496356965,1.0,-0.0324142857143,-0.0426016326531,1.086
0.45564761524,0.48110893349,-0.124256345191,-1.46037564499,0.0731667116479,1.93237099839,0.144882739401,-0.0301247284519,-0.174640446877,-0.00277448926168,-0.270390910979,-0.0197995330246,0.0973077047462,-0.0408780395865,0.573810890746,0.818973005933,0.00224145379516,0.0,0.818932095297,-0.573749566294,-0.0119333721603,0.0,-0.00848723993186,0.00868326454163,-0.99992628112,0.0,0.649020485174,0.244606413427,0.303509964909,1.0,-0.0346085714286,-0.0454855510204,1.101
0.455209632333,0.478425283748,-0.124279423249,-1.46451512521,0.0729144703747,1.93387408752,0.144277018696,-0.0270002493299,-0.181657708124,-0.00179513912117,-0.279974149108,-0.0191881838899,0.0994130551929,-0.0390405211035,0.573823389295,0.818964137954,0.00228156596598,0.0,0.818923679962,-0.573761830055,-0.0119212277587,0.0,-0.0084541453192,0.00870927539452,-0.999926335261,0.0,0.648497530986,0.243915462648,0.303530225914,1.0,-0.0368028571429,-0.0483694693878,1.116
0.454605429654,0.474786975013,-0.12431093019,-1.47007376164,0.0725828401487,1.93594346548,0.143481980501,-0.0326091471895,-0.19742873639,-0.00507265623878,-0.301039530846,-0.0157870624194,0.110441490913,-0.0402096084672,0.573869193695,0.81893167276,0.00241055592809,0.0,0.818892829608,-0.573807053111,-0.0118636553441,0.0,-0.00833248954877,0.00878234237878,-0.999926717355,0.0,0.647805303843,0.242982422605,0.30358308294,1.0,-0.0395822857143,-0.0520224326531,1.135
0.454015855033,0.471337528875,-0.124326564284,-1.4753992993,0.0722503942207,1.93779928328,0.142694179697,-0.0377185306133,-0.209228980652,-0.0012476142055,-0.32451794788,-0.0194591401739,0.10839163921,-0.0435543922804,0.573885878432,0.818919987114,0.00240834870102,0.0,0.818880900293,-0.573823517901,-0.0118906829395,0.0,-0.00835571166897,0.0087962151308,-0.999926401633,0.0,0.64706872464,0.242025740349,0.303602105018,1.0,-0.0422154285714,-0.0554831346939,1.153
0.453405101736,0.467627960399,-0.12433260482,-1.48093053434,0.0719055839939,1.9399165745,0.141796933556,-0.0376946185402,-0.222577715904,-0.00145975007883,-0.331363906799,-0.0207615672864,0.12406325606,-0.0555440966755,0.573822110103,0.818963928605,0.00264886797359,0.0,0.81892802239,-0.573758906751,-0.011762566476,0.0,-0.0081134622683,0.00891902464553,-0.999927308723,0.0,0.646422647541,0.241164239481,0.303706469853,1.0,-0.044556,-0.0585593142857,1.169
0.45283096322,0.464231337618,-0.124344728795,-1.48613844987,0.071550727662,1.94172376612,0.140991424159,-0.0394636708348,-0.231824420416,-0.00365130928351,-0.359147221308,-0.0250592485409,0.12452804823,-0.0567560606546,0.573782524276,0.818991734911,0.00262676305773,0.0,0.818955480853,-0.573719340292,-0.011780740905,0.0,-0.00814146141213,0.00891095682088,-0.999927153074,0.0,0.645681066709,0.240224508665,0.303724037586,1.0,-0.0468965714286,-0.0616354938775,1.185
0.452059487946,0.459757738664,-0.12434899485,-1.49312162661,0.0710824427289,1.94412873756,0.13996846214,-0.0390121163505,-0.245528395569,-0.00096535048976,-0.362353725096,-0.0252396496889,0.129647544926,-0.0620913383816,0.573783155446,0.818991573228,0.00253779617898,0.0,0.818954033845,-0.573720163704,-0.011841077207,0.0,-0.00824191629367,0.00887271988893,-0.99992667014,0.0,0.644791537432,0.239104547178,0.303693144882,1.0,-0.0495297142857,-0.0650961959184,1.203
0.451357651004,0.455864720287,-0.12435326583,-1.49922410313,0.0706735491563,1.94631553617,0.139019003456,-0.0476476927283,-0.245687293855,-0.000422107810376,-0.390717985307,-0.0218491274415,0.14171259616,-0.0611932510911,0.573753222403,0.819012635321,0.00250796091331,0.0,0.818974660169,-0.573690297094,-0.0118615312439,0.0,-0.00827611046229,0.00885971878752,-0.999926502988,0.0,0.643985371202,0.238064208027,0.303655890863,1.0,-0.0518702857143,-0.0681723755102,1.219
0.450608675362,0.451724181896,-0.124391983088,-1.50551487631,0.0702378206007,1.94859525958,0.138002379017,-0.0461734345614,-0.271981946325,-0.00596261625171,-0.394484082312,-0.0346831176944,0.156935706939,-0.063206554586,0.573730015737,0.819028622305,0.00259456924668,0.0,0.818992062002,-0.573667079353,-0.0117826713671,0.0,-0.00816208328031,0.00888517491334,-0.999927214383,0.0,0.643170130282,0.236957378176,0.303703867226,1.0,-0.0542108571429,-0.071248555102,1.235
0.449775782532,0.447114970554,-0.124446869775,-1.51249306495,0.0697693268028,1.95106150855,0.136963969545,-0.0574342997758,-0.274973857261,-0.000880042191717,-0.418520069446,-0.0323755406133,0.141257762217,-0.0586893146894,0.573788558249,0.818987399304,0.00266028286893,0.0,0.818951829124,-0.573725524658,-0.0117333213726,0.0,-0.00808332580048,0.00891126064472,-0.99992762202,0.0,0.642247669633,0.235721219184,0.303758275168,1.0,-0.0566977142857,-0.0745169959184,1.252
0.448842228932,0.442090487484,-0.124465998023,-1.52030521357,0.0692299781317,1.95367494236,0.135771850064,-0.0523201186833,-0.284195930147,2.11161199369e-05,-0.439107009893,-0.0336279715377,0.15154963557,-0.0754952412405,0.573789951139,0.818986928366,0.00250000781393,0.0,0.818949060654,-0.573727277211,-0.0118403690664,0.0,-0.00826294390359,0.00884143406392,-0.99992677372,0.0,0.641163131116,0.234350142439,0.303706966154,1.0,-0.0593308571429,-0.0779776979592,1.27
0.44801947544,0.437804024185,-0.124486237923,-1.52697061084,0.0687814022847,1.95599999591,0.134669023121,-0.0569845351493,-0.284437438033,-0.00126476045996,-0.451527232382,-0.023814971576,0.158152986591,-0.0752283862544,0.573745865257,0.81901797588,0.00244625971375,0.0,0.818979276368,-0.573683262715,-0.0118830072694,0.0,-0.00832917866961,0.0088214321377,-0.99992640085,0.0,0.640254698649,0.233170740344,0.303666553135,1.0,-0.0615251428571,-0.0808616163265,1.285
0.446970270744,0.432351009297,-0.124510337054,-1.53504115099,0.0682376256157,1.95901182939,0.133352040408,-0.0608199307557,-0.301407886255,-0.00273710769634,-0.460777674937,-0.0361038486743,0.169226671247,-0.0771776493421,0.573746554617,0.819016471664,0.00276714808654,0.0,0.818982216727,-0.573683068094,-0.0116881550482,0.0,-0.00798547924894,0.00897245651029,-0.999927860971,0.0,0.639202822242,0.231726848854,0.303806729796,1.0,-0.0641582857143,-0.0843223183673,1.303
0.445983821038,0.427466574259,-0.124562203896,-1.54266790977,0.0676672790967,1.96152243143,0.132148166319,-0.0595629077583,-0.310283447175,-0.00273080601899,-0.486215340091,-0.0284164639642,0.152170927893,-0.07276208424,0.57377408835,0.818997941834,0.00253253031628,0.0,0.818960780076,-0.573711598007,-0.0117893982738,0.0,-0.00820270883452,0.00883866442181,-0.999927294146,0.0,0.638131145094,0.230317507818,0.303722675226,1.0,-0.0664988571429,-0.0873984979592,1.319
0.4448992748,0.421999993531,-0.124638739524,-1.55102713505,0.0670553386962,1.96426924288,0.13076402933,-0.0637390159926,-0.323474360443,-0.00796947053596,-0.495456973806,-0.0419430979551,0.153240495989,-0.0912658220874,0.573767413705,0.819003088072,0.0023756260992,0.0,0.818964017089,-0.573705659647,-0.0118533414752,0.0,-0.00834517380429,0.00874678177794,-0.999926923271,0.0,0.636950700967,0.228764937363,0.303700285001,1.0,-0.0689857142857,-0.0906669387755,1.336
0.443742549379,0.416358316945,-0.124669687971,-1.55939014668,0.0664754057071,1.96731917767,0.129433551453,-0.0715164292828,-0.340222212518,-0.00113331276838,-0.488037710028,-0.0317861920126,0.190583387885,-0.0791874960145,0.573836335311,0.818954002287,0.00263615562491,0.0,0.81891856212,-0.573773869744,-0.0116911041181,0.0,-0.00806207451444,0.00886774784836,-0.999928180422,0.0,0.635827399671,0.227221924018,0.303811635465,1.0,-0.0714725714286,-0.0939353795918,1.353
0.442536429715,0.410627913902,-0.124683443511,-1.56805569982,0.0658824671626,1.97034621745,0.127920160597,-0.0688700950866,-0.344181454223,-0.000934235746147,-0.518766605056,-0.0426743500339,0.16234134296,-0.0835129348245,0.573786079754,0.818988969847,0.00271087636039,0.0,0.818954319291,-0.573723158704,-0.0116750581079,0.0,-0.00800660541636,0.0089192414501,-0.999928168121,0.0,0.634617550177,0.225623861159,0.303829406446,1.0,-0.0739594285714,-0.0972038204082,1.37
0.441350316085,0.405101810679,-0.12475201514,-1.57659778815,0.0652643009565,1.97310327911,0.126564594859,-0.0755149575716,-0.346438051951,-0.010981797059,-0.536113965782,-0.0387230822458,0.170055115154,-0.0826186004029,0.573869373293,0.81893137388,0.00246863779566,0.0,0.818893420521,-0.573807152494,-0.0118179725724,0.0,-0.00826174555534,0.00880369326061,-0.999927116617,0.0,0.633375149981,0.224000491452,0.303738801449,1.0,-0.0763,-0.10028,1.386
0.439948476441,0.398642247585,-0.124813767685,-1.58620253503,0.0645974600705,1.97650387069,0.124904059332,-0.0809067076595,-0.362393586563,-0.00358533086044,-0.532015142887,-0.0420202488789,0.192580202444,-0.0908596711237,0.57389953088,0.818909609066,0.00266974456076,0.0,0.818874387259,-0.573836698335,-0.0117016424673,0.0,-0.00805074505596,0.00890192395345,-0.999927968033,0.0,0.632039967205,0.222171149837,0.303817771591,1.0,-0.0789331428571,-0.103740702041,1.404
0.438630585728,0.392765030724,-0.124829624504,-1.5949997756,0.0639211455074,1.97949763198,0.123419615214,-0.0811153834609,-0.370884386309,-0.000934685706373,-0.564487914487,-0.0468665294742,0.186692189681,-0.10429461543,0.573925523897,0.818891304787,0.00269645407343,0.0,0.818856677054,-0.573862868915,-0.0116574879693,0.0,-0.00799897466829,0.00889871064026,-0.999928412114,0.0,0.630778729718,0.220484562149,0.303843235147,1.0,-0.0812737142857,-0.106816881633,1.42
0.437297205572,0.386792020041,-0.12485763599,-1.60414365538,0.0632480987146,1.98239809689,0.121827981797,-0.0878821078833,-0.37169998176,-0.0014944162014,-0.58213658838,-0.0523186890329,0.171935611408,-0.0987438523003,0.573893733875,0.818914338705,0.00245662050874,0.0,0.818876183461,-0.573831507067,-0.0118298165359,0.0,-0.00827807951533,0.00880089505374,-0.999927006159,0.0,0.629399462363,0.218742000801,0.30375263089,1.0,-0.0836142857143,-0.109893061224,1.436
0.435850139491,0.380177568163,-0.12486336654,-1.61375644482,0.0625590916071,1.98573357402,0.120103963787,-0.0847640596557,-0.389219921134,0.000121731302874,-0.567512809227,-0.0328787019511,0.205491169716,-0.100668438627,0.573837866586,0.818952596668,0.00273755089603,0.0,0.818918057723,-0.573774583902,-0.0116913858978,0.0,-0.00800410781722,0.00895096213745,-0.999927904669,0.0,0.628003814119,0.216924760737,0.303893718966,1.0,-0.0861011428571,-0.113161502041,1.453
0.434292949176,0.373568400691,-0.12486945874,-1.62372259119,0.061809206886,1.98905543337,0.118320657936,-0.0965519372734,-0.394627285944,-0.000868138281768,-0.594989857947,-0.0504176762744,0.1940415526,-0.104868565432,0.573805469477,0.818975516951,0.00267071780481,0.0,0.818939990166,-0.573742294583,-0.0117396258455,0.0,-0.00808231799375,0.00892359093933,-0.999927520204,0.0,0.626428260815,0.214872507307,0.303848584779,1.0,-0.0887342857143,-0.116622204082,1.471
0.43268307455,0.366750441035,-0.124935480773,-1.63395924676,0.0610065602039,1.99228640566,0.116586788348,-0.0905163016705,-0.406116800704,-0.000130584680912,-0.606022738516,-0.0473099137579,0.195254052212,-0.103925245864,0.573894855593,0.818913444357,0.00249244388291,0.0,0.818875558396,-0.573832282711,-0.0118354586217,0.0,-0.00826213049419,0.00883348026483,-0.999926850738,0.0,0.624954583148,0.212959154096,0.303804458503,1.0,-0.0910748571428,-0.119698383673,1.487
0.431028069806,0.359719069432,-0.124956144613,-1.64414768062,0.0602106005844,1.99581874435,0.114651630966,-0.0995602471645,-0.414352158303,0.0043059133297,-0.611715844904,-0.0477843684132,0.204176044246,-0.11972585403,0.573810474631,0.818971671781,0.00277253027895,0.0,0.818937880669,-0.573747404714,-0.0116365841509,0.0,-0.00793945358293,0.00894789622018,-0.999928447555,0.0,0.623450827805,0.210956595817,0.303931892483,1.0,-0.0935617142857,-0.12296682449,1.504
0.429156813367,0.352257854472,-0.12499014591,-1.65538125592,0.0593774776943,1.99937392864,0.112586169732,-0.103871219979,-0.411123738865,-0.00295215732243,-0.642753787233,-0.0489613116887,0.195021584454,-0.113794841313,0.573823887873,0.818962876954,0.00258819996657,0.0,0.818926062833,-0.573760777008,-0.0118076789165,0.0,-0.00818520066224,0.00889524389211,-0.999926935894,0.0,0.621704136892,0.208703676366,0.303838545574,1.0,-0.0961948571428,-0.126427526531,1.522
0.427544433142,0.345832280175,-0.125063761339,-1.6647098812,0.0586760708002,2.00248540453,0.110789763312,-0.104203639426,-0.439992740723,-0.00742791859264,-0.612065539152,-0.0450650780588,0.217261430167,-0.127036194842,0.573840725626,0.818950560178,0.002747453184,0.0,0.818915902118,-0.573777130707,-0.0117173562532,0.0,-0.00801966406606,0.00897400209479,-0.999927573515,0.0,0.620295667601,0.206786721686,0.303914547136,1.0,-0.0983891428571,-0.129311444898,1.537
0.425649302474,0.33844793573,-0.12506801828,-1.67548898205,0.0578234678946,2.00597105565,0.108779192535,-0.109176549114,-0.441633115465,0.000201483183921,-0.644560658808,-0.0528493868541,0.20421013017,-0.126521907297,0.573845274379,0.818947289597,0.00277215377062,0.0,0.818912842275,-0.573781468395,-0.0117187962162,0.0,-0.00800662008973,0.00899510133718,-0.999927488464,0.0,0.618507702794,0.204464615552,0.303935398352,1.0,-0.101022285714,-0.132772146939,1.555
0.423590572038,0.330521070255,-0.125084301536,-1.68725603407,0.0568408776687,2.00958990012,0.106518551146,-0.11918025607,-0.449753500036,0.000659334694413,-0.64439436126,-0.0603462420523,0.204121657772,-0.12815258066,0.57378387042,0.818990957948,0.0025744409258,0.0,0.818953846872,-0.573720688092,-0.0118285945856,0.0,-0.00821066007206,0.00889557635008,-0.999926724207,0.0,0.616720633095,0.202189573801,0.303873279485,1.0,-0.103509142857,-0.136040587755,1.572
0.421700867908,0.323270096376,-0.125078746612,-1.69763221364,0.0560212490504,2.01304590027,0.10446196059,-0.12407604871,-0.446024228834,0.000163406104615,-0.659504272865,-0.0611442142124,0.210866259558,-0.126809180156,0.573723970723,0.819032054755,0.00283647741614,0.0,0.818998446503,-0.573659960618,-0.0116850806983,0.0,-0.00794343506717,0.00902725529642,-0.999927702637,0.0,0.615096822342,0.200068997318,0.303981483143,1.0,-0.105849714286,-0.139116767347,1.588
0.419584013516,0.31551929355,-0.125120725361,-1.70903734739,0.0551033308297,2.01654416801,0.10224706385,-0.125892764339,-0.458591810153,-0.00267861657412,-0.670333761078,-0.0525718233133,0.213246820613,-0.138023993222,0.573747550911,0.819016039516,0.00268732971487,0.0,0.81898010594,-0.573683635559,-0.011807593641,0.0,-0.00812908800946,0.00897562031678,-0.999926675396,0.0,0.613239782139,0.197672637528,0.303919089691,1.0,-0.108336571429,-0.142385208163,1.605
0.417420193235,0.30754609065,-0.125191734163,-1.7203481497,0.0541127282823,2.02018669493,0.0999013371917,-0.130227886769,-0.469246717404,-0.00159535128031,-0.658860541775,-0.0552191360415,0.215524391602,-0.13841797941,0.573685153065,0.819059113918,0.00287401491069,0.0,0.819026414414,-0.573621502087,-0.0116125680609,0.0,-0.00786293434204,0.00901602559921,-0.999928440213,0.0,0.611438117652,0.195251162415,0.304040200086,1.0,-0.110823428571,-0.14565364898,1.622
0.415119270969,0.299539640517,-0.125217126325,-1.73202836865,0.0531679090944,2.02370975527,0.0975234882701,-0.132381522459,-0.467233549258,-0.00597139017977,-0.699968818582,-0.055355935529,0.201330239634,-0.132807506294,0.573689933557,0.819056218979,0.00274174910311,0.0,0.819021226496,-0.573626087514,-0.0117511349683,0.0,-0.00805225639578,0.00898723158442,-0.999927192767,0.0,0.609498125467,0.192745060067,0.303981684575,1.0,-0.113310285714,-0.148922089796,1.639
0.412715403557,0.291330726989,-0.125321022878,-1.74371178472,0.0522304521352,2.02733977093,0.0951273601713,-0.143811993869,-0.495596768623,-0.00809503170488,-0.683865108675,-0.0558664327702,0.230468477807,-0.14474070729,0.573816979718,0.818966818224,0.00285855480175,0.0,0.81893322604,-0.573752573115,-0.0117091004085,0.0,-0.00794941458376,0.00906002057068,-0.999927358779,0.0,0.607592231121,0.19015115619,0.304043913488,1.0,-0.115797142857,-0.152190530612,1.656
0.410569225821,0.284067304547,-0.125368021001,-1.75412779933,0.0513404682299,2.03055553282,0.0929076136041,-0.144071723253,-0.48248123403,-0.000625524841246,-0.709739243802,-0.0606424397651,0.205777829824,-0.143860317389,0.573799062754,0.818979297406,0.00287974024283,0.0,0.818946041984,-0.573734655675,-0.0116906841721,0.0,-0.00792237406306,0.00906663005544,-0.999927513477,0.0,0.605859376925,0.187864711585,0.304046810464,1.0,-0.117991428571,-0.15507444898,1.671
0.408164593375,0.276192201462,-0.125398798832,-1.76549100777,0.0503304555865,2.03382923486,0.0904639128701,-0.152953835945,-0.502762878462,-0.00951371352877,-0.699014791201,-0.0619126357722,0.215538564804,-0.145128507089,0.573770625283,0.818999947567,0.00266502315636,0.0,0.818963646447,-0.573706704166,-0.0118283682176,0.0,-0.00815864837771,0.00896950000094,-0.999926489561,0.0,0.603905587422,0.185336948204,0.30398249678,1.0,-0.120332,-0.158150628571,1.687
0.405211968193,0.266664078359,-0.125533122694,-1.77889879114,0.0491478511316,2.03803483331,0.0875262768487,-0.157504308697,-0.499025110965,-0.00315970137866,-0.71545963243,-0.0590805635932,0.207769788584,-0.149899588191,0.573857767084,0.818938121343,0.00289196646227,0.0,0.818905465883,-0.573793817075,-0.0116292878372,0.0,-0.00786442607331,0.00904197838025,-0.999928194137,0.0,0.601561260328,0.182103549167,0.304079807537,1.0,-0.123257714286,-0.161995853061,1.707
0.402603104319,0.258564147444,-0.125642592227,-1.79050631483,0.0481255285428,2.04131526971,0.0849955104799,-0.170079327355,-0.503822313577,-0.00764999529525,-0.724020162898,-0.0717143677823,0.209292685159,-0.156417935924,0.573961727865,0.818866067902,0.00265418287414,0.0,0.818829992089,-0.573898224697,-0.0117906168957,0.0,-0.00813186181955,0.00894085952712,-0.99992696426,0.0,0.599659956015,0.179574846153,0.30399162261,1.0,-0.125452,-0.164879771429,1.722
0.399796999278,0.249757437914,-0.125693600642,-1.80268460813,0.0470039333472,2.04499564572,0.0822534521472,-0.168252040772,-0.503079435123,0.00157119650863,-0.727971992936,-0.0718053219593,0.203745606704,-0.168067978792,0.573978322257,0.818853759028,0.00285548690148,0.0,0.81882085473,-0.573914735965,-0.0116202668945,0.0,-0.00787664486619,0.00900808695522,-0.999928403855,0.0,0.597569013511,0.176772028949,0.304106712015,1.0,-0.127938857143,-0.168148212245,1.739
0.396744898155,0.240432995612,-0.125687921573,-1.81596031815,0.045875608906,2.04873768223,0.0791820026251,-0.172507423653,-0.519174166577,-0.000256039945926,-0.725122517122,-0.0647361673904,0.203833176457,-0.171849580985,0.573894553922,0.81891299115,0.00270200040377,0.0,0.818876957563,-0.573830243751,-0.011837509461,0.0,-0.00814355751885,0.00900626148006,-0.999926282145,0.0,0.595178653883,0.173771495885,0.304013714725,1.0,-0.130572,-0.171608914286,1.757
0.394131567333,0.232423433729,-0.125691248388,-1.82681390596,0.0449136175745,2.05201788985,0.0766578582757,-0.168309224757,-0.519003342317,-0.0007620367405,-0.738926373493,-0.0601232543824,0.216289307995,-0.169575831088,0.573892049862,0.818913521138,0.00305072183539,0.0,0.818882227107,-0.573826754474,-0.0116404845176,0.0,-0.00778211418429,0.00917874013124,-0.999927592093,0.0,0.593277622353,0.171268563457,0.304176511895,1.0,-0.132766285714,-0.174492832653,1.772
0.391086241153,0.223363264849,-0.125678831825,-1.83960080576,0.0436758077042,2.05550907368,0.0735834590935,-0.182673108798,-0.524729111761,0.00127777365775,-0.753960929393,-0.0741061794293,0.197584802291,-0.185659045309,0.573711098734,0.819041171809,0.00280730675233,0.0,0.819006465084,-0.573646379227,-0.011789344862,0.0,-0.00804571238172,0.00906305486568,-0.999926561078,0.0,0.590917238733,0.168328930469,0.304083067618,1.0,-0.135253142857,-0.177761273469,1.789
0.38787325547,0.214084356625,-0.12576565527,-1.8521949678,0.0425188424323,2.05912798544,0.0705342329595,-0.195307401447,-0.550148353117,-0.00931443230526,-0.748064821782,-0.0593073759535,0.215272309318,-0.175999099323,0.573779113982,0.818992725779,0.00303156409887,0.0,0.818961131343,-0.573713836143,-0.0116553192945,0.0,-0.00780652174986,0.00917048850243,-0.99992747755,0.0,0.58865723648,0.165291365694,0.304202179677,1.0,-0.13774,-0.181029714286,1.806
0.384757275018,0.205382947137,-0.125829894139,-1.86430035102,0.0413809887889,2.06242136618,0.0675456397413,-0.19743531295,-0.55120815288,-0.0060377414453,-0.768636872346,-0.0764100809596,0.192349437625,-0.190163752469,0.573775272798,0.818995976745,0.00287633480457,0.0,0.818961946577,-0.57371004659,-0.0117838619161,0.0,-0.00800090736731,0.00911707286797,-0.999926429526,0.0,0.586261821066,0.162183841071,0.304130194575,1.0,-0.140226857143,-0.184298155102,1.823
0.381126331159,0.195375419231,-0.125906351424,-1.87790862397,0.0400723721614,2.06612689825,0.0640697575054,-0.210028180589,-0.554301478191,-0.00619069626338,-0.763750120151,-0.0739181595102,0.224426591301,-0.195870634293,0.573767307212,0.819001228838,0.00296837281511,0.0,0.818968460696,-0.573701833707,-0.0117308690155,0.0,-0.0079047874035,0.00916196923772,-0.999926783648,0.0,0.583884253528,0.15903192744,0.304194125235,1.0,-0.142713714286,-0.187566595918,1.84
0.377964106234,0.187037984789,-0.12604031183,-1.88940362338,0.0390115966955,2.06922862786,0.0611060700974,-0.217633022488,-0.560070554331,-0.0141430455306,-0.782615776588,-0.0661770822743,0.200866229414,-0.196367511983,0.573871882361,0.818928142303,0.00291672445933,0.0,0.818894239971,-0.573806044231,-0.0118150009541,0.0,-0.00800215672487,0.00916896222791,-0.999925945068,0.0,0.581733834709,0.156139910232,0.304141791572,1.0,-0.144908,-0.190450514286,1.855
0.37404407546,0.176790915801,-0.126184946771,-1.90311059301,0.037676977536,2.07288100139,0.05750263993,-0.210776112128,-0.574525141456,-0.00916277579853,-0.769902105339,-0.0813711998481,0.211890562272,-0.196118825445,0.574005578167,0.818833976817,0.00304327859576,0.0,0.818801835743,-0.573939410049,-0.0117411361369,0.0,-0.00786753514789,0.00923149747242,-0.999926437967,0.0,0.579155169267,0.152630132967,0.304231071481,1.0,-0.147541142857,-0.193911216327,1.873
0.370306262558,0.167121374574,-0.126183714191,-1.91632002813,0.0362927758286,2.07630106904,0.0539544017652,-0.222848765396,-0.574769242589,0.000269298531802,-0.813445215061,-0.0852733146512,0.18999355061,-0.205543428961,0.573870772251,0.818929041762,0.00288239766048,0.0,0.818894847796,-0.573805235088,-0.0118121691455,0.0,-0.00801954789344,0.00913921518119,-0.999926078067,0.0,0.576582818865,0.149358097217,0.304156662222,1.0,-0.150028,-0.197179657143,1.89
0.366425811753,0.157218137705,-0.126211191203,-1.92936526161,0.0349951779932,2.07975496088,0.0503312620012,-0.234171101869,-0.592248129093,-0.000705200371598,-0.769417691671,-0.0799324033031,0.215710715956,-0.20621349382,0.573829268114,0.818957263422,0.00311747411184,0.0,0.818926270734,-0.573763089825,-0.0116801865267,0.0,-0.00777703174723,0.00925559253339,-0.999926923222,0.0,0.574062615031,0.14604451471,0.304272487746,1.0,-0.152514857143,-0.200448097959,1.907
0.362188434605,0.146766123101,-0.126259323138,-1.94347811336,0.0335115618897,2.08321796062,0.0464110415952,-0.237622045994,-0.587935184605,-0.00103301309413,-0.799524993037,-0.0819729470677,0.179331772793,-0.221370559407,0.573779800405,0.818992689146,0.00290906746256,0.0,0.818958681111,-0.573713995211,-0.0118185122736,0.0,-0.00801045665849,0.0091638060975,-0.999925925877,0.0,0.571243726425,0.142431300832,0.304189325499,1.0,-0.155148,-0.2039088,1.925
0.358020948041,0.136643289163,-0.126363014096,-1.95665134212,0.0322166661208,2.08656366669,0.0425799347289,-0.247250753151,-0.600302621959,-0.0141432252633,-0.767986762327,-0.0814426492616,0.204475013823,-0.233308249054,0.573833541734,0.818954120815,0.00315615000022,0.0,0.818923168764,-0.573766682068,-0.0117211394889,0.0,-0.00778833172086,0.00931080660723,-0.99992632267,0.0,0.568643422681,0.138955434109,0.304307162564,1.0,-0.157634857143,-0.207177240816,1.942
0.354232219701,0.127744367832,-0.12648535134,-1.96845520245,0.0309251531776,2.08940702521,0.0390588639987,-0.255842857817,-0.591948290748,-0.0104165008292,-0.803509160992,-0.0903105801181,0.180391695236,-0.239967149744,0.573810047904,0.818970988292,0.0030489608402,0.0,0.818938794146,-0.573743737441,-0.0117525355261,0.0,-0.00787581508085,0.0092408132014,-0.999926286737,0.0,0.566260608832,0.135792750638,0.304274757373,1.0,-0.159829142857,-0.210061159184,1.957
0.349504854983,0.116820810491,-0.126638370641,-1.98258266222,0.0294068143059,2.09286672379,0.0348695673827,-0.263211727322,-0.609557910576,-0.00721935109673,-0.792633356285,-0.0836658370548,0.200138173721,-0.242838060378,0.573958851215,0.818866103455,0.00320758876553,0.0,0.818836421834,-0.573892529811,-0.0116200432964,0.0,-0.00767459610465,0.00929609618764,-0.999927338945,0.0,0.563413703801,0.131937236838,0.304367440776,1.0,-0.162462285714,-0.213521861224,1.975
0.344919133207,0.106576392877,-0.126690642953,-1.99610473928,0.0279465046035,2.09596849909,0.0306850557746,-0.26776070309,-0.609506645876,-0.000200556070034,-0.776138451948,-0.0929153852756,0.169441391348,-0.240527616462,0.573910073034,0.818900918394,0.00304316050244,0.0,0.81886856194,-0.573843667403,-0.011767350971,0.0,-0.00789014804379,0.00924552772462,-0.999926130162,0.0,0.560594503001,0.128289076358,0.304283822806,1.0,-0.164949142857,-0.216790302041,1.992
0.340835084206,0.0973103175621,-0.126702243558,-2.00789541779,0.0266410711748,2.09876282714,0.0269122637086,-0.269296017218,-0.623710646418,0.00107377661176,-0.797464721459,-0.0861995737107,0.186738979272,-0.25543569506,0.573779958997,0.818991390221,0.00322618945878,0.0,0.81896180418,-0.573713424939,-0.0116282517994,0.0,-0.00767267762598,0.00931436311082,-0.999927183678,0.0,0.558138907296,0.125110668706,0.304382710475,1.0,-0.167143428571,-0.219674220408,2.007
0.335746097971,0.0862438642192,-0.126737685574,-2.0223387984,0.0251520342551,2.10189855965,0.0222855626533,-0.282905099141,-0.621624941263,-0.000388955505128,-0.788034402828,-0.0915678234435,0.15533913096,-0.266777121476,0.573731065752,0.819026207806,0.00307928870936,0.0,0.818993181503,-0.573663219354,-0.0118922795149,0.0,-0.00797376743869,0.00934506657866,-0.999924541535,0.0,0.555033039939,0.121195267357,0.3042842088,1.0,-0.169776571429,-0.223134922449,2.025
0.330741364728,0.0755410125033,-0.126874912951,-2.03570126909,0.0235697327557,2.10495790658,0.01777979776,-0.29712120868,-0.624979048161,-0.0111443410255,-0.797653751924,-0.0981357297026,0.177302806051,-0.262516150106,0.573724976113,0.81902954583,0.00331688753366,0.0,0.819000829474,-0.573657782488,-0.0116248360167,0.0,-0.00761847249501,0.00938617312027,-0.999926926646,0.0,0.552217507816,0.117372494501,0.304435278697,1.0,-0.172263428571,-0.226403363265,2.042
0.325849261349,0.0655455781241,-0.127029076516,-2.04859068675,0.0221191592888,2.10762690288,0.0134643024916,-0.310359356055,-0.636101977108,-0.0083307438281,-0.789091917785,-0.0938215599533,0.152580506712,-0.275411859788,0.573829621603,0.818956981518,0.00312645071934,0.0,0.818925075865,-0.57376218955,-0.0118074918282,0.0,-0.00787614029677,0.00933599720725,-0.999925400003,0.0,0.549403428844,0.113670752336,0.304341134112,1.0,-0.174604,-0.229479542857,2.058
0.320449862073,0.0546696288543,-0.127182339276,-2.06206614379,0.0205674973277,2.11049785991,0.00867977791142,-0.3220753266,-0.64035196842,-0.0121271186911,-0.784934661766,-0.0895684346274,0.181057860434,-0.281791460123,0.573909272684,0.818900414015,0.00331746203947,0.0,0.818871343493,-0.573841606874,-0.0116738994025,0.0,-0.0076562107122,0.00941651500982,-0.999926353129,0.0,0.546480316373,0.109691880725,0.304453382069,1.0,-0.177090857143,-0.232747983673,2.075
0.315032650118,0.0438963950371,-0.127230232898,-2.07580868944,0.0190201244741,2.11324100254,0.00387011110054,-0.31707729704,-0.632521125509,-0.00298020377059,-0.837796706801,-0.0878849681163,0.146143565481,-0.285360534109,0.573882305097,0.818919956048,0.00315473992885,0.0,0.818887679231,-0.573813887619,-0.0118885693643,0.0,-0.00792570571267,0.00940619834846,-0.999924350449,0.0,0.543386276041,0.105781130833,0.304339753226,1.0,-0.179577714286,-0.23601642449,2.092
0.309763800142,0.0335421925345,-0.127269272329,-2.08846157311,0.0174958812311,2.11583828182,-0.000864170933783,-0.331486581179,-0.6485265263,-0.00135746291535,-0.770345238554,-0.0984644078404,0.164065356659,-0.290509593591,0.573772884956,0.818995838645,0.00335256211015,0.0,0.818966763295,-0.573704554638,-0.0117162923873,0.0,-0.007672362274,0.00946831011845,-0.999925740223,0.0,0.540557440311,0.102063833253,0.304447998802,1.0,-0.17998,-0.236545142857,2.108
0.303653953687,0.022073347603,-0.127367361274,-2.10278643656,0.0157683143053,2.11847414223,-0.00623700078128,-0.343839368205,-0.640164640407,-0.00817554345217,-0.816720251253,-0.0851276612842,0.135454139998,-0.301654589627,0.573779880708,0.818991692083,0.00316286194178,0.0,0.81895945479,-0.57371136924,-0.0118921451294,0.0,-0.00792515079037,0.00941391055206,-0.99992428227,0.0,0.537259086398,0.0977835232592,0.30436740808,1.0,-0.17998,-0.236545142857,2.126
0.297374038243,0.010542183184,-0.127570292545,-2.11668951656,0.0140308718188,2.12109628818,-0.0116853264039,-0.352894288361,-0.632710564547,-0.00954000226223,-0.783450525868,-0.0960019454809,0.13399716724,-0.312061658397,0.573923156439,0.818890705191,0.00331215276054,0.0,0.8188610759,-0.573854905087,-0.0117402378777,0.0,-0.00771342507412,0.00945036930207,-0.999925594029,0.0,0.534079872491,0.093433409538,0.304471722877,1.0,-0.17998,-0.236545142857,2.144
0.292115024911,0.00106111561292,-0.127627141896,-2.12833050238,0.0127040937906,2.12311064563,-0.0163271217853,-0.345124995421,-0.625339742444,-0.00226461178528,-0.7729874385,-0.0895105112261,0.12171300646,-0.317970996134,0.573925781557,0.818889085367,0.00325730436088,0.0,0.818857452355,-0.573856156028,-0.0119302896771,0.0,-0.0079005119516,0.00951455196221,-0.999923524682,0.0,0.531325277349,0.08990155271,0.304418982725,1.0,-0.17998,-0.236545142857,2.159
0.286095070795,-0.00969629743043,-0.127635997343,-2.14105366285,0.0110621455976,2.1254736505,-0.0216483967615,-0.355231157451,-0.62146272113,-0.00114492870931,-0.763752854327,-0.0968987378538,0.137980993979,-0.319935729094,0.573805314594,0.818972458692,0.00350995002589,0.0,0.818945278957,-0.573736280201,-0.0116643797835,0.0,-0.00753916527117,0.00956772432265,-0.999925807067,0.0,0.528344653105,0.0859520015095,0.304553385283,1.0,-0.17998,-0.236545142857,2.176
0.279928904201,-0.020260599275,-0.127686404218,-2.15394438125,0.00943443364892,2.12746532895,-0.0270602049818,-0.363707306674,-0.62100658888,-0.00444976151836,-0.74153234153,-0.0962369173997,0.111785111185,-0.319369146485,0.573752870147,0.819010265112,0.00325215942587,0.0,0.818978662354,-0.573683404921,-0.0119184071429,0.0,-0.00789573991848,0.00950185242228,-0.999923683134,0.0,0.525199144304,0.0819308571488,0.304441661321,1.0,-0.17998,-0.236545142857,2.193
0.27400035013,-0.030337062126,-0.127836875825,-2.16561888204,0.00792945865269,2.12946741641,-0.0321638762256,-0.375271142706,-0.620686979331,-0.0114589955864,-0.73975743976,-0.0990709382568,0.122834291663,-0.309498623383,0.573878419731,0.818921104039,0.00354000401599,0.0,0.818894172766,-0.5738090984,-0.0116704457263,0.0,-0.00752603268547,0.00959649037338,-0.999925630337,0.0,0.522406117322,0.0781033178785,0.30459448271,1.0,-0.17998,-0.236545142857,2.209
0.267572225252,-0.0407858328924,-0.127976186258,-2.17817494708,0.00632333184102,2.13134721121,-0.037719683271,-0.37248038238,-0.607089524533,-0.00692546381208,-0.750198493621,-0.0937345007851,0.102578126259,-0.340701367205,0.573964254304,0.818861722366,0.00335579003297,0.0,0.818831383419,-0.57389428028,-0.0118856001137,0.0,-0.00780694458256,0.00956992005197,-0.999923731215,0.0,0.519109678204,0.0737767391687,0.304485372179,1.0,-0.17998,-0.236545142857,2.227
0.260422216728,-0.0525218024171,-0.12798842108,-2.19171490218,0.00457795361819,2.13345461312,-0.0440084303817,-0.381953633142,-0.61705847034,-0.00309484171343,-0.70211504544,-0.100110655259,0.113463755667,-0.331000936334,0.573870686865,0.818926227971,0.00360760297964,0.0,0.818899772933,-0.573800634542,-0.0116936132526,0.0,-0.00750630623306,0.00966507321268,-0.99992511806,0.0,0.515931580948,0.0696178232145,0.3046043392,1.0,-0.17998,-0.236545142857,2.245
0.254235828143,-0.0622143969789,-0.128058325778,-2.20321300155,0.00307570201884,2.1349984362,-0.0494299018367,-0.385183361915,-0.608448589919,-0.00449846074869,-0.718004991512,-0.0873146736451,0.0950435860618,-0.332788124556,0.573836341168,0.818951082035,0.00342427963438,0.0,0.818921258003,-0.573765675644,-0.011902501652,0.0,-0.00778298233538,0.00963448887845,-0.999923297963,0.0,0.512990142136,0.0658347372496,0.304499322458,1.0,-0.17998,-0.236545142857,2.261
0.247539408133,-0.0726065928673,-0.128184269373,-2.21509870099,0.00145877039221,2.13658859305,-0.0552379498464,-0.399884911394,-0.619196860381,-0.00950320778018,-0.679006909898,-0.093544531295,0.106497491323,-0.344549462013,0.573880571708,0.818919834151,0.00348447286386,0.0,0.818891005835,-0.573809950808,-0.0118493804629,0.0,-0.00770441581475,0.00965371858672,-0.999923720938,0.0,0.509945076167,0.0617854516435,0.304549144813,1.0,-0.17998,-0.236545142857,2.278
0.241496010788,-0.0816619239078,-0.128313104827,-2.22547686825,9.59434238808e-05,2.13792001596,-0.0605052519639,-0.401420043592,-0.601446581652,-0.00636494647822,-0.688445883796,-0.0906045356213,0.0805676924998,-0.349497170384,0.573949968753,0.818871024721,0.00352493149504,0.0,0.818842281425,-0.573878640728,-0.0118899440093,0.0,-0.00771359625035,0.00971078290253,-0.999923097607,0.0,0.507076316786,0.0579505447617,0.304550827847,1.0,-0.17998,-0.236545142857,2.294
0.235110505867,-0.0912689323302,-0.128334207165,-2.23650849554,-0.00133820924448,2.13916876362,-0.06613974687,-0.404417878715,-0.615758511248,-0.00121367452328,-0.663904434676,-0.0884087537087,0.0683317698365,-0.352578103572,0.573850426937,0.818941126293,0.00344471648439,0.0,0.818910208965,-0.573778003881,-0.0120672622263,0.0,-0.00790602698601,0.00974590471542,-0.999921252939,0.0,0.504315082697,0.0544834658411,0.304500249671,1.0,-0.17998,-0.236545142857,2.309
0.227724865814,-0.102060662882,-0.128397793788,-2.248521327,-0.00307196687775,2.14062852008,-0.0725693809085,-0.419703428151,-0.593009224784,-0.00598777147498,-0.674668407778,-0.0974950360924,0.0749646989274,-0.36299540357,0.573802670025,0.818974032891,0.00357438430786,0.0,0.81894586963,-0.573731108041,-0.0118754024282,0.0,-0.00767505851794,0.00974155244136,-0.999923094859,0.0,0.501134343146,0.0502472202567,0.304585826301,1.0,-0.17998,-0.236545142857,2.327
0.22017764477,-0.112737336412,-0.128574353235,-2.26064405384,-0.00474680297613,2.14180676397,-0.0791019902935,-0.433167400858,-0.591349494354,-0.0128785790008,-0.665821651465,-0.0942328895261,0.0615736210798,-0.370622238986,0.573911294948,0.81889863007,0.00340677300231,0.0,0.818867054455,-0.573838809403,-0.012104332014,0.0,-0.00795743554592,0.00973669449577,-0.999920934874,0.0,0.497642801021,0.0456877963331,0.304500364202,1.0,-0.17998,-0.236545142857,2.346
0.213793045568,-0.121683482594,-0.128669623363,-2.27030842997,-0.0061344282995,2.14290348316,-0.0846400042494,-0.423306024607,-0.587256890314,-0.000971567273814,-0.648339120033,-0.0828249036028,0.0703043935838,-0.372397727707,0.573943285224,0.818875039914,0.003677125768,0.0,0.818848217834,-0.573871351051,-0.0118328142711,0.0,-0.00757954505582,0.00980256090776,-0.999923227201,0.0,0.495211369948,0.0423731643627,0.30463844288,1.0,-0.17998,-0.236545142857,2.36
0.206553678519,-0.131643152524,-0.128706922402,-2.28136319769,-0.00763511554204,2.14388015196,-0.0910428594268,-0.427003095365,-0.59492070101,-0.00381275222608,-0.656798917875,-0.096032881808,0.0533061298632,-0.377911068829,0.573846162984,0.8189432098,0.00365338915159,0.0,0.818915141888,-0.573773121884,-0.0119641920092,0.0,-0.00770192559364,0.00985761116269,-0.999921750861,0.0,0.491933149488,0.038187384936,0.304608391027,1.0,-0.17998,-0.236545142857,2.378
0.199987770905,-0.140386695747,-0.128798176874,-2.29091729867,-0.00905119728017,2.14470562099,-0.0967632498704,-0.435470414336,-0.592392211454,-0.00496328606284,-0.628761220503,-0.0903479782252,0.0618256612454,-0.380028365138,0.573850015025,0.818940530717,0.00364887723647,0.0,0.818912589343,-0.573777226944,-0.0119420164384,0.0,-0.00768630660293,0.00984122729266,-0.999922032429,0.0,0.489427130264,0.0348592007115,0.304615224119,1.0,-0.17998,-0.236545142857,2.392
0.19245447487,-0.150288809986,-0.128990492688,-2.30156794908,-0.0105709053398,2.14566165761,-0.103342073362,-0.451367234116,-0.58611499778,-0.00819022863653,-0.638342599967,-0.0878641385472,0.0426783510357,-0.383477970152,0.573949665315,0.818869853749,0.0038329109783,0.0,0.818844651022,-0.573876665471,-0.0118218958487,0.0,-0.00748111998815,0.00992392288446,-0.999922771317,0.0,0.486415598014,0.030796676196,0.304674793214,1.0,-0.17998,-0.236545142857,2.409
0.183950611654,-0.161213330678,-0.129061443858,-2.31345518017,-0.0123693096934,2.14633776659,-0.110814987124,-0.441239278699,-0.57195189189,0.000743100069859,-0.612965082877,-0.089220953066,0.0394271220283,-0.393053162944,0.573854585199,0.818937436489,0.00362450865143,0.0,0.818908726594,-0.573781310384,-0.0120105064209,0.0,-0.00775632734912,0.0098606157919,-0.999921300724,0.0,0.482924518328,0.026329806574,0.304610615156,1.0,-0.17998,-0.236545142857,2.428
0.176669173513,-0.170407814746,-0.129109083858,-2.32307065395,-0.0136909976331,2.14707124149,-0.117239440443,-0.458103526772,-0.560047194749,-0.00214471495946,-0.602965364974,-0.0824278476129,0.0470976785907,-0.409159504889,0.573837272684,0.81894821167,0.00391892622019,0.0,0.818923769628,-0.573763519394,-0.0118334378768,0.0,-0.00744257917947,0.00999996208108,-0.999922301368,0.0,0.48012513735,0.0225992897159,0.304717809845,1.0,-0.17998,-0.236545142857,2.444
0.168806750259,-0.180057756808,-0.129254415043,-2.33339394661,-0.0152540042103,2.14754469429,-0.124115540159,-0.469043214581,-0.567461595017,-0.0114564395592,-0.60031257036,-0.0976278046292,0.0257095530528,-0.405043473513,0.573872346554,0.818924184597,0.0038021894284,0.0,0.81889746642,-0.573797996508,-0.0119810515522,0.0,-0.0076300310984,0.00998938978492,-0.999920994238,0.0,0.477016213707,0.0185588120693,0.304669614773,1.0,-0.17998,-0.236545142857,2.461
0.160756705422,-0.189693089922,-0.129405027023,-2.34345900396,-0.0167505097023,2.14803934196,-0.131174680103,-0.468384488642,-0.565337698385,-0.00197905081232,-0.579251263792,-0.0844860467807,0.0346488109973,-0.414328360428,0.573933532834,0.818880792303,0.00391085502683,0.0,0.818855603609,-0.573858933388,-0.0119235862575,0.0,-0.00751986144795,0.0100459649544,-0.999921262036,0.0,0.473800397162,0.014257664292,0.3047134074,1.0,-0.17998,-0.236545142857,2.479
0.152721941737,-0.199225424049,-0.129448591972,-2.35333619177,-0.0182985278621,2.14850046042,-0.138333564371,-0.473143885697,-0.55197729536,-0.00199392851355,-0.587515025962,-0.087260580448,0.0186129142794,-0.431873873758,0.573793063941,0.81897898605,0.00396069214605,0.0,0.818954970619,-0.573719018131,-0.0118317891812,0.0,-0.00741780511332,0.0100328202491,-0.999922156313,0.0,0.470941337371,0.0105310010785,0.304742392175,1.0,-0.17998,-0.236545142857,2.495
0.144516641459,-0.208651340724,-0.129592050767,-2.36325713064,-0.0197507902238,2.14869896564,-0.145561073491,-0.488536605474,-0.550520548093,-0.00920439097165,-0.570060547157,-0.0851789918812,0.0119473884415,-0.42192565147,0.573842836967,0.818944641481,0.00384961723776,0.0,0.818917525993,-0.57376698333,-0.0120946832775,0.0,-0.00769624096754,0.0100931607132,-0.999919444746,0.0,0.467806526663,0.00650994690124,0.304659387472,1.0,-0.17998,-0.236545142857,2.512
0.137088754929,-0.217007132939,-0.129750002006,-2.37160064364,-0.021019493886,2.14898127614,-0.152035049762,-0.496981913137,-0.555901329756,-0.00337084090285,-0.546891728461,-0.0783732447271,0.0207588202361,-0.427750925911,0.573991423912,0.818839291148,0.00409968895131,0.0,0.818816263507,-0.573915749205,-0.0118905984441,0.0,-0.00738375530549,0.0101821895595,-0.999920898458,0.0,0.465180870138,0.00290721962484,0.304774617562,1.0,-0.17998,-0.236545142857,2.527
0.12877448017,-0.226268166617,-0.129774097128,-2.38113608096,-0.022559066531,2.14914057686,-0.159478577222,-0.488939576817,-0.53893147311,-0.00129432987578,-0.56483355358,-0.0892714180066,0.00830685677583,-0.44110334379,0.573807100054,0.81896892173,0.00400800071994,0.0,0.818944646792,-0.573731702723,-0.0119308709853,0.0,-0.00747163932077,0.010128544221,-0.999920790462,0.0,0.462103594305,-0.00101915060549,0.304734520468,1.0,-0.17998,-0.236545142857,2.544
0.120190650277,-0.235486570771,-0.129892320972,-2.39054762432,-0.0240171686129,2.14916650838,-0.167090774174,-0.505724756451,-0.545123415726,-0.0117655029055,-0.544703406844,-0.087213406271,0.00023708778457,-0.452484985574,0.573809851416,0.818967252209,0.00395488660407,0.0,0.818941439449,-0.573733510318,-0.0120633657279,0.0,-0.00761059703585,0.0101610942568,-0.999919412241,0.0,0.459005434361,-0.00504655604022,0.3046908163,1.0,-0.17998,-0.236545142857,2.561
0.111422533019,-0.244710621876,-0.130073813599,-2.39953470079,-0.0255030952009,2.14924071931,-0.174811843383,-0.517191396156,-0.532593697078,-0.0131007807657,-0.529788642649,-0.0854466342434,0.00307967174857,-0.452526937936,0.573911821449,0.818894738274,0.00416842057344,0.0,0.818873083484,-0.573836590837,-0.0117977567218,0.0,-0.00726926860786,0.0101844755402,-0.999921714032,0.0,0.456030628845,-0.0091391811091,0.304817336854,1.0,-0.17998,-0.236545142857,2.578
0.103260996606,-0.25321605708,-0.130139980673,-2.40813719704,-0.0267788446445,2.14920650214,-0.182166489171,-0.516514319982,-0.528383947944,-0.00370997454514,-0.540293979365,-0.0781700492527,-0.00656627472705,-0.461970390677,0.573824379974,0.818955953785,0.00418014454775,0.0,0.818933504391,-0.573747799436,-0.0119216160465,0.0,-0.00736507150488,0.0102643719805,-0.99992019601,0.0,0.452940982694,-0.0130729512836,0.304760213157,1.0,-0.17998,-0.236545142857,2.595
0.0943031897495,-0.26220054811,-0.130261936404,-2.4171025845,-0.0282599762598,2.14906102743,-0.190091630177,-0.524691857735,-0.532386549583,-0.00759486212318,-0.524348845926,-0.0865343475195,-0.0103790606815,-0.462059347132,0.573851304442,0.818937418132,0.00411490895393,0.0,0.818913792872,-0.573774501938,-0.011990315724,0.0,-0.00745843196395,0.0102506113737,-0.999919645151,0.0,0.450031521919,-0.0168752142646,0.304718649356,1.0,-0.17998,-0.236545142857,2.611
0.0852036608146,-0.271174174601,-0.130452512952,-2.4256136732,-0.0296571799071,2.14897500688,-0.198197902639,-0.532819619906,-0.523174495734,-0.00433245096227,-0.502946835367,-0.087745552276,-0.00425956081874,-0.484245251147,0.57394209213,0.81887231407,0.00439943546399,0.0,0.818853844409,-0.573866374767,-0.0116838482604,0.0,-0.00704302738157,0.010308545429,-0.999922061791,0.0,0.447074194914,-0.0209532564389,0.304855980593,1.0,-0.17998,-0.236545142857,2.628
0.0767201631491,-0.279421679038,-0.130531549689,-2.43379518836,-0.030966810385,2.14869005937,-0.205914479511,-0.533271836292,-0.512289875029,-0.00638215084473,-0.510685814957,-0.0822426857808,-0.022845712514,-0.487839477831,0.573785119892,0.818982751734,0.00431688018104,0.0,0.818962256405,-0.573708318587,-0.0118462934614,0.0,-0.00722541905838,0.0103327877859,-0.999920510249,0.0,0.443971526503,-0.0248843042697,0.304780904689,1.0,-0.17998,-0.236545142857,2.645
0.0673830331114,-0.288163768588,-0.13067127256,-2.44228336571,-0.0323811749492,2.14833235451,-0.214234996377,-0.553136190447,-0.514688468104,-0.0072544221162,-0.495669196142,-0.0838766196485,-0.0203494624199,-0.491973435851,0.573848625396,0.818938362148,0.00429663066268,0.0,0.818917260683,-0.573771395262,-0.0119018081091,0.0,-0.00728170366455,0.0103486204786,-0.999919938218,0.0,0.441066784602,-0.0287048734027,0.304754811075,1.0,-0.17998,-0.236545142857,2.661
0.0579106614452,-0.296867073856,-0.130871406523,-2.45036538149,-0.0336564629318,2.14803055485,-0.222689279414,-0.560318358354,-0.512024039779,-0.00875018461445,-0.476670650722,-0.0762409582567,-0.0156297388342,-0.500298336733,0.574010218149,0.818823427941,0.00460545508564,0.0,0.818807214376,-0.573933224799,-0.0116681643129,0.0,-0.0069110756711,0.0104688269496,-0.999921317252,0.0,0.438093126414,-0.0327799552699,0.304874784543,1.0,-0.17998,-0.236545142857,2.678
0.0485112844913,-0.305396363888,-0.13097419704,-2.45849114155,-0.035090710676,2.14754252672,-0.23127106731,-0.56648420208,-0.499239369176,-0.0126392784579,-0.477636790238,-0.0840531018268,-0.0418681651031,-0.49983222761,0.573851168469,0.818935211444,0.00455003358699,0.0,0.818918367897,-0.573774508064,-0.0116733678487,0.0,-0.00694917247751,0.010425082574,-0.999921510247,0.0,0.435028909152,-0.0367419250177,0.30486078639,1.0,-0.17998,-0.236545142857,2.695
0.0387836296644,-0.313806313681,-0.131129936674,-2.46653336763,-0.0364098375493,2.14693544379,-0.239927506093,-0.57942445675,-0.494103186872,-0.0111176299357,-0.457916995937,-0.076219227189,-0.0375077603354,-0.516795636298,0.57398839777,0.818839322754,0.00449773706558,0.0,0.818820610685,-0.573910120275,-0.0118628944039,0.0,-0.00713264492481,0.01049220557,-0.999919516261,0.0,0.431917214597,-0.0407965408562,0.304798865559,1.0,-0.17998,-0.236545142857,2.712
0.0290550618517,-0.322175224243,-0.131264526389,-2.47419556364,-0.0377558475644,2.14642497278,-0.24878766911,-0.56360550499,-0.492010646406,-0.00154124472492,-0.44351308143,-0.0731873482761,-0.0316050922065,-0.523329452015,0.57393549187,0.818875618076,0.00463898620177,0.0,0.818859833784,-0.573858397752,-0.011655850284,0.0,-0.0068827029299,0.0104885875738,-0.999921305869,0.0,0.428922858464,-0.0448073874054,0.30487714084,1.0,-0.17998,-0.236545142857,2.729
0.0198402144318,-0.329942458419,-0.131347699345,-2.48132853987,-0.0389315125681,2.14588769391,-0.257257876307,-0.586623519082,-0.483924841626,-0.00539652950022,-0.455948742729,-0.0817291454869,-0.0396410818197,-0.536992621962,0.573830288449,0.818948598897,0.00476857686748,0.0,0.818934843041,-0.573753358414,-0.0115565333749,0.0,-0.00672834936447,0.0105368454954,-0.999921849047,0.0,0.426085168124,-0.0485292051018,0.304915381177,1.0,-0.17998,-0.236545142857,2.745
0.00970705118063,-0.338021680593,-0.131514793448,-2.48890589087,-0.0402139141764,2.14506362205,-0.266325374617,-0.601609794523,-0.471845375655,-0.00553487920838,-0.433353713755,-0.0739230480593,-0.0400412659409,-0.527277487817,0.573983151774,0.818842004348,0.00467549951587,0.0,0.818825554852,-0.573904198981,-0.011807964004,0.0,-0.00698570260422,0.0106061950825,-0.99991935104,0.0,0.422957169268,-0.052602596871,0.304838929406,1.0,-0.17998,-0.236545142857,2.762
-0.000310776232717,-0.346074409654,-0.131613086706,-2.49623530509,-0.0414944854401,2.14432040777,-0.275583546889,-0.588037895411,-0.464992558774,-0.00337094088399,-0.423523442576,-0.0760532368271,-0.0521684620851,-0.55570846888,0.573835060272,0.818945583979,0.00471179208828,0.0,0.818929704657,-0.573756161302,-0.011779350545,0.0,-0.0069433610508,0.0106182352672,-0.99991951817,0.0,0.41990560035,-0.0565568171144,0.304850864035,1.0,-0.17998,-0.236545142857,2.779
-0.011819278284,-0.354959243098,-0.131786206067,-2.50402354753,-0.0429048523807,2.14349878734,-0.286043595086,-0.616431357805,-0.457537376326,-0.0128165862961,-0.412089257837,-0.0694850459538,-0.0438946454715,-0.55633763284,0.573897737909,0.818900503448,0.00490905046848,0.0,0.818888652444,-0.573820526094,-0.0114945914528,0.0,-0.00659613980133,0.0106168901639,-0.99992188324,0.0,0.416570770813,-0.0610862417809,0.304973659534,1.0,-0.17998,-0.236545142857,2.798
-0.0210636061473,-0.36177914267,-0.131933231952,-2.51027385623,-0.0440427905758,2.14267160921,-0.294444583581,-0.611437806863,-0.452242836504,-0.00784581005616,-0.42007083238,-0.0774162442835,-0.0575584196299,-0.570021460495,0.573948885636,0.818865331617,0.00479502381169,0.0,0.818851051082,-0.573870499144,-0.0116770397188,0.0,-0.00681033141342,0.0106286388565,-0.999920322537,0.0,0.413633998862,-0.0649011172421,0.304904332296,1.0,-0.17998,-0.236545142857,2.814
-0.0319820890399,-0.369912640602,-0.13200019095,-2.51759400315,-0.0452967022133,2.14171961695,-0.304672254289,-0.615538914428,-0.4501845072,-0.00876233248343,-0.408821966545,-0.0623815581812,-0.0499050987943,-0.566409089108,0.573714982965,0.819029119967,0.00481309338878,0.0,0.81901456165,-0.57363577897,-0.0117425632631,0.0,-0.00685667069238,0.0106790836599,-0.999919468377,0.0,0.410563986598,-0.0687987843408,0.304881871033,1.0,-0.17998,-0.236545142857,2.831
-0.0427585085079,-0.377418731812,-0.132182022162,-2.52422831603,-0.0464767451378,2.14075119059,-0.314378252284,-0.638740297153,-0.437912737384,-0.00816799550071,-0.385477238766,-0.069745483121,-0.0600670021449,-0.570712277603,0.573933568088,0.818875732172,0.00485196685577,0.0,0.818861249665,-0.573853528831,-0.0117952595182,0.0,-0.00687466583077,0.0107429898605,-0.999918660261,0.0,0.407492291052,-0.0728891443358,0.304881390666,1.0,-0.17998,-0.236545142857,2.848
-0.0528044787723,-0.3843763522,-0.132263599311,-2.53014770334,-0.0476119698049,2.13994541656,-0.323709405848,-0.621453241013,-0.425794152776,-0.00792758038585,-0.371057682761,-0.0737756023753,-0.0560214534986,-0.585711511309,0.57382848049,0.818948656122,0.00497197294243,0.0,0.818937314588,-0.573750606077,-0.0115179730457,0.0,-0.0065800827449,0.0106812807886,-0.999921303279,0.0,0.40471034887,-0.076645380252,0.304978774638,1.0,-0.17998,-0.236545142857,2.864
-0.0636424801619,-0.391627810987,-0.132427044469,-2.53661114153,-0.0488026522086,2.13888526453,-0.333774526028,-0.645970514293,-0.424358700731,-0.014489144741,-0.384120922775,-0.0723949040541,-0.0662470899043,-0.588311491304,0.573782594695,0.818981261131,0.00489641119763,0.0,0.818967873536,-0.57370324947,-0.0117025879391,0.0,-0.00677524365851,0.0107249512274,-0.99991953251,0.0,0.401594991789,-0.0806508877125,0.304910361923,1.0,-0.17998,-0.236545142857,2.881
-0.0760065885043,-0.399614555981,-0.13259832773,-2.54352689294,-0.0500912133236,2.13769147755,-0.345147514037,-0.636606193689,-0.42049900356,-0.00347439386413,-0.356046462154,-0.0715542710289,-0.0608220493301,-0.59995254321,0.573852263861,0.818932394194,0.00490508941867,0.0,0.818918781603,-0.573772344505,-0.0117504348642,0.0,-0.00680853818582,0.0107600906636,-0.999918928842,0.0,0.398150124194,-0.0851742524224,0.30490562791,1.0,-0.17998,-0.236545142857,2.9
-0.0856562826074,-0.405766118231,-0.132709046401,-2.54880686472,-0.0510763119757,2.13675574335,-0.354263909772,-0.651957890032,-0.415108369557,-0.00806517678796,-0.343284125158,-0.0648455783314,-0.0578442568057,-0.604001859695,0.573702918551,0.81903689943,0.00492600429292,0.0,0.819023463291,-0.573622805189,-0.0117554603078,0.0,-0.00680261833248,0.0107788625102,-0.999918766954,0.0,0.395467896744,-0.0886526304482,0.304908476917,1.0,-0.17998,-0.236545142857,2.915
-0.0970628404073,-0.412600984228,-0.132921102634,-2.55449117448,-0.0521225772049,2.13576412719,-0.364694125781,-0.677987231407,-0.391839120583,-0.0121360970973,-0.333175897032,-0.0595792597743,-0.0595540645788,-0.603996189362,0.573943123904,0.818867470432,0.00510913810155,0.0,0.818857200118,-0.573863667175,-0.0115812008547,0.0,-0.00655164606087,0.0108308136447,-0.999919881495,0.0,0.392456625958,-0.0927784225255,0.304982415657,1.0,-0.17998,-0.236545142857,2.932
-0.108275705725,-0.419337336587,-0.132992456648,-2.56017590572,-0.0531482281578,2.1346425701,-0.375289003082,-0.658774351348,-0.402739339315,-0.0123088705421,-0.335924396319,-0.0572266088074,-0.0700956234099,-0.615546202499,0.573789958207,0.818974505315,0.00515658861527,0.0,0.81896469242,-0.573710122254,-0.0115877130603,0.0,-0.00653178024345,0.0108721867251,-0.999919562466,0.0,0.389407243301,-0.0967128364495,0.304994260996,1.0,-0.17998,-0.236545142857,2.949
-0.119079735859,-0.425486489144,-0.13318013658,-2.56546297275,-0.0541949949695,2.13347775202,-0.385368918973,-0.688405020075,-0.392277476481,-0.0149403022583,-0.330545992129,-0.0586924705398,-0.0737529905891,-0.640588589345,0.573816526161,0.818956417235,0.00507226523044,0.0,0.818944288537,-0.573734953813,-0.0117983874943,0.0,-0.00675235929759,0.0109242226918,-0.999917530101,0.0,0.386459105381,-0.100512872311,0.304933373077,1.0,-0.17998,-0.236545142857,2.965
-0.130648889,-0.431837567664,-0.133284414096,-2.57078667256,-0.0552319429402,2.13240626741,-0.396126261742,-0.674568891235,-0.360965618132,-0.000574493339643,-0.306290066574,-0.0471079100924,-0.0690209856907,-0.629882525014,0.573851725818,0.818931624941,0.00509287238317,0.0,0.818919959547,-0.57377039505,-0.01176352502,0.0,-0.00671151247784,0.0109213842509,-0.999917836108,0.0,0.383417710978,-0.104524315865,0.30493347885,1.0,-0.17998,-0.236545142857,2.982
-0.142955663802,-0.43834549414,-0.133430612772,-2.57619882927,-0.0562781185718,2.13120615707,-0.407775624546,-0.696548064454,-0.358384584163,-0.0165163844001,-0.290050711332,-0.0682881081184,-0.0642027184613,-0.639172464583,0.573795110506,0.818971054169,0.00513132486784,0.0,0.818959673178,-0.573713309312,-0.0117830100966,0.0,-0.00670616394341,0.0109635928003,-0.999917410088,0.0,0.380023289734,-0.108998831901,0.304935078421,1.0,-0.17998,-0.236545142857,3.001
-0.154175970967,-0.444093011638,-0.13358277801,-2.58075389262,-0.0572554850733,2.13016713556,-0.418196988236,-0.689125499627,-0.359865772063,0.000538015292698,-0.287864075498,-0.0600764811843,-0.056490655053,-0.643961589848,0.573895368613,0.818900358101,0.0052015658516,0.0,0.818891150163,-0.573815414125,-0.0115715858617,0.0,-0.00649136212158,0.0109006056469,-0.999919516268,0.0,0.377360732865,-0.112617955905,0.305019674717,1.0,-0.17998,-0.236545142857,3.016
-0.166646160518,-0.450365130357,-0.133690498647,-2.58594079202,-0.0582109265848,2.12890801656,-0.430086528233,-0.701809833875,-0.344150973952,-0.004575211463,-0.285985552693,-0.0612005157444,-0.0752613009696,-0.669304699618,0.573776752367,0.818983237024,0.00523858929083,0.0,0.818973770004,-0.573695462745,-0.0116716311269,0.0,-0.00655364151225,0.0109873893651,-0.99991816018,0.0,0.374105478782,-0.116790377849,0.304998215036,1.0,-0.17998,-0.236545142857,3.034
-0.176631716684,-0.455053665531,-0.133866336192,-2.58986444419,-0.0589918725105,2.12790023463,-0.439449692236,-0.713502804729,-0.332500711136,-0.00661354237067,-0.274037237536,-0.0554990055233,-0.0773469972768,-0.668888516325,0.573879132113,0.818911612817,0.00522101704751,0.0,0.818900790304,-0.573796007952,-0.0118483669213,0.0,-0.00670709565785,0.0110752387448,-0.999916173464,0.0,0.371523540264,-0.120143610763,0.304945177736,1.0,-0.17998,-0.236545142857,3.048
-0.188582804539,-0.460603923772,-0.13393279699,-2.59429502291,-0.059832816859,2.1268115926,-0.450911922265,-0.712314602389,-0.321444944124,-0.00274982074495,-0.255539636941,-0.0564295365483,-0.0583326195692,-0.689004290126,0.573737080377,0.819010528938,0.00531629476279,0.0,0.819001390099,-0.573654396471,-0.0117517371664,0.0,-0.00657520720213,0.0110966738175,-0.99991681178,0.0,0.368523598728,-0.124087199887,0.30498307651,1.0,-0.17998,-0.236545142857,3.065
-0.200181081893,-0.465570045805,-0.134112549016,-2.59838061291,-0.0606866219235,2.12576721619,-0.461810732777,-0.734834137255,-0.30691698958,-0.0120637650708,-0.252593978009,-0.0624043905188,-0.0702292696704,-0.684228756715,0.573864779261,0.818921098818,0.00530998444553,0.0,0.818911304787,-0.57378113006,-0.011842152707,0.0,-0.00665114788664,0.0111444152044,-0.999915778574,0.0,0.365441621225,-0.128167299785,0.304942839429,1.0,-0.17998,-0.236545142857,3.082
-0.212390217968,-0.470760595623,-0.134188590884,-2.60250448917,-0.0615510070484,2.12464151861,-0.47345574687,-0.722358324524,-0.31054782822,-0.00345781801287,-0.234462572171,-0.0468284388573,-0.068283538909,-0.684305064443,0.573789027126,0.818974050194,0.00532957413666,0.0,0.818964713133,-0.573705662972,-0.0118049912372,0.0,-0.00661050189525,0.0111385220422,-0.999916113777,0.0,0.362587668399,-0.131903782016,0.304963024432,1.0,-0.17998,-0.236545142857,3.098
-0.224818034318,-0.475853178511,-0.134384534991,-2.60639691364,-0.0623877214667,2.12355712875,-0.485295039212,-0.737475275909,-0.287906097369,-0.0107923486358,-0.228154740427,-0.0512981450818,-0.0631405827826,-0.706806636358,0.573845612768,0.818933598723,0.00545165039171,0.0,0.81892677389,-0.573763418342,-0.0116286577176,0.0,-0.0063952640773,0.0111377711179,-0.999917521925,0.0,0.359550761689,-0.13596928412,0.305041267981,1.0,-0.17998,-0.236545142857,3.115
-0.237999777696,-0.480933846986,-0.134455973872,-2.61044298744,-0.0632439792317,2.12240081515,-0.497919264542,-0.725972199608,-0.278540886002,-0.0046235183021,-0.227634241629,-0.0445443548733,-0.0633569794876,-0.709397698666,0.573769024834,0.818987298396,0.00544592579112,0.0,0.81898027269,-0.573686642675,-0.0116488566655,0.0,-0.00641613429698,0.0111440734768,-0.999917318005,0.0,0.356316379657,-0.14018489283,0.305034104625,1.0,-0.17998,-0.236545142857,3.133
-0.249819588003,-0.485216895943,-0.134589402991,-2.6138860125,-0.0639921738144,2.12138495149,-0.50922173457,-0.746500091639,-0.264701870162,-0.0145100989812,-0.213172410167,-0.0469571975707,-0.0641768009972,-0.711666713776,0.573776013444,0.818982382716,0.00544886202778,0.0,0.81897479278,-0.573692577451,-0.0117414764719,0.0,-0.00649021563344,0.0111996738405,-0.999916218694,0.0,0.35324004932,-0.144203371485,0.305004298332,1.0,-0.17998,-0.236545142857,3.15
-0.262502578076,-0.489541493104,-0.134684918066,-2.61735748286,-0.0647250747298,2.12032114042,-0.521403297715,-0.737688613097,-0.256772940598,-0.00476992773663,-0.197942216685,-0.0390754776062,-0.0566673870597,-0.718462517916,0.573758373051,0.818994813662,0.00543796367379,0.0,0.818986330511,-0.573673688474,-0.0118590256509,0.0,-0.00659299076014,0.0112580499304,-0.999914890771,0.0,0.350352880814,-0.14796477215,0.304963821215,1.0,-0.17998,-0.236545142857,3.166
-0.276003735714,-0.493940204852,-0.134868503793,-2.62080000927,-0.0654397869732,2.11928517679,-0.534414405778,-0.75983268853,-0.249667993138,-0.0223119917674,-0.18723568838,-0.0351535139733,-0.0637820996572,-0.731556418455,0.573796484824,0.818967426883,0.00554027160429,0.0,0.818960048115,-0.573711031695,-0.0118675441493,0.0,-0.00654074308697,0.0113470346816,-0.999914228063,0.0,0.347120671503,-0.152231151348,0.304961140327,1.0,-0.17998,-0.236545142857,3.184
-0.288801378942,-0.49793050119,-0.134929101882,-2.62386917756,-0.0661179325276,2.1182872212,-0.546732112538,-0.74838857867,-0.236534452723,-0.000864423427935,-0.17343242487,-0.0377294580105,-0.058211561002,-0.723588154912,0.573772166601,0.818984300831,0.00556441622856,0.0,0.818977286357,-0.573686717291,-0.0118533428568,0.0,-0.00651559547773,0.0113584674012,-0.999914262441,0.0,0.344077366889,-0.156215560486,0.304975568474,1.0,-0.178151428571,-0.234141877551,3.201
-0.301601144178,-0.501643101724,-0.134992221259,-2.62670165124,-0.0667039025957,2.11734686185,-0.559045044229,-0.768190379804,-0.21042238254,-0.00859482389683,-0.167592485843,-0.0350484671201,-0.0593962601753,-0.732101790125,0.573807114398,0.818959309629,0.00563839867511,0.0,0.818953262396,-0.573721397914,-0.0118346308698,0.0,-0.0064573354807,0.01140860003,-0.99991406964,0.0,0.341069563743,-0.160179065819,0.304994008898,1.0,-0.175664571429,-0.230873436735,3.218
-0.31437711961,-0.505052676913,-0.135003145007,-2.62929459914,-0.0672889391268,2.11651234239,-0.571314599918,-0.738179135202,-0.19577226198,0.00644849722484,-0.147167965907,-0.0325513165689,-0.0421836766424,-0.730436724625,0.573833691403,0.818940509203,0.00566426504108,0.0,0.818935241019,-0.573748663565,-0.0117596333087,0.0,-0.00638069844069,0.0113869592819,-0.999914808294,0.0,0.338113380388,-0.164115471395,0.305014669303,1.0,-0.173177714286,-0.227604995918,3.235
-0.326251804015,-0.508037647366,-0.135018191843,-2.63157507096,-0.0677471738317,2.11578040386,-0.582777005173,-0.747971459543,-0.186657072532,-0.00405119752226,-0.144449142021,-0.0319383079063,-0.0424392408981,-0.712912325636,0.573857728373,0.818923145173,0.00573905809241,0.0,0.818919032888,-0.573772766631,-0.0117122477759,0.0,-0.00629863681447,0.0114212076992,-0.999914937977,0.0,0.33537226015,-0.167745657408,0.305024941111,1.0,-0.170837142857,-0.224528816327,3.251
-0.340274822996,-0.51138106183,-0.134975771214,-2.63411033334,-0.0682827443231,2.1148899152,-0.596323227304,-0.726007738408,-0.165133219177,0.00359824995685,-0.129532706523,-0.0286759060586,-0.0532598503295,-0.709108529119,0.573845424218,0.818931529783,0.00577282705156,0.0,0.81892791886,-0.573760462673,-0.011693677195,0.0,-0.00626422163975,0.011438112613,-0.999914960938,0.0,0.332132304134,-0.171985701385,0.305037311441,1.0,-0.168057714286,-0.220875853061,3.27
-0.349713746537,-0.513413633586,-0.13493845296,-2.63570166882,-0.0685842589291,2.11429458322,-0.605507303774,-0.725151313314,-0.157848144654,0.000994091408598,-0.121676381547,-0.0248535636254,-0.0451315123343,-0.700529672522,0.573808712257,0.818957048042,0.00580190501017,0.0,0.818953210498,-0.573722553068,-0.0117821058311,0.0,-0.00632047654485,0.0115123853588,-0.999913754561,0.0,0.329955459463,-0.174816957343,0.30501612251,1.0,-0.166156,-0.218376457143,3.283
-0.362206399896,-0.515856710963,-0.134922123921,-2.63764779481,-0.068999388718,2.11359127953,-0.617441380112,-0.719831849742,-0.135941329705,0.0108298371141,-0.112857535943,-0.0321427203501,-0.0348690289091,-0.692000093846,0.57396707194,0.818845963911,0.00581675300589,0.0,0.818841562909,-0.573879452552,-0.0119002391593,0.0,-0.00640647111894,0.0115935677602,-0.999912269309,0.0,0.327088422824,-0.178570679939,0.304974111922,1.0,-0.163669142857,-0.215108016327,3.3
-0.374267931903,-0.518051259276,-0.134809940659,-2.63936001035,-0.0693223620786,2.11299109067,-0.629222854752,-0.710419788839,-0.128332137846,0.00753678604917,-0.0973789399105,-0.0246548985585,-0.0434557002445,-0.683302030216,0.573881496158,0.818905707343,0.00584959393964,0.0,0.818901489244,-0.573793323533,-0.0119297813719,0.0,-0.00641303157556,0.0116367460146,-0.999911725688,0.0,0.324358753948,-0.182154836981,0.304956394595,1.0,-0.161182285714,-0.21183957551,3.317
-0.387138924337,-0.520200498402,-0.134792000686,-2.64098920451,-0.0697009380667,2.11235259337,-0.64161521604,-0.706740306986,-0.114024146145,0.00106826968233,-0.0842308610346,-0.0203477747988,-0.0360509832655,-0.680478285118,0.574005917258,0.818818264067,0.00588254062313,0.0,0.818814252714,-0.573917185785,-0.0119595281966,0.0,-0.00641671249888,0.0116817729672,-0.999911177046,0.0,0.321437294883,-0.186003331474,0.304952582871,1.0,-0.158549142857,-0.208378873469,3.335
-0.397476983099,-0.52180039848,-0.134651275165,-2.64216991695,-0.0699096905136,2.11188655082,-0.651831699843,-0.695092548045,-0.100667787149,0.00531492180305,-0.07265028045,-0.0151690183348,-0.0316095404356,-0.678391192598,0.573848800719,0.818928087393,0.00592355415904,0.0,0.818924724427,-0.573760147647,-0.0119304482516,0.0,-0.00637160253265,0.0116974435906,-0.999911282312,0.0,0.319125844463,-0.18904546823,0.304967514956,1.0,-0.156354857143,-0.205494955102,3.35
-0.410758771094,-0.523673830064,-0.134604454648,-2.64351896889,-0.070225891039,2.11133679308,-0.664625096843,-0.693244204506,-0.0964306088592,-0.000874195403933,-0.0636205716484,-0.0159874860166,-0.0361453598227,-0.669367548835,0.57400282398,0.818819725272,0.00598017301249,0.0,0.818817445637,-0.573914559321,-0.0118666010571,0.0,-0.00628461965673,0.0117083579305,-0.999911705057,0.0,0.316141358209,-0.192990160122,0.304995871313,1.0,-0.153575428571,-0.201841991837,3.369
-0.420248167661,-0.52485939125,-0.134477039964,-2.64436408055,-0.0703994619525,2.11099439113,-0.673971413241,-0.672591550361,-0.0774818295449,0.00930536391725,-0.0608023112465,-0.013386474852,-0.0172947547066,-0.665540927057,0.573881364117,0.818904640025,0.00600977256522,0.0,0.81890305087,-0.573793582943,-0.0118095025615,0.0,-0.00622260731563,0.0116988997683,-0.999912203597,0.0,0.313889801484,-0.195968308544,0.305016016739,1.0,-0.151381142857,-0.198958073469,3.384
-0.433110519597,-0.526230638318,-0.134385588454,-2.64540252245,-0.070635363147,2.1105645737,-0.686476358943,-0.677878057132,-0.0705460768276,0.0019511575101,-0.0506565096656,-0.016923689308,-0.0223982481538,-0.653647114953,0.573987132013,0.818830244854,0.00604560142914,0.0,0.818829070262,-0.573899096877,-0.0118121631865,0.0,-0.00620271069537,0.0117305697175,-0.999911956181,0.0,0.311007897391,-0.199762203326,0.305014003409,1.0,-0.148601714286,-0.195305110204,3.403
-0.444363626076,-0.52724959953,-0.134278391191,-2.64618508992,-0.0708072368054,2.11022853917,-0.697529156471,-0.643743946203,-0.0540983349563,0.009284061814,-0.0364244016869,-0.00476110183554,-0.0120172702426,-0.644583575179,0.57394492232,0.818859606465,0.00607601383057,0.0,0.818858702893,-0.5738565439,-0.0118253380474,0.0,-0.00619665066702,0.0117627159998,-0.999911616111,0.0,0.308652768807,-0.202858481101,0.305006615447,1.0,-0.146261142857,-0.192228930612,3.419
-0.456741021845,-0.528199633193,-0.134135090835,-2.64692170293,-0.0709653825313,2.10990413621,-0.709647299527,-0.657532411006,-0.0470115196641,0.00234496818285,-0.0350075208323,-0.00588311892832,-0.0208319760148,-0.629376480362,0.573946459848,0.818858300368,0.00610672144063,0.0,0.818857617612,-0.573857622753,-0.0118481132456,0.0,-0.00619765655022,0.0118009452283,-0.999911159426,0.0,0.30589745984,-0.206466370971,0.304994856615,1.0,-0.143481714286,-0.188575967347,3.438
-0.466509216621,-0.52878296981,-0.134062046636,-2.64740458644,-0.0710906222125,2.1096608486,-0.719127908818,-0.638089380064,-0.0337911786202,0.00994493572196,-0.0264442598333,-0.0118917306745,-0.0200247785966,-0.631791533879,0.57404960821,0.818785818549,0.00613005366378,0.0,0.818784951274,-0.573959728373,-0.0119239538024,0.0,-0.00624488057194,0.0118643651248,-0.999910115114,0.0,0.303710886632,-0.209318043903,0.304969415485,1.0,-0.141287428571,-0.18569204898,3.453
-0.477123246394,-0.529260778059,-0.133898723026,-2.64779344447,-0.0711573088689,2.10946397326,-0.729709123762,-0.623738366276,-0.0204641609185,0.00514380857184,-0.0252480529585,-0.00130727652752,-0.0113094165478,-0.613651584552,0.573910716898,0.818882927849,0.00616331136905,0.0,0.818882246882,-0.573820260863,-0.0119549515352,0.0,-0.0062531931712,0.0119083303404,-0.99990954053,0.0,0.301369162055,-0.212396837498,0.304954403642,1.0,-0.138800571429,-0.182423608163,3.47
-0.487232142215,-0.529622448811,-0.13380398376,-2.64807886873,-0.0712592072594,2.10929243831,-0.739512054642,-0.630845016542,-0.0231537403838,0.00468513292024,-0.0159246834327,-0.00753466089977,-0.0118091893383,-0.603330184329,0.57403476535,0.818795845409,0.00618050252878,0.0,0.818795220645,-0.573943891987,-0.011980918168,0.0,-0.00626278492238,0.0119382593295,-0.999909123615,0.0,0.299119208478,-0.215343442446,0.30494434433,1.0,-0.13646,-0.179347428571,3.486
-0.497570924693,-0.529839544126,-0.133624697876,-2.64822466821,-0.0713043398045,2.10915935051,-0.749780730495,-0.597055189328,-0.00931769017542,0.0183894833547,-0.00806012113101,-0.00109511854578,-0.0119376906483,-0.594650211676,0.57393804308,0.818863537142,0.00619492901244,0.0,0.818863156044,-0.573847236364,-0.0119677855725,0.0,-0.00624516057109,0.0119417964707,-0.99990919161,0.0,0.296849682346,-0.218340993785,0.304950439849,1.0,-0.133973142857,-0.176078987755,3.503
-0.504789495661,-0.52994764725,-0.133533127646,-2.64831545824,-0.0713257408822,2.10908459472,-0.756940463233,-0.605348127329,-0.00710845011522,0.0110066294508,-0.00736638868616,-0.00164972921213,-0.0102863679002,-0.596693305814,0.57390741374,0.818884765759,0.00622637634332,0.0,0.818884709613,-0.573816319455,-0.0119754244287,0.0,-0.00623381629162,0.0119716997385,-0.999908904821,0.0,0.295246867741,-0.220430755653,0.304944532912,1.0,-0.132217714286,-0.173771853061,3.515
-0.516862882017,-0.530022056061,-0.133411356013,-2.64837148631,-0.0713485787928,2.10893735392,-0.768670331858,-0.597139588759,0.00267171340343,0.00631453493058,0.000405806361212,-0.00284355161337,-0.00901544337076,-0.589437295799,0.57408991102,0.818756336947,0.0062913969783,0.0,0.818756777193,-0.573997823378,-0.012024369344,0.0,-0.00623390044851,0.0120544251258,-0.99990791042,0.0,0.29254663653,-0.223923365066,0.304936695984,1.0,-0.129292,-0.169926628571,3.535
-0.527730579789,-0.529930041891,-0.133210966848,-2.64832636795,-0.0713561242272,2.1089436579,-0.779592244494,-0.569714500232,0.00811099635283,0.0063382575607,-0.00114923795412,-0.00245614182528,0.00336216790675,-0.571855548548,0.573903806403,0.818886685371,0.00630590353963,0.0,0.818887512973,-0.573812080972,-0.0119868147785,0.0,-0.00619755871183,0.0120433361662,-0.999908269953,0.0,0.290143514308,-0.227052345963,0.304929229432,1.0,-0.126512571429,-0.166273665306,3.554
-0.538693349701,-0.529759355129,-0.1330715423,-2.64817828684,-0.0713600915184,2.10892865362,-0.790248949267,-0.571918406055,0.00836999515083,0.00554302410925,0.00993122648095,1.29484146904e-05,-0.000201089349336,-0.561547586464,0.574062758373,0.818774992018,0.00634104054643,0.0,0.818776479124,-0.573971242568,-0.0119514367277,0.0,-0.00614608092085,0.0120530016447,-0.999908471232,0.0,0.287694152218,-0.230217055459,0.304936486616,1.0,-0.123733142857,-0.162620702041,3.573
-0.54649651858,-0.529512657115,-0.132920276475,-2.64796874927,-0.0713608035892,2.10894709382,-0.797985805963,-0.536385697621,0.0200301509579,0.0121965456786,0.0142471039767,0.000402217367048,0.0025023573299,-0.548909792054,0.574021887185,0.818803733566,0.00632975768881,0.0,0.818805297708,-0.573930867143,-0.0119160013162,0.0,-0.00612414095644,0.0120231161743,-0.999908965644,0.0,0.285968061061,-0.232467315393,0.30494707899,1.0,-0.121685142857,-0.159929044898,3.587
