nelsonifechukwu/NELSON_IML_WORK/CNN-GradCAM/train2dof/data_sample_2022-02-21-15-16-45/robot_state.csv
position_joint1,position_joint2,position_joint3,position_joint4,position_joint5,position_joint6,position_joint7,velocity_joint1,velocity_joint2,velocity_joint3,velocity_joint4,velocity_joint5,velocity_joint6,velocity_joint7,ee_T_00,ee_T_10,ee_T_20,ee_T_30,ee_T_01,ee_T_11,ee_T_21,ee_T_31,ee_T_02,ee_T_12,ee_T_22,ee_T_32,ee_T_03,ee_T_13,ee_T_23,ee_T_33,v_x,v_y,time
0.465075717741,0.547879413304,-0.123944305317,-1.3558600294,0.0794684149027,1.89409779658,0.159164839921,-0.00194467315008,-0.00214215639835,0.00127963142394,-0.000621350197915,-9.87571538844e-05,0.000133246425902,-7.49769303348e-05,0.573771069239,0.819001935388,0.00182670098489,0.0,0.818957204412,-0.57371304259,-0.0119661608504,0.0,-0.00875247522793,0.00836198783186,-0.999926732984,0.0,0.661658796418,0.26090757297,0.303130170406,1.0,0.0,0.0,0.0
0.465078620689,0.547882113421,-0.123945918462,-1.35585753289,0.0794673504598,1.89409674589,0.159163212202,0.000722804595571,7.28584871484e-05,0.000356129121033,0.00118447318582,-7.87867725938e-05,-0.00034495537208,0.000692754518227,0.573768064691,0.819004045055,0.00182456179259,0.0,0.818959305357,-0.573710065886,-0.0119650897,0.0,-0.00875285591708,0.00835958916723,-0.999926749708,0.0,0.661658760391,0.26090857683,0.303129405968,1.0,-0.00014,-0.000184,0.008
0.4650764334,0.547872618694,-0.123947980893,-1.35586404556,0.0794667399459,1.89409600167,0.159169168081,-0.000264710966702,-0.00376063715217,0.000295934920384,-0.00253197121262,-0.000414863561269,-2.10735886749e-05,0.00152906391463,0.573776346713,0.818998239588,0.00182603559175,0.0,0.818953528569,-0.573718349624,-0.0119632876151,0.0,-0.00875044984366,0.00835985070665,-0.99992676858,0.0,0.661658449598,0.260905138901,0.30313303508,1.0,-0.0005,-0.000657142857143,0.026
0.465073315508,0.547855191786,-0.123950895295,-1.35588122048,0.0794673502975,1.89409710528,0.159165196409,-0.000501021773479,-0.00112515265915,-0.00278434212464,-0.000142184875072,-0.000210219756198,-8.35853914028e-05,-0.000174490126982,0.573778760199,0.818996544818,0.00182779166227,0.0,0.818951849594,-0.573720748512,-0.0119631799219,0.0,-0.0087493294722,0.00836125288616,-0.99992676666,0.0,0.661656642611,0.260899753998,0.303137399898,1.0,-0.00084,-0.001104,0.043
0.465077780576,0.547784175293,-0.123943415626,-1.35595400165,0.0794635411631,1.89411238302,0.159164471129,0.000331736417926,-0.00673765913525,0.00124707241243,-0.00628846414562,-0.000343399486523,0.000338849117842,-0.00054822274087,0.573772228236,0.819001088013,0.00184250926499,0.0,0.81895652528,-0.573714097592,-0.0119620577741,0.0,-0.00874003306434,0.00837259272716,-0.999926753074,0.0,0.661642216749,0.260899754716,0.303154141442,1.0,-0.00116,-0.00152457142857,0.059
0.465080008798,0.547652178271,-0.123947815481,-1.35613031283,0.0794638750479,1.89413979789,0.159155317542,-0.000303008480524,-0.00819633959307,-0.0047653320347,-0.0087268856269,-0.000240899220442,0.0037299624472,-0.00113224917232,0.573775646372,0.818998710317,0.00183494676818,0.0,0.818953918878,-0.573717423198,-0.0119809838263,0.0,-0.00875983802455,0.00837729487472,-0.999926540386,0.0,0.661611159853,0.260881400958,0.303166261174,1.0,-0.0015,-0.00197142857143,0.076
0.465056771359,0.547504065366,-0.123943890238,-1.35633971925,0.0794604067709,1.89421473557,0.1591571435,-0.00308906726228,-0.0173034964902,0.00137786252227,-0.0114143110951,-0.000196210896667,0.00743227111755,0.000968622162059,0.573804197203,0.818978667523,0.00185265116382,0.0,0.818934000295,-0.573745792278,-0.0119839853357,0.0,-0.00875184603216,0.00839382172063,-0.999926471771,0.0,0.661587360446,0.260849917728,0.303177885558,1.0,-0.00184,-0.00241828571429,0.093
0.465039607131,0.54734463488,-0.123946287007,-1.35653892571,0.079453964812,1.89433462234,0.159145671813,-0.000735331028149,-0.0136741624969,0.000776583232608,-0.0169420674166,0.000176716231331,0.00519391112888,-0.0046362976218,0.573820253432,0.81896725773,0.00192208690906,0.0,0.818923521456,-0.573761576153,-0.0119443140203,0.0,-0.0086793495886,0.00842809374523,-0.999926815385,0.0,0.661575201435,0.26082273795,0.303206482463,1.0,-0.00216,-0.00283885714286,0.109
0.465016264735,0.547134419167,-0.123944135104,-1.35678137386,0.0794554575919,1.89445985943,0.159125390929,-0.000857862140496,-0.0122618900873,0.000244855889172,-0.0164010303798,0.00539612149017,0.00264662404852,-0.00153753383178,0.573835378735,0.818956447347,0.00201056284784,0.0,0.818913757085,-0.573776226761,-0.0119099522668,0.0,-0.00860028461409,0.00848099283068,-0.999927051272,0.0,0.661555648629,0.260791288716,0.303250792504,1.0,-0.0025,-0.00328571428571,0.126
0.464986798629,0.546905378618,-0.123948538485,-1.35713962646,0.0794448756992,1.89459751138,0.159108290245,-0.000585854376158,-0.0165534298944,-0.00055047393993,-0.0221911381658,-0.000647313817185,0.00775150486706,-0.000869144471553,0.573865864211,0.81893505743,0.00202200554513,0.0,0.818892445356,-0.573806591413,-0.0119124090922,0.0,-0.00859541480279,0.00849209350304,-0.999926998932,0.0,0.661516254696,0.260737363518,0.303254581849,1.0,-0.00286,-0.00375885714286,0.144
0.464955069393,0.54665302365,-0.123945873036,-1.3575132424,0.0794362141647,1.89474361823,0.15901331207,0.000455250412608,-0.023365114724,-0.000327607713699,-0.0235637492572,0.000492231083071,0.0139626063617,-0.00952742738535,0.573830844673,0.818959521769,0.00205190336862,0.0,0.818917164379,-0.573771319901,-0.0119120630214,0.0,-0.00857833929078,0.00851601203319,-0.999926942148,0.0,0.661474476457,0.260685404518,0.303268061832,1.0,-0.00318,-0.00417942857143,0.16
0.464913621184,0.546366306543,-0.12394880192,-1.3579728249,0.0794169599846,1.89489751813,0.158934165585,6.9728487037e-05,-0.018310130254,-0.0013968244206,-0.0338880495215,-0.000466623957928,0.0118706114959,-0.00186814613798,0.573822518495,0.818965385019,0.00204017417965,0.0,0.818922784606,-0.573762953565,-0.0119286575506,0.0,-0.00859874681307,0.00851584139454,-0.999926768318,0.0,0.661419805755,0.260612830909,0.303265786271,1.0,-0.00352,-0.00462628571429,0.177
0.464865484013,0.546058490847,-0.123948427419,-1.3584945816,0.0793825748222,1.895078168,0.158914203626,0.000518475587086,-0.0171995245634,0.00135774205742,-0.0319107795209,-0.00671632651961,0.0160701275572,-0.000388308882314,0.573865329061,0.818935463798,0.00200926287704,0.0,0.818892465858,-0.573805892217,-0.0119446355754,0.0,-0.0086291249344,0.0085001461111,-0.999926640169,0.0,0.661358541113,0.260530007051,0.303251026722,1.0,-0.00386,-0.00507314285714,0.194
0.464818107576,0.545728294468,-0.123946405718,-1.35904497704,0.0792898346356,1.89525725864,0.158828228005,-0.00370329170986,-0.0184892984587,-0.000333127921407,-0.0368582297897,-0.00262976534135,0.0150318507798,0.000987394515831,0.573838276101,0.818954582154,0.00194220282811,0.0,0.818911202733,-0.57377960451,-0.0119228515135,0.0,-0.00865004404887,0.00843244256327,-0.999927032663,0.0,0.661293619509,0.260435980686,0.303238162819,1.0,-0.00418,-0.00549371428571,0.21
0.464748312291,0.545344632694,-0.123951998057,-1.35971457098,0.0792702212799,1.8954813252,0.158728191219,-0.00274417384157,-0.0264202215813,-0.000206446011874,-0.0409983709605,-0.000472796937984,0.0103275776485,-0.00292249034598,0.573849506172,0.818946814102,0.00189916835663,0.0,0.818902669846,-0.573790816398,-0.0119692622309,0.0,-0.00871263155449,0.00842395144535,-0.99992656085,0.0,0.661215111606,0.26032416988,0.303210686536,1.0,-0.00452,-0.00594057142857,0.227
0.464691177888,0.544912181285,-0.123954366169,-1.36041466819,0.0792505026735,1.89571645893,0.158662096976,-0.00492687239856,-0.0319266578083,-0.000976094493176,-0.0388664645365,-0.00100631644143,0.00754174554674,-0.00833349842214,0.573877504943,0.81892723091,0.00188326727898,0.0,0.818882645226,-0.573818653835,-0.0120046973949,0.0,-0.00875048817471,0.00843156301338,-0.999926166125,0.0,0.661128981097,0.26022036241,0.303204044846,1.0,-0.00486,-0.00638742857143,0.244
0.464619305054,0.544490677995,-0.12395047597,-1.36110338506,0.0792268916647,1.89597603356,0.158547185485,-0.00238525675246,-0.0281475037545,-0.00070750754451,-0.0455909768923,-0.000973725498393,0.0135502588214,-0.00627940041723,0.573871728153,0.818931270755,0.00188687766316,0.0,0.818886542915,-0.573812679805,-0.012024359823,0.0,-0.00876457868682,0.00844574148475,-0.999925923062,0.0,0.661052589401,0.260112678812,0.303196939964,1.0,-0.00518,-0.006808,0.26
0.464547736821,0.543939158146,-0.123955766742,-1.36202025776,0.0791776930616,1.89628776868,0.158487285822,-0.00292858415019,-0.0298334848577,0.000194077074323,-0.0542885819248,-0.00186224577483,0.0208238345608,-0.00103710230176,0.573922833958,0.818895557058,0.00184233377462,0.0,0.818850172539,-0.573863901256,-0.0120567271452,0.0,-0.00881612118218,0.00842838861324,-0.99992561637,0.0,0.660940874258,0.259973901149,0.303177992827,1.0,-0.00556,-0.00730742857143,0.279
0.464464176315,0.543404752726,-0.123961094581,-1.36286588774,0.0791301741418,1.89658179901,0.158343582926,-0.00653270832591,-0.0300882501299,-0.00146546996181,-0.0503950715919,-0.000251572321031,0.0202389285118,-0.00136644736661,0.573911604781,0.818903456876,0.00182896564469,0.0,0.818857854599,-0.573852691082,-0.0120685459485,0.0,-0.00883358721353,0.00842410364673,-0.999925498332,0.0,0.660844480535,0.259834492442,0.303179240107,1.0,-0.0059,-0.00775428571429,0.296
0.464387664483,0.542874871533,-0.123961204352,-1.36369317529,0.0790810965029,1.89688314507,0.158227422589,-0.0115805239274,-0.0347161218845,0.000831617067099,-0.0536967381958,-0.00932999079983,0.0238381107096,-0.00903428154256,0.573912105197,0.818903097746,0.00183273357477,0.0,0.818857522198,-0.573853153366,-0.0120691181878,0.0,-0.00883188837113,0.00842752295686,-0.999925484526,0.0,0.660750589878,0.259705138112,0.303186412299,1.0,-0.00622,-0.00817485714286,0.312
0.464317807407,0.542277034093,-0.123962552985,-1.36461930616,0.079031190734,1.89721907124,0.158107786112,-0.00550496828346,-0.0325613532216,-0.00087243069457,-0.0552643502848,-0.00011285434886,0.0221636925569,-0.0115374508603,0.573910378406,0.818904286577,0.00184225003294,0.0,0.818858768028,-0.573851320559,-0.0120717363281,0.0,-0.00882858898903,0.00843679979101,-0.999925435433,0.0,0.660641076077,0.259570842497,0.303197578176,1.0,-0.00656,-0.00862171428571,0.329
0.464226820089,0.541614434899,-0.123959473866,-1.36563156005,0.0789646046656,1.89759388138,0.157969633267,-0.00494986594623,-0.034892507135,-0.000224167323927,-0.0544060470949,7.04029705342e-05,0.0210403840651,-0.00511682756486,0.573907978959,0.818905924692,0.00186147609226,0.0,0.818860684148,-0.573848862653,-0.0120585940424,0.0,-0.00880681772494,0.00844497551437,-0.999925558404,0.0,0.660526403909,0.259415732828,0.303216662067,1.0,-0.00692,-0.00909485714286,0.347
0.464147822074,0.541036471694,-0.123965118483,-1.36653716809,0.0789166285444,1.89793920424,0.157854759241,-0.00607887808363,-0.0336123924683,0.000489375942531,-0.0580662356946,-0.000758182603311,0.0283490526873,-0.00882534972554,0.573920036626,0.818897436606,0.00187797241744,0.0,0.818852384344,-0.573860820593,-0.0120531383621,0.0,-0.00879275860307,0.0084554825962,-0.999925593337,0.0,0.660425916446,0.259276046395,0.303224340169,1.0,-0.00722,-0.00948914285714,0.362
0.464051465803,0.540326071572,-0.123962967391,-1.36762785257,0.0788450353694,1.89833358733,0.157719056851,-0.00923993105673,-0.0366343548006,-0.000374786204076,-0.065452048108,-0.000455053619975,0.0221632631179,-0.00912309581382,0.573927486345,0.818892193388,0.00188757174159,0.0,0.818847286581,-0.573868246893,-0.0120458859295,0.0,-0.00878123352985,0.00845926089814,-0.999925662658,0.0,0.660299819896,0.25910870965,0.303241417588,1.0,-0.00756,-0.009936,0.379
0.46395511452,0.539537087619,-0.123973530463,-1.36885118794,0.0787845377946,1.89880045208,0.157572605496,-0.00201745510192,-0.0438266261938,0.000915624471595,-0.0655902569515,-0.00523072903978,0.0176842934914,-0.0102627846578,0.573945464344,0.818879519989,0.00191901100009,0.0,0.818834963614,-0.573886028269,-0.0120364372802,0.0,-0.00875526694735,0.00847977514821,-0.999925716598,0.0,0.660161658931,0.258926006302,0.303257508565,1.0,-0.00792,-0.0104091428571,0.397
0.463857090093,0.538873175464,-0.123971830563,-1.3698801196,0.0787241743657,1.89920205362,0.157439925798,-0.00109945779923,-0.0399337275694,0.00130421867329,-0.069205655284,-0.0015192343088,0.0261869228313,-0.0124201432559,0.573956720649,0.818871556203,0.00195042684991,0.0,0.818827405504,-0.573897143611,-0.0120206261286,0.0,-0.00872417239386,0.00849654569492,-0.999925846014,0.0,0.660049542572,0.258766350375,0.303271562441,1.0,-0.00822,-0.0108034285714,0.412
0.46375576456,0.538126629663,-0.123977538999,-1.37103147623,0.0786580307978,1.89964046789,0.157304791243,-0.00765592848538,-0.0482144550607,-0.000238900095598,-0.0697229679578,-0.00366290733576,0.0225310785699,-0.0114307816792,0.573978935253,0.818855917509,0.00197867289762,0.0,0.818812141743,-0.573919240972,-0.0120053437185,0.0,-0.00869521570794,0.00851113966381,-0.999925974123,0.0,0.659921270266,0.258588345917,0.303289040226,1.0,-0.00854,-0.011224,0.428
0.463634815774,0.537278035304,-0.123978496817,-1.3723712377,0.0785789821515,1.90013835624,0.157143447108,-0.00644324487199,-0.0461485921175,0.000881330183774,-0.0736109653452,-0.00365678005715,0.0245282722344,-0.011974862513,0.573999199692,0.81884169929,0.00198422717676,0.0,0.818797972314,-0.573939456065,-0.012005340805,0.0,-0.00869181474312,0.0085159011605,-0.999925963151,0.0,0.65976833018,0.258381086451,0.303293771352,1.0,-0.0089,-0.0116971428571,0.446
0.463528978199,0.536477807675,-0.12398143926,-1.37361741501,0.0785084980628,1.90061219083,0.156991299682,-0.00799915232407,-0.0457509769034,0.000480688448039,-0.0759904487999,-0.0132786328601,0.0301896751794,-0.0124046504512,0.574013101016,0.818831894306,0.00200888775713,0.0,0.818788465752,-0.573953228218,-0.0119952936881,0.0,-0.00866928835069,0.00853047409008,-0.99992603449,0.0,0.659626800685,0.258192886695,0.303306727896,1.0,-0.00922,-0.0121177142857,0.462
0.463413811068,0.535603265496,-0.123990023324,-1.3749940117,0.0784264732147,1.90110731791,0.15681322269,-0.00729082128683,-0.0556033696055,4.80407124072e-05,-0.0849949334697,-0.00110755274428,0.0228341201366,-0.0116926099001,0.574021155049,0.818826266371,0.00200148922938,0.0,0.818782736517,-0.573961307849,-0.0119997656528,0.0,-0.00867711299239,0.00852706834117,-0.999925995669,0.0,0.659465240165,0.257980352013,0.303311929616,1.0,-0.00956,-0.0125645714286,0.479
0.463294939431,0.534714374872,-0.123990222938,-1.37643424627,0.0783480985739,1.90163471332,0.156636017379,-0.00814160864093,-0.0517636704256,0.000339983005565,-0.0870623307449,-0.00246811536233,0.0354040318353,-0.0139066603752,0.574031515686,0.818819044371,0.00198455955958,0.0,0.818775185816,-0.573971633455,-0.012021064123,0.0,-0.00870416292753,0.00852554192394,-0.999925773587,0.0,0.659294200153,0.257765665702,0.303299344117,1.0,-0.0099,-0.0130114285714,0.496
0.463183254405,0.53385601794,-0.123996567264,-1.3778335474,0.0782669593532,1.90214382821,0.156461269763,-0.00817303596907,-0.0524603734391,0.00015053687388,-0.0876735641166,-0.00621741867566,0.0382155765165,-0.0121942358661,0.574039180236,0.818813738327,0.00195662525463,0.0,0.818769479984,-0.573979382546,-0.0120396827189,0.0,-0.00873536324258,0.00851343855057,-0.999925604629,0.0,0.659127578501,0.25755494038,0.303283140668,1.0,-0.01022,-0.013432,0.512
0.463054881816,0.532919732592,-0.123996651069,-1.37934055692,0.0781852741598,1.90272062157,0.156274614341,-0.00349097273938,-0.0563904841855,-0.000184161783652,-0.091401351779,-0.00380552884156,0.0362678850888,-0.00798251042635,0.574052144914,0.818804629559,0.00196479838808,0.0,0.818760397252,-0.5739922317,-0.0120447806492,0.0,-0.00873471131621,0.00852319537334,-0.999925527206,0.0,0.658953984438,0.257329601546,0.303276126993,1.0,-0.01056,-0.0138788571429,0.529
0.462923965488,0.531939895343,-0.123996738916,-1.3808991346,0.078093452843,1.90328998494,0.156072767615,-0.00343289448005,-0.0603952981848,-0.00107965780669,-0.0967768260363,-0.00990147251311,0.0377822558146,-0.00995367738348,0.57405928314,0.818799646109,0.0019559842496,0.0,0.818755285726,-0.573999394422,-0.0120509004315,0.0,-0.00874470759652,0.00851956773411,-0.99992547075,0.0,0.658759133281,0.257075989602,0.303275954718,1.0,-0.01092,-0.014352,0.547
0.462803581342,0.530990822405,-0.123994233262,-1.38242405444,0.0780057201021,1.90383065973,0.155874937032,-0.00693251653523,-0.0638843394739,0.000617470125094,-0.0991131949033,-0.00150425880813,0.0362570331373,-0.0154681783856,0.574048609817,0.818807189616,0.00193046669001,0.0,0.818762338221,-0.573988680153,-0.012082030814,0.0,-0.00878495680583,0.00851643038118,-0.999925144672,0.0,0.6585810697,0.256871040566,0.303264247212,1.0,-0.01122,-0.0147462857143,0.562
0.462651547847,0.529892907651,-0.123996740035,-1.38416119024,0.0778983637854,1.90445813302,0.155654267344,-0.0125333209592,-0.0659122675856,-0.000162954590337,-0.0951370026117,-0.00644329435379,0.0388177033136,-0.0114702483379,0.574059597353,0.818799514841,0.00191835435372,0.0,0.818754490251,-0.57399970494,-0.0120900919697,0.0,-0.00879839600254,0.00851125843718,-0.999925070547,0.0,0.658374885587,0.256602905297,0.303265393314,1.0,-0.01158,-0.0152194285714,0.58
0.46251350271,0.528818775808,-0.124002329488,-1.38583501671,0.0777890403884,1.90509187207,0.155423895463,-0.00777371107255,-0.0666774772406,-0.0021637999739,-0.0997752009231,-0.00756761954422,0.031664795214,-0.010400244978,0.574049346151,0.818806649122,0.00194073150801,0.0,0.818762016067,-0.57398945336,-0.0120671197433,0.0,-0.00876684725313,0.00851628340555,-0.999925304863,0.0,0.658180849963,0.256349521157,0.303280280715,1.0,-0.01192,-0.0156662857143,0.597
0.46237703407,0.527781322138,-0.123997882469,-1.38744712764,0.0776878370176,1.90572290243,0.155181676215,-0.006947635034,-0.0676171271353,0.000870942490655,-0.107192926295,-0.0123539447214,0.0415998662983,-0.00905481723545,0.574019811019,0.818827245229,0.00198643633294,0.0,0.818783246108,-0.573959760559,-0.0120389389983,0.0,-0.00871784457898,0.0085372146454,-0.999925554805,0.0,0.657996148273,0.256110999129,0.303297914282,1.0,-0.01224,-0.0160868571429,0.613
0.462234034286,0.526611200677,-0.124000704831,-1.38924531118,0.0775709790228,1.90640181586,0.154946748049,-0.0108482461098,-0.0639254705118,0.000297505787096,-0.106288389695,-0.000731027361633,0.0441951515711,-0.0164902110574,0.574012161576,0.818832515273,0.00202415308701,0.0,0.81878909203,-0.573952033336,-0.0120097087309,0.0,-0.00867234019714,0.00855123797459,-0.999925830672,0.0,0.657784583045,0.255844370565,0.303324458613,1.0,-0.01258,-0.0165337142857,0.63
0.462067317482,0.525354365558,-0.124011953026,-1.3911749459,0.0774635581799,1.90709475725,0.154685947186,-0.0101564712938,-0.0711753156514,-0.000792484024268,-0.107506007492,-0.001768734907,0.0316828264411,-0.0145621630344,0.574017935875,0.818828415541,0.00204501782453,0.0,0.818785177904,-0.573957633018,-0.0120089486062,0.0,-0.00865968149521,0.00856794713379,-0.999925797346,0.0,0.65755412085,0.255545288792,0.303350631152,1.0,-0.01294,-0.0170068571429,0.648
0.461921842487,0.524248555652,-0.124009922837,-1.3929433321,0.0773352734699,1.90772729269,0.154450563456,-0.00560905285927,-0.0685898608382,-0.00042343572786,-0.113514326314,-0.0101359218573,0.0356793425082,-0.016042946418,0.574003094771,0.818838910536,0.00200815489769,0.0,0.818795308696,-0.573943065283,-0.0120144568033,0.0,-0.00868550536487,0.00854076763271,-0.99992580589,0.0,0.657337580264,0.255277663617,0.303341330234,1.0,-0.01326,-0.0174274285714,0.664
0.461761088946,0.523051782843,-0.124012665549,-1.39487577434,0.0772259096993,1.90845363537,0.154191860005,-0.00733347725559,-0.073240985124,0.000803291084355,-0.114118569087,-0.00400066895888,0.0426226097897,-0.0130489868901,0.573999130115,0.818841704971,0.00200193152139,0.0,0.818797942913,-0.573939050015,-0.0120267389848,0.0,-0.0086991762661,0.00854267960004,-0.999925670716,0.0,0.657106942434,0.254988339915,0.303325962357,1.0,-0.0136,-0.0178742857143,0.681
0.461598213805,0.52179342241,-0.124013403606,-1.39683466019,0.0771038389089,1.90922252015,0.153929208831,-0.010449566381,-0.0714368157866,0.000792174254798,-0.118080032675,-0.00912586774629,0.0417471899588,-0.00846036482325,0.573990045118,0.818847939404,0.00205600109858,0.0,0.818804950642,-0.573929804073,-0.0119908174101,0.0,-0.00863882214445,0.0085662386309,-0.999925992415,0.0,0.656880335098,0.254697325593,0.303344522134,1.0,-0.01394,-0.0183211428571,0.698
0.461435654319,0.520619117802,-0.124019113005,-1.39873727062,0.0769833462083,1.90992573624,0.153671519432,-0.0108796858556,-0.0740652777137,-0.000951652730581,-0.117218188256,-0.00824674022236,0.0459299094579,-0.0123272459815,0.573985201513,0.818851401796,0.00202906954593,0.0,0.818808094364,-0.573925106815,-0.0120009696753,0.0,-0.00866264366835,0.0085499621789,-0.999925925632,0.0,0.656651965349,0.254405075071,0.303324984953,1.0,-0.01426,-0.0187417142857,0.714
0.461263000461,0.519285073719,-0.124025011402,-1.40079821579,0.0768491410099,1.91066050395,0.153388428703,-0.00947909793472,-0.0779922801321,0.00156155622329,-0.123989088886,-0.0135078295392,0.0488740480028,-0.0149819578737,0.573972078937,0.818860595924,0.00203074999375,0.0,0.818817347366,-0.573912015268,-0.0119957193923,0.0,-0.00865751679268,0.00854818590004,-0.999925985221,0.0,0.656399395152,0.254089398737,0.303344582452,1.0,-0.0146,-0.0191885714286,0.731
0.461085364793,0.517928590649,-0.12402550559,-1.40290713722,0.0767150108171,1.91141860013,0.153110922605,-0.00968047926929,-0.0848505517453,-0.000574000416478,-0.127610776013,-0.0117052415737,0.04250433039,-0.0201499560006,0.573966094192,0.818864785463,0.00203291622717,0.0,0.818821554281,-0.57390601139,-0.0119958007395,0.0,-0.00865640261815,0.00854994313491,-0.999925979844,0.0,0.656140008137,0.253769844527,0.303358550928,1.0,-0.01494,-0.0196354285714,0.748
0.460911592075,0.516668996679,-0.124031469713,-1.40491015131,0.0765846236303,1.91215932882,0.152816859137,-0.0119201937627,-0.0753216252204,-0.000970968128645,-0.12168827808,-0.00624773308933,0.0527020940999,-0.015714173917,0.57394254938,0.818881310615,0.00202386732523,0.0,0.818838026409,-0.573882571857,-0.0119927947977,0.0,-0.00865938005611,0.00854055917894,-0.999926034258,0.0,0.65589900003,0.25346039527,0.303353256996,1.0,-0.01526,-0.020056,0.764
0.460713463645,0.515195345326,-0.124034293346,-1.40722715682,0.0764502251222,1.91302821864,0.152511867546,-0.0104727160321,-0.0807833482146,0.00061395872909,-0.13086449225,-0.00994615915696,0.0478692992535,-0.0194189862205,0.57394312573,0.8188808482,0.00204738350254,0.0,0.818837800155,-0.5738829794,-0.0119887402648,0.0,-0.0086425576485,0.00855749482274,-0.999926035004,0.0,0.655619644995,0.253110420425,0.303359253159,1.0,-0.01562,-0.0205291428571,0.782
0.460522783561,0.513791967387,-0.124038282253,-1.40948869602,0.0763054383546,1.91382586038,0.152202677595,-0.0143551154786,-0.0819131273062,0.000106479112856,-0.133723183587,-0.015487746517,0.0479089547689,-0.0123686411525,0.573928468506,0.818891259306,0.00199132389788,0.0,0.818847454746,-0.573868536696,-0.012020621746,0.0,-0.00870099146888,0.00852973175827,-0.999925765456,0.0,0.655335389171,0.252763943897,0.30333578929,1.0,-0.01596,-0.020976,0.799
0.460357624179,0.512562296864,-0.124044895603,-1.41150189984,0.0761931772255,1.91452473801,0.151913717834,-0.0130544509322,-0.0816656971734,-0.0036701012522,-0.131086902621,-0.00676647778563,0.0481809715593,-0.0150701034953,0.573906921708,0.818906521325,0.00192391496884,0.0,0.818861652916,-0.573847104946,-0.0120764410961,0.0,-0.00878561248322,0.00850633709945,-0.999925224826,0.0,0.655077480984,0.25245843675,0.30329998419,1.0,-0.01626,-0.0213702857143,0.814
0.460147064773,0.511023950585,-0.124042176408,-1.41393627585,0.0760415979326,1.91545181035,0.151556690516,-0.0131091244626,-0.0858794385653,0.000981999391081,-0.135093031561,-0.00551452003474,0.0544033453736,-0.0263642235156,0.573871525492,0.818931270733,0.00194754887419,0.0,0.818886714126,-0.573811613141,-0.0120635382386,0.0,-0.00876185123086,0.00851790698609,-0.999925334824,0.0,0.65478361786,0.25209185608,0.303298913128,1.0,-0.01662,-0.0218434285714,0.832
0.459941787262,0.509534761216,-0.124050302042,-1.41630484406,0.075890773834,1.91633379314,0.15123747838,-0.0107831691336,-0.0947526937699,-0.00148765123501,-0.142818636701,-0.0172764496634,0.0492220529005,-0.0192169097241,0.573866686848,0.818934671959,0.00194311358168,0.0,0.818890112381,-0.57380684778,-0.0120595267906,0.0,-0.00876116141653,0.00851192106438,-0.999925391842,0.0,0.654495223635,0.25172673683,0.303290668147,1.0,-0.01696,-0.0222902857143,0.849
0.459742266622,0.508116937664,-0.12405065631,-1.41853808485,0.0757475837807,1.91711927921,0.150921219833,-0.0121405918429,-0.0905404427918,-0.000921201629132,-0.134674344738,-0.0137733374853,0.0544795137731,-0.0163930807825,0.57384827246,0.818947641118,0.0019152552263,0.0,0.818902672233,-0.573788513208,-0.0120790074928,0.0,-0.00879329254269,0.00850008885865,-0.999925210451,0.0,0.654213453204,0.251379874802,0.303287772753,1.0,-0.01728,-0.0227108571429,0.865
0.459525631371,0.506590882989,-0.124053199367,-1.42096255232,0.0755979289227,1.91801151242,0.150593810362,-0.0125362456929,-0.0877904819155,-0.000755496202494,-0.146746913882,-0.00460833662009,0.0558713765728,-0.0144635092084,0.573839940938,0.818953492606,0.00190945894388,0.0,0.818908438108,-0.573780198598,-0.0120830705652,0.0,-0.00880003253665,0.00849758414568,-0.999925172446,0.0,0.65389568625,0.250982296626,0.303280015891,1.0,-0.01764,-0.023184,0.883
0.459296965702,0.504883471969,-0.124063437108,-1.42356433797,0.0754364450845,1.91902738298,0.150233943532,-0.0109396020738,-0.0944086636363,-0.00311366667164,-0.144461788763,-0.00515266365219,0.0590979085001,-0.0197127172766,0.573835132553,0.818956630966,0.00200602757389,0.0,0.818912921923,-0.573775055107,-0.0120232835042,0.0,-0.00869570658925,0.00854230885124,-0.999925704063,0.0,0.653606477177,0.250606584073,0.303321737432,1.0,-0.01798,-0.0236308571429,0.9
0.45907976,0.50332413217,-0.124066630337,-1.42589907432,0.0752921471891,1.91990107862,0.149916440944,-0.0147443589449,-0.0957139731278,-0.00111007869921,-0.146961689718,-0.00503100983682,0.0584029536074,-0.01892751683,0.573836221378,0.818955660114,0.00208918729642,0.0,0.818913047091,-0.573775804017,-0.0119789369264,0.0,-0.00861165887837,0.00858497592419,-0.999926066027,0.0,0.653323995521,0.250242298878,0.303375479743,1.0,-0.0183,-0.0240514285714,0.916
0.458846484383,0.501626418655,-0.124069991558,-1.42842258972,0.0751235862478,1.92082087027,0.149546788766,-0.0156038676127,-0.0977946594284,0.000884468838481,-0.151556131767,-0.0163592133021,0.0458045033624,-0.0282995669826,0.573810184914,0.818973710061,0.00216352005127,0.0,0.818932151584,-0.573749550413,-0.0119302725861,0.0,-0.00852942516306,0.00861765396585,-0.999926489771,0.0,0.653013286891,0.249846220824,0.303439333146,1.0,-0.01864,-0.0244982857143,0.933
0.45860995547,0.499889642927,-0.124072383516,-1.43101915315,0.0749496912917,1.92173203212,0.149187864539,-0.0150911822518,-0.0964005586899,-0.00109400843564,-0.153001873091,-0.0138390031696,0.0590681776344,-0.0316290407513,0.573796452308,0.818983227384,0.00220260832414,0.0,0.818942209027,-0.57373569268,-0.0119063058685,0.0,-0.00848751320479,0.00863577125939,-0.9999266901,0.0,0.652684001344,0.249439164074,0.30349422608,1.0,-0.01898,-0.0249451428571,0.95
0.458370968627,0.49831928428,-0.124070935635,-1.43349159767,0.0747990025965,1.92266221459,0.148833713081,-0.0168071975918,-0.0938341563409,0.000634412188683,-0.151624485972,-0.0120522761424,0.0546310312694,-0.0209970077711,0.57378621793,0.818990333547,0.0022263359771,0.0,0.818949578625,-0.573725317908,-0.0118993345371,0.0,-0.00846829768628,0.0086510976307,-0.999926720537,0.0,0.65238148375,0.249050285586,0.303493210877,1.0,-0.0193,-0.0253657142857,0.966
0.458098309647,0.49652539199,-0.124073451725,-1.43632551726,0.074624819813,1.92368327165,0.148413251528,-0.0179238496543,-0.096789474555,-0.000744218728575,-0.161463592668,-0.00751054714486,0.0573773916726,-0.015570497918,0.573763284153,0.819006443569,0.00221044141147,0.0,0.818965387784,-0.573702355184,-0.011918396244,0.0,-0.00849327139892,0.00864877969435,-0.999926528776,0.0,0.652024925282,0.248599782289,0.303483356213,1.0,-0.01966,-0.0258388571429,0.984
0.457842058513,0.494948230312,-0.12407352255,-1.43890042987,0.0744739273351,1.92456693592,0.148045615659,-0.0189487941558,-0.101734404948,-0.00111707007737,-0.163175281048,-0.00696516985639,0.0576667795231,-0.0206515782588,0.573761030581,0.819008264453,0.00211883122697,0.0,0.81896577063,-0.573700231823,-0.0119940586742,0.0,-0.0086078249397,0.00861713962103,-0.999925822376,0.0,0.651690731706,0.248183909664,0.303433240066,1.0,-0.01998,-0.0262594285714,1.0
0.457563529474,0.49312582631,-0.124110727767,-1.44179518202,0.0742844970625,1.92562072325,0.147649769086,-0.018474957147,-0.116458978703,-0.00626901927003,-0.188014279522,-0.0107118420701,0.0662280843229,-0.0250981765457,0.57378575854,0.818991019527,0.00208809284955,0.0,0.818948302933,-0.573725263099,-0.0119894331318,0.0,-0.00862141243359,0.00858957145537,-0.999925942513,0.0,0.651334038838,0.247702487841,0.303416819104,1.0,-0.024012,-0.0315586285714,1.017
0.457316986805,0.491360008725,-0.124135609175,-1.44457669433,0.0741165015695,1.92665624257,0.147242790544,-0.0255078728622,-0.131961913106,-0.000562591146169,-0.209051632898,-0.014011491984,0.0825333566946,-0.0236876067429,0.573766257471,0.819004649681,0.00210059274583,0.0,0.818962123841,-0.573705739951,-0.011979589447,0.0,-0.00860638304229,0.00859395555975,-0.999926034314,0.0,0.65098650173,0.247264062364,0.303412199036,1.0,-0.02754,-0.0361954285714,1.031
0.456829196166,0.488281825749,-0.124150161232,-1.44955247171,0.0738362680505,1.9284333804,0.146525034912,-0.0260417983391,-0.161522025885,-0.000175606430616,-0.253925612521,-0.00924396205812,0.0887988407961,-0.0401348975248,0.573760648358,0.819008806365,0.00201007290112,0.0,0.818964684264,-0.57370010545,-0.012074014915,0.0,-0.00873571369781,0.00857393841963,-0.999925084637,0.0,0.650347981177,0.246464465999,0.303338884538,1.0,-0.032832,-0.0431506285714,1.052
0.456451522792,0.485838072107,-0.124189394647,-1.45327987188,0.073602845214,1.92987216575,0.145980077485,-0.0265189111222,-0.180089934787,-0.00104037071161,-0.273677378673,-0.0113053011692,0.101186435106,-0.0429231097333,0.573773532463,0.818999476385,0.00213026467419,0.0,0.818957156548,-0.573712709385,-0.0119853965038,0.0,-0.00859403900481,0.00862166478398,-0.99992590195,0.0,0.649902613472,0.245846343501,0.303388078703,1.0,-0.03636,-0.0477874285714,1.066
0.455898237474,0.482389747121,-0.124244352936,-1.45864937307,0.0732747275241,1.93175803809,0.145145290928,-0.0327854830377,-0.197944814666,-0.00164082126887,-0.314448894995,-0.0224098983489,0.109850112739,-0.04217921103,0.573757322886,0.8190109198,0.00209632625233,0.0,0.818968081836,-0.573696568464,-0.0120114598802,0.0,-0.00863502787834,0.00860865309784,-0.99992566093,0.0,0.649218839629,0.244939442187,0.303390488743,1.0,-0.040896,-0.0537490285714,1.084
0.455265922028,0.47851760689,-0.124311158401,-1.46468029494,0.0729088319165,1.93391070011,0.144256502652,-0.0378237550309,-0.225967524534,-0.00309076229321,-0.344211592425,-0.0154070896276,0.125684459514,-0.0474743565115,0.573790370933,0.818987794824,0.00208543899012,0.0,0.81894477448,-0.573729618121,-0.012022002505,0.0,-0.00864956173636,0.00860613433489,-0.999925556996,0.0,0.648455260864,0.24391420496,0.303392394182,1.0,-0.045432,-0.0597106285714,1.102
0.454654735839,0.47472285386,-0.124353171037,-1.470486244,0.0725577801877,1.9360536905,0.143419052849,-0.0346341144761,-0.244454659544,0.00115831700504,-0.367591272713,-0.0232052571282,0.130409327202,-0.0552918314512,0.573821237463,0.818965878914,0.00219624931283,0.0,0.818924276504,-0.573759991338,-0.0119686504294,0.0,-0.00854196079083,0.00866659453849,-0.999925959781,0.0,0.647725582438,0.242945170785,0.303442561029,1.0,-0.049464,-0.0650098285714,1.118
0.453922164071,0.470373236629,-0.124397061618,-1.47716496128,0.07215695224,1.93841548545,0.142429875375,-0.0426620265352,-0.267453338214,-0.00510630350403,-0.395623387617,-0.021532622805,0.146573632186,-0.059995685714,0.573853819106,0.818942955331,0.0022309442265,0.0,0.81890154268,-0.573792159148,-0.0119820031072,0.0,-0.00853264301059,0.00870300947225,-0.999925723056,0.0,0.646863685581,0.241808537154,0.303476276031,1.0,-0.053748,-0.0706402285714,1.135
0.453131443894,0.46563065039,-0.124409626698,-1.48425909045,0.0716970913556,1.94107974838,0.141278404127,-0.0524776639185,-0.286243580959,-0.000986262124151,-0.431190168185,-0.0288650335441,0.160406798878,-0.067885139982,0.57377841001,0.818995045284,0.00248976063439,0.0,0.81895714923,-0.57371588873,-0.0118327361689,0.0,-0.00826269614192,0.00882854579334,-0.999926889643,0.0,0.645971191744,0.240620705105,0.303603650522,1.0,-0.058032,-0.0762706285714,1.152
0.452372221852,0.461223913004,-0.124428096828,-1.49112082525,0.0712591414993,1.94342108013,0.140254984134,-0.0504283663286,-0.300267177111,-0.00160971761358,-0.465413622231,-0.0281398371027,0.164632821501,-0.0616266676981,0.5737767897,0.818996460542,0.00239585512149,0.0,0.8189569964,-0.573714266731,-0.0119216231138,0.0,-0.00838939239167,0.00880262243009,-0.999926063234,0.0,0.645047044048,0.239456543702,0.303577890278,1.0,-0.061812,-0.0812386285714,1.167
0.451463545318,0.455945128496,-0.124466481406,-1.49931420167,0.0707045743589,1.94625650293,0.139009886082,-0.0534150892711,-0.312553563994,-0.00617863818055,-0.491384949912,-0.035655382001,0.177123548969,-0.0754474429426,0.573755707878,0.819011475041,0.0023104827711,0.0,0.818970868532,-0.573693498649,-0.0119679992275,0.0,-0.00847658295657,0.00875909459015,-0.999925710142,0.0,0.643946708861,0.238055122578,0.303556551369,1.0,-0.066096,-0.0868690285714,1.184
0.450404332358,0.449894371027,-0.124501641412,-1.50831068498,0.0700920462488,1.9496489506,0.137546102351,-0.063917974507,-0.342588719385,-0.0033384806365,-0.510244729495,-0.0264170025912,0.203871301639,-0.0790669168833,0.573692968452,0.819054351206,0.00266357277855,0.0,0.819018837477,-0.573629950455,-0.0117290536386,0.0,-0.00807898284265,0.00891056343562,-0.999927663331,0.0,0.642800805071,0.236503791125,0.303723106375,1.0,-0.070632,-0.0928306285714,1.202
0.449392841439,0.444294533739,-0.124533860808,-1.5168561025,0.0695336817195,1.95262428317,0.136279529825,-0.0682284446009,-0.357081139282,-0.00181996046812,-0.5477402503,-0.0415910816603,0.189748206655,-0.0848519724268,0.573738596236,0.819022316912,0.00268598010723,0.0,0.818986891253,-0.573675267748,-0.0117433399138,0.0,-0.00807733262103,0.00893756193104,-0.999927435709,0.0,0.641645251593,0.235015853457,0.303751361594,1.0,-0.074664,-0.0981298285714,1.218
0.44825596318,0.438093980251,-0.124562636148,-1.52656359819,0.0688605682197,1.9558306902,0.134731132875,-0.0720855065885,-0.366597976835,-0.00340667972659,-0.571711291111,-0.0388514315168,0.191393928802,-0.0918344367638,0.573665419913,0.819074414259,0.00241594756442,0.0,0.819035130385,-0.573602746211,-0.0119202196524,0.0,-0.0083779140728,0.00881713349792,-0.999926031621,0.0,0.640274976716,0.233321980023,0.303649946131,1.0,-0.078948,-0.103760228571,1.235
0.447015823441,0.431474903087,-0.124580796538,-1.53643109052,0.0681934320309,1.95945839354,0.133115199685,-0.0739348377787,-0.38339514109,-0.000465747785648,-0.587024770439,-0.0460515628409,0.214075825866,-0.0954748071347,0.573617211831,0.819107208749,0.0027242921905,0.0,0.819072129984,-0.573553594307,-0.0117416882109,0.0,-0.00805532896863,0.00896679889953,-0.999927351457,0.0,0.638963791396,0.231586045362,0.303783196584,1.0,-0.083232,-0.109390628571,1.252
0.445747673567,0.425099859975,-0.124634723694,-1.54626181389,0.0674825693647,1.9628118233,0.131501957027,-0.0771644526126,-0.408227444993,-0.011748861136,-0.619230398376,-0.0394107031345,0.20747923421,-0.111148877359,0.573596607047,0.819122036866,0.00260153904196,0.0,0.819085503894,-0.573533593198,-0.0117856559043,0.0,-0.00816197757891,0.00889126634004,-0.9999271611,0.0,0.637599300947,0.229791959351,0.303735695271,1.0,-0.087264,-0.114689828571,1.268
0.444301068256,0.418003387304,-0.124769072729,-1.55712599694,0.0666995117949,1.9664403445,0.129748331827,-0.0890999013388,-0.429490527608,-0.0145160499994,-0.635760634022,-0.0468754185283,0.226495027226,-0.10222575344,0.573682091263,0.819062673914,0.00243747149566,0.0,0.819024281136,-0.573619976726,-0.011836220336,0.0,-0.00829658366979,0.00878674514661,-0.999926977238,0.0,0.636082859739,0.227737115473,0.30370161694,1.0,-0.091548,-0.120320228571,1.285
0.442765726774,0.410540423013,-0.124820965607,-1.56827640091,0.0659524782961,1.97043932976,0.127873703803,-0.0920699677504,-0.441311028478,-0.00094086696453,-0.66820929411,-0.0490320795817,0.223744667895,-0.110113174771,0.573695984676,0.819052135014,0.00269521723345,0.0,0.819017070806,-0.573632896286,-0.0117083272824,0.0,-0.00804382005882,0.00892462109954,-0.999927821444,0.0,0.63455459865,0.225680171929,0.303795844475,1.0,-0.095832,-0.125950628571,1.302
0.441218470542,0.403394030884,-0.124890176653,-1.57931396669,0.0651766339236,1.97403134739,0.126058227659,-0.0996403263225,-0.445840187621,-0.0102710994524,-0.702026567593,-0.0552286628511,0.229894932344,-0.118669642988,0.57375562589,0.81901119006,0.00242883065493,0.0,0.8189722246,-0.573693048757,-0.0118965559167,0.0,-0.00835016992226,0.00881503044723,-0.999926282233,0.0,0.632950881231,0.223590437594,0.303683220071,1.0,-0.099864,-0.131249828571,1.318
0.43947968165,0.395359574945,-0.12498991423,-1.59108913781,0.0643394685467,1.97823294244,0.124022291353,-0.106337068086,-0.469472478015,-0.00651453747155,-0.69575035224,-0.0510281514381,0.250467409592,-0.123684772362,0.573817800394,0.818966490814,0.0027867142453,0.0,0.818932668859,-0.57375443874,-0.0116565347756,0.0,-0.00794757472791,0.00897103119954,-0.999928175748,0.0,0.63132621954,0.221322870287,0.303855337125,1.0,-0.104148,-0.136880228571,1.335
0.437426499946,0.386239169513,-0.125023886226,-1.60503005475,0.0632768650525,1.98278416065,0.121636822197,-0.117040274225,-0.491259902087,-0.000892389299757,-0.736958818758,-0.0559167101158,0.235502038773,-0.12880834685,0.573804362988,0.818976782898,0.00251574877472,0.0,0.818939309027,-0.573741830449,-0.0118096157682,0.0,-0.00822856924758,0.0088368247525,-0.999927097931,0.0,0.62925847659,0.218659254285,0.303739532987,1.0,-0.108936,-0.143173028571,1.354
0.435741196845,0.378653710582,-0.125076412772,-1.61615441096,0.0624485068971,1.98653911869,0.119632302684,-0.117963847843,-0.512627134984,-1.67860443319e-05,-0.749047781151,-0.0475245888972,0.254723746504,-0.128312771812,0.573763929908,0.819004610766,0.0026734213107,0.0,0.818969319902,-0.573700972541,-0.0117129870921,0.0,-0.00805940119676,0.00891011108482,-0.999927825382,0.0,0.627630527186,0.216510987812,0.303847053661,1.0,-0.112716,-0.148141028571,1.369
0.43342549403,0.368946219264,-0.125147712361,-1.63079964006,0.0613478942565,1.99132825136,0.117053281038,-0.123275788313,-0.520110522457,-0.00341564675472,-0.798314270645,-0.0560974600465,0.24116662962,-0.133474971022,0.573822024934,0.818964409144,0.00251538402386,0.0,0.818926851904,-0.573759407087,-0.0118195140007,0.0,-0.00823669463571,0.00884238322088,-0.999926981894,0.0,0.625435710696,0.213617303578,0.303769880998,1.0,-0.117504,-0.154433828571,1.388
0.431408178639,0.360396055065,-0.125269592601,-1.6433195371,0.0603473859349,1.99548624225,0.114801321307,-0.131603431761,-0.534329738911,-0.00689161225804,-0.785815915889,-0.0612061939447,0.254983652162,-0.148124626763,0.573876307429,0.818926083911,0.00260763551225,0.0,0.818890406541,-0.5738140838,-0.0116895769283,0.0,-0.00807675697673,0.00884390922042,-0.999928273061,0.0,0.623570368545,0.211092218822,0.303856791884,1.0,-0.121536,-0.159733028571,1.404
0.429384884341,0.352293369094,-0.125305585164,-1.65548679305,0.0594745848175,1.99936831418,0.112529013086,-0.136493063089,-0.547332473613,-0.00424335164436,-0.84993278535,-0.0553983257731,0.251183726604,-0.1407680776,0.573870175907,0.818930809483,0.00246928819241,0.0,0.818892448258,-0.573807509236,-0.0118679160468,0.0,-0.00830226583214,0.00883289458335,-0.999926523478,0.0,0.621684096637,0.208660509565,0.303773019329,1.0,-0.125316,-0.164701028571,1.419
0.426976283553,0.342750672199,-0.125390786821,-1.66928329137,0.0584206084895,2.00391789953,0.109919719397,-0.144644923632,-0.567946030472,-0.00610454747193,-0.827402724165,-0.0638380512267,0.27321388192,-0.148648762192,0.573927765184,0.818889740295,0.00269452986651,0.0,0.818854387798,-0.57386433962,-0.0117455607526,0.0,-0.00807218000637,0.00894770330884,-0.999927386621,0.0,0.619586510905,0.205821330382,0.303902244729,1.0,-0.1296,-0.170331428571,1.436
0.424379163792,0.332570309726,-0.125406445115,-1.68443014129,0.0572045908201,2.0087061646,0.107024640561,-0.148362310531,-0.567950226095,0.00795795932582,-0.844243172715,-0.06866345776,0.250118405998,-0.158839348385,0.573828092485,0.818960173092,0.00251039161086,0.0,0.818922080203,-0.573764988292,-0.0118790432336,0.0,-0.00828824806397,0.00887251466275,-0.999926288997,0.0,0.617170240544,0.202770837074,0.303805812103,1.0,-0.134136,-0.176293028571,1.454
0.421967730367,0.323130361032,-0.125404018572,-1.69800246248,0.0560712969977,2.01307666548,0.104334985133,-0.152746286675,-0.590932772771,-0.0016102761052,-0.874857326302,-0.075119345664,0.272445703938,-0.16469616181,0.573684521267,0.819060265906,0.00266416484726,0.0,0.819024456691,-0.573621168051,-0.0117661296874,0.0,-0.0081091040843,0.00893223461666,-0.99992722616,0.0,0.615009338561,0.200011444987,0.303907827585,1.0,-0.138168,-0.181592228571,1.47
0.418893712203,0.31179752826,-0.125442141063,-1.71450617089,0.0547467592254,2.01824394911,0.101043317651,-0.168506787822,-0.601560267402,-0.0036522000026,-0.862768642383,-0.0749385270443,0.273385936792,-0.193004916813,0.573637856259,0.819093026986,0.00264005875047,0.0,0.819056476616,-0.573574128223,-0.0118302344514,0.0,-0.00817595056289,0.0089487998401,-0.999926533708,0.0,0.612335463383,0.196561615632,0.303895486468,1.0,-0.142956,-0.187885028571,1.489
0.416350676631,0.302588566486,-0.125498934227,-1.72770011637,0.0536001453193,2.02241575224,0.0983010232743,-0.17162751386,-0.606844094727,-0.00782232133515,-0.876713740177,-0.0741336017563,0.266355881649,-0.18651953285,0.573552015027,0.819152836871,0.00273181364486,0.0,0.819118018907,-0.573488560905,-0.0117170181055,0.0,-0.00803151937655,0.00895816959782,-0.999927620328,0.0,0.610198374088,0.193743143833,0.30396027452,1.0,-0.146736,-0.192853028571,1.504
0.413097786123,0.291311062199,-0.125610378913,-1.74389935701,0.052321311874,2.02731077763,0.0950332789417,-0.183625568038,-0.638772425316,-0.00424610147111,-0.895975368443,-0.0728119492579,0.283095531599,-0.187518173006,0.573692674103,0.819054388258,0.00271507949551,0.0,0.81901855806,-0.573628378673,-0.0118250427219,0.0,-0.00812806297418,0.0090078143023,-0.999926394228,0.0,0.607509759412,0.190204954887,0.303972155622,1.0,-0.151272,-0.198814628571,1.522
0.410103733039,0.281136269994,-0.125736271716,-1.75848123331,0.0510779324113,2.031777384,0.0919183483292,-0.191053159917,-0.644019537985,-0.00728068062612,-0.938026691173,-0.0758234879436,0.277064072452,-0.196573104414,0.573699102089,0.819049875103,0.00271831859409,0.0,0.819014198142,-0.57363491709,-0.0118098280452,0.0,-0.00811367193742,0.00900180258161,-0.999926565243,0.0,0.605080012027,0.186975857265,0.30397422732,1.0,-0.155304,-0.204113828571,1.538
0.406527906776,0.269405391821,-0.125841046548,-1.7751040408,0.0496229776526,2.03678357562,0.0883032302204,-0.199413362581,-0.656224439764,-0.0137936440609,-0.925719785302,-0.0800043413921,0.283874399893,-0.205014413345,0.573719619528,0.819035362674,0.00276039116911,0.0,0.819000378317,-0.573655441042,-0.011771243784,0.0,-0.00805770664398,0.00901432847066,-0.999926904951,0.0,0.602270478399,0.183235876382,0.304017232026,1.0,-0.15984,-0.210075428571,1.556
0.403375147438,0.259567223425,-0.126003473448,-1.78918411157,0.0483770167885,2.04092595593,0.0852297342403,-0.215188700269,-0.643420425496,-0.00869583531405,-0.937651142415,-0.0871303580831,0.274037275769,-0.210923161289,0.573863217436,0.818935200043,0.00262539643093,0.0,0.818898488043,-0.573799546804,-0.0118361003072,0.0,-0.00818670550998,0.00894240794104,-0.999926502896,0.0,0.599861824472,0.179964070308,0.303956312271,1.0,-0.16362,-0.215043428571,1.571
0.399229694157,0.246778328457,-0.126130489325,-1.80709977448,0.0467221586757,2.04620536993,0.0811890617539,-0.216050403243,-0.674108091348,-0.00445701651939,-0.933892342734,-0.0921582016692,0.266403252421,-0.219367998634,0.573934279599,0.81888525191,0.00267091851056,0.0,0.818849638476,-0.573870988865,-0.0117517916813,0.0,-0.00809076201676,0.00893200871823,-0.999927376758,0.0,0.596761307286,0.175792442129,0.30400760299,1.0,-0.168408,-0.221336228571,1.59
0.395875855718,0.23648519031,-0.126164020997,-1.82144195693,0.0454832842562,2.05038465387,0.0778146113602,-0.229807401485,-0.694794450667,-0.00256642675999,-0.948984910865,-0.0855899091186,0.292174993623,-0.234234422226,0.5738631778,0.818934706359,0.00278330524261,0.0,0.818899988701,-0.573798863379,-0.0117651940555,0.0,-0.00803802311131,0.00903103415525,-0.999926912632,0.0,0.594216477564,0.172508178384,0.304045302873,1.0,-0.172188,-0.226304228571,1.605
0.391720761654,0.223976020401,-0.126188340161,-1.83890219458,0.0438475879411,2.05539704127,0.073711861288,-0.236077969602,-0.711894694751,-0.00162259902947,-0.99314380711,-0.104978419413,0.273400155028,-0.239510387612,0.57375277886,0.819012067438,0.00278011560123,0.0,0.818977292888,-0.57368847296,-0.011767609251,0.0,-0.00804304856118,0.00902872388825,-0.999926893085,0.0,0.591062230101,0.168486825836,0.304031727693,1.0,-0.176724,-0.232265828571,1.623
0.388072911746,0.213270240444,-0.126266645385,-1.85348328644,0.0424929617099,2.05950517257,0.0701544758867,-0.245733675565,-0.725510966913,-0.00703331932669,-0.981229267371,-0.0876838190328,0.27298098645,-0.222629808719,0.573727197311,0.81902941557,0.00294387460117,0.0,0.818996787272,-0.573662343582,-0.0116843868401,0.0,-0.00788121825994,0.00911484984369,-0.99992740032,0.0,0.588412149591,0.165018711693,0.304139020247,1.0,-0.180504,-0.237233828571,1.638
0.382945159089,0.198941932372,-0.126417987958,-1.87319297019,0.0406174496401,2.06485189031,0.0652057066889,-0.261699565356,-0.72198949399,-0.00558551501062,-0.966250008131,-0.0924481274871,0.264570335702,-0.254832560662,0.573726795998,0.819029960559,0.00286952279203,0.0,0.818996068622,-0.573661858818,-0.0117583255819,0.0,-0.00798443888397,0.00909636948119,-0.999926749716,0.0,0.584756861752,0.160214665259,0.304129635073,1.0,-0.185544,-0.243857828571,1.658
0.379454627505,0.189433969411,-0.126522207741,-1.88612750852,0.0393932492005,2.06840222774,0.0618869472851,-0.278482343701,-0.740221972186,-0.00840213578194,-1.00659158571,-0.0945964782857,0.259959819176,-0.262515424258,0.573758407032,0.819007529138,0.00295033491702,0.0,0.818974574719,-0.573693052952,-0.0117334504694,0.0,-0.00791735006494,0.00914859127297,-0.999926806744,0.0,0.58234688771,0.157018889195,0.304158795839,1.0,-0.18882,-0.248163428571,1.671
0.374645305889,0.176808084764,-0.126698826914,-1.9031019391,0.0378190710501,2.07291791234,0.057415225283,-0.289267358057,-0.743849581994,-0.00517951190189,-1.00766080064,-0.0969637921079,0.263725491847,-0.260130879028,0.573912540251,0.818898990264,0.00309625389886,0.0,0.818867356344,-0.573845988754,-0.0117380069334,0.0,-0.00783562000543,0.00927218913974,-0.999926312069,0.0,0.579146760829,0.152704944066,0.304234580866,1.0,-0.193104,-0.253793828571,1.688
0.36977313048,0.164145433569,-0.126765195858,-1.92038764966,0.036008629694,2.07728887618,0.0527757455189,-0.286316874342,-0.762419724157,-0.00105248781317,-1.03072063881,-0.107553121537,0.248540199048,-0.28005946576,0.573776169485,0.818995564113,0.00281428417081,0.0,0.818960086257,-0.57371044608,-0.0118931946393,0.0,-0.00812604587726,0.00912899383179,-0.999925311636,0.0,0.575760049748,0.148395023496,0.304128631588,1.0,-0.197388,-0.259424228571,1.705
0.36497927112,0.151927113592,-0.126814166873,-1.93650456529,0.0343420909602,2.08157553227,0.0482585679968,-0.303841056775,-0.768302434543,-0.00641450947162,-1.01539617827,-0.111252328561,0.250972974636,-0.280958636026,0.573670590639,0.819068588701,0.00307365267351,0.0,0.819037092121,-0.57360465785,-0.0116912413438,0.0,-0.00781301748225,0.00922453447576,-0.999926929691,0.0,0.572635904023,0.144298390175,0.304248646521,1.0,-0.20142,-0.264723428571,1.721
0.359315975064,0.138080475859,-0.126941075264,-1.95487919773,0.0324896107563,2.08612323741,0.0430552676326,-0.321654511194,-0.775470619135,-0.00738859147738,-1.01420190659,-0.100762796615,0.268708324091,-0.299246603162,0.573713722139,0.819038355989,0.00307950478641,0.0,0.819006328807,-0.573647048039,-0.0117662462513,0.0,-0.00787060968933,0.00927276937166,-0.99992603189,0.0,0.568972572936,0.139516446804,0.304255818983,1.0,-0.205956,-0.270685028571,1.739
0.353728314186,0.124878152838,-0.127109437734,-1.97239558288,0.0305834437042,2.09037516311,0.0378835897805,-0.336948073858,-0.785335502989,-0.0119063286822,-1.03539216512,-0.116165025426,0.253974983534,-0.300123144828,0.573711245958,0.819040542598,0.00295681308609,0.0,0.819006983643,-0.57364508037,-0.0118164890145,0.0,-0.00798217597524,0.00920108035149,-0.999925809741,0.0,0.565222040622,0.134570055111,0.304208230906,1.0,-0.210492,-0.276646628571,1.757
0.348160926941,0.112154970778,-0.127304699137,-1.98883153479,0.0287766783281,2.09439938134,0.03288635215,-0.351021210734,-0.783396903553,-0.00456838769672,-1.03117144819,-0.115540775838,0.245191209323,-0.319624878399,0.573804930966,0.818974256949,0.00313281901874,0.0,0.81894380814,-0.573739116518,-0.0116280775792,0.0,-0.00772582412518,0.00923802885069,-0.999927482603,0.0,0.5621160643,0.130331697547,0.304307092952,1.0,-0.214272,-0.281614628571,1.772
0.341798204718,0.0977351318783,-0.127421803447,-2.00740932882,0.0267284090835,2.09870187881,0.0269965628284,-0.352582528351,-0.816914793977,-0.00269062324537,-1.0226623333,-0.109742567282,0.24765425051,-0.332565139319,0.573677581096,0.819063197277,0.00320292298,0.0,0.819033717688,-0.57361163032,-0.0115850659524,0.0,-0.00765181460839,0.00926957299616,-0.999927759766,0.0,0.558240766035,0.125289238572,0.304364419028,1.0,-0.218808,-0.287576228571,1.79
0.335909704067,0.0848513001349,-0.127556406316,-2.0242154292,0.0249958065863,2.10234105164,0.0216291333883,-0.369964645878,-0.801746606622,-0.00906128799537,-1.06748360802,-0.10638415843,0.216627026418,-0.338704755497,0.573682712597,0.819060254923,0.00303166189324,0.0,0.819026747523,-0.57361521027,-0.0118963982434,0.0,-0.00800501372484,0.00930794940127,-0.999924638077,0.0,0.554630228499,0.120701317077,0.304251070039,1.0,-0.22284,-0.292875428571,1.806
0.329729731728,0.0716646278646,-0.127700428119,-2.04078871438,0.0230428016352,2.10607742513,0.0160315127341,-0.392701848746,-0.799893390782,-0.00973497844986,-1.05647760445,-0.119356187425,0.226408208204,-0.350970292359,0.573622940965,0.819101366491,0.00322798896047,0.0,0.819071428401,-0.573555967025,-0.0116745349995,0.0,-0.00771134370873,0.00934091447108,-0.999926638557,0.0,0.551104386551,0.11599978479,0.304372766123,1.0,-0.226872,-0.298174628571,1.822
0.322347521971,0.0567096171201,-0.12798586998,-2.05958084138,0.0208622772036,2.10997538592,0.00951490681582,-0.41431917185,-0.833508966535,-0.0137948259199,-1.04572928987,-0.128666469812,0.225607067767,-0.365139481625,0.573802505546,0.818975550832,0.00323707742447,0.0,0.818945663438,-0.573735395623,-0.0116808838003,0.0,-0.00770928077534,0.00935369099814,-0.999926535029,0.0,0.547015546989,0.110461352277,0.304420317513,1.0,-0.22998,-0.302259428571,1.84
0.315334430034,0.0427583351523,-0.128105953201,-2.07730237109,0.0188660276905,2.11352646796,0.00330740598375,-0.4082183312,-0.824074922221,-0.0120813542698,-1.03940626067,-0.115086401024,0.198294138331,-0.360665652713,0.573834476898,0.818953722568,0.00308874006755,0.0,0.818920574483,-0.573766294361,-0.0119196914856,0.0,-0.00798961459603,0.0093695431117,-0.999924185986,0.0,0.543041685019,0.105370176499,0.304308703028,1.0,-0.22998,-0.302259428571,1.857
0.308537044781,0.0295503252886,-0.128225813302,-2.09356659086,0.0168776611917,2.11678228373,-0.00273693289472,-0.43202840087,-0.824226342137,-0.00635734480868,-1.01349411908,-0.129977907629,0.184631207904,-0.383548320582,0.573787200297,0.818986447117,0.00319297888588,0.0,0.818955144249,-0.573719227224,-0.0118096114637,0.0,-0.00784018930352,0.00939129119391,-0.999925164741,0.0,0.539383319872,0.100546490369,0.304374186195,1.0,-0.22998,-0.302259428571,1.873
0.30111887959,0.0156283542918,-0.128394022691,-2.11055277987,0.0147932281273,2.11996920171,-0.00928047096904,-0.442805047803,-0.823328030444,-0.0173691653124,-0.981781161191,-0.129668145852,0.186527782721,-0.39740975698,0.573805508189,0.818973256478,0.00328494236094,0.0,0.818943328339,-0.573737431942,-0.0117444054036,0.0,-0.00773380844432,0.00942936768601,-0.999925634851,0.0,0.535265291656,0.0950778587516,0.304450914151,1.0,-0.22998,-0.302259428571,1.891
0.293022957134,0.00104584739622,-0.128574386711,-2.12838511875,0.0126439341911,2.12311418164,-0.0163356253414,-0.451324779157,-0.795334741786,-0.00593074893934,-0.986783438418,-0.118938357092,0.169021559169,-0.404204092579,0.5739250247,0.818889855119,0.00319657734803,0.0,0.818857721313,-0.573855970185,-0.0119207646571,0.0,-0.00792757087792,0.00945934931525,-0.999923834265,0.0,0.531312669665,0.0898698958722,0.304402527683,1.0,-0.22998,-0.302259428571,1.908
0.286293033827,-0.0110800581195,-0.128619387064,-2.14277068478,0.0108234458484,2.1257699327,-0.0223358609304,-0.446234982167,-0.786993244295,-0.00374232951147,-0.965869859891,-0.117803699347,0.174205140328,-0.400408368833,0.573782408145,0.818988671701,0.00347140167538,0.0,0.81896096,-0.573713461605,-0.0116857550169,0.0,-0.00757905702766,0.00954820693579,-0.999925692059,0.0,0.527930609512,0.0854342634237,0.304530005576,1.0,-0.22998,-0.302259428571,1.923
0.278415690453,-0.0246002923256,-0.128736438657,-2.15904646177,0.00870640363973,2.12828888981,-0.0292586798011,-0.460619285625,-0.812210154881,-0.0128460204344,-0.930636453367,-0.123492816095,0.142539396039,-0.415969991089,0.573728032045,0.819027614887,0.00326468979767,0.0,0.818996544832,-0.573658970665,-0.0118655732811,0.0,-0.00784556464625,0.0094815642214,-0.99992427066,0.0,0.523964146405,0.0802913997826,0.304472526813,1.0,-0.22998,-0.302259428571,1.94
0.270278594972,-0.0381101369569,-0.128955598581,-2.17493292364,0.00665458020352,2.13086492309,-0.0362362316678,-0.47987762188,-0.776100966498,-0.00864379794188,-0.940200374366,-0.110657783036,0.134044568774,-0.426194062109,0.573926901852,0.818887684739,0.00340852089053,0.0,0.818858703575,-0.573857578062,-0.0117749981461,0.0,-0.00768654341645,0.00954926905586,-0.999924861433,0.0,0.520103082101,0.075069759601,0.304534995152,1.0,-0.22998,-0.302259428571,1.957
0.262081970673,-0.0515458711756,-0.129049054272,-2.19057596627,0.00467312770501,2.133256398,-0.0433914471337,-0.476514954585,-0.792729058129,-0.00652917751537,-0.914709100937,-0.127567961256,0.14662206796,-0.417716897785,0.57393072807,0.818884251006,0.00358465220964,0.0,0.818857317547,-0.573860510438,-0.0117283827348,0.0,-0.00754724287237,0.00966678405036,-0.999924793378,0.0,0.516212962453,0.0699783527299,0.304597339797,1.0,-0.22998,-0.302259428571,1.974
0.253252905626,-0.0654943050508,-0.12917426786,-2.20701461617,0.00243849519283,2.13552070088,-0.0512083933856,-0.490184855829,-0.775097716685,-0.00610366082249,-0.919850352258,-0.117722910878,0.115327480145,-0.443114773303,0.573793974545,0.818980912788,0.0033891247527,0.0,0.818950848945,-0.573723710175,-0.0118894195396,0.0,-0.00779293647789,0.00959778867325,-0.999923573376,0.0,0.512018037817,0.0645642291943,0.304492831271,1.0,-0.22998,-0.302259428571,1.992
0.245133065617,-0.0779686793629,-0.129393390037,-2.22115367031,0.000541421160432,2.1374091193,-0.0582497947646,-0.516275465675,-0.792249695198,-0.0179999213105,-0.861705278073,-0.115420596452,0.112645082953,-0.451509897834,0.573923995358,0.818889010215,0.00357538839771,0.0,0.818861557011,-0.573853299168,-0.0117850916518,0.0,-0.00759907991607,0.00969168159165,-0.99992415977,0.0,0.508391744968,0.0596640562308,0.304590915705,1.0,-0.22998,-0.302259428571,2.008
0.23695958373,-0.0902097770842,-0.129481158283,-2.23533579325,-0.00133724603424,2.13906373073,-0.065400010574,-0.503663470698,-0.783312372185,-0.000365452101764,-0.886963622067,-0.10860366337,0.0994702968463,-0.44880090041,0.573888024925,0.818914906209,0.00341440145494,0.0,0.818883865657,-0.57381604727,-0.0120459687747,0.0,-0.00790553724873,0.00970922242334,-0.999921613668,0.0,0.504633814713,0.0548717132563,0.304483352916,1.0,-0.22998,-0.302259428571,2.024
0.228109766097,-0.103258826811,-0.129599794351,-2.24986092051,-0.00346125013887,2.14077119266,-0.0731820958759,-0.531098878289,-0.763832686875,-0.00667454221488,-0.841653072725,-0.128472546858,0.0849435512625,-0.460175857055,0.573777916235,0.818991571218,0.00352930825174,0.0,0.818963113003,-0.573706885078,-0.0118564942468,0.0,-0.00768572838286,0.00969355446635,-0.999923479363,0.0,0.500773451166,0.0497660642492,0.304580514701,1.0,-0.22998,-0.302259428571,2.041
0.218987978048,-0.116128835962,-0.129812142586,-2.26433751208,-0.00548831313079,2.14220542789,-0.081048891031,-0.544667895454,-0.751046331532,-0.0136744108129,-0.816234743814,-0.11823876504,0.0770053030097,-0.470715860499,0.573917828221,0.818893919353,0.0034383423994,0.0,0.818863319909,-0.573845914206,-0.0120198568076,0.0,-0.00787006043673,0.00971412961379,-0.999921845863,0.0,0.496822302366,0.0445710960586,0.304532939444,1.0,-0.22998,-0.302259428571,2.058
0.210308724346,-0.12821458364,-0.129912487419,-2.27762056148,-0.00733051682358,2.14353935007,-0.088695866364,-0.540512717706,-0.743060805977,-0.00419996289135,-0.80228530573,-0.108120529802,0.0755012757461,-0.480768310239,0.573859076787,0.818934460961,0.00358546235456,0.0,0.818905672101,-0.573786490898,-0.0119712139678,0.0,-0.00774649893918,0.00980613405328,-0.999921912696,0.0,0.493162260922,0.0397800019442,0.30458117345,1.0,-0.22998,-0.302259428571,2.074
0.200340471138,-0.141660466747,-0.130063454034,-2.29230472588,-0.00949474088935,2.14479567465,-0.0974492097212,-0.562177197858,-0.751373821876,-0.00971116527019,-0.787242352244,-0.12083938018,0.0727600784474,-0.495601770634,0.573806347183,0.81897134426,0.00360001605489,0.0,0.818942777814,-0.573733757415,-0.0119603164842,0.0,-0.00772985455453,0.00981130155905,-0.999921990812,0.0,0.489027047023,0.0343515620754,0.304602508081,1.0,-0.22998,-0.302259428571,2.092
0.190693589625,-0.15426962647,-0.130292452598,-2.30592457144,-0.011503478849,2.14589675271,-0.10587037451,-0.569794998529,-0.753043045079,-0.0108169623259,-0.800737811619,-0.115880189937,0.0563961894668,-0.504808974292,0.573888186709,0.818913603455,0.00368864934436,0.0,0.818886276661,-0.573815374622,-0.0119133809536,0.0,-0.00763957310613,0.00985772271226,-0.999922228089,0.0,0.4851366681,0.0291677121388,0.304630794985,1.0,-0.22998,-0.302259428571,2.109
0.181581251636,-0.166031856829,-0.130379242427,-2.31848473102,-0.0133568439356,2.14667895723,-0.113909008505,-0.567907541105,-0.737618423009,-0.00813719178157,-0.776277421484,-0.108373993746,0.051001741701,-0.502568967068,0.57379675066,0.818977562805,0.0037131461471,0.0,0.818950241941,-0.57372346001,-0.0119431804619,0.0,-0.00765102507776,0.00989403056788,-0.999921781928,0.0,0.48145267436,0.0244192076103,0.30465699793,1.0,-0.22998,-0.302259428571,2.125
0.171608638093,-0.178379602979,-0.130544240767,-2.33164059555,-0.015336819594,2.14745512921,-0.122675826432,-0.593358227368,-0.716658965728,-0.0115230845855,-0.763996198936,-0.11895040807,0.0355387104093,-0.507710276929,0.573791255413,0.818981369009,0.00372281201022,0.0,0.818953892632,-0.573717566599,-0.0119759099956,0.0,-0.00767235223247,0.00992067482212,-0.999921354519,0.0,0.477541644223,0.0192852009749,0.304645574534,1.0,-0.22998,-0.302259428571,2.142
0.160774725785,-0.191423774541,-0.130764227904,-2.34524521989,-0.0174304339183,2.14811113931,-0.132196458531,-0.596079200287,-0.727092835069,-0.00141719093518,-0.730226869886,-0.116280443119,0.0438065113013,-0.534828110501,0.573837220094,0.818948707222,0.00382186804063,0.0,0.818922715962,-0.573763422787,-0.0119107872733,0.0,-0.00756162133565,0.00996485946834,-0.999921758668,0.0,0.473420908163,0.0137963142188,0.304698328459,1.0,-0.22998,-0.302259428571,2.16
0.151721343421,-0.202124806417,-0.130899159755,-2.35640191207,-0.0191096576053,2.14857333897,-0.140259362578,-0.614211029196,-0.704482990427,-0.0184134376766,-0.759287337641,-0.116768098737,0.0221217613306,-0.539523730994,0.573769005672,0.818996209334,0.00388382902407,0.0,0.818970715349,-0.573694589347,-0.0119261248873,0.0,-0.00753946453572,0.010023776041,-0.9999213371,0.0,0.469977445727,0.00931770383015,0.304696716304,1.0,-0.22998,-0.302259428571,2.175
0.141110782483,-0.214166989282,-0.131147356063,-2.36882178295,-0.0210100624169,2.14884219203,-0.149555213408,-0.62979974245,-0.719846766449,-0.0178852320176,-0.705758151622,-0.111588637681,0.0240769771504,-0.554977452929,0.573913546308,0.818894869178,0.00389634419505,0.0,0.818868632988,-0.573837860813,-0.0120423547496,0.0,-0.00762569951772,0.0101020590608,-0.999919895346,0.0,0.466046965243,0.00411876445156,0.304689030213,1.0,-0.22998,-0.302259428571,2.192
0.129847567396,-0.226801180271,-0.131264285254,-2.38165056546,-0.02309657057,2.14913845691,-0.15957883529,-0.629303766161,-0.691325983254,-0.012822949194,-0.721856999577,-0.118256593012,0.0158443573971,-0.571509051821,0.573779843303,0.818988264509,0.00395738760683,0.0,0.818963555103,-0.573704932814,-0.0119202508206,0.0,-0.00749231699127,0.0100807499571,-0.999921118722,0.0,0.461934985154,-0.00124536260538,0.30472500374,1.0,-0.22998,-0.302259428571,2.21
0.120261063687,-0.237198446955,-0.131436058866,-2.39220093124,-0.02478936644,2.14915997848,-0.168121289195,-0.649178251619,-0.695875324204,-0.0108026934876,-0.697263709292,-0.120289541182,0.00161174238816,-0.573725250882,0.57374358976,0.81901383344,0.0039218292504,0.0,0.818988110533,-0.573668076516,-0.0120066520295,0.0,-0.00758393187711,0.010100865637,-0.999920225063,0.0,0.458229042385,-0.00606709749809,0.304699905481,1.0,-0.22998,-0.302259428571,2.226
0.108397189581,-0.249603858535,-0.131661798696,-2.40436745395,-0.0267256175004,2.14922346598,-0.178600462372,-0.654547554386,-0.672916270959,-0.00100124353501,-0.669241899583,-0.105005899718,-0.00978161504791,-0.588269460209,0.573867942621,0.818925380198,0.00418963017394,0.0,0.818903981309,-0.573792620601,-0.0117917276866,0.0,-0.00725270583912,0.0101979956801,-0.999921696505,0.0,0.454403343169,-0.011248894261,0.30481630423,1.0,-0.22998,-0.302259428571,2.243
0.0972416597956,-0.261108466492,-0.13182056435,-2.41593031888,-0.0285603385499,2.14910153434,-0.188702076366,-0.667388634769,-0.668165998182,-0.0113119699146,-0.664813518939,-0.10889302647,-0.0167200446913,-0.592601816461,0.573712211835,0.819034666762,0.00415445973841,0.0,0.819011858724,-0.57363570613,-0.0119330977856,0.0,-0.00739061661491,0.0102489130403,-0.999920166097,0.0,0.450446541123,-0.0162910349451,0.30473946095,1.0,-0.22998,-0.302259428571,2.26
0.0862876762977,-0.27188671954,-0.132073053937,-2.42627219576,-0.0303566165402,2.14897536892,-0.198361968111,-0.69218455831,-0.661641604294,-0.0116039038385,-0.640596107603,-0.115339428078,-0.010486173109,-0.601628439707,0.573863041851,0.818927959004,0.0043536260894,0.0,0.818909297407,-0.573788066569,-0.0116432033509,0.0,-0.00703702154449,0.0102470262609,-0.999922736405,0.0,0.446848092957,-0.0212222381973,0.304847892454,1.0,-0.22998,-0.302259428571,2.276
0.0747666666145,-0.2830950653,-0.132186415294,-2.43725047146,-0.0321666130074,2.14859019906,-0.208847996532,-0.681735869353,-0.672311323435,-0.00977599566076,-0.6456767789,-0.103937257989,-0.0234658329664,-0.612417467515,0.573654427399,0.819074322341,0.00431269145354,0.0,0.819054548111,-0.573578772633,-0.0117382155285,0.0,-0.0071409401441,0.0102662065136,-0.999921802931,0.0,0.44291864833,-0.0262389167943,0.304800558896,1.0,-0.22998,-0.302259428571,2.293
0.0620726964727,-0.294847420764,-0.132486581911,-2.44847196366,-0.033985156842,2.14807901599,-0.220191614846,-0.715900607677,-0.645992424987,-0.0254649154961,-0.599305292233,-0.10836230647,-0.0258847047541,-0.63315518796,0.573824155664,0.818954605935,0.00446527653753,0.0,0.818936360513,-0.573747321134,-0.0117471623299,0.0,-0.00705858814492,0.0103977830113,-0.999921028103,0.0,0.438795555624,-0.0317423129124,0.304826282307,1.0,-0.22998,-0.302259428571,2.311
0.0507206900762,-0.305144435466,-0.132608628234,-2.45818747812,-0.0357315141499,2.14759305711,-0.230461046552,-0.706541070868,-0.635339352902,-0.0105297981328,-0.606545463815,-0.10218413576,-0.0409197098586,-0.634141031716,0.573702305196,0.81903976616,0.00450259514949,0.0,0.819023000982,-0.573626852459,-0.0115889991375,0.0,-0.00690917468309,0.0103365635225,-0.999922706393,0.0,0.435157807167,-0.0365417883557,0.30486391356,1.0,-0.22998,-0.302259428571,2.327
0.0384532938449,-0.315917736068,-0.132874268989,-2.46844261323,-0.0374828483137,2.14681504014,-0.241517321713,-0.731430198633,-0.635677917239,-0.018592521819,-0.599379122494,-0.109303519839,-0.0441530106365,-0.655367410279,0.573766105619,0.818995391939,0.0044442014279,0.0,0.81897663882,-0.573689005936,-0.0117871301517,0.0,-0.00710415255605,0.0104029532003,-0.999920651643,0.0,0.431189140384,-0.0416793566543,0.304800562399,1.0,-0.22998,-0.302259428571,2.344
0.0259210291066,-0.326588169124,-0.133047768911,-2.47812583503,-0.0391949450363,2.14613332517,-0.252878644965,-0.729217782795,-0.625368428942,0.000191411415235,-0.565713596595,-0.0900760528665,-0.0379858319902,-0.680130120109,0.57374915548,0.819006029334,0.00466662639849,0.0,0.818991676542,-0.573673657735,-0.011485428945,0.0,-0.00672964448662,0.0104118837964,-0.999923149327,0.0,0.427373273452,-0.0468229677989,0.304924674285,1.0,-0.22998,-0.302259428571,2.361
0.0140744977955,-0.336373266639,-0.133254258773,-2.48726383526,-0.040730936554,2.14527158688,-0.263745617558,-0.749923665521,-0.607498658598,-0.0181934703886,-0.565224968543,-0.0922355266011,-0.0582780219975,-0.684192704974,0.573690307981,0.819047263586,0.00466448725236,0.0,0.819031724608,-0.573613044251,-0.0116557475742,0.0,-0.00687112971357,0.0105073547535,-0.999921188431,0.0,0.423663391756,-0.0516012718723,0.304868602115,1.0,-0.22998,-0.302259428571,2.377
0.000354939889298,-0.347224671647,-0.133490192099,-2.4972191081,-0.0425973102641,2.14418522335,-0.276165029583,-0.754586172336,-0.601580193695,-0.00585553383046,-0.549410418954,-0.0915553954591,-0.0595132766457,-0.696762709328,0.573726415511,0.819022481828,0.00457398135552,0.0,0.819005463366,-0.573648970601,-0.0117327066992,0.0,-0.00698562535816,0.0104776812061,-0.999920706474,0.0,0.419490346798,-0.0570758675767,0.304839739347,1.0,-0.22998,-0.302259428571,2.395
-0.0119255745329,-0.356767245794,-0.133699099958,-2.50560090765,-0.0441193054424,2.14328014285,-0.287438349541,-0.784446571958,-0.585368269311,-0.0215812667624,-0.527806380009,-0.0957017070285,-0.0592855484246,-0.708252741681,0.573704682144,0.819036520424,0.00478150587023,0.0,0.819023448906,-0.573628548037,-0.01147283397,0.0,-0.00665398985438,0.0104983861213,-0.99992275117,0.0,0.415894514373,-0.0619009420413,0.30495629281,1.0,-0.22998,-0.302259428571,2.411
-0.024472471777,-0.366030329262,-0.133930980973,-2.51401551737,-0.0456552745385,2.14217131721,-0.298947767974,-0.771352820021,-0.579883939594,-0.00996558625522,-0.511304677339,-0.0886647136133,-0.0698199559027,-0.725907086115,0.573710522622,0.819032802967,0.00471707517165,0.0,0.819017876395,-0.573632985564,-0.0116474425838,0.0,-0.0068338992067,0.0105458323018,-0.999921038504,0.0,0.412166011404,-0.0667544305119,0.30489541382,1.0,-0.22998,-0.302259428571,2.427
-0.0386553823009,-0.376245918228,-0.134144265628,-2.52318299663,-0.0473144735829,2.14085422139,-0.312033727599,-0.792122783077,-0.558702217695,-0.0209405308544,-0.49704894575,-0.0993734742377,-0.0727346786555,-0.731796958477,0.573655652658,0.819071483886,0.00467368792556,0.0,0.819054850173,-0.573576516875,-0.0118270283446,0.0,-0.0070065989136,0.0106128527579,-0.999919134194,0.0,0.407991225452,-0.0721322278325,0.304840278523,1.0,-0.22998,-0.302259428571,2.445
-0.051607073844,-0.385174398884,-0.134355073581,-2.53080304185,-0.0488335704829,2.1397991717,-0.323883026849,-0.806625423714,-0.541875476916,-0.00292569557898,-0.478226847141,-0.0947001556007,-0.0711244777139,-0.754190021891,0.573707722763,0.81903427735,0.00480086117342,0.0,0.81902107345,-0.573630928983,-0.0115232573517,0.0,-0.00668414899355,0.0105431911949,-0.9999220786,0.0,0.40417058595,-0.0773156262548,0.304946370486,1.0,-0.22998,-0.302259428571,2.462
-0.0654211733239,-0.394409156678,-0.134597481089,-2.53895033786,-0.0503438304657,2.13847345814,-0.336747701638,-0.823026639791,-0.541717337444,-0.0163739262877,-0.480180627984,-0.0952020192867,-0.0898411450583,-0.762417744119,0.573658112439,0.819069098344,0.00478843096547,0.0,0.819054729962,-0.573579791577,-0.011675569468,0.0,-0.00681668216394,0.0106199766415,-0.9999203713,0.0,0.400451122211,-0.082126825251,0.304896422768,1.0,-0.22998,-0.302259428571,2.478
-0.0786595149673,-0.402868054152,-0.134791739312,-2.54635256663,-0.0518049017565,2.13713369559,-0.348979513857,-0.825331764212,-0.527619138229,-0.00651613455643,-0.452978543847,-0.0771663211461,-0.0814026080022,-0.771550375528,0.573673818546,0.819058674284,0.00468880549242,0.0,0.819042055054,-0.573594352245,-0.011848123388,0.0,-0.00701497094562,0.0106374918775,-0.999918813679,0.0,0.396497167691,-0.0872551305587,0.304841444994,1.0,-0.22998,-0.302259428571,2.495
-0.093734283385,-0.412203117623,-0.135079202702,-2.55418136185,-0.053187046021,2.13578001535,-0.363047546747,-0.858644206146,-0.509709921713,-0.0238590331361,-0.416389109835,-0.0762979102599,-0.0724034508053,-0.789385105362,0.573726368258,0.81902028341,0.00495748220039,0.0,0.819007623734,-0.573646734096,-0.0116911773307,0.0,-0.00673159750135,0.0107679597439,-0.999919365068,0.0,0.392654402284,-0.0923907193022,0.304916361372,1.0,-0.22998,-0.302259428571,2.512
-0.107327038195,-0.420278295363,-0.1352412749,-2.56093953931,-0.0545971179203,2.13445751982,-0.375781148507,-0.845892908447,-0.509823656658,-0.00835204939705,-0.428510962737,-0.089747758918,-0.0908411548762,-0.805841723706,0.573614246069,0.819098872336,0.00494782228975,0.0,0.819086784627,-0.57353577921,-0.0115886201329,0.0,-0.00665460069216,0.0107002994647,-0.999920606789,0.0,0.388997025183,-0.09721849852,0.304954744905,1.0,-0.22998,-0.302259428571,2.528
-0.121962385861,-0.42854469931,-0.135545745332,-2.56803681459,-0.0559629496892,2.13288273743,-0.389439398494,-0.873792288126,-0.489777481579,-0.0291561573237,-0.413419963839,-0.0865305857665,-0.0836496626697,-0.803801256062,0.573703912448,0.819036343978,0.00490254893147,0.0,0.819021634627,-0.573622355457,-0.0119038747662,0.0,-0.00693762797274,0.0108448019624,-0.99991712636,0.0,0.385007061661,-0.102358417396,0.304869758739,1.0,-0.22998,-0.302259428571,2.545
-0.137547447749,-0.437011609272,-0.135725637557,-2.5751466011,-0.0574205266454,2.13139367786,-0.404133775131,-0.870844374696,-0.458449611227,-0.0106721259858,-0.385080339177,-0.0813809438026,-0.0830895685605,-0.828984501098,0.57358231206,0.819121643406,0.00487970266602,0.0,0.819106585964,-0.573500778281,-0.0119165868258,0.0,-0.00696275496237,0.0108323485709,-0.999917086697,0.0,0.380881003827,-0.107735160937,0.304846441603,1.0,-0.22998,-0.302259428571,2.563
-0.150893683098,-0.4439061759,-0.135982999287,-2.58058666562,-0.0585331238992,2.13015020767,-0.416613261643,-0.889926807561,-0.459693740646,-0.0147714658078,-0.367647743225,-0.0800940567003,-0.0899890357513,-0.841775073062,0.573725058269,0.81902045584,0.00507910738028,0.0,0.819009362011,-0.573645018339,-0.011653530556,0.0,-0.00663100292912,0.0108459678109,-0.999919194126,0.0,0.377267063743,-0.112654296571,0.304967630819,1.0,-0.22998,-0.302259428571,2.579
-0.166850029287,-0.451847193432,-0.136153905859,-2.5871123111,-0.05982038428,2.12858551598,-0.431766981986,-0.888404632514,-0.434689604448,-0.00761391949247,-0.369397294281,-0.0667921016898,-0.0987231511958,-0.851944369557,0.573617111093,0.81909585978,0.00511167817808,0.0,0.81908467079,-0.573536138111,-0.0117195247035,0.0,-0.00666781037769,0.0109096271856,-0.999918256829,0.0,0.373365680136,-0.117714268225,0.304955090252,1.0,-0.22998,-0.302259428571,2.596
-0.183090972467,-0.45945763543,-0.136407531981,-2.59336797063,-0.0612006327381,2.12693553622,-0.447180450343,-0.89556623434,-0.412680355682,-0.00422026967962,-0.338264442598,-0.0760621270108,-0.0865585503022,-0.861337926492,0.573558620859,0.819137322573,0.00503012005086,0.0,0.819124143971,-0.573476433439,-0.0118812438119,0.0,-0.00684784678066,0.01093509313,-0.999916761902,0.0,0.369178164439,-0.123145942183,0.304912122369,1.0,-0.22998,-0.302259428571,2.614
-0.196773449302,-0.465483489306,-0.136626845341,-2.59829902621,-0.062200294263,2.12574060525,-0.46018495512,-0.920754188169,-0.394293071169,-0.0118224144405,-0.328173929484,-0.0656497410868,-0.081002433325,-0.870334618429,0.573583298027,0.819119594979,0.00510257253505,0.0,0.819107016618,-0.573500298129,-0.0119100912659,0.0,-0.00682959375468,0.011011194394,-0.9999160516,0.0,0.365736522824,-0.127676039178,0.3048846373,1.0,-0.22998,-0.302259428571,2.629
-0.212488205664,-0.472104610883,-0.136812761903,-2.60348433848,-0.0633362340804,2.12431030763,-0.475048307756,-0.919891333021,-0.384668205271,-0.00996825212476,-0.294216893457,-0.0612019134858,-0.0877216542132,-0.881633899267,0.573648050788,0.81907386061,0.00516445482087,0.0,0.819062671115,-0.573565771225,-0.0118065137468,0.0,-0.00670838143982,0.0110030075999,-0.999916962273,0.0,0.361860162483,-0.132829790152,0.304938295992,1.0,-0.22998,-0.302259428571,2.646
-0.228316828869,-0.478436008084,-0.13710796092,-2.60836470296,-0.0644255270571,2.12294644548,-0.490174054831,-0.94203357471,-0.369562008011,-0.0148758764057,-0.284097119239,-0.0678853960008,-0.0838341747324,-0.902332917815,0.573703668396,0.819034041484,0.00529968483377,0.0,0.819025428294,-0.573622299303,-0.0116426995071,0.0,-0.00649587489684,0.011020248232,-0.999918175521,0.0,0.357990270865,-0.138007832672,0.305009871425,1.0,-0.22998,-0.302259428571,2.663
-0.24321072609,-0.48403132821,-0.137228966187,-2.61287798693,-0.0653357696999,2.12160676175,-0.504533139068,-0.930691544857,-0.341412574152,-0.00305273815384,-0.270850737765,-0.0572510784956,-0.0721556144841,-0.89339744317,0.573581082284,0.819119754806,0.00532129990191,0.0,0.819110320136,-0.573497801616,-0.0118026221791,0.0,-0.00661613457106,0.0111287067316,-0.999916185813,0.0,0.354085235182,-0.143035680024,0.304964422381,1.0,-0.226872,-0.298174628571,2.68
-0.260199422281,-0.48984266446,-0.137373620539,-2.61756109952,-0.0663446583955,2.12016507892,-0.520698285885,-0.935098286904,-0.308140093658,-0.00229882787127,-0.247917292046,-0.0492660198368,-0.0725449848308,-0.897147465357,0.573677933499,0.819051995229,0.00531080313357,0.0,0.819041156755,-0.573592557888,-0.0119961651261,0.0,-0.00677937635177,0.0112319178105,-0.999913938336,0.0,0.350192394639,-0.148117351506,0.304903232153,1.0,-0.222588,-0.292544228571,2.697
-0.276021493871,-0.494931791306,-0.137440545095,-2.62151884716,-0.0671518109696,2.11901180127,-0.535875576023,-0.932924396914,-0.293500385357,-0.0115930837327,-0.225799173671,-0.0517733580819,-0.067070311256,-0.896540951541,0.57368652202,0.819045325082,0.00541080540045,0.0,0.819036102242,-0.573601293658,-0.0119233401071,0.0,-0.00666223926537,0.0112721215053,-0.999914273248,0.0,0.346452908968,-0.153075467889,0.304917622721,1.0,-0.218304,-0.286913828571,2.714
-0.289877389446,-0.499104641747,-0.137441535785,-2.62473918794,-0.0678063199567,2.11793172219,-0.549111704707,-0.915007362607,-0.274413069118,0.000413023163377,-0.204834399718,-0.0362327225937,-0.0717627608668,-0.880592949232,0.573733154021,0.819012286398,0.0054671389282,0.0,0.819003492883,-0.573647189435,-0.011955233145,0.0,-0.00665540208922,0.0113369377688,-0.999913585999,0.0,0.342973965257,-0.157637465655,0.304927700303,1.0,-0.214272,-0.281614628571,2.73
-0.306382357673,-0.503714115744,-0.137464549065,-2.62824599576,-0.0684988089963,2.11676478863,-0.564871451845,-0.919546454781,-0.245975007939,-0.00229455290569,-0.195940163925,-0.0338929524347,-0.0536545275436,-0.86836609152,0.57386328752,0.818920428009,0.00556836842217,0.0,0.818913002314,-0.573777001409,-0.0119245208309,0.0,-0.00657035846636,0.011403273577,-0.99991339412,0.0,0.339343435615,-0.162443573203,0.304950943458,1.0,-0.209988,-0.275984228571,2.747
-0.321651618299,-0.507619263855,-0.137381500603,-2.63120145545,-0.0690626979319,2.11581913305,-0.579628712731,-0.897078148751,-0.226290342695,0.0057953175969,-0.172104147408,-0.0331320610583,-0.0555242668797,-0.864374221287,0.573812850672,0.818955125043,0.00566237317377,0.0,0.818949449696,-0.573727152565,-0.0118194819647,0.0,-0.00643109191108,0.0114195878968,-0.999914113346,0.0,0.3358446895,-0.167091373353,0.304981565614,1.0,-0.205704,-0.270353828571,2.764
-0.336857407428,-0.51121726271,-0.137348913742,-2.63393849075,-0.0696658148764,2.11486496858,-0.594174322566,-0.88408047515,-0.211671428127,0.0108266863922,-0.159582309982,-0.0377478169516,-0.0645587787002,-0.850665070368,0.573914946955,0.81888339039,0.00568977200608,0.0,0.818878140143,-0.573829252824,-0.0118036901147,0.0,-0.00640101140056,0.0114337642396,-0.999914144359,0.0,0.332340251464,-0.171704052765,0.304991032103,1.0,-0.20142,-0.264723428571,2.781
-0.351688990945,-0.514362386397,-0.137185219004,-2.63642202655,-0.0700830842542,2.1139555702,-0.608582822602,-0.876008703354,-0.17473547913,0.00847404733544,-0.146451646048,-0.029792047115,-0.0501921077785,-0.838132570935,0.573823972665,0.818946827882,0.00573484073115,0.0,0.81894117463,-0.573736363918,-0.0119450456177,0.0,-0.00649219554366,0.0115510731286,-0.9999122082,0.0,0.328940787983,-0.176113807064,0.304951885212,1.0,-0.197136,-0.259093028571,2.798
-0.366421127304,-0.517129168127,-0.137053408239,-2.63863212129,-0.0705224218505,2.11317755383,-0.622774548764,-0.846359763714,-0.158240579865,0.0134142596064,-0.122755505052,-0.0178338880308,-0.0443470798561,-0.827149307754,0.573858085959,0.818922878814,0.00574130951816,0.0,0.818916580716,-0.573769152158,-0.012055735638,0.0,-0.00657865809996,0.0116201586616,-0.999910842611,0.0,0.325590182007,-0.180499741516,0.304904995762,1.0,-0.192852,-0.253462628571,2.815
-0.379965885519,-0.51946666539,-0.136933408329,-2.64046617649,-0.0708445678704,2.11253425837,-0.635886885355,-0.846348331948,-0.144060781651,0.00488693059137,-0.106181131204,-0.0195146132385,-0.0464451308689,-0.818491264601,0.573883623645,0.818904529731,0.00580556614061,0.0,0.818898672942,-0.573793716149,-0.0121029609546,0.0,-0.00658009886597,0.0117000867606,-0.999909901075,0.0,0.322528673122,-0.184512315675,0.304880122787,1.0,-0.18882,-0.248163428571,2.831
-0.394170539985,-0.521663204718,-0.136738931855,-2.64211001963,-0.0711515671842,2.11188789306,-0.64965414913,-0.816359634826,-0.119954304603,0.00978456709262,-0.0958740541893,-0.0160857636512,-0.0262869859164,-0.806644286675,0.573877237802,0.81890873571,0.00584340744301,0.0,0.8189033926,-0.573787208854,-0.0120921232176,0.0,-0.00654959898932,0.0117248061896,-0.999909811769,0.0,0.319356524962,-0.188700091304,0.304889954363,1.0,-0.184536,-0.242533028571,2.848
-0.408124065467,-0.523618120281,-0.136613684379,-2.64352056952,-0.0714081255911,2.11130472154,-0.663166060937,-0.825837255689,-0.100746747957,0.00166334668984,-0.07145111205,-0.0144089019047,-0.0299216428119,-0.788047479278,0.573958173183,0.818851367777,0.00593294421848,0.0,0.818847435687,-0.573868194656,-0.0120382362768,0.0,-0.00645292249195,0.0117678468286,-0.99990993473,0.0,0.316242151332,-0.192818221174,0.304919459375,1.0,-0.180252,-0.236902628571,2.865
-0.420985105385,-0.525168085768,-0.136400585945,-2.6446488706,-0.0716116089703,2.11084795437,-0.675701524258,-0.793872123713,-0.0917102525433,0.00626996993933,-0.0693583631639,-0.00839948936793,-0.0229592189541,-0.773646216144,0.57392124146,0.818876992785,0.00596876779888,0.0,0.818873865971,-0.573831744103,-0.0119778124382,0.0,-0.00638340949379,0.0117622154062,-0.999910447176,0.0,0.313399494393,-0.196580842461,0.30494094255,1.0,-0.17622,-0.231603428571,2.881
-0.434419777417,-0.526578809836,-0.136276212525,-2.64568189846,-0.0717996880137,2.11040695755,-0.688745585803,-0.79114576128,-0.0775716361229,0.0037512304563,-0.0593334117287,-0.00923542021073,-0.0263369127463,-0.758116387843,0.574020130537,0.818807068996,0.00605147936906,0.0,0.818805054404,-0.573930341714,-0.0119579531498,0.0,-0.00631825059354,0.0118193152805,-0.999910187715,0.0,0.310231024853,-0.200756572174,0.304950881715,1.0,-0.171684,-0.225641828571,2.899
-0.447473142289,-0.527706926782,-0.136009040967,-2.64654991365,-0.0719413923591,2.11003163658,-0.701527286815,-0.753271586521,-0.0598601286681,0.0181708481819,-0.0478770585901,-0.00559300038626,-0.0164648310917,-0.745219441987,0.57393551208,0.818866313177,0.00606102460562,0.0,0.818864350792,-0.573845566984,-0.0119660835472,0.0,-0.00632065230831,0.0118311450533,-0.999910032633,0.0,0.307524842542,-0.204296334814,0.304945824737,1.0,-0.167652,-0.220342628571,2.915
-0.459564563738,-0.528519811262,-0.135849238579,-2.6471988367,-0.0720527850087,2.10974383882,-0.713281928877,-0.759495677795,-0.0448038310282,0.00177340742981,-0.0388450752512,-0.00418554226717,-0.0181049543612,-0.736037186524,0.574030754688,0.818799135019,0.00611686729404,0.0,0.81879757488,-0.573939947712,-0.0120089421491,0.0,-0.00632231867354,0.0119022073855,-0.999909178749,0.0,0.304671824774,-0.208038338541,0.304926098127,1.0,-0.163368,-0.214712228571,2.932
-0.472813571219,-0.52918787814,-0.135573767619,-2.64773851402,-0.0721439269289,2.1094680041,-0.726243669023,-0.716383750218,-0.0307870467824,0.0134485483802,-0.0270156161983,-0.000658538180677,-0.00559459123345,-0.715061034883,0.57398441615,0.818831658915,0.00611156910956,0.0,0.818829752226,-0.573893120182,-0.0120528161859,0.0,-0.00636196249406,0.0119226928299,-0.999908683245,0.0,0.301930448864,-0.211636937783,0.304909395976,1.0,-0.159084,-0.209081828571,2.949
-0.485040603199,-0.529606891067,-0.13538444784,-2.64808987463,-0.0721742241351,2.10925452452,-0.738211947686,-0.722497961877,-0.0210080126159,0.00587038270095,-0.0191128207627,-0.000361073033165,-0.0112670343462,-0.697083614086,0.57402969301,0.818799448619,0.00617425183543,0.0,0.818797910488,-0.573937271315,-0.0121135163087,0.0,-0.00637502996262,0.0120092137642,-0.999907564617,0.0,0.299231405254,-0.215173810733,0.304889229172,1.0,-0.1548,-0.203451428571,2.966
-0.496236765944,-0.529855801171,-0.135135487582,-2.6482755999,-0.0721890317916,2.10908771616,-0.749209874097,-0.682479949953,-0.0143202879528,0.0191958621285,-0.00996891772971,0.000906062647315,-0.00957293645872,-0.687752953693,0.573999360903,0.818820575269,0.00619242276525,0.0,0.818819117459,-0.573906569428,-0.0121346344183,0.0,-0.00638233910923,0.0120359782743,-0.999907196181,0.0,0.296775685258,-0.218394299101,0.304887765446,1.0,-0.150768,-0.198152228572,2.982
-0.507784275261,-0.529995812329,-0.134874636799,-2.64840932208,-0.0721978842061,2.10898715009,-0.760587127894,-0.679983705586,-0.00732127634103,0.0105379954017,-0.00507117969859,0.000193492180691,-0.00909144541034,-0.654993479295,0.573943562424,0.818859591447,0.00620512278302,0.0,0.81885821912,-0.5738505746,-0.0121442130963,0.0,-0.00638371500624,0.0120514407464,-0.999907001155,0.0,0.294232548842,-0.221704674735,0.304876152864,1.0,-0.146484,-0.192521828572,2.999
-0.519222583174,-0.530009978939,-0.134647161399,-2.64842305522,-0.0722016604863,2.10889528938,-0.771632093334,-0.652110647889,0.00205417246665,0.0205864251599,0.000684485141403,-3.11478844895e-05,-0.00226407975917,-0.634798181068,0.57410290544,0.818747759384,0.00622152475725,0.0,0.818746529615,-0.574009673932,-0.0121557137324,0.0,-0.00638137084604,0.0120727148126,-0.999906759485,0.0,0.291700492128,-0.224987693433,0.304873047624,1.0,-0.1422,-0.186891428572,3.016
-0.529388901668,-0.529887102025,-0.134376910101,-2.64833953451,-0.0721967530956,2.10889379114,-0.781784596141,-0.635204362032,0.00646649709629,0.0115521517199,0.00197923434599,-0.000680373821552,0.00100341361923,-0.63154438976,0.573930691997,0.818868653129,0.00619972644405,0.0,0.8188673595,-0.573838012745,-0.0121214511013,0.0,-0.00636836024578,0.0120338581305,-0.999907310827,0.0,0.289467782086,-0.227894147898,0.304872956893,1.0,-0.138168,-0.181592228572,3.032
-0.54017656475,-0.529697301646,-0.134172249068,-2.64817270322,-0.0721918851592,2.10888804086,-0.79228226969,-0.632363457437,0.0111318148815,0.0133668945948,0.0085569327428,-0.00139631873839,-0.000905264621118,-0.615025734173,0.574035376618,0.818795218767,0.00620669130828,0.0,0.8187943022,-0.573943186264,-0.012077107552,0.0,-0.00632651153942,0.0120149217853,-0.999907804203,0.0,0.287068757061,-0.230990231729,0.30488425893,1.0,-0.133884,-0.175961828572,3.049
-0.550979936824,-0.529277773791,-0.133803514184,-2.6478612779,-0.0721315442581,2.10891796287,-0.803025369571,-0.582190577735,0.0209583189586,0.0204402383066,0.0183150576143,0.00142421678779,-0.000626932017435,-0.603181014212,0.573868304512,0.818912686619,0.00615854466811,0.0,0.818911178312,-0.573776428341,-0.0120763908781,0.0,-0.00635600430795,0.0119737895612,-0.999908110565,0.0,0.2847060361,-0.234056272666,0.304884669534,1.0,-0.129348,-0.170000228572,3.067
-0.559805216937,-0.528842495886,-0.133572550726,-2.6475725286,-0.0721066392697,2.1089560616,-0.811702551725,-0.584879905828,0.030728004014,0.0206507834312,0.0174820845851,0.00561985117287,0.00494629839724,-0.583085210558,0.573844117278,0.818929873811,0.0061268055019,0.0,0.818927688758,-0.573751892438,-0.012122434232,0.0,-0.00641228074084,0.0119740287774,-0.99990774839,0.0,0.282614992338,-0.236736657155,0.304867305585,1.0,-0.125316,-0.164701028572,3.083
-0.570200200394,-0.528228112583,-0.133335319613,-2.64707944503,-0.0720128459868,2.10906387407,-0.821811227751,-0.55915926441,0.0393449477472,0.0207499710624,0.0328756379602,0.00462744612932,0.0102135271824,-0.558669957347,0.573988974992,0.818828228357,0.00614295805161,0.0,0.818826584308,-0.573897267799,-0.0120705321186,0.0,-0.00635838800668,0.0119585999574,-0.999908277188,0.0,0.280449767293,-0.239555022127,0.304881094918,1.0,-0.121032,-0.159070628572,3.1
-0.57937916155,-0.527461394336,-0.133011157513,-2.64653281271,-0.0718551881963,2.10919681887,-0.831032664943,-0.537882108159,0.0476142106301,0.0200076625273,0.0343932190681,0.0124314358683,0.00962645419448,-0.541732714333,0.573823755342,0.818943974104,0.00614914500107,0.0,0.818942245597,-0.573731746023,-0.0120925134968,0.0,-0.00637525410538,0.0119749966777,-0.99990797356,0.0,0.278454789945,-0.242166119909,0.304868982705,1.0,-0.116748,-0.153440228572,3.117
-0.587966646486,-0.526715951046,-0.132766788591,-2.64597860021,-0.0716984950529,2.10931803082,-0.839414376297,-0.531750271386,0.0477700717331,0.0156657062358,0.0369646151251,0.0147425899825,0.00944064621649,-0.513030716659,0.57391783487,0.818877766877,0.00618616471525,0.0,0.818876416844,-0.573825446183,-0.0121044682355,0.0,-0.0063624236864,0.0120129058837,-0.99990760056,0.0,0.276564409282,-0.244615959794,0.304864880766,1.0,-0.112716,-0.148141028572,3.133
-0.597206324601,-0.525751123051,-0.132482642719,-2.6452401856,-0.0715228150835,2.10947027142,-0.848486554526,-0.493303164588,0.0575316623495,0.0141634342117,0.0395784438323,0.0107190021753,0.00681291578474,-0.498740014439,0.573970643666,0.818840609589,0.00620509456453,0.0,0.81883941579,-0.57387798824,-0.0121166275445,0.0,-0.00636074196318,0.0120357962453,-0.999907335992,0.0,0.274545362828,-0.247265242649,0.304867659744,1.0,-0.10818,-0.142179428572,3.151
-0.604907599115,-0.524824442483,-0.132138091511,-2.64457944691,-0.071339097667,2.10963490694,-0.856288031496,-0.480085918579,0.060493886595,0.0146645157624,0.0346364615242,0.00791396320899,0.00996900988119,-0.469682681598,0.573759826718,0.818988387629,0.00619911888865,0.0,0.818986711093,-0.573666480325,-0.0121771633241,0.0,-0.00641685218702,0.0120639953783,-0.999906637653,0.0,0.272779291624,-0.24958174562,0.304846449877,1.0,-0.103896,-0.136549028572,3.168
-0.6134843524,-0.523806752977,-0.131824898041,-2.64380686251,-0.0711364992557,2.109809928,-0.864637134239,-0.472760798769,0.0553988010807,0.0159362938991,0.0464075057361,0.0166897912704,0.00938531443978,-0.461303428001,0.573855085008,0.818921566866,0.00620931830036,0.0,0.818920032571,-0.573761688615,-0.0121758709006,0.0,-0.00640853770695,0.0120723530057,-0.999906590106,0.0,0.271004039327,-0.251887865528,0.304852399787,1.0,-0.0996120000001,-0.130918628572,3.185
-0.620790813811,-0.522837721222,-0.131589875328,-2.64303939832,-0.0709434079555,2.10998815039,-0.871778030755,-0.451754648593,0.0615133524015,0.0143572795463,0.0516644062431,0.0131990383319,0.0121473686208,-0.438121830423,0.573949150128,0.818855396046,0.00624182135741,0.0,0.818854429457,-0.573855856754,-0.0121501410929,0.0,-0.00636742544656,0.0120849388931,-0.99990670072,0.0,0.269409425327,-0.253990918789,0.304866912151,1.0,-0.0955800000001,-0.125619428572,3.201
-0.628405935103,-0.521721455464,-0.131215563809,-2.64218133008,-0.0706926289206,2.11020439085,-0.879457714185,-0.418802154675,0.0600502894106,0.0182532173039,0.0497866407228,0.00942219278393,0.00937903346042,-0.415910928218,0.573787533278,0.818968602922,0.00624827843006,0.0,0.818967764399,-0.573694328982,-0.0121393850908,0.0,-0.00635729574459,0.0120827990753,-0.999906791035,0.0,0.267687313946,-0.256273513813,0.304875138623,1.0,-0.0907920000001,-0.119326628572,3.22
-0.634692211406,-0.520814448217,-0.130961452281,-2.64148273795,-0.0705110659903,2.11036423672,-0.885602855552,-0.416480032071,0.0639726554964,0.0128208738589,0.0460614617711,0.0133645194958,0.00640824740301,-0.408158812429,0.573837109711,0.818933781201,0.00625942707646,0.0,0.818933052788,-0.573743776843,-0.0121441543873,0.0,-0.00635407327573,0.0120950510451,-0.999906663391,0.0,0.266400057941,-0.257944790956,0.304879216332,1.0,-0.0872640000001,-0.114689828572,3.234
-0.640688718278,-0.519897756978,-0.130701883401,-2.64075004169,-0.0703180430376,2.11056017366,-0.891486617474,-0.384199001713,0.0635195061535,0.0156568700958,0.0504698804674,0.0154683166733,0.0106642195031,-0.392515341086,0.573867816614,0.818912204403,0.00626717121542,0.0,0.818911904502,-0.573775067375,-0.0120917998763,0.0,-0.00630629732131,0.0120715883253,-0.999907249383,0.0,0.26510083625,-0.259660974021,0.30489835183,1.0,-0.0834840000001,-0.109721828572,3.249
-0.647883086209,-0.518674033279,-0.130428636774,-2.63983125747,-0.0700510617178,2.11079436036,-0.898524396475,-0.369298994046,0.0587900735132,0.0169383155591,0.0462344422553,0.010366012473,0.0114175233686,-0.359812100264,0.573966528678,0.818842586844,0.00632367217606,0.0,0.818842860772,-0.573873190889,-0.0121110297714,0.0,-0.00628816208416,0.0121296530652,-0.999906660911,0.0,0.263528771817,-0.26172421716,0.304892386378,1.0,-0.0786960000001,-0.103429028572,3.268
-0.653846010422,-0.517621941583,-0.130066274245,-2.63906692397,-0.0698086113358,2.11100366467,-0.904554824194,-0.349048977096,0.0605423259316,0.019813406456,0.0410094635767,0.017818845625,0.00564919408414,-0.341962115756,0.573799465768,0.818959663547,0.00632372277647,0.0,0.818959697066,-0.573705700246,-0.0121462334938,0.0,-0.00631944116064,0.0121486102776,-0.99990623357,0.0,0.262247932253,-0.263397852652,0.304879066782,1.0,-0.0744120000001,-0.0977986285715,3.285
-0.659622520733,-0.51663089214,-0.129750969036,-2.6382995693,-0.0695860009074,2.11121089604,-0.910201450628,-0.332735488026,0.0563296751117,0.0194599405791,0.0427302924707,0.0184229228765,0.00653732421813,-0.329863324542,0.573818529095,0.818946307906,0.0063235540991,0.0,0.818946486218,-0.573725043008,-0.0121233097048,0.0,-0.00630047967864,0.0121354657978,-0.999906512843,0.0,0.260995624801,-0.265030342214,0.304887910312,1.0,-0.0701280000001,-0.0921682285715,3.302
-0.665027004041,-0.515571116251,-0.129452096061,-2.63748949574,-0.0693565347101,2.11142789656,-0.91550508959,-0.301586971989,0.0659351821906,0.0197475948629,0.0503418227272,0.0131637632826,0.0133979555009,-0.301256331484,0.573830508076,0.818937873477,0.00632884569665,0.0,0.818938146858,-0.573737045484,-0.0121186286626,0.0,-0.00629343192318,0.0121372056881,-0.999906536109,0.0,0.259839159856,-0.26657455875,0.304890904951,1.0,-0.0658440000001,-0.0865378285715,3.319
-0.669565695419,-0.514670263664,-0.129252598375,-2.63683514645,-0.0691508434399,2.11161207974,-0.919928069453,-0.298331499184,0.0639416913286,0.014774979924,0.0449602828117,0.0184846918206,0.0129101166412,-0.298652852117,0.573906730502,0.818884105954,0.00637437076797,0.0,0.818884766015,-0.573812641526,-0.0121465762675,0.0,-0.0062890648028,0.012191111704,-0.999905907803,0.0,0.258845025582,-0.267870614374,0.304876264612,1.0,-0.0620640000001,-0.0815698285715,3.334
-0.674683779973,-0.513677033124,-0.12895739434,-2.63609014249,-0.0689111761766,2.11182704654,-0.924919393066,-0.274043444272,0.0512416768263,0.0155783263043,0.0388561359238,0.00862933305198,0.0146526608918,-0.263077658161,0.573943010834,0.818858518578,0.00639482363263,0.0,0.818859458822,-0.573848844899,-0.0121423558943,0.0,-0.0062733301858,0.0122057171176,-0.999905828465,0.0,0.257736234455,-0.269315333501,0.304873364778,1.0,-0.0575280000001,-0.0756082285715,3.352
-0.679075852129,-0.512778271215,-0.128582000771,-2.63541364429,-0.068695315671,2.11202340492,-0.92926648766,-0.250091758481,0.0500671042734,0.0157803249821,0.0375808305151,0.0114525408361,0.00684592270286,-0.261271514536,0.57384116664,0.818930185433,0.00635718148982,0.0,0.818930674539,-0.573747274786,-0.0121392699518,0.0,-0.00629392021504,0.0121723381122,-0.999906105969,0.0,0.256816205213,-0.27053527241,0.304874298318,1.0,-0.0532440000001,-0.0699778285715,3.369
-0.682995505228,-0.511963186215,-0.128266110724,-2.6347792211,-0.0684944846438,2.11219573142,-0.933117483101,-0.246782471138,0.0471828140909,0.0229874448168,0.0410889534608,0.00124660373121,0.0122464546275,-0.229988474796,0.573792014234,0.818964791547,0.00633573269087,0.0,0.81896512804,-0.573698477206,-0.0121211883429,0.0,-0.00629214743116,0.0121440190186,-0.999906461467,0.0,0.255992903684,-0.271632132208,0.304883313627,1.0,-0.0492120000001,-0.0646786285715,3.385
-0.686860870863,-0.511133788673,-0.128005181916,-2.63416912618,-0.0682781563272,2.11236658369,-0.936808339574,-0.218556364784,0.0423446521457,0.0138759967845,0.0355968841851,0.0167965047564,0.015541382621,-0.216962293559,0.573874039914,0.818907140508,0.00635833620368,0.0,0.818907642671,-0.573780131587,-0.0121400277081,0.0,-0.00629338955976,0.012173971244,-0.999906089426,0.0,0.255162907202,-0.27271587466,0.304874316765,1.0,-0.0449280000001,-0.0590482285715,3.402
-0.690378579856,-0.510390721404,-0.127735727095,-2.63361948658,-0.0680769037565,2.11253076224,-0.940218803348,-0.198395049968,0.0450444402564,0.0157057961398,0.0310098701766,0.0162768282083,0.00413379322537,-0.198441541371,0.573885057958,0.818899352879,0.00636686794565,0.0,0.818899943557,-0.573791063718,-0.0121426743317,0.0,-0.00629049733292,0.012182561716,-0.999906002999,0.0,0.254411859098,-0.273692801191,0.304869250996,1.0,-0.0406440000001,-0.0534178285715,3.419
-0.693602026374,-0.509733415928,-0.127467592977,-2.63310839618,-0.0678649102578,2.11268729699,-0.943304593983,-0.185689149876,0.0364440128166,0.0170293551893,0.027444458554,0.0161179554367,0.0113244223011,-0.169969180972,0.57392415673,0.81887182512,0.0063830437486,0.0,0.818872848411,-0.57383050999,-0.0121058184733,0.0,-0.00625044875873,0.0121749572804,-0.999906346767,0.0,0.253731032705,-0.274582391537,0.304877605927,1.0,-0.0363600000001,-0.0477874285715,3.436
-0.696661114988,-0.509090945881,-0.127185459775,-2.63260286665,-0.0676483502966,2.11283795244,-0.946212158798,-0.169855639516,0.0371771479003,0.0170643307972,0.0274875119688,0.00684254827378,0.0105224370731,-0.161636048966,0.573966118429,0.818842320875,0.00639494650607,0.0,0.818843738602,-0.573872875689,-0.0120665322856,0.0,-0.00621082053784,0.0121624767694,-0.999906745585,0.0,0.253094401382,-0.275423254741,0.304888619803,1.0,-0.0318240000001,-0.0418258285715,3.454
-0.699058264959,-0.508559684507,-0.126883777441,-2.63219387073,-0.0674567084381,2.11295096696,-0.948530750064,-0.146430200426,0.0358542461665,0.0201018997735,0.0207011581895,0.0110527636354,0.00782507499229,-0.140761934179,0.57391863519,0.818875680874,0.00638485360272,0.0,0.818877035564,-0.57382558238,-0.0120560579404,0.0,-0.00620873985506,0.0121478401932,-0.999906936434,0.0,0.252615899296,-0.276064311877,0.304894161113,1.0,-0.0277920000001,-0.0365266285715,3.47
-0.701280343273,-0.508064443452,-0.126557882944,-2.63183602793,-0.0672557394233,2.1130563776,-0.950580668104,-0.123007969232,0.0265810871845,0.0238997156415,0.022163240086,0.0101966845565,0.0013282258269,-0.114405244819,0.573931878135,0.818866467982,0.00637603140358,0.0,0.81886763763,-0.573838725085,-0.0120688249896,0.0,-0.00622406219268,0.0121480430535,-0.99990683871,0.0,0.252179388019,-0.276640193622,0.304889669552,1.0,-0.0235080000001,-0.0308962285715,3.487
-0.703194922363,-0.507632791006,-0.126246650096,-2.63151247346,-0.0670597857583,2.11314271042,-0.952412572536,-0.110189914985,0.0224025217831,0.0192131257074,0.0166111726661,0.012454661558,0.00888415522954,-0.0990458659235,0.573878189268,0.818904126507,0.00637199913729,0.0,0.818905220553,-0.57378502124,-0.0120721188445,0.0,-0.00622987022143,0.0121462229144,-0.999906824652,0.0,0.251814068025,-0.277130607575,0.304891145472,1.0,-0.01992,-0.0261805714286,3.504
-0.704893188342,-0.507250716416,-0.12601196334,-2.63123568699,-0.0668902353469,2.11321750104,-0.953981562361,-0.0975394621316,0.016799804396,0.0114438873217,0.0159384143314,0.0132309440564,0.002743477471,-0.0919065630484,0.573903541732,0.818886244902,0.00638667354321,0.0,0.81888743937,-0.573810124554,-0.0120850942585,0.0,-0.0062316994948,0.0121658793719,-0.999906574286,0.0,0.251476750419,-0.277571282348,0.304886922169,1.0,-0.01958,-0.0257337142857,3.521
-0.706269598207,-0.506935254947,-0.125868816716,-2.63098650717,-0.0667738138922,2.11324423808,-0.955347906233,-0.0887954889896,0.0203676819689,0.00925287427574,0.0180583494685,0.00296207009727,0.00178391978581,-0.0855655492482,0.573872293525,0.818907991067,0.0064062307108,0.0,0.81890926069,-0.573778442777,-0.0121106672688,0.0,-0.00624188529792,0.0121963328741,-0.999906139761,0.0,0.251189971973,-0.277941542572,0.304888576167,1.0,-0.01928,-0.0253394285714,3.536
-0.707847761212,-0.506565308985,-0.125736866442,-2.6306936525,-0.0667252997123,2.11335937155,-0.956840440276,-0.0888796116492,0.0188190895291,0.00775962201301,0.0179216798436,0.00541642722325,0.00333184314062,-0.0806600175675,0.573883971405,0.818900189219,0.00635722909958,0.0,0.818901123829,-0.57379093287,-0.0120690367824,0.0,-0.00623573614654,0.0121324024001,-0.999906955875,0.0,0.250858914349,-0.278394963905,0.304897008374,1.0,-0.01892,-0.0248662857143,3.554
-0.709263389535,-0.506217651442,-0.125675353108,-2.63042541173,-0.0666632260946,2.11339249602,-0.958327318734,-0.0809629362177,0.0235701693758,0.00480229225654,0.0153683917044,0.0034913988728,0.00194266761821,-0.0909476759134,0.573822105968,0.818943438079,0.00637046543627,0.0,0.818944302117,-0.573728548458,-0.0121049417456,0.0,-0.00625846521801,0.0121633737186,-0.999906437599,0.0,0.250540074083,-0.278802174909,0.304893868834,1.0,-0.01858,-0.0244194285714,3.571
-0.710539206539,-0.505901227807,-0.125655215415,-2.63017293165,-0.066610980823,2.11345587357,-0.959620165651,-0.077982081983,0.0198300749059,0.000578794139495,0.00731423639448,0.00346117578091,0.0066456547494,-0.0736671440671,0.573829071307,0.818938419813,0.00638814355807,0.0,0.818939555518,-0.573735511866,-0.0120960213522,0.0,-0.00624091195496,0.012172786509,-0.999906432766,0.0,0.250250765671,-0.279184451526,0.304896752863,1.0,-0.01826,-0.0239988571429,3.587
-0.711895385695,-0.505574222003,-0.125632556543,-2.62990226953,-0.0665590028181,2.11354130911,-0.960983388515,-0.0786540364248,0.0116106103975,-0.000937694722997,0.0228843152812,0.001589346085,0.00167822465789,-0.0829638329575,0.573843140964,0.818928479115,0.0063986376384,0.0,0.818929981628,-0.573749980678,-0.0120578507307,0.0,-0.00620341857389,0.0121595852499,-0.999906826702,0.0,0.249945959077,-0.279594072373,0.304905863361,1.0,-0.01792,-0.023552,3.604
