nelsonifechukwu/NELSON_IML_WORK/CNN-GradCAM/train2dof/data_sample_2022-07-05-18-49-14/robot_state.csv
position_joint1,position_joint2,position_joint3,position_joint4,position_joint5,position_joint6,position_joint7,velocity_joint1,velocity_joint2,velocity_joint3,velocity_joint4,velocity_joint5,velocity_joint6,velocity_joint7,ee_T_00,ee_T_10,ee_T_20,ee_T_30,ee_T_01,ee_T_11,ee_T_21,ee_T_31,ee_T_02,ee_T_12,ee_T_22,ee_T_32,ee_T_03,ee_T_13,ee_T_23,ee_T_33,v_x,v_y,w_z,time
0.46510563829775736,0.5472932168057091,-0.12399772912098098,-1.3555678922419017,0.07946698880797824,1.8941661408075936,0.15914567855824965,0.00148280222916368,-0.0006027325707174498,-0.0006374221465593325,-0.0017441338972558492,0.00044944119190090795,0.0001686694080917318,-9.6204998764923e-05,0.5737511066588866,0.8190137515193293,0.002624753539922384,0.0,0.8189800667334791,-0.5736907904876426,-0.011457491178178989,0.0,-0.007878197579403001,0.008723537027419417,-0.9999309145659169,0.0,0.661759457791728,0.2609433822615042,0.3036922334633983,1.0,5e-324,6.9431702280383e-310,6.9429580284593e-310,0.0
0.46510245450888643,0.5472985065192507,-0.12399494538199023,-1.355570676301655,0.07946555074881045,1.8941664683408321,0.1591469556102819,0.00033124279169659656,-0.0012376785344645957,0.00044308334616078004,-0.001001884413392356,-0.00012458959334192435,8.249324509849967e-05,0.0008509491863337688,0.5737493548883666,0.8190149789325316,0.0026246810351380013,0.0,0.8189812809383769,-0.5736890255786831,-0.011459070831656353,0.0,-0.007879551656058636,0.008724367104596675,-0.9999308966545257,0.0,0.6617582020043187,0.260946164082819,0.3036920140746961,1.0,-8e-05,-0.00010514285714285717,-4e-05,0.005
0.4651000835674413,0.5472904008687051,-0.12398993407828554,-1.3555660720585405,0.07946565861697014,1.894166593718294,0.15915010471145322,-0.00098950195322519,-0.0005697109885971198,0.0017284206612535925,0.0006003659295571789,-8.789941210296709e-05,-0.00029753483162666647,0.001419907288192482,0.5737533778968471,0.8190121428295601,0.0026302378025914583,0.0,0.8189785066172102,-0.5736930190448829,-0.011457421150503036,0.0,-0.007874969599567239,0.008728010355948015,-0.9999309009571773,0.0,0.6617597727250273,0.2609442860746267,0.3036948742700424,1.0,-0.0003800000000000002,-0.0004994285714285718,-0.0001900000000000001,0.02000000000000001
0.4651024195765134,0.5472678275100997,-0.1239924426538791,-1.3555890574173026,0.07946622507805753,1.8941692677043278,0.1591501046573756,0.0009768597467715693,-0.003924750054044943,0.0009538070598251914,-0.004583589347467826,-8.379547424483782e-05,5.2225810530372144e-05,0.00012221364363985664,0.5737545994514082,0.8190112780653198,0.0026330422279263596,0.0,0.8189776666765549,-0.5736942187469325,-0.011457388994927039,0.0,-0.007873321285981505,0.008730300498969279,-0.9999308939447393,0.0,0.6617555668387379,0.26094222055411787,0.30370023973147203,1.0,-0.0008200000000000006,-0.0010777142857142867,-0.0004100000000000003,0.04200000000000003
0.4650988807385428,0.5472040092299321,-0.12399573459565008,-1.3556416838719274,0.07946255261985023,1.8941740361256507,0.15914587513204684,-0.0004397201133471642,-0.006281822071190011,-8.096894017207821e-05,-0.003275118495106734,0.00027541695755924425,0.00010341579835739846,-0.00045564079708379545,0.5737581458041077,0.8190087488170614,0.0026469578297671483,0.0,0.8189753201930896,-0.573697723181144,-0.011449638972746558,0.0,-0.007858952118363793,0.008737284983111673,-0.9999309459771335,0.0,0.6617480192187948,0.2609322906989707,0.3037209132491846,1.0,-0.0010800000000000009,-0.0014194285714285728,-0.0005400000000000004,0.05500000000000004
0.4650984922601794,0.5470993664591401,-0.12399097177922318,-1.3557778954837998,0.07946219725520533,1.8942001158432422,0.15914452537052767,-3.329264903499884e-06,-0.0077957360286943075,0.0007408581093496808,-0.013716864984529313,-3.36505427852243e-05,0.0001787365557362374,0.00014541134100832685,0.5737613696665008,0.8190064835720443,0.0026490463536922824,0.0,0.818972965155618,-0.5737008101064351,-0.011463408247258696,0.0,-0.007868997141794898,0.008746926569552796,-0.9999307826842662,0.0,0.6617237844959432,0.2609217043678109,0.3037323035619234,1.0,-0.001360000000000001,-0.001787428571428573,-0.0006800000000000005,0.06900000000000005
0.46508220329078265,0.5469746031062426,-0.12399716496849329,-1.355961268219831,0.07945527469749235,1.8942415898033909,0.15914837325052622,-0.003971501514379189,-0.0053299812162217065,-0.0004044807649170154,-0.013237031339797993,-0.0024746418307599405,0.0030702086283653086,0.01055319541642117,0.5737904418030587,0.8189861578635877,0.0026361002441964553,0.0,0.8189524358703372,-0.5737298803319029,-0.011475151310113734,0.0,-0.00788573242951307,0.008743341192581966,-0.9999306822019415,0.0,0.6616993723719454,0.26088890239266993,0.30373717954900425,1.0,-0.0016800000000000012,-0.002208000000000002,-0.0008400000000000006,0.08500000000000006
0.46507054914058044,0.5468055573549718,-0.12399313037733893,-1.3561597925174633,0.0794476432601088,1.8943502949354254,0.15914103667407836,0.0008840298375027383,-0.006858404520081357,0.0015386536880187384,-0.012158745579934235,-0.0005679917620776294,0.009773411675341815,-0.00022525383486391725,0.5738003786636311,0.818978966651615,0.0027063866935203382,0.0,0.8189461440732076,-0.573739580632405,-0.011439126915339737,0.0,-0.007815793652199587,0.008780329351181212,-0.9999309072061283,0.0,0.6616825345058952,0.26086833127933906,0.30377171890624577,1.0,-0.0020000000000000013,-0.0026285714285714306,-0.0010000000000000007,0.10100000000000008
0.4650445646169128,0.5466111180835284,-0.1239981416850759,-1.3563798241781622,0.07944557940501736,1.8944653785340244,0.15913879631317643,0.0007616749997034053,-0.01612257666432109,-0.0009274009461783625,-0.01875179064011166,-0.001747864878159476,0.008063175971446903,0.00027184449514448074,0.5738351794384026,0.8189543118369325,0.0027872681609655966,0.0,0.8189225111961517,-0.5737740990303517,-0.011399598208068195,0.0,-0.007736636782124273,0.008824217018529548,-0.9999311364515616,0.0,0.6616681983793141,0.26083215633708373,0.303814864482765,1.0,-0.0023200000000000017,-0.00304914285714286,-0.0011600000000000009,0.11700000000000009
0.46501266652930856,0.5464008833363907,-0.1239981416850759,-1.3566623934239816,0.07943813146889368,1.8945958090811164,0.15913046971941427,-0.00042997345785361526,-0.014159515951249303,-0.0013880435361188711,-0.01525575778280846,-0.0002844101432696582,0.009056525144944937,0.001570108666120321,0.573868414722976,0.8189308373082823,0.0028413359714593587,0.0,0.8188996915033278,-0.5738071159770005,-0.011376986029699554,0.0,-0.007686733889488595,0.008855832589894225,-0.9999312418117818,0.0,0.6616436871544518,0.26078792162677394,0.30384057203009807,1.0,-0.0026600000000000018,-0.003496000000000003,-0.0013300000000000009,0.1340000000000001
0.4649747940276448,0.5461571221091609,-0.12399034761989011,-1.357029132133379,0.07942115220842662,1.8947243763093222,0.1591101955535765,-0.0024648840664791365,-0.014741037953102366,0.0010570463739542485,-0.020475961897494146,-0.0022284743982413815,0.007071184183463095,-0.0029634761391472836,0.5738933335952375,0.8189133414982189,0.0028509072898233612,0.0,0.8188822344099497,-0.5738319050277704,-0.011383226307867558,0.0,-0.007686082312531484,0.008867485751056503,-0.9999311435469642,0.0,0.6616006728856775,0.2607330205364221,0.3038494978159011,1.0,-0.0030000000000000022,-0.003942857142857146,-0.0015000000000000011,0.1510000000000001
0.46493340127593763,0.5458388388312357,-0.12399058462120165,-1.3575208055238617,0.07939221807008355,1.8948906756522472,0.15909220919903572,-0.004099589149911069,-0.01584631526088301,0.0032057205128776145,-0.02484820729095757,0.0005309404791141868,0.0013503517409310683,-0.0016428705268520178,0.573932391647333,0.8188859881886831,0.0028451831970382835,0.0,0.8188547843200978,-0.5738709491674833,-0.01138959169181726,0.0,-0.007694157202148333,0.008866818186459763,-0.9999310873656228,0.0,0.6615418890569387,0.2606579161487845,0.3038552239768748,1.0,-0.0033800000000000024,-0.004442285714285718,-0.0016900000000000012,0.17000000000000012
0.4648858731474796,0.5455414762140298,-0.12399633412535765,-1.3580199252025082,0.07934801028059572,1.895064813446086,0.15906432267395468,-0.007164490714075492,-0.013898370676071244,-0.0011965508059671563,-0.028363072594825043,-0.002204378047614053,0.012590657275257823,-0.004408914888159317,0.5739619997693224,0.8188653394090764,0.002815250693467404,0.0,0.8188338687252059,-0.5739007821476636,-0.011390108867806711,0.0,-0.007711439258122066,0.008842882533010882,-0.9999311661974917,0.0,0.6614887719350028,0.2605769945934295,0.30384536841423376,1.0,-0.0037000000000000028,-0.004862857142857147,-0.0018500000000000014,0.18600000000000014
0.4648346008120969,0.5451896717558934,-0.12400370880464102,-1.358589173709705,0.07931703606243154,1.8952567929664674,0.15895733168502965,-0.005284364845633875,-0.022713913401408888,-0.0008903941993530806,-0.039751068363664974,-0.00037411751089173683,0.012243821719609653,-0.011306667806024372,0.5739517027119583,0.818872641632977,0.002790455210536411,0.0,0.8188408335946316,-0.5738905426570535,-0.011405314026785351,0.0,-0.007738232755692187,0.008831208104464222,-0.9999310623824198,0.0,0.6614197444146465,0.26047934440364934,0.3038383501059752,1.0,-0.004060000000000003,-0.005336000000000005,-0.0020300000000000014,0.20400000000000015
0.46477480708980756,0.5448375725518761,-0.12399650270295863,-1.3591767331517985,0.07929526171315834,1.8954513619580087,0.1589432991181457,-0.001998784387550472,-0.019198097985798218,0.000940950148697257,-0.037746900881794894,-9.237961485997659e-05,0.015492889538424984,0.0019739411465878004,0.5740110781131148,0.8188311109327555,0.0027642129544668886,0.0,0.8187987902074102,-0.5739497946441858,-0.011442083900535718,0.0,-0.007782764656429186,0.008831387170170013,-0.999930715187284,0.0,0.6613480158066185,0.26038852970969356,0.3038245208101798,1.0,-0.004380000000000004,-0.005756571428571435,-0.002190000000000002,0.22000000000000017
0.46471036351219863,0.544412157228683,-0.12400488180050681,-1.359923818226473,0.07925746819785308,1.8956888451313152,0.1589215577680635,-0.0041972945682732035,-0.024028169550315583,0.0006253108236682494,-0.0470120866847021,-0.0007939371003163181,0.015822551652708336,-0.0011167216098550586,0.574083439169814,0.8187806162689928,0.0026933611594346825,0.0,0.8187473057212673,-0.5740222893473181,-0.011489456376936045,0.0,-0.007861446191325727,0.008801258275179497,-0.9999303653337839,0.0,0.6612557385303206,0.2602679647833104,0.30379082589935735,1.0,-0.004740000000000004,-0.0062297142857142915,-0.002370000000000002,0.23800000000000018
0.46464855285546397,0.543987778548049,-0.12400591248440936,-1.3606294504507253,0.07921988807937382,1.8959180533330862,0.15887265431220263,-0.007329910571828432,-0.026826706255753053,0.00047200433482570345,-0.043831833039303415,-0.005098800640203502,0.015218624306239312,-0.0020151749821035268,0.5741239509603647,0.8187523475681234,0.0026512613141862016,0.0,0.8187184112148606,-0.5740628431570255,-0.011522245679365417,0.0,-0.00791202742230862,0.008786002822019578,-0.9999301005452733,0.0,0.6611688285346291,0.26015778139637386,0.30377513294074654,1.0,-0.005060000000000004,-0.0066502857142857206,-0.002530000000000002,0.25400000000000017
0.46458635206104465,0.543512745237174,-0.12401198013524432,-1.3614003987476706,0.07918238626435556,1.896195977145045,0.15879946881777524,-0.006096580289231126,-0.025472803830887934,-0.0007094165950051281,-0.04890704484837149,0.0002538141832458863,0.023063493929888913,-0.0023040964704600687,0.5741521888539878,0.8187325870348473,0.00263853417813603,0.0,0.8186984241014197,-0.5740910510782512,-0.011536999043470485,0.0,-0.007931110912309136,0.008784326152691882,-0.9999299640943559,0.0,0.6610791058019336,0.26004065958633293,0.3037685518451959,1.0,-0.005400000000000004,-0.0070971428571428635,-0.002700000000000002,0.2710000000000002
0.4645205228986545,0.5430323376715934,-0.12400706473739255,-1.362176991932608,0.07914085301204139,1.8964751352931597,0.15876270587692776,-0.00218202483617383,-0.028302980896658538,0.0011460314324701563,-0.05010616198328909,-0.0026267912317863937,0.019557215940016023,-0.0052093527168364274,0.5742047173523266,0.8186957851435175,0.0026269487590485138,0.0,0.8186613919138506,-0.5741435228616767,-0.011553676768384348,0.0,-0.007950853936865954,0.00878492636779453,-0.9999298020313162,0.0,0.6609870170482026,0.25992633852459873,0.3037627737137847,1.0,-0.005720000000000004,-0.007517714285714292,-0.002860000000000002,0.2870000000000002
0.4644520814895832,0.5424960579878596,-0.12401717881404385,-1.3630531213473926,0.07908386178116478,1.8967736380156561,0.1586882143253067,-0.007108389479297443,-0.02869701423835761,-0.003004788729598814,-0.04974460523150744,-0.004881791978530253,0.013764780518540506,-0.010615384777162411,0.5742403015014007,0.8186709552795941,0.0025865062121557683,0.0,0.8186360808636189,-0.574179285743007,-0.011569867463069428,0.0,-0.007986949932519971,0.0087614601742311,-0.9999297202535741,0.0,0.6608822122283228,0.25978931754729245,0.3037512282243197,1.0,-0.006060000000000005,-0.007964571428571435,-0.0030300000000000023,0.3040000000000002
0.46438277323610616,0.5419620845814218,-0.12401871296276126,-1.3639163261877294,0.07902484155475922,1.8970870268446198,0.15863703020620903,0.0008733391791774966,-0.032582828952687125,-0.001192284533136276,-0.05725667167594309,-0.0011963252981542108,0.020787825063832425,-0.0011903223075797253,0.5742884620666235,0.8186372318792354,0.0025674538873201565,0.0,0.818602164728355,-0.5742275642237444,-0.011573559907168417,0.0,-0.008000398285878951,0.008748453664566835,-0.9999297266236995,0.0,0.6607815330746897,0.2596588881465309,0.3037451501036088,1.0,-0.006380000000000005,-0.008385142857142865,-0.0031900000000000023,0.32000000000000023
0.4643036214572848,0.5413901189647717,-0.12401871588594375,-1.3647988121015557,0.07897761672931104,1.8974048059613435,0.1585794577650585,-0.00685507150331474,-0.033683391645287754,9.838478237991321e-05,-0.05594671863221959,2.8750881415884094e-05,0.022172979817723044,-0.009384463813798413,0.5743424633644552,0.8185993179598149,0.0025764924574727616,0.0,0.818564304168045,-0.5742814583185648,-0.01157728269478012,0.0,-0.007997677852032592,0.008758518446252944,-0.9999296602779626,0.0,0.6606796937904719,0.25952326377662543,0.303757043912681,1.0,-0.0067000000000000046,-0.008805714285714293,-0.0033500000000000023,0.33600000000000024
0.4642162478040037,0.5407773806220929,-0.12401868451038839,-1.3657280230570594,0.07892082589748808,1.897743020767943,0.15848488666885446,-0.005513900263981096,-0.040270865045852186,-1.8276991761592568e-05,-0.058037828681210275,-0.005259519345520649,0.025250683362762493,-0.004483453120066505,0.5743728600760215,0.818577932859405,0.002594676265486061,0.0,0.8185431498098047,-0.5743117842876276,-0.011568631250645875,0.0,-0.007979826735878881,0.008768731126932716,-0.9999297133897407,0.0,0.6605747398711102,0.25937706421943163,0.303777201598634,1.0,-0.007020000000000005,-0.009226285714285723,-0.0035100000000000027,0.35200000000000026
0.4641170619996933,0.5400432823831638,-0.12402508021427233,-1.3668341312399748,0.07886401025622158,1.8981665238461647,0.15842912525468109,-0.005340721396946248,-0.03797049851394653,0.0009546527390315952,-0.06332305573491087,0.0002749900693427638,0.021331863405568637,-0.008671088874815654,0.574459038201387,0.8185173087786475,0.0026411284910086525,0.0,0.8184830933393219,-0.574397758163802,-0.011549382464083893,0.0,-0.007936463969824059,0.008796535519932383,-0.9999298142882342,0.0,0.6604535222520793,0.2592057204067885,0.30380646535902567,1.0,-0.0073800000000000055,-0.009699428571428581,-0.0036900000000000027,0.3700000000000003
0.46402453285572803,0.5393908439906933,-0.1240301046758364,-1.3678792685763117,0.07879967597955725,1.8985565536774596,0.15833271595890352,-0.003110354171504339,-0.03805518258556629,-0.001581255590021828,-0.0689696617799365,-0.00524700031925604,0.021581268009732143,-0.004257297813373235,0.5745000949423488,0.8184885107258913,0.0026354548285648658,0.0,0.8184542522785586,-0.5744388624513118,-0.011548901852426286,0.0,-0.00793888865215675,0.008792013695334,-0.9999298348094978,0.0,0.6603357414803556,0.25904226095995697,0.3038039677180993,1.0,-0.007700000000000006,-0.01012000000000001,-0.003850000000000003,0.3860000000000003
0.4639171883190203,0.5386548399293408,-0.12402869148542485,-1.3690351262499156,0.0787304734932664,1.898990016360114,0.15827618397325263,-0.009736588763447832,-0.04188976912606631,0.00189849191316357,-0.07055673751074334,-0.004018988445726485,0.026050243435706794,-0.004986862738990475,0.57458611707347,0.8184280912959288,0.0026458165741327887,0.0,0.8183939607092728,-0.5745248323508712,-0.011545085014879927,0.0,-0.007928887224541659,0.00879913528601868,-0.9999298515223949,0.0,0.660205651185388,0.25886287692175125,0.3038112580233725,1.0,-0.008040000000000005,-0.010566857142857152,-0.004020000000000003,0.4030000000000003
0.4638199917102919,0.5378841131716643,-0.12404456256214433,-1.3702394843570738,0.0786709806659307,1.8994591684126558,0.1581595419438481,-0.004563747481128694,-0.044755487076557215,4.4368471025470614e-05,-0.07011440968519257,-0.0010097519298076932,0.030308686204641423,-0.005726006141906474,0.5746320671378801,0.8183957263314983,0.002677581071549141,0.0,0.8183619923862525,-0.5745706553566694,-0.01153075547477109,0.0,-0.007898413559812023,0.008817342195778191,-0.99992993231518,0.0,0.660072922336187,0.25867886118986594,0.30382355142606204,1.0,-0.008380000000000007,-0.011013714285714297,-0.004190000000000004,0.4200000000000003
0.46371045855311743,0.5370368784446009,-0.12405201965440425,-1.3715637996064405,0.0785841851214713,1.8999596907125775,0.1580809611080539,-0.004982130467128433,-0.04523758429837986,-0.00013107321870057246,-0.07369030095469048,-0.009602074077754175,0.028393225116600522,-0.007504871813169687,0.5747124516125174,0.8183392384010288,0.002689936051764711,0.0,0.8183057639491679,-0.5746511006608668,-0.011512432324741305,0.0,-0.007875452014773965,0.008817698149202594,-0.9999301102851703,0.0,0.6599231948168525,0.258476079911593,0.30383502932678796,1.0,-0.008740000000000006,-0.011486857142857153,-0.004370000000000003,0.43800000000000033
0.46360423070742324,0.536260883450609,-0.12405777139902079,-1.3728101974184468,0.07852234077529965,1.9004173799999526,0.15796198021255453,-0.007345522193765103,-0.052588383304057525,-0.001769952826171282,-0.07640248921580485,-0.007793273037895042,0.02735645969535132,-0.013598754318846643,0.5747581325757445,0.818307175635228,0.002683699526251444,0.0,0.8182735195943653,-0.5746966834680993,-0.011528922006211934,0.0,-0.007892038334054219,0.008822511800472527,-0.999929937053824,0.0,0.6597781863215313,0.25828592411365936,0.3038294207876653,1.0,-0.009060000000000007,-0.011907428571428583,-0.004530000000000004,0.45400000000000035
0.4634849276607714,0.5353384999901754,-0.12405955346077407,-1.3742572125587218,0.07842393850480447,1.9009458412500895,0.15788818789148826,-0.008784766979956702,-0.0562402642493194,0.0006269241249786938,-0.08507464784042579,-0.005569170686887517,0.03203071906947836,-0.006766854228129153,0.5748497067183674,0.8182428646341735,0.002678817328024002,0.0,0.8182092301979934,-0.5747883569593677,-0.011521598151548535,0.0,-0.007887864331948935,0.008815190101874024,-0.999930034562293,0.0,0.659608795177093,0.25806646836530045,0.30383743648127076,1.0,-0.009420000000000008,-0.012380571428571442,-0.004710000000000004,0.47200000000000036
0.4633805730789822,0.5345008114921382,-0.12406776738273273,-1.3755840398422607,0.07835735711444157,1.9014215483629346,0.15778279403636422,-0.003132013265168457,-0.052278146417029964,-0.0004926225828415704,-0.07696998476070216,-0.0038386476614064523,0.030964100518609323,-0.00029104264972014296,0.5749095124857435,0.8182008677267485,0.002671966655646005,0.0,0.8181670395049796,-0.5748480604136967,-0.011539055744567945,0.0,-0.00790544277773536,0.008820197777100455,-0.9999298515824302,0.0,0.6594500670546585,0.25786786913617915,0.30383840722141664,1.0,-0.009740000000000007,-0.012801142857142869,-0.004870000000000004,0.4880000000000004
0.4632438151576823,0.5335192885483997,-0.1240666303008719,-1.3771449937154283,0.07828396386019568,1.9019939527870027,0.15767700263258372,-0.007414104494503023,-0.05203384908253345,0.0008443390448144876,-0.08768607995468806,-0.0010687509452129136,0.033936003333091776,-0.004495222191354843,0.5749998846495636,0.8181373473965559,0.0026758828681276332,0.0,0.8181033731776088,-0.5749381887883733,-0.011562731916419825,0.0,-0.00792158808426402,0.00883788847555847,-0.9999295676043972,0.0,0.6592662478365133,0.2576328984551307,0.3038373094601734,1.0,-0.010100000000000007,-0.013274285714285725,-0.005050000000000003,0.5060000000000003
0.46313155718654236,0.5326467884776214,-0.1240712580917111,-1.3785487468611435,0.07818629821348305,1.9025215112662155,0.15755740052241204,-0.010118159720732161,-0.053748092006233796,0.0021440656661473783,-0.08523650722615493,-0.008450960536953362,0.03592456233348352,-0.009474036448077044,0.5750477353260743,0.8181037594522435,0.0026622861730603202,0.0,0.8180697336274196,-0.5749862174796089,-0.0115545459652441,0.0,-0.007922192163182129,0.008822521091340227,-0.9999296985253125,0.0,0.6591031457467764,0.25742103094872815,0.30383020765057545,1.0,-0.010420000000000007,-0.013694857142857154,-0.005210000000000004,0.5220000000000004
0.462998566381898,0.5316231943918024,-0.124074570471363,-1.3801788628966924,0.07809654829243029,1.9031402576453011,0.15747335496886303,-0.0050168811574039344,-0.05155403081387455,-0.0009773790449196771,-0.09373078055456265,-0.002238943744454342,0.032567997274714225,-0.0005373782669069589,0.5751551084007219,0.8180282393365572,0.0026735425365489963,0.0,0.8179943112038534,-0.5750934860732329,-0.011555778445364682,0.0,-0.007915568597540112,0.008833477661875117,-0.9999296542488252,0.0,0.658913705494309,0.25717884423347886,0.30382958233232926,1.0,-0.010780000000000008,-0.014168000000000014,-0.005390000000000004,0.5400000000000004
0.46289049344581445,0.5307347173327641,-0.12407245992772847,-1.381588756316738,0.0780217776758604,1.9036465381961394,0.15735822941045044,-0.008207624311054807,-0.06062993777969662,0.005866855361035719,-0.0933794675793188,-0.006248947938231363,0.03327464122154185,-0.011069244595511557,0.5752045030855898,0.8179935324007594,0.0026659860831710833,0.0,0.8179593757614539,-0.5751427541297465,-0.011576652244530312,0.0,-0.007936456885920484,0.008839781007266165,-0.999929432972068,0.0,0.6587407224665781,0.2569754207308639,0.3038284137641073,1.0,-0.011080000000000008,-0.014562285714285727,-0.005540000000000004,0.5550000000000004
0.4627315746269293,0.5296664603890737,-0.1240670334844063,-1.383330459390219,0.07790541851562599,1.9042647177810055,0.15723101841363293,-0.0055885728816610115,-0.058332984509029996,0.0011791980451027915,-0.10013478673172507,-0.006449821263919586,0.03736567553996877,-0.006229573594481703,0.5752898962390057,0.817933651416298,0.0026122915848293266,0.0,0.8178988124675614,-0.5752283330984216,-0.011603631594150246,0.0,-0.007988490428779749,0.00881221186323082,-0.9999292619694389,0.0,0.6585315446512495,0.25670432360933815,0.30380532428736223,1.0,-0.011440000000000007,-0.015035428571428583,-0.005720000000000004,0.5730000000000004
0.4625997553530578,0.528673654597982,-0.12407233229592875,-1.3848998609567345,0.07780966248920665,1.9048406701406584,0.15712046925080675,-0.009410925429373097,-0.05711101452238946,0.0014412096035567347,-0.09792016915495126,-0.006296465657727527,0.03448324710754558,-0.005375047578119972,0.5753703817982838,0.817877048852236,0.002608373298153415,0.0,0.8178421706752614,-0.5753088346679742,-0.011604978214636134,0.0,-0.007990978982749142,0.008810568056946341,-0.9999292565703891,0.0,0.6583460768543554,0.25646477713755417,0.30380756668029874,1.0,-0.011760000000000008,-0.015456000000000013,-0.005880000000000004,0.5890000000000004
0.4624502609452936,0.5275551759100147,-0.12407007251222915,-1.3866293492238457,0.07769639481750336,1.9054996557754518,0.1569944696658736,-0.0074533615312505075,-0.0643927108144015,0.0001786185698836693,-0.10214502689843923,-0.004798104214592787,0.03815187273145628,0.0005445001010884137,0.5754511807893388,0.8178200904793697,0.0026429221857344927,0.0,0.8177857353520679,-0.5753895898059985,-0.011578337478697263,0.0,-0.007948440124192935,0.008824281931604686,-0.999929474687082,0.0,0.6581463440862665,0.2562034611198609,0.3038287801289982,1.0,-0.012100000000000008,-0.015902857142857156,-0.006050000000000004,0.6060000000000004
0.46231539295032814,0.5265010849067033,-0.12408051277347405,-1.388279819182552,0.0776044307247057,1.906133708932442,0.15686645503810165,-0.00711893079258943,-0.06877894936341954,-0.0025146588698198424,-0.10641865712619808,-0.009354522799910803,0.037654710639226464,-0.0020039453430969792,0.5755287142791604,0.8177654269892467,0.0026743901136007343,0.0,0.8177314773360259,-0.5754670059041074,-0.0115630009431281,0.0,-0.007916951558091356,0.008841942279363052,-0.9999295684870786,0.0,0.6579559264463934,0.255954680985116,0.30384030888040386,1.0,-0.01242000000000001,-0.016323428571428586,-0.006210000000000005,0.6220000000000004
0.4621435614642843,0.5252674423148032,-0.12409389585917098,-1.390198863127065,0.07748235092521975,1.9068398592897442,0.15673033075767762,-0.005684014782750577,-0.07030176144934332,-0.0034352970447248323,-0.1105384505574298,-0.015500598228399621,0.03739502417998828,-0.0070570727994784515,0.5756378213511228,0.8176885965133085,0.002684150412468284,0.0,0.8176548628516107,-0.5755761671000195,-0.011547641437644671,0.0,-0.007897593767011157,0.008842138034846694,-0.9999297198341811,0.0,0.6577328801798057,0.2556504300591956,0.3038563446584784,1.0,-0.01278000000000001,-0.016796571428571445,-0.006390000000000005,0.6400000000000005
0.4620064513126597,0.5241765327294186,-0.12410253376194469,-1.3919367025667553,0.07736868659144924,1.9074625252076063,0.15660225763417182,-0.0075278591056181,-0.06898311657117444,-0.004283068843947461,-0.10811503415527965,-0.003997350283144007,0.041936159185045604,-0.0016861000709465983,0.5757139831979333,0.8176350681453549,0.002655520762264083,0.0,0.817601026388146,-0.5756524841485081,-0.011555346983538427,0.0,-0.007919552270745589,0.008823901227391323,-0.9999297072589453,0.0,0.6575209443588369,0.25538716612927004,0.3038505517627177,1.0,-0.01310000000000001,-0.017217142857142872,-0.006550000000000005,0.6560000000000005
0.4618399392664798,0.5229217366600778,-0.12410210920954368,-1.3939508137133836,0.07723945435387729,1.9081974030416076,0.15645631315241398,-0.013691233993172142,-0.06512130834989249,0.0011848698268407739,-0.11601585559552353,-0.006977162491768264,0.04091822747966414,-0.011493752894087458,0.5758036343212951,0.8175720227999587,0.002628523992786195,0.0,0.8175376519897362,-0.5757422369908439,-0.011567671550334141,0.0,-0.007944205295470685,0.00880979426841795,-0.9999296360880457,0.0,0.6572764844572783,0.25508433387982105,0.3038376252006038,1.0,-0.01346000000000001,-0.01769028571428573,-0.006730000000000005,0.6740000000000005
0.4616900613320629,0.5217770623817584,-0.12410772836047383,-1.3957874792867837,0.07712773990564765,1.9089150859007724,0.15633297085416437,-0.012994031315083969,-0.07071431694499841,0.0006466095305297068,-0.11523598067021555,-0.005560769536063066,0.045351785489273516,-0.007466889764541939,0.5758977246756768,0.8175056963970599,0.0026446120593993545,0.0,0.8174715915189114,-0.5758363258437522,-0.011552913031552642,0.0,-0.007921861042080702,0.008815361280416073,-0.9999297642950358,0.0,0.657062993546147,0.25481019025925733,0.30383017277555807,1.0,-0.013780000000000011,-0.01811085714285716,-0.0068900000000000055,0.6900000000000005
0.4615269711110594,0.5205318097714634,-0.12411588654682007,-1.3977835939203718,0.07699880020006312,1.9096887901725417,0.1561837247855735,-0.015777342372894236,-0.07350136938446009,-0.0013380099531711672,-0.1165113335595252,-0.007265992497006652,0.049893559463380414,-0.01405933316614525,0.5759867780947143,0.8174429254945955,0.0026536616430425175,0.0,0.8174090612213072,-0.5759254757266322,-0.011533427225323026,0.0,-0.007899759242705418,0.008812398326317597,-0.9999299652673909,0.0,0.6568300098391969,0.2545093464743123,0.3038220907331854,1.0,-0.014120000000000011,-0.018557714285714302,-0.0070600000000000055,0.7070000000000005
0.4613704995162869,0.519289366723448,-0.12411917342231991,-1.3997196546828894,0.07688798509700519,1.9103837487458943,0.1560291884680811,-0.010086110488446237,-0.07541668028310089,-0.0005187182964982153,-0.12421128775321504,-0.007140812569411737,0.03897975428914514,-0.009723124462621283,0.5760637005541701,0.8173887074999981,0.0026571895917078233,0.0,0.8173547990641085,-0.5760022766929294,-0.01154368193608006,0.0,-0.00790528020423592,0.008821932648464967,-0.9999298375632354,0.0,0.6565909322585547,0.2542204327578911,0.30383326757193496,1.0,-0.01444000000000001,-0.018978285714285732,-0.007220000000000005,0.7230000000000005
0.46118180245438445,0.5178745550999457,-0.12412547575158892,-1.4019351190882499,0.07673501663144672,1.9111766138999988,0.15586957347626954,-0.00859350699637122,-0.08008618236554721,-0.00038848418835762423,-0.1241960246119494,-0.00981246042404396,0.04506991724445693,-0.006700343515408961,0.5761679077961642,0.8173153183818513,0.0026380419580185046,0.0,0.8172812841330644,-0.5761066701772444,-0.01153924106278521,0.0,-0.007911557236886468,0.008804732218126027,-0.9999299395220922,0.0,0.6563203464657918,0.253877630589983,0.303840594196406,1.0,-0.014800000000000011,-0.019451428571428588,-0.0074000000000000055,0.7410000000000005
0.4609974137272158,0.5165286185646046,-0.12412567542760455,-1.4040521084369273,0.07659191453084627,1.9119515322542724,0.15570600490970085,-0.013284998433480315,-0.07642568634646199,0.0006061690128400667,-0.12529123038604836,-0.012067581797063421,0.045328695306786536,-0.014716466910159555,0.5762582747079588,0.8172516270174659,0.0026317046033864713,0.0,0.8172175958411716,-0.5761971414005382,-0.011532657570217172,0.0,-0.007908854763575446,0.008796634025618588,-0.9999300321753257,0.0,0.6560638353044502,0.25355241686254115,0.3038443021137187,1.0,-0.015140000000000011,-0.019898285714285733,-0.0075700000000000055,0.7580000000000006
0.4608145173063206,0.515170137117328,-0.12413823196208591,-1.4062228610574745,0.076468463510256,1.912775144893683,0.15554596230330917,-0.015471790285670277,-0.07510484147394043,-3.3553230500026965e-05,-0.13177633005416203,-0.0073095154884704715,0.048728280532850506,-0.0010366876426133513,0.5763672993563549,0.8171747157456296,0.002639522668955097,0.0,0.8171407693719748,-0.5763061084368274,-0.01153166552521235,0.0,-0.007902364605169077,0.008803505995102795,-0.999930023009531,0.0,0.6558052105381064,0.25322122856139195,0.30383549536239685,1.0,-0.015480000000000011,-0.020345142857142874,-0.0077400000000000056,0.7750000000000006
0.4606494126500901,0.5139307106185794,-0.12413862950991818,-1.4081879442821768,0.07635017775956249,1.913495554203714,0.15538753505660857,-0.015493792126968636,-0.07969491258015865,-6.142497902305097e-05,-0.13012671476180174,-0.008057253727746242,0.04646716392864418,-0.012291559940747225,0.57644445932354,0.8171203060772406,0.0026339348201219253,0.0,0.8170862435565063,-0.5763832283994187,-0.011540862696945157,0.0,-0.00791226974001874,0.008804987788713636,-0.9999299316340131,0.0,0.6555633539475301,0.25292557435569835,0.3038313679421682,1.0,-0.015780000000000013,-0.020739428571428593,-0.007890000000000006,0.7900000000000006
0.46044774745397343,0.512460402431583,-0.1241415405042395,-1.410603147231418,0.07620601454725964,1.9143274982539433,0.1552027990804439,-0.011243706315334176,-0.08033016629517639,4.096051043794159e-05,-0.127307869678861,-0.007273048020321351,0.048638544718507246,-0.00815698314210562,0.5765478732773369,0.8170476478895631,0.0025372817581997362,0.0,0.8170122013064224,-0.5764868096796644,-0.011608965630264718,0.0,-0.008022523055024489,0.008766283377800138,-0.9999293932071263,0.0,0.6552532652712197,0.25255762024529016,0.30378417329299123,1.0,-0.016140000000000012,-0.02121257142857145,-0.008070000000000006,0.8080000000000006
0.4602620759548049,0.51111970288165,-0.12413944713775209,-1.412774195659014,0.07606754946709463,1.9151256743810432,0.15502795883876305,-0.00850937763064051,-0.08329933861523214,0.001267310900612711,-0.13969084193527953,-0.011690793402378033,0.05475845489444209,-0.008629371352668305,0.5766313236491142,0.8169888570823696,0.0025041747387250833,0.0,0.8169529827496599,-0.5765703656552004,-0.011626879455406119,0.0,-0.008055353103444685,0.008750384384422327,-0.9999292685282813,0.0,0.6549847465187412,0.25222898971332863,0.30375884969682837,1.0,-0.016460000000000013,-0.02163314285714288,-0.008230000000000006,0.8240000000000006
0.46005363583436537,0.5095494794673103,-0.12414013778276477,-1.4152579842905486,0.07591268266594021,1.9160771931668632,0.15484037789265226,-0.012239247386391212,-0.08588570122812662,0.001697060353898252,-0.13884140858415128,-0.006108015689099063,0.049947533693065045,-0.01126567020419706,0.5767366339110847,0.8169144378775466,0.0025304531870617404,0.0,0.8168789452131995,-0.5766756165420672,-0.011609007468575749,0.0,-0.008024469654635158,0.008762582527700527,-0.9999294100256313,0.0,0.6546846800728483,0.2518574937552559,0.3037582465231362,1.0,-0.016820000000000012,-0.022106285714285735,-0.008410000000000006,0.8420000000000006
0.4598879346483455,0.5083357722544823,-0.12414586847329112,-1.4172054766055233,0.07579251024023784,1.9167653500360766,0.15467460945637118,-0.012423137663184659,-0.08636717342678328,-0.00019181964401994138,-0.14052799975089472,-0.005823964751044872,0.047015610148687104,-0.013913132257500755,0.576809184980077,0.8168633407845368,0.002488675582124112,0.0,0.8168272684592589,-0.576748262014192,-0.011636265131165672,0.0,-0.008070054466147225,0.008744891050598794,-0.9999291980442547,0.0,0.6544382914064972,0.2515578744288548,0.3037403129935736,1.0,-0.017100000000000014,-0.02247428571428574,-0.008550000000000007,0.8560000000000006
0.45964826053087177,0.506624635815133,-0.12414929244104035,-1.4198734001956523,0.07561728159506745,1.9177367548748858,0.15446379320501055,-0.009983035340471716,-0.09089209958208974,0.00030794437450626643,-0.1388168349588603,-0.006538576779279394,0.05057981409470784,-0.017837063226817867,0.5769256987387777,0.8167810438099151,0.002492289864097005,0.0,0.8167450808049191,-0.5768648163301354,-0.011627706677306313,0.0,-0.008059731237113621,0.008744056636161984,-0.9999292886029139,0.0,0.6541094496122333,0.2511426508631427,0.30375133889388667,1.0,-0.017480000000000013,-0.022973714285714306,-0.008740000000000006,0.8750000000000007
0.45943392741430267,0.505032109560538,-0.12415325319361654,-1.4223213261577536,0.07546999672823751,1.918678359042272,0.1542748556700611,-0.01060041195665117,-0.08709827794429907,0.0018779843036280637,-0.14248874255272634,-0.007839011126880732,0.05726663515468009,-0.0129301808882933,0.5770359186290983,0.8167029602002959,0.002563262209547148,0.0,0.8166679332752254,-0.5769747961411152,-0.01158957631229892,0.0,-0.007986457354964505,0.008781104928483524,-0.9999295518661063,0.0,0.6538153504381384,0.2507707089549128,0.3037809744713054,1.0,-0.017820000000000013,-0.02342057142857145,-0.008910000000000006,0.8920000000000007
0.4592074815099555,0.5033876943308422,-0.12416109502304655,-1.424798245245793,0.07531213944452544,1.9196259234321091,0.1540904520137906,-0.017660258911273236,-0.09643789148312827,0.0004242854976769907,-0.14488995855261871,-0.012768649646102134,0.057344121069538706,-0.009789133368514747,0.5771650750127574,0.8166114025099693,0.0026533709554907832,0.0,0.8165776381519628,-0.5771037418660683,-0.011531647564550544,0.0,-0.007885756409213074,0.008822517480390826,-0.9999299865646409,0.0,0.6535018798742832,0.25036170762305215,0.30383068596795804,1.0,-0.018180000000000016,-0.02389371428571431,-0.009090000000000008,0.9100000000000007
0.45897385877856156,0.5016875214556736,-0.12416408963522906,-1.4272965512805271,0.07515329246644405,1.9205521858825796,0.15387902622407118,-0.014796917604058659,-0.09947732699830819,-0.002184419241717485,-0.14890382146643458,-0.009848708442641105,0.05577752040808796,-0.01918269732512996,0.5772654185441477,0.8165401179239163,0.002760303435353678,0.0,0.8165077873087101,-0.5772037865495455,-0.01147035127225442,0.0,-0.007772894037860301,0.0088754172576129,-0.9999304021214575,0.0,0.6532169150188962,0.2499934142736646,0.3039111347174778,1.0,-0.018500000000000013,-0.024314285714285736,-0.009250000000000006,0.9260000000000007
0.458746140064994,0.4999714537964488,-0.12416263804725279,-1.429891751820347,0.07498686660938467,1.9214790383907754,0.1536780838038812,-0.013990952171054727,-0.09967458283046514,0.00046015207662615065,-0.15340605326104345,-0.009745747166159103,0.05169904992961838,-0.015658064305937903,0.5773732045806527,0.8164637774294431,0.00279815637894073,0.0,0.8164319183083041,-0.5773114202953459,-0.011453980321333497,0.0,-0.0077365013580487085,0.008897896815603656,-0.9999304845733007,0.0,0.6528875684315137,0.24959637392324313,0.3039535027045334,1.0,-0.018840000000000016,-0.024761142857142884,-0.009420000000000008,0.9430000000000007
0.45850795941982075,0.4983910512390566,-0.12415866282910108,-1.4323473147677006,0.07482965623456563,1.9223881482976244,0.15347828733968003,-0.013015256289617598,-0.08977835692463672,0.0027211563550471,-0.15471347564000118,-0.01271385331332903,0.060139133297836704,-0.016477379318323385,0.5774838893343844,0.8163854094218133,0.0028227191888718405,0.0,0.8163538730681731,-0.5774220213127073,-0.011441596520987456,0.0,-0.007711000701247195,0.008911846982224345,-0.9999305573146321,0.0,0.6525852326309144,0.24920910792288964,0.30396554437884044,1.0,-0.019160000000000014,-0.025181714285714307,-0.009580000000000007,0.9590000000000007
0.4582545121359736,0.49670819325210924,-0.12416180061224133,-1.4350032377996151,0.07467332479732579,1.9233603537042505,0.1532828461347325,-0.014838323685039493,-0.09403633116867546,0.0006939119647854967,-0.15469362465204978,-0.009381363350400278,0.057214273152928485,-0.008808630827576538,0.5776257948359241,0.816285011594504,0.0028227446812736628,0.0,0.8162533836667186,-0.5775638025990104,-0.011454888965500289,0.0,-0.007720287659595593,0.00892088599547064,-0.9999304050540263,0.0,0.6522540373109413,0.24878983309063593,0.3039588005709615,1.0,-0.019500000000000014,-0.025628571428571452,-0.009750000000000007,0.9760000000000008
0.45798576938115065,0.49503270393426235,-0.12416525374157764,-1.4377149657407164,0.07450092818729995,1.9242994291231927,0.15304723201473042,-0.01782545654063459,-0.09971146877862483,-0.0011363751831294032,-0.16383536572036766,-0.01284305959694839,0.05889810452096124,-0.01590299720610862,0.5777451319931693,0.8162008495518556,0.0027354250551946914,0.0,0.8161680190307316,-0.5776833155871783,-0.01151079948848402,0.0,-0.007815065370322172,0.00888304584448564,-0.9999300056752883,0.0,0.6519059807140278,0.248349133405466,0.30391689453771364,1.0,-0.019840000000000017,-0.0260754285714286,-0.009920000000000009,0.9930000000000008
0.45770017944320307,0.4933405734345716,-0.12417064213013879,-1.4404866341566753,0.07432581236784812,1.9252840257212207,0.15283834837446397,-0.01605889947973304,-0.10154937779806758,-0.0021124034570644563,-0.1670663216627877,-0.008311494096571661,0.06140089988343181,-0.013371670812758016,0.5779033469788637,0.8160891224333876,0.0026481498708640135,0.0,0.8160551165912255,-0.5778417436858566,-0.011563426852716073,0.0,-0.007906727562641158,0.008843749601933584,-0.999929633400385,0.0,0.6515563754008844,0.247892194907826,0.30386146888685917,1.0,-0.020720571428571418,-0.027232751020408154,-0.01331367679542846,1.0099999999999996
0.45743783785878517,0.4916164919805748,-0.12418165789274442,-1.4432218298323831,0.07415116890555284,1.9262965898576214,0.1526734817805527,-0.019334112847192896,-0.10499547501568202,0.0012588694164642426,-0.1770730235057474,-0.012855539688190417,0.06422858271328545,-0.011866616857914961,0.5780803727537791,0.8159637613347035,0.0026400239739465692,0.0,0.815929708915631,-0.5780188396482211,-0.011561921197878968,0.0,-0.007908277373658346,0.008837963866603585,-0.9999296722988442,0.0,0.6512161958183609,0.24745388096706006,0.30384747898411124,1.0,-0.0220371428571427,-0.028963102040816126,-0.01922243554285638,1.0259999999999978
0.45712060046386865,0.4895928331397779,-0.12422565097232961,-1.4465084509421835,0.07396230370832908,1.927452149503556,0.15254429842557196,-0.01486288924760883,-0.11049925945403463,-0.004792219237253195,-0.1876419044936172,-0.012363999752742164,0.06979677424275306,-0.008326311408977391,0.5783781096502256,0.8157530530419611,0.002542760578494476,0.0,0.8157176806431765,-0.5783168010513885,-0.011622822764458364,0.0,-0.008010986227787342,0.008796730385146584,-0.9999292183120709,0.0,0.6507984754373607,0.24690672008617698,0.30379217306425166,1.0,-0.023518285714285395,-0.030909746938775094,-0.025869789133712795,1.0439999999999958
0.4568417858630344,0.4877603693722636,-0.12425220310014674,-1.449400415720812,0.07377516225562449,1.9285275935984292,0.152536594107763,-0.01802003710556073,-0.1238587318081261,0.0013627907895384297,-0.1977427247502466,-0.011048057030906637,0.07718289570533754,-0.0011060724559307767,0.57873054465494,0.8155030456513163,0.00254678582371209,0.0,0.8154678757131293,-0.5786693431562718,-0.011605251923738489,0.0,-0.007990525251964475,0.008793305090613407,-0.9999294121545684,0.0,0.6504153884200624,0.2464064833658766,0.30378431178335896,1.0,-0.02483485714285668,-0.032640097959183066,-0.03177854788114071,1.059999999999994
0.4564914332570806,0.48554226741823014,-0.12429251120542398,-1.4527954589710264,0.07357195976502923,1.9298463695603942,0.15254314574431754,-0.027351636335122716,-0.12549756381822544,-0.005421440416400522,-0.20477360006472514,-0.011006302230327922,0.07388924650461845,-0.0014759681738871616,0.5791440669226988,0.8152091041981173,0.0026482224128641972,0.0,0.8151754397625295,-0.5790826887072942,-0.011532083450369275,0.0,-0.007867671141027044,0.00883767373213977,-0.9999299951865734,0.0,0.6500387652726939,0.2458660188139875,0.3038233578030868,1.0,-0.02615142857142796,-0.034370448979591045,-0.03768730662856863,1.0759999999999923
0.4561196158323927,0.48322893834136693,-0.12434283195334217,-1.456386127075933,0.07335546990973256,1.9310985541696821,0.15259381755773907,-0.02115104730337184,-0.13504752401143696,-0.004118997967859979,-0.21541456603949422,-0.008838290833563304,0.07766493100577399,0.008397034192184617,0.579641977296699,0.8148552515971323,0.0026161042324866777,0.0,0.8148212063214859,-0.5795806806502368,-0.011549166507375194,0.0,-0.007894807507896673,0.00882620884891222,-0.999929882567657,0.0,0.6495840804287982,0.24525023304855023,0.303829781154719,1.0,-0.02755028571428497,-0.036208946938774536,-0.043965362797710884,1.0929999999999906
0.45570477324625225,0.4806086173666291,-0.12439789983481901,-1.4604250601880346,0.07311736515983373,1.9325289044320895,0.15279974339778388,-0.03062380103425259,-0.14380405550528091,-0.0004363822928008961,-0.22621754435748034,-0.012666998480985167,0.0899338556763132,0.014985939204051868,0.5803198688594349,0.8143726149355899,0.002615482966149575,0.0,0.8143385884468466,-0.5802585188565688,-0.011552556513029142,0.0,-0.007890581302815503,0.008834236873828588,-0.9999298450319205,0.0,0.6490732792535613,0.2445635210002205,0.3038499377089643,1.0,-0.02903142857142766,-0.038155591836733505,-0.05061271638856729,1.1109999999999887
0.45528962662380135,0.47805218404679545,-0.12441803919275635,-1.4643598555560298,0.07288264105043193,1.9339930195197985,0.1530824743893919,-0.023128124348861384,-0.1532838621792681,-0.0005309422722811597,-0.23888998403935094,-0.012528331953373488,0.07862703336113172,0.013046048778338223,0.5810300869127256,0.8138658373186912,0.0026802703117763263,0.0,0.8138326569696293,-0.5809684451325933,-0.011524717401252743,0.0,-0.00782257191081398,0.008877669985181497,-0.9999299947217977,0.0,0.6485824887090423,0.24391163180646588,0.3038756825882245,1.0,-0.03043028571428465,-0.039994089795916975,-0.05689077255770946,1.1279999999999868
0.45484567251661434,0.4753680505772686,-0.12445143578028607,-1.4684512420601528,0.0726347648627397,1.9355254852253585,0.15345978825654352,-0.02944678207134457,-0.16067588233027413,-0.0014893509365216276,-0.24336145422735983,-0.020872850408267796,0.09038555118877098,0.028865214518701457,0.5818525918762674,0.8132777004031702,0.0027731309038345406,0.0,0.8132458312166677,-0.5817906792855507,-0.011470414394290522,0.0,-0.0077153990743110135,0.008929499412708694,-0.9999303659042277,0.0,0.6480779133054193,0.24321927445760785,0.3039199705778005,1.0,-0.03182914285714164,-0.041832587755100445,-0.06316882872685163,1.144999999999985
0.4544496162528503,0.4728944856664039,-0.12448034841725535,-1.4722405682422008,0.07240289541175268,1.9368659561610782,0.15383002124033648,-0.02811907582956594,-0.1674277909110407,-0.0011233851805469359,-0.2565585301718918,-0.018266928314338324,0.08396111455046124,0.028299113069850022,0.5825001556738298,0.8128139830096971,0.0027829058705436107,0.0,0.8127822521822574,-0.5824381443165089,-0.011470199818970607,0.0,-0.007702416565114667,0.00894346187058695,-0.9999303412082399,0.0,0.6476554308078942,0.2426708069655607,0.30393632852729613,1.0,-0.03289885714285581,-0.04323849795918193,-0.06796969520913682,1.1579999999999835
0.4539564723323702,0.46986957035268534,-0.12447964525856874,-1.4769310160832196,0.07211890653511256,1.938578761326649,0.1543756622911003,-0.03421569756914545,-0.16999727289632802,0.002276690323244281,-0.26558844825681177,-0.012793135242523321,0.09959741628836041,0.035440811440846,0.5836044141350348,0.81202136751522,0.0028166295502208543,0.0,0.8119899606968307,-0.5835420272491544,-0.011478373696424094,0.0,-0.007677210798173351,0.00898607748394345,-0.9999301529836035,0.0,0.6469798441572072,0.241820607932771,0.3039499917085284,1.0,-0.03454457142856993,-0.045401436734691915,-0.0753556436434218,1.1779999999999815
0.45350264875094876,0.4670436909408204,-0.12448137442105353,-1.4811893847436528,0.07184665620794736,1.9402183999866702,0.1549558535379306,-0.02984689487912498,-0.17098034729621836,0.0008829469056161833,-0.272855739406255,-0.02191658893846595,0.10495137972952936,0.043533274359288734,0.5845722272355545,0.8113243511683094,0.002975776771385833,0.0,0.8112951619246607,-0.584509436842514,-0.011385314264173052,0.0,-0.007497957462331617,0.009069946439352258,-0.9999307559553714,0.0,0.6464463487542441,0.24112714398493998,0.3040156596204025,1.0,-0.03586114285714122,-0.04713178775509989,-0.08126440239084973,1.1939999999999797
0.4529662405144691,0.4637773059547968,-0.12449718894664005,-1.4862851908632,0.07150721521986983,1.9419713867441402,0.15569800405187292,-0.027964368443226598,-0.18190033133412162,-0.00031022293093679496,-0.28560366959835093,-0.01880519773985268,0.09715112248536564,0.03270613959099239,0.5857658029928522,0.810463352745968,0.002885273143382579,0.0,0.8104330472408631,-0.5857031837555601,-0.01143693051906251,0.0,-0.007579445315327948,0.009037857501749194,-0.9999304321504023,0.0,0.6457609126803341,0.2402770356820449,0.3039949179202137,1.0,-0.03734228571428391,-0.04907843265305886,-0.08791175598170614,1.2119999999999778
0.4524574263418181,0.4607873746563722,-0.12452917864656987,-1.4909940323854511,0.07119237175277712,1.9436263138952379,0.15640955042781235,-0.033878071432677515,-0.18566989133315512,-0.002396190468386891,-0.29545200076020195,-0.018355734387840515,0.09825835859982776,0.04152172511980066,0.5869099053511451,0.8096355145249766,0.00280062882124618,0.0,0.8096042790314804,-0.5868475849915878,-0.011470408217073255,0.0,-0.007643454758625046,0.00899967055022749,-0.9999302893348816,0.0,0.6451367872330188,0.2394751098210344,0.303957638093189,1.0,-0.03865885714285519,-0.050808783673466834,-0.09382051472913405,1.227999999999976
0.4518570394846493,0.45735466261013674,-0.12455380753945765,-1.496369797910653,0.07085042659282978,1.945556861693739,0.15726884053255083,-0.03506988326233066,-0.19235791198766183,-0.0010535870904221933,-0.2993735609919355,-0.01896451094867851,0.10608620974768007,0.049409727738392466,0.5882632299357993,0.8086528719455993,0.0027662069415726872,0.0,0.8086212496172105,-0.5882009074198905,-0.011494088877626055,0.0,-0.007667790176867806,0.00899853681183399,-0.9999301132224441,0.0,0.6444293989054778,0.23856041824866658,0.30392899792049305,1.0,-0.040139999999997886,-0.0527554285714258,-0.10046786831999047,1.245999999999974
0.45126543046264805,0.454216910357573,-0.12460126349555545,-1.5013880202761665,0.07051253409989329,1.9472908175387527,0.15813404254178362,-0.039761615898496236,-0.1998751197657959,0.0007359391465559696,-0.31286504549580135,-0.01700624793681931,0.10999290452655361,0.057197624811861025,0.5895196187749865,0.8077378768504875,0.0026245536134133192,0.0,0.8077046089766924,-0.5894577927165912,-0.011555178263489452,0.0,-0.007786641494329005,0.00893204030428403,-0.9999297909704669,0.0,0.6438056777652146,0.23772185846563393,0.30385889403347743,1.0,-0.04137428571428346,-0.054377632653058276,-0.10600732964570414,1.2609999999999724
0.4506467242728601,0.45064330345170295,-0.1246791394369972,-1.5067249603242048,0.07014999516091952,1.9493096684162057,0.15918832251544549,-0.03394192154787976,-0.20914198488009236,-0.005418350491496201,-0.31019309748446333,-0.02570090328519241,0.11515114183982622,0.0635396302608356,0.5911600144098623,0.8065375911422037,0.0027745880182426805,0.0,0.8065068680192233,-0.5910982260263073,-0.011415162179471462,0.0,-0.0075668490364834695,0.008986084741121114,-0.9999309941574389,0.0,0.6430936308031541,0.23671722779174975,0.3039387355724745,1.0,-0.04285542857142616,-0.056324277551017245,-0.11265468323656055,1.2789999999999704
0.4500199259504413,0.44719281675208955,-0.124703650689078,-1.511937875095162,0.06980500009370941,1.951113508958921,0.16019190424907284,-0.042089447810393095,-0.21695511787590263,-0.0008643488611701628,-0.33014025282843773,-0.015443761736178823,0.10146740352866493,0.05918322630183991,0.5926302922078597,0.8054578351478906,0.0027855803180929055,0.0,0.8054273317354865,-0.5925683744353906,-0.01141410590724242,0.0,-0.007543079460898827,0.009008100875893058,-0.999930975653248,0.0,0.6423939323491471,0.23579877837889424,0.303980010196932,1.0,-0.04417199999999744,-0.058054628571425224,-0.11856344198398848,1.2949999999999686
0.4493440560763354,0.44349874837711034,-0.12472990095277763,-1.517661619807272,0.06941630670937542,1.9531047211499146,0.16134011516495203,-0.03722872047981324,-0.21902473639614767,-0.0008433117301237928,-0.33399139749008444,-0.017329073648900684,0.11613953249649403,0.06459531979025934,0.5942641837636118,0.8042533446662936,0.0027174234224161386,0.0,0.8042221205221063,-0.5942024419939917,-0.011444898099684462,0.0,-0.007590044074373248,0.008986878079850089,-0.9999308112331208,0.0,0.6416171490785708,0.23479765709407757,0.30395864732018574,1.0,-0.04557085714285443,-0.05989312653060869,-0.12484149815313064,1.3119999999999667
0.4486904853148146,0.4399437970071026,-0.12473623922558302,-1.523131370251494,0.06903755996689656,1.9550953846016283,0.16254860789984238,-0.04468928258526951,-0.2209029218943817,-6.778393825296975e-05,-0.34825144005391784,-0.022745206844285416,0.1228661736951546,0.07541559537920373,0.595901152129402,0.8030411144040867,0.0027445161143571217,0.0,0.8030104907774633,-0.5958394174262788,-0.011414343768181531,0.0,-0.007531041452981335,0.009005869225086935,-0.9999310864925313,0.0,0.6408857622467519,0.2338528991147741,0.3039591393341745,1.0,-0.046887428571425714,-0.06162347755101666,-0.13075025690055855,1.327999999999965
0.4479115970352989,0.4358563804787276,-0.12476211289489858,-1.5294367059368656,0.06863530774570517,1.9573443956250944,0.16387599927257387,-0.04464336839221088,-0.22993991540839018,0.0003326894610938994,-0.3554232397097742,-0.024703781882950634,0.12401012234533342,0.0790704040660061,0.5977737835631668,0.8016481235891874,0.002745274434271531,0.0,0.8016175278484708,-0.5977118239512155,-0.011430724221386041,0.0,-0.007522680468894927,0.009033821301005343,-0.9999308972880399,0.0,0.640034820651297,0.23274008466464916,0.30394538682436595,1.0,-0.0483685714285684,-0.06357012244897563,-0.13739761049141497,1.345999999999963
0.44718408768666185,0.43207248838906925,-0.12480335858483203,-1.5351058238974655,0.06823902596745697,1.9594700793382522,0.16518970009004755,-0.046044070677447584,-0.2335528911105776,-0.004947492808036036,-0.35503123337597947,-0.03341667883139356,0.13222997101160186,0.08404975388467192,0.5995730227841668,0.8003027578440304,0.0029039693360206204,0.0,0.8002746830834747,-0.5995109735966809,-0.011303585891741408,0.0,-0.0073054701316930815,0.009101473533048951,-0.9999318943236495,0.0,0.6392992267512005,0.23171530377010666,0.30401276849244785,1.0,-0.049685142857139694,-0.0653004734693836,-0.14330636923884288,1.3619999999999612
0.44638381716497394,0.4280024463596075,-0.12485266154694795,-1.5414554197862518,0.06778069484031018,1.9615327250694508,0.16666753005460302,-0.03933957307551713,-0.2466599573872816,-0.007880723910359183,-0.3687854505713523,-0.03311412241208929,0.12648340057192636,0.09260859706168802,0.6015716338481537,0.7988023585077124,0.002666138216042272,0.0,0.7987714743676478,-0.6015102820388765,-0.011413116982390833,0.0,-0.007513259866706423,0.008995615777572255,-0.999931312552496,0.0,0.638398007898849,0.2305521035103529,0.3039429670593465,1.0,-0.05108399999999668,-0.06713897142856708,-0.14958442540798506,1.3789999999999594
0.4456236022428518,0.4240489304318431,-0.12491512320684478,-1.5474605199629297,0.06735431024433262,1.9636175459541678,0.1680953578978709,-0.04705393291134306,-0.24950472649862873,-0.003012686888465664,-0.37228631462509054,-0.02096561751771559,0.13891833156367278,0.08976351128598012,0.6036177155189739,0.7972574086031037,0.0026504415343513964,0.0,0.7972267496673358,-0.603556653640156,-0.01138518171836667,0.0,-0.007477372812715932,0.008985473267427643,-0.9999316727486834,0.0,0.6375217279388216,0.22938564040313894,0.3039595305590508,1.0,-0.05248285714285367,-0.06897746938775054,-0.1558624815771272,1.3959999999999575
0.4447635920392147,0.41976781179569495,-0.12493010670153103,-1.5539805731583458,0.06690547857065338,1.9659046322568592,0.16975157872358082,-0.052861511312639595,-0.25087489420672965,-0.001979423119999929,-0.38620699395248625,-0.029689325347503216,0.13369531471235005,0.09604025494950107,0.6056576257740627,0.7957088577123194,0.002645940492434196,0.0,0.795678266392918,-0.6055964607795975,-0.011391662845876213,0.0,-0.007462218503714535,0.009004938189815459,-0.9999316108530624,0.0,0.636669185163366,0.22827352819799784,0.3039582566725607,1.0,-0.053799428571424945,-0.07070782040815851,-0.16177124032455514,1.4119999999999557
0.4439840638458197,0.4159002963388584,-0.12496056234040857,-1.5597063819201127,0.06651582850424488,1.9680472559497584,0.17119400936066562,-0.05465567429166417,-0.2583437736793247,-0.0023820326902577174,-0.38974929923585017,-0.018583061403141414,0.14646507676703338,0.10210412965188355,0.607573350077711,0.7942463287213458,0.0028531542579557888,0.0,0.7942187026079153,-0.607511755337551,-0.011263501040787077,0.0,-0.0072128084676086335,0.009109606922210703,-0.9999324929492652,0.0,0.6359084086834264,0.22722408032252484,0.3040414535122006,1.0,-0.055033714285710536,-0.07233002448979099,-0.16731070165026882,1.426999999999954
0.4430098853137696,0.41118558728706195,-0.12498095923566108,-1.566872135872951,0.06601352237211881,1.970501270187716,0.1731167005857757,-0.05209629498846364,-0.2607789776902064,-0.0026285467726167434,-0.40045724104416786,-0.03123201301633435,0.13144759012577342,0.10276166887737331,0.6100360132561109,0.792356556322672,0.002810175132372872,0.0,0.7923285458047742,-0.6099744103881517,-0.011288980278433502,0.0,-0.007230901835624914,0.009113441960870591,-0.9999323273273393,0.0,0.6348954371845806,0.22590616254696266,0.3040359846641484,1.0,-0.05651485714285322,-0.07427666938774996,-0.17395805524112523,1.444999999999952
0.4421317479975639,0.4068897482886388,-0.12502456974041318,-1.5734268808691014,0.06555515951968087,1.9726925848009538,0.17485298046672335,-0.060172425538040315,-0.2680996135215374,-0.004134517352141506,-0.3953468198195097,-0.028495537140024473,0.13954303789916497,0.10776523950903452,0.6122703083661571,0.7906316952632833,0.00270902925893931,0.0,0.7906025383968172,-0.6122088601296332,-0.011343930557469677,0.0,-0.007310520083093575,0.00908749223160056,-0.9999319845774786,0.0,0.6339517781266665,0.22469275544037248,0.30401098060050324,1.0,-0.05783142857142451,-0.07600702040815793,-0.17986681398855314,1.4609999999999503
0.44104454573311624,0.40177888119440264,-0.12506192313541276,-1.5812650442461804,0.06503458836031506,1.9754510131364234,0.17698457494511458,-0.0538540357045345,-0.2685702758169479,0.00010914447445665288,-0.40969002043123465,-0.03502082302973789,0.15066810640155479,0.10575459351281227,0.6150032460786116,0.7885077618527807,0.0026951274362368733,0.0,0.7884784988307371,-0.6149415583603028,-0.011370293938069855,0.0,-0.007308359867671088,0.00911799326548765,-0.9999317227065331,0.0,0.6328441766182535,0.22324194967913805,0.30396941611133066,1.0,-0.059394857142852905,-0.0780618122448924,-0.1868834650011238,1.4799999999999482
0.4400126469794977,0.3969784880827217,-0.12508280251477852,-1.588232924317577,0.06453546482969834,1.978006523986034,0.1789804396789887,-0.06582402525821711,-0.2748620762332182,-0.003592800477534409,-0.4159766043508886,-0.03442296781260225,0.14575711931969354,0.12277491000348914,0.6175332183715875,0.7865269158208087,0.0029802345954273663,0.0,0.7865016989467891,-0.6174709877473589,-0.011198381370682138,0.0,-0.0069677541131688,0.009259510335220655,-0.9999328536811711,0.0,0.631891426362005,0.2219245968067429,0.30410694470362015,1.0,-0.0607937142857099,-0.07990031020407587,-0.19316152117026597,1.4969999999999464
0.4389064438856534,0.3918488611629011,-0.12510274590318143,-1.5960156320947165,0.06393244150601321,1.9805372432546011,0.18122154177543273,-0.060082690458121965,-0.2859578924349346,-0.0012304358252260218,-0.4291184815665776,-0.037153675810085704,0.1329714135359108,0.1270674126569649,0.620301960460224,0.7843458204096627,0.002803347339177329,0.0,0.7843187289532838,-0.6202402761274195,-0.011264021648405394,0.0,-0.007096275998501378,0.009185989391811644,-0.9999326279634279,0.0,0.6307365218445253,0.22045784794939804,0.3040710949851021,1.0,-0.062274857142852594,-0.08184695510203484,-0.19980887476112238,1.5149999999999444
0.4378564105177558,0.3869700375842518,-0.1251031819773789,-1.603435537089802,0.06338973506000924,1.9830328674067506,0.18339781351274317,-0.06250989450242742,-0.288290856882427,0.0013491548653627222,-0.4400831723063598,-0.037273049997622064,0.14301312901382202,0.12073433989936423,0.6229546953637829,0.7822409072935936,0.002712449431821239,0.0,0.7822128134651024,-0.6228930805608075,-0.011316869782978982,0.0,-0.007163090415995832,0.009171786454884673,-0.9999322819415914,0.0,0.629635268594134,0.21908605908605802,0.30402994100175085,1.0,-0.06367371428570957,-0.08368545306121832,-0.20608693093026456,1.5319999999999425
0.4367562345685682,0.3819403826339554,-0.12511847024468944,-1.6108129446913753,0.06284921057795437,1.9856286692574194,0.1855939570368885,-0.06635925551506194,-0.3048573724871935,-0.0009526288322120814,-0.4276712858082223,-0.03694612255436023,0.17155208538165198,0.14096805070302004,0.6256606386951622,0.7800777212495217,0.002874177956177274,0.0,0.7800520054568161,-0.62559866797334,-0.011221511216874026,0.0,-0.006955702916967732,0.009263044496140974,-0.9999329048509171,0.0,0.6285736439563985,0.21768980239974603,0.30411185513116556,1.0,-0.06507257142856657,-0.08552395102040178,-0.2123649870994067,1.5489999999999406
0.43574925957517857,0.37752440376283797,-0.12513282963261485,-1.6174571007582563,0.062375776590198724,1.987950276175625,0.18766057324479105,-0.0647861271011968,-0.2937130241719315,6.244490804985565e-05,-0.4563478116352838,-0.032842460102027335,0.15006261530979745,0.13073660375197113,0.6283325425590564,0.777927093755476,0.0028982173207940613,0.0,0.7779019004058837,-0.6282704339500725,-0.011209017365962137,0.0,-0.006899066877956828,0.009297698152279654,-0.9999329755965058,0.0,0.6275369354557263,0.21634015961329406,0.30409547314397983,1.0,-0.06638914285713785,-0.08725430204080976,-0.21827374584683465,1.5649999999999389
0.43441936972115924,0.37176744175149107,-0.12520090133517697,-1.6261904743751645,0.0616897333593881,1.990737662698354,0.1903307581397862,-0.06875112222549153,-0.31058952056683364,-0.0018537734251864476,-0.4481739454849532,-0.036135413093104474,0.14801770860064176,0.1303569192047924,0.6314457471273879,0.7754030833728541,0.0026596300144892957,0.0,0.7753753269691334,-0.6313844003146288,-0.011295497689545561,0.0,-0.007079451136319637,0.009194882499833468,-0.9999326654867431,0.0,0.6262810129088318,0.2147047852376938,0.3040323529387602,1.0,-0.06787028571428054,-0.08920094693876873,-0.22492109943769104,1.582999999999937
0.43348092726153076,0.3677543683076786,-0.12525135534997792,-1.6321861276990586,0.06123448163506672,1.992739559851026,0.19223263772278887,-0.07132336459241628,-0.3064889589896787,-0.004537731811135599,-0.456040300187471,-0.03243035328784243,0.15720420278698274,0.15092431177674212,0.633762848741982,0.7735105191240497,0.002622071718876997,0.0,0.7734826243070618,-0.6337017150043414,-0.011292174140763448,0.0,-0.007073140316413651,0.009184864203276993,-0.999932802220045,0.0,0.6253882849426575,0.21351737103732396,0.3040263559699793,1.0,-0.06893999999999471,-0.0906068571428502,-0.22972196591997623,1.5959999999999355
0.431991895967446,0.3614544737091577,-0.1252824007922587,-1.6412966942011173,0.06051988369757527,1.9959863624672392,0.19523802013756547,-0.0761928514071791,-0.31677742541315196,0.0007817392548930012,-0.4546815590739646,-0.04404201426709279,0.16361331314598365,0.1525297851603444,0.6373657294753178,0.7705434376414229,0.0029128163935977416,0.0,0.7705199367631238,-0.63730438342179,-0.01108588395808682,0.0,-0.006685933203547878,0.009310324871826856,-0.999934305916133,0.0,0.6240708674071247,0.21171609576849065,0.3041585061134118,1.0,-0.07058571428570884,-0.0927697959183602,-0.2371079143542612,1.6159999999999335
0.4307391326534541,0.35640841901447573,-0.12531529249170437,-1.6488765101858833,0.05996043423379343,1.9984217202627077,0.1976277869281881,-0.08017305981109656,-0.31521281995995426,-0.004067138359113098,-0.475493435261698,-0.03534716580808472,0.15774050227212771,0.14590045881291955,0.6402888437227193,0.7681166788774989,0.00277689316192327,0.0,0.7680915556152786,-0.6402275067396106,-0.011173571841241087,0.0,-0.006804894523659288,0.009287400394237366,-0.9999337166054754,0.0,0.6229069344856516,0.2101956691561669,0.3041100754244997,1.0,-0.07190228571428012,-0.09450014693876817,-0.24301667310168915,1.6319999999999317
0.42930316995766177,0.35068529291538264,-0.12538698148003338,-1.6575164505523092,0.05930486302469939,2.0012099668887418,0.20048337722254353,-0.08307245105329471,-0.3177658870929886,-0.0027440488428647726,-0.47301909622083055,-0.02988247228356827,0.15092940324560652,0.1571167327224588,0.6437299884765036,0.765235736628416,0.0025915678679843852,0.0,0.7652085985904692,-0.643669036343696,-0.011256962147768553,0.0,-0.006946251466006803,0.00922971183062958,-0.9999332787791866,0.0,0.6215781705402919,0.20843967058982604,0.30403020958914384,1.0,-0.07338342857142281,-0.09644679183672714,-0.24966402669254556,1.6499999999999297
0.428050298848968,0.34572159238601685,-0.12541787801192714,-1.6646500807219236,0.05878105655761789,2.003667604302029,0.20296866901270927,-0.0810286865780482,-0.33484794815674523,-0.0014488592481428151,-0.4664228700088752,-0.03524519392638059,0.16655395629159264,0.1618980862866406,0.646691501920891,0.7627339181593494,0.002796128358479636,0.0,0.7627095618950559,-0.6466299296755619,-0.011162667371106157,0.0,-0.006706213852663623,0.009351616010549235,-0.99993378479465,0.0,0.6205158380014638,0.20698314685909833,0.3041259898164189,1.0,-0.0746177142857084,-0.09806899591835964,-0.2552034880182593,1.6649999999999283
0.4265378449138109,0.3397342370493679,-0.12543474641363403,-1.673411518180187,0.0580826282646783,2.006535732893288,0.20589749069094723,-0.07940324331746369,-0.3292407368655499,-0.0008551102833885803,-0.4938263320117371,-0.035536241654305946,0.1533946047234873,0.1687866263238452,0.6501629215185292,0.7597769880863903,0.0028019204257261543,0.0,0.7597530954489295,-0.6501013810895744,-0.01114339097427523,0.0,-0.00664508763156485,0.009373967826033669,-0.9999339835896994,0.0,0.6191574764632806,0.20520966758550022,0.30415054778023604,1.0,-0.0760988571428511,-0.10001564081631861,-0.2618508416091157,1.6829999999999263
0.42517927075558837,0.33439099776795944,-0.125430913373803,-1.6813787905416921,0.057425956165433355,2.0090534726989544,0.20862067570159282,-0.07799131094555248,-0.3349661997628323,0.001731699830748335,-0.49522008556064817,-0.04771369838856503,0.15407657976232128,0.1730764215013016,0.6533144028741982,0.7570694223148997,0.0026320513145534534,0.0,0.7570437525496978,-0.6532532791906236,-0.011209676773994658,0.0,-0.006767237657690051,0.009316200657819615,-0.9999337042523309,0.0,0.617882573455951,0.20361378018926918,0.30409094670119363,1.0,-0.07741542857142239,-0.10174599183672658,-0.2677596003565436,1.6989999999999246
0.4236330165007021,0.32820294275939255,-0.12542840923384446,-1.6902065244123168,0.05669854883460372,2.0120577859539557,0.21175875681946824,-0.08600998535189118,-0.34532537733515495,0.00045098645371348834,-0.48590742375458756,-0.04285510327991995,0.17354234830587748,0.17994695298016086,0.6569109607859874,0.7539499443543992,0.0028666894561321004,0.0,0.7539277792496856,-0.656849610201886,-0.011056226954799745,0.0,-0.006452982085412284,0.009424414936197431,-0.9999347675850239,0.0,0.6165154850759097,0.20184013176044888,0.30420787264138877,1.0,-0.07889657142856508,-0.10369263673468555,-0.27440695394740006,1.7169999999999226
0.42227148906445794,0.32310807638051303,-0.12542852631844265,-1.6977154533386811,0.0561199729695995,2.0145555271764923,0.2144623228910893,-0.08995319749868748,-0.34769463334454914,0.000661822689755741,-0.5089474078038687,-0.047882642294326504,0.15620123444769324,0.18649301870059962,0.66024615001287,0.7510309149230847,0.00288671512025956,0.0,0.751009189037712,-0.6601845404323623,-0.011059722249538578,0.0,-0.006400551855295644,0.009470270948980744,-0.999934671318132,0.0,0.6152534063506049,0.2002022564373856,0.3041880951403412,1.0,-0.08021314285713636,-0.10542298775509353,-0.28031571269482797,1.7329999999999208
0.4204802633432713,0.31646615119241184,-0.12547999616661248,-1.7074607286744636,0.055317421390220195,2.0175292265128046,0.217895798822049,-0.09275999150030587,-0.35076654474868896,-0.004569931338680322,-0.5223068924920805,-0.03892374489316943,0.1540119791026287,0.16950588353538887,0.6640321117506115,0.7476863782384459,0.002679787660857383,0.0,0.7476624519541132,-0.6639709146199765,-0.011145823338070564,0.0,-0.006554405412575792,0.009404942295894392,-0.9999342912562297,0.0,0.6137462888506626,0.1982553107892631,0.3041443763068215,1.0,-0.08169428571427906,-0.1073696326530525,-0.2869630662856844,1.7509999999999188
0.41905505658777,0.3111528086210723,-0.12551361075573206,-1.7151014935005975,0.054692206892117054,2.020011269982281,0.22073189359120785,-0.09676317700520597,-0.35817363647016986,-0.0006447416150961998,-0.5047691483045765,-0.037360057239148606,0.17603766558314018,0.19615570165655616,0.6674936730591393,0.7445973703203942,0.002774786330645992,0.0,0.7445750721665504,-0.6674324061222475,-0.011076645126189593,0.0,-0.006395781654410793,0.009459809403485397,-0.9999348008660759,0.0,0.6124529477175145,0.19654280387181672,0.3041960742425758,1.0,-0.08301085714285034,-0.10909998367346047,-0.2928718250331123,1.766999999999917
0.41725047380096353,0.30472651403564677,-0.1255242298531579,-1.7243095442664567,0.05390565774499488,2.023039665194021,0.22416959626636596,-0.10365582124370515,-0.3494359539591543,-0.002637038759551577,-0.5204210980389423,-0.04111838944063413,0.14988121813730007,0.18988355221491043,0.6712019884127187,0.7412559797256801,0.00286533993497402,0.0,0.7412353688753928,-0.6711408288475682,-0.010993756553956702,0.0,-0.006226261041199166,0.009503105527024491,-0.9999354602467048,0.0,0.6110605690816384,0.19469223432294464,0.30423995618710753,1.0,-0.08440971428570734,-0.11093848163264396,-0.29914988120225455,1.7839999999999154
0.41558743095946654,0.29898642509784296,-0.125583269425045,-1.7327878448146976,0.05319539546205695,2.025574357345296,0.22731676407008267,-0.1037853247180557,-0.3502227127750414,-0.005898654360213506,-0.5265622250759964,-0.045186208749545535,0.15643161263130426,0.19591971952802173,0.6748238253529524,0.7379612328201621,0.002602016864439661,0.0,0.7379377201269188,-0.6747631659106399,-0.01110576631051449,0.0,-0.006440003850748166,0.009414743360797728,-0.9999349423626782,0.0,0.609650189543942,0.19284827631647655,0.30414800303602396,1.0,-0.08572628571427862,-0.11266883265305193,-0.30505863994968246,1.7999999999999137
0.41368001903241436,0.2923803499805245,-0.12566265271153473,-1.74218055122097,0.052445214090470156,2.028636954602259,0.23086780438220283,-0.11101322292502373,-0.37678558373728105,-0.0009920015939206023,-0.5152847575040531,-0.0439571809876257,0.18026299240973037,0.18918840338688356,0.6789286473733723,0.7341859254271069,0.0027686786945836607,0.0,0.7341648515239173,-0.6788675897121689,-0.011023308326581837,0.0,-0.006213711226136565,0.00951688962408842,-0.9999354072162265,0.0,0.608143389203991,0.19078738934244446,0.3042150619581925,1.0,-0.08720742857142132,-0.1146154775510109,-0.3117059935405389,1.8179999999999117
0.41194656803330637,0.286445262738243,-0.12567268209813207,-1.7505930090293538,0.051731625776074534,2.03131234673197,0.23420035835869613,-0.10853054806854866,-0.37062564916008733,-0.001033619169363583,-0.5317178750987579,-0.041308494099794944,0.16132892858137715,0.20710365883993526,0.6826542708823876,0.7307227137698639,0.002865122693702306,0.0,0.7307032220679351,-0.6825930634745324,-0.010966214351321897,0.0,-0.00605766566269067,0.009579871888469732,-0.9999357633074835,0.0,0.606761221566624,0.18895958463027449,0.3042697309233367,1.0,-0.08852399999999261,-0.11634582857141887,-0.3176147522879668,1.83399999999991
0.4099472297284468,0.279779733574558,-0.12571640683579735,-1.760327311656766,0.050877705498726396,2.0342006414263674,0.23789096099520118,-0.1139013738097741,-0.3675342518278919,-0.0038501787665246676,-0.5504351382477084,-0.05336218798426576,0.17208623680658644,0.20170392324267844,0.6868239694389656,0.7268059003053982,0.0026009972263308237,0.0,0.7267836538132325,-0.6867633620776814,-0.011061281971613216,0.0,-0.006253255796551949,0.00948769852613493,-0.9999354381001906,0.0,0.6051031644208607,0.1868200922136795,0.3041765149798011,1.0,-0.0900051428571353,-0.11829247346937785,-0.3242621058788232,1.851999999999908
0.4081351439324058,0.27370097933075554,-0.1257482975072439,-1.768850757126338,0.05013044207650418,2.0369326726270236,0.24129879159549655,-0.11741031992739227,-0.3880512871486201,-0.0017446751054097358,-0.522801894637716,-0.04609462499163412,0.1827787204801886,0.2074341705808098,0.6906186364670458,0.7232005204737068,0.0027664150387682745,0.0,0.7231808563475864,-0.6905579762880562,-0.010948849187219984,0.0,-0.006007959131871632,0.009562281796866537,-0.9999362315637469,0.0,0.6036943408148323,0.18493471941670633,0.30425493959081074,1.0,-0.09132171428570658,-0.12002282448978582,-0.33017086462625117,1.8679999999999062
0.4061258223790693,0.26725443760359,-0.12579245086028887,-1.7780370985746838,0.049328730498880195,2.039774822581377,0.24489808394740348,-0.11581281553417064,-0.38888381807340916,-0.004934786940347673,-0.5456912845716115,-0.04558288289897204,0.17212432661641835,0.21066513247569468,0.6946762591657648,0.7193038318307161,0.002763940360453145,0.0,0.7192846240485288,-0.6946157273222142,-0.010925560178155967,0.0,-0.005939035202124798,0.00957797148254412,-0.9999364931450134,0.0,0.6021485270086346,0.1828648302444404,0.30425392121047956,1.0,-0.09272057142856358,-0.12186132244896929,-0.3364489207953933,1.8849999999999043
0.4041887913109708,0.26107651175286933,-0.12588773060682354,-1.7868720152556998,0.04854982397137925,2.042302356582644,0.24842415527987957,-0.11917292563440765,-0.3878416646672869,-0.0046133212155275586,-0.5486240640329598,-0.046255063422813485,0.15239629115043252,0.2213081664469748,0.6986341608915516,0.7154610543316176,0.0025565350097391283,0.0,0.7154397419454745,-0.6985740379288441,-0.011001639786466963,0.0,-0.006085432979584693,0.009515351328290955,-0.9999362107627418,0.0,0.6006142659300125,0.18083615215404492,0.3042116683913108,1.0,-0.09403714285713485,-0.12359167346937726,-0.34235767954282126,1.9009999999999025
0.40209471656158086,0.25441865756142595,-0.12591902260965077,-1.796100904550383,0.04771961147813456,2.045212020802511,0.2522174586061693,-0.12830189487194626,-0.39720668875886145,-0.0008752167048922651,-0.5452593347980378,-0.04681163613223924,0.17657929458756147,0.21752436525675806,0.7030605831443482,0.7111109479636356,0.002789805763269617,0.0,0.7110931055765439,-0.7030003545040443,-0.010855582430356078,0.0,-0.005758399939214787,0.009616128898296133,-0.9999371834746177,0.0,0.5989685076499013,0.17861405460829968,0.30431866561410986,1.0,-0.09551828571427755,-0.12553831836733623,-0.34900503313367764,1.9189999999999006
0.3999530384997794,0.2477854288757695,-0.12590251086086712,-1.8055223978061863,0.046865907277101264,2.0480423086229886,0.25604998448172595,-0.12989868848457894,-0.3848958080436042,-0.00041816298156245835,-0.5553706425088184,-0.0446401378693984,0.1566504092653624,0.22009479521719064,0.7069936853116578,0.7072010913792344,0.00270040416763337,0.0,0.707182559593881,-0.7069335992227106,-0.010883960560358199,0.0,-0.005788253791054687,0.009604755039857013,-0.9999371204224166,0.0,0.5974091283245145,0.17662102933500026,0.30427514629784624,1.0,-0.09683485714284883,-0.1272686693877442,-0.35491379188110556,1.9349999999998988
0.3977714967088889,0.24109581612742725,-0.12591621221617075,-1.8150481183988108,0.04603900136307378,2.0507368919056295,0.25998310638048283,-0.13442198191901883,-0.3952724846405193,-0.0013218430084375272,-0.550990870598595,-0.05001517374849926,0.1630535379264039,0.22618925982901467,0.7112690570524345,0.7029017406941016,0.002493653975724662,0.0,0.7028808527013408,-0.7112088627691153,-0.011009419862355131,0.0,-0.005965146424620316,0.009583585830715904,-0.9999362839255099,0.0,0.5956980154175704,0.17445953056379007,0.3042075658032436,1.0,-0.09823371428570582,-0.12910716734692768,-0.36119184805024773,1.951999999999897
0.395559841834859,0.234166552565346,-0.12589282582097577,-1.8243780833484555,0.04522330544914372,2.053746374743923,0.2639498889850553,-0.13215657054175217,-0.3995365720689646,0.0037703254884369737,-0.545095289365318,-0.05570304698771897,0.1760366350223363,0.22992636564566807,0.7155309392533388,0.6985609814851778,0.0029626034004250667,0.0,0.6985461232767399,-0.7154698576906163,-0.010814032199663006,0.0,-0.005434712148962795,0.009807478561467825,-0.9999371366581622,0.0,0.5940975114629162,0.1723518296231464,0.30439314260491523,1.0,-0.09963257142856281,-0.13094566530611113,-0.3674699042193899,1.968999999999895
0.3934077738902943,0.22775054417146312,-0.12589745601335242,-1.8334618093948363,0.044342386612137505,2.0562979030062465,0.2677897957791682,-0.13473792561111012,-0.40707765699432824,-0.0008465824312529794,-0.5768495664563735,-0.0531436727183088,0.15353536855987543,0.24120033498832097,0.7196215128917244,0.694347236719076,0.002745896068195252,0.0,0.6943303372647768,-0.7195610301124434,-0.010865247282446883,0.0,-0.005568521834725115,0.009725611878627471,-0.9999372000471642,0.0,0.5924444948212789,0.1702586993313131,0.30432595193457496,1.0,-0.10094914285713409,-0.13267601632651913,-0.3733786629668178,1.9849999999998933
0.3910252572917665,0.22085294445340897,-0.12591973003874213,-1.8431899218927204,0.04343055706573624,2.059017911808638,0.2718960370561192,-0.14094830529257338,-0.4052910303384375,-0.0022268795800112168,-0.5581947662485809,-0.054569850904093234,0.15392967022643186,0.23499390317903926,0.7240388327252942,0.689740573660363,0.002540994623150177,0.0,0.6897216565200239,-0.7239786760672946,-0.010938922631139079,0.0,-0.005705502696272902,0.00967297002845742,-0.9999369384565265,0.0,0.59066933966063,0.16797605443181718,0.30425691648230496,1.0,-0.10234799999999111,-0.13451451428570263,-0.37965671913596016,2.001999999999892
0.38842460354986147,0.21338613584715008,-0.12596315696239788,-1.85324949692403,0.04253209511670064,2.062101126820511,0.2763334430358671,-0.14090463542921877,-0.416656020905817,-0.003400560608729935,-0.5608377511661865,-0.04929498837851602,0.15898537624075412,0.24104702883701568,0.7288213950819702,0.6846836839232912,0.0028937762888467874,0.0,0.684669415043968,-0.7287605761087087,-0.01079637505192643,0.0,-0.005283333488722397,0.009850098891053122,-0.9999375290182302,0.0,0.5889027297270935,0.16555888718215206,0.30439891252236584,1.0,-0.10382914285713381,-0.1364611591836616,-0.38630407272681655,2.01999999999989
0.3861861345708079,0.2071920624562637,-0.1260094772602878,-1.8618989786199012,0.04169504316377201,2.0644562147487546,0.2800221552900485,-0.1494216240965561,-0.4154830958536104,-0.004928046056094491,-0.5792263818610973,-0.05355626524153224,0.1583048855942954,0.24993534090350153,0.7327989982032562,0.6804256536915685,0.002702763754833854,0.0,0.680409571163825,-0.7327385763814729,-0.01085085491196764,0.0,-0.005402884802850505,0.009790670437267543,-0.9999374738493383,0.0,0.5873048979373613,0.16345808156529432,0.30434576397619034,1.0,-0.10506342857141938,-0.13808336326529408,-0.39184353405253025,2.0349999999998882
0.3834919577321323,0.19967035668775632,-0.12606493785430883,-1.8722906498573124,0.040660719927210355,2.0673855585626226,0.2845593036693414,-0.1454645676593428,-0.4168675593967574,-0.0032203975405598485,-0.5704040699554057,-0.049927286925658884,0.1703900938768947,0.23854837007845497,0.7376026873718854,0.675215621989126,0.002624176979294881,0.0,0.6751993598150657,-0.7375428686258826,-0.01082073683432612,0.0,-0.005370990943098286,0.009753434968651248,-0.9999380095598933,0.0,0.5853894879238585,0.16094641379752397,0.3043247850343296,1.0,-0.10654457142856208,-0.14003000816325303,-0.39849088764338664,2.0529999999998862
0.3809931896660772,0.19292031955890288,-0.1260784726790377,-1.881452297366266,0.03979821583962989,2.0700467981503636,0.28861064897167715,-0.15431130675451094,-0.41520587377736745,-0.005347991572795762,-0.5702149293458065,-0.058194378260360516,0.15964214724379833,0.2549315269571703,0.7419101900690753,0.6704792329053942,0.0027595317484802456,0.0,0.6704649822854004,-0.7418501214811658,-0.01076344222939247,0.0,-0.005169605057460225,0.009835866245971436,-0.9999382635536761,0.0,0.5837144073284808,0.15870437804318205,0.304370955397312,1.0,-0.10786114285713337,-0.141760359183661,-0.40439964639081455,2.0689999999998845
0.3780911008957633,0.18529527157428155,-0.12621011020278503,-1.891991825446663,0.038794753835979114,2.0728301377576157,0.29330096548970713,-0.16355797484468337,-0.4189977623317574,-0.009987476927647438,-0.581333458753756,-0.0531261960472369,0.15207268480511438,0.2618009074188227,0.7469294889083476,0.6648839688230932,0.0025285375960389742,0.0,0.6648674313307325,-0.7468696362297975,-0.010853208504955535,0.0,-0.005327738966176998,0.00978791222576482,-0.9999379040579315,0.0,0.5817282180081467,0.15604014994276746,0.30430152804220695,1.0,-0.1093422857142761,-0.14370700408162004,-0.41104699998167116,2.086999999999883
0.37545965444896906,0.1783502854448122,-0.12626648567628584,-1.9011710105221642,0.03789204707041545,2.0754871912474346,0.2974749343465031,-0.16216021938347744,-0.43308494529386865,-0.0019825661290706975,-0.5715981375653207,-0.057727759504762055,0.16526873375787324,0.2604296954837349,0.7513406115283354,0.6598940276211255,0.0028115261700490746,0.0,0.6598814131883541,-0.751280619447212,-0.010709727949973404,0.0,-0.004955135790726872,0.00990211805600033,-0.9999386954645273,0.0,0.5800433870824744,0.15371669170253516,0.30442855414464,1.0,-0.11065885714284739,-0.14543735510202802,-0.41695575872909907,2.102999999999881
0.37247278415974433,0.17060578288783804,-0.12625138152933524,-1.9117405161472805,0.036796435024191894,2.078316098780628,0.30224507509194454,-0.1687746649322093,-0.4296616370343162,0.002866459980828505,-0.5877060546103782,-0.0527660523143436,0.14038528215715523,0.26774966168908126,0.7562491289914376,0.6542635653149974,0.0026812128241345285,0.0,0.6542500967056734,-0.7561896610512481,-0.010712347129540714,0.0,-0.004981288914424231,0.009855576686039189,-0.9999390253255128,0.0,0.5780107147563475,0.15110647396015411,0.30438677761817934,1.0,-0.11213999999999008,-0.14738399999998697,-0.42360311231995545,2.120999999999879
0.3699442539407579,0.16413446571114135,-0.1262545371622617,-1.9206357683972983,0.03590600779650757,2.080591622773561,0.30629290321227015,-0.16630349746362832,-0.42230929697220254,-0.00031370873724021885,-0.5842702559680847,-0.06616513783021817,0.15423814893908133,0.2630453415595215,0.7603919533659408,0.6494450214186821,0.002447102781793987,0.0,0.6494291721578996,-0.760332692920375,-0.010802468605102278,0.0,-0.005155096458262398,0.009803518885691379,-0.9999386561174459,0.0,0.576263167118993,0.14890399762328324,0.30430209428623634,1.0,-0.11337428571427566,-0.14900620408161946,-0.42914257364566916,2.1359999999998776
0.3672093648636325,0.15696788601286873,-0.12624468507127695,-1.9298552107772036,0.034993690499422546,2.0832166129922114,0.3106039983192722,-0.17210080000652608,-0.4375754198745296,-0.0011088765735258403,-0.579496096934942,-0.05724260447307696,0.1626277770015744,0.2647163910093761,0.7647903750766865,0.6442578172847273,0.002879923399780341,0.0,0.6442474768528645,-0.7647305593072533,-0.010635183662804956,0.0,-0.004649524298495411,0.009989261810568556,-0.9999392964436778,0.0,0.5745165678411961,0.14659440444720218,0.3044955490947219,1.0,-0.11469085714284694,-0.15073655510202744,-0.43505133239309707,2.151999999999876
0.36398939738629443,0.1490466457501917,-0.1262566755291425,-1.9405925656350558,0.03386790507003363,2.0859094949234884,0.3155852501434339,-0.1796414913053749,-0.4482210157444566,-0.009528912945391436,-0.6028007621527209,-0.061388697800588574,0.14970828915061882,0.26953043942946486,0.7698517375227499,0.6382022461140392,0.0026348034853788324,0.0,0.6381896415030864,-0.7697923680431583,-0.010697592340190902,0.0,-0.0047990682421189534,0.009917255280066678,-0.9999393066540176,0.0,0.5723845221576744,0.14385835238074884,0.3044211751734476,1.0,-0.11617199999998967,-0.15268319999998645,-0.4416986859839537,2.1699999999998743
0.36086038599337583,0.14146880690620714,-0.12627501336818908,-1.9506627171684694,0.03286803956488378,2.0885125734247505,0.32027875722650745,-0.1905946558781123,-0.4494312790356434,-0.0010793373893294403,-0.5822061081439811,-0.05561678833330016,0.1555603306929563,0.27760718212220875,0.7749306809026841,0.6320253785889405,0.002665992576219681,0.0,0.6320135332583616,-0.7748710089902398,-0.010703275477052281,0.0,-0.00469903184895426,0.009979432076049913,-0.9999391631670009,0.0,0.5702894119242031,0.14110819296603766,0.3044405797098474,1.0,-0.11765314285713237,-0.15462984489794543,-0.44834603957481006,2.1879999999998723
0.35786259303084905,0.1342800458545096,-0.1262887275790266,-1.960079013527771,0.031885670154258035,2.0910843617950863,0.3246971025529813,-0.18595348185786315,-0.45132030739598783,-0.0009929475150327017,-0.5957411579221871,-0.058307536229778585,0.1572553738368056,0.2723897334155503,0.7791410607677711,0.6268268211473925,0.002844401015228232,0.0,0.6268175853312419,-0.779081432541704,-0.010610517870751924,0.0,-0.004435022557911283,0.010050204222766937,-0.9999396601645479,0.0,0.5685631086816629,0.13879938303442316,0.30449299975050814,1.0,-0.11888742857141794,-0.1562520489795779,-0.45388550090052376,2.2029999999998706
0.3543810298622753,0.12616879806936365,-0.12633043733975016,-1.9709479190830144,0.03068198769380752,2.0937090443933535,0.3297951956648601,-0.19961638582470356,-0.4474584250221239,-0.004751834581445009,-0.6079654449475737,-0.06173038169075557,0.14586234152521202,0.2835687662572234,0.7842706677550496,0.6203979742929964,0.0025729542171480163,0.0,0.620386361586395,-0.7842118447422535,-0.010643863243894599,0.0,-0.004585778312539868,0.009944086893574816,-0.9999400410890251,0.0,0.5663545859842275,0.13592994479132958,0.3044104743106374,1.0,-0.12036857142856064,-0.15819869387753685,-0.46053285449138015,2.2209999999998686
0.35124572548498223,0.11878990841943445,-0.12643069142031083,-1.9803638377158446,0.029658936623419875,2.0961879067883946,0.3343657314300286,-0.20160738647489304,-0.46702844384093956,-0.003084815437312563,-0.585245237667865,-0.06879454194975676,0.16564741960696602,0.2899958679070849,0.7888777097155419,0.6145278778675886,0.002862400867796685,0.0,0.6145202875936429,-0.7888191242659189,-0.010485810859618158,0.0,-0.004185987142672709,0.010031218991982865,-0.9999409243336211,0.0,0.5644965835995472,0.13337278676398107,0.3045448217807417,1.0,-0.12168514285713192,-0.15992904489794482,-0.46644161323880806,2.236999999999867
0.3477593091753639,0.11104729823209536,-0.12645946826500706,-1.99058645095143,0.028566907191238992,2.098633753901887,0.33925920604717713,-0.20021474445113366,-0.45442950206920035,-0.006144640950133518,-0.6002730272063383,-0.07100241990691365,0.14141010500358359,0.28694626661183054,0.7937881187859682,0.6081725144107542,0.0027133172949680845,0.0,0.6081637079212469,-0.7937296393616402,-0.010531422863483962,0.0,-0.004251363417119125,0.010010052174342518,-0.9999408606335489,0.0,0.5623993200922038,0.1306032001546445,0.3044965110634442,1.0,-0.12308399999998891,-0.1617675428571283,-0.47271966940795024,2.253999999999865
0.34425570812671646,0.10321037657072266,-0.12647143391956928,-2.000884063746535,0.027417487428618714,2.1010510177618493,0.34420487261273147,-0.20442638715174444,-0.4731190939114019,-0.00010807445780947576,-0.5875064583731732,-0.06652229527614535,0.1481760353609304,0.29835669102391815,0.7986544747823877,0.6017684947889892,0.002540765764677904,0.0,0.6017583480752396,-0.7985964579961407,-0.010551525907915582,0.0,-0.004320612508243282,0.009956142078124786,-0.9999411020367519,0.0,0.5602531731056982,0.12783949937039776,0.3044473058219467,1.0,-0.12448285714284589,-0.16360604081631178,-0.4789977255770924,2.270999999999863
0.34075721763313627,0.09525889006987433,-0.12644173424727478,-2.010962305049664,0.026368539205656787,2.103615339422908,0.3491680327643471,-0.20933652953803936,-0.455483629421943,0.0019042501983167848,-0.5989824457679134,-0.052002354629043276,0.14295329244677155,0.2949111719687261,0.803757678125411,0.5949339702426033,0.002812971210247739,0.0,0.59492731397724,-0.803699095043465,-0.01048821297220004,0.0,-0.003979088378023077,0.010103689639963137,-0.9999410394174943,0.0,0.558044413052098,0.12500075934655738,0.30454182618367387,1.0,-0.12596399999998859,-0.16555268571427076,-0.4856450791679488,2.288999999999861
0.3373052821650894,0.08782263225960742,-0.12647005381341322,-2.0207224196229614,0.025354114305642148,2.1057822016384757,0.3539581237874143,-0.2225955885230813,-0.4641682408110732,-0.005435413871302653,-0.6011594812700539,-0.06489752387194313,0.13414310590126488,0.2960229366649407,0.8081443573132734,0.5889623360228022,0.002609864074737997,0.0,0.5889536032145217,-0.8080853960252516,-0.010601551421952144,0.0,-0.0041350010581158725,0.010104867361143813,-0.9999403949345496,0.0,0.5560954692119751,0.122500889131005,0.3044723160776988,1.0,-0.12719828571427416,-0.16717488979590323,-0.4911845404936625,2.3039999999998595
0.3332799523149455,0.07926920546556696,-0.12651665204842596,-2.0314786121579735,0.02409622943418651,2.108355392855399,0.35926028184446107,-0.2152583136195074,-0.4829715856699228,-0.0015872132657644646,-0.5893741093824163,-0.07118715525313776,0.1514629110640461,0.3011101275447579,0.8133357303581447,0.5817713025423665,0.002808587215962203,0.0,0.5817656697541002,-0.8132773660078381,-0.010458409827709748,0.0,-0.0038003154626367053,0.01014033325120002,-0.9999413639028737,0.0,0.5538533676449283,0.11945422607849705,0.3045757105683632,1.0,-0.12867942857141687,-0.16912153469386218,-0.4978318940845189,2.3219999999998575
0.32967943623432644,0.07170907705290676,-0.12652587530092135,-2.0411639887204043,0.02302255926500946,2.1105637014611176,0.36403428957035144,-0.23570951986441963,-0.4656622471194754,-0.00169880362824831,-0.6126800055086111,-0.06351784155919843,0.12576768588241458,0.29347762102353125,0.8179333318571465,0.5752895821890529,0.0027763578696415603,0.0,0.5752840519721778,-0.8178749529631302,-0.010467462120229948,0.0,-0.003751180569535051,0.010159076166757444,-0.999941359188514,0.0,0.5517775564331376,0.11676558936010253,0.3045611349824542,1.0,-0.12999599999998815,-0.17085188571427015,-0.5037406528319468,2.3379999999998557
0.32568160580464617,0.06364181777527268,-0.1266031230145806,-2.051607876268588,0.02182539228469287,2.1127438730658974,0.36911614181546215,-0.232815469179125,-0.48043753168710085,-0.005105817466251376,-0.6058320735725444,-0.07060700048830167,0.1336679997373833,0.2998113968160079,0.8228800483700922,0.5681928393568287,0.0024637774387330147,0.0,0.5681843330473393,-0.8228219848450395,-0.01054949460532666,0.0,-0.003966973427756593,0.010081042463221335,-0.9999413161304407,0.0,0.5494939172351211,0.11377475552182865,0.30446168006128316,1.0,-0.13139485714284513,-0.17269038367345363,-0.510018709001089,2.354999999999854
0.32161568235524457,0.05540306777020518,-0.12669787380840905,-2.0617106939336436,0.02061474917826272,2.1151686202456443,0.3743011082511492,-0.24322526453530605,-0.4692688304337289,-0.0014297208693068377,-0.5970275452287532,-0.07230181677697058,0.13279302698231998,0.30759899224638243,0.8278579218272845,0.5609134386665302,0.0028499986503130116,0.0,0.5609101112705671,-0.8278004507817824,-0.010344450740668828,0.0,-0.003443177560446209,0.010162524212765506,-0.9999424321579278,0.0,0.547363906677869,0.11079428912277306,0.3046157765947466,1.0,-0.13279371428570214,-0.1745288816326371,-0.5162967651702313,2.371999999999852
0.3175196204696618,0.04721242810296525,-0.12668456809487713,-2.0721413055032447,0.019445469818656375,2.11731073731936,0.3794900219960702,-0.24760695791582402,-0.48734011543826133,-0.001703657643521927,-0.6097898153793007,-0.06557358026209724,0.1163305566495914,0.30328286150976913,0.8330262904589293,0.5532097833044882,0.00262334931812092,0.0,0.5532043212841123,-0.8329685176536243,-0.010448655976558256,0.0,-0.0035952005345632476,0.010155448831315667,-0.9999419690122776,0.0,0.5448915750503109,0.1076736106128477,0.30453900713715787,1.0,-0.13427485714284482,-0.17647552653059606,-0.5229441187610876,2.38999999999985
0.31357126959783577,0.039435879499159214,-0.12668479993352658,-2.0818409103909215,0.01832331650380218,2.11936024694211,0.38441442964026595,-0.2495154283771262,-0.501806973538145,-6.677524337394568e-05,-0.5857676458772776,-0.07454611326077565,0.13797811988539366,0.30400726747258106,0.8370451435530006,0.5471099560298721,0.0026211769372520106,0.0,0.5471049300431909,-0.8369874440784707,-0.010438432767054483,0.0,-0.003517146022975759,0.010171694115485228,-0.9999420814840596,0.0,0.5430040940828627,0.1052347850320364,0.3045464707205688,1.0,-0.13542685714284472,-0.1779895836734531,-0.5281142826650872,2.403999999999849
0.3089889257342598,0.030614226553202655,-0.1267026837948245,-2.092684113842028,0.016998498325220605,2.121661899746333,0.3899213706218138,-0.256661749771507,-0.4953489103072512,0.002459446786753887,-0.60503175921084,-0.07472489848953733,0.11940132073811348,0.2936559162211961,0.8424842139940267,0.5386960219011973,0.002773456309373495,0.0,0.5386934804722903,-0.8424270437983258,-0.010332321862576889,0.0,-0.003229608264530559,0.010199057258817645,-0.9999427727932678,0.0,0.5404617517723052,0.10184837590452352,0.3046204554107962,1.0,-0.13699028571427313,-0.18004437551018757,-0.5351309336776578,2.422999999999847
0.3050627740813826,0.023250737927350953,-0.1267393694114226,-2.1019233506206088,0.01592082306901293,2.123407007006454,0.3946112890478051,-0.26367492333120524,-0.4784078536850244,0.00013113452774350816,-0.6130091566133692,-0.06574141083849915,0.11052629907097594,0.29822821672933536,0.8468398331433512,0.5318238060301681,0.002546221226855826,0.0,0.5318191451588766,-0.8467825516144429,-0.010414126224671104,0.0,-0.0033824496604688004,0.010173421980584546,-0.9999425286082693,0.0,0.5383393642167378,0.09911283299531765,0.3045523803579769,1.0,-0.1382245714285587,-0.18166657959182003,-0.5406703950033716,2.437999999999845
0.3002700139843716,0.014268213020068542,-0.1268054005962474,-2.11272199201484,0.014590257468489642,2.1257219791791897,0.4001837088135164,-0.273092691515392,-0.491704967856351,-0.0036315788871947507,-0.601697023357657,-0.07077083705759132,0.1299830542256923,0.3024537671969365,0.8519993581381711,0.5235165315397103,0.0028778182681735514,0.0,0.5235163075256077,-0.8519426069162404,-0.0102575424309229,0.0,-0.0029183132245119703,0.010246201631837593,-0.9999432477896151,0.0,0.5359242111536139,0.09582488382490323,0.3046793216639574,1.0,-0.13970571428570142,-0.18361322448977901,-0.547317748594228,2.455999999999843
0.295878794860271,0.006360370289362419,-0.12685571884749802,-2.122508654458248,0.013426352352190342,2.127511866039769,0.40512991283394345,-0.27871965718233127,-0.5023042761084926,-0.0004492410291110816,-0.6068319467625,-0.06050415642850792,0.1007893240837164,0.31370043782659085,0.8565757940454914,0.5159955945748831,0.00268371679895696,0.0,0.5159936796872813,-0.8565189086911107,-0.010326106651423056,0.0,-0.003029629687125668,0.01023007087123863,-0.9999430818771278,0.0,0.533643220228895,0.09284473483015036,0.3046208069132337,1.0,-0.13998000000000002,-0.18397371428571432,-0.5485487400000001,2.4719999999998414
0.2909206881248084,-0.0025336441749042446,-0.12685792389575334,-2.1333331565073537,0.012137268998948137,2.1295455233985705,0.41071872919517927,-0.27247039407820556,-0.5046232225341108,0.008768718704345193,-0.584049094684573,-0.07419447418139283,0.11842925898302636,0.31135375138154814,0.8610715471947419,0.5084582357246991,0.0026000070362165156,0.0,0.508455851555264,-0.8610145176799798,-0.010363120414803976,0.0,-0.003030628467450558,0.010245574180041683,-0.9999429201213507,0.0,0.5313807806941754,0.08991514680951894,0.3045939441337444,1.0,-0.13998000000000002,-0.18397371428571432,-0.5485487400000001,2.4879999999998397
0.2867923060063661,-0.009954572196270137,-0.12682839916741592,-2.142166848910072,0.010993382701368168,2.131313100441726,0.41528884352465373,-0.2769810214681764,-0.49288066827341914,0.002591434362626907,-0.5836844410237194,-0.06735011664007101,0.11305320129126659,0.3101013814314638,0.8659826388706109,0.5000464767871298,0.0028874086444224388,0.0,0.5000480207284974,-0.8659263442222382,-0.010212259722020504,0.0,-0.0026063714630182866,0.010287680670317448,-0.9999436836413449,0.0,0.5289255549466175,0.08668110663056193,0.3046979239467851,1.0,-0.13998000000000002,-0.18397371428571432,-0.5485487400000001,2.5059999999998377
0.28168631076285355,-0.01875032001223374,-0.1268516968951647,-2.1529471538342957,0.009659301667873637,2.1330981582968476,0.42077729804676167,-0.2877738754618521,-0.49195475265034655,-0.0025920734635817106,-0.5959087356350165,-0.073245506474117,0.09320435881416096,0.2920692368284565,0.8706206558965798,0.4919287247901184,0.0025593268227347703,0.0,0.49192718590257367,-0.8705643354769693,-0.010301867147546674,0.0,-0.002839780388719737,0.010228217699555238,-0.9999436580178078,0.0,0.5264550550367372,0.08353281237223636,0.3045911366793264,1.0,-0.13998000000000002,-0.18397371428571432,-0.5485487400000001,2.522999999999836
0.27704081372607464,-0.026655651494089563,-0.12686805196323891,-2.1621118533762704,0.00849431209308945,2.134790439116976,0.42560108140446246,-0.2925549609606767,-0.4917374611913175,-0.0010021076284488961,-0.5624247614055169,-0.07338281642009276,0.123165596759057,0.29505207599415795,0.8752000486991411,0.4837325958601443,0.0028978199797423843,0.0,0.48373538300263824,-0.8751441170445936,-0.01017843478819429,0.0,-0.0023876765445329795,0.010310143182287297,-0.9999439984060505,0.0,0.5241612461611637,0.08038780311759885,0.3047376139305873,1.0,-0.13998000000000002,-0.18397371428571432,-0.5485487400000001,2.539999999999834
0.27113054060906605,-0.03633857500906412,-0.12693483032266747,-2.1736716741363984,0.007016112338211248,2.136752309178398,0.4315523337349919,-0.2928683375974062,-0.48556102185138483,-0.0036795114768982504,-0.5695397750955439,-0.07417731922943621,0.08662872567260647,0.2953243547543947,0.8802666140768892,0.4744508410381648,0.0027990142899269018,0.0,0.4744532005697447,-0.8802109441021989,-0.010178470074102643,0.0,-0.0023655062197727172,0.01028796675214979,-0.9999442795078287,0.0,0.5214937422983679,0.07682291547535088,0.30470358009582926,1.0,-0.13998000000000002,-0.18397371428571432,-0.5485487400000001,2.558999999999832
0.26700923243169145,-0.04306601733184107,-0.12693308181012714,-2.181769503424481,0.006060933031049208,2.1379652134047142,0.43562435003936617,-0.29547702824454164,-0.4732985927927356,0.0023104775603320898,-0.5647834878850405,-0.05878503565198795,0.09566037469113282,0.2849137647121261,0.8838710454650682,0.46770299455297615,0.0025750292958106845,0.0,0.46770317924455457,-0.8838146888485187,-0.010299456361400307,0.0,-0.002541286794287667,0.010307939109941287,-0.9999436425382856,0.0,0.5194719699524243,0.07426000688818657,0.30462728005078343,1.0,-0.13998000000000002,-0.18397371428571432,-0.5485487400000001,2.5729999999998303
0.2613995260874755,-0.052295393455339456,-0.12691900112202692,-2.192310832968416,0.00464834500752734,2.1398599215974015,0.4411671413758079,-0.29518046608611503,-0.47549481784357434,-0.0014311135165378348,-0.547109336791309,-0.07383935933961254,0.09636471588644403,0.28342344500891253,0.8884036403404704,0.45903260922123135,0.0029635118621608816,0.0,0.45903775481170495,-0.8883482398169591,-0.010123802287096601,0.0,-0.0020145636192510086,0.010354585995375094,-0.999944360493267,0.0,0.5170522908817403,0.07101093920009241,0.30476631491474326,1.0,-0.13998000000000002,-0.18397371428571432,-0.5485487400000001,2.5909999999998283
0.2568831886355194,-0.05945968045262378,-0.12691778091915035,-2.2008092261355294,0.003551202626215111,2.1410102971722407,0.44544059696322424,-0.30289925064016093,-0.4719843405440751,0.00027001787469631863,-0.5646935423686541,-0.07613358216068287,0.08212880501165622,0.2788056728410427,0.8923629846716682,0.45128888846719717,0.0027183883317757006,0.0,0.4512918530033153,-0.8923074909374619,-0.010185869179121015,0.0,-0.002171173110007696,0.010316477753750608,-0.9999444266028401,0.0,0.5147437070070238,0.06807312403846509,0.30470612688508325,1.0,-0.13998000000000002,-0.18397371428571432,-0.5485487400000001,2.6069999999998266
0.25135851429943223,-0.06802053890907149,-0.12694423740985297,-2.2108540150123663,0.00225976601036708,2.1424608389906354,0.4505792350399606,-0.3082301781253267,-0.4732930161786336,-0.001998717691198994,-0.5422885356616598,-0.0719296779827477,0.08852459712095777,0.28722957215137046,0.8967983203807075,0.4424103269342441,0.002573341307704039,0.0,0.4424122577573946,-0.8967427508343808,-0.010226432085568105,0.0,-0.0022166966775208907,0.010309723349868738,-0.9999443963842636,0.0,0.5121901043070568,0.06474607986604511,0.30465509485762776,1.0,-0.13998000000000002,-0.18397371428571432,-0.5485487400000001,2.6249999999998246
0.24664211405462758,-0.0751761326472108,-0.12698654535451928,-2.2189277985258737,0.0011402062832883007,2.1437680340111314,0.4548119581603505,-0.31442752496778326,-0.46441974566416244,-0.0018200886177285505,-0.5410181665354684,-0.07024784224889606,0.07948101949379464,0.2871233026763616,0.9004493145123335,0.43492956555870643,0.0028375867198088827,0.0,0.43493494838955027,-0.9003945972188927,-0.010094893244382865,0.0,-0.001835655123534341,0.010324304110357695,-0.9999450180459445,0.0,0.5101748942964615,0.06194086617821167,0.30474966367173356,1.0,-0.13998000000000002,-0.18397371428571432,-0.5485487400000001,2.639999999999823
