nelsonifechukwu/NELSON_IML_WORK/CNN-GradCAM/train2dof/data_sample_2022-02-21-16-03-22/robot_state.csv
position_joint1,position_joint2,position_joint3,position_joint4,position_joint5,position_joint6,position_joint7,velocity_joint1,velocity_joint2,velocity_joint3,velocity_joint4,velocity_joint5,velocity_joint6,velocity_joint7,ee_T_00,ee_T_10,ee_T_20,ee_T_30,ee_T_01,ee_T_11,ee_T_21,ee_T_31,ee_T_02,ee_T_12,ee_T_22,ee_T_32,ee_T_03,ee_T_13,ee_T_23,ee_T_33,v_x,v_y,time
0.465085027716,0.547851337252,-0.123899019579,-1.35585900835,0.0795205601245,1.89409314601,0.159146046392,0.00210454380024,-0.00143920842677,0.000949629574481,0.000284922066106,-0.000125108414525,-0.000108013311769,-0.00146723854627,0.573730097143,0.819030497235,0.00188868518883,0.0,0.81898584949,-0.573671113002,-0.0120157955396,0.0,-0.00875798747952,0.00844079249742,-0.999926022602,0.0,0.661643092294,0.260948572815,0.303148739601,1.0,0.0,0.0,0.0
0.465082252405,0.54785101248,-0.123899011837,-1.35585711282,0.079521170474,1.89409314617,0.159149903201,-0.000571589307789,-0.00127740046158,0.00051489153107,0.000498611835811,-4.45331317275e-05,-7.0549091424e-05,1.24971610701e-05,0.573735581406,0.819026650552,0.0018908241671,0.0,0.818982027766,-0.573676584508,-0.0120150524385,0.0,-0.00875609518682,0.00844217664503,-0.999926027489,0.0,0.66164422409,0.260947069769,0.303149872682,1.0,-0.00018,-0.000236571428571,0.01
0.46508434463,0.547849167087,-0.123899049836,-1.35585978758,0.0795211703115,1.89409234523,0.159153160372,0.00111839417013,-0.00135885711493,-0.000443676120418,-0.000398627660922,-0.000159710093943,-0.000323532371819,0.00175594647405,0.573736698824,0.819025870733,0.00188954870375,0.0,0.818981227711,-0.57367770383,-0.0120161427452,0.0,-0.00875770842614,0.00844176951868,-0.999926016799,0.0,0.661642962529,0.26094808406,0.303149838703,1.0,-0.0005,-0.000657142857143,0.026
0.465078629156,0.547841386915,-0.123899062495,-1.35587370616,0.0795190439931,1.89409214556,0.159150109099,-0.0009399948642,0.000777380886517,0.000760396697945,-0.00339285926119,-0.00396701767316,0.000181312416424,0.00173012981846,0.573739070032,0.819024223291,0.00188363537379,0.0,0.818979507523,-0.573680104545,-0.0120187689925,0.0,-0.00876322752011,0.00843845858194,-0.999925996392,0.0,0.661641550309,0.260942385591,0.303148705214,1.0,-0.00084,-0.001104,0.043
0.465088678636,0.547772691839,-0.123902219812,-1.35594608232,0.0795218823881,1.89410560533,0.159151971916,0.00203624064636,-0.00625465273117,-0.000204809003464,-0.00996567841103,-0.000364574774455,0.000225073836903,0.00317712897939,0.573739246011,0.819024071076,0.00189617667667,0.0,0.818979451983,-0.573680161748,-0.0120198231144,0.0,-0.00875689411552,0.00844933666225,-0.999925960017,0.0,0.661627405403,0.260940895862,0.303164201596,1.0,-0.00114,-0.00149828571429,0.058
0.465081084376,0.54765176976,-0.123904751789,-1.35609642966,0.0795227126681,1.89412910266,0.159145321932,-0.000118632884803,-0.00580777780028,-0.00188746542563,-0.00850609238762,-9.96932233244e-06,2.20154073811e-05,2.51646441292e-05,0.573750161915,0.81901642051,0.0018977720932,0.0,0.81897170112,-0.573690952532,-0.0120328986203,0.0,-0.00876657566024,0.00845826201894,-0.999925799725,0.0,0.661603335939,0.260919877781,0.3031804318,1.0,-0.00146,-0.00191885714286,0.074
0.46506808833,0.547483765628,-0.123899749255,-1.35633264905,0.0795156625014,1.89420762545,0.159139329148,-0.000599746093687,-0.00376471567412,0.000641568045423,-0.0204066656513,0.000173069344859,0.00567523908276,5.55948728764e-05,0.573763672574,0.819006922104,0.00191219283253,0.0,0.818962288101,-0.57370429968,-0.0120371964681,0.0,-0.00876168266982,0.00847268299586,-0.999925720521,0.0,0.661571912072,0.260892534597,0.303193654194,1.0,-0.00184,-0.00241828571429,0.093
0.46504596974,0.547297050616,-0.123899749251,-1.35654645754,0.0795127946589,1.89433674753,0.159126016313,-0.00292435422818,-0.00805439770674,0.000689669384645,-0.0123416025211,-0.000352934730379,0.00553711194404,-0.000761740966259,0.573782363924,0.818993608641,0.00200368577858,0.0,0.818950154117,-0.57372258312,-0.0119912297202,0.0,-0.00867134767024,0.00852143897646,-0.999926093673,0.0,0.661559513089,0.260863300491,0.303235356292,1.0,-0.00218,-0.00286514285714,0.11
0.465028720098,0.547103416188,-0.123899749359,-1.35677845571,0.0795114748353,1.89445774522,0.159119774271,-0.00293125567418,-0.0189785838235,-0.00055558143335,-0.0146320499818,0.000188912882195,0.0093987962168,4.23760574183e-05,0.573804182302,0.818978130888,0.00208048080317,0.0,0.818935619299,-0.573744019355,-0.0119582021397,0.0,-0.00860000819577,0.00856561115013,-0.999926332369,0.0,0.661540134647,0.26083491277,0.303272592879,1.0,-0.0025,-0.00328571428571,0.126
0.465004911626,0.546905748621,-0.12389998125,-1.3570882498,0.0795032711761,1.89458065328,0.159097818495,-0.000188797826522,-0.0134967608597,-0.00108312535666,-0.0250707796383,8.89892666074e-05,0.00857864588002,-0.00155541800485,0.573821086366,0.818966250926,0.0020946567662,0.0,0.818923841636,-0.573760780267,-0.0119605822527,0.0,-0.00859364676018,0.0085787638355,-0.999926274305,0.0,0.661505525233,0.26079186978,0.303275811707,1.0,-0.00282,-0.00370628571429,0.142
0.464965355882,0.546638848597,-0.123899798026,-1.3574811033,0.0794981042408,1.89472825281,0.159041289002,-0.000895208673305,-0.0182805304986,0.000254712369076,-0.022586210707,0.000430879801949,0.00612156658913,-0.00388896891895,0.57382765938,0.818961570913,0.00212358159342,0.0,0.818919373369,-0.573767067278,-0.0119649207921,0.0,-0.00858053434667,0.00860501027371,-0.999926161388,0.0,0.66146243377,0.26073187128,0.30329065457,1.0,-0.00316,-0.00415314285714,0.159
0.464919943071,0.546322901594,-0.123900152719,-1.35798975751,0.0794802523197,1.89490785986,0.158928007307,0.000336033298214,-0.0162027186925,0.000104953319662,-0.0254627534801,0.000287691386772,0.0196371230024,-0.00220019704588,0.573796002646,0.818983760899,0.00211981876289,0.0,0.818941378382,-0.573735293922,-0.0119824113864,0.0,-0.0085973510265,0.00861163285578,-0.999925959926,0.0,0.661402766881,0.260654698605,0.303287870764,1.0,-0.00354,-0.00465257142857,0.178
0.464869653184,0.54603262633,-0.123905126714,-1.35847983889,0.0794600543735,1.89507193361,0.158896623148,-0.00407799480394,-0.0168143064588,0.00543989631454,-0.0317414150887,-0.00201014536529,0.0128988468871,-0.00427661429675,0.573836927908,0.818955155934,0.00209275872941,0.0,0.818912331789,-0.573776238623,-0.0120069869529,0.0,-0.00863257484398,0.00860400409117,-0.999925722124,0.0,0.661346003338,0.260572057153,0.303274527913,1.0,-0.00386,-0.00507314285714,0.194
0.464807142062,0.545701197335,-0.123905442434,-1.35907770807,0.0794106946921,1.89526641669,0.158811508705,-0.00547073346053,-0.0212223187418,-0.00168614242879,-0.0383182062571,-0.00452055615718,0.0106639470221,-0.00809335107674,0.5738388413,0.81895398922,0.00202352586057,0.0,0.818910331535,-0.573778514543,-0.012034618981,0.0,-0.00869491096481,0.00856318291271,-0.999925532438,0.0,0.661275325689,0.260469114634,0.303241435872,1.0,-0.0042,-0.00552,0.211
0.464752187782,0.545388438553,-0.123905809372,-1.35963177055,0.0793515014813,1.8954545758,0.158727169994,1.73494683842e-05,-0.0183380192673,0.000609316881085,-0.0386189306799,-0.002437458169,0.0161479570803,-0.00585396259614,0.573828909537,0.818961096917,0.00196245199924,0.0,0.818916807916,-0.573769009027,-0.0120471114024,0.0,-0.00874028970759,0.00852022976683,-0.999925503735,0.0,0.661205513135,0.260370016872,0.303214517666,1.0,-0.0045,-0.00591428571429,0.226
0.46468820484,0.544937034036,-0.123902632936,-1.36038542715,0.0793308393203,1.89570308096,0.158682199804,-0.000539813745872,-0.0307313612056,0.000679982486503,-0.0508319768688,-0.00452361447517,0.0129034196847,0.000207367568444,0.573879947972,0.81892540666,0.00193146124002,0.0,0.818880453298,-0.573819923753,-0.0120931886749,0.0,-0.00879527784831,0.00852183841513,-0.999925007867,0.0,0.661116785703,0.260263600161,0.30319765393,1.0,-0.00484,-0.00636114285714,0.243
0.464598401202,0.544448557672,-0.123909081967,-1.36121221149,0.0792987522626,1.89599822424,0.158540168399,-0.00367029207268,-0.0252667025007,0.00031616169491,-0.0452998262104,-0.000151776463649,0.0171802476613,-0.00256938799585,0.573885420283,0.818921610658,0.00191491139156,0.0,0.818876237396,-0.573825271541,-0.0121248699022,0.0,-0.0088306634577,0.008526525657,-0.999924656033,0.0,0.661021229547,0.260120393628,0.303181542567,1.0,-0.00524,-0.00688685714286,0.263
0.464545446796,0.543994507661,-0.123908676185,-1.36191938004,0.0792629342228,1.89625224342,0.158470557563,-0.00239350262889,-0.0388189420403,-0.00105791507226,-0.0488609398874,-0.00408489522154,0.0164119902598,-0.00570826272255,0.573895149673,0.818914811534,0.00190670732179,0.0,0.818869290251,-0.57383499687,-0.0121337855622,0.0,-0.00884257157375,0.00852502888586,-0.99992456356,0.0,0.660940582051,0.260022301698,0.303182361439,1.0,-0.00552,-0.00725485714286,0.277
0.464469429113,0.543471950976,-0.123909503408,-1.36276299539,0.0792189402906,1.89654565229,0.158356516989,-0.00722269969184,-0.0366018778683,-4.91622450333e-05,-0.0528626034725,-0.00373236318011,0.0161931304674,-0.00854773410242,0.573899741982,0.818911639444,0.00188675308763,0.0,0.818865758438,-0.573839582837,-0.012155234579,0.0,-0.00887154027688,0.0085210475433,-0.999924340899,0.0,0.660841042563,0.259891096138,0.303175998901,1.0,-0.00586,-0.00770171428571,0.294
0.464398506958,0.542940224067,-0.123911515878,-1.36358763947,0.0791687923204,1.89684721805,0.158261300207,-0.00336092525297,-0.0356459491763,0.00495335003478,-0.0590429865719,-0.0102610222827,0.0212429440204,-0.00494978472071,0.573913731403,0.818901820542,0.00189317778555,0.0,0.818856027323,-0.573853545256,-0.0121516260322,0.0,-0.00886475257022,0.00852438920014,-0.999924372616,0.0,0.660746918808,0.259764514054,0.303185822515,1.0,-0.00618,-0.00812228571429,0.31
0.464326863002,0.542388750279,-0.123912882855,-1.36445746832,0.0791181775852,1.89715919986,0.158139742026,-0.00189952044141,-0.0392990645244,0.000543134119743,-0.0543291826733,-0.00132996465054,0.0206497733783,-0.00536876099793,0.573908598475,0.818905428739,0.00188845958626,0.0,0.818859538913,-0.573848400625,-0.0121579411214,0.0,-0.0088726853001,0.00852409421064,-0.999924304772,0.0,0.660644915966,0.259633360201,0.303188928091,1.0,-0.0065,-0.00854285714286,0.326
0.464250427441,0.541770045048,-0.123916842831,-1.36540449463,0.0790666467719,1.89751902612,0.158013239428,-0.00272603528413,-0.0413644497861,0.000122141412468,-0.0558528938897,-0.00203376332846,0.0246433888019,-0.00786882878365,0.573909256153,0.818904901419,0.00191703819637,0.0,0.818859361687,-0.573848907348,-0.0121459546413,0.0,-0.00884646183567,0.00854062490078,-0.999924396062,0.0,0.660538182403,0.259492365979,0.303206996481,1.0,-0.00684,-0.00898971428571,0.343
0.464175629724,0.541111473457,-0.123918338868,-1.36641112398,0.0790049813809,1.89789648171,0.157883137736,-0.00357661527342,-0.0370149538397,-0.000668772803397,-0.0618528156133,-0.00421968771406,0.0192199755138,-0.00955611609679,0.573904393275,0.818908253012,0.0019409868472,0.0,0.818863043571,-0.573843955055,-0.0121316948797,0.0,-0.00882109132422,0.00855200003904,-0.999924522973,0.0,0.660421672624,0.259346893981,0.303226225306,1.0,-0.00718,-0.00943657142857,0.36
0.464068999117,0.540314665129,-0.123916463215,-1.36762610511,0.078935809344,1.89833809909,0.157738640152,-0.00456497656053,-0.0423223221708,-0.00050708645426,-0.0632959466392,-0.00231162091969,0.027755694056,-0.00708865052122,0.57392080303,0.818896697794,0.00196394840348,0.0,0.818851722876,-0.573860197248,-0.0121275248496,0.0,-0.00880432774417,0.00856858630614,-0.999924528723,0.0,0.660281179001,0.259162587172,0.303249341651,1.0,-0.00756,-0.009936,0.379
0.463981335211,0.539574773901,-0.12391861438,-1.36877950019,0.0788627304077,1.89878158106,0.157592736595,-0.00288211589857,-0.0468985922601,-0.000106467082459,-0.0672854782878,-0.00259960343519,0.0324215772746,-0.00706495522203,0.573918999633,0.818897908764,0.00198589639622,0.0,0.818853278242,-0.573858353505,-0.0121097368302,0.0,-0.00877718391773,0.00857633094263,-0.99992470096,0.0,0.660149769772,0.258994534882,0.30326170227,1.0,-0.0079,-0.0103828571429,0.396
0.463873122238,0.538872523875,-0.12391918504,-1.36987440693,0.0788074885562,1.8992078807,0.157455032303,-0.00338629061555,-0.0432137901002,0.000882482256032,-0.0673044469462,-0.000239031336285,0.0320522574082,-0.010257184549,0.573941126111,0.818882319976,0.00201908122995,0.0,0.818838049821,-0.573880260203,-0.0121013228929,0.0,-0.0087510169879,0.00859891298107,-0.999924736366,0.0,0.660031214896,0.258822008695,0.303273676345,1.0,-0.00822,-0.0108034285714,0.412
0.463755504645,0.538090679219,-0.123925303406,-1.37110211936,0.0787394567528,1.89967488636,0.157309837641,-0.00657031204073,-0.0432835056216,-0.0040123265414,-0.0723828065102,-0.00677544480085,0.028301344444,-0.00691597754997,0.573972479218,0.818860298133,0.00203768069499,0.0,0.818816255076,-0.573911512714,-0.0120939198679,0.0,-0.00873395057413,0.00861022901934,-0.999924788203,0.0,0.659896309709,0.258626045776,0.30328224272,1.0,-0.00856,-0.0112502857143,0.429
0.463638462859,0.537286189388,-0.123925313552,-1.37236753491,0.0786558987293,1.90013495227,0.157159032081,-0.0095957198687,-0.0472906072687,0.00285807191657,-0.0781076274611,-0.00664514034511,0.0257093153008,-0.0140530580979,0.573992119091,0.818846544074,0.00203257975987,0.0,0.818802475097,-0.573931212371,-0.0120920280439,0.0,-0.00873512258692,0.00860517581552,-0.999924821465,0.0,0.659750915657,0.258426871956,0.303287886499,1.0,-0.0089,-0.0116971428571,0.446
0.463523379248,0.536500382753,-0.12392986997,-1.37361033757,0.078595134719,1.90060620483,0.157005099628,-0.00958042255299,-0.043360485134,0.0008400341058,-0.0736562784229,-0.000140935946498,0.0335647181968,-0.0093802906902,0.574015727091,0.818829950921,0.002050226198,0.0,0.818786008704,-0.573954638393,-0.0120951196552,0.0,-0.00872727742472,0.00862165142225,-0.999924748046,0.0,0.659611498331,0.258233240599,0.303292124515,1.0,-0.00922,-0.0121177142857,0.462
0.463414797109,0.53562950121,-0.123939853991,-1.37498665773,0.07851230408,1.90111158708,0.156833343884,-0.00807977030091,-0.0526379715532,0.0066903229718,-0.0834522441978,-0.009710223,0.0308926877124,-0.00362799785643,0.574024411423,0.818823870397,0.00204725650335,0.0,0.818779914207,-0.573963359022,-0.0120938617608,0.0,-0.00872786051391,0.00861859031779,-0.999924769346,0.0,0.659450628267,0.258024785775,0.303295817459,1.0,-0.00956,-0.0125645714286,0.479
0.46330385818,0.534787384375,-0.123938489005,-1.37632745401,0.0784383658114,1.9016086341,0.156660956711,-0.00757103489721,-0.0492962929893,0.000587042722342,-0.0782947278822,-0.00467833681249,0.0322733243603,-0.0133886624915,0.574026890591,0.818822127666,0.00204915201347,0.0,0.818778107726,-0.573965742232,-0.0121030556053,0.0,-0.00873427484748,0.00862544625036,-0.999924654221,0.0,0.659292788414,0.257826088353,0.303294879761,1.0,-0.00988,-0.0129851428571,0.495
0.463162644166,0.53377606136,-0.123941692818,-1.37799361941,0.0783327124135,1.90220977574,0.156467471231,-0.00879733963814,-0.0544472320291,0.000370293149077,-0.0866996041909,-0.0112590818485,0.0324237727146,-0.011384328411,0.574049182003,0.818806625923,0.00199822103292,0.0,0.81876194782,-0.573988261062,-0.0121283084465,0.0,-0.00878395301968,0.00859847843526,-0.999924451315,0.0,0.659094719599,0.257570339156,0.303267423226,1.0,-0.01026,-0.0134845714286,0.514
0.463048803219,0.532947144232,-0.123941693261,-1.37933477042,0.0782747796449,1.90272944663,0.156292636286,-0.00491879479047,-0.0574523679854,-0.000405708614312,-0.0940317637095,-0.00215994727233,0.0349945773427,-0.0146042087701,0.574057381334,0.818800823639,0.00202015974624,0.0,0.818756238434,-0.573996172541,-0.0121393095103,0.0,-0.00878028171077,0.00862284464,-0.999924273734,0.0,0.658930210692,0.257360564835,0.303262876827,1.0,-0.01058,-0.0139051428571,0.53
0.462912198957,0.53197423554,-0.123944481543,-1.38089588552,0.0781802209424,1.9032922243,0.156091194336,-0.00994839065295,-0.059558754781,-0.00168242730894,-0.0970359522835,-0.000541371582193,0.0340629900001,-0.0107958262819,0.574065842963,0.818794959908,0.00199210304833,0.0,0.818749970228,-0.574004720472,-0.0121578793146,0.0,-0.00881150340128,0.00861062333005,-0.999924104407,0.0,0.658755444338,0.257131600059,0.303250421995,1.0,-0.0109,-0.0143257142857,0.546
0.462806037163,0.531089552502,-0.123946613387,-1.38231852142,0.078087033253,1.90379911844,0.155916282702,-0.00922870515605,-0.0582882038128,-0.00254296444072,-0.0944363423892,-0.00361426879342,0.042044635752,-0.00576039599589,0.574063356627,0.818796778694,0.00196078545251,0.0,0.818751401019,-0.574002395271,-0.0121712963235,0.0,-0.00884049288275,0.00859265649357,-0.999924003082,0.0,0.658580828593,0.256922513245,0.303240787385,1.0,-0.0112,-0.01472,0.561
0.462667358988,0.530049749881,-0.123943936645,-1.38395916511,0.0780022850156,1.90438526215,0.155692032356,-0.00396112425656,-0.0633989579882,-0.00022683724582,-0.0990001799183,-0.00225379896746,0.0380287669163,-0.0195935562669,0.574057709646,0.818800746317,0.00195722456631,0.0,0.818755116968,-0.573996565808,-0.0121962198906,0.0,-0.00886300440942,0.00860398733891,-0.999923706367,0.0,0.658381604862,0.256677717122,0.303243230304,1.0,-0.01154,-0.0151668571429,0.578
0.462506038243,0.528856842736,-0.123947677481,-1.38583393667,0.077868396438,1.90509069019,0.155442394518,-0.0071144429083,-0.0660214065837,-0.00150919140843,-0.0974673748148,-0.00542770797175,0.0365922000511,-0.00931527573391,0.574053699811,0.818803541451,0.00196396078983,0.0,0.818758199677,-0.573992719997,-0.0121702404949,0.0,-0.00883790697894,0.00859454605588,-0.999924009702,0.0,0.658164944631,0.25638869782,0.303252291008,1.0,-0.01192,-0.0156662857143,0.597
0.462350123206,0.527657752034,-0.123947782745,-1.38766206348,0.077765099605,1.90580756178,0.155188710754,-0.00974434747859,-0.0735950214741,-0.00193851029252,-0.106436928425,-0.0111468331251,0.0461129777246,-0.00706930384476,0.57404509786,0.818809382337,0.00204154858801,0.0,0.818765034438,-0.57398375489,-0.012133194398,0.0,-0.00876312640384,0.00863671564909,-0.999924304514,0.0,0.657957169846,0.256116691192,0.303288488866,1.0,-0.01228,-0.0161394285714,0.615
0.462222853253,0.526629326508,-0.123950872836,-1.38923473683,0.0776584967732,1.90639956109,0.154969506707,-0.0064380264386,-0.0713981622841,-0.00112012799279,-0.107852015883,-0.00338956689382,0.0424481094439,-0.0167084526418,0.574028181337,0.81882115741,0.0020751167635,0.0,0.818777366237,-0.573966810713,-0.0121025467662,0.0,-0.00871894106674,0.00864642801853,-0.999924606833,0.0,0.657772844007,0.255880934322,0.303315101696,1.0,-0.01258,-0.0165337142857,0.63
0.462064345014,0.525393313256,-0.123951041308,-1.39116651256,0.0775340452864,1.90710168216,0.15471289509,-0.00970125987618,-0.0680625866679,0.000635959477772,-0.107405252116,-0.00755873206808,0.0360706111847,-0.0190735976668,0.574018374874,0.818828028538,0.00207650889476,0.0,0.818784276597,-0.573957020341,-0.0120993429809,0.0,-0.00871562210447,0.00864562448327,-0.999924642715,0.0,0.657539484074,0.255591058496,0.303326044429,1.0,-0.01294,-0.0170068571429,0.648
0.461911714454,0.524269598253,-0.123954474903,-1.39294376669,0.077431023641,1.9077285231,0.154469748757,-0.00745706098289,-0.0637658343716,-0.000579473571577,-0.10753830128,-0.0083986691486,0.0396178040981,-0.0231527080303,0.574014269611,0.818830957576,0.0020562343134,0.0,0.818786836852,-0.573952901003,-0.0121214739046,0.0,-0.00874542481177,0.00864168295845,-0.999924416574,0.0,0.657321895079,0.255318407821,0.303324843954,1.0,-0.01326,-0.0174274285714,0.664
0.461746623277,0.523067752976,-0.123959888429,-1.3948744609,0.0773107700081,1.90846512035,0.154217094586,-0.0116092922401,-0.075905561104,0.000548790664346,-0.110012361276,-0.00556445559017,0.0491501482562,-0.00528281102489,0.574017694613,0.818828553568,0.00205743387326,0.0,0.818784502274,-0.573956373456,-0.0121147474662,0.0,-0.0087391921166,0.00863884070569,-0.999924495626,0.0,0.657096172819,0.255023897496,0.303314832721,1.0,-0.0136,-0.0178742857143,0.681
0.461611285353,0.521974243168,-0.123958369298,-1.39659669977,0.077204897308,1.90913782574,0.153983782782,-0.007683537131,-0.0756115687697,0.000851190486249,-0.117337963719,-0.0072228760684,0.0417014462571,-0.0167156971375,0.57400021148,0.818840720846,0.00209236847251,0.0,0.818797158133,-0.57393877284,-0.0120932115468,0.0,-0.00870169020137,0.00865489797799,-0.999924683828,0.0,0.656893410361,0.254774310329,0.303321820004,1.0,-0.0139,-0.0182685714286,0.696
0.461450420509,0.520717816803,-0.12396684541,-1.39860890531,0.0770833359889,1.9098787683,0.153704434286,-0.00625902582112,-0.0744900055892,-8.01828592566e-06,-0.117075135092,-0.00279847409255,0.0415797401507,-0.0182811138314,0.573983813686,0.818852254213,0.00207708891543,0.0,0.818808481754,-0.573922433187,-0.0121019747596,0.0,-0.00871780923285,0.00864724213315,-0.999924609661,0.0,0.656649210305,0.254472010312,0.303311203846,1.0,-0.01424,-0.0187154285714,0.713
0.4612785531,0.519397803588,-0.123970051176,-1.40066783597,0.0769527080855,1.91061532983,0.153420802916,-0.00525642629029,-0.0762553531265,-0.000529439796266,-0.119888871635,-0.00528790135126,0.0432063556393,-0.0230123791873,0.573968661803,0.818862887411,0.00207214640962,0.0,0.818819044466,-0.573907298827,-0.0121050267951,0.0,-0.0087233051956,0.00864478541273,-0.999924582972,0.0,0.656396158116,0.254159162727,0.303322033455,1.0,-0.01458,-0.0191622857143,0.73
0.461105012032,0.518061417869,-0.123967384212,-1.40277871327,0.076814613682,1.91136920934,0.153144525816,-0.0130810887586,-0.0784558691716,0.000672323229307,-0.12742917477,-0.00539504528114,0.0401995822325,-0.00737855454299,0.573957134538,0.818871022448,0.00205017308409,0.0,0.818826887882,-0.573895864281,-0.012116581377,0.0,-0.0087454999047,0.00863330139139,-0.999924488318,0.0,0.656133452404,0.253842721864,0.303320557693,1.0,-0.01492,-0.0196091428571,0.747
0.460911794096,0.516626176124,-0.123972824353,-1.40503820161,0.076666507322,1.91220282468,0.152830307078,-0.0143408244088,-0.0793993663408,0.000384100971072,-0.121657652419,-0.00868879708054,0.0515056329249,-0.0185264648926,0.57394138853,0.818882057951,0.00205051177815,0.0,0.818838007114,-0.573880197103,-0.0121072036549,0.0,-0.00873779197115,0.0086280283712,-0.999924601216,0.0,0.655860645648,0.253496135288,0.303324452923,1.0,-0.01528,-0.0200822857143,0.765
0.46072677186,0.515239162125,-0.1239694306,-1.40723088426,0.0765356018132,1.91302739224,0.152535844767,-0.0159727069065,-0.083568538345,0.00192267775739,-0.128726593748,-0.00834509162218,0.0544375052724,-0.0166002197358,0.57392406008,0.818894176304,0.00206111072616,0.0,0.81885022838,-0.573862789579,-0.0121057473868,0.0,-0.00873069937694,0.00863568694311,-0.999924597057,0.0,0.655609268219,0.253186012272,0.303324087497,1.0,-0.0156,-0.0205028571429,0.781
0.460537836275,0.513843602695,-0.123974343342,-1.40949977732,0.0764015109738,1.91381375019,0.152219601497,-0.00914589895852,-0.0780553542866,0.00052777855702,-0.130567333853,-0.00146933361034,0.0445192320909,-0.0206260608091,0.573911936649,0.818902836359,0.00199511307404,0.0,0.818857847487,-0.573850782777,-0.0121594250014,0.0,-0.00881266009392,0.00861231896225,-0.99992407961,0.0,0.655305468401,0.252823670328,0.303291501418,1.0,-0.01596,-0.020976,0.799
0.460365335552,0.512600978302,-0.123980451537,-1.41150281103,0.0762743960371,1.91452178829,0.151948344641,-0.00891611470422,-0.086010443356,-0.000406388924419,-0.135598202869,-0.00527734461815,0.0505694640607,-0.0188139507269,0.573905902429,0.818907182362,0.00194646705569,0.0,0.818861533479,-0.573844944115,-0.0121867142387,0.0,-0.00886298818067,0.00858807957804,-0.999923843265,0.0,0.655054718083,0.25251326295,0.303270355973,1.0,-0.01626,-0.0213702857143,0.814
0.460150971924,0.511069673338,-0.1239828934,-1.41393881697,0.0761338424678,1.91545013736,0.151595258924,-0.0103631013385,-0.0863900686679,-0.000221186944359,-0.129880286956,-0.00572924038211,0.0528683790171,-0.0263563587624,0.573883762003,0.818922645846,0.00196843356476,0.0,0.818877213385,-0.573822638784,-0.0121834116143,0.0,-0.00884791028194,0.00860393313589,-0.999923840509,0.0,0.654762087058,0.252142735355,0.303263906317,1.0,-0.01662,-0.0218434285714,0.832
0.45994078406,0.509577201242,-0.123989112597,-1.41630153092,0.0759853713759,1.91633689755,0.151272672974,-0.0129302029878,-0.0921347444992,-0.000154686195513,-0.140769574432,-0.0158966219272,0.0586100002352,-0.0232079733236,0.573879238977,0.818925794128,0.00197729210515,0.0,0.818880519411,-0.573818117347,-0.0121741543354,0.0,-0.00883529308051,0.00860582610011,-0.999923935784,0.0,0.65447683326,0.251776945513,0.303261114098,1.0,-0.01696,-0.0222902857143,0.849
0.459731267315,0.508068206394,-0.123991843855,-1.41867847885,0.0758256983126,1.91717738853,0.150941044551,-0.0139625384734,-0.089612394807,3.73592291708e-05,-0.140109764916,-0.0117035151864,0.0476063802879,-0.0225671665817,0.573861061506,0.818938605779,0.00194652362678,0.0,0.818892963323,-0.57380011418,-0.0121856673396,0.0,-0.00886256857419,0.00858703982269,-0.999923855914,0.0,0.65417801875,0.251407389553,0.303258441089,1.0,-0.0173,-0.0227371428571,0.866
0.45951539128,0.506527296147,-0.123996254334,-1.42110100381,0.0756715541135,1.91806829957,0.150599820619,-0.0117781122225,-0.0914756177128,0.000368520403271,-0.14632465112,-0.00822678849628,0.0530703984594,-0.02135742199,0.573845202363,0.818949710614,0.00194990033138,0.0,0.818904131644,-0.573784260575,-0.0121816416692,0.0,-0.00885750033428,0.00858732339902,-0.999923898387,0.0,0.653879901761,0.251032042753,0.303260309226,1.0,-0.01764,-0.023184,0.883
0.459310455665,0.505018168913,-0.124005186867,-1.42341246625,0.0755334096588,1.91896445051,0.150287943395,-0.0148272612077,-0.0927824443331,-0.000177529535728,-0.141673828973,-0.00414889408153,0.0560998723812,-0.0138490982361,0.573846216284,0.818948810309,0.00202806595912,0.0,0.818904299745,-0.573784971429,-0.0121367756446,0.0,-0.0087758931699,0.0086256007852,-0.999924288489,0.0,0.653605087426,0.250676896567,0.303292840333,1.0,-0.01796,-0.0236045714286,0.899
0.459063330434,0.503257773434,-0.124008802711,-1.42604333882,0.0753672008511,1.9199602131,0.149918950404,-0.0171330880851,-0.0956554726026,0.000340905082793,-0.147530421057,-0.0117846359596,0.0564112655641,-0.0215454998837,0.573839279722,0.818953407318,0.00213180483835,0.0,0.818910326416,-0.57377765897,-0.0120756887042,0.0,-0.00866641127574,0.00867542853307,-0.999924812301,0.0,0.653289927272,0.250265065389,0.303356668045,1.0,-0.01832,-0.0240777142857,0.917
0.4588577398,0.501752640467,-0.124014849328,-1.42826019738,0.0752276956053,1.92076492508,0.149606805845,-0.0135474945368,-0.0955926584771,0.00154342877841,-0.15041538476,-0.0105256874137,0.0509703372017,-0.0215142034903,0.573831895096,0.818958373455,0.00221034379206,0.0,0.818916339556,-0.573769964725,-0.012033423836,0.0,-0.0085868096549,0.00871541685042,-0.999925151303,0.0,0.653017104504,0.249916199369,0.303422159976,1.0,-0.01862,-0.024472,0.932
0.458609304896,0.499937831711,-0.124013290387,-1.4310123595,0.0750538591161,1.92174243997,0.149222115434,-0.0124171635472,-0.0959442150015,0.00104399434565,-0.1526052601,-0.00459420956576,0.0576028361529,-0.0191783877171,0.573812234397,0.818972054374,0.00224515312084,0.0,0.818930411631,-0.573750097089,-0.012023056889,0.0,-0.00855855555788,0.00873776953632,-0.999925198458,0.0,0.65266776561,0.249490723495,0.303463173951,1.0,-0.01898,-0.0249451428571,0.95
0.458389140214,0.498459787432,-0.124019103722,-1.43333452651,0.074912045653,1.92260249827,0.148893641916,-0.0184622891864,-0.0989926390492,0.000442931580381,-0.154873609405,-0.00599634926879,0.0593276031204,-0.0203101546762,0.573807528718,0.818975317766,0.00225738282935,0.0,0.818933809826,-0.573745315909,-0.0120197544802,0.0,-0.00854888401282,0.00874584111929,-0.999925210626,0.0,0.652381609008,0.249123177076,0.303463480929,1.0,-0.01928,-0.0253394285714,0.965
0.458122495443,0.496776447053,-0.124024295806,-1.43599894111,0.0747456303446,1.92356118596,0.148497572091,-0.0161029198366,-0.0997336016832,-0.00185653096388,-0.160056015129,-0.00635119685869,0.0549817363031,-0.0228496524217,0.573795136135,0.818984057913,0.00223641079265,0.0,0.818942220626,-0.573732955401,-0.0120366965947,0.0,-0.00857492514129,0.00873825742046,-0.99992505395,0.0,0.652049502162,0.248690688076,0.303452007104,1.0,-0.01962,-0.0257862857143,0.982
0.457857275568,0.495103887335,-0.124022241243,-1.43872589689,0.0745717369371,1.92450469224,0.148099332542,-0.0180848470781,-0.088033712388,0.00117212568656,-0.162956844208,-0.0120734814589,0.0542795484675,-0.0237675839294,0.573774959147,0.818998450717,0.00214029903973,0.0,0.818955216743,-0.573713045812,-0.012101278274,0.0,-0.00868317785513,0.00869638694366,-0.999924484787,0.0,0.651696042376,0.248253813575,0.303401167446,1.0,-0.01996,-0.0262331428571,0.999
0.457592749728,0.493379037316,-0.124043541386,-1.44144926439,0.0744066659981,1.9254907455,0.147713139419,-0.0160222819099,-0.114621781649,-0.00528677179903,-0.182210960874,-0.0108341063616,0.0630647388866,-0.0249561440283,0.573782921587,0.818992907773,0.00212669054151,0.0,0.818949475341,-0.573721045324,-0.0121105694294,0.0,-0.00869851082451,0.00869065733455,-0.999924401335,0.0,0.651356663541,0.2478091568,0.303392118596,1.0,-0.024588,-0.0323156571429,1.015
0.457236458763,0.490795318722,-0.124091135327,-1.44548910209,0.0741766712165,1.92700185673,0.147123693724,-0.0174196092828,-0.139642673037,-0.00224442589949,-0.23271018438,-0.0112322374777,0.0825971390774,-0.0370981706047,0.573766807445,0.819004077072,0.00217239858276,0.0,0.818961232665,-0.573704727472,-0.0120885056511,0.0,-0.00865438670082,0.00871526131117,-0.999924570061,0.0,0.650855066646,0.247169782476,0.303399545518,1.0,-0.0308417142857,-0.0405348244898,1.034
0.456835246965,0.488208557971,-0.124106027615,-1.44964847446,0.0739377584337,1.92849607582,0.146526909117,-0.0282078897206,-0.176652770739,-0.00622391226347,-0.274393427198,-0.0124998949297,0.102009121448,-0.0367935432534,0.573759974225,0.819009021123,0.00211239148324,0.0,0.818965110436,-0.573697872624,-0.0121509561906,0.0,-0.00874003650806,0.00870187477313,-0.999923941676,0.0,0.650322325639,0.246504074348,0.303348350173,1.0,-0.036108,-0.0474562285714,1.05
0.456320627641,0.484930428695,-0.124164025264,-1.45472693813,0.0736325304971,1.93042140978,0.145778287371,-0.0360214337104,-0.197762343398,-0.0100698239609,-0.310725609277,-0.0135763354437,0.121142443606,-0.0401810509968,0.573779264021,0.818995251779,0.00220921802404,0.0,0.818952772778,-0.573716908707,-0.0120835228056,0.0,-0.00862904820305,0.00874268837248,-0.999924549617,0.0,0.649706871052,0.245658309326,0.30337655897,1.0,-0.0417034285714,-0.0548102204082,1.067
0.455804684367,0.481660271513,-0.12422719237,-1.45985914584,0.0733160667037,1.93218117953,0.144989796791,-0.0340483906361,-0.22890661438,-0.00195754821971,-0.361429421801,-0.0246470834866,0.114418548065,-0.0533195149155,0.573767194183,0.81900395393,0.00211594606409,0.0,0.818960170103,-0.573705156162,-0.0121400362127,0.0,-0.00872897655174,0.00869859753855,-0.999924066802,0.0,0.649042266017,0.244790146838,0.303357040759,1.0,-0.0466405714286,-0.0612990367347,1.082
0.455132312501,0.477476967573,-0.124302743471,-1.46634842593,0.0729312069853,1.93451749916,0.144027428843,-0.0405876790876,-0.258016432502,-0.00354257352261,-0.397447935782,-0.0199079712682,0.145414456766,-0.0596153016412,0.573796180133,0.818983585603,0.00213941111253,0.0,0.818940038843,-0.573733966433,-0.0121365333797,0.0,-0.00871233654014,0.00871611372512,-0.999924059393,0.0,0.648221954341,0.243693098948,0.303371756321,1.0,-0.052236,-0.0686530285714,1.099
0.454365612375,0.472830160099,-0.124360346243,-1.47348064793,0.0725003340781,1.93710942861,0.143006588073,-0.0467745630239,-0.279267816428,-0.00471300577265,-0.435144149204,-0.0224501384196,0.151079165597,-0.0671075637849,0.573856870096,0.818940822349,0.00222913317682,0.0,0.818898375418,-0.573794188484,-0.012100698352,0.0,-0.00863085836793,0.00876967126268,-0.999924297709,0.0,0.647319376142,0.242486438241,0.303418260274,1.0,-0.0578314285714,-0.0760070204082,1.116
0.453465323697,0.467396842609,-0.124399333141,-1.48167929489,0.0720004734414,1.94013854039,0.141701578297,-0.0497767943629,-0.313580259838,-0.00128783456642,-0.463964618772,-0.0328646645187,0.174044447025,-0.0849630874679,0.573808950263,0.818973743657,0.00245819015252,0.0,0.818934222338,-0.573745258173,-0.0119943782432,0.0,-0.00841286788279,0.00889574890047,-0.999925041843,0.0,0.646281845787,0.241108355765,0.303531903346,1.0,-0.063756,-0.0837936,1.134
0.452526062462,0.461856838346,-0.124436022485,-1.49024707097,0.0714390188147,1.94312483592,0.140368526063,-0.0592033018822,-0.329840810731,-0.00184171290732,-0.526958512986,-0.0301943033468,0.177082492889,-0.0764772392761,0.573761893026,0.819006845022,0.00241346628833,0.0,0.818966601754,-0.573698243024,-0.0120323756859,0.0,-0.00847015975625,0.00888043791169,-0.999924694273,0.0,0.645145934787,0.239654078536,0.303532945184,1.0,-0.0693514285714,-0.0911475918367,1.151
0.451610585111,0.456588492809,-0.124485234709,-1.49837657187,0.0708948351328,1.94589484988,0.139179446869,-0.0663375975007,-0.353767655541,-0.00613984594355,-0.561206197848,-0.0424187795284,0.19003656544,-0.0880526692572,0.573800773479,0.818979871784,0.00232139361964,0.0,0.818938329167,-0.573737399934,-0.012089492914,0.0,-0.00856934600352,0.00883820876011,-0.999924223316,0.0,0.644053155606,0.238246309836,0.303530163889,1.0,-0.0742885714286,-0.0976364081633,1.166
0.45049131856,0.450172807272,-0.124544062353,-1.50797168018,0.0702323546695,1.94946254264,0.137604888799,-0.0662422235801,-0.396349666022,-0.00707552536629,-0.575766585276,-0.0480697720721,0.222247975179,-0.093896514373,0.573727872145,0.819030057614,0.00261540630092,0.0,0.818992981442,-0.573664001368,-0.011868310058,0.0,-0.00822029649299,0.00895135202089,-0.999926147284,0.0,0.64282370873,0.236580441357,0.303679000744,1.0,-0.079884,-0.1049904,1.183
0.449277856408,0.443410840599,-0.124576569735,-1.5182512838,0.0695697548437,1.95309797055,0.136068914022,-0.0696261672841,-0.405047995136,-0.00208569900338,-0.622999345024,-0.0410870209291,0.207560398186,-0.0918099133792,0.573768450355,0.81900130226,0.00271646365931,0.0,0.818965301554,-0.573703930992,-0.0118482621458,0.0,-0.00814545307237,0.00902302221182,-0.999926115603,0.0,0.641442174695,0.234801723738,0.30373473609,1.0,-0.0854794285714,-0.112344391837,1.2
0.447971857058,0.436302881571,-0.124615625405,-1.52929351225,0.0687987276968,1.9568253855,0.134292026076,-0.0851242062524,-0.423045877855,-0.000922986485731,-0.65724519953,-0.0442879627278,0.222893444464,-0.107961623038,0.573685076323,0.819060341368,0.00251740024527,0.0,0.819021554542,-0.573621123652,-0.0119685670233,0.0,-0.00835910557306,0.00892816524335,-0.999925203812,0.0,0.639901732329,0.23286860342,0.303661490894,1.0,-0.0910748571428,-0.119698383673,1.217
0.446540384239,0.428706176036,-0.124640488161,-1.54071691198,0.0680168912899,1.96094547412,0.132431568836,-0.0896342398323,-0.449268935296,-0.00328679663846,-0.699809331966,-0.0525874238419,0.244866574004,-0.109774457237,0.573631131747,0.819097381287,0.00274801022275,0.0,0.81906175961,-0.573566478399,-0.0118353581987,0.0,-0.00811830066349,0.00904009405643,-0.999926182222,0.0,0.638359282147,0.230853362113,0.303759996099,1.0,-0.0966702857143,-0.12705237551,1.234
0.445063844542,0.421286354017,-0.124714503482,-1.55212478037,0.0671875815557,1.9647672581,0.13052259348,-0.0947921226688,-0.465611281012,-0.0058676937533,-0.739585487938,-0.0437489999028,0.236092096006,-0.118299308267,0.573583644466,0.81913122443,0.00256648906792,0.0,0.819093332632,-0.573519786459,-0.0119127611916,0.0,-0.00828634193681,0.00893533109656,-0.999925745441,0.0,0.636755913843,0.22875893501,0.303708120283,1.0,-0.101936571429,-0.133973779592,1.25
0.44319743338,0.411933513665,-0.124841407786,-1.56612907083,0.0661869052555,1.96974539401,0.128233063614,-0.0996458370485,-0.495401539543,-0.00192694853475,-0.760636903965,-0.0552539768445,0.263450757835,-0.129770715749,0.573633697211,0.819095447197,0.00278867467963,0.0,0.819061123014,-0.57356975768,-0.0117199293151,0.0,-0.00800039531559,0.00900721481566,-0.999927429245,0.0,0.634838575407,0.22616328183,0.303815948602,1.0,-0.108190285714,-0.142192946939,1.269
0.441451570683,0.403803888978,-0.124902343973,-1.57862388988,0.0653541594587,1.97383264818,0.126172582151,-0.109882521341,-0.510963947169,-0.00612027239495,-0.796387617142,-0.0479820612743,0.256736677954,-0.126859944827,0.573695731507,0.819052724855,0.00256679957055,0.0,0.81901462865,-0.573631632941,-0.0119387875061,0.0,-0.00830625893047,0.0089516501757,-0.999925434231,0.0,0.633024887708,0.223819118369,0.303718212525,1.0,-0.113456571429,-0.14911435102,1.285
0.439355216828,0.394138957214,-0.125040459027,-1.59290520437,0.0643316039791,1.97883980832,0.123716964397,-0.116050873815,-0.537025818543,-0.00488759233286,-0.806218946511,-0.0628453372717,0.278100978748,-0.140606555547,0.573782154163,0.818991231882,0.00285456919868,0.0,0.818957429566,-0.573717585684,-0.0117306153542,0.0,-0.00796970801243,0.00906876300287,-0.99992711799,0.0,0.631034523269,0.221059196913,0.303865683614,1.0,-0.119381142857,-0.156900930612,1.303
0.437389219998,0.385360354749,-0.125101217976,-1.60629406112,0.0633100212415,1.98322629243,0.121398752943,-0.126034577578,-0.553413204483,-0.00315514683099,-0.862432245435,-0.0614054883138,0.265456179034,-0.151121418483,0.573762090333,0.819006077277,0.00261839308801,0.0,0.818969187841,-0.573698364931,-0.0118491494842,0.0,-0.00820251552863,0.00894314822078,-0.999926366709,0.0,0.629053473928,0.21848983357,0.303767083672,1.0,-0.124647428571,-0.163822334694,1.319
0.435170334983,0.375556422518,-0.125169247749,-1.62072168668,0.0622536808037,1.98810918073,0.118783369307,-0.137222380466,-0.570924337071,-0.000458754071553,-0.849062635134,-0.0533454340649,0.290965635552,-0.161298178879,0.573727421392,0.819029711761,0.00281497715575,0.0,0.818995413765,-0.573663020916,-0.0117472365835,0.0,-0.00800664164669,0.00904533928479,-0.999927035101,0.0,0.62694278003,0.21568790451,0.30388028358,1.0,-0.130242857143,-0.171176326531,1.336
0.432782240701,0.365533298578,-0.125273285552,-1.63571625806,0.0611052610641,1.99302879475,0.116165202344,-0.148820779018,-0.601033942095,-0.00405070269555,-0.886427538725,-0.0569567010239,0.289982790421,-0.156491235113,0.57383063921,0.818957711254,0.00272242239647,0.0,0.818922309963,-0.573766668987,-0.0117816257565,0.0,-0.00808677372983,0.00899028336719,-0.999926886775,0.0,0.624699236753,0.212698647473,0.303850530411,1.0,-0.135838285714,-0.178530318367,1.353
0.430580163104,0.356382643109,-0.125377709794,-1.64927624102,0.0600180369378,1.99747430275,0.113638417185,-0.147989866144,-0.603170327814,-0.00459940433667,-0.9036212554,-0.0736294462967,0.290232872356,-0.171978415135,0.573803873476,0.818976579128,0.00268784764997,0.0,0.818941196263,-0.573740550387,-0.0117407328001,0.0,-0.00807341343329,0.00893823921679,-0.999927461307,0.0,0.622649061921,0.209968362998,0.303858237892,1.0,-0.140775428571,-0.185019134694,1.368
0.427882389843,0.345679128938,-0.125476535242,-1.66507139241,0.0588653094493,2.0025705334,0.110645322929,-0.164844729494,-0.650944994892,-0.00571293746047,-0.926506420866,-0.06427936485,0.317565274664,-0.174838103557,0.573842893112,0.818949213997,0.00269551860917,0.0,0.818913272642,-0.573778808903,-0.0118185128205,0.0,-0.00813228689978,0.0089895386314,-0.999926524353,0.0,0.620220275652,0.206746843079,0.303861845164,1.0,-0.146370857143,-0.192373126531,1.385
0.424928206117,0.334052108638,-0.125556868519,-1.68217488595,0.0575081905747,2.00810936394,0.107428668526,-0.167322633826,-0.652814524586,-0.00437855090125,-0.971423496019,-0.072794250969,0.31000251814,-0.185722050084,0.573850930293,0.818943564289,0.00270096506367,0.0,0.818907726151,-0.573786860773,-0.0118119158423,0.0,-0.0081236706019,0.00899029314438,-0.999926587608,0.0,0.617548872015,0.203258957155,0.303857575148,1.0,-0.152295428571,-0.200159706122,1.403
0.421994486267,0.322675668325,-0.125559821258,-1.69864787711,0.0561154088498,2.01335668249,0.104192850679,-0.178370680103,-0.671995344773,-0.00182337399917,-0.987682202926,-0.0748645496016,0.308676640439,-0.189432339152,0.573706120645,0.81904481044,0.00276270272047,0.0,0.819010106225,-0.57364221566,-0.0117388762444,0.0,-0.00803001736131,0.00899751982961,-0.999927279085,0.0,0.614918301384,0.199893850516,0.303925690617,1.0,-0.157890857143,-0.207513697959,1.42
0.418872832272,0.311081902269,-0.125620396359,-1.71547538514,0.0547948709846,2.01861210331,0.100798163754,-0.185688545074,-0.69921049758,-0.00632728646335,-0.972205867506,-0.0771321543384,0.313568727475,-0.210094015304,0.573643878158,0.81908836069,0.00277584869424,0.0,0.819053202719,-0.573579234294,-0.0118093185416,0.0,-0.00808086177814,0.00904808525354,-0.999926413206,0.0,0.612188322551,0.196376024244,0.303935307069,1.0,-0.163486285714,-0.214867689796,1.437
0.415969748105,0.300567072473,-0.125692487001,-1.73062961412,0.0534698448185,2.02334122393,0.0976731772342,-0.202249479149,-0.689419549046,-0.00356412930898,-1.02521354361,-0.0870486126292,0.305402473964,-0.206243668004,0.573551531191,0.819153030529,0.0027749853853,0.0,0.81911836903,-0.573487471553,-0.0117458243819,0.0,-0.00803036289568,0.00901005053364,-0.999927163478,0.0,0.609712080335,0.193142299211,0.303960739821,1.0,-0.168423428571,-0.221356506122,1.452
0.412676757844,0.289029406841,-0.125796011873,-1.74701914638,0.0521754045199,2.02837883403,0.0943167084513,-0.203280210936,-0.721618952866,-0.00935557212582,-1.03013313115,-0.0856851615906,0.322771083076,-0.210684581186,0.573643654885,0.81908795689,0.00293649271934,0.0,0.819054820242,-0.573578361469,-0.0117393182682,0.0,-0.00793137823676,0.00913950991749,-0.999926778618,0.0,0.607002019941,0.189576904227,0.304054250759,1.0,-0.173689714286,-0.228277910204,1.468
0.409020032559,0.276688304304,-0.125914447384,-1.76484521327,0.0506352506312,2.0336224197,0.0905064684563,-0.218289841918,-0.734258953392,-0.0124456448615,-1.05454934416,-0.0955211168298,0.307955878133,-0.218421464923,0.573604063639,0.819116538174,0.00268737190225,0.0,0.819079766748,-0.573539243092,-0.0119087882855,0.0,-0.00821353032341,0.0090322752037,-0.999925475185,0.0,0.603962733831,0.185643894795,0.303964557983,1.0,-0.179285142857,-0.235631902041,1.485
0.405086967726,0.263931421754,-0.126078798751,-1.78280566576,0.0490345606064,2.03910150249,0.0865573171469,-0.239210841606,-0.734774241259,-0.0110892905599,-1.06068736975,-0.0915788429076,0.319689008803,-0.235124771787,0.573667616596,0.819071523415,0.00283762247331,0.0,0.819037373449,-0.573602978152,-0.0117537760304,0.0,-0.00799966855597,0.00906705410765,-0.999926894244,0.0,0.600942492684,0.181543764806,0.304052308511,1.0,-0.184880571429,-0.242985893878,1.502
0.400917277489,0.250944925815,-0.126253819608,-1.80106223071,0.047427519694,2.04447817092,0.0825165388828,-0.250168947017,-0.788173460555,-0.00346063418926,-1.08080348716,-0.0949901264812,0.314491660696,-0.236025205891,0.573835085694,0.818954062179,0.00287843160752,0.0,0.818920448083,-0.573770287781,-0.0117347122685,0.0,-0.00795878498024,0.00909117115521,-0.99992700151,0.0,0.59779973373,0.177296030049,0.304091678337,1.0,-0.190476,-0.250339885714,1.519
0.396613393096,0.237767241587,-0.126367845275,-1.81962627345,0.0457566405205,2.04978945129,0.0782037617622,-0.251599044129,-0.798201735129,-0.00136414553845,-1.08415970444,-0.0946774666679,0.321113897952,-0.249751136463,0.573795346684,0.818982255228,0.00277716519652,0.0,0.818946936758,-0.573730479215,-0.0118321129249,0.0,-0.00809710210258,0.00906373677331,-0.999926140079,0.0,0.594505059928,0.1730004872,0.304052947215,1.0,-0.196071428571,-0.257693877551,1.536
0.392147859308,0.224309168695,-0.12645239094,-1.83840641974,0.0440213992651,2.05522099696,0.0737787463891,-0.265033323737,-0.770624394779,-0.00281202684515,-1.11783780879,-0.110509896608,0.306302844035,-0.264529548124,0.573722737938,0.819032992492,0.00281497497924,0.0,0.81899816327,-0.573657738747,-0.011813307658,0.0,-0.00806081173673,0.00908319743099,-0.9999262567,0.0,0.591133812783,0.168645541699,0.304047561692,1.0,-0.201666857143,-0.265047869388,1.553
0.387665428824,0.211291891742,-0.126571953059,-1.85619081358,0.0423426344721,2.06025043782,0.069433278802,-0.279920291054,-0.808853448585,-0.00176439599157,-1.11222266627,-0.100960301505,0.306229247949,-0.28038575246,0.573721774528,0.819033086124,0.00297928987727,0.0,0.819000638785,-0.573656477218,-0.0117024235411,0.0,-0.00787573476469,0.00915415175867,-0.999927084495,0.0,0.587911036607,0.164380780503,0.304152510905,1.0,-0.206933142857,-0.271969273469,1.569
0.382044550681,0.195698492551,-0.126751032021,-1.87758266907,0.0402864600887,2.06607407051,0.0640198913448,-0.304246584026,-0.82201149462,-0.00882919488985,-1.12339611475,-0.112607664982,0.312002890296,-0.286979808816,0.573730300839,0.81902725179,0.00294102446905,0.0,0.818994189662,-0.573664998186,-0.0117360153794,0.0,-0.00792510620929,0.00914216560109,-0.999926804071,0.0,0.583945855121,0.159134023075,0.304158075375,1.0,-0.213186857143,-0.280188440816,1.588
0.376990019839,0.182349911419,-0.126948323841,-1.89586571077,0.0385554532791,2.07093735181,0.0592807554328,-0.324394045643,-0.819793285923,-0.00367712298022,-1.14429419076,-0.11177098021,0.297465895041,-0.298302785009,0.573862997038,0.81893455435,0.00286412717515,0.0,0.818899863599,-0.57379723293,-0.0118530916243,0.0,-0.00806363330906,0.00914766015754,-0.999925646302,0.0,0.58050504931,0.154527369123,0.304112123575,1.0,-0.218453142857,-0.287109844898,1.604
0.371435098288,0.167886958681,-0.127097662946,-1.91535881283,0.036587609875,2.07609082281,0.0541011769423,-0.320902530766,-0.830596993553,-0.00804059153047,-1.16325950112,-0.119083221952,0.293434044603,-0.304007357579,0.573904166062,0.818905577551,0.00290002306327,0.0,0.81887152647,-0.573838462243,-0.0118147911099,0.0,-0.00801120780301,0.00915548042314,-0.999925996126,0.0,0.576779465451,0.14959363869,0.304140589712,1.0,-0.224048571429,-0.294463836735,1.621
0.365386372253,0.152247659529,-0.127232495033,-1.93613131102,0.0344622472452,2.08149567141,0.0483190773888,-0.340697639061,-0.865669310569,-0.0100151997472,-1.16385127083,-0.127163632201,0.304834154519,-0.319319530379,0.573767450768,0.819000779559,0.00306307412401,0.0,0.818969094682,-0.573701480779,-0.0117038374016,0.0,-0.00782831251433,0.0092240215834,-0.999926814796,0.0,0.572727089164,0.144334880494,0.304230555274,1.0,-0.229973142857,-0.302250416327,1.639
0.359673370089,0.138153580794,-0.127370566272,-1.95480379574,0.0325723894123,2.08608818547,0.0430382328316,-0.358302891057,-0.890513422743,-0.00669095040312,-1.16380556674,-0.109730156692,0.299850522235,-0.336979590239,0.573787900892,0.818986446227,0.0030647329933,0.0,0.818954136133,-0.573721161531,-0.0117855260297,0.0,-0.00789403589193,0.00927244652582,-0.999925850217,0.0,0.568995070802,0.139491508576,0.304249241266,1.0,-0.235239428571,-0.309171820408,1.655
0.353292795165,0.123035006551,-0.127549833698,-1.97478924031,0.0304257398499,2.09091428481,0.0371272226146,-0.382851126928,-0.895362551108,-0.0128945705237,-1.1791370327,-0.127605127887,0.281287459517,-0.345619249145,0.573753201729,0.819011106106,0.00296959294691,0.0,0.818977442952,-0.573686672402,-0.0118446927179,0.0,-0.00799747296441,0.00922813767891,-0.999925438171,0.0,0.564945762106,0.134185375667,0.304217068671,1.0,-0.240834857143,-0.316525812245,1.672
0.347316809016,0.109388850614,-0.127760313386,-1.99241756192,0.0284660176016,2.09518837679,0.0317397416538,-0.394164859719,-0.895682562505,-0.00795580247142,-1.18440712268,-0.130930480608,0.281950092985,-0.367166715591,0.573847867511,0.818944206796,0.00312378129522,0.0,0.818913335674,-0.573781712962,-0.0116722502989,0.0,-0.00776670271315,0.00925638031745,-0.999926996211,0.0,0.561368940157,0.12933534232,0.304312838745,1.0,-0.245772,-0.323014628571,1.687
0.340455704667,0.0937733378542,-0.127862585331,-2.01247605516,0.0262705693224,2.09984188852,0.0253627969479,-0.395255717949,-0.910622299554,-0.00124188878431,-1.18961974384,-0.129851838651,0.264858943737,-0.384477638814,0.573667999967,0.819069680165,0.00326063633084,0.0,0.819040522004,-0.57360134716,-0.0116131284948,0.0,-0.00764180317835,0.00933285316577,-0.999927247702,0.0,0.55716408827,0.123929274284,0.304385753338,1.0,-0.251367428571,-0.330368620408,1.704
0.332316292691,0.0760932790967,-0.128070802741,-2.03503002648,0.0237875862533,2.10482586753,0.0179232017947,-0.438663316,-0.950450373587,-0.00871814816076,-1.17249088076,-0.145260601806,0.27614824534,-0.406574942076,0.573614416624,0.819106896334,0.00333771190835,0.0,0.819078224768,-0.573546893199,-0.0116434493566,0.0,-0.00762304213685,0.00941287878194,-0.99992664078,0.0,0.552346647899,0.117648973402,0.304428669126,1.0,-0.257621142857,-0.338587787755,1.723
0.325536677653,0.0620986241505,-0.128252661495,-2.0530046684,0.0217326868758,2.10858436276,0.0118328620084,-0.468962562184,-0.931310944016,-0.0146835648757,-1.18974787563,-0.134414365942,0.2382588208,-0.405935884528,0.573640966645,0.819088978831,0.00316749827703,0.0,0.81905742785,-0.573573202771,-0.0118092272602,0.0,-0.00785616702139,0.00936879991081,-0.99992525032,0.0,0.548166626905,0.112187472569,0.30434626526,1.0,-0.25998,-0.341688,1.739
0.317086881184,0.0452350061186,-0.128480802299,-2.07419367277,0.0192458496099,2.11299527028,0.00437072159284,-0.471114265052,-0.923071470194,-0.00818666702135,-1.19370676553,-0.136256530596,0.234584299502,-0.407116634663,0.573719625852,0.819033903228,0.00316277986142,0.0,0.819002121633,-0.573651666203,-0.0118337451484,0.0,-0.00787805621834,0.00937975584508,-0.999924975391,0.0,0.543748203972,0.106333309686,0.304325599501,1.0,-0.25998,-0.341688,1.756
0.309946530306,0.0311756634273,-0.128624709544,-2.09148371261,0.017219588861,2.11640100767,-0.00196992925722,-0.480844512125,-0.931941782739,-0.00753964338335,-1.1568772711,-0.140355942234,0.2245264267,-0.429599087884,0.573724137908,0.819030194477,0.00330166900629,0.0,0.81899998222,-0.573655404097,-0.011800566732,0.0,-0.00777114981615,0.00947451924642,-0.999924918539,0.0,0.539850008778,0.101240991304,0.304408913851,1.0,-0.25998,-0.341688,1.771
0.301590708464,0.015420022802,-0.128819875653,-2.11070650871,0.0148292517597,2.12004768274,-0.00935858288077,-0.496316002338,-0.951256094263,-0.0192675481485,-1.11626550304,-0.132964079791,0.224934668236,-0.438722423371,0.573726016929,0.819028525682,0.00338799632087,0.0,0.818999827957,-0.573657473255,-0.0117103409878,0.0,-0.0076477011476,0.0094934784746,-0.999925690506,0.0,0.535455081926,0.0954034011331,0.304485815921,1.0,-0.25998,-0.341688,1.788
0.292431355109,-0.0010487087188,-0.129044253676,-2.13078853265,0.01236295061,2.12356893063,-0.0173329532964,-0.508936825371,-0.92210160907,-0.00546863600522,-1.11091945077,-0.135825919162,0.193881819924,-0.443834176256,0.573857008645,0.818936933493,0.00334357443877,0.0,0.818906859592,-0.573787612847,-0.0118354365586,0.0,-0.00777412420227,0.00953010774712,-0.999924367159,0.0,0.530497594158,0.0888276302615,0.30447408735,1.0,-0.25998,-0.341688,1.807
0.283752094537,-0.0164566471559,-0.129168045788,-2.14925022372,0.0100126801494,2.12684402299,-0.025028433042,-0.516241113739,-0.899838071782,-0.0101688739578,-1.08671223684,-0.14561540017,0.174524007852,-0.455050152239,0.573754188176,0.819008505744,0.0034562943907,0.0,0.818980281429,-0.573684897646,-0.0117338717263,0.0,-0.00762746370769,0.00956317912012,-0.999925180902,0.0,0.526365836346,0.0834327520813,0.30451641349,1.0,-0.25998,-0.341688,1.823
0.274768436149,-0.03183241774,-0.129359181405,-2.16736211983,0.00763072862219,2.12976501514,-0.0328713284935,-0.536035162488,-0.886286187181,-0.0138201672207,-1.06749394135,-0.143227680918,0.175846616761,-0.454043596469,0.57378194032,0.818988622121,0.00355931163067,0.0,0.818962138229,-0.573712822668,-0.0116344383218,0.0,-0.00748659402806,0.00959075671027,-0.999925981408,0.0,0.52197444374,0.0776075625305,0.304606333605,1.0,-0.25998,-0.341688,1.84
0.265499296166,-0.0469771748372,-0.129560398106,-2.18530690849,0.00537885071307,2.13241915767,-0.040930825324,-0.544420326472,-0.903883048047,-0.008260481679,-1.02767683722,-0.119392589019,0.152171611485,-0.472249327166,0.573896994226,0.818908218884,0.00350941065379,0.0,0.818879730397,-0.573826303376,-0.0118367056408,0.0,-0.00767953124605,0.00966702115894,-0.999923783846,0.0,0.51751357964,0.0717478846295,0.304555895027,1.0,-0.25998,-0.341688,1.857
0.256708676917,-0.0611155919011,-0.129695308923,-2.20172583664,0.0031641282681,2.13488003834,-0.0486591012319,-0.553408724603,-0.869223229504,-0.0109204601275,-1.03472017333,-0.128663638439,0.137351041405,-0.492484791476,0.573827305202,0.818956576691,0.00361886713688,0.0,0.818929943187,-0.573756804221,-0.0117313538297,0.0,-0.00753126472919,0.00969555648281,-0.999924635278,0.0,0.5133928812,0.0663289583949,0.304594347898,1.0,-0.25998,-0.341688,1.873
0.246517978761,-0.076966956217,-0.129922932998,-2.21988162701,0.000663103281887,2.13729413601,-0.0575620043515,-0.578281278086,-0.864251882055,-0.0196866692498,-1.00468182222,-0.138411962201,0.129909986447,-0.497267321187,0.573848327187,0.818941562827,0.00368252083774,0.0,0.818915941039,-0.573777856614,-0.0116790270583,0.0,-0.00745163522525,0.00971785225656,-0.999925015429,0.0,0.508729196477,0.0601531195277,0.304647271443,1.0,-0.25998,-0.341688,1.891
0.236689005695,-0.0917010887124,-0.130059190534,-2.23686685152,-0.00159367663679,2.13926843189,-0.0662106605557,-0.575281550718,-0.860645079116,-0.0035768666913,-0.984061700674,-0.130262840244,0.098445713435,-0.51386817044,0.57378948846,0.818983403489,0.00354325342801,0.0,0.818954349045,-0.573717425927,-0.0119514128362,0.0,-0.00775533183911,0.00975954576377,-0.999922300029,0.0,0.504232934061,0.054378103493,0.304553117829,1.0,-0.25998,-0.341688,1.908
0.227270836841,-0.105522334466,-0.130230931775,-2.25234764944,-0.00385146984074,2.14105289769,-0.074442171569,-0.598146716679,-0.835108431067,-0.011746546004,-0.964953237734,-0.136696214552,0.103652857953,-0.511520804534,0.573747655579,0.819012508831,0.00358956792328,0.0,0.8189847152,-0.573676267268,-0.0118458238459,0.0,-0.00764277512697,0.00973650238117,-0.99992339132,0.0,0.500101584589,0.0489331018123,0.304601308085,1.0,-0.25998,-0.341688,1.924
0.216286041643,-0.120945448303,-0.130487084896,-2.2695025823,-0.00633561616941,2.1428176907,-0.0839432131717,-0.618756193472,-0.857759130396,-0.0120788686599,-0.943506115302,-0.129006992426,0.102492318751,-0.530977982276,0.57386933498,0.818927167035,0.00360948236021,0.0,0.818899654864,-0.57379788864,-0.0118357575831,0.0,-0.00762165681037,0.00974816987469,-0.999923438835,0.0,0.495427650139,0.0427073564257,0.304617932241,1.0,-0.25998,-0.341688,1.942
0.207103258812,-0.133677083091,-0.130607430826,-2.28361671279,-0.00830064638758,2.14404316816,-0.0920871403753,-0.611017821491,-0.849978917213,-0.00391457233883,-0.945901613388,-0.138035306383,0.0816298687588,-0.555625969568,0.573757223602,0.81900591423,0.00356478930424,0.0,0.818976623798,-0.573684436075,-0.0120085127869,0.0,-0.00779012883595,0.00980963893107,-0.99992153936,0.0,0.491470653888,0.0376590382332,0.304576835029,1.0,-0.25998,-0.341688,1.957
0.196989016233,-0.147158675429,-0.130817007467,-2.29816613531,-0.0104607679568,2.14535772731,-0.100947853082,-0.635077014223,-0.831098292534,-0.0123716443357,-0.903051716238,-0.134113490271,0.0882335720288,-0.558390786555,0.573776677491,0.818991482643,0.003744679747,0.0,0.8189652721,-0.573704188509,-0.0118378242243,0.0,-0.00754688405813,0.00985921994059,-0.999922917191,0.0,0.487376386135,0.0321751730635,0.304657049513,1.0,-0.25998,-0.341688,1.973
0.18407919554,-0.16377150155,-0.131062208515,-2.31611858428,-0.0131754775448,2.14651010127,-0.112237496859,-0.638586754385,-0.807698739498,-0.0053209186234,-0.868636621724,-0.133768468415,0.057548202171,-0.57379951176,0.573793629183,0.81898011284,0.00363218699871,0.0,0.818951713168,-0.573720602544,-0.0119795081915,0.0,-0.00772726723083,0.0098485408611,-0.999921644722,0.0,0.482143241257,0.0253330010342,0.304624838737,1.0,-0.25998,-0.341688,1.993
0.173618161869,-0.176952348458,-0.131241364931,-2.33009853734,-0.01521446108,2.14737078218,-0.121524507863,-0.660956520874,-0.792359112816,-0.0119575599076,-0.858075525768,-0.133763048367,0.0471147455641,-0.581755310252,0.573733875118,0.819021416989,0.0037557897435,0.0,0.818994191584,-0.573659842646,-0.0119852404002,0.0,-0.00766177033505,0.0099525000202,-0.999921119398,0.0,0.478002518105,0.019936595874,0.304651475306,1.0,-0.25998,-0.341688,2.009
0.162713691187,-0.19001843374,-0.131522163289,-2.34380827204,-0.0174092298852,2.14802156211,-0.131013825597,-0.68294075542,-0.797032938964,-0.0154530672015,-0.817705815509,-0.135431776786,0.048972162736,-0.59273074456,0.573865490423,0.818929222959,0.00375147796284,0.0,0.818902198502,-0.573791788046,-0.0119549220609,0.0,-0.00763781483739,0.00993280200008,-0.999921498533,0.0,0.473854293845,0.0143624695984,0.304671146235,1.0,-0.25998,-0.341688,2.025
0.15253649929,-0.202161515125,-0.131654765422,-2.35643464312,-0.0193114652127,2.14855840679,-0.140147549001,-0.688747273161,-0.784395814463,-0.00999928723396,-0.873004513446,-0.12268896648,0.0323469491091,-0.607622211002,0.57370722094,0.819039625192,0.00385537381546,0.0,0.819013727581,-0.573632871688,-0.0119410825853,0.0,-0.00756879637466,0.0100084820791,-0.999921268705,0.0,0.469963251433,0.00933149296442,0.304688064312,1.0,-0.25998,-0.341688,2.04
0.139853158755,-0.216610953878,-0.131981066268,-2.37124634835,-0.021587640126,2.14890822067,-0.151267549895,-0.713861211196,-0.826931262632,-0.0232118825408,-0.814958634032,-0.129111876957,0.0300814131759,-0.617625427276,0.573891525096,0.81891002007,0.00395516780488,0.0,0.818884708197,-0.573815835302,-0.0119986973484,0.0,-0.00755646105393,0.0101249720913,-0.999920189233,0.0,0.465278008403,0.00311532416779,0.304715545553,1.0,-0.25998,-0.341688,2.058
0.127083612182,-0.230839932687,-0.132156181316,-2.38577957214,-0.0239603573883,2.14912718046,-0.162639704408,-0.715482623444,-0.782655273386,-0.0120929961835,-0.823340929553,-0.11409918409,0.00218127948178,-0.643813626528,0.573756835067,0.819004615189,0.0039091448154,0.0,0.818978624229,-0.573681230029,-0.0120252347,0.0,-0.00760626615616,0.0101012611258,-0.999920051424,0.0,0.460574558224,-0.00295587384565,0.304691671588,1.0,-0.25998,-0.341688,2.076
0.115362074207,-0.243376157576,-0.132429913303,-2.39822778694,-0.0260076274639,2.1492264189,-0.173032858828,-0.742015524107,-0.782099552318,-0.0226362444359,-0.763418254935,-0.122938459205,0.0174626909959,-0.663404499543,0.573820458671,0.818959242116,0.0040728202976,0.0,0.818936081324,-0.573745201536,-0.0118695122574,0.0,-0.00738402782552,0.0101465438146,-0.999921258791,0.0,0.456466188236,-0.00846295781833,0.304767854331,1.0,-0.25998,-0.341688,2.092
0.102738609609,-0.256485402894,-0.132631509761,-2.41130546917,-0.028122153967,2.14916898732,-0.184351507819,-0.732959572631,-0.768283867223,-0.00726176679006,-0.787951952929,-0.11881284077,2.19199778645e-05,-0.672586793591,0.573741757173,0.819014112457,0.0041263268884,0.0,0.818991387452,-0.573665967992,-0.011883238148,0.0,-0.00736554824582,0.0101975324534,-0.999920876385,0.0,0.4520408498,-0.014231862447,0.304753499203,1.0,-0.25998,-0.341688,2.109
0.0913760311417,-0.267922701892,-0.132872262631,-2.42243026867,-0.0299856183132,2.14901247249,-0.194466066419,-0.765967290134,-0.752565266892,-0.0240882042911,-0.730635769395,-0.122895821339,-2.89265614294e-05,-0.678929170463,0.573796621317,0.818974922672,0.00427320729126,0.0,0.818954715687,-0.573721186706,-0.0117439550768,0.0,-0.00716651312027,0.0102384021272,-0.999921905056,0.0,0.44819184975,-0.0193605202978,0.30481436162,1.0,-0.25998,-0.341688,2.124
0.0782686656159,-0.280662395864,-0.133104849626,-2.43482741029,-0.0321183111229,2.14867409912,-0.206249244693,-0.765232407388,-0.740703345394,-0.00266758485883,-0.738870369019,-0.117120381138,-0.0274128826638,-0.703860611375,0.573732430009,0.819019744559,0.00430159030913,0.0,0.819000192991,-0.573657326095,-0.0116920058063,0.0,-0.00710848167445,0.0102312831802,-0.999922392155,0.0,0.443790881617,-0.0251539350808,0.304816491015,1.0,-0.25998,-0.341688,2.141
0.0624940044176,-0.295457891265,-0.133447402827,-2.44896442277,-0.0344616197948,2.14803967717,-0.220477644902,-0.814991734456,-0.742841159188,-0.0214026593953,-0.685580048552,-0.129105069381,-0.0242070386978,-0.71783179339,0.57376626044,0.818995213644,0.00445705180836,0.0,0.818977337522,-0.573690163574,-0.0116817697783,0.0,-0.00701048172782,0.0103530291121,-0.999921830912,0.0,0.438611656528,-0.0319925814372,0.304849391663,1.0,-0.25998,-0.341688,2.161
0.0488832197591,-0.307814550209,-0.133660901028,-2.46066173841,-0.0364951197577,2.14738652554,-0.232779764036,-0.801249567516,-0.714179761167,-0.0163411937316,-0.691323396709,-0.115215589069,-0.0394048539138,-0.722170037655,0.573702347527,0.819039680125,0.00451283990132,0.0,0.819022731545,-0.573626391004,-0.0116308064023,0.0,-0.00693754145872,0.0103689390338,-0.999922174783,0.0,0.434207492046,-0.0377468866023,0.304862993116,1.0,-0.25998,-0.341688,2.178
0.0365721060657,-0.318479661535,-0.133952261957,-2.47078222402,-0.0382875664422,2.14660647909,-0.243857017718,-0.834285978103,-0.702168275872,-0.0247787962045,-0.66587101068,-0.11714151002,-0.0400726853795,-0.742726844693,0.57378519725,0.818982029593,0.00444179259783,0.0,0.818963212981,-0.573708055361,-0.0117927901119,0.0,-0.00710992787492,0.0104043934546,-0.999920595609,0.0,0.430266025084,-0.0429010167226,0.304803709319,1.0,-0.25998,-0.341688,2.193
0.0241412681446,-0.329070275361,-0.134126919877,-2.4803907954,-0.0399727852021,2.14591546683,-0.255225813349,-0.829862557958,-0.693887164913,-0.0109601146028,-0.643065460189,-0.112031358408,-0.0488479252491,-0.762604478912,0.573689545755,0.819047733449,0.00467571641704,0.0,0.819033272323,-0.573613682199,-0.0115147437051,0.0,-0.00674919976501,0.0104356563219,-0.999922769708,0.0,0.426463617695,-0.0479784773341,0.304917610385,1.0,-0.25998,-0.341688,2.208
0.00975978625367,-0.340778751012,-0.13445090345,-2.49125339571,-0.0419094574753,2.14483098212,-0.268308468368,-0.860838604336,-0.6774685931,-0.0288041609155,-0.622130304818,-0.118879027367,-0.0618404084764,-0.764510119877,0.573732960659,0.819017515755,0.0046417281772,0.0,0.819001567841,-0.57365558769,-0.0116809883138,0.0,-0.00690431365437,0.0105035528893,-0.999920999794,0.0,0.422002050018,-0.0537921315993,0.304863246646,1.0,-0.25998,-0.341688,2.225
-0.00486175415089,-0.352353249776,-0.134684807904,-2.50161967783,-0.0438207058661,2.14367021776,-0.281691372628,-0.85958660834,-0.679954816965,-0.0219637618302,-0.589050650758,-0.111856235447,-0.0506833435161,-0.7965755999,0.573672123433,0.819059649838,0.00472564333412,0.0,0.819045294956,-0.573595279593,-0.0115761367,0.0,-0.00677107012657,0.0105116252417,-0.999921826116,0.0,0.417610823666,-0.0595738173732,0.304928672476,1.0,-0.25998,-0.341688,2.242
-0.0197990266729,-0.363584659178,-0.135025333406,-2.51172745233,-0.0456917312497,2.14248611243,-0.295353695416,-0.888917452656,-0.66332836658,-0.0245115622278,-0.595065061325,-0.103552087714,-0.0797764140139,-0.808476641622,0.573738897429,0.819012541308,0.00478347759336,0.0,0.818998789793,-0.573661642617,-0.0115779535633,0.0,-0.00673852129478,0.0105605879959,-0.999921530077,0.0,0.413194834575,-0.0654161290693,0.304922097698,1.0,-0.25998,-0.341688,2.259
-0.0357118336592,-0.375185285159,-0.135239065202,-2.52217632125,-0.0476454189294,2.14098543908,-0.310127183297,-0.890501332459,-0.633816964791,-0.0164637753269,-0.566060291309,-0.114111214669,-0.0792706253128,-0.819691186705,0.573533660612,0.8191569716,0.00466293101179,0.0,0.819140444117,-0.573454953974,-0.0117938744979,0.0,-0.00698718815338,0.0105839831679,-0.999919576017,0.0,0.408467886322,-0.0714598554154,0.304848084097,1.0,-0.25998,-0.341688,2.277
-0.0512005705991,-0.385961905626,-0.135560918819,-2.53137128285,-0.0494336931769,2.13971326549,-0.32432547849,-0.906625188291,-0.62532153085,-0.00784070353552,-0.548128665125,-0.0996810053871,-0.0821693877949,-0.847836663662,0.573646889748,0.819076362696,0.00488925929722,0.0,0.819064533036,-0.573570221544,-0.0114559409232,0.0,-0.00657908355206,0.010576487393,-0.999922423778,0.0,0.404142232545,-0.0773237341568,0.304980519649,1.0,-0.25998,-0.341688,2.294
-0.0668443193867,-0.396373542109,-0.135855813916,-2.54049004375,-0.0512214175916,2.1381854621,-0.338878296227,-0.937705559064,-0.614239730162,-0.0277854732681,-0.530031861151,-0.112610823684,-0.093621305281,-0.865902095201,0.573570279179,0.819130347883,0.0048326928936,0.0,0.819117103504,-0.57349269986,-0.0115776014602,0.0,-0.00671217984683,0.0105993135765,-0.9999212975,0.0,0.399690803006,-0.0831151018256,0.304941720181,1.0,-0.25998,-0.341688,2.311
-0.0817921377336,-0.405895225071,-0.13610429824,-2.54876524925,-0.0527437365515,2.13665139857,-0.35276816586,-0.929401797897,-0.591612861329,-0.0136063011542,-0.509149026465,-0.0820694908931,-0.102486630976,-0.88200695453,0.573577188965,0.819125485593,0.00483673983691,0.0,0.819110850906,-0.573497332644,-0.0117885656121,0.0,-0.00688258964747,0.0107236848733,-0.999918812976,0.0,0.39549431733,-0.0885348430811,0.304894114259,1.0,-0.25998,-0.341688,2.327
-0.097037351943,-0.415198863571,-0.136448722382,-2.55646670408,-0.0542806620377,2.13532186409,-0.366956523275,-0.965952356807,-0.571622302903,-0.0212897509509,-0.479053793055,-0.099441512979,-0.0935394112826,-0.902783738156,0.573665118719,0.819062525761,0.00506530952567,0.0,0.819052386322,-0.573586992962,-0.0114846361009,0.0,-0.0065013645644,0.0107372957129,-0.999921218267,0.0,0.391423491379,-0.0940618569795,0.305006231605,1.0,-0.25998,-0.341688,2.343
-0.114333317449,-0.425274760441,-0.136686446409,-2.56505645893,-0.0560049643858,2.13351745116,-0.383222738993,-0.963321180774,-0.549981538069,-0.0129683586026,-0.477958855419,-0.0933550720955,-0.107123999381,-0.91034131131,0.573519180349,0.819165212118,0.00498517083103,0.0,0.819153009108,-0.573439649863,-0.0116645846655,0.0,-0.0066966562873,0.0107736881505,-0.999919537982,0.0,0.386708179045,-0.100149057321,0.304955860253,1.0,-0.25998,-0.341688,2.361
-0.129959717565,-0.433900417048,-0.137003971865,-2.57236368807,-0.0575588159739,2.13195044142,-0.397827569289,-0.965182125168,-0.528914954836,-0.0111015069625,-0.450270774643,-0.0924840728282,-0.0860029632189,-0.919266720317,0.573554635047,0.819140795784,0.00491774335066,0.0,0.819127008352,-0.573474188891,-0.0117917668538,0.0,-0.00683905007801,0.0107916867065,-0.999918380115,0.0,0.382513963184,-0.105616711884,0.304903788986,1.0,-0.25998,-0.341688,2.377
-0.14884842594,-0.443777858378,-0.137377675848,-2.58034998873,-0.0591451625759,2.13015990364,-0.415598375292,-1.00748333247,-0.511936934118,-0.0289694942638,-0.397037138496,-0.0906177570662,-0.095380012563,-0.937756283539,0.573653598116,0.819070124737,0.00514072291925,0.0,0.819059819183,-0.573573358925,-0.0116344932521,0.0,-0.00658101083204,0.0108849380698,-0.999919100937,0.0,0.377643911262,-0.112143496327,0.3049886805,1.0,-0.25998,-0.341688,2.396
-0.162900590924,-0.450807416187,-0.137552362899,-2.58606958781,-0.0603125583904,2.1288159187,-0.428858182333,-0.999212602048,-0.491779694231,-0.0176734743068,-0.409162610934,-0.0747033284984,-0.103265967899,-0.940079578965,0.573630446214,0.819085956793,0.00520129418132,0.0,0.819076626134,-0.573550339003,-0.0115860282544,0.0,-0.0065068742747,0.0109065670322,-0.999919350439,0.0,0.374026081836,-0.116892486763,0.3050104589,1.0,-0.25998,-0.341688,2.41
-0.181221425218,-0.459416389626,-0.137898027467,-2.59319038242,-0.0619116600535,2.12692473414,-0.446245649275,-1.02009317706,-0.469741985097,-0.0136199972035,-0.385176926918,-0.0854072504947,-0.0984881404768,-0.963896743286,0.573583432639,0.819119593296,0.00508768917651,0.0,0.819107350026,-0.573501338883,-0.0118368211183,0.0,-0.00677810604537,0.0109569790435,-0.9999169975,0.0,0.369276021302,-0.123043616992,0.304939173518,1.0,-0.25998,-0.341688,2.428
-0.199793200176,-0.467557204618,-0.138221550336,-2.59983419608,-0.0632839362471,2.12526495921,-0.463921870065,-1.0516741,-0.443830143103,-0.0273122404416,-0.353357246404,-0.0790829838258,-0.0952185124101,-0.994407024433,0.573606904922,0.819102576088,0.00518028706197,0.0,0.819090909596,-0.573523459287,-0.0119025361569,0.0,-0.00677851237961,0.0110707161128,-0.999915741958,0.0,0.364597647012,-0.129190366231,0.304902604169,1.0,-0.25998,-0.341688,2.446
-0.216449856967,-0.474549590041,-0.138410241109,-2.60520238546,-0.0645401725807,2.12376274763,-0.479757091467,-1.04091119997,-0.428695544156,-0.0143026816799,-0.326146451262,-0.0694480796416,-0.0897831071039,-0.999732341091,0.573582210302,0.819119506358,0.00523729222689,0.0,0.819110038693,-0.573500986582,-0.0116666105724,0.0,-0.00655288219712,0.0109818903529,-0.999918225566,0.0,0.360507577848,-0.134643458927,0.305003833547,1.0,-0.259102285714,-0.340534432653,2.462
-0.23428512329,-0.481421755897,-0.138648187363,-2.61064923782,-0.0656771841481,2.12223962268,-0.496805969478,-1.04163183053,-0.396665268107,-0.00772800502709,-0.31491947053,-0.0692026480099,-0.0884261622935,-0.999547732441,0.573610137858,0.819099236768,0.00534761379245,0.0,0.819090970491,-0.573528163734,-0.0116693772437,0.0,-0.00649149585656,0.0110740684707,-0.99991760935,0.0,0.356142297954,-0.140401514799,0.305005954718,1.0,-0.253506857143,-0.333180440816,2.479
-0.252041509758,-0.487727587065,-0.138782924944,-2.61576418286,-0.0666943705295,2.12064080124,-0.513734220665,-1.05853030841,-0.362092256001,-0.0148300376808,-0.286310888993,-0.0587302356925,-0.0920893076202,-0.985673780599,0.573664712589,0.819060886722,0.00536733399112,0.0,0.819050906049,-0.573579327829,-0.0119630635721,0.0,-0.00672001501552,0.0112591239673,-0.999914033068,0.0,0.351792893619,-0.146014132922,0.304926906428,1.0,-0.247911428571,-0.32582644898,2.496
-0.268604999422,-0.493195856407,-0.138800000486,-2.62008666494,-0.067582923086,2.1193390248,-0.529527266534,-1.02651195119,-0.332748161621,0.00365986776788,-0.259066057903,-0.0467392092674,-0.0806838739784,-0.980256768634,0.573683515567,0.819047489009,0.00540200117296,0.0,0.819037629578,-0.573597441117,-0.0120034903304,0.0,-0.00673298419557,0.0113108645367,-0.999913361881,0.0,0.347841651633,-0.151193321841,0.304909629285,1.0,-0.242645142857,-0.318905044898,2.512
-0.286105813005,-0.498526044371,-0.138807820335,-2.62417523576,-0.0684488508282,2.11805116246,-0.546181888189,-1.01602935937,-0.305468574343,0.00778430153406,-0.23351780405,-0.0536741767831,-0.0797066939386,-0.970210080262,0.573778150272,0.818980759457,0.00546779761534,0.0,0.818972133465,-0.573692445702,-0.0119318587335,0.0,-0.00663525628999,0.0113244317422,-0.9999138616,0.0,0.3437436568,-0.156637339791,0.304939285635,1.0,-0.237049714286,-0.311551053061,2.529
-0.302200773453,-0.503086125714,-0.138767413616,-2.62764748462,-0.0690655605996,2.1169232944,-0.561652830014,-1.01061162396,-0.280812852635,-0.00300989358335,-0.208436271104,-0.0380457835437,-0.0665375837941,-0.969471059365,0.573797182227,0.818966423942,0.00561578351993,0.0,0.818959816043,-0.573711081647,-0.0118811364791,0.0,-0.00650853992669,0.0114166834783,-0.999913645395,0.0,0.340006884486,-0.161573438723,0.304968569001,1.0,-0.231783428571,-0.30462964898,2.545
-0.317173855112,-0.50696064034,-0.138727569508,-2.63056259239,-0.0696699187129,2.11598444173,-0.575998570326,-0.991652165945,-0.249289926318,0.00427733799329,-0.184036058918,-0.0407380707524,-0.0578212509444,-0.955557830432,0.573855420712,0.818925072759,0.00569457873913,0.0,0.818920148378,-0.573770192351,-0.0117602658127,0.0,-0.00636351951528,0.0114123172741,-0.999914628673,0.0,0.336573605316,-0.16615836739,0.305006205039,1.0,-0.226846285714,-0.298140832653,2.56
-0.334896137995,-0.511186959554,-0.138659212173,-2.63378508521,-0.0703150165402,2.11485297105,-0.592962457667,-0.98722535028,-0.222497659219,0.00440617053007,-0.17089961321,-0.0388626486823,-0.0664691027992,-0.941525739811,0.573965036461,0.818847762564,0.00576416218845,0.0,0.818843604261,-0.573879290827,-0.0117668271944,0.0,-0.00632742863433,0.0114739156501,-0.999914152768,0.0,0.332493218629,-0.171520897633,0.305014163061,1.0,-0.220921714286,-0.290354253061,2.578
-0.351152933171,-0.514640499498,-0.138475926693,-2.6365307264,-0.0707651896707,2.11384103852,-0.60874260551,-0.954011363333,-0.197526886064,0.00805288779544,-0.155255220899,-0.0229356385639,-0.050249826573,-0.918540772798,0.573873526877,0.818911529949,0.00581619877148,0.0,0.818906767475,-0.573785288674,-0.0119538941596,0.0,-0.00645205668608,0.0116231717183,-0.999911632517,0.0,0.328758372755,-0.176346090189,0.304961507581,1.0,-0.215326285714,-0.283000261225,2.595
-0.368235872825,-0.51777720646,-0.13831874082,-2.63906416679,-0.0712234879433,2.11295579745,-0.625150141845,-0.936012429612,-0.164532681372,0.0174129295409,-0.131392819571,-0.0260369720673,-0.0525947153994,-0.906817250251,0.573972313187,0.818842005589,0.00585666112886,0.0,0.818836696689,-0.573881960688,-0.0121122357053,0.0,-0.00655710144986,0.0117479631827,-0.999909490795,0.0,0.324878050724,-0.181421084852,0.304895169941,1.0,-0.209401714286,-0.275213681633,2.613
-0.38396215721,-0.520365778514,-0.138182857028,-2.64108316774,-0.0715662913803,2.11221728606,-0.640320312578,-0.929820834247,-0.144370258789,0.0036403748248,-0.10676516244,-0.0213802287592,-0.0423382879632,-0.878848863349,0.574067121653,0.81877488867,0.00594713560688,0.0,0.818770247506,-0.57397543589,-0.0121748796926,0.0,-0.00655510221862,0.0118587641523,-0.99990819596,0.0,0.321337397317,-0.186079505311,0.304870314757,1.0,-0.203806285714,-0.267859689796,2.63
-0.39657381154,-0.522239576303,-0.137948016922,-2.64251031839,-0.071795506403,2.11166132413,-0.652614195562,-0.893798375019,-0.128483811006,0.014994958444,-0.0994866128739,-0.00776635821929,-0.0374328400576,-0.876581272357,0.57397941416,0.818836137977,0.00597981319633,0.0,0.818831796138,-0.573887371761,-0.0121869219957,0.0,-0.00654747892118,0.0118917324803,-0.999907854364,0.0,0.318529121774,-0.189768204021,0.304868416685,1.0,-0.199198285714,-0.261803461225,2.644
-0.412622158754,-0.524382015863,-0.137777690526,-2.64404105994,-0.0720564160415,2.11102229054,-0.668082563245,-0.891956183542,-0.11878186527,0.010809761543,-0.0739972252461,-0.0163511240163,-0.0244809326697,-0.85785598183,0.57413187546,0.818728423918,0.0060913341604,0.0,0.818725952921,-0.574040074597,-0.0121059353778,0.0,-0.00641492698329,0.0119377665867,-0.999908165004,0.0,0.314962411275,-0.194494274501,0.304908049216,1.0,-0.193273714286,-0.254016881633,2.662
-0.427242382836,-0.526006306729,-0.137503885621,-2.64522779774,-0.0722358850103,2.11054535986,-0.682380037715,-0.856898609329,-0.0916478713559,0.0123508401158,-0.0656066693436,-0.0153588013089,-0.0256093854187,-0.833863732712,0.574055976065,0.818781214964,0.00614859879217,0.0,0.818779870612,-0.573964656598,-0.0120350886416,0.0,-0.00632514788452,0.011943393428,-0.999908669758,0.0,0.311744589321,-0.198755404553,0.304929707071,1.0,-0.187678285714,-0.246662889796,2.679
-0.44085776294,-0.527285396021,-0.137312908089,-2.64617799062,-0.0724100176639,2.11014447839,-0.695487657204,-0.833595558571,-0.0703252308952,0.0172833608082,-0.0593861310261,-0.0170209467486,-0.0318882660227,-0.806033701422,0.574206615165,0.818675223183,0.00619588160618,0.0,0.818674627715,-0.574115314121,-0.0120086189234,0.0,-0.00627412905904,0.0119680699145,-0.999908696135,0.0,0.308729475812,-0.202728027609,0.304936255108,1.0,-0.182412,-0.239741485714,2.695
-0.454688905055,-0.528325033361,-0.136959016813,-2.64698120743,-0.0724823032106,2.10979260601,-0.70905608973,-0.810304611818,-0.0546560130505,0.0186907708448,-0.0379762080425,-0.00817802771903,-0.0229941081328,-0.787552392582,0.574094024276,0.818753954111,0.00622581875711,0.0,0.818753662757,-0.574002455275,-0.012015321977,0.0,-0.00626407772882,0.0119955674096,-0.999908429654,0.0,0.305697127105,-0.206702341892,0.304930166981,1.0,-0.176816571429,-0.232387493878,2.712
-0.469938428879,-0.529178634776,-0.136638832904,-2.64765062385,-0.0725625235108,2.10945627308,-0.723828877151,-0.781312146425,-0.0363839254983,0.0272013273172,-0.0317149320007,-0.00589724075141,-0.0176880933514,-0.774931834911,0.574185184351,0.81868977557,0.00625878191121,0.0,0.818689654394,-0.574092955609,-0.012053008312,0.0,-0.00627467287085,0.0120448907009,-0.999907770291,0.0,0.302342144341,-0.211098455258,0.304917099875,1.0,-0.170562857143,-0.224168326531,2.731
-0.483752781244,-0.529676242806,-0.136284024127,-2.6480552878,-0.0725798970478,2.10924862221,-0.737392336969,-0.767970121669,-0.0251320405347,0.0109503530203,-0.0194997387218,0.000922959510217,-0.0155411030382,-0.740318952731,0.574141046298,0.81872054635,0.00628274148156,0.0,0.818720628855,-0.57404851297,-0.012065800673,0.0,-0.00627204127054,0.0120715138936,-0.999907465744,0.0,0.299153232147,-0.215291620983,0.304906265043,1.0,-0.164309142857,-0.215949159184,2.75
-0.494306951053,-0.529905156923,-0.136033922845,-2.64824718667,-0.0725844162243,2.10908333618,-0.747641283561,-0.739134081615,-0.0114978707491,0.0306067169697,-0.0111766373159,-0.000317183948157,-0.0073297740467,-0.725862426547,0.574134045174,0.818725404231,0.00628947857719,0.0,0.818725271811,-0.574040901409,-0.0121127910967,0.0,-0.0063067532597,0.012103953847,-0.999906855244,0.0,0.296857329044,-0.218297234332,0.304894421435,1.0,-0.159701142857,-0.209892930612,2.764
-0.507281968841,-0.53004597459,-0.135629944231,-2.64837688309,-0.07259230598,2.10894963966,-0.760432004974,-0.7147110514,-0.00414647108373,0.023355886724,-0.00763678825467,-0.00212465063173,-0.00769496840616,-0.696756165265,0.574025407345,0.818801872419,0.00625078769601,0.0,0.818801149023,-0.573932296742,-0.012130293292,0.0,-0.00634490008068,0.0120814813019,-0.999906885691,0.0,0.294178111519,-0.221787352087,0.304886248761,1.0,-0.154105714286,-0.202538938776,2.781
-0.51935391277,-0.530042074662,-0.135339608155,-2.6483882671,-0.0725887995485,2.10886873036,-0.772102794304,-0.691708710876,0.00129051856072,0.0222198237868,0.00420720388475,-0.00108811224597,-0.00105383262223,-0.679786615461,0.574150141132,0.818714437238,0.0062476072514,0.0,0.818713633222,-0.574056943297,-0.0121391733257,0.0,-0.00635215643494,0.0120849419825,-0.9999067978,0.0,0.291516861307,-0.225240248613,0.304880210422,1.0,-0.148510285714,-0.195184946939,2.798
-0.53072409713,-0.52988714774,-0.134947983187,-2.64829270991,-0.0725517583483,2.10886652413,-0.78333303106,-0.668354167955,0.0152601822255,0.0182955890945,0.00596086613903,-8.78565994701e-05,0.00161764126973,-0.648169478747,0.574010123098,0.818812959404,0.00620185410994,0.0,0.818811748993,-0.573917522129,-0.0121138105316,0.0,-0.00635971475188,0.0120318325353,-0.999907390229,0.0,0.289034472795,-0.228462870388,0.304877015544,1.0,-0.142914857143,-0.187830955102,2.815
-0.540643384744,-0.52970026546,-0.134696457512,-2.64814421116,-0.0725267924785,2.10886314787,-0.792942769381,-0.661083649995,0.0168271349376,0.0165148852488,0.0130536851459,0.00731802339282,-0.00145526627587,-0.624813626842,0.574105414924,0.818746219785,0.00619249893877,0.0,0.818745082069,-0.574013203342,-0.0120863508689,0.0,-0.0063412000201,0.0120091487457,-0.999907780512,0.0,0.286836773025,-0.231288224708,0.304882494012,1.0,-0.137977714286,-0.181342138776,2.83
-0.551229575824,-0.529282645939,-0.134251249728,-2.64784967623,-0.0724408275905,2.10889365209,-0.80341842643,-0.613827052427,0.0323994094084,0.0238574188852,0.0193652926596,0.00231728648234,-0.0015759105643,-0.599392357138,0.573932660678,0.818867807252,0.00612879715632,0.0,0.818865789971,-0.573840673318,-0.0121015107538,0.0,-0.00639270756801,0.0119643449408,-0.999907989637,0.0,0.284668041463,-0.234092976773,0.304876151609,1.0,-0.132711428571,-0.174420734694,2.846
-0.56271116236,-0.528678311592,-0.133855501049,-2.64743485676,-0.0723444566247,2.10896756156,-0.814671259959,-0.601144017349,0.0349317508641,0.0185794345155,0.021272594141,0.00845992928061,0.00701495141003,-0.585191441184,0.573908928864,0.818884770674,0.00608445804923,0.0,0.818882008986,-0.573816832068,-0.0121344754801,0.0,-0.0064454968239,0.0119467670684,-0.999907860919,0.0,0.282012800169,-0.237514296627,0.304862330637,1.0,-0.126128571429,-0.165768979592,2.866
-0.571999824481,-0.528055123749,-0.133528881837,-2.64696443039,-0.0722007081713,2.10909188248,-0.823721901143,-0.561793822999,0.042542491261,0.0204588057537,0.0314503498029,0.010465814302,0.0130819693359,-0.567423471966,0.57396138852,0.818847984256,0.00608687684534,0.0,0.81884548782,-0.573869703934,-0.0120986314994,0.0,-0.0064139892916,0.0119285886366,-0.999908280551,0.0,0.279992969451,-0.240152782773,0.30486749873,1.0,-0.120862285714,-0.15884757551,2.882
-0.580713379111,-0.527323015572,-0.133147328815,-2.64644959226,-0.0719949226974,2.10920594109,-0.832421468543,-0.546007148312,0.0468331992324,0.0111986711108,0.0325192752958,0.0121086344917,0.00726643705495,-0.532389688973,0.573820610282,0.818946516937,0.00610381135063,0.0,0.818943955887,-0.573728350482,-0.0121377045106,0.0,-0.00643832517246,0.0119637747629,-0.999907703772,0.0,0.278110891745,-0.242602777711,0.304853443628,1.0,-0.115596,-0.151926171429,2.898
-0.589298775897,-0.526572709317,-0.1328225959,-2.64588141981,-0.0718159011091,2.10932594363,-0.840694009941,-0.534314456004,0.0418393196214,0.0192897628031,0.0389138516272,0.0141615926154,0.0153118456173,-0.499113772386,0.573955855168,0.818851636762,0.00611720456863,0.0,0.818849229343,-0.573863467936,-0.0121411149969,0.0,-0.00643145548495,0.0119777628966,-0.999907580517,0.0,0.276238508787,-0.245031929933,0.304855825723,1.0,-0.110329714286,-0.145004767347,2.914
-0.596938999141,-0.525782272677,-0.132508640521,-2.64527634133,-0.0716173287724,2.1094651972,-0.848164691201,-0.491679104479,0.0519584758614,0.0278859026684,0.0429528154632,0.0154433030717,0.0145403322698,-0.484363945502,0.573991498445,0.818826494764,0.00613824777143,0.0,0.818824393034,-0.57389906828,-0.0121334126138,0.0,-0.00641254850463,0.0119908535543,-0.999907545052,0.0,0.274589329722,-0.247198617627,0.304861476663,1.0,-0.105392571429,-0.13851595102,2.929
-0.606361333422,-0.524648598297,-0.132002312098,-2.6444654343,-0.0713145429995,2.1096549532,-0.857588305012,-0.465157761257,0.0561244437848,0.0180228681525,0.0438582834918,0.0120058555285,0.0146037059499,-0.459673533933,0.573809100621,0.818954217523,0.00615244239074,0.0,0.818951820444,-0.57371574862,-0.0122025602914,0.0,-0.00646370956964,0.0120407258635,-0.999906616329,0.0,0.272472184254,-0.249970792385,0.30484207703,1.0,-0.0984805714286,-0.129431608163,2.95
-0.61370432543,-0.523793101973,-0.131632486953,-2.64380984443,-0.0710848677885,2.10981262212,-0.864675863428,-0.448022388921,0.0513811441125,0.0257657470707,0.0473721553214,0.0217330824244,0.0107995533099,-0.432201479118,0.573889316164,0.818897969291,0.00615756329511,0.0,0.818895747066,-0.573796124961,-0.0121864399481,0.0,-0.00644638908144,0.0120363018191,-0.999906781408,0.0,0.270992911651,-0.251898547284,0.304851108993,1.0,-0.0935434285715,-0.122942791837,2.965
-0.621473137835,-0.522755142141,-0.131267629766,-2.64300003364,-0.0708123241826,2.11001178321,-0.872211754746,-0.412585227705,0.0601933994451,0.0201933848171,0.0459691391905,0.0146413943788,0.00751107714653,-0.4034448251,0.573982835063,0.818832167844,0.00619135341218,0.0,0.818830534572,-0.573889747729,-0.0121597699505,0.0,-0.0064037798338,0.0120494004424,-0.999906897442,0.0,0.269326940197,-0.254101384165,0.30486462486,1.0,-0.0876188571429,-0.115156212245,2.983
-0.627374193834,-0.521907807153,-0.13087215406,-2.64235261374,-0.070547099625,2.11017956434,-0.87814938569,-0.382781881381,0.0521290901487,0.0301849530083,0.0437152720086,0.0201294367572,0.0137076545342,-0.385970060969,0.573821695705,0.818944991797,0.00620554992385,0.0,0.81894360366,-0.573728691921,-0.0121453280184,0.0,-0.00638617646759,0.0120514801641,-0.999906984962,0.0,0.268088917976,-0.255744646473,0.304872068142,1.0,-0.0826817142858,-0.108667395918,2.998
-0.633897664846,-0.521001976574,-0.130480930776,-2.64166178079,-0.0703085305362,2.11035744104,-0.884455656724,-0.383778761028,0.0516059972987,0.0211711132679,0.0410916277951,0.0142962717853,0.00950207249111,-0.361052290365,0.573862150377,0.81891669601,0.00619873068632,0.0,0.818915286771,-0.573769296593,-0.0121364855107,0.0,-0.00638225214805,0.01204113682,-0.999907134629,0.0,0.266687907232,-0.257563110412,0.304878218662,1.0,-0.0770862857144,-0.101313404082,3.015
-0.639625613619,-0.52014540318,-0.130122454035,-2.64095844741,-0.07004392341,2.11054584298,-0.889965572584,-0.351242530252,0.0525925235744,0.0209737080976,0.0441902783326,0.0149034586898,0.0130041179069,-0.337168081626,0.573937652964,0.818863643552,0.00621696714321,0.0,0.818862957833,-0.573845622954,-0.0120583666703,0.0,-0.00630670010723,0.0120118260338,-0.999907966549,0.0,0.265481937766,-0.2591728451,0.30490797818,1.0,-0.0718200000001,-0.0943920000001,3.031
-0.645275964964,-0.519209252117,-0.129810647388,-2.64026712191,-0.0697595925497,2.11073396277,-0.895477711256,-0.327940082258,0.053369797586,0.021742022085,0.0370096390987,0.0228249120966,0.0110471848981,-0.316042722579,0.573988844588,0.818827285398,0.0062793214262,0.0,0.818827286449,-0.573896288543,-0.0120694599842,0.0,-0.00627924478895,0.0120696474934,-0.999907443064,0.0,0.264273728547,-0.260760215223,0.304901585565,1.0,-0.0662245714286,-0.0870380081634,3.048
-0.650432588659,-0.518356550823,-0.129400248083,-2.6396525677,-0.0694871848376,2.11090624261,-0.900541088025,-0.292512274001,0.0484105262179,0.028383941252,0.0320319464685,0.0116052410746,0.0158792269427,-0.299764257797,0.573923887729,0.818872747516,0.00628819302185,0.0,0.818872692937,-0.573830977233,-0.0120941817137,0.0,-0.00629535706723,0.0120906021231,-0.999907088594,0.0,0.263188156572,-0.262171249301,0.304891801112,1.0,-0.0606291428572,-0.0796840163266,3.065
-0.655185541201,-0.517554171066,-0.128947188088,-2.63906411404,-0.0692265922361,2.11106116355,-0.905145838975,-0.272669254298,0.0491329204671,0.0220813572095,0.0395806919415,0.013480318355,0.00436797986676,-0.261529259038,0.573866872458,0.818912880654,0.00626526092955,0.0,0.818912399704,-0.57377383345,-0.0121167883875,0.0,-0.00632787313277,0.0120843559801,-0.999906958853,0.0,0.262202439749,-0.263455558084,0.30488798516,1.0,-0.0550337142858,-0.0723300244899,3.082
-0.659337243583,-0.516821072621,-0.128581995525,-2.63851419358,-0.0689795849125,2.1112325676,-0.909122203505,-0.247725571612,0.044887992695,0.0225511390521,0.0345410747852,0.0142133541799,0.00986056656464,-0.245030817127,0.573886218112,0.818899300816,0.0062682282354,0.0,0.818898992489,-0.573793417652,-0.0120954893129,0.0,-0.00630844109657,0.0120747128803,-0.999907198134,0.0,0.261344494639,-0.264592957121,0.304891229433,1.0,-0.0497674285715,-0.0654086204083,3.098
-0.663297413692,-0.516062932968,-0.128208098856,-2.63796280584,-0.0687348104492,2.11139199343,-0.912917349969,-0.223199450095,0.0389298964906,0.0205690766407,0.0313322289819,0.0183777039476,0.0058867620464,-0.214799877603,0.573889979863,0.818896683629,0.00626573667242,0.0,0.818896245255,-0.573797003171,-0.0121113814324,0.0,-0.00632283089798,0.0120818212937,-0.999907021379,0.0,0.26053231312,-0.265674288427,0.304884890506,1.0,-0.0441720000001,-0.0580546285715,3.115
-0.667261365961,-0.515356872252,-0.127805269499,-2.63747890393,-0.0684502489778,2.11154240858,-0.916671919957,-0.201504115024,0.0383265430247,0.0230732385882,0.0238099231252,0.0178758076592,0.00993947096118,-0.182599040576,0.573922862226,0.818873435607,0.00629218346147,0.0,0.818873092351,-0.57382928075,-0.0121475133007,0.0,-0.00633675884285,0.0121244687648,-0.999906416993,0.0,0.259709520226,-0.266725917377,0.304866863994,1.0,-0.0379182857144,-0.0498354612246,3.134
-0.670065966768,-0.514888393469,-0.127478794953,-2.63711569605,-0.0682476369237,2.11165083861,-0.919219848931,-0.181884147987,0.0308173592385,0.0262240009442,0.0207660986812,0.00998157017295,0.0101459033382,-0.170208240446,0.574006777026,0.818814670114,0.00628512816028,0.0,0.818814416876,-0.573913557834,-0.01212129335,0.0,-0.0063180941947,0.0121042911239,-0.999906779566,0.0,0.259139965795,-0.267465710781,0.304876095949,1.0,-0.0329811428572,-0.0433466448981,3.149
-0.672764666682,-0.514373841043,-0.127097529172,-2.63672906988,-0.0679943407636,2.11176178969,-0.921804156815,-0.152357213061,0.0323448671476,0.0204653530557,0.0201649362819,0.0150963448955,0.00746695938359,-0.141386444396,0.573958078607,0.818848746538,0.00629294809962,0.0,0.8188486453,-0.573864930648,-0.0121113320323,0.0,-0.00630616824207,0.01210460194,-0.999906851089,0.0,0.25861837071,-0.268165855668,0.304880407704,1.0,-0.0273857142858,-0.0359926530613,3.166
-0.675169169152,-0.513944563019,-0.126666787909,-2.63639583237,-0.067740986417,2.11186431709,-0.923986562806,-0.127650446124,0.0232766924162,0.0270467434551,0.0176001441984,0.0132182211353,0.00208528963458,-0.105014020332,0.573959384499,0.81884795412,0.00627693247156,0.0,0.818847849138,-0.573866701603,-0.012081210815,0.0,-0.00629067334043,0.0120742094428,-0.999907316152,0.0,0.258173896031,-0.268764691342,0.304892327395,1.0,-0.0214611428572,-0.0282060734695,3.184
-0.677058490409,-0.513629629372,-0.126305311402,-2.63615523571,-0.0675358979313,2.111916548,-0.925704809878,-0.10401441101,0.0166347598591,0.0237577087038,0.0138720829057,0.0122515487649,0.00575172630075,-0.0974746559881,0.5739426285,0.818859793911,0.00626450376236,0.0,0.818859517785,-0.573849986995,-0.0120842649225,0.0,-0.00630055458666,0.0120656556044,-0.999907357192,0.0,0.257820885596,-0.269219887539,0.304898378255,1.0,-0.01973,-0.0259308571429,3.201
-0.67852047875,-0.513359279907,-0.126091644124,-2.63594969927,-0.0673796589036,2.1119845821,-0.927087579225,-0.0916159140288,0.0141437917213,0.0152710961129,0.0140423963522,0.00933776612654,0.00333463190605,-0.0925868646966,0.573933008448,0.818866414443,0.00628044684848,0.0,0.818866452662,-0.57384050281,-0.0120646981454,0.0,-0.00627552215746,0.0120674080695,-0.999907493463,0.0,0.257540012431,-0.269594787072,0.304902748698,1.0,-0.01943,-0.0255365714286,3.216
-0.679993713622,-0.513060065081,-0.125928854265,-2.63571218106,-0.0672668151068,2.11204809914,-0.928531801872,-0.0865797168376,0.0188987644971,0.00722488472879,0.0174277427492,0.0079761078521,0.00101298193592,-0.0922066123154,0.573901513424,0.8188884722,0.00628250649006,0.0,0.818888623702,-0.573809171886,-0.0120500262366,0.0,-0.00626278830653,0.0120604335878,-0.999907657449,0.0,0.257245823158,-0.269994688558,0.304909320953,1.0,-0.01911,-0.025116,3.232
-0.681585865405,-0.512721663868,-0.125794709021,-2.63546375715,-0.0672073971164,2.11212863294,-0.930077609558,-0.0846971404051,0.0181809142723,0.00581693737715,0.0134291237672,0.00661376391894,0.00972488875238,-0.0851269041427,0.573882407622,0.818902085892,0.00625322681277,0.0,0.818901871866,-0.573790229427,-0.0120517122902,0.0,-0.00628125281902,0.0120372765621,-0.999907820669,0.0,0.256911617718,-0.270440843287,0.304907059349,1.0,-0.01875,-0.0246428571429,3.25
-0.682935831903,-0.512438630307,-0.125720756155,-2.63524941922,-0.0671626975708,2.11217515185,-0.931396880913,-0.0835070522642,0.018809601756,0.0058724334329,0.00913114732926,0.00325221562233,0.000788302202569,-0.088055870836,0.573873494664,0.818908396169,0.00624481442677,0.0,0.81890800397,-0.573781224091,-0.0120637811309,0.0,-0.006296095611,0.0120372445081,-0.999907727705,0.0,0.256598448649,-0.27084926512,0.304906961389,1.0,-0.01841,-0.024196,3.267
-0.684465215105,-0.512107954844,-0.125680485762,-2.63497205204,-0.0671163609829,2.11222051037,-0.932991817875,-0.0746670476437,0.0149798690378,0.0026514919041,0.0156040045247,0.00474690678964,0.000169493417335,-0.0869168174609,0.573836956566,0.818933951557,0.00625117325978,0.0,0.818933624336,-0.573744631694,-0.0120649672499,0.0,-0.00629395538393,0.012042851924,-0.99990767366,0.0,0.256275685212,-0.271278949807,0.304913881365,1.0,-0.01805,-0.0237228571429,3.285
-0.685805336514,-0.511813582746,-0.125662337812,-2.63474237331,-0.0670650077681,2.11230891983,-0.934316697187,-0.076170856976,0.0184576443249,0.000672755030127,0.01427788715,0.00198714550165,0.000938505786041,-0.0782298125648,0.573870354481,0.81891041733,0.00626829620157,0.0,0.81891050858,-0.573778322273,-0.012031738393,0.0,-0.00625642388608,0.012038063377,-0.99990796686,0.0,0.255978633727,-0.271681822438,0.30491723023,1.0,-0.01771,-0.023276,3.302
-0.687065564647,-0.511547271748,-0.125658753625,-2.63453712842,-0.0670318361178,2.11234041426,-0.935593076593,-0.0791173123361,0.0159371443522,0.0024752138731,0.0165160992237,0.000527544004166,0.00159612905957,-0.0872447163762,0.573879432097,0.818903908935,0.00628746758735,0.0,0.818904100558,-0.573787026281,-0.0120527782119,0.0,-0.00626252043436,0.0120659068109,-0.999907593096,0.0,0.255684212828,-0.272054521077,0.304914637761,1.0,-0.01739,-0.0228554285714,3.318
-0.688285052231,-0.511280896749,-0.12565561492,-2.63434866791,-0.0669938474285,2.11237423507,-0.936786659324,-0.0755316598182,0.0174450114809,-0.000210249426496,0.0135135337761,8.71152497129e-05,0.000149780634061,-0.081452349006,0.573924550093,0.818872094498,0.00631272952834,0.0,0.818872376287,-0.573831561225,-0.012087911246,0.0,-0.00627613059422,0.0121071019524,-0.99990700981,0.0,0.25539736957,-0.272412011299,0.304904569428,1.0,-0.01707,-0.0224348571429,3.334
-0.689549441079,-0.511025441409,-0.12563474811,-2.63413966895,-0.0669695016595,2.11244995887,-0.938078111491,-0.0737945226781,0.00902444087412,0.000323706744585,0.0173169799887,0.000695110482492,0.0081461352384,-0.0802735561473,0.573908678067,0.818883254227,0.00630809703039,0.0,0.818883700871,-0.573816148251,-0.012052358909,0.0,-0.00624990727385,0.0120827838418,-0.999907468216,0.0,0.255111719413,-0.272790034671,0.304911833358,1.0,-0.01673,-0.021988,3.351
-0.690719164344,-0.510782310798,-0.125610212315,-2.63394232005,-0.0669356093919,2.11249542369,-0.939287952195,-0.0736217749915,0.0150267205183,0.00087956941286,0.0119282205124,0.000608114928441,0.0078185335612,-0.075386984893,0.573883010233,0.818901193497,0.00631448780013,0.0,0.818901758525,-0.573790525729,-0.0120453049083,0.0,-0.00624084144642,0.0120837736537,-0.999907512879,0.0,0.254846223288,-0.273134618151,0.304915864208,1.0,-0.01641,-0.0215674285714,3.367
-0.692015413405,-0.510507825508,-0.125573269441,-2.63372743273,-0.0668920677965,2.11255009822,-0.940572554264,-0.0681403885732,0.0101923571591,-4.36867653521e-05,0.0162403618218,0.00387764454043,0.00910483813709,-0.0701400811246,0.573895954977,0.818892066589,0.006321632674,0.0,0.818892740133,-0.573803466022,-0.0120419865219,0.0,-0.00623383251013,0.0120878191853,-0.999907507702,0.0,0.254553994849,-0.273513063736,0.304917306119,1.0,-0.01605,-0.0210942857143,3.385
-0.693331466705,-0.510210703161,-0.125541343086,-2.63350892594,-0.0668575070177,2.11263508655,-0.941971766936,-0.0668181971254,0.0138605516598,-0.000677260138887,0.00704717642984,0.00107938414371,0.00810631364073,-0.074774944094,0.573831231395,0.81893742331,0.0063215091926,0.0,0.818938175283,-0.573738912367,-0.0120279840826,0.0,-0.0062233903031,0.0120791906824,-0.999907677021,0.0,0.254258711817,-0.273903194483,0.304914440504,1.0,-0.01567,-0.0205948571429,3.404
-0.694277034339,-0.5099925976,-0.125514762527,-2.63331761954,-0.0668251700553,2.11265951519,-0.942884717564,-0.0669593573046,0.0160744453845,0.00485091304571,0.0154670067239,0.00116747121347,0.00047124448786,-0.0570761452006,0.573862600448,0.818915419729,0.00632440026444,0.0,0.818916229586,-0.573770301181,-0.0120248619003,0.0,-0.00621871151525,0.0120800051166,-0.999907696292,0.0,0.254049583239,-0.274185492307,0.304923195354,1.0,-0.01539,-0.0202268571429,3.418
-0.695419432264,-0.509716732965,-0.125502890829,-2.63312323407,-0.0667991410361,2.11270241461,-0.944019534806,-0.0685963473326,0.010288634634,0.000182978797577,0.00945507188893,9.15684075199e-05,-0.00082043033235,-0.0669340116388,0.573881648926,0.818902003261,0.00633316533473,0.0,0.818902721898,-0.573788908028,-0.0120568650146,0.0,-0.00623961102356,0.0121056929784,-0.999907255425,0.0,0.253784366918,-0.274523817874,0.304913145449,1.0,-0.01505,-0.01978,3.435
-0.69662113891,-0.509432371052,-0.125476409416,-2.63291200619,-0.0667699613336,2.11277350592,-0.945274042615,-0.0669122558086,0.0125308267279,0.00249242190467,0.0144690816749,7.26403326833e-05,0.00567428042715,-0.0637232841491,0.573842957152,0.818929126015,0.00633198169997,0.0,0.818929853564,-0.573750277191,-0.0120524382318,0.0,-0.00623723653811,0.012101888641,-0.999907316291,0.0,0.253513844526,-0.274882061319,0.304910318184,1.0,-0.01469,-0.0193068571429,3.453
-0.697609925465,-0.509206731528,-0.125458228884,-2.63272950493,-0.0667394699101,2.11280119326,-0.946240002954,-0.065818888899,0.0153083037414,0.00475376912982,0.0123987646547,0.00062628877945,0.000515053261908,-0.0641720253416,0.573871117125,0.818909331449,0.0063399286762,0.0,0.818910100032,-0.573778274302,-0.0120617952635,0.0,-0.00623992349817,0.0121139807805,-0.999907153102,0.0,0.253288077147,-0.275174697914,0.304912307498,1.0,-0.01439,-0.0189125714286,3.468
-0.698693627832,-0.508952236047,-0.125430521539,-2.6325434927,-0.0667117634821,2.11287653793,-0.947292019338,-0.0593240652525,0.0203930003086,-0.000227874329298,0.0122070225998,0.000552269096885,0.0008167742732,-0.0583953909352,0.573898792943,0.818889965622,0.00633613158909,0.0,0.818890767043,-0.573806120794,-0.0120496594269,0.0,-0.00623175408646,0.0121041176993,-0.999907323493,0.0,0.253045128727,-0.275496910032,0.304909456911,1.0,-0.01405,-0.0184657142857,3.485
-0.699741838406,-0.508714580589,-0.125390893231,-2.6323468548,-0.0666781994195,2.11290803602,-0.948379030766,-0.0585055343947,0.0119548239941,0.0034177519255,0.0109299867172,0.000318835609745,0.00186770789385,-0.0618827499039,0.573863188229,0.818914922715,0.00633541245626,0.0,0.818915689755,-0.573770478495,-0.0120531316138,0.0,-0.00623553676087,0.0121052502611,-0.999907286201,0.0,0.2528109458,-0.275803530182,0.304914202931,1.0,-0.01371,-0.0180188571429,3.502
-0.700761864621,-0.508463098636,-0.125350010767,-2.63216126569,-0.0666524102827,2.11294925905,-0.94938902293,-0.0576903294744,0.014594410869,0.000276677665873,0.0116915858233,0.00200079965548,0.000388335321316,-0.0576970273385,0.573862897662,0.818915179844,0.0063284918971,0.0,0.818915737652,-0.573769988051,-0.0120732075204,0.0,-0.00625595463422,0.0121111006381,-0.99990708782,0.0,0.252582519124,-0.276101550968,0.304909637967,1.0,-0.01337,-0.017572,3.519
-0.701666370562,-0.50822469826,-0.125326136673,-2.63198498964,-0.0666250710642,2.11300129075,-0.950293366341,-0.053383689578,0.0137976341554,0.000883801634324,0.00928172339599,0.00179397276288,-0.000132849007961,-0.0616569738871,0.573866812011,0.818912434527,0.00632878738698,0.0,0.818912963634,-0.573773837213,-0.0120784362882,0.0,-0.00626000956673,0.0121143730013,-0.999907022801,0.0,0.252381764655,-0.276372998414,0.304906204311,1.0,-0.01305,-0.0171514285714,3.535
-0.702694278878,-0.507956436887,-0.125306581065,-2.63178469124,-0.0665966242511,2.11305691978,-0.951369412659,-0.0611576278738,0.0154557686945,0.000103234905845,0.0121035553513,0.00086322883188,0.000897611297233,-0.0613211123128,0.573835952193,0.818934037913,0.0063315416618,0.0,0.818934556192,-0.573742881376,-0.012084934645,0.0,-0.00626420797557,0.0121201215899,-0.999906926844,0.0,0.252150795261,-0.276682673885,0.304902780135,1.0,-0.01269,-0.0166782857143,3.553
-0.703600104938,-0.507755055475,-0.125291278192,-2.63161462618,-0.0665788886609,2.11309410028,-0.952249158627,-0.0571575503528,0.00958235691173,0.000878244702595,0.00601938942221,0.00330910954765,-0.000346949972812,-0.0554469667155,0.573862638263,0.818915365614,0.00632797508741,0.0,0.818915905019,-0.573769708438,-0.0120751433704,0.0,-0.00625784050995,0.012111786267,-0.999907067715,0.0,0.251943387445,-0.276953668448,0.304908762071,1.0,-0.01237,-0.0162577142857,3.569
-0.704549716446,-0.507531503503,-0.125291610126,-2.63143024129,-0.0665483027343,2.11313623976,-0.953169591078,-0.055658564959,0.0126452401056,-0.00143967039573,0.00936784485389,0.00561588929026,0.00115016407804,-0.059504438757,0.57390926513,0.818882584154,0.00634158248426,0.0,0.818883352168,-0.573816363614,-0.0120657901766,0.0,-0.00624168181074,0.0121179184037,-0.999907094415,0.0,0.251724494638,-0.277241770048,0.304913063305,1.0,-0.01203,-0.0158108571429,3.586
