nelsonifechukwu/NELSON_IML_WORK/CNN-GradCAM/train2dof/data_sample_2022-02-21-14-27-50/robot_state.csv
position_joint1,position_joint2,position_joint3,position_joint4,position_joint5,position_joint6,position_joint7,velocity_joint1,velocity_joint2,velocity_joint3,velocity_joint4,velocity_joint5,velocity_joint6,velocity_joint7,ee_T_00,ee_T_10,ee_T_20,ee_T_30,ee_T_01,ee_T_11,ee_T_21,ee_T_31,ee_T_02,ee_T_12,ee_T_22,ee_T_32,ee_T_03,ee_T_13,ee_T_23,ee_T_33,v_x,v_y,time
0.465082556471,0.547794852225,-0.123971861329,-1.35576776044,0.0794647008093,1.89408984338,0.159167076496,6.9790946667e-05,-0.000836440008062,0.00372984558366,0.000926321953734,-0.000225541868606,0.000342489285267,0.000511675649923,0.57378034037,0.818995127828,0.00196175918238,0.0,0.818952423499,-0.573722005972,-0.0118631703024,0.0,-0.00859053965946,0.00841360331868,-0.99992770434,0.0,0.661685385294,0.260907111294,0.303234202607,1.0,0.0,0.0,0.0
0.465074004366,0.547801199479,-0.123977858084,-1.35577304917,0.079462710594,1.89408948255,0.159171592554,-0.00139085922728,0.00209647666371,-0.00107710505658,-0.000432257959458,0.000360873778491,0.000286228012875,0.00147437127585,0.573795002652,0.818984886096,0.0019488916482,0.0,0.818942057961,-0.5737367618,-0.0118651069272,0.0,-0.00859935802624,0.00840433020728,-0.999927706524,0.0,0.661687651535,0.260896921204,0.303227352431,1.0,-8e-05,-0.000105142857143,0.005
0.465073049947,0.547800165838,-0.123973312897,-1.35577375188,0.0794623940536,1.89409075233,0.159166864016,-0.00177236832135,0.00300671688932,0.0005936705879,-1.54748081696e-05,-0.000338084102904,-0.000355095481178,0.00104230352567,0.573788697742,0.818989297758,0.00195125664312,0.0,0.818946480521,-0.573730428541,-0.0118660991592,0.0,-0.00859887846256,0.00840677020071,-0.999927690138,0.0,0.661686994104,0.260898885521,0.303227709456,1.0,-0.0004,-0.000525714285714,0.021
0.46507901996,0.547788778667,-0.123979004352,-1.35578787069,0.0794602778553,1.89409161866,0.159166824013,0.00181929742344,0.000973377263668,-0.000569093962351,-0.00171697191633,-0.000320477138743,0.000357632032033,0.000966472589236,0.573787948111,0.818989831223,0.0019477826278,0.0,0.818947003538,-0.573729727203,-0.0118639125592,0.0,-0.00859908850792,0.00840266256779,-0.999927722857,0.0,0.661684099659,0.260897731126,0.303229316241,1.0,-0.00074,-0.000972571428571,0.038
0.465077013258,0.547738085367,-0.123973269388,-1.3558348992,0.0794605571102,1.89410016485,0.159162768853,-2.76810471406e-06,-0.00548692975807,0.000298063140172,-0.00473559987744,-0.000193296564275,0.000360006390201,0.000480691217371,0.57378524602,0.818991686786,0.00196349874684,0.0,0.818949004133,-0.573726902976,-0.0118623915205,0.0,-0.00858885334771,0.00841463258807,-0.999927710165,0.0,0.66167554955,0.260891114906,0.303246448843,1.0,-0.0011,-0.00144571428571,0.056
0.465071826156,0.547600639353,-0.123975853963,-1.35600965919,0.0794564435964,1.89412944107,0.159164261954,-0.000913470470125,-0.00838795029841,-0.00103531968293,-0.0136066318777,-0.000282165587752,-0.000568045532528,-0.00108808882946,0.573800560515,0.818980965351,0.00196011397864,0.0,0.818938138252,-0.573742131144,-0.0118760080462,0.0,-0.00860179017393,0.00841983427393,-0.999927555174,0.0,0.661647140721,0.260872887095,0.303260206509,1.0,-0.00144,-0.00189257142857,0.073
0.465059819452,0.547457202439,-0.123973270363,-1.35621105904,0.0794534652027,1.89419626194,0.159156012536,-0.000954516097767,-0.00964911326578,8.28067648159e-05,-0.0150178333521,-0.00024532050923,0.00508756222897,0.000767449255269,0.57381224471,0.818972746137,0.00197377976406,0.0,0.818929990234,-0.573753653301,-0.0118812171394,0.0,-0.00859809521763,0.00843413770283,-0.999927466409,0.0,0.661620787611,0.26084847268,0.303271667725,1.0,-0.00178,-0.00233942857143,0.09
0.465037191702,0.547269920055,-0.123971591053,-1.35644774335,0.0794504649126,1.89432512315,0.159138547666,-0.00070460371719,-0.00884695622124,0.000723404303103,-0.017636967034,0.00031378275876,0.0119362213583,-0.00376735895975,0.573827981311,0.81896154003,0.00204712413076,0.0,0.818919683825,-0.573769035893,-0.0118487043851,0.0,-0.00852922096563,0.00847571154806,-0.999927704738,0.0,0.661602855604,0.260817119011,0.303302806025,1.0,-0.00214,-0.00281257142857,0.108
0.465017249071,0.547096674657,-0.123973349392,-1.35666138239,0.0794445148067,1.89443830639,0.159136020047,-0.00116478180657,-0.0167281600717,-0.00103173928993,-0.0161292577539,0.000291135764636,0.00612738009718,-0.00178052837241,0.573854023401,0.818943128258,0.00211173086182,0.0,0.818902107016,-0.573794811961,-0.011815235641,0.0,-0.00846446879143,0.00850968520002,-0.999927966419,0.0,0.661586954836,0.260786558377,0.303333710363,1.0,-0.00244,-0.00320685714286,0.123
0.464981111215,0.546882248974,-0.123973009047,-1.35697603882,0.0794397948625,1.89456333047,0.159111844746,-0.00265565702149,-0.0124673236852,0.000276216065401,-0.020743033833,-0.000398632494624,0.00637639410696,-0.000844722408471,0.573879978579,0.818924865603,0.00214046361593,0.0,0.818884100588,-0.573820532465,-0.0118141113826,0.0,-0.00844679023132,0.00853283789375,-0.999927918608,0.0,0.66155498718,0.260736042331,0.303346653594,1.0,-0.00278,-0.00365371428571,0.14
0.464944174106,0.546621097659,-0.123971719932,-1.35736513061,0.079423545273,1.89470339981,0.15904560459,-0.000207945337276,-0.016700112496,0.000742844713539,-0.0213874784303,0.000257847732998,0.0132694079015,-0.00798765033342,0.573872495489,0.818930069794,0.00215559970301,0.0,0.81888942217,-0.573812910501,-0.0118154518164,0.0,-0.00843928032353,0.00854592515,-0.999927870254,0.0,0.661510790927,0.260676477032,0.303358501671,1.0,-0.00312,-0.00410057142857,0.157
0.464910793446,0.546352291158,-0.123978865676,-1.35777929895,0.0794030984512,1.89485976323,0.1589256125,-0.000292420469008,-0.0169321307722,-0.00119961481246,-0.0303063048343,-0.000266888361757,0.00898219258465,-0.000741335672395,0.573824322547,0.818963797146,0.00216626852497,0.0,0.818923278534,-0.573764691833,-0.0118105538328,0.0,-0.00842964991749,0.00855135541473,-0.999927905063,0.0,0.661465508632,0.26061193261,0.303365506369,1.0,-0.00344,-0.00452114285714,0.173
0.464857255411,0.546042500727,-0.123976553486,-1.35831071783,0.0793568118573,1.89504398721,0.158914194865,-0.00687329203223,-0.0134960942817,-0.00129354559495,-0.0286494986199,-0.00675465763361,0.00905750533403,0.00154528935192,0.573874597053,0.818928674873,0.00212584796442,0.0,0.818887729,-0.573815218456,-0.0118207132976,0.0,-0.0084606400563,0.00852460201733,-0.999927871764,0.0,0.661404436061,0.260523851151,0.303347766247,1.0,-0.0038,-0.00499428571429,0.191
0.46480439938,0.545701349708,-0.123977415674,-1.35889301547,0.0792855623306,1.89523345684,0.158838184793,-0.00125134916651,-0.0160915644861,-0.000881922035464,-0.0354771914986,-0.00130196401967,0.0107990068913,-0.00962968796837,0.57386972848,0.818932250818,0.00206160262,0.0,0.818890757424,-0.57381089369,-0.0118208540346,0.0,-0.00849767216582,0.00847202073886,-0.999928004625,0.0,0.661335445191,0.260425071023,0.30332850605,1.0,-0.00414,-0.00544114285714,0.208
0.464749705289,0.545387110937,-0.123976339475,-1.35943647566,0.0792775751352,1.89542035746,0.158749520752,-0.00470481623331,-0.0204737482806,0.000619534674131,-0.0347723239839,-0.000274583493358,0.0130307029186,-0.00777054391547,0.573869349182,0.818932572922,0.00203911214429,0.0,0.818890530988,-0.573810350108,-0.0118628524344,0.0,-0.00854497713019,0.00847770025459,-0.999927553358,0.0,0.661270587006,0.260340530769,0.303308485836,1.0,-0.00442,-0.00580914285714,0.222
0.464687810472,0.544947563758,-0.123977156333,-1.3601706934,0.079252414257,1.89565199869,0.158685490591,0.00121143608974,-0.0225178495556,0.00080009816442,-0.0400422690619,-0.000364329812213,0.0113138494986,-0.00746159320033,0.573902238017,0.818909631462,0.00199589552708,0.0,0.818866797629,-0.573843185059,-0.0119127495651,0.0,-0.00861030008469,0.00847128931357,-0.999927047334,0.0,0.661177316781,0.260229392966,0.303290263433,1.0,-0.00478,-0.00628228571429,0.24
0.464609071865,0.544510944079,-0.12397929012,-1.36089992897,0.0792117761943,1.89591928951,0.158575620859,-0.00212791051983,-0.0316426252004,8.80141417505e-05,-0.0395286707946,-0.00494571546179,0.0156986819143,-0.00846789716099,0.573908134,0.818905550682,0.00197476376468,0.0,0.81886240895,-0.573849135875,-0.0119277561009,0.0,-0.00863465544214,0.00846265899252,-0.999926910393,0.0,0.661097686323,0.260106833256,0.30327541056,1.0,-0.00512,-0.00672914285714,0.257
0.464543019723,0.544024011988,-0.123982860583,-1.36169295481,0.0791689937146,1.89619748447,0.158492694539,-0.00559664185227,-0.034287832381,0.0016480955945,-0.0469501913922,-0.00633027268872,0.0218840539783,-0.00204288957531,0.573929550343,0.818890594844,0.00195238856072,0.0,0.818847105468,-0.573870588192,-0.0119462452803,0.0,-0.00866241631034,0.00845517369197,-0.999926733607,0.0,0.661003929641,0.259985316817,0.303266745059,1.0,-0.00546,-0.007176,0.274
0.464463538132,0.543507575734,-0.123983924472,-1.36253338468,0.0791276862945,1.89648316395,0.158361403986,-0.0044613183161,-0.0269492461048,0.00062100025516,-0.0426359788643,-0.000352781124735,0.0170697705515,-0.012442419386,0.57392352664,0.818894881331,0.00192504566801,0.0,0.818850908216,-0.573864556695,-0.0119752905879,0.0,-0.00870195622565,0.0084493890773,-0.999926439185,0.0,0.660904247596,0.259851888624,0.303256909546,1.0,-0.0058,-0.00762285714286,0.291
0.464388399646,0.542959008636,-0.123992360684,-1.36340850126,0.0790754797829,1.89680820072,0.158262726612,-0.00648612436822,-0.0311961674917,0.000490531965035,-0.058722602023,-0.00340586286798,0.019711129618,-0.0114695316428,0.573944959284,0.818879869095,0.00192109459575,0.0,0.818835875981,-0.57388603406,-0.0119739308347,0.0,-0.00870288911344,0.00844560102553,-0.999926463068,0.0,0.66080632198,0.259714281905,0.303256873013,1.0,-0.00614,-0.00806971428571,0.308
0.464321815969,0.542436362933,-0.123995632621,-1.36421356826,0.0790379611552,1.89709084576,0.158163333608,-0.00120517158161,-0.0348973173783,0.000474829740587,-0.0531715284223,-0.00158007947289,0.0164926413732,-0.00814739185162,0.573945796786,0.818879267596,0.0019272658034,0.0,0.818835227352,-0.573886721348,-0.011985341427,0.0,-0.00870868302566,0.0084572122949,-0.999926314485,0.0,0.660702866448,0.259588653328,0.30326758929,1.0,-0.00646,-0.00849028571429,0.324
0.464238087053,0.541779047458,-0.123998117618,-1.3652303743,0.0789630591622,1.89747750568,0.158020606015,-0.00705258936979,-0.0394523547542,-0.00187029237929,-0.0574367110907,-0.0047969709404,0.0233276387245,-0.00622296788077,0.573944972018,0.818879811878,0.00194157005258,0.0,0.818836113525,-0.573885987195,-0.0119599243711,0.0,-0.00867966788326,0.00845432890653,-0.99992659115,0.0,0.660597471298,0.25943810581,0.303282349757,1.0,-0.0068,-0.00893714285714,0.341
0.464154954029,0.541129264585,-0.123998839769,-1.3662327442,0.0788985100904,1.89785160469,0.157900451469,-0.00347318323981,-0.0428338715695,-1.37584255729e-05,-0.0588093827293,-0.000881308991332,0.0225625298578,-0.00177290523261,0.573953526843,0.818873778944,0.00195705989219,0.0,0.818830318983,-0.573894511416,-0.0119476098674,0.0,-0.00866060525428,0.00846003567841,-0.999926708171,0.0,0.660483203412,0.25928726988,0.303297069896,1.0,-0.00714,-0.009384,0.358
0.464069771547,0.540466009213,-0.123999636888,-1.3672376311,0.0788488262432,1.89821442918,0.157766073517,-0.00573670049137,-0.0444654368102,-0.000887433976583,-0.0636548320562,-0.00791928956766,0.0224611469016,-0.00714103078941,0.573956110552,0.818871909042,0.00198157587613,0.0,0.818828650947,-0.573896876974,-0.0119483006851,0.0,-0.00864707406798,0.00848053456689,-0.999926651632,0.0,0.660366004321,0.259136563523,0.303319067293,1.0,-0.00746,-0.00980457142857,0.374
0.463967472175,0.539728383682,-0.123999582992,-1.36835297173,0.0787859151624,1.89864516632,0.157622659516,-0.00486471966283,-0.0493871931263,-0.00439675000851,-0.0635477543327,-0.00305082224209,0.0264681868481,-0.00774048350246,0.573967394152,0.818863884864,0.00202864903799,0.0,0.818821216177,-0.573907939894,-0.01192641469,0.0,-0.00860201809091,0.00850663781283,-0.999926818521,0.0,0.66024357761,0.258965391636,0.303346792872,1.0,-0.0078,-0.0102514285714,0.391
0.463869051236,0.538941832909,-0.124004889317,-1.36959965687,0.0787131415297,1.89911990906,0.157478818531,-0.00395885039218,-0.0384696312085,-0.00163222506852,-0.0650055713256,-0.00633263848221,0.0211964332414,-0.0155398573892,0.573983472293,0.818852587743,0.00203960346479,0.0,0.818810071186,-0.573923980197,-0.0119196971617,0.0,-0.0085900629128,0.00851192090462,-0.999926876337,0.0,0.660101368938,0.25878012067,0.303350436962,1.0,-0.00816,-0.0107245714286,0.409
0.463766880783,0.538243767309,-0.124010547709,-1.37066446454,0.078638669193,1.89952371136,0.157343808639,-0.00289271537951,-0.0461803649684,0.000271558932539,-0.0706526031952,-0.0056828685736,0.0321141677133,-0.00414438337574,0.57399941336,0.818841352857,0.00206378676898,0.0,0.81879927632,-0.573939944531,-0.011892521639,0.0,-0.00855376353052,0.00851629152209,-0.999927150301,0.0,0.659985678573,0.258607528827,0.303371849586,1.0,-0.00846,-0.0111188571429,0.424
0.463651375288,0.537401396392,-0.124013827298,-1.37200459372,0.0785805098564,1.90002077787,0.157180168555,-0.00793577649742,-0.0471799337893,0.0004976371695,-0.0779998113794,-0.00289527150564,0.032174001909,-0.00622556749188,0.574020657626,0.818826434895,0.00207389406127,0.0,0.818784286804,-0.573960942531,-0.0119111306421,0.0,-0.00856297931305,0.00853547124841,-0.999926907887,0.0,0.659830367204,0.258405697363,0.303372074352,1.0,-0.00882,-0.011592,0.442
0.463548038717,0.536604155112,-0.124017765114,-1.37322360273,0.0785002826158,1.90048725862,0.157021832939,-0.00185955441026,-0.044413266886,0.00333797902847,-0.080354779783,-0.0046125974318,0.024338370646,-0.0170409672862,0.574024043513,0.818823977362,0.00210676704743,0.0,0.818782345994,-0.573964283104,-0.0118835394546,0.0,-0.00852148206821,0.00854658558277,-0.999927167457,0.0,0.659693792281,0.258219679496,0.303395242076,1.0,-0.00914,-0.0120125714286,0.458
0.463430624229,0.535752507899,-0.124026895228,-1.37458303337,0.0784171881177,1.90098464889,0.156866804153,-0.00268755432555,-0.0521523501268,-8.6899298149e-05,-0.0810167464009,-0.000198418938969,0.0356368103089,-0.00562350575279,0.574052081175,0.818804353579,0.00209417277625,0.0,0.818762588454,-0.573992398455,-0.0118868484424,0.0,-0.00853112825099,0.00853846480182,-0.999927154582,0.0,0.659536917833,0.258007053488,0.303392693065,1.0,-0.00948,-0.0124594285714,0.475
0.463308820404,0.53483630251,-0.124028312827,-1.37601710305,0.0783444932988,1.90150535013,0.156688896142,-0.00704887235484,-0.0532825431905,0.000996114048695,-0.0913168998109,-0.00232434416565,0.0381540352113,-0.0130904472975,0.574066277162,0.818794376202,0.00210376493797,0.0,0.818752586981,-0.574006404595,-0.0118993990251,0.0,-0.00853575079346,0.00855367136887,-0.999926985167,0.0,0.659367514754,0.257791276402,0.303401790502,1.0,-0.00982,-0.0129062857143,0.492
0.463186428629,0.533936777481,-0.124036479621,-1.37749433895,0.0782485060598,1.90203759821,0.156506889131,-0.00486990468752,-0.0559951522972,0.000510055514497,-0.0853916851297,-0.0122969877161,0.0264525591939,-0.0193523435474,0.574078323849,0.81878604601,0.00205811757459,0.0,0.818743719559,-0.57401869322,-0.011916728478,0.0,-0.0085760181461,0.00852637050775,-0.999926873786,0.0,0.659192546472,0.257562893831,0.303379592423,1.0,-0.01016,-0.0133531428571,0.509
0.463051231546,0.533071415223,-0.124031880638,-1.37888729566,0.0781748283446,1.90257276777,0.156337587756,-0.0135134470285,-0.0559337477355,0.00199172006312,-0.0882354467711,-0.000231393974831,0.038944118281,-0.00775100936486,0.574103742195,0.818768195443,0.00206935470991,0.0,0.818725906285,-0.574043953737,-0.01192377691,0.0,-0.00857507384086,0.00853988367466,-0.999926766566,0.0,0.659035668661,0.257346851022,0.303373108123,1.0,-0.01048,-0.0137737142857,0.525
0.462912409359,0.532053468385,-0.12403478293,-1.38052989701,0.0780831416577,1.90318386413,0.156129134166,-0.00660573709966,-0.0615833816907,5.15804565466e-05,-0.0878705021579,-0.0111006119965,0.0348951966296,-0.0101090089607,0.574113888826,0.81876110506,0.00205970844635,0.0,0.818718614837,-0.574054063822,-0.0119376894311,0.0,-0.00859189720718,0.00854007937203,-0.999926620481,0.0,0.658843041887,0.257098702709,0.30336201058,1.0,-0.01084,-0.0142468571429,0.543
0.462772732771,0.531050219245,-0.124040613531,-1.38215381554,0.0779832218046,1.90376371125,0.155923135067,-0.0147574072999,-0.0574098734692,0.00035166096707,-0.0944588124967,-0.00419791853973,0.0306907432498,-0.0214468092884,0.574125197608,0.818753269279,0.00202198369513,0.0,0.818710275377,-0.574065515908,-0.0119589020257,0.0,-0.00863080518714,0.0085214898816,-0.999926444001,0.0,0.658649017052,0.256846907053,0.303346585744,1.0,-0.01118,-0.0146937142857,0.56
0.46264529454,0.530132629034,-0.124042507778,-1.38360984524,0.0778870735801,1.90427742096,0.155733714744,-0.0118270849174,-0.0604717849224,-0.000485503839598,-0.0897113848368,-0.0019016755789,0.0348296678108,-0.0113896570203,0.574128898876,0.818750736872,0.00199630869964,0.0,0.818707433014,-0.574069348615,-0.0119695033593,0.0,-0.0086541866805,0.00850659433305,-0.999926368742,0.0,0.65847406538,0.256620424267,0.30334462001,1.0,-0.01148,-0.015088,0.575
0.462513904603,0.529089733466,-0.124043197257,-1.38526436313,0.0777905059064,1.90489343447,0.155499843798,-0.00972335624475,-0.061669854992,0.000348333729938,-0.0947792348295,-0.00945360827433,0.0385950839031,-0.0138988781185,0.574115994481,0.818759770211,0.00200261506492,0.0,0.818716541884,-0.574056412779,-0.0119668665049,0.0,-0.00864854136056,0.00851010739088,-0.999926387693,0.0,0.65826697562,0.256358401905,0.303348603482,1.0,-0.01184,-0.0155611428571,0.593
0.462370685325,0.527924203895,-0.124047086107,-1.38707019503,0.0776730927111,1.90559818708,0.15525379181,-0.00548590898905,-0.0623443430946,-0.00089416047423,-0.101799145098,-0.00245172110451,0.0399418648797,-0.0115621256699,0.574094242243,0.818774908116,0.0020488446788,0.0,0.818732356115,-0.574034543769,-0.0119339227064,0.0,-0.00859525433221,0.00852881595043,-0.999926687763,0.0,0.658069468828,0.256110252073,0.303367387135,1.0,-0.01218,-0.016008,0.61
0.462231852333,0.526827500565,-0.124050358932,-1.38873744071,0.0775755288795,1.90622852932,0.155022971372,-0.00618665133351,-0.0650677154909,0.00466031697728,-0.102575174811,-0.00272895583189,0.0345913961045,-0.0132111570216,0.574085082291,0.818781198913,0.00210083314175,0.0,0.818739307179,-0.574025154858,-0.0119086259442,0.0,-0.00854479247217,0.00855676392032,-0.999926881483,0.0,0.657875060382,0.255860486661,0.303400440278,1.0,-0.0125,-0.0164285714286,0.626
0.46208455183,0.525660662344,-0.124053150251,-1.39058005112,0.0774560948101,1.9068925187,0.154785039553,-0.00970797995495,-0.0723616940121,0.000496263909414,-0.108334788415,-0.00103679984641,0.0383561972056,-0.00834246842967,0.574079847518,0.818784907705,0.00208578292076,0.0,0.818742848557,-0.574020010722,-0.0119131074716,0.0,-0.00855715621887,0.00854695932625,-0.999926859607,0.0,0.657650795949,0.255584344533,0.303401995843,1.0,-0.01284,-0.0168754285714,0.643
0.461925215214,0.524485579997,-0.124056594976,-1.39244299024,0.0773399024762,1.90756078325,0.154527187499,-0.0109822421907,-0.0692446683694,-0.000643632842922,-0.111739211415,-0.002190744223,0.0435598872937,-0.00979117506919,0.574070347168,0.818791617155,0.00206665923289,0.0,0.818749292672,-0.574010573726,-0.0119249277536,0.0,-0.00857791177924,0.00853798758329,-0.999926758417,0.0,0.657425277186,0.25529845265,0.303399770556,1.0,-0.01318,-0.0173222857143,0.66
0.461780681689,0.523365133393,-0.12406369775,-1.39423857875,0.0772204559248,1.90822151286,0.15427332377,-0.0138550626704,-0.0700061672205,0.000555815304735,-0.109420344086,-0.00878080517156,0.0453862516452,-0.0153885288575,0.574049942927,0.81880597432,0.00204605582633,0.0,0.818763471429,-0.573990346229,-0.0119250656064,0.0,-0.00859006405584,0.00852098305717,-0.999926799144,0.0,0.657209300474,0.255026436346,0.303390353597,1.0,-0.0135,-0.0177428571429,0.676
0.461618359434,0.522135337421,-0.124069055922,-1.39619123609,0.0771022742551,1.90898640339,0.154018616564,-0.0160686415788,-0.0745143034839,-0.000632864618832,-0.120007260604,-0.00583527125956,0.0525927209319,-0.0211301286077,0.574051047986,0.818805119465,0.0020778706835,0.0,0.818763080742,-0.573991370308,-0.0119025764937,0.0,-0.0085533754059,0.00853413462068,-0.999927001493,0.0,0.656983500532,0.254733797798,0.303391722728,1.0,-0.01384,-0.0181897142857,0.693
0.461451324585,0.520881481153,-0.124074801424,-1.39820683408,0.076981893926,1.90974881291,0.153752380469,-0.00716790922,-0.0787017326464,-0.000122875090674,-0.120758763137,-0.00524941054252,0.0457702868169,-0.013015632343,0.574049201496,0.818806418644,0.00207604194264,0.0,0.818764351514,-0.573989526923,-0.0119040569929,0.0,-0.00855565666406,0.00853346784193,-0.999926987667,0.0,0.656743719474,0.254430218172,0.303379505618,1.0,-0.01418,-0.0186365714286,0.71
0.461294598549,0.519650357278,-0.12408111924,-1.40013596348,0.0768538450577,1.9104414123,0.153487739899,-0.0117515178023,-0.0782308539525,-0.000147365882492,-0.123459321223,-0.00856696070321,0.0411925459923,-0.0204216848691,0.574033253162,0.818817628624,0.00206451447059,0.0,0.818775475194,-0.573973691191,-0.0119025183168,0.0,-0.00856117966081,0.00852297922064,-0.999927029852,0.0,0.656507055043,0.254137161562,0.303386034923,1.0,-0.0145,-0.0190571428571,0.726
0.461106850815,0.518217375492,-0.124081928603,-1.40235546146,0.0767107904505,1.91122754474,0.153186044933,-0.0121846868283,-0.0776039661416,0.00045569250267,-0.128719655484,-0.0131484088089,0.0418129801824,-0.0172753576863,0.574019414511,0.818827338737,0.00206106817657,0.0,0.818785130303,-0.573959858257,-0.0119053939225,0.0,-0.00856565653916,0.00852166329288,-0.999927002727,0.0,0.656232453569,0.25379912489,0.303403589679,1.0,-0.01486,-0.0195302857143,0.744
0.460927536118,0.516849528473,-0.124088252011,-1.404487382,0.0765722063367,1.91200362692,0.152891932313,-0.0100524651583,-0.08063265899,-0.000888275355047,-0.126984153219,-0.00768321715424,0.0471073427503,-0.0256048109408,0.574005177202,0.818837308679,0.002065275292,0.0,0.818795209466,-0.573945659722,-0.0118967030333,0.0,-0.00855627323875,0.00851997068391,-0.999927097487,0.0,0.655972908506,0.253473026968,0.303415993362,1.0,-0.0152,-0.0199771428571,0.761
0.460747226659,0.515576235791,-0.12409906431,-1.40652714039,0.0764438599979,1.91278860691,0.152602423215,-0.012780477678,-0.0774152556616,-0.00189172849367,-0.13180905717,-0.00735575888825,0.0520591070922,-0.0155845421353,0.57399669833,0.81884323077,0.00207379565146,0.0,0.818801333362,-0.573937237856,-0.0118815145462,0.0,-0.00853903361224,0.00851814076583,-0.999927260446,0.0,0.655734459517,0.253155613047,0.303406517915,1.0,-0.01552,-0.0203977142857,0.777
0.460566283381,0.514182576233,-0.124099914269,-1.40876630158,0.0763124568734,1.91358273441,0.152317289209,-0.00955514604516,-0.0817337683947,0.000140714975006,-0.130609017799,-0.00929847542401,0.0446609307185,-0.00538749487091,0.57398342841,0.818852630573,0.00203475203092,0.0,0.818810058701,-0.573923964112,-0.0119213291586,0.0,-0.00859418425457,0.00850888463395,-0.999926866765,0.0,0.655433486418,0.252805788099,0.303385869687,1.0,-0.01588,-0.0208708571429,0.795
0.460371452584,0.512765872235,-0.124097653255,-1.41104205879,0.0761744166574,1.914367847,0.151988214987,-0.0128978051331,-0.0872322251853,0.000521834686756,-0.133167822689,-0.00769428485382,0.0484066876783,-0.0195827342747,0.573964513231,0.818866042635,0.00197197174697,0.0,0.818822533312,-0.573905195445,-0.0119679774047,0.0,-0.0086686123625,0.00848405257121,-0.9999264353,0.0,0.655159775629,0.252474986165,0.303364115792,1.0,-0.0162,-0.0212914285714,0.811
0.460175459435,0.511416975386,-0.124108536488,-1.41320737337,0.0760447861973,1.91519424473,0.151686513842,-0.015041312594,-0.0831773255823,-0.00211818374659,-0.134734369462,-0.00559388337535,0.0550032232133,-0.0151569801434,0.573964245194,0.818866218506,0.00197694956145,0.0,0.818822794337,-0.573904926332,-0.0119630225414,0.0,-0.00866170070254,0.00848528193536,-0.999926484763,0.0,0.654903364344,0.252136126037,0.30335026064,1.0,-0.01652,-0.021712,0.827
0.459967984577,0.509864628128,-0.124106787768,-1.41568206768,0.0758888846011,1.91612144857,0.151337225041,-0.0126449598888,-0.0859661090925,0.000599669460915,-0.140115648728,-0.0043010327888,0.0464524474532,-0.01902122417,0.573930974374,0.818889550785,0.00197159116635,0.0,0.818846046631,-0.573871672265,-0.0119667284291,0.0,-0.00866815543687,0.00848266905719,-0.999926450999,0.0,0.654615228891,0.251790013626,0.303335209072,1.0,-0.01686,-0.0221588571429,0.844
0.459772803269,0.508446762642,-0.124112505084,-1.41791148292,0.0757546980193,1.91691159171,0.151026381497,-0.0104576437783,-0.0881778559468,0.000819691870058,-0.135167027655,-0.0139678076552,0.0437439964447,-0.0190419140313,0.573911091849,0.818903510795,0.00196101003799,0.0,0.818859794279,-0.573851764162,-0.0119806920628,0.0,-0.00868586895201,0.00848180764023,-0.999926304594,0.0,0.654300492074,0.251403886586,0.303338720434,1.0,-0.01722,-0.022632,0.862
0.459568728399,0.506908222367,-0.124110569515,-1.42031165956,0.0756010247801,1.91778800818,0.150690771335,-0.0154379917936,-0.0897980293604,0.000363664115054,-0.139145715294,-0.00566461656937,0.0472543783943,-0.0249896002392,0.573896234976,0.818913902011,0.00196963826231,0.0,0.818870280549,-0.573836855569,-0.0119780518175,0.0,-0.0086789092212,0.00848720048176,-0.999926319267,0.0,0.654019268974,0.251058581126,0.30334857206,1.0,-0.01754,-0.0230525714286,0.878
0.459344513126,0.505319943377,-0.124118483246,-1.42277987257,0.0754381552588,1.91873250974,0.150356033055,-0.00894541772986,-0.0957115462665,-0.00196299213362,-0.145340960451,-0.0124979587515,0.0478590737224,-0.0224202280951,0.573894860556,0.818914755634,0.00201467940538,0.0,0.818871864753,-0.573835433471,-0.0119378101151,0.0,-0.00862012038737,0.00850097582306,-0.999926710782,0.0,0.653724784216,0.250673179128,0.303366094796,1.0,-0.01788,-0.0234994285714,0.895
0.459119217907,0.503661821721,-0.124116389832,-1.42526090122,0.0752791679555,1.91967647667,0.14999884457,-0.0095769707129,-0.0938653796414,0.000347920232262,-0.143291849713,-0.0067585017889,0.0558277017853,-0.024788490496,0.573869982232,0.818931937163,0.00211487326532,0.0,0.818890402525,-0.573810199414,-0.011878998365,0.0,-0.00851471922727,0.00854901459523,-0.999927204303,0.0,0.653425702911,0.250293002446,0.303425260089,1.0,-0.01822,-0.0239462857143,0.912
0.45889928752,0.502061794905,-0.124124858686,-1.42761344332,0.0751261108659,1.92054896117,0.149678682873,-0.0143721073289,-0.100223613236,-0.000653743704624,-0.14639021371,-0.00905606196118,0.0431997050416,-0.0157362205148,0.573872924152,0.818929618492,0.0022121896468,0.0,0.818889440202,-0.573812846507,-0.0118173097388,0.0,-0.00840832400408,0.00859333828532,-0.9999277247,0.0,0.653141382783,0.249920869483,0.303498475715,1.0,-0.01854,-0.0243668571429,0.928
0.45865214716,0.500256701754,-0.124128426831,-1.43034001663,0.0749540074283,1.92152071547,0.149292100681,-0.0163486800432,-0.101738246789,5.78160137016e-05,-0.153888429527,-0.0113093913811,0.0534963292517,-0.0183598794292,0.57385361626,0.818943032682,0.00225460138979,0.0,0.818903365736,-0.573793335355,-0.0117996944717,0.0,-0.00836976346788,0.00861776392848,-0.999927837999,0.0,0.652797812863,0.249495991612,0.303544654118,1.0,-0.0189,-0.02484,0.946
0.458407829163,0.498581990794,-0.124123465196,-1.43295714917,0.074781426652,1.92249402319,0.14893012499,-0.0139509419352,-0.092579375485,0.000217324548206,-0.155233460047,-0.00797794958138,0.0621728636041,-0.0182974874425,0.573840067954,0.818952469914,0.00227493579754,0.0,0.818913102919,-0.573779747343,-0.01178466409,0.0,-0.00834592836147,0.00862565324568,-0.999927969199,0.0,0.652473678701,0.249089322065,0.30355123915,1.0,-0.01924,-0.0252868571429,0.963
0.458157503431,0.496991531584,-0.124128755356,-1.43546094439,0.0746365264213,1.9233981892,0.148544049403,-0.0150643036193,-0.0997578269853,-0.0017258902309,-0.155838209765,-0.00612193106967,0.060078587775,-0.0220200559202,0.573820497978,0.818966190859,0.0022718344272,0.0,0.818926641536,-0.573760045024,-0.0118031105441,0.0,-0.0083630216734,0.00863349872927,-0.999927758675,0.0,0.652162059429,0.248684949669,0.303546794036,1.0,-0.01956,-0.0257074285714,0.979
0.457898812658,0.495318815053,-0.124125833416,-1.43818171724,0.0744711387455,1.92432422083,0.148149340715,-0.0121882446937,-0.101053497171,3.31480313707e-05,-0.158343082767,-0.00338171878248,0.0520297395335,-0.0279628728449,0.573799344386,0.818981283551,0.00217174504453,0.0,0.818940210963,-0.573739061238,-0.0118813879485,0.0,-0.00848478274767,0.00859622746417,-0.999927054007,0.0,0.651804560247,0.248253738412,0.303497526918,1.0,-0.0199,-0.0261542857143,0.996
0.45761586404,0.493588938292,-0.124140000982,-1.44097446044,0.0742876172582,1.92533548417,0.1477650402,-0.0182224200439,-0.103720414328,-0.00154040581002,-0.166563740718,-0.00365031070936,0.0591843915434,-0.0277110493992,0.573817180059,0.818968929223,0.00211748357783,0.0,0.818927215387,-0.573757179245,-0.0119021874181,0.0,-0.0085327645627,0.00856390943263,-0.999926923022,0.0,0.65145765764,0.247791858084,0.3034610491,1.0,-0.0224554285714,-0.0295128489796,1.013
0.457357395931,0.491680652685,-0.124182771387,-1.44398911391,0.0741072306587,1.92645674392,0.147342328704,-0.0150004600956,-0.118394319783,0.00164727174094,-0.193685505092,-0.0158851558327,0.0674918119729,-0.0275827618705,0.573804124043,0.818978048561,0.00212840512683,0.0,0.818936557013,-0.57374416113,-0.0118869700675,0.0,-0.00851417145929,0.00856398609684,-0.999927080855,0.0,0.651057766032,0.24728591742,0.303455641271,1.0,-0.0259622857143,-0.0341218612245,1.03
0.456954393073,0.489106799278,-0.124191341394,-1.44813276564,0.0738643402453,1.92791680945,0.146732710368,-0.0233507966808,-0.149147390354,-0.000853742444122,-0.228948726833,-0.0200696261046,0.0800148037377,-0.0317690423954,0.573793721092,0.818985572374,0.002035873181,0.0,0.818942583348,-0.573733848586,-0.0119692551108,0.0,-0.00863476413841,0.00853531100213,-0.999926291941,0.0,0.650546441141,0.246648747351,0.303397420937,1.0,-0.0296754285714,-0.0390019918367,1.048
0.456553779379,0.486597453071,-0.124220748585,-1.45204446677,0.0736269119065,1.92940831005,0.14618436362,-0.0309257476428,-0.164533508252,-0.00253296960806,-0.251142791909,-0.0184600798085,0.0962107953488,-0.0292605177875,0.573824032717,0.81896415915,0.00210532801072,0.0,0.81892215219,-0.573763945475,-0.0119243627648,0.0,-0.00855782918386,0.00856675061138,-0.999926684484,0.0,0.650072795702,0.246003355839,0.303409320532,1.0,-0.032976,-0.0433398857143,1.064
0.456144766902,0.483993389448,-0.124244899932,-1.45600944835,0.0733825592842,1.93085556791,0.145560573,-0.0262079542954,-0.173890020229,-0.0027236182469,-0.274522624609,-0.0173458107299,0.0929403319981,-0.0374622148486,0.573794672838,0.818984542029,0.00217720950233,0.0,0.818943459464,-0.573734286161,-0.0118880606098,0.0,-0.00848716153867,0.00860448299308,-0.999926962814,0.0,0.649578251065,0.245346880699,0.303455953615,1.0,-0.0360702857143,-0.0474066612245,1.079
0.455585013028,0.480591024751,-0.124308902011,-1.46135396225,0.0730523795256,1.9327218548,0.144751687111,-0.0312156576429,-0.193767778478,-0.00293076745067,-0.309236724138,-0.0164389175438,0.107577266994,-0.0436871337619,0.573808617938,0.818974961702,0.00210451569515,0.0,0.818932905587,-0.57374849734,-0.0119291595314,0.0,-0.00856238510506,0.00856867667052,-0.999926628979,0.0,0.648896536688,0.244431544026,0.303435557423,1.0,-0.0397834285714,-0.0522867918367,1.097
0.455016698605,0.477049853684,-0.12435569191,-1.4667889089,0.0727116122443,1.93469853265,0.143969469404,-0.0320395081563,-0.208454835367,-0.000361452781211,-0.328913716658,-0.024347278033,0.121298501322,-0.0422982146949,0.573838708983,0.81895371676,0.0021662821631,0.0,0.818912531135,-0.573778400393,-0.0118895118713,0.0,-0.00849415756198,0.00859682326749,-0.999926969292,0.0,0.648211987581,0.243518139259,0.303474334232,1.0,-0.0432902857143,-0.0568958040816,1.114
0.454450989528,0.473690725242,-0.12438650471,-1.47193277257,0.0724159900425,1.93659392108,0.143218074337,-0.0423092496344,-0.232250535427,0.000122128749301,-0.346858156645,-0.0164703847678,0.125278876937,-0.0580939077063,0.573882500814,0.81892278606,0.00225668633689,0.0,0.818882611376,-0.573821657895,-0.0118625721516,0.0,-0.00841975724748,0.008655850425,-0.999927089313,0.0,0.64751882379,0.242589353406,0.303509294961,1.0,-0.0465908571429,-0.0612336979592,1.13
0.453731591124,0.469374561346,-0.12441321833,-1.4785157919,0.0720038521018,1.93895149259,0.142210736973,-0.0420741243321,-0.246781311674,0.000920881363693,-0.375549446508,-0.0189945163426,0.139998682261,-0.0596829123912,0.57386303618,0.818936171137,0.00234738394387,0.0,0.818897009323,-0.573801668664,-0.0118355422861,0.0,-0.0083457815413,0.008714413702,-0.999927200812,0.0,0.646718788781,0.241541115453,0.303569429739,1.0,-0.0500977142857,-0.0658427102041,1.147
0.45295056368,0.464724563346,-0.124418940742,-1.48555791645,0.0715428626002,1.94151409655,0.141084117104,-0.0427567190135,-0.266128924927,8.65381917883e-05,-0.403471458936,-0.0280126357482,0.140423636085,-0.0574200362912,0.573790892712,0.818986308635,0.00248688771932,0.0,0.818948951697,-0.573728997152,-0.0117643207609,0.0,-0.00820817606918,0.00878706338048,-0.999927704068,0.0,0.645810885706,0.240362028641,0.30364775366,1.0,-0.0538108571429,-0.0707228408163,1.165
0.452199269217,0.460389277233,-0.12443155033,-1.49232140303,0.0710960878672,1.9438408819,0.140085169251,-0.0496863227824,-0.274184145269,-0.000368756636292,-0.425299483763,-0.0274544384256,0.150805217448,-0.063788891656,0.573790468837,0.818986879414,0.00239501984798,0.0,0.818948125137,-0.573728704637,-0.0118359077047,0.0,-0.00831952165769,0.00875289656552,-0.999927083522,0.0,0.644902232487,0.239214997731,0.303617191188,1.0,-0.0571114285714,-0.0750607346939,1.181
0.451302691102,0.45526538383,-0.124450511819,-1.50031773937,0.0705528901206,1.9466537856,0.138858980166,-0.0485951349946,-0.28677820942,-0.00132095260155,-0.452113384428,-0.0332142667997,0.163463927841,-0.076433878296,0.573754170981,0.819012505386,0.00232684419114,0.0,0.818972840662,-0.573692651714,-0.0118732694694,0.0,-0.00838962428739,0.00871812792923,-0.999926801546,0.0,0.643833513111,0.237854506888,0.303579746527,1.0,-0.0608245714286,-0.0799408653061,1.199
0.450381058437,0.450036165242,-0.124490128516,-1.50810377177,0.0700212589483,1.94958509171,0.137597899872,-0.0560698085001,-0.316550214088,-0.0044849434461,-0.473558609038,-0.0295428671052,0.178201422277,-0.0675807158688,0.573714466228,0.819039435858,0.00261928457224,0.0,0.819004019884,-0.573652342772,-0.0116684166491,0.0,-0.00805448973226,0.00883971421532,-0.999928489767,0.0,0.642843272125,0.236502848716,0.303718349876,1.0,-0.0643314285714,-0.084549877551,1.216
0.449468878092,0.444932263893,-0.124531456435,-1.51591469294,0.0695063831607,1.9522683849,0.136455988673,-0.0599099180056,-0.330124450751,0.000145243351949,-0.500634647529,-0.0330116057458,0.174260600981,-0.0666465591043,0.573766299551,0.819003209929,0.00259278352477,0.0,0.818967286555,-0.573704084587,-0.0117027254406,0.0,-0.00809723509906,0.00883820452147,-0.999928157882,0.0,0.641779977117,0.235140468452,0.303731883016,1.0,-0.067632,-0.0888877714286,1.232
0.448423489801,0.439320918429,-0.124555860918,-1.52471052068,0.0688905895476,1.95519483433,0.135052484066,-0.0684151296695,-0.335634920996,-0.000178191707346,-0.52375950985,-0.0382467311475,0.177270361635,-0.0911616590123,0.573709885895,0.819043444534,0.00235577866217,0.0,0.819004227498,-0.573648333471,-0.0118495463198,0.0,-0.008354065572,0.00872776258688,-0.999927015211,0.0,0.640548062924,0.233596867753,0.303638346103,1.0,-0.0711388571429,-0.0934967836735,1.249
0.447374342978,0.433723453529,-0.124579032182,-1.53308276927,0.0683492474964,1.95822588425,0.133688057222,-0.0652705580011,-0.367690705672,-0.0015755325428,-0.524013862297,-0.0288707341431,0.199803915333,-0.0921018577372,0.573686636013,0.819059067845,0.00257564407737,0.0,0.819022597734,-0.573624140101,-0.0117506252846,0.0,-0.00814716143123,0.00885085780012,-0.99992764042,0.0,0.639429168109,0.232121277512,0.30373733685,1.0,-0.0744394285714,-0.097834677551,1.265
0.4462310088,0.42801706984,-0.124609141338,-1.54183816992,0.0677149039203,1.96131766882,0.132269077972,-0.0770440817004,-0.358020882418,-0.00125838634414,-0.560871719591,-0.0418032569988,0.189152210644,-0.09011923536,0.573683598767,0.819061190912,0.0025770038362,0.0,0.819025010551,-0.573621394114,-0.0117164503491,0.0,-0.00811842154783,0.00883233604503,-0.999928037947,0.0,0.638241274266,0.230530714124,0.303726587217,1.0,-0.07774,-0.102172571429,1.281
0.444955737564,0.421678875888,-0.124720795455,-1.55162700495,0.0669982542096,1.96452237806,0.130646179871,-0.0762127132901,-0.367020539729,-0.0118327246479,-0.593300762788,-0.0502159054762,0.187603439635,-0.0966232873605,0.573695076676,0.819053907411,0.00232436103248,0.0,0.819014645664,-0.573634027088,-0.0118220157352,0.0,-0.00834969635944,0.00868608518514,-0.999927414613,0.0,0.636861196222,0.228694423446,0.303657445072,1.0,-0.0812468571429,-0.106781583673,1.298
0.443523927562,0.414608371763,-0.124788441791,-1.56212358964,0.0662744445923,1.96829590181,0.128973914385,-0.0800017883202,-0.390887656339,0.00200876441108,-0.594762530915,-0.0324726915334,0.220383909581,-0.091476419096,0.573784617185,0.818990366473,0.0025960754004,0.0,0.818954893739,-0.573722834064,-0.0116506908052,0.0,-0.00805253083222,0.00881122546067,-0.999928756989,0.0,0.635438425882,0.22675105577,0.30378441683,1.0,-0.08496,-0.111661714286,1.316
0.442253750383,0.408598888994,-0.124805890429,-1.57122136211,0.0656516665316,1.97140143272,0.127408885399,-0.0853290422592,-0.404559359491,-0.00259821927763,-0.616116070723,-0.0453878694677,0.202656402228,-0.0961199292925,0.573754414007,0.819011478592,0.00261098532164,0.0,0.818975884784,-0.573692237857,-0.0116817492797,0.0,-0.00806974010544,0.00884095944237,-0.999928355799,0.0,0.63415022852,0.225065414073,0.30378954647,1.0,-0.0880542857143,-0.115728489796,1.331
0.440726564834,0.401643960745,-0.124896431562,-1.58194339043,0.0648971356361,1.97494110626,0.125627395412,-0.0870869796952,-0.417166578494,-0.0101082186159,-0.625444398802,-0.039941201743,0.219544603164,-0.104128576196,0.573832404212,0.818957486025,0.00239892926718,0.0,0.818918900845,-0.573770744217,-0.0118200601175,0.0,-0.00830385116242,0.008747430449,-0.999927261613,0.0,0.632607502966,0.223011088017,0.303690599781,1.0,-0.0915611428571,-0.120337502041,1.348
0.439032615065,0.393856712875,-0.124955471831,-1.59337747027,0.0640300634344,1.9790278461,0.123669019703,-0.0984516680438,-0.430009251678,-0.00166782511987,-0.647002109183,-0.0469524971846,0.224685706561,-0.112247779919,0.573863721372,0.818934550111,0.00271640000506,0.0,0.818900835426,-0.573801736976,-0.0115643972303,0.0,-0.00791196173168,0.00886102086562,-0.999929439096,0.0,0.631021287513,0.220821800215,0.303844456686,1.0,-0.0952742857143,-0.125217632653,1.366
0.437457188014,0.386861037844,-0.124992584177,-1.60411005245,0.0632366229703,1.98243243447,0.121835067916,-0.0993250805463,-0.443071552386,-0.00311580575414,-0.681673775035,-0.0519552874108,0.212507220201,-0.123577797591,0.573866008713,0.81893387999,0.00241891517496,0.0,0.818895880642,-0.573804613201,-0.0117707025205,0.0,-0.00825160126785,0.00873581393904,-0.999927795709,0.0,0.629407107236,0.218765975621,0.303729154373,1.0,-0.0985748571428,-0.129555526531,1.382
0.435724877238,0.379065414964,-0.125058452776,-1.61553252325,0.0624067177389,1.98630166572,0.119787078959,-0.0970646438399,-0.46009982385,-0.00264420018673,-0.669283640995,-0.03936049667,0.231427422386,-0.108926627035,0.573850805918,0.818943957517,0.0026065102752,0.0,0.818908421742,-0.573788760567,-0.0116705590338,0.0,-0.00806210272179,0.00883182296272,-0.999928498145,0.0,0.627741754243,0.216555684104,0.303846655482,1.0,-0.102081714286,-0.134164538775,1.399
0.433852422616,0.371201776555,-0.125082796225,-1.62735537923,0.0615047519733,1.99023314617,0.117683594112,-0.115341517137,-0.465930509619,-0.00359887912981,-0.710475629767,-0.0624756900328,0.221932196577,-0.115711152237,0.5738546889,0.818941409374,0.00255165479749,0.0,0.818905131408,-0.573792805215,-0.0117025355499,0.0,-0.00811972612217,0.00880528763364,-0.999928265906,0.0,0.625982483516,0.214238504026,0.303809543047,1.0,-0.105588571429,-0.13877355102,1.416
0.432036024224,0.363545793281,-0.1251967515,-1.63865302539,0.060625034048,1.99391790284,0.115686835858,-0.114686649609,-0.49176495055,-0.00987273450779,-0.704512225891,-0.0592228450337,0.234077473801,-0.130595143116,0.573943297209,0.818879344062,0.00254133014226,0.0,0.818843242306,-0.573881775578,-0.0116704366094,0.0,-0.00809841234078,0.00877928890945,-0.999928667358,0.0,0.624291290705,0.211956184894,0.303848486601,1.0,-0.108889142857,-0.143111444898,1.432
0.429886736245,0.354751391234,-0.125220481435,-1.65169593833,0.0596529555341,1.99817841366,0.113228239559,-0.125407813437,-0.490322355102,-0.00193260818745,-0.719195062114,-0.057789107799,0.237903317522,-0.143410997002,0.57388252227,0.818921925086,0.00254522050911,0.0,0.818885439233,-0.57382052353,-0.011721394492,0.0,-0.0081385638696,0.00881111709143,-0.999928061409,0.0,0.622296676959,0.20936896371,0.303844063237,1.0,-0.112602285714,-0.14799157551,1.45
0.427737712547,0.346213883621,-0.125279231124,-1.66427253817,0.0587104466395,2.00222810288,0.110873029297,-0.128120520705,-0.513390183335,-0.00462174976653,-0.738038830261,-0.0540644886318,0.249259848392,-0.144398214708,0.573911502927,0.818901610245,0.00254685037697,0.0,0.818864753331,-0.573849070195,-0.0117689119848,0.0,-0.00817623067218,0.00884001016829,-0.999927499108,0.0,0.620356445116,0.206812491395,0.303854417442,1.0,-0.116109142857,-0.152600587755,1.467
0.425689974873,0.338027160356,-0.125310656648,-1.67620543156,0.0577474565077,2.00618397781,0.108631849347,-0.131616302689,-0.504734822441,0.000607264329693,-0.745493353936,-0.0612982425591,0.241758500279,-0.151633555141,0.573886685962,0.818918577915,0.00267979894522,0.0,0.818883758958,-0.573824121385,-0.0116625010951,0.0,-0.00801305981272,0.00888756905025,-0.999928398431,0.0,0.618513393834,0.204403452935,0.303912038948,1.0,-0.119409714286,-0.156938481633,1.483
0.423405975561,0.329122662643,-0.125308478212,-1.68927972547,0.0566704319516,2.01023748613,0.106089969704,-0.139877441881,-0.53719347237,0.000696349792624,-0.740133065336,-0.0691884258656,0.247285087095,-0.153784901644,0.573770382179,0.81900048888,0.00254846035323,0.0,0.818963749197,-0.573708065647,-0.0117549910434,0.0,-0.0081654283615,0.00883193239111,-0.999927658758,0.0,0.616406948489,0.201752155198,0.303888014079,1.0,-0.122916571429,-0.161547493878,1.5
0.421000787077,0.320047407344,-0.125321172665,-1.70245832168,0.0556174905998,2.01451259344,0.103518349249,-0.146728730236,-0.538970914631,0.000274005399455,-0.76039383446,-0.0676334833088,0.260494770337,-0.153499529085,0.57373898213,0.819022103541,0.00266855713865,0.0,0.818986850228,-0.573676156527,-0.0117027127928,0.0,-0.00805404791127,0.00889998708384,-0.999927958676,0.0,0.614314721964,0.199037321664,0.303924020484,1.0,-0.126423428571,-0.166156506122,1.517
0.418629069435,0.31131374755,-0.125363377141,-1.71514380002,0.0546043988903,2.0184387349,0.100943940908,-0.155513954879,-0.550531097032,-0.00547685307461,-0.781972428953,-0.0682700956957,0.251097932672,-0.16390445234,0.573682417755,0.819061831375,0.0026356866482,0.0,0.819025739271,-0.573619264356,-0.0117696590009,0.0,-0.00812835431571,0.0089109132,-0.999927260095,0.0,0.612248478164,0.196373844208,0.303921420008,1.0,-0.129724,-0.1704944,1.533
0.415987045881,0.301857195452,-0.125432317926,-1.72871445656,0.0534335274973,2.02272938403,0.0981496908772,-0.160944595988,-0.550416141055,-0.00131372297256,-0.800634267079,-0.0653309232273,0.257775976275,-0.167948429794,0.573644420791,0.819088218837,0.00270465504231,0.0,0.819053558735,-0.573581618767,-0.0116679662972,0.0,-0.008005907453,0.00890869262586,-0.999928267748,0.0,0.609920042592,0.193277969805,0.303968812914,1.0,-0.133437142857,-0.175374530612,1.551
0.413184440045,0.292221105815,-0.12553485657,-1.74259212812,0.0523471231545,2.02690013815,0.0953508162805,-0.169204816965,-0.577782483265,-0.00822831430694,-0.802293840285,-0.0607892833902,0.259386455642,-0.170134219304,0.5737992034,0.818979769763,0.00271252621439,0.0,0.81894445864,-0.573735516178,-0.0117591683732,0.0,-0.00807440383644,0.0089689824381,-0.999927178027,0.0,0.607622106621,0.190232680463,0.30399221946,1.0,-0.136944,-0.179983542857,1.568
0.41030645252,0.282459550383,-0.125645872782,-1.75656000906,0.0511429958456,2.0312267627,0.0923634896884,-0.16618495338,-0.577477188144,-0.00591153164589,-0.811639940245,-0.0657031227722,0.253290068166,-0.177166824806,0.573790555559,0.818985817811,0.00271578288995,0.0,0.818950789793,-0.573727125495,-0.0117275858385,0.0,-0.00804676309313,0.00895344291782,-0.999927540107,0.0,0.605436969391,0.18731556137,0.303988119985,1.0,-0.140244571429,-0.184321436735,1.584
0.407447892375,0.27303727103,-0.125700556967,-1.76997123127,0.0499730356369,2.03522494966,0.0894691878246,-0.177720728104,-0.592705566495,-0.00371402751747,-0.845095521261,-0.0741615514379,0.26429618309,-0.182701186738,0.573778321551,0.818994406196,0.00271057910318,0.0,0.818959257938,-0.573714853072,-0.0117366137767,0.0,-0.00805727666644,0.00895424080129,-0.9999274483,0.0,0.60301889873,0.184138908359,0.304005371428,1.0,-0.143751428571,-0.18893044898,1.601
0.404084106036,0.262299733162,-0.125862954669,-1.78517824509,0.0486413942011,2.03983265677,0.0861193416428,-0.18808267384,-0.607428777815,-0.0143140656166,-0.836957099711,-0.0750282230905,0.254124388916,-0.198531036231,0.573882535334,0.818921266075,0.00274636313468,0.0,0.818886852851,-0.57381922882,-0.0116859644375,0.0,-0.00799412272806,0.00895550398453,-0.999927943879,0.0,0.600590982572,0.180827617529,0.304023304401,1.0,-0.147258285714,-0.193539461224,1.618
0.400974412551,0.252583519366,-0.125984433087,-1.79879954174,0.0474156025239,2.04381548715,0.0831266646701,-0.198755478437,-0.622451553014,-0.000307248986734,-0.845025102873,-0.0827774330812,0.261607280215,-0.187304911455,0.574005869147,0.818834768961,0.00276228656658,0.0,0.818800727221,-0.573942676679,-0.0116584685572,0.0,-0.00796111853788,0.00895396401815,-0.999928220984,0.0,0.598239107144,0.177660463564,0.30406691964,1.0,-0.150558857143,-0.197877355102,1.634
0.397379988477,0.241559557709,-0.126007612534,-1.8144558042,0.0460175393567,2.04832181814,0.0795290548766,-0.196492627474,-0.628061360584,-0.000146926373218,-0.884346316232,-0.0760545044474,0.24963496259,-0.201745161973,0.573926343484,0.818890934725,0.00263366299871,0.0,0.818854682328,-0.573863019224,-0.0117894570458,0.0,-0.00814307447951,0.0089230390483,-0.999927032194,0.0,0.595455000804,0.174097884962,0.303988444044,1.0,-0.154272,-0.202757485714,1.652
0.394077548905,0.231479419195,-0.126021274889,-1.82821835901,0.0448085651691,2.05242165508,0.0762988843802,-0.21225446507,-0.620943096375,-0.00232684350528,-0.86741260747,-0.0769425437585,0.258095590133,-0.204789814972,0.573901985853,0.818906843079,0.0029731959645,0.0,0.818874943933,-0.573837415402,-0.0116272862128,0.0,-0.0078156836345,0.00910777367921,-0.99992797918,0.0,0.59302964264,0.170922585498,0.304143116102,1.0,-0.157572571429,-0.207095379592,1.668
0.390667273466,0.221397383534,-0.126021401769,-1.84237583228,0.0434464450122,2.05631007879,0.0728941356221,-0.221040334819,-0.634068247083,2.86384368558e-05,-0.869775498656,-0.0769919202891,0.232937873322,-0.215059650197,0.573744803957,0.819017690222,0.002769465178,0.0,0.818982906299,-0.573680682016,-0.0117567500932,0.0,-0.00804035243542,0.00901369245929,-0.99992705038,0.0,0.590425001,0.167643223314,0.304068720108,1.0,-0.160873142857,-0.211433273469,1.684
0.386840645648,0.21038891717,-0.126130390444,-1.8573556313,0.0420896938948,2.06059153734,0.069215431735,-0.233797118462,-0.633645540397,-0.00972265722354,-0.897556406101,-0.0784433365076,0.24356037725,-0.219927255988,0.573794805001,0.818981813865,0.00300952049296,0.0,0.818950105162,-0.573729799986,-0.0116442588323,0.0,-0.00780993499456,0.00914623844368,-0.999927673003,0.0,0.587720470886,0.164032584655,0.304182505243,1.0,-0.16438,-0.216042285714,1.701
0.38289450492,0.199339661909,-0.1262315881,-1.87257901519,0.0406058615896,2.06465402658,0.0653787893217,-0.231184935235,-0.666270703024,-0.00812274580932,-0.863284671093,-0.0853395735952,0.248800378013,-0.230883858802,0.573757196531,0.819008627225,0.00288007991568,0.0,0.818975071383,-0.573692445171,-0.0117284997925,0.0,-0.00795361555712,0.00908819979102,-0.999927069653,0.0,0.584709024531,0.160109566613,0.304160495742,1.0,-0.168093142857,-0.220922416327,1.719
0.378727530721,0.188098080351,-0.126360320032,-1.88792815486,0.0391698575932,2.06884500453,0.0614538329054,-0.245996487873,-0.65812108837,-0.0117190238707,-0.923939766453,-0.0883509683717,0.239671545007,-0.230892449139,0.573819600426,0.818964762042,0.00292089059332,0.0,0.818931407882,-0.573754321347,-0.0117505242914,0.0,-0.00794754474497,0.00913486607405,-0.99992669269,0.0,0.582010471777,0.156527531769,0.304161321386,1.0,-0.171393714286,-0.225260310204,1.735
0.374347717995,0.176646292736,-0.126529902532,-1.90330560811,0.0377030288519,2.07294346372,0.0574054224087,-0.257592971434,-0.67596312509,-0.00159535044825,-0.914165285449,-0.0919357866642,0.245554960897,-0.23280885845,0.573969792688,0.818859054083,0.00304524701029,0.0,0.818827149599,-0.573903870376,-0.0117129649386,0.0,-0.00784373936097,0.00921659643487,-0.99992676237,0.0,0.579116151779,0.152598158673,0.304236608026,1.0,-0.174900571429,-0.229869322449,1.752
0.369910569858,0.16519845561,-0.126580636199,-1.91898551452,0.0360673341978,2.07693352104,0.0532137218124,-0.259425140499,-0.67580779981,-0.00222418875758,-0.935195815565,-0.099216005458,0.221691697433,-0.24945697368,0.573869818287,0.818930066656,0.00277929615011,0.0,0.818894528797,-0.57380465656,-0.0118622812843,0.0,-0.00811976206051,0.00908353050243,-0.999925776714,0.0,0.576050731725,0.148684587957,0.304121365627,1.0,-0.178407428571,-0.234478334694,1.769
0.365585987489,0.154125956618,-0.126621901772,-1.93354555683,0.0345819065948,2.08082055052,0.0491234629205,-0.27102704898,-0.695282793514,-0.00717021203377,-0.923923519384,-0.0974800953189,0.239874283444,-0.252551712294,0.573769903671,0.818999060947,0.00306312109872,0.0,0.818967702696,-0.573704317681,-0.0116621059994,0.0,-0.0077940781224,0.00920013981637,-0.999927302244,0.0,0.573236484486,0.144988096271,0.304256623593,1.0,-0.181708,-0.238816228571,1.785
0.360784578385,0.142399739352,-0.126724113611,-1.94933151656,0.0329545365905,2.08464484661,0.0447135098751,-0.288253568191,-0.699607525661,-0.00629941639286,-0.91450653391,-0.0832918561819,0.22320056964,-0.265015794371,0.573789613118,0.818986047506,0.00284266951931,0.0,0.818951163069,-0.573724034672,-0.0118520651573,0.0,-0.00807592365862,0.0091287751475,-0.999925719702,0.0,0.57007240129,0.14089908579,0.304167585851,1.0,-0.185214857143,-0.243425240816,1.802
0.355500052101,0.129687543331,-0.126870480029,-1.96592311936,0.0312439707325,2.08883174918,0.0397842318889,-0.29758536777,-0.707538495274,-0.0121730933353,-0.914154997773,-0.0945922444548,0.22334590645,-0.277615796946,0.573770420801,0.818998697891,0.00306332645701,0.0,0.818966856838,-0.573704261748,-0.0117240928682,0.0,-0.00784472438478,0.00923587835776,-0.99992657673,0.0,0.566773392936,0.136501238859,0.30427057991,1.0,-0.188928,-0.248305371429,1.82
0.350864469594,0.118973933749,-0.127055434429,-1.97992042286,0.0297014981109,2.09220606616,0.0356814855164,-0.309673958131,-0.739500955382,-0.00571958553772,-0.923812474387,-0.103139027104,0.229628608144,-0.278464538226,0.573933063874,0.818884713456,0.00306776155487,0.0,0.818853375043,-0.573867393017,-0.011666718208,0.0,-0.00779335891711,0.0092081395147,-0.999927234214,0.0,0.563946046696,0.132674023123,0.30430113587,1.0,-0.192022285714,-0.252372146939,1.835
0.345125018154,0.106039956793,-0.12719149332,-1.99685507961,0.0278723205919,2.09614542386,0.0304422242604,-0.316020829088,-0.714549016625,-0.00693849979977,-0.942640529792,-0.0991117115682,0.218283195812,-0.2917025048,0.573929553571,0.818887478424,0.00298531717423,0.0,0.818854710561,-0.573863744401,-0.011752138337,0.0,-0.0079106659419,0.00918961746853,-0.999926483445,0.0,0.560441808496,0.128067553262,0.304264067353,1.0,-0.195735428571,-0.257252277551,1.853
0.33959568528,0.0936383703739,-0.127255455645,-2.01273142042,0.0261264117766,2.09985912015,0.025350429232,-0.331351045657,-0.724653665791,-0.00381312766105,-0.946880809867,-0.094251898098,0.207708304619,-0.303324625005,0.573809964147,0.818970688251,0.00314384038482,0.0,0.818940156204,-0.57374384229,-0.0116520767381,0.0,-0.00773909924549,0.00926087317167,-0.999927168633,0.0,0.557122863725,0.123751553837,0.30434231027,1.0,-0.199242285714,-0.261861289796,1.87
0.334167344344,0.0819038011934,-0.127368891434,-2.02788790395,0.024512820962,2.10308650553,0.0204110176849,-0.347921891208,-0.744946381832,-0.00727485930135,-0.924593258027,-0.104544705064,0.203677560347,-0.31583884419,0.573794758443,0.818981821398,0.00301633939507,0.0,0.818948374284,-0.573727598967,-0.011872208832,0.0,-0.00799271993911,0.00928261616198,-0.999924971918,0.0,0.553857567811,0.119559646154,0.304288390488,1.0,-0.202542857143,-0.266199183673,1.886
0.328167622865,0.0692376570824,-0.127528177215,-2.04387267723,0.0226982871678,2.10667968483,0.0150078125763,-0.358896339081,-0.729868092813,-0.00858433685064,-0.955841526601,-0.0958752884338,0.19343026612,-0.331090429019,0.57380594154,0.818973304871,0.00319597592278,0.0,0.818942595408,-0.573738620896,-0.0117374281832,0.0,-0.00777913530399,0.00935250691172,-0.999926005097,0.0,0.550445369912,0.115013009079,0.30436570386,1.0,-0.206049714286,-0.270808195918,1.903
0.321823043262,0.0563764349941,-0.127743085826,-2.05997991655,0.0207778729136,2.11001418812,0.00941706590613,-0.376973671632,-0.772602646606,-0.00511516108822,-0.94125973282,-0.108667638313,0.203290582873,-0.328550087222,0.573920335655,0.818893113345,0.00320376934637,0.0,0.818862848664,-0.573853387009,-0.0116906884518,0.0,-0.00773507929706,0.00933315122581,-0.999926527719,0.0,0.546933072256,0.110273209767,0.304424399069,1.0,-0.209556571429,-0.275417208163,1.92
0.315450620001,0.0436354043541,-0.127808455004,-2.07615804267,0.0189747341645,2.11330566495,0.00374506131728,-0.371157984874,-0.755388954389,-0.00155916243337,-0.96096628557,-0.104741868491,0.183916475249,-0.338049702772,0.573893506841,0.8189122463,0.00311810292357,0.0,0.818879681741,-0.573825445054,-0.0118815967484,0.0,-0.00794089117179,0.00937230280038,-0.999924548247,0.0,0.543308225184,0.105669219705,0.304330598414,1.0,-0.20998,-0.275973714286,1.937
0.309247895513,0.0315609094935,-0.127884031422,-2.09098115546,0.0171576396691,2.11630357873,-0.00177104787691,-0.383312804214,-0.73968712669,-0.00823652213374,-0.925071648462,-0.118009233991,0.192537298609,-0.348758897368,0.573823684496,0.818960625937,0.00325870779742,0.0,0.818930551323,-0.573755931052,-0.0117316066042,0.0,-0.00773816994521,0.0094007100926,-0.99992587094,0.0,0.539985079715,0.101281046851,0.304418482987,1.0,-0.20998,-0.275973714286,1.953
0.302115452584,0.0181643332755,-0.128033842116,-2.10750964073,0.0151644952573,2.11937296429,-0.00807397080695,-0.406868526205,-0.74724320822,-0.0150215648208,-0.892935643825,-0.108852330992,0.168311366385,-0.355492863205,0.573838448561,0.818950524278,0.00319697354866,0.0,0.818919160333,-0.573770318955,-0.0118227250239,0.0,-0.00784804942328,0.00940257810832,-0.99992499701,0.0,0.536186617779,0.0962964704931,0.304404311028,1.0,-0.20998,-0.275973714286,1.971
0.295975730674,0.00703336900348,-0.128206079163,-2.12102513101,0.0134636034377,2.12185563012,-0.0133983490911,-0.417189273594,-0.729329150642,-0.00675294705193,-0.904877090135,-0.103378547895,0.152872488124,-0.35757520361,0.573951450303,0.818871191625,0.00323281954075,0.0,0.818840578673,-0.57388352293,-0.0117709697821,0.0,-0.00778379604717,0.00940331004424,-0.999925492364,0.0,0.533065649976,0.092075087361,0.304444271633,1.0,-0.20998,-0.275973714286,1.986
0.288989801096,-0.00552535455568,-0.128276873547,-2.13613009801,0.0116735964947,2.12455685452,-0.0195903856682,-0.407445649039,-0.734006172173,-0.00246364315287,-0.884341668174,-0.112500156591,0.164410995519,-0.365160865149,0.573883964353,0.818917751075,0.00341457673473,0.0,0.818889149955,-0.573815001091,-0.0117324980329,0.0,-0.00764876281323,0.00952943579382,-0.999925340353,0.0,0.529303657001,0.0871658960007,0.304515295759,1.0,-0.20998,-0.275973714286,2.004
0.281039395612,-0.0193857429,-0.128355020651,-2.1529037179,0.00947947363948,2.12735456892,-0.0265740246691,-0.420705749634,-0.720406959085,-0.00798307476279,-0.903084644683,-0.121469238281,0.129285488437,-0.379343807126,0.57380969775,0.818970480567,0.00324493886491,0.0,0.818939470754,-0.573741078295,-0.0118349152785,0.0,-0.00783084229775,0.00944857958996,-0.999924698291,0.0,0.525470953141,0.0822125882823,0.304443688079,1.0,-0.20998,-0.275973714286,2.022
0.274166612179,-0.0311064918378,-0.128521869923,-2.16656421478,0.00771170840049,2.1296023668,-0.0325496457256,-0.43986319889,-0.726992628499,-0.016597443705,-0.875181131301,-0.115547203308,0.151070071844,-0.375873496422,0.573889865251,0.818913412279,0.00346304098816,0.0,0.818885823332,-0.573821222133,-0.0116602005997,0.0,-0.0075616738345,0.00952768955933,-0.999926019374,0.0,0.522175068914,0.077768541886,0.304577234717,1.0,-0.20998,-0.275973714286,2.038
0.266658337106,-0.0432927089005,-0.128680948203,-2.18118421984,0.00590136828311,2.13175808816,-0.0390672347455,-0.435617182876,-0.712527940152,1.06413813084e-05,-0.838819600325,-0.101721527102,0.119279807366,-0.396143740859,0.573999009188,0.818837559193,0.00330696336047,0.0,0.818806382492,-0.57392896077,-0.0119332678314,0.0,-0.00787359745066,0.00955763063183,-0.999923326141,0.0,0.518539856219,0.0730098571209,0.304465254211,1.0,-0.20998,-0.275973714286,2.055
0.259599478596,-0.0548404536335,-0.128726216109,-2.19440319085,0.00411891556045,2.13382463938,-0.0452225544862,-0.445913115263,-0.715888082201,0.000243052015214,-0.845299781248,-0.117948390426,0.12644551645,-0.394570022682,0.573939111019,0.818878445294,0.00356869392931,0.0,0.818851796027,-0.573869573543,-0.0116702873167,0.0,-0.00750872643699,0.00962045098488,-0.999925530202,0.0,0.515258529932,0.0686671243668,0.304607515966,1.0,-0.20998,-0.275973714286,2.071
0.252399568634,-0.0661292096024,-0.128819603206,-2.20778424167,0.00235061429966,2.13556053405,-0.0515895654657,-0.44909467704,-0.702638377684,-0.00722430839553,-0.837720952616,-0.113011691247,0.104458264005,-0.398238426371,0.573847250635,0.818943878368,0.00331721619102,0.0,0.818912659625,-0.573776972878,-0.011949401758,0.0,-0.00788269892175,0.00957382600489,-0.9999230995,0.0,0.511810584263,0.0642717080463,0.304473028076,1.0,-0.20998,-0.275973714286,2.087
0.244048839517,-0.0789342201778,-0.129030689585,-2.22229507846,0.000405302968006,2.13751755468,-0.0588695545658,-0.470618778056,-0.700079906601,-0.0138127987766,-0.824476916464,-0.113697138669,0.104736845468,-0.411352572806,0.573939556247,0.818878336843,0.00352166514776,0.0,0.818850071083,-0.573868896691,-0.0118235949892,0.0,-0.00766125921038,0.00966993079406,-0.999923895877,0.0,0.508089023434,0.0592466344403,0.304573814254,1.0,-0.20998,-0.275973714286,2.105
0.236117757165,-0.0908025173243,-0.129091457294,-2.23601969147,-0.00139588578047,2.13910554545,-0.0658111194824,-0.461184725954,-0.692458563939,-0.000954672021153,-0.813294894407,-0.0995075515498,0.0904972059331,-0.41682631233,0.573890811603,0.818913092459,0.00338086651713,0.0,0.81888148537,-0.573818804269,-0.0120764103252,0.0,-0.00794967879893,0.00969925665893,-0.999921360422,0.0,0.504446121922,0.0546169189481,0.304477285257,1.0,-0.20998,-0.275973714286,2.122
0.228481824545,-0.102031989792,-0.129169009513,-2.24849189137,-0.0032232863486,2.14061064681,-0.0724884946711,-0.484954206339,-0.687430908692,-0.00602536848419,-0.783864440563,-0.117544312864,0.0792076376875,-0.420198143929,0.573809990688,0.818969153527,0.00351668307378,0.0,0.818940541788,-0.573739012721,-0.0118609105582,0.0,-0.00769620978102,0.00968604980518,-0.999923471469,0.0,0.501142099903,0.0502250469113,0.304578040343,1.0,-0.20998,-0.275973714286,2.138
0.220180307596,-0.113746517077,-0.129357404029,-2.26182577859,-0.00509333746654,2.1419218003,-0.079657240849,-0.493762783475,-0.68753696822,-0.0150722427535,-0.766522035802,-0.113398726565,0.0693683437717,-0.423591776436,0.573916359135,0.818895454809,0.00331567665495,0.0,0.818862975361,-0.573844575734,-0.0121069147541,0.0,-0.00801176865196,0.00966362734184,-0.999921209831,0.0,0.497499519079,0.0454811314955,0.304471086342,1.0,-0.20998,-0.275973714286,2.155
0.211720390249,-0.125538316482,-0.129487123393,-2.27465155691,-0.0068626162034,2.14328138631,-0.08703146583,-0.493222313821,-0.694707882227,-0.00603389945326,-0.76859075614,-0.101723167811,0.0673447596003,-0.439311809994,0.573967636551,0.818858320521,0.00359861161099,0.0,0.818830006733,-0.573895372356,-0.0119276386323,0.0,-0.0077019678745,0.00979291826908,-0.999922386209,0.0,0.493999028739,0.0407874501503,0.304593550694,1.0,-0.20998,-0.275973714286,2.172
0.203706078377,-0.136430829776,-0.129591156616,-2.28673554945,-0.008643289609,2.14428010413,-0.0940847997355,-0.503081711923,-0.671849696646,-0.0129044718588,-0.757297469757,-0.116466023489,0.0511863370886,-0.436197951171,0.573882697528,0.818918470578,0.00345469615342,0.0,0.818887717586,-0.573810273639,-0.0120591357366,0.0,-0.00789326081849,0.00974972530681,-0.99992131655,0.0,0.490591643976,0.0363979153786,0.304537991625,1.0,-0.20998,-0.275973714286,2.188
0.194988676902,-0.148030709598,-0.129764668854,-2.29912557685,-0.0104320563624,2.14545295533,-0.101724345117,-0.520475780825,-0.663393605881,-0.0148884939222,-0.731716463393,-0.110983028418,0.0622428663753,-0.448396598408,0.573925152082,0.818887402445,0.00375350843318,0.0,0.818861512891,-0.573852880881,-0.0118085016632,0.0,-0.00751601633257,0.00985098936924,-0.999923230807,0.0,0.487113447541,0.0316988394569,0.304663035798,1.0,-0.20998,-0.275973714286,2.205
0.185584073536,-0.160133860892,-0.129910638342,-2.31231460511,-0.012414423684,2.1462442585,-0.109973261372,-0.51948005336,-0.677605985427,-0.00205260265761,-0.731765155717,-0.107149473751,0.0370114384741,-0.464153846036,0.573890973421,0.818912233404,0.00355689604779,0.0,0.818882788502,-0.57381813074,-0.0120199180412,0.0,-0.0078023967074,0.00981099231114,-0.999921430431,0.0,0.483256356323,0.0267174536864,0.304592091735,1.0,-0.20998,-0.275973714286,2.223
0.17713838564,-0.170877578609,-0.1299935053,-2.32356901592,-0.0139899578338,2.14703779721,-0.117425441981,-0.5376035147,-0.662860081743,-0.00676868022598,-0.709204387665,-0.104644252977,0.0501824485594,-0.468407615512,0.573870721499,0.818925152072,0.00383890757403,0.0,0.818899628028,-0.573797183634,-0.0118717382892,0.0,-0.00751945550241,0.00995671469947,-0.999922157781,0.0,0.479965383345,0.0223702144431,0.304703558812,1.0,-0.20998,-0.275973714286,2.239
0.167940406026,-0.182110708702,-0.130181062336,-2.3356012231,-0.0158638103085,2.14762205874,-0.125464296834,-0.548344444376,-0.661363243192,-0.0148882794916,-0.701952317333,-0.108270235291,0.0302986557476,-0.482330407796,0.573907386041,0.818900145878,0.00368920449648,0.0,0.818872073926,-0.573833600477,-0.0120113450442,0.0,-0.00771925132931,0.00991457706066,-0.999921054044,0.0,0.476343547843,0.0176397271875,0.304638061687,1.0,-0.20998,-0.275973714286,2.256
0.158049091386,-0.194033133563,-0.130319771353,-2.34788400481,-0.0177133906656,2.14824780903,-0.134180843488,-0.544186501238,-0.65918649749,-0.00831656992273,-0.666671983269,-0.101482519576,0.038354745941,-0.486385945615,0.573906095157,0.818899989128,0.00391773532254,0.0,0.818875562912,-0.573832377615,-0.0118305438658,0.0,-0.00744005211211,0.0099979514427,-0.99992234028,0.0,0.47261976971,0.0126880437849,0.304746191856,1.0,-0.20998,-0.275973714286,2.274
0.149140456696,-0.204400715396,-0.130471895165,-2.35878154598,-0.0193750601721,2.14859528067,-0.142108148224,-0.563358809871,-0.661040064507,-0.00449447181255,-0.686877186757,-0.108677353531,0.00986944839703,-0.49416233908,0.57385513064,0.818936058594,0.00384289908816,0.0,0.818909770908,-0.573780503557,-0.0119778023926,0.0,-0.00760422011285,0.0100207038983,-0.999920877535,0.0,0.469222595938,0.0082850082628,0.304687780864,1.0,-0.20998,-0.275973714286,2.29
0.138871769662,-0.21606768251,-0.130702505494,-2.37067274788,-0.0211688672184,2.14889517448,-0.151116713312,-0.572045899142,-0.650895475687,-0.0188448993243,-0.637309619866,-0.101617588594,0.0221484351582,-0.504443095512,0.573998458915,0.818834909443,0.00398837588592,0.0,0.81881021483,-0.573922880219,-0.0119627151021,0.0,-0.00750661308706,0.010132498031,-0.999920488461,0.0,0.465462465866,0.00327847596115,0.304740419879,1.0,-0.20998,-0.275973714286,2.308
0.129171633988,-0.226891459071,-0.130767041948,-2.38176036942,-0.0229533679589,2.14910992237,-0.159782024888,-0.567998870945,-0.631155759481,-0.00366995986981,-0.658464805874,-0.102828649935,0.00558271031041,-0.51442673283,0.573832307466,0.8189515193,0.00395459804771,0.0,0.818926482022,-0.573757007088,-0.0119608010647,0.0,-0.00752648277204,0.0101022136401,-0.99992064552,0.0,0.461892447422,-0.00131692866649,0.304721266625,1.0,-0.20998,-0.275973714286,2.325
0.120355560422,-0.236356465253,-0.130901966609,-2.39141118288,-0.024513870933,2.1491427125,-0.167605063047,-0.584680238561,-0.628215787262,-0.00933288301529,-0.636614883562,-0.109280182482,0.00374708119674,-0.519606515134,0.573811146948,0.818966713908,0.0038776346095,0.0,0.818940151775,-0.573735439066,-0.0120590493634,0.0,-0.00765137094739,0.0100953619889,-0.999919766876,0.0,0.458713945375,-0.00546150574823,0.304679553885,1.0,-0.20998,-0.275973714286,2.34
0.109536514023,-0.247754926567,-0.131101504298,-2.40253635155,-0.026262119292,2.14920689767,-0.177159485321,-0.593076259299,-0.633392046116,-0.00647365907521,-0.615393273045,-0.0888746358099,-0.00135946542778,-0.532918850792,0.573928290098,0.818883146217,0.00417822556461,0.0,0.818861467975,-0.573852812666,-0.0118149296136,0.0,-0.00727750035657,0.0102025067,-0.999921470339,0.0,0.455015796685,-0.0104726875483,0.30481740698,1.0,-0.20998,-0.275973714286,2.358
0.0987443016211,-0.258886493011,-0.131258709209,-2.41376949,-0.0280449407021,2.14911779313,-0.186895653079,-0.609517617696,-0.612924965324,-0.0147985769377,-0.62086935308,-0.110693672203,-0.00317957790441,-0.550373831262,0.573809541227,0.818966625529,0.00412596275038,0.0,0.818943340248,-0.573732975137,-0.011959331318,0.0,-0.00742723532626,0.0102415053142,-0.99991997067,0.0,0.451186409536,-0.0153683726196,0.304732637895,1.0,-0.20998,-0.275973714286,2.376
0.0900453097824,-0.267486650848,-0.131430870479,-2.42209746743,-0.0294577987116,2.14901236641,-0.194564123707,-0.61973777793,-0.623500112134,-0.0153956719246,-0.582083783865,-0.091181128244,-0.00141302420297,-0.556840812334,0.573916393028,0.818891135848,0.00424597976843,0.0,0.818870267211,-0.573840590774,-0.0117986761763,0.0,-0.00722545490916,0.0102485575776,-0.999921376844,0.0,0.448300836303,-0.0192877277354,0.304794282155,1.0,-0.20998,-0.275973714286,2.39
0.0794848752021,-0.277813982513,-0.131539770267,-2.43211247283,-0.0310982634663,2.14877436204,-0.204066446151,-0.608479577839,-0.600216256108,-0.0009971709481,-0.595112335158,-0.0978205764044,-0.0169952795375,-0.562959727858,0.573834982463,0.818947689674,0.00434066595028,0.0,0.818928378427,-0.573759353355,-0.01171590142,0.0,-0.00710434949233,0.010277886495,-0.999921943587,0.0,0.444763115371,-0.0239248532354,0.30482236532,1.0,-0.20998,-0.275973714286,2.407
0.0681479664818,-0.288579610958,-0.1317126006,-2.44263836018,-0.0328359872506,2.14831762641,-0.21433652063,-0.640530096807,-0.594974245425,-0.0108540042533,-0.577755995576,-0.0983096771282,-0.0275331694697,-0.56388463672,0.573739894613,0.819014641508,0.00427752581079,0.0,0.818993557352,-0.573663125677,-0.0118708952802,0.0,-0.00726871816087,0.0103142708691,-0.999920387607,0.0,0.440940476636,-0.0288435333167,0.304757440555,1.0,-0.20998,-0.275973714286,2.425
0.0576838129209,-0.298114721526,-0.131921661399,-2.45151962151,-0.0343427553106,2.14796736848,-0.22362300889,-0.64456164301,-0.590941733282,-0.00384777983455,-0.550698946593,-0.0958612629365,-0.0236512346454,-0.5752090978,0.573906731812,0.818896443224,0.00451944227086,0.0,0.818879735517,-0.573830955125,-0.0116086434236,0.0,-0.00691301403222,0.0103633578262,-0.999922402515,0.0,0.437662657832,-0.0333477890235,0.304872093786,1.0,-0.20998,-0.275973714286,2.441
0.0467413763435,-0.308060717585,-0.132069830756,-2.46100036618,-0.0359508599099,2.14736043778,-0.233617618518,-0.652985552487,-0.582661494978,-0.0137664503032,-0.559244876694,-0.0895461002704,-0.0383936040735,-0.591151353054,0.573763321798,0.81899708352,0.00449161961086,0.0,0.818979496668,-0.573686880801,-0.0116916096432,0.0,-0.00699874570268,0.0103869611354,-0.999921561222,0.0,0.434070928407,-0.0379460297863,0.304843004773,1.0,-0.20998,-0.275973714286,2.458
0.0353306341838,-0.317861504123,-0.1323114328,-2.4702694781,-0.0375672711453,2.1466560923,-0.243802312564,-0.684213634249,-0.574758620961,-0.0166895249065,-0.536711795228,-0.095288493742,-0.0397290810367,-0.584609214701,0.573913287518,0.818892216176,0.00445236995952,0.0,0.818873449399,-0.573835961483,-0.0118029691062,0.0,-0.00711056643266,0.0104200089664,-0.999920428463,0.0,0.430459492503,-0.0427140903596,0.304805515951,1.0,-0.20998,-0.275973714286,2.475
0.0246415735622,-0.327009736289,-0.132405038195,-2.47852746954,-0.0389980461476,2.14610683803,-0.253595867289,-0.657624154486,-0.560519885161,-0.00818026003519,-0.517509418693,-0.0886944992342,-0.0376385676951,-0.606750931651,0.573785602829,0.818980355747,0.00469103271859,0.0,0.818966312888,-0.573710021491,-0.0114776520189,0.0,-0.00670880821712,0.0104277100176,-0.999923124423,0.0,0.427209620373,-0.0470674164568,0.304932633608,1.0,-0.20998,-0.275973714286,2.491
0.0130608607995,-0.336489581444,-0.132625317837,-2.48741592323,-0.0404765194721,2.14523733373,-0.26415464767,-0.693834157655,-0.552942964767,-0.0138069684869,-0.518870230372,-0.0836609633937,-0.0597594218413,-0.614361262122,0.573808340646,0.818964587015,0.00466265184481,0.0,0.818948678244,-0.573730535188,-0.0117082149233,0.0,-0.00691364077,0.0105369468113,-0.999920584008,0.0,0.423587685284,-0.0517426573661,0.30485835366,1.0,-0.20998,-0.275973714286,2.508
0.000501156681922,-0.346410707389,-0.132795249004,-2.49650770033,-0.0421571796908,2.14426703004,-0.275516710729,-0.687185537167,-0.547561718793,-0.00537996813366,-0.500945449079,-0.0898653074741,-0.0578706807057,-0.647788195973,0.573827231442,0.818951718701,0.00459758556012,0.0,0.818934848973,-0.573749456604,-0.0117482375603,0.0,-0.00698351157915,0.010506783958,-0.999920415862,0.0,0.419783413364,-0.0567379548394,0.304840771104,1.0,-0.20998,-0.275973714286,2.526
-0.00994897230546,-0.354639768891,-0.132975870692,-2.50368939412,-0.0434197538919,2.14351491181,-0.285140392114,-0.705255422704,-0.541005051889,-0.0205573907453,-0.487483799121,-0.0827121273486,-0.0438188226664,-0.642245346186,0.573800817291,0.818968809386,0.00484336977283,0.0,0.818956373729,-0.573724232621,-0.0114764861294,0.0,-0.00662025303546,0.0105519288238,-0.999922411514,0.0,0.416719850658,-0.0608493269828,0.304968830411,1.0,-0.20998,-0.275973714286,2.541
-0.022174025369,-0.363637521762,-0.133207303355,-2.51188380191,-0.0449760286415,2.14246783553,-0.296250789989,-0.716610842621,-0.530669697159,-0.007065114371,-0.482852217005,-0.0898799676864,-0.0606744354708,-0.655877912884,0.573872820787,0.818918994865,0.0047341643379,0.0,0.818904514835,-0.573795552852,-0.0116105990935,0.0,-0.00679182845958,0.0105400387315,-0.999921386235,0.0,0.413105008012,-0.0656098031175,0.304909382968,1.0,-0.20998,-0.275973714286,2.558
-0.0350074306032,-0.373026978957,-0.133336379029,-2.52034026092,-0.046435551494,2.14130285652,-0.308184069094,-0.717272573953,-0.50881442307,-0.0102141211422,-0.463948596927,-0.0726186382802,-0.06258817529,-0.666707903343,0.573715251955,0.819029454969,0.00472318419727,0.0,0.819013735804,-0.57363635388,-0.0117720419994,0.0,-0.00693239245108,0.0106223572893,-0.999919550494,0.0,0.409301597054,-0.0704624712433,0.304858974815,1.0,-0.20998,-0.275973714286,2.576
-0.0460918380462,-0.380751705649,-0.133568386938,-2.52697858322,-0.0477143638063,2.14036997278,-0.31822574976,-0.744014659938,-0.515219935286,-0.00900674451899,-0.428779404802,-0.0901235862058,-0.0585927356171,-0.671519450934,0.573899532698,0.818899613849,0.00484723717008,0.0,0.818886488555,-0.573821745408,-0.0115875044554,0.0,-0.00670768197433,0.0106196048778,-0.999921112386,0.0,0.406198723689,-0.0746841573518,0.304940259072,1.0,-0.20998,-0.275973714286,2.591
-0.0586054325967,-0.389261026671,-0.133704296207,-2.53443234568,-0.0490987127286,2.13926560773,-0.329877336373,-0.74196022205,-0.494422792994,-0.0049637675508,-0.444353873495,-0.0854639795965,-0.0685003223677,-0.697566946912,0.573742560509,0.819009506108,0.00486313343746,0.0,0.818996596529,-0.573664767109,-0.0115782879585,0.0,-0.00669304845354,0.0106260508978,-0.999921141963,0.0,0.402442685022,-0.0795907222958,0.304933896728,1.0,-0.20998,-0.275973714286,2.609
-0.0714372517824,-0.397641224767,-0.133945708283,-2.54176418559,-0.050502785043,2.13797502693,-0.341721978624,-0.762802848778,-0.484429660492,-0.0105377852629,-0.421816948772,-0.0768324607132,-0.0713569875312,-0.704793649056,0.573847852787,0.818935985765,0.00482078535261,0.0,0.818921721158,-0.57376890395,-0.0117135125554,0.0,-0.00682673165915,0.010669825294,-0.999919772063,0.0,0.398814406499,-0.0843357618909,0.304900692561,1.0,-0.20998,-0.275973714286,2.626
-0.0842031428131,-0.405811814613,-0.134076465905,-2.5488130797,-0.0517958202794,2.1367203442,-0.353704333027,-0.754439843919,-0.478993367656,-0.0117706209934,-0.407163601153,-0.0668388631738,-0.0646192420404,-0.710726755955,0.573679525286,0.819053769235,0.00484481898399,0.0,0.819039346884,-0.573599792189,-0.0117717270263,0.0,-0.0068628223595,0.0107215025708,-0.999918972243,0.0,0.39546169165,-0.0886501706461,0.304890513741,1.0,-0.20998,-0.275973714286,2.642
-0.097415551638,-0.413797395927,-0.13431073235,-2.55544866499,-0.0530150868204,2.13556061254,-0.365888552781,-0.787423160098,-0.46906450563,-0.0146322355665,-0.386308021137,-0.0652977602848,-0.0713180165105,-0.727490504006,0.573856229574,0.818928632554,0.00506650404481,0.0,0.818917983984,-0.573777203563,-0.0115673281722,0.0,-0.00656589813358,0.0107872422972,-0.999920259013,0.0,0.391953515987,-0.0934139308749,0.30497771517,1.0,-0.20998,-0.275973714286,2.659
-0.110554696652,-0.421590498571,-0.134447092307,-2.56203347255,-0.0543137111907,2.13423001736,-0.378267264992,-0.774254129532,-0.448568520608,-0.0116928296056,-0.384164630335,-0.0671902486054,-0.0829761052707,-0.734323783691,0.573702548796,0.81903641924,0.00504741165124,0.0,0.819025405445,-0.573623413737,-0.0115892773405,0.0,-0.00659685372248,0.0107829639285,-0.999920101413,0.0,0.388382367622,-0.0980435861032,0.304978906012,1.0,-0.20998,-0.275973714286,2.676
-0.123202575516,-0.428672817686,-0.134696362301,-2.56809961425,-0.0555104910077,2.13289629797,-0.390010526985,-0.803886482038,-0.43710371711,-0.0178591501602,-0.367220154096,-0.0632381707251,-0.068203678446,-0.738264896462,0.573816123484,0.818957199099,0.00499092916829,0.0,0.818944057388,-0.573734899397,-0.0118170632549,0.0,-0.00681432997754,0.01086832246,-0.999917718852,0.0,0.384956094256,-0.10248451902,0.304912856771,1.0,-0.20998,-0.275973714286,2.692
-0.137422612961,-0.436386536002,-0.134831718462,-2.57457031498,-0.0567691563353,2.13154678558,-0.403458437397,-0.788246104631,-0.411413645926,-0.00825971286369,-0.347778746267,-0.0735129885357,-0.0747677799193,-0.753952630108,0.573684845661,0.819049032521,0.00501269243129,0.0,0.819036035871,-0.573603349724,-0.0118286107168,0.0,-0.0068130461662,0.01089168015,-0.999917473447,0.0,0.381204221662,-0.107377373303,0.304896790109,1.0,-0.20998,-0.275973714286,2.71
-0.151261082619,-0.443523718831,-0.135071019839,-2.5802241178,-0.0579618644225,2.13025424349,-0.416342867677,-0.814937394524,-0.414820110385,-0.0102356947717,-0.331980747415,-0.0709787627905,-0.079721508303,-0.755923358065,0.573841655954,0.818938303771,0.00515319418109,0.0,0.818928530973,-0.573761961333,-0.0115766915211,0.0,-0.0065240149246,0.0108634947294,-0.999919707632,0.0,0.377693755813,-0.112162878406,0.305009972058,1.0,-0.20998,-0.275973714286,2.727
-0.164178058773,-0.450011462278,-0.135200515381,-2.58554492477,-0.0589686216497,2.12899997176,-0.428616880129,-0.810179792978,-0.402780861015,-0.0138636278886,-0.340399976663,-0.0623577186396,-0.0801829809604,-0.769774580119,0.57375829799,0.818996269975,0.0052222749522,0.0,0.818987123962,-0.573677957264,-0.0115947847986,0.0,-0.00650030662541,0.0109297903676,-0.999919139579,0.0,0.374350881368,-0.116506427072,0.305012214234,1.0,-0.20998,-0.275973714286,2.743
-0.178238314892,-0.456672973269,-0.135442751399,-2.59108950824,-0.0601090319239,2.12754046015,-0.441881263088,-0.824487493612,-0.396163101535,-0.00636377785111,-0.315146760279,-0.0633167409661,-0.0832732368636,-0.788611973182,0.573810179178,0.818960210054,0.00517682540081,0.0,0.818948970601,-0.573727481984,-0.0118366747883,0.0,-0.00672380812325,0.0110317727099,-0.999916541715,0.0,0.370697183488,-0.121219286443,0.30494663136,1.0,-0.20998,-0.275973714286,2.76
-0.192219914534,-0.46303112297,-0.135569185878,-2.59622098036,-0.061180960666,2.12628910105,-0.45529993068,-0.82767809192,-0.365767991796,-0.00284129357826,-0.303542679109,-0.0631874761507,-0.071159733347,-0.796508979892,0.573633082844,0.81908404146,0.00521211989355,0.0,0.819073659517,-0.573550953855,-0.0117639499743,0.0,-0.00664637531527,0.0110175131265,-0.999917216623,0.0,0.36718053127,-0.125842785008,0.304958705582,1.0,-0.20998,-0.275973714286,2.777
-0.205798250875,-0.468814234325,-0.135779314667,-2.60087817752,-0.0621926352951,2.12505825981,-0.468036034456,-0.846352520313,-0.360338580449,0.00130284157049,-0.281335497059,-0.0663338981724,-0.0783306422562,-0.794407164474,0.573793794972,0.818971339699,0.00523187396226,0.0,0.818961083572,-0.57371135301,-0.011780234465,0.0,-0.00664621687236,0.0110443392463,-0.999916921735,0.0,0.363795361881,-0.130326325492,0.30495318037,1.0,-0.20998,-0.275973714286,2.793
-0.220907902615,-0.475107488821,-0.135938507785,-2.60571498882,-0.0631900670965,2.12369514187,-0.482541830491,-0.847289929879,-0.343986859473,-0.00844927633576,-0.264826458804,-0.0592148686778,-0.07690204789,-0.814649370391,0.573700891177,0.819035583429,0.00536166411014,0.0,0.819027838058,-0.573619435337,-0.0116142494981,0.0,-0.00643705280762,0.0110546702886,-0.99991817596,0.0,0.360300739515,-0.134961461069,0.305038347316,1.0,-0.20998,-0.275973714286,2.81
-0.235471461312,-0.480739803906,-0.13612596823,-2.61017467932,-0.0642218113423,2.12241811116,-0.496436709012,-0.843332993526,-0.318567133512,0.000491774551243,-0.262436181118,-0.0588616844326,-0.07880244967,-0.823392951745,0.573712779686,0.819027289793,0.00535648209798,0.0,0.819019550268,-0.573631463426,-0.0116046261558,0.0,-0.00643198268037,0.0110449985384,-0.999918315467,0.0,0.356509442469,-0.139953353085,0.305042038562,1.0,-0.20998,-0.275973714286,2.828
-0.249228523468,-0.485765257515,-0.136301748532,-2.61422335538,-0.065046999792,2.12121285581,-0.509632250672,-0.873437704654,-0.306487256834,-0.0166879530752,-0.249744679022,-0.0427357154102,-0.0671598729582,-0.830990791051,0.573724614246,0.819018710576,0.00540052189266,0.0,0.81901050852,-0.573641379473,-0.0117516633286,0.0,-0.00652699498305,0.0111655176624,-0.999916361278,0.0,0.353124709348,-0.144336357983,0.304998249269,1.0,-0.209795428571,-0.275731134694,2.844
-0.263940202824,-0.490716154371,-0.136412803345,-2.61820929274,-0.0658914338806,2.12000812497,-0.523764781306,-0.864125895994,-0.28382674106,-0.00475196418275,-0.22173683278,-0.0485532121865,-0.0617244023609,-0.832234091762,0.573697221399,0.819037873938,0.00540426833273,0.0,0.819028815545,-0.573612437592,-0.0118877099189,0.0,-0.0066366569024,0.011246414169,-0.999914732842,0.0,0.349571872748,-0.148978682779,0.304948755135,1.0,-0.206288571429,-0.271122122449,2.861
-0.278681530198,-0.495368279102,-0.13653375467,-2.62184252411,-0.0666368760125,2.11891889681,-0.537821430252,-0.875330617011,-0.266128144032,-0.00900227539225,-0.206941194081,-0.0482261058492,-0.0700256751842,-0.816581333769,0.57382320357,0.81894896782,0.00550145916351,0.0,0.818941106275,-0.573737925626,-0.0118745127478,0.0,-0.00656835065085,0.0113194599339,-0.999914359631,0.0,0.346082657667,-0.153611752721,0.304949653749,1.0,-0.202781714286,-0.266513110204,2.878
-0.292323741444,-0.499506285931,-0.136517803835,-2.62502285783,-0.0673040819457,2.11784694109,-0.550932909999,-0.840007164285,-0.248240332511,-0.00331519447341,-0.192280049491,-0.0329246584611,-0.0642665893569,-0.817049933224,0.573781731106,0.818977890915,0.00552142577406,0.0,0.818970155102,-0.573696156433,-0.0118891567174,0.0,-0.00656946223106,0.0113438822501,-0.999914075559,0.0,0.342857803267,-0.157820606227,0.304962481002,1.0,-0.199481142857,-0.262175216327,2.894
-0.307729379752,-0.503787004681,-0.136555480144,-2.62827738635,-0.0679861769618,2.11677508266,-0.565618438485,-0.853894967615,-0.229563830686,-0.00667722172138,-0.173731354625,-0.0442707734991,-0.0557152897637,-0.80745915072,0.573910427414,0.818887163056,0.00560199868256,0.0,0.818880712293,-0.573824946311,-0.0118345649064,0.0,-0.00647673138612,0.0113795679671,-0.999914275017,0.0,0.339074112588,-0.162835411046,0.304987673012,1.0,-0.195561714286,-0.257023967347,2.913
-0.321926415713,-0.507472200332,-0.136464455539,-2.63103958128,-0.0685209526783,2.1159092228,-0.579408561604,-0.834251937251,-0.214544091613,0.00454257249431,-0.165034002345,-0.035821576488,-0.0501574486444,-0.809137523927,0.573804435943,0.818960854182,0.00568643223011,0.0,0.818956318488,-0.573720134384,-0.0116834375007,0.0,-0.00630597870175,0.0113611666071,-0.999915575699,0.0,0.336019192581,-0.16689392296,0.305032036881,1.0,-0.192261142857,-0.252686073469,2.929
-0.335349365421,-0.510670128937,-0.136462342062,-2.63345814976,-0.0690390934695,2.11506080267,-0.592197281622,-0.831496362186,-0.192484806437,0.00538736603056,-0.145354504106,-0.036093977327,-0.0507052333531,-0.799182216941,0.573962534916,0.818849721892,0.00573483835613,0.0,0.818845885742,-0.573878168521,-0.0116623325248,0.0,-0.0062587197117,0.0113899100233,-0.999915545622,0.0,0.332926563338,-0.170977355432,0.305046585124,1.0,-0.188960571429,-0.248348179592,2.945
-0.348349199925,-0.513528682157,-0.136314396126,-2.63570188053,-0.0694400719297,2.11422588174,-0.604896086063,-0.811321295332,-0.17692969175,0.0121375951521,-0.135252056025,-0.027828672901,-0.042441797491,-0.789318495677,0.573804255477,0.818960539785,0.00574957149913,0.0,0.818956091049,-0.573718411019,-0.0117835772874,0.0,-0.0063517720827,0.0114703342319,-0.999914039517,0.0,0.329932634129,-0.174843998185,0.305017010676,1.0,-0.18566,-0.244010285714,2.961
-0.362267463145,-0.516244292377,-0.136260461537,-2.63787314222,-0.0699075469551,2.113451719,-0.618239940336,-0.801076046782,-0.156861825721,0.00998979111864,-0.127396083096,-0.0299815114453,-0.0496103115906,-0.783069684638,0.573899041951,0.818894126937,0.0057485144138,0.0,0.81888889014,-0.573811791205,-0.0119063336118,0.0,-0.00645158552851,0.0115406502345,-0.999912591398,0.0,0.326559830901,-0.179251789507,0.304969845315,1.0,-0.181946857143,-0.239130155102,2.979
-0.374933018488,-0.518511058078,-0.136098034774,-2.63965993482,-0.0702305674397,2.11283816762,-0.630607071745,-0.786446866087,-0.131613489223,0.0119443842511,-0.109644221826,-0.0224227010772,-0.0369907415343,-0.770123597641,0.573801323621,0.818962435203,0.00577214328409,0.0,0.818957183465,-0.573713423972,-0.011949297292,0.0,-0.00647459417805,0.0115838838346,-0.999911942756,0.0,0.323882550686,-0.182760056654,0.304942765448,1.0,-0.178852571429,-0.235063379592,2.994
-0.389221699225,-0.520815472561,-0.13600123314,-2.64137924284,-0.0706036858411,2.11216517882,-0.644350249952,-0.77462562106,-0.12435801509,0.0119078995775,-0.0930672961386,-0.0197744885451,-0.0361215352368,-0.769708248196,0.57392068974,0.818878521082,0.00581003449261,0.0,0.818873801919,-0.573832688928,-0.0119368567626,0.0,-0.00644097190517,0.0116087176046,-0.999911871895,0.0,0.320673936425,-0.187015158829,0.304953759662,1.0,-0.175139428571,-0.23018324898,3.012
-0.402256036271,-0.522748662194,-0.135816750968,-2.64281619172,-0.0708633485825,2.11158363714,-0.657188846302,-0.769876591642,-0.111336525843,0.0114440561372,-0.0820960619572,-0.0223139510242,-0.0377103428176,-0.756115196454,0.57375624304,0.818993464842,0.00585021532261,0.0,0.818989262676,-0.573668107331,-0.0119263218757,0.0,-0.00641162116775,0.0116342891624,-0.999911763322,0.0,0.317758082048,-0.190842010878,0.304965456178,1.0,-0.171632571429,-0.225574236735,3.029
-0.414622774072,-0.524384110595,-0.135737741339,-2.64398510662,-0.0711062117046,2.11109026306,-0.669066290463,-0.759339891045,-0.094183192299,0.00875289227726,-0.0662943197626,-0.00846925236744,-0.0287487928134,-0.740003019278,0.573929312163,0.818871705859,0.00591784452496,0.0,0.818868655391,-0.57384137657,-0.01187209564,0.0,-0.00632594095426,0.0116599055629,-0.999912010666,0.0,0.314994520111,-0.194499520614,0.304993614043,1.0,-0.168332,-0.221236342857,3.045
-0.427281401859,-0.525815482991,-0.135556252646,-2.64504136817,-0.0712972056774,2.11066396614,-0.681491867683,-0.751805029712,-0.0808563155017,0.00689272887049,-0.0593045963368,-0.0141154197852,-0.0255567345336,-0.726940385136,0.573849045249,0.818927641071,0.00596144763216,0.0,0.818925345039,-0.573761306503,-0.011831707978,0.0,-0.00626898541962,0.0116718196047,-0.999912230373,0.0,0.312190132608,-0.198204231292,0.305005882878,1.0,-0.164825142857,-0.216627330612,3.062
-0.440660061131,-0.527112409407,-0.1354392248,-2.64600866927,-0.071508277938,2.11023596166,-0.694420056536,-0.729008107641,-0.0655172841569,0.0196031861682,-0.0464578193181,-0.011475134599,-0.0285565141044,-0.710807110424,0.573989156636,0.818829110234,0.00600692917568,0.0,0.818827319174,-0.573901054618,-0.0118384029406,0.0,-0.00624636621945,0.0117139781636,-0.99991187893,0.0,0.309205472679,-0.202127521452,0.305006990274,1.0,-0.161112,-0.2117472,3.08
-0.45135366741,-0.527973690353,-0.13526227996,-2.6466928674,-0.071607290707,2.10997516713,-0.705010169848,-0.715248888035,-0.0512469402132,0.0115182689623,-0.0491710303331,-0.00543523765003,-0.0222573833527,-0.709447586918,0.573867388608,0.818914159937,0.00604697010935,0.0,0.81891278776,-0.573778966022,-0.0118444541578,0.0,-0.00623008691811,0.0117493133375,-0.999911565916,0.0,0.306838148624,-0.205227823466,0.304993025202,1.0,-0.158017714286,-0.20768042449,3.095
-0.464283582761,-0.528791310091,-0.135114742297,-2.64734080174,-0.0717408408035,2.10965216016,-0.717481265543,-0.711758496242,-0.0392356785126,0.0126309290972,-0.0341410055204,-0.00322332916987,-0.0169281432278,-0.684511417531,0.574044771493,0.818789541442,0.0060855605929,0.0,0.818788242591,-0.573955351388,-0.0119086233154,0.0,-0.00625793663979,0.0118190959671,-0.999910569601,0.0,0.303963160756,-0.208992791119,0.304973265747,1.0,-0.154304571429,-0.202800293878,3.113
-0.475939385913,-0.529334647936,-0.134875035877,-2.64777770818,-0.0718099899814,2.10943554868,-0.729055222375,-0.681042560387,-0.0234477693785,0.00629367634883,-0.0246423455877,-0.00162325645368,-0.00962734823214,-0.678198535506,0.57388814554,0.818899240729,0.00609728164029,0.0,0.818897921862,-0.573798384981,-0.0119312138527,0.0,-0.00627197236189,0.0118404614218,-0.999910228889,0.0,0.301402284334,-0.212358046729,0.304960624987,1.0,-0.150797714286,-0.198191281633,3.13
-0.486888157095,-0.529705879475,-0.134754392465,-2.64807748084,-0.0718574238156,2.10923940072,-0.739695132436,-0.684625284947,-0.0263632147287,0.00475711924892,-0.0156950649742,-0.00193212147281,-0.0106697101167,-0.63493021158,0.574018576396,0.81880736588,0.00615779459626,0.0,0.818806457061,-0.573927823833,-0.0119827295201,0.0,-0.00627753840421,0.0119205808252,-0.999909242014,0.0,0.298972464355,-0.215537737436,0.304946142144,1.0,-0.147497142857,-0.193853387755,3.146
-0.498148838728,-0.529935536383,-0.134488036323,-2.64825401891,-0.0718928391071,2.10909869672,-0.750830531957,-0.646665712024,-0.00793736294836,0.0137332510752,-0.00755668275046,-0.000510978053957,-0.00606048130413,-0.640847721168,0.573908106703,0.818884868029,0.00614856691608,0.0,0.818883818932,-0.573817377982,-0.0119856045833,0.0,-0.00628679672162,0.0119138269694,-0.99990926434,0.0,0.296506892712,-0.218777325953,0.304944452358,1.0,-0.143990285714,-0.18924437551,3.163
-0.509185822733,-0.530067611453,-0.134303602729,-2.64837006703,-0.0719094594271,2.10898476376,-0.761692839693,-0.649577402926,-0.00741217401991,0.0114523855996,-0.00896737779247,2.18747210378e-05,-0.00332204581043,-0.61784157741,0.573907467549,0.818885050151,0.00618386867212,0.0,0.818884291017,-0.573816267655,-0.0120064899731,0.0,-0.00628365168244,0.0119547173333,-0.999908796068,0.0,0.294060169735,-0.221956091589,0.304934846027,1.0,-0.140483428571,-0.184635363265,3.18
-0.519481200922,-0.53006262528,-0.134122533692,-2.64836357351,-0.0719178570001,2.10890617501,-0.771704879143,-0.628683721531,0.0049740378392,0.0185740051416,0.00212447848071,5.35286456312e-05,-0.004118766997,-0.610559409022,0.574008618026,0.818814000042,0.00620376245542,0.0,0.818813452425,-0.573917221097,-0.0120125083656,0.0,-0.00627568474297,0.0119752380405,-0.999908600551,0.0,0.291780566891,-0.22492134901,0.304933869156,1.0,-0.137182857143,-0.180297469388,3.196
-0.530504806363,-0.529924400809,-0.133890275679,-2.64827818915,-0.0719144346526,2.10890415673,-0.782699811985,-0.6147843092,0.0108135255531,0.0084151337774,0.00809284922298,-0.000904384738992,-0.00179209202742,-0.609868025412,0.573874867219,0.818907720222,0.00620720844231,0.0,0.818907347695,-0.573783732913,-0.0119887712854,0.0,-0.00625622258223,0.0119634134644,-0.999908864056,0.0,0.289345798405,-0.228086061648,0.304927984917,1.0,-0.133469714286,-0.175417338776,3.214
-0.540300214229,-0.529742068316,-0.133744699495,-2.64812831226,-0.0719144907086,2.10889949591,-0.792216113615,-0.605327779623,0.0134839955484,0.00854116604191,0.0118923550987,-0.00106187555675,-0.000786647137804,-0.593094202284,0.574009275856,0.818813354888,0.00622800048945,0.0,0.818813418855,-0.573918343205,-0.0119610759274,0.0,-0.00621964473323,0.0119655692792,-0.999909066451,0.0,0.287158339525,-0.23090676635,0.304932873622,1.0,-0.130169142857,-0.171079444898,3.23
-0.549623250786,-0.529396120808,-0.133478953653,-2.64785304575,-0.0718908656803,2.108920678,-0.801518153413,-0.573084793698,0.0262994215039,0.0167825375965,0.0223289990623,0.00212514373318,0.0021199235644,-0.57585904707,0.573864798483,0.818914916138,0.00618870665804,0.0,0.818914601256,-0.573774314818,-0.0119439694332,0.0,-0.00623029375691,0.0119224754016,-0.999909514916,0.0,0.285110870681,-0.233571466477,0.304940293512,1.0,-0.126868571429,-0.16674155102,3.246
-0.559931575703,-0.528904126441,-0.133249160751,-2.64752283759,-0.0718667006143,2.10894906848,-0.811711101972,-0.571771376549,0.0273024152435,0.0125309684432,0.0199217980874,-0.0013668253277,-0.00029906487081,-0.567039610093,0.57382662878,0.818941820237,0.00616782546659,0.0,0.818940850752,-0.573735511537,-0.0120080253323,0.0,-0.0062952948279,0.0119418388471,-0.999908876722,0.0,0.282810185246,-0.236516833402,0.304919003489,1.0,-0.123155428571,-0.161861420408,3.264
-0.569537185779,-0.528331612951,-0.133070385228,-2.64707371847,-0.0718179305476,2.10905407373,-0.821055010439,-0.551723081964,0.0377016017716,0.0138575323649,0.0265235214259,-0.000561707944538,0.00520572237583,-0.548569230277,0.573960998722,0.818847630065,0.00617070375223,0.0,0.818846980277,-0.57387037743,-0.0119649363083,0.0,-0.00625639610366,0.0119204984334,-0.999909375506,0.0,0.280679405992,-0.239288583325,0.304927536754,1.0,-0.119648571429,-0.157252408163,3.281
-0.578031684696,-0.527615428311,-0.132806166028,-2.646572107,-0.0717056939033,2.1091754064,-0.829665876441,-0.52893630208,0.0466485546173,0.0117484272244,0.0276545590202,0.00915546709177,0.00927978472732,-0.526402995272,0.573755698656,0.818991529511,0.00616601574995,0.0,0.818990588506,-0.573664702868,-0.0119988134164,0.0,-0.00628982205768,0.0119345262192,-0.999908998471,0.0,0.278824887132,-0.24171775826,0.304910897587,1.0,-0.116348,-0.152914514286,3.297
-0.587064274163,-0.52684096236,-0.132592902033,-2.64599337051,-0.0716182992164,2.1092933121,-0.83851622452,-0.520643666309,0.0421557933612,0.0176715414894,0.0377096604732,0.00402452077365,0.0150971613483,-0.522542931539,0.573824331204,0.818943475397,0.00616181181703,0.0,0.818942365278,-0.573733121934,-0.0120189038291,0.0,-0.00630768878423,0.0119431381378,-0.999908783097,0.0,0.276822340411,-0.244313287182,0.304906226942,1.0,-0.112841142857,-0.148305502041,3.314
-0.59632445382,-0.525886173688,-0.132370545044,-2.64527929646,-0.0714686993167,2.10945615184,-0.847601481721,-0.504992498076,0.0573502522796,0.00932648194521,0.0401267726656,0.00700807228534,0.0159819708841,-0.498261026559,0.573912824427,0.818881242584,0.00619091288617,0.0,0.818880347943,-0.573821161204,-0.0120414952835,0.0,-0.00630819925148,0.0119806161308,-0.999908331528,0.0,0.274890504171,-0.246838405883,0.304898143717,1.0,-0.109334285714,-0.143696489796,3.331
-0.603527539029,-0.525018352598,-0.132096497013,-2.64466276456,-0.0713076080395,2.10958251059,-0.85493799638,-0.483151752612,0.0547636795878,0.0152116739882,0.0383564301641,0.0115113121566,0.012543462883,-0.48607073948,0.573705741614,0.819026286117,0.00619770843852,0.0,0.819025048639,-0.573613275608,-0.0121048192776,0.0,-0.00635919977266,0.0120209142159,-0.999907524824,0.0,0.273109539555,-0.249171516088,0.30488353135,1.0,-0.105827428571,-0.139087477551,3.348
-0.612196786249,-0.524025471926,-0.131853310089,-2.64388378006,-0.0711447202297,2.10975267904,-0.863452757712,-0.473276570406,0.0539597614301,0.0122532983679,0.0479280384472,0.00891740348522,0.00544624761147,-0.468509134999,0.573782303213,0.818972518967,0.00621519086908,0.0,0.818971541635,-0.573689804161,-0.0120983260683,0.0,-0.00634272706005,0.0120321014993,-0.999907494895,0.0,0.271299000344,-0.25152250899,0.304892028683,1.0,-0.102320571429,-0.134478465306,3.365
-0.620147209672,-0.522980743377,-0.131660038593,-2.6430427108,-0.0709720466148,2.10994514479,-0.871250998617,-0.461882501758,0.0634568623372,0.00648991207401,0.050009385989,0.0083837951112,0.0173434356714,-0.455113674047,0.573890280537,0.818896601034,0.00624896962884,0.0,0.818896295565,-0.573798050416,-0.0120582481813,0.0,-0.00628893294142,0.0120376012728,-0.999907768486,0.0,0.269551027158,-0.253831678312,0.3049124401,1.0,-0.0988137142858,-0.129869453061,3.382
-0.627141886821,-0.521929342289,-0.131379426805,-2.64224058785,-0.0707877129252,2.11013194767,-0.878319765134,-0.430422871169,0.0616969679072,0.0223146472311,0.0505754052607,0.0115095446992,0.0108650112927,-0.43751536668,0.573753992152,0.818992118904,0.00624600387983,0.0,0.818991665792,-0.573661596125,-0.0120735825362,0.0,-0.00630519778355,0.0120429231654,-0.999907601973,0.0,0.268037877302,-0.255841525982,0.304914056984,1.0,-0.0955131428572,-0.125531559184,3.398
-0.634481933155,-0.520869994246,-0.131150542671,-2.64142022791,-0.0706076318447,2.11033276538,-0.885588639281,-0.423564985696,0.063269000588,0.0107846366088,0.0535351151513,0.00883060077984,0.00783642780698,-0.424280788109,0.573772149435,0.818979254686,0.00626480865098,0.0,0.818979090478,-0.573679750372,-0.0120640073986,0.0,-0.00628629895555,0.0120529708039,-0.999907599901,0.0,0.266415704613,-0.257952750065,0.304920589638,1.0,-0.0920062857143,-0.120922546939,3.415
-0.641582089506,-0.519751823743,-0.130921892786,-2.64052884596,-0.0704042629396,2.1105549649,-0.892561374623,-0.412476625254,0.0671532687874,0.0100518724442,0.0537555855816,0.00765352038076,0.014917187586,-0.40822958593,0.573849952929,0.818924549753,0.00628969294394,0.0,0.818924957478,-0.573757904777,-0.0120219643203,0.0,-0.00623644074377,0.0120498221824,-0.99990795006,0.0,0.264859949454,-0.260008191673,0.304939228079,1.0,-0.0884994285715,-0.116313534694,3.432
-0.647988212326,-0.518649121967,-0.130730832485,-2.63970130617,-0.0702265621447,2.11077262312,-0.898866181487,-0.388713835998,0.0677071688219,0.0103647723707,0.0550756403225,0.00893868224773,0.0172562327963,-0.388021359492,0.57391867301,0.818876211406,0.00631300750444,0.0,0.818876807506,-0.573826284784,-0.0120381028697,0.0,-0.00623526647661,0.012078700008,-0.999907608961,0.0,0.26344500158,-0.261865541977,0.304932827895,1.0,-0.0851988571429,-0.111975640816,3.448
-0.655113469722,-0.517362944852,-0.130382929681,-2.63875897019,-0.0699948728954,2.11102156008,-0.906110405146,-0.375233744766,0.0690005447306,0.0215630945786,0.0497056527044,0.0150607139016,0.0145896322672,-0.371575942417,0.573724908713,0.819012057862,0.00630278509632,0.0,0.819012211426,-0.57363201073,-0.0120855575515,0.0,-0.00628285903715,0.0120960762498,-0.999907100996,0.0,0.26189392945,-0.263895397451,0.304917151588,1.0,-0.0812794285715,-0.106824391837,3.467
-0.661047011422,-0.516311006833,-0.130149787309,-2.63795255863,-0.069807134374,2.11123615292,-0.911909694129,-0.36921082137,0.0655174545512,0.0192388576303,0.0492386359593,0.00121426451131,0.00972975885222,-0.350976178102,0.573793235925,0.818964128195,0.00631078738397,0.0,0.818964430191,-0.573700372274,-0.0120785693057,0.0,-0.00627153465622,0.0120991447072,-0.999907134963,0.0,0.260584034022,-0.265598600023,0.304919818359,1.0,-0.0779788571429,-0.102486497959,3.483
-0.666656557175,-0.515218821281,-0.129912756567,-2.63710665077,-0.069599418974,2.11147120108,-0.917479576181,-0.346951802764,0.0707064742134,0.0140570946001,0.0540660807807,0.0157794240011,0.00813487968947,-0.336653000181,0.573795792873,0.818962234504,0.00632403653159,0.0,0.818962813511,-0.573703071269,-0.0120599752626,0.0,-0.00624866541432,0.0120993467684,-0.999907275695,0.0,0.259439039208,-0.267121405295,0.304924869855,1.0,-0.0748845714286,-0.0984197224491,3.498
-0.67241579182,-0.514051702123,-0.129744307857,-2.63623423985,-0.0693900711354,2.11169883102,-0.923158492966,-0.334781006476,0.0707918048934,0.0137440829101,0.052680381499,0.0107974474946,0.0125067977731,-0.335664587393,0.57387431147,0.818906817177,0.00637544646568,0.0,0.818907907818,-0.573781034517,-0.0120793146596,0.0,-0.00623384287375,0.0121531458956,-0.999906715773,0.0,0.258081237787,-0.268896030458,0.304915981915,1.0,-0.0711714285715,-0.0935395918368,3.516
-0.677785580152,-0.512929937131,-0.129457701345,-2.63540762559,-0.069174093193,2.11191544335,-0.928501606576,-0.306308576082,0.0692406349428,0.0164763779099,0.045292254994,0.012688959251,0.0129688316097,-0.30303670227,0.573829166496,0.818938434837,0.00637765836085,0.0,0.818939280572,-0.57373535667,-0.0121219694685,0.0,-0.00626817929115,0.0121790890714,-0.999906185458,0.0,0.25691015702,-0.270426121733,0.30490238544,1.0,-0.0676645714286,-0.0889305795919,3.533
-0.682642816866,-0.511932394232,-0.129185401438,-2.63463262658,-0.068983962264,2.11211690697,-0.933371375596,-0.303101062819,0.0536014648835,0.0135617764495,0.0470597003056,0.00966100216291,0.0141336795668,-0.2972440961,0.573747735282,0.818995599978,0.00636320488191,0.0,0.818996321001,-0.573654133468,-0.012112317818,0.0,-0.00626977692851,0.0121610904438,-0.999906394507,0.0,0.255853035456,-0.271811965522,0.304909253677,1.0,-0.0643640000001,-0.0845926857144,3.549
-0.687609284852,-0.51084185418,-0.128957608689,-2.63380684708,-0.0687856902193,2.11235653826,-0.938157526215,-0.285427323072,0.0599691099761,0.0153828341647,0.0438240156591,0.0128152568849,0.0145681348453,-0.273545440129,0.573861989644,0.818915506189,0.0063684743812,0.0,0.818916343244,-0.573768430411,-0.0121061113814,0.0,-0.00625997330397,0.0121627190865,-0.999906436122,0.0,0.254764341972,-0.273247703578,0.304906597448,1.0,-0.0608571428572,-0.0799836734695,3.566
-0.69224333843,-0.509776491555,-0.128752880165,-2.63302782053,-0.0685806644287,2.11256655854,-0.942803803966,-0.268169592544,0.0662544437174,0.0124782146457,0.0440545921385,0.00989131188279,0.011328157295,-0.264347205228,0.57383537135,0.818933905649,0.00640091142551,0.0,0.818934865414,-0.573741084533,-0.0121491163813,0.0,-0.00627697831636,0.0122137573997,-0.999905707391,0.0,0.253740364761,-0.274582661607,0.304888589613,1.0,-0.0573502857143,-0.0753746612246,3.583
