nelsonifechukwu/NELSON_IML_WORK/CNN-GradCAM/train2dof/data_sample_2022-02-22-14-21-12/robot_state.csv
position_joint1,position_joint2,position_joint3,position_joint4,position_joint5,position_joint6,position_joint7,velocity_joint1,velocity_joint2,velocity_joint3,velocity_joint4,velocity_joint5,velocity_joint6,velocity_joint7,ee_T_00,ee_T_10,ee_T_20,ee_T_30,ee_T_01,ee_T_11,ee_T_21,ee_T_31,ee_T_02,ee_T_12,ee_T_22,ee_T_32,ee_T_03,ee_T_13,ee_T_23,ee_T_33,v_x,v_y,time
0.465089659377,0.547719213909,-0.124019412898,-1.35582947967,0.0794348170441,1.89411082923,0.159166010213,0.00145443417187,0.000952716473831,0.00118425391993,-0.000239628960132,8.56908744392e-05,0.00015179916836,0.0011294052467,0.573802338928,0.818979704544,0.00196628751088,0.0,0.818937538061,-0.573744453173,-0.0118050035682,0.0,-0.00854007620467,0.00838416673297,-0.999928383859,0.0,0.66168817291,0.260874547899,0.303261752693,1.0,0.0,0.0,0.0
0.465085027836,0.547715608839,-0.124021918548,-1.35583413109,0.079435114998,1.89410894576,0.159168354172,0.00144359605958,9.21330182465e-05,-0.000517569378779,0.00254213802426,0.000232390704894,-0.000329118735035,0.000443240041374,0.573810115837,0.818974262141,0.00196362267788,0.0,0.818932064461,-0.573752243212,-0.011806104695,0.0,-0.00854242743332,0.00838269726896,-0.999928376095,0.0,0.661688592872,0.260869448116,0.303262012568,1.0,-0.0002,-0.000262857142857,0.011
0.465084240454,0.547719288768,-0.124024049426,-1.35583293673,0.079431619366,1.89410931714,0.159162843605,0.0004515840663,0.00151655808592,-0.000465076505629,-0.000353488422967,-0.000132810470888,-0.000109066578445,-0.000870700769936,0.573806754496,0.818976627646,0.00195927691585,0.0,0.818934417398,-0.573748942798,-0.011803285185,0.0,-0.00854264610924,0.00837748535655,-0.999928417906,0.0,0.661689734121,0.260867245546,0.30326007057,1.0,-0.00054,-0.000709714285714,0.028
0.465079025482,0.547692352883,-0.124021869657,-1.35585108342,0.0794312668377,1.89411232071,0.159167496235,-0.001233252452,-0.0030923403518,0.000352860256313,-0.00136574139966,0.000131428752421,5.76217754977e-05,0.000427967816264,0.573814183304,0.818971395114,0.00197076788727,0.0,0.818929312216,-0.573756303071,-0.0117997109992,0.0,-0.00853304956937,0.00838492255641,-0.999928437509,0.0,0.661687766474,0.260863405268,0.303270703021,1.0,-0.00088,-0.00115657142857,0.045
0.465081804046,0.547618348491,-0.124020100616,-1.35594129182,0.0794318771892,1.89412819439,0.159165199165,0.000333285016061,-0.00519315994652,-7.78783280917e-05,-0.00402167360141,6.24141586958e-05,0.00185004279969,-0.000873091008552,0.573810835165,0.81897371711,0.00198066450053,0.0,0.81893168597,-0.573752840145,-0.0118033487259,0.0,-0.00853038473419,0.00839507994022,-0.999928375019,0.0,0.661670766492,0.26085684179,0.303285962305,1.0,-0.00122,-0.00160342857143,0.062
0.465080751034,0.54748741234,-0.124019121406,-1.35611799731,0.0794277911674,1.89415398451,0.159161870629,0.000201853798711,-0.00682432089516,0.000431853661684,-0.0121516671411,5.10739359674e-05,0.00406524791747,0.000360625421663,0.573819818904,0.818967462777,0.0019639871824,0.0,0.818925089122,-0.573761766345,-0.0118271208653,0.0,-0.00855933120582,0.00839515636426,-0.999928127017,0.0,0.661639409841,0.260839406743,0.303292359611,1.0,-0.00154,-0.002024,0.078
0.465059248412,0.547321202,-0.124020015849,-1.35634540559,0.0794213604691,1.8942427221,0.159157123836,-0.000594455968416,-0.00690423466841,0.00117752886599,-0.0109843441009,-0.000881319178119,0.00703714051405,0.000755163190366,0.573845194001,0.818949617004,0.00199123872848,0.0,0.818907542664,-0.573786974514,-0.0118191094574,0.0,-0.00853687267919,0.00841314155256,-0.999928167847,0.0,0.661615532562,0.260804839826,0.303309581312,1.0,-0.0019,-0.00249714285714,0.096
0.465042467418,0.547134534353,-0.124018028113,-1.35655967294,0.079418091077,1.89436711979,0.159146762394,0.000987401285058,-0.00745529658196,0.0017148306548,-0.0149636593515,-0.00450594289358,0.00859388430777,0.00173288321644,0.57386041421,0.818938734454,0.00207872897926,0.0,0.818897758599,-0.573801807583,-0.0117768195231,0.0,-0.00845187795521,0.00846067992577,-0.99992848877,0.0,0.661600249293,0.260779840277,0.303350550016,1.0,-0.00224,-0.002944,0.113
0.465019369545,0.546941596293,-0.124025123595,-1.35680894818,0.07941000182,1.89448764975,0.159122032074,0.000581164813737,-0.0120218057513,-0.00193098394875,-0.0193047308735,-0.000209194368871,0.00627263281163,-0.00142874828326,0.573875978624,0.818927682779,0.00213504995436,0.0,0.818887447749,-0.573817160845,-0.0117456690194,0.0,-0.00839388681799,0.00848908635225,-0.999928736499,0.0,0.661580320538,0.260740279887,0.303379245605,1.0,-0.00256,-0.00336457142857,0.129
0.464980376533,0.546716864935,-0.124020104511,-1.35716139068,0.0793961693628,1.89462708453,0.159085094972,-0.000896877924436,-0.0140643449331,0.000727208799637,-0.0236520183311,-0.00178865298467,0.00546916617366,-0.00431725328655,0.573890275799,0.818917625304,0.00214970043776,0.0,0.818877499262,-0.573831317679,-0.0117476360883,0.0,-0.0083869422882,0.00850235913011,-0.999928682001,0.0,0.661543000259,0.260685731603,0.303382574348,1.0,-0.0029,-0.00381142857143,0.146
0.464943054888,0.546450626602,-0.124022468569,-1.35753712546,0.0793724847459,1.89475737074,0.158969437937,-0.0027421807958,-0.0141580084559,0.000575660603407,-0.0254365100993,-0.00640653672355,0.0113534263466,-0.00622977487465,0.573842411564,0.818951117912,0.00216796268345,0.0,0.818911230525,-0.573783390871,-0.0117372816825,0.0,-0.0083684800945,0.00851088287559,-0.99992876417,0.0,0.661501394561,0.260623580093,0.303403628801,1.0,-0.00322,-0.004232,0.162
0.46490190125,0.546169755773,-0.124025797989,-1.35800255318,0.0793410402419,1.89492300921,0.1589492147,-0.0055228892334,-0.0161012193676,-0.000856250508942,-0.030085846144,-0.000306942127516,0.0138300012792,-0.00115518614863,0.57387955367,0.818925142934,0.00214826686201,0.0,0.818885037303,-0.573820641922,-0.0117436572708,0.0,-0.00838461776914,0.00849879201052,-0.99992873182,0.0,0.661448262458,0.260549019404,0.303395425936,1.0,-0.00356,-0.00467885714286,0.179
0.464850867934,0.545823725638,-0.124025795017,-1.35856519191,0.0792974192732,1.89511761947,0.158888868071,-0.000394687821856,-0.02285471687,0.000529349786768,-0.0323641782876,-0.00438423482079,0.00698793058276,-0.00213161966363,0.573891727753,0.818916674998,0.00212394167178,0.0,0.818876318504,-0.573832973864,-0.011749042536,0.0,-0.00840286086324,0.00848208716376,-0.999928720523,0.0,0.661382755021,0.260459166364,0.303389453308,1.0,-0.00392,-0.005152,0.197
0.464799422679,0.545503881976,-0.124020508328,-1.35912913763,0.0792678880062,1.89530908535,0.158800703523,-0.00422549477702,-0.0226374542718,0.0015383651679,-0.0394640552626,-0.000911879530433,0.0110836254514,-0.00125255326207,0.57388158052,0.818923892816,0.00208235836238,0.0,0.818882900035,-0.57382289293,-0.0117826346872,0.0,-0.00845433893829,0.00846720769167,-0.999928412711,0.0,0.661313674988,0.260373669352,0.303363874141,1.0,-0.00424,-0.00557257142857,0.213
0.464734350353,0.545106019185,-0.124025807785,-1.35981347681,0.0792343772132,1.89553384074,0.158724849188,-0.00452160503363,-0.0272477923697,-0.000737908987872,-0.0432136786243,-0.0060547480009,0.0116157870701,-0.00662343224648,0.573905638133,0.818907158913,0.00203236342124,0.0,0.818865430188,-0.573847059621,-0.0118197423472,0.0,-0.00851316975617,0.00844781156812,-0.999928077624,0.0,0.661231760937,0.26026138218,0.303339430118,1.0,-0.00458,-0.00601942857143,0.23
0.464680045353,0.54467471768,-0.124025777263,-1.36051903952,0.0792036848475,1.8957774787,0.158621699423,-0.0051034284716,-0.0242799473687,-0.000149851515826,-0.0455047818323,-0.00170518714384,0.0152230795797,-0.0015137813867,0.573896739804,0.818913443223,0.00201282190801,0.0,0.818871321085,-0.573838102933,-0.011846435236,0.0,-0.00854633570727,0.0084470353268,-0.999927801264,0.0,0.661145352625,0.260158968253,0.303329984576,1.0,-0.00492,-0.00646628571429,0.247
0.464613274014,0.544215402383,-0.124019510741,-1.3612743033,0.0791613074118,1.89604434966,0.158542992395,-0.00373453273803,-0.0261052069044,0.00266763076965,-0.0457290801855,-0.00480429123046,0.0158377943473,-0.0087592820317,0.573913365627,0.818901845757,0.00199064590634,0.0,0.818859351375,-0.573854734136,-0.0118681792034,0.0,-0.00857669740611,0.00844152821175,-0.99992758781,0.0,0.661055260951,0.26004608276,0.303318457683,1.0,-0.00526,-0.00691314285714,0.264
0.464544194161,0.543740410162,-0.124026907351,-1.36204960372,0.0791261536357,1.89631384881,0.158441929743,-0.00488708063977,-0.0275617098721,0.00061598030179,-0.0423455679512,-0.000193990601429,0.0208315437897,-0.00447394060433,0.57392610552,0.818892969871,0.00196880661046,0.0,0.81885009133,-0.573867463837,-0.0118915423585,0.0,-0.00860823211715,0.00843718650924,-0.999927353473,0.0,0.660964723159,0.259922937024,0.303309132141,1.0,-0.00558,-0.00733371428571,0.28
0.464464983601,0.543214239246,-0.12403040077,-1.36289011707,0.0790728502335,1.89660494053,0.15833934002,-0.00730245772733,-0.0299108684986,-0.000197063657184,-0.0505703500453,-0.00199635545326,0.0224152796073,-0.00909518902188,0.573941872458,0.818881971922,0.00194679244969,0.0,0.818838813546,-0.573883326414,-0.0119026045718,0.0,-0.00862976272556,0.00842567459513,-0.999927264956,0.0,0.660867466039,0.259786824031,0.303306634766,1.0,-0.00592,-0.00778057142857,0.297
0.464396771425,0.542646454713,-0.124032888409,-1.36379111533,0.0790164301016,1.89692675069,0.158216170272,-0.00461239204748,-0.0362940394751,0.000265179500767,-0.0572623073364,-0.000611538614689,0.0259156777661,-0.00541795577418,0.573933609617,0.818887790449,0.00193527969363,0.0,0.818844487264,-0.573875117341,-0.0119080760584,0.0,-0.00864093559548,0.00841930028186,-0.999927222159,0.0,0.66076045536,0.259653517486,0.303307349408,1.0,-0.00626,-0.00822742857143,0.314
0.464309888745,0.54205716664,-0.124033273222,-1.36471275293,0.0789662342754,1.89726993873,0.158091328013,-0.00612855310117,-0.0344124285468,0.000297561238074,-0.0530263659303,-0.00116402217637,0.0271598168857,-0.0139443711553,0.573940626554,0.818882844672,0.00194699610124,0.0,0.818839639661,-0.5738820317,-0.0119081952012,0.0,-0.00863423691878,0.00842903688595,-0.999927197995,0.0,0.660657395093,0.259509392105,0.303315172561,1.0,-0.0066,-0.00867428571429,0.331
0.46422141099,0.541422012177,-0.124033300855,-1.36568194412,0.078904768195,1.89762378303,0.157966205626,-0.00322865680081,-0.0323424884235,0.000330514959555,-0.0598361478282,-0.0102779648009,0.0257861802603,-0.00537629576036,0.573947958845,0.818877668662,0.00196244870661,0.0,0.818834676754,-0.573889310739,-0.0118986581758,0.0,-0.00861748304483,0.00843629405011,-0.99992728132,0.0,0.660547505036,0.259358289836,0.303333602358,1.0,-0.00694,-0.00912114285714,0.348
0.464124099154,0.540774088691,-0.124036435338,-1.36665776656,0.0788571735351,1.89798521553,0.157837149805,-0.0110750553579,-0.0395930249233,-0.000523791572736,-0.058974615729,-0.00174205855287,0.0199098864023,-0.0058427611955,0.573965519287,0.818865277351,0.00199677736215,0.0,0.818822637511,-0.573906634552,-0.0118915944313,0.0,-0.00859181541534,0.00846053457062,-0.999927297388,0.0,0.660439997561,0.259201700313,0.303358596052,1.0,-0.00726,-0.00954171428571,0.364
0.4640289396,0.540069409552,-0.124039513569,-1.36775915981,0.0787827633388,1.89838590878,0.157706200742,-0.00496451180225,-0.0392983472056,-0.0011609580975,-0.0651711472296,-0.00146222753541,0.022499874257,-0.010303534064,0.573979421636,0.818855537543,0.00199476152647,0.0,0.818812938911,-0.573920609874,-0.0118849288854,0.0,-0.00858737041278,0.00845520394462,-0.999927380661,0.0,0.660313542191,0.259030741637,0.303367204093,1.0,-0.0076,-0.00998857142857,0.381
0.463933430308,0.539323845743,-0.124049612025,-1.36890778971,0.0787148087794,1.89882472375,0.15756631297,-0.00564206165531,-0.047949280985,-0.000723530623536,-0.067573263502,-0.00754925926839,0.0296366057437,-0.00525268248261,0.573995601029,0.818844127813,0.00202268275283,0.0,0.818801937985,-0.573936718308,-0.0118649328446,0.0,-0.00855480339184,0.0084667588286,-0.999927562043,0.0,0.660185972642,0.258854049957,0.303385655889,1.0,-0.00794,-0.0104354285714,0.398
0.463813871486,0.538561510819,-0.124046104685,-1.37008862546,0.0786606377662,1.8992817407,0.157424056974,-0.00627773640315,-0.0471543671132,0.000671582044896,-0.0778971563264,-0.00480313169966,0.0311628208441,-0.0112366166732,0.574025423826,0.818823117187,0.00206457320653,0.0,0.818781316609,-0.573966213303,-0.0118612166176,0.0,-0.008527407278,0.00849923750092,-0.999927520517,0.0,0.660057131269,0.258669242813,0.303401662328,1.0,-0.00828,-0.0108822857143,0.415
0.463712239522,0.537777203369,-0.12406768828,-1.37131416974,0.0785844831264,1.89974867016,0.157262384381,-0.00881176676274,-0.0455873571893,-0.0017155101542,-0.0682553560242,-0.00290831946459,0.0247217768137,-0.012917942634,0.574038726273,0.818813754931,0.0020790323923,0.0,0.818772273035,-0.573979586458,-0.0118383335305,0.0,-0.00850023183327,0.00849807959296,-0.999927761742,0.0,0.659922563165,0.258473826572,0.303413421505,1.0,-0.00862,-0.0113291428571,0.432
0.46361149304,0.537016050188,-0.124066521244,-1.37252614372,0.0784980012442,1.90018935151,0.157128920576,-0.00700348433943,-0.0429713518936,-0.000537948591494,-0.0825564674426,-0.00786038786953,0.0216985535604,-0.00334896679187,0.57405465712,0.818802627824,0.00206257328051,0.0,0.818761021529,-0.573995670654,-0.0118366632226,0.0,-0.00850814662612,0.00848380959346,-0.999927815603,0.0,0.65978016487,0.258290071063,0.303412114768,1.0,-0.00894,-0.0117497142857,0.448
0.463501317255,0.536179960165,-0.124064844125,-1.37383731408,0.0784397188268,1.9006909771,0.156962321826,-0.00166997490073,-0.0497057156607,0.00118742274033,-0.078989314925,-0.00442066132995,0.0286430148687,-0.0136685486114,0.574063923834,0.818796046384,0.00209587201984,0.0,0.818754683189,-0.574004613275,-0.0118414355849,0.0,-0.00849284394573,0.00851390992643,-0.999927689855,0.0,0.659629380615,0.258098293257,0.303421684694,1.0,-0.00928,-0.0121965714286,0.465
0.463388389711,0.535280338919,-0.124068040465,-1.37524684712,0.078364326286,1.90119849754,0.156786866424,-0.0133101655832,-0.0508294553582,0.000596266703476,-0.0840516858063,-0.000337137810748,0.035742579852,-0.00997510539647,0.574072085438,0.818790317592,0.00209843745533,0.0,0.818748879524,-0.574012655103,-0.0118528883261,0.0,-0.0085006642057,0.00852266972291,-0.99992754878,0.0,0.65946106077,0.257888689022,0.303429751282,1.0,-0.00962,-0.0126434285714,0.482
0.463269579531,0.534392594022,-0.124068834003,-1.3766887167,0.0782725508935,1.90172660577,0.156603314898,-0.00687639407094,-0.0530709786617,-0.000607290858512,-0.0860585896021,-0.00321214981393,0.0318318177698,-0.00835834503639,0.574074069882,0.818788992865,0.00207228202469,0.0,0.818747231126,-0.574014760993,-0.0118647624127,0.0,-0.00852538053538,0.00850809142339,-0.999927462503,0.0,0.659290542237,0.257671374597,0.303415563595,1.0,-0.00996,-0.0130902857143,0.499
0.463144371303,0.533469804009,-0.124071236874,-1.37816513533,0.078192242812,1.90226127121,0.156425227583,-0.00281481803532,-0.057571609556,0.0004230047491,-0.0866158280072,-0.000263700067936,0.0232604078493,-0.009434469254,0.574091684069,0.818776674424,0.00205975810265,0.0,0.818734644967,-0.574032319295,-0.0118837887884,0.0,-0.00854796591772,0.00850894346108,-0.999927262435,0.0,0.659115230999,0.257447582513,0.303410109533,1.0,-0.0103,-0.0135371428571,0.516
0.463015819559,0.532524980953,-0.124071236874,-1.37968118772,0.078114935656,1.90284566527,0.156229949401,-0.00854662044734,-0.05570768696,-0.000404459974341,-0.0846918111669,-0.00180584850724,0.032406495589,-0.0102445508033,0.574099352888,0.818771254489,0.00207671337331,0.0,0.818729326294,-0.574039799265,-0.0118889034961,0.0,-0.00854234076862,0.0085258420936,-0.999927166563,0.0,0.658940960242,0.257222431836,0.30340538513,1.0,-0.01064,-0.013984,0.533
0.462891559073,0.531614205544,-0.124071239898,-1.38115829174,0.0780206851968,1.9033817297,0.156040265285,-0.00585627622731,-0.0559820138281,-8.55503850766e-05,-0.0970947766977,-0.00672753613815,0.035844737219,-0.0175706686079,0.574100980043,0.818770187734,0.00204726499254,0.0,0.81872788197,-0.574041552058,-0.0119037261377,0.0,-0.00857136593604,0.0085102576218,-0.99992705094,0.0,0.658764657133,0.256998312654,0.303390779254,1.0,-0.01096,-0.0144045714286,0.549
0.462749312195,0.530603828058,-0.124071628688,-1.38279742798,0.0779164225562,1.90395641131,0.155835341605,-0.00641182403613,-0.0567244687964,0.00128578855911,-0.0924577186543,-0.0086752580034,0.0349146440835,-0.0115904379805,0.574110941266,0.818763324647,0.00199805731521,0.0,0.818720355065,-0.574051692294,-0.0119323793643,0.0,-0.00862297243514,0.00848652313482,-0.999926808957,0.0,0.658565713952,0.256745233169,0.303372400977,1.0,-0.0113,-0.0148514285714,0.566
0.462608430726,0.529625992559,-0.124076556463,-1.3843380625,0.0778161291434,1.90452598503,0.155633174795,-0.00892787880306,-0.0627383516768,-0.00204445661195,-0.0944825632342,-0.00485770193374,0.0398605809772,-0.0204922965519,0.574120927005,0.81875632242,0.00199814256181,0.0,0.818713419243,-0.574061740714,-0.01192484384,0.0,-0.00861664998786,0.00848237184068,-0.999926898684,0.0,0.658387931882,0.256501995721,0.303377447273,1.0,-0.01162,-0.015272,0.582
0.462464616543,0.528534648309,-0.124078332184,-1.38602873427,0.0777125194327,1.9051598434,0.155395859586,-0.00977252476886,-0.0682344415518,-0.000278574562499,-0.102104808665,-0.0106437079811,0.0473796133451,-0.0169770955607,0.574109421764,0.818764321232,0.00202608512147,0.0,0.818721788465,-0.574050127966,-0.0119092643179,0.0,-0.00858797163743,0.00849618446329,-0.999927028134,0.0,0.658190652125,0.256246188743,0.303396256192,1.0,-0.01196,-0.0157188571429,0.599
0.462324650853,0.527421076741,-0.124083235918,-1.3877533838,0.0776098636263,1.90582623714,0.155149822733,-0.00610186358112,-0.0674543022549,-0.000173499277856,-0.100300791411,-0.00822872723494,0.0417538388587,-0.0239204951687,0.574091872723,0.818776511635,0.00207185193389,0.0,0.818734595444,-0.574032414861,-0.0118825844606,0.0,-0.00854003530715,0.00851815602158,-0.999927251761,0.0,0.657991670671,0.255989729986,0.303417199058,1.0,-0.0123,-0.0161657142857,0.616
0.462176202963,0.526272231325,-0.124086389682,-1.38954382404,0.0774939019713,1.906502644,0.154904685403,-0.011554825879,-0.0696738212461,-0.00126389139593,-0.102149178248,-0.00808255163081,0.0362581146309,-0.0171387692264,0.574080384996,0.818784505365,0.00209576686548,0.0,0.818742974497,-0.574020906156,-0.01186119341,0.0,-0.00850891120695,0.00852533701578,-0.999927455898,0.0,0.657782160119,0.25571993809,0.303432162227,1.0,-0.01264,-0.0166125714286,0.633
0.462023494689,0.525081273071,-0.12409184992,-1.39138864563,0.0773838760122,1.90716441589,0.154660301862,-0.00801257754593,-0.0730175642966,-0.00132773582407,-0.110047967639,-0.00691961734666,0.0427990723801,-0.0136238162235,0.574078720607,0.818785653835,0.00210297944428,0.0,0.818744170624,-0.574019166718,-0.0118628078864,0.0,-0.00850611017234,0.00853215200554,-0.999927421602,0.0,0.657558783929,0.255440114372,0.30344937223,1.0,-0.01298,-0.0170594285714,0.65
0.461870535579,0.523987016627,-0.124098604594,-1.39316957631,0.0772644090995,1.90779776156,0.154418900328,-0.0109378850254,-0.067196298318,-0.00101162265345,-0.110460583689,-0.00697150050148,0.037951027418,-0.0116840921691,0.574074400285,0.818788819327,0.00204919098518,0.0,0.818746702014,-0.574015130005,-0.0118834072243,0.0,-0.00855389903004,0.00849989188578,-0.999927288681,0.0,0.657342489105,0.255162286568,0.30342628728,1.0,-0.0133,-0.01748,0.666
0.461722667417,0.522771397557,-0.1241021817,-1.39510283071,0.077144447605,1.90853573019,0.154155966493,-0.0123656076761,-0.0742611336812,-0.00127800354042,-0.114484905624,-0.00598081026462,0.041215503479,-0.0148393988711,0.574054156655,0.818802979454,0.00206227195561,0.0,0.818761069865,-0.573994873104,-0.011871942766,0.0,-0.00853721294704,0.00850380980981,-0.999927397971,0.0,0.65711186945,0.254880179787,0.30342469726,1.0,-0.01364,-0.0179268571429,0.683
0.461553452254,0.521535961809,-0.124103212057,-1.39705687615,0.0770353783744,1.90930160059,0.153892386276,-0.0119194174418,-0.0670513551235,-0.00514193478374,-0.115486659743,-0.00873301975021,0.0456137671622,-0.0134642208819,0.574053043342,0.818803651517,0.00210489744091,0.0,0.818762241748,-0.573993533584,-0.011855875921,0.0,-0.00849960061978,0.00852947642015,-0.999927499783,0.0,0.656886067105,0.2545869815,0.303429157732,1.0,-0.01398,-0.0183737142857,0.7
0.461386178028,0.520260922314,-0.124103976849,-1.39909389243,0.0769071513164,1.91004604294,0.153623595716,-0.0144056333912,-0.0761399056157,0.000576973609806,-0.116604203763,-0.00845230006514,0.0465858044588,-0.0172502604938,0.574044432267,0.818809735618,0.0020865142586,0.0,0.818768079818,-0.573984990522,-0.0118662979919,0.0,-0.00851877646743,0.00852031760943,-0.999927414683,0.0,0.656637243438,0.254281443878,0.303419706175,1.0,-0.01432,-0.0188205714286,0.717
0.461222938802,0.518926888827,-0.12410959886,-1.40116572477,0.07676752164,1.91078423719,0.153340412743,-0.0118243138512,-0.0832681984118,-0.000817341960795,-0.125858852948,-0.00728060322783,0.0387538440897,-0.0167580713287,0.574022376238,0.818825216841,0.00207912122151,0.0,0.818783538882,-0.573963040979,-0.0118613214555,0.0,-0.00851917439444,0.00851117802525,-0.999927489129,0.0,0.656380470952,0.253970182722,0.303434281852,1.0,-0.01466,-0.0192674285714,0.734
0.46105979475,0.517644937383,-0.124111378251,-1.40316402809,0.0766411308665,1.91149849756,0.153070621409,-0.00579906670794,-0.07919982159,6.14532258398e-06,-0.127083886372,-0.00208800950715,0.0493656436686,-0.0129282673112,0.574007939408,0.818835347488,0.00207511495032,0.0,0.818793598945,-0.573948603634,-0.011865479926,0.0,-0.00852502918343,0.00851013436727,-0.999927448113,0.0,0.656132605298,0.253669816597,0.303444734504,1.0,-0.01498,-0.019688,0.75
0.46085259082,0.516225453588,-0.124115282946,-1.4054126711,0.0764908141402,1.91234589657,0.152751934807,-0.00846233209293,-0.0779958187956,0.000266188649569,-0.131751155928,-0.0115195712567,0.0435332613737,-0.0174011489889,0.573997762906,0.818842466564,0.00208087305974,0.0,0.818800910778,-0.573938522964,-0.0118485133579,0.0,-0.00850793649689,0.00850500466544,-0.999927637338,0.0,0.655867837621,0.253316599358,0.303443742242,1.0,-0.01534,-0.0201611428571,0.768
0.460678998418,0.51493381691,-0.124119161688,-1.40746526735,0.0763739036143,1.91312606266,0.152465650674,-0.0165722602093,-0.080161547722,0.00137735690797,-0.130750969788,-0.00310591731043,0.0506632542691,-0.020558637397,0.573985145259,0.818851264837,0.0020990467142,0.0,0.818809880025,-0.573925768658,-0.0118464908251,0.0,-0.00849598057103,0.00851859395459,-0.999927623316,0.0,0.655621637501,0.253007883682,0.303440202371,1.0,-0.01566,-0.0205817142857,0.784
0.460490993123,0.513515743885,-0.124124867422,-1.40973571977,0.076240384055,1.91391137546,0.152164266751,-0.00843481094041,-0.0814910590416,-0.000288857022041,-0.12940619279,-0.0017228303192,0.0461766627834,-0.0112972210891,0.573979395979,0.81885543306,0.00204441696407,0.0,0.818813197618,-0.573920101274,-0.0118916635249,0.0,-0.00856438618537,0.00849972908493,-0.999927200297,0.0,0.655332174391,0.252662274481,0.303421689404,1.0,-0.016,-0.0210285714286,0.801
0.460311024834,0.512187476639,-0.124135800525,-1.41188318794,0.0760976634842,1.9146718843,0.15184721309,-0.00989234525697,-0.080553928863,-0.00322605447503,-0.138535673887,-0.0115919532613,0.0485642360462,-0.0181952657858,0.573948661422,0.818877120166,0.00198570425961,0.0,0.818834180916,-0.57388967174,-0.0119153571046,0.0,-0.00861780406527,0.00846492875762,-0.999927036555,0.0,0.65506345422,0.252329199577,0.303396369126,1.0,-0.01632,-0.0214491428571,0.817
0.460110831262,0.510740345563,-0.124139745561,-1.41418763767,0.0759681366484,1.9155466156,0.1515298025,-0.0112866536609,-0.0862293320314,-0.00165483876158,-0.134475587567,-0.0132078629025,0.0527728276304,-0.0192330447398,0.573941236807,0.818882280026,0.00200375949571,0.0,0.818839477624,-0.573882076654,-0.011917167467,0.0,-0.00860900135626,0.00848067449326,-0.999926978962,0.0,0.654785253927,0.251979723737,0.303388850803,1.0,-0.01666,-0.021896,0.834
0.459911665849,0.509247224218,-0.124140165694,-1.41655434754,0.0758187375623,1.91642622695,0.151209363327,-0.0177312081919,-0.0867711225699,-0.000641338294885,-0.13188183567,-0.00897939094815,0.0426785051674,-0.029850080464,0.573925141884,0.818893557341,0.00200503385118,0.0,0.818850773531,-0.573865980416,-0.0119161281532,0.0,-0.00860758557901,0.00848095234563,-0.999926988794,0.0,0.654493449617,0.251623448394,0.303383676223,1.0,-0.017,-0.0223428571429,0.851
0.459703553654,0.507728757363,-0.124143361875,-1.41892687373,0.0756652477795,1.9172729712,0.150864273037,-0.0162333594545,-0.0932768603674,-9.63006863017e-05,-0.136646968474,-0.0105938728288,0.0517329936655,-0.0194505200572,0.573896625211,0.8189135677,0.00199477058077,0.0,0.818870647961,-0.573837507511,-0.0119215679598,0.0,-0.00861822549997,0.0084753698745,-0.999926944479,0.0,0.654196474136,0.25125658545,0.303390146758,1.0,-0.01734,-0.0227897142857,0.868
0.459489755118,0.506173558409,-0.124149332534,-1.4213672683,0.0755084974514,1.91817379294,0.150533669762,-0.00989320460816,-0.0979335536988,-0.00146717657641,-0.13909528446,-0.00919431696983,0.0514059849916,-0.0269971658356,0.573889044128,0.818918862459,0.00200215901514,0.0,0.818876081815,-0.573829938988,-0.0119126258259,0.0,-0.00860674091119,0.00847620877106,-0.999927036286,0.0,0.653896257276,0.250879999514,0.303394258493,1.0,-0.01768,-0.0232365714286,0.885
0.459276443903,0.504649436278,-0.124149631089,-1.42369150365,0.075361837692,1.91907891931,0.15022841521,-0.0127843956509,-0.104100135256,-0.00164436094514,-0.150811251903,-0.00535557220005,0.0504584922049,-0.0199668791598,0.573896491901,0.818913403087,0.00209802997014,0.0,0.818871969856,-0.573837095015,-0.0118504121959,0.0,-0.00850069762079,0.00851909194019,-0.999927578984,0.0,0.653605314295,0.250493472141,0.30344149389,1.0,-0.01802,-0.0236834285714,0.902
0.459045616255,0.502981990757,-0.124150438756,-1.42617420347,0.0752092369568,1.92001837214,0.149867295398,-0.0115719692386,-0.0988420725276,0.000309217633146,-0.144364649687,-0.0117285807182,0.0668836505043,-0.0232481542772,0.573874554335,0.818928525516,0.00219382845832,0.0,0.818888301588,-0.573814745127,-0.0118040119666,0.0,-0.00840795287646,0.0085706875792,-0.999927922224,0.0,0.653322179826,0.250137526902,0.303495843702,1.0,-0.01834,-0.024104,0.918
0.458812984771,0.501285474817,-0.124156167028,-1.42871791289,0.0750427232914,1.92092441674,0.149528897118,-0.0127272211161,-0.100463158411,-0.000713450107106,-0.149630092756,-0.0110658028588,0.058569147619,-0.0238142860664,0.573876752521,0.818926860737,0.00223977240618,0.0,0.818887263008,-0.573816795274,-0.0117763681009,0.0,-0.0083589260707,0.00859247040935,-0.999928146322,0.0,0.653003927184,0.249737498172,0.303548011805,1.0,-0.01868,-0.0245508571429,0.935
0.45857169124,0.499582520163,-0.124156742401,-1.43131112611,0.0748779430576,1.92184734477,0.149154756042,-0.00922924551215,-0.103279981553,-0.000140485248878,-0.154779100098,-0.0105954144678,0.0589765218225,-0.0230904087119,0.57385569672,0.818941540381,0.00226708666843,0.0,0.818902250108,-0.573795588792,-0.0117674956147,0.0,-0.00833620715316,0.00860953252875,-0.999928189222,0.0,0.65267704379,0.249330576018,0.303581799064,1.0,-0.01902,-0.0249977142857,0.952
0.458308962628,0.497905716434,-0.124156834318,-1.43395322765,0.074714169207,1.92282847207,0.14876414298,-0.0189902841343,-0.0978754282155,-0.000621482744855,-0.158969048959,-0.00932043630683,0.0538045430728,-0.0245800776885,0.573841061846,0.818951761582,0.00227921982063,0.0,0.818912589865,-0.57378086915,-0.0117656814267,0.0,-0.00832791313906,0.00861827885799,-0.999928182987,0.0,0.652353295672,0.248907969841,0.303578575811,1.0,-0.01936,-0.0254445714286,0.969
0.458054653892,0.496232911854,-0.124159272286,-1.43662647163,0.0745452093806,1.92378460576,0.148375703322,-0.0113667861827,-0.0996238318925,0.000154960415405,-0.15764038045,-0.0116739665367,0.0583439653853,-0.0186646416168,0.573818916914,0.818967373938,0.00224453067417,0.0,0.81892767079,-0.573758776591,-0.011793354054,0.0,-0.00837071418807,0.00860552361005,-0.999927935457,0.0,0.652033305164,0.248511431121,0.303556915328,1.0,-0.01968,-0.0258651428571,0.985
0.457794733694,0.494651785835,-0.124162174938,-1.43921735774,0.0743853173129,1.92466798376,0.148010711607,-0.0200139801161,-0.100207643993,-0.00101128155937,-0.163927102973,-0.0149536449913,0.0510482576427,-0.0230491301711,0.573825515764,0.818963051292,0.00213189550123,0.0,0.818921743682,-0.573765675555,-0.0118690429614,0.0,-0.00849726277575,0.00855678002469,-0.999927286377,0.0,0.651678204634,0.248060233245,0.303500025299,1.0,-0.0208051428571,-0.0273439020408,1.002
0.457485339708,0.492401086138,-0.124230995788,-1.44259170353,0.0741920645083,1.92590536827,0.147528743245,-0.0136216449175,-0.16427448098,-0.00613780967816,-0.231980280028,-0.015951231225,0.0855079921708,-0.0303785092417,0.573851032711,0.818944927032,0.00222388078476,0.0,0.818904926605,-0.573790938719,-0.011807909531,0.0,-0.00839414657951,0.00859729353388,-0.999927809818,0.0,0.651267662398,0.247500705703,0.30356991908,1.0,-0.0348325714286,-0.0457799510204,1.019
0.457068301461,0.489101775873,-0.124280164011,-1.44778100384,0.0739192614842,1.92792039095,0.1467277339,-0.0335136263768,-0.211208120779,-0.00199192440721,-0.342261531161,-0.00956770479023,0.136795640402,-0.0529931290155,0.573759033116,0.819009059226,0.00234088103648,0.0,0.818970398444,-0.573698315184,-0.0117676050348,0.0,-0.00829497532619,0.00866904886806,-0.999928017897,0.0,0.650622107919,0.24672114667,0.303570918618,1.0,-0.04886,-0.064216,1.036
0.456424525158,0.48455886114,-0.12435625832,-1.45492074232,0.0735120858353,1.93063169417,0.145652367208,-0.044725411771,-0.291085297994,-0.00368827214062,-0.462588532091,-0.0319891725756,0.173505301399,-0.0743545820413,0.573705201004,0.819046489388,0.00243669108474,0.0,0.819009043179,-0.573644101641,-0.0117208679104,0.0,-0.00820230016597,0.00872016280445,-0.999928337949,0.0,0.649735035196,0.245589742329,0.303565526967,1.0,-0.0628874285714,-0.0826520489796,1.053
0.455550051231,0.478865110572,-0.124528324884,-1.46404591571,0.0729710587778,1.93376977813,0.144278796271,-0.0533685320356,-0.362203521438,-0.0130993123314,-0.579741356654,-0.0340310929757,0.194815727059,-0.0863711931694,0.57372082457,0.819036291485,0.00217154020195,0.0,0.818995324838,-0.573660662067,-0.0118680070616,0.0,-0.00847476446656,0.00858756940779,-0.999927213361,0.0,0.648550187727,0.24404143589,0.303447904408,1.0,-0.0769148571429,-0.101088097959,1.07
0.4545243256,0.472367108049,-0.124675570307,-1.47422357593,0.0723809143568,1.93733716023,0.142804530576,-0.065763451849,-0.430108975684,-0.0106576714806,-0.662927815649,-0.0276720663921,0.238064053826,-0.103457877532,0.573796912952,0.818983239972,0.00207418258912,0.0,0.818940640566,-0.573736771378,-0.0119620775224,0.0,-0.00860687189314,0.00856260042964,-0.999926299099,0.0,0.647142365878,0.242201958502,0.30340773422,1.0,-0.0909422857143,-0.119524146939,1.087
0.453411157018,0.465327801059,-0.124792586846,-1.4848714872,0.0717453887124,1.94134271397,0.141099170291,-0.0809504526093,-0.48612099945,-0.00780315853328,-0.741233177846,-0.0467484606241,0.277688036321,-0.119837299528,0.573727629413,0.819030851858,0.00241202292486,0.0,0.818992808982,-0.573666325791,-0.0117674292594,0.0,-0.00825435020328,0.00872689674363,-0.999927850885,0.0,0.645893643307,0.240532513214,0.303555733477,1.0,-0.102494285714,-0.13470677551,1.101
0.451699583911,0.455347883352,-0.124905276515,-1.50049441467,0.0707614378777,1.94675372962,0.138695128739,-0.0955868854468,-0.547808624702,-0.00437555542153,-0.851972837757,-0.0488059690637,0.287057713845,-0.126475433501,0.573702057693,0.819049329898,0.00221158166861,0.0,0.819008132511,-0.573640972542,-0.0119356777956,0.0,-0.0085074188353,0.00865899299605,-0.999926320118,0.0,0.643801591821,0.237858913885,0.303462203837,1.0,-0.118172,-0.155311771429,1.12
0.449910009243,0.44503770624,-0.125082716464,-1.5160079819,0.0696893923378,1.95233169896,0.13626218261,-0.112024471618,-0.611126799349,-0.00736023460051,-0.939024880732,-0.0629411592475,0.331427520148,-0.13630505585,0.573715149668,0.819039439563,0.00246381473606,0.0,0.819002416372,-0.573654025699,-0.011698191192,0.0,-0.00816805997631,0.00872946780218,-0.999928537041,0.0,0.641773336081,0.235118131807,0.303637812764,1.0,-0.132199428571,-0.173747820408,1.137
0.448005261876,0.434518215302,-0.125210218596,-1.5321266476,0.0686478492825,1.95783817869,0.133668352781,-0.128588407525,-0.67839485232,-0.0135473781791,-1.00872329109,-0.0677355786566,0.353158324022,-0.176437071887,0.573672182299,0.819069768215,0.00238515280189,0.0,0.819031177353,-0.573610777576,-0.0118047987538,0.0,-0.00830096424502,0.00872576716823,-0.99992747486,0.0,0.639551723892,0.232273648055,0.303635926905,1.0,-0.145401714286,-0.191099395918,1.153
0.445565714705,0.421543586595,-0.125366833747,-1.55167969386,0.0673020730527,1.96465978194,0.130423620197,-0.143283488525,-0.73210189618,-0.00790344129035,-1.12300100238,-0.0778773797058,0.384342521514,-0.192959354361,0.57359552081,0.819122957908,0.00255053651354,0.0,0.819086713103,-0.573533725515,-0.0116948286605,0.0,-0.00811684021027,0.00879738128268,-0.999928358928,0.0,0.636862713258,0.228751233813,0.303754064758,1.0,-0.160254285714,-0.210619918367,1.171
0.443111733514,0.409095903393,-0.125524850657,-1.57016421116,0.0659859090807,1.97122201662,0.127341687753,-0.154172716629,-0.776487856757,-0.00949262728543,-1.19133139098,-0.0793887457564,0.410375370901,-0.199764839101,0.573599232568,0.81911907114,0.00293506280633,0.0,0.819088496463,-0.573536942869,-0.0114086382659,0.0,-0.0076618137439,0.00894823461627,-0.999930610446,0.0,0.63432270296,0.22533816381,0.303959986745,1.0,-0.173456571429,-0.227971493878,1.187
0.440149947027,0.395016459224,-0.125689713664,-1.59113521961,0.0645954981054,1.97839025756,0.123784860722,-0.180949264943,-0.846823473032,-0.00827340315369,-1.25542869234,-0.0820842019484,0.434259543481,-0.213509342086,0.573689215738,0.819055123146,0.00318369204613,0.0,0.819027110147,-0.573625406696,-0.0113680489819,0.0,-0.00748495622261,0.00912943297089,-0.999930312014,0.0,0.631340704871,0.221378546914,0.304094547556,1.0,-0.187484,-0.246407542857,1.204
0.43690067434,0.380153620501,-0.125858768801,-1.61341116609,0.0628931025739,1.98583255635,0.119831623114,-0.197324102883,-0.900020166758,-0.00705542058003,-1.32776302949,-0.103777042301,0.454203318274,-0.239922563103,0.573609213768,0.819111403738,0.00311850102917,0.0,0.819083058005,-0.573546218897,-0.0113325098381,0.0,-0.00749412785267,0.00905491775287,-0.99993092087,0.0,0.628079672997,0.21708963328,0.304106671597,1.0,-0.201511428571,-0.264843591837,1.221
0.433299715562,0.364459503623,-0.126030355998,-1.63678618488,0.0611629204241,1.99356091936,0.115650314787,-0.21987499581,-0.92605097149,-0.0130757047671,-1.37187948682,-0.102495997017,0.457105632587,-0.251888237826,0.573626199817,0.819099519017,0.00311572297807,0.0,0.81907094518,-0.573562978639,-0.0113597182357,0.0,-0.00751782113249,0.009068404762,-0.999930620794,0.0,0.62458331182,0.212506999885,0.304117186849,1.0,-0.215538857143,-0.283279640816,1.238
0.429523516815,0.34894788616,-0.126226730991,-1.65989193652,0.05940464872,2.00105578845,0.111360115727,-0.242910545895,-0.977046692724,-0.0120811340073,-1.44885073995,-0.107536060857,0.459464513333,-0.279958784657,0.573638562309,0.819091339702,0.00298729964717,0.0,0.819060841401,-0.57357540662,-0.0114602751113,0.0,-0.00767371822728,0.00902100958341,-0.999929865258,0.0,0.620829248867,0.207554532523,0.304058541826,1.0,-0.229566285714,-0.301715689796,1.255
0.425134162976,0.33162572054,-0.126435037665,-1.68528105236,0.0574445890142,2.00927873521,0.106514442317,-0.265309230597,-1.0168857577,-0.0101259502312,-1.52716718152,-0.117778075897,0.477036825596,-0.290995324049,0.573704335396,0.819044988591,0.00306416580701,0.0,0.819015384455,-0.573640819349,-0.0114349159735,0.0,-0.00760812651895,0.00907003443165,-0.999929922988,0.0,0.617109935676,0.202614736396,0.304090477348,1.0,-0.242768571429,-0.319067265306,1.271
0.42044364325,0.313507146453,-0.126599809811,-1.71158183546,0.0552584649698,2.01759158719,0.101313057477,-0.29134825233,-1.06673566896,-0.0130007347299,-1.57209911829,-0.135186605087,0.484476146808,-0.316743831108,0.57357451517,0.819135849689,0.00307931861252,0.0,0.819106763505,-0.573511355671,-0.0113834001168,0.0,-0.00755867246284,0.00905169317861,-0.999930464243,0.0,0.612887344542,0.197157904894,0.304139549503,1.0,-0.256796,-0.337503314286,1.288
0.41529503399,0.294704331606,-0.126798163376,-1.73872539446,0.0529860575137,2.02596301266,0.0956997493902,-0.316850648002,-1.12630806614,-0.0107310054287,-1.60963195847,-0.14075144446,0.480332539979,-0.334741160354,0.573444955874,0.819226739428,0.00302966835039,0.0,0.81919693958,-0.57338187414,-0.0114169825859,0.0,-0.00761608713444,0.00902907995352,-0.999930233032,0.0,0.608419608273,0.191367061814,0.304148374235,1.0,-0.270823428571,-0.355939363265,1.305
0.4099989399,0.27632014372,-0.12700381616,-1.76489239744,0.050858090359,2.03393895729,0.0901695734979,-0.339734181098,-1.15495772998,-0.0153428217391,-1.65256100876,-0.142426726989,0.488416508723,-0.362013709435,0.573469263432,0.819209145604,0.00318222530779,0.0,0.819180547144,-0.573404797726,-0.0114418541673,0.0,-0.00754871365375,0.00916854527332,-0.999929474863,0.0,0.604030716222,0.185642853352,0.304222479852,1.0,-0.284025714286,-0.373290938775,1.321
0.403820367167,0.256175970304,-0.127307284284,-1.79329652857,0.0483669246028,2.04246131651,0.0838717677093,-0.380703072488,-1.18872645744,-0.0191148389247,-1.68243222545,-0.150359219083,0.487479212514,-0.378553820123,0.57353486299,0.819162698012,0.00331391350439,0.0,0.819136056398,-0.573470323245,-0.0113426790187,0.0,-0.00739121080277,0.00922014541252,-0.999930177023,0.0,0.599194310671,0.179167917017,0.304306596272,1.0,-0.298053142857,-0.391726987755,1.338
0.39714006621,0.235334140994,-0.127586669868,-1.82237406898,0.0457535277981,2.05096654295,0.0771917242506,-0.405502845659,-1.2274631756,-0.0131257543615,-1.69574120689,-0.145090435772,0.498573344159,-0.392905758875,0.573578937019,0.819131225038,0.00346209136862,0.0,0.819106546435,-0.573514055578,-0.0112623506591,0.0,-0.00723992442157,0.00929584779765,-0.999930582945,0.0,0.594099455646,0.172417669613,0.304393873995,1.0,-0.312080571429,-0.410163036735,1.355
0.390027668817,0.213839484962,-0.127812927615,-1.85211726525,0.0430292252805,2.05950226715,0.0700428149791,-0.427367620138,-1.2812789883,-0.0208165692741,-1.76663066288,-0.164669319243,0.516567942373,-0.426647429507,0.57344784035,0.819222221254,0.00364328176006,0.0,0.819199662354,-0.573382233319,-0.0112015451311,0.0,-0.00708769811174,0.00940825818985,-0.9999306222,0.0,0.588725542812,0.165470821402,0.304450844654,1.0,-0.326108,-0.428599085714,1.372
0.382264345358,0.191748148519,-0.12811048333,-1.88250990491,0.0400865141128,2.06777319304,0.0624223071896,-0.46369634739,-1.32667016798,-0.0223500345453,-1.80320766203,-0.185107612593,0.510773242575,-0.453155413331,0.573367197268,0.819279173659,0.00352698259114,0.0,0.819254936032,-0.573301662726,-0.0112827392386,0.0,-0.00722182733864,0.00935883065831,-0.999930126308,0.0,0.583060933094,0.158115542867,0.304414098825,1.0,-0.340135428571,-0.447035134694,1.389
0.37425907616,0.1703666029,-0.128531379462,-1.91141696868,0.0373255165051,2.07536755203,0.0547790811294,-0.507613493005,-1.35927915551,-0.0202928024036,-1.80953090191,-0.17421926577,0.471830546058,-0.487184103183,0.573521035827,0.819171331307,0.00356347168789,0.0,0.81914676923,-0.573454350384,-0.0113765279091,0.0,-0.00727597725612,0.00944386621458,-0.999928934248,0.0,0.577569448459,0.150795568763,0.304449122256,1.0,-0.353337714286,-0.464386710204,1.405
0.365775832406,0.148470376895,-0.12887183266,-1.94069406203,0.0342455954453,2.08285312918,0.0467090183281,-0.536319606952,-1.36660814349,-0.0230546090578,-1.84947505778,-0.196494289955,0.455082709499,-0.514361348218,0.573451275533,0.819220332893,0.00352528950707,0.0,0.819195685769,-0.573385232662,-0.011338001757,0.0,-0.00726711254395,0.00938987430902,-0.999929507183,0.0,0.571845909906,0.143300183563,0.304473012559,1.0,-0.36654,-0.481738285714,1.421
0.35543448472,0.123256232188,-0.129342729981,-1.97400846352,0.0307041946336,2.09099024482,0.0370031485945,-0.597817622246,-1.41077894573,-0.0243831338494,-1.87036181899,-0.211291669755,0.44784661548,-0.551827634269,0.573457711076,0.819216096184,0.00346240681337,0.0,0.819190460482,-0.573391615048,-0.0113926357349,0.0,-0.00734785700633,0.00936974584011,-0.999929105917,0.0,0.565152331539,0.134486956094,0.30447138751,1.0,-0.381392571429,-0.501258808163,1.439
0.344818263026,0.0988064865152,-0.129893901936,-2.00557561282,0.0271995800488,2.09840837818,0.0272408811878,-0.635689114581,-1.44633071842,-0.0300177316841,-1.84118626135,-0.205084909194,0.43467323091,-0.595654503373,0.573592092464,0.819121426226,0.00359825818731,0.0,0.819098016579,-0.573526222874,-0.0112631173469,0.0,-0.0071623032144,0.0094079423231,-0.999930093574,0.0,0.558668140494,0.125777995648,0.304590442783,1.0,-0.39542,-0.519694857143,1.456
0.333582593922,0.0739403873627,-0.130295708284,-2.03739228456,0.0236709569786,2.10551107962,0.0168190132532,-0.672662381758,-1.45523571622,-0.0295460237925,-1.84334868855,-0.205983733281,0.416029828864,-0.617233760422,0.573464001037,0.819210650971,0.00370077724772,0.0,0.819187843098,-0.57339692795,-0.0113131622223,0.0,-0.0071459862662,0.00951950628373,-0.999929154431,0.0,0.551884405354,0.116978228026,0.304622065216,1.0,-0.39998,-0.525688,1.473
0.322301733234,0.0507233224559,-0.130802442355,-2.06678340254,0.020158309186,2.1116160244,0.00674797683686,-0.723392569809,-1.44852489596,-0.0297381633646,-1.82938329461,-0.224183293984,0.363609627729,-0.633404461265,0.573631999394,0.819093679912,0.00355242184625,0.0,0.819068840205,-0.573565154886,-0.0114015353028,0.0,-0.00730152069825,0.00945014547802,-0.99992868873,0.0,0.54545294359,0.108425803448,0.304583432599,1.0,-0.39998,-0.525688,1.489
0.310610755286,0.0276851813117,-0.131178037743,-2.09534099378,0.016727670021,2.11721634203,-0.00358140557794,-0.731788213238,-1.45756794493,-0.0217771650376,-1.78666551359,-0.220599281401,0.337578066221,-0.654896438598,0.573757122308,0.819005872677,0.00359054635926,0.0,0.818980979395,-0.573689443597,-0.0114596943828,0.0,-0.00732583950063,0.00951585365512,-0.999927887702,0.0,0.539019790011,0.0999711692367,0.304621383646,1.0,-0.39998,-0.525688,1.505
0.296880299697,0.0021714735009,-0.131693686034,-2.12640086298,0.0127999370937,2.12297643938,-0.0156748109293,-0.780836720554,-1.40874568213,-0.0417789580961,-1.74736278818,-0.211012893834,0.302418634456,-0.67491869511,0.573925397594,0.818887526639,0.00368830771608,0.0,0.818864094354,-0.573857678855,-0.0113888672417,0.0,-0.00720977643243,0.00955676691481,-0.999928341097,0.0,0.531857503465,0.0903811020699,0.304694273829,1.0,-0.39998,-0.525688,1.523
0.28353261854,-0.0215679434812,-0.13203347195,-2.15484914414,0.00913623379608,2.12786280489,-0.0275262821208,-0.79832390595,-1.39179816943,-0.0264950793049,-1.69329313435,-0.219410372459,0.265763420676,-0.7088715976,0.573847593757,0.818941545437,0.00379884174067,0.0,0.818919385805,-0.573779377903,-0.0113583426039,0.0,-0.00712225872046,0.00962908810714,-0.999928274474,0.0,0.525073853491,0.0814804759051,0.304746603207,1.0,-0.39998,-0.525688,1.54
0.268711810014,-0.0463346484943,-0.132560551909,-2.18408021402,0.00525177402051,2.13234621311,-0.0404211015282,-0.834813325598,-1.36465592254,-0.0299118543551,-1.60833196822,-0.214622255784,0.227726264484,-0.731119320677,0.574067344259,0.818787574695,0.0037866452791,0.0,0.818764629567,-0.573998285139,-0.0114541227999,0.0,-0.00720510425157,0.00967599536871,-0.999927228145,0.0,0.518279219177,0.0724244313369,0.304746677194,1.0,-0.39998,-0.525688,1.557
0.256070160765,-0.0667722425859,-0.132872781258,-2.20783258653,0.0019917261629,2.1357228642,-0.0515604025002,-0.851635264788,-1.33420051693,-0.0234346329112,-1.5589110755,-0.223536202782,0.193148965903,-0.752440421095,0.574030532571,0.818813219086,0.0038218879141,0.0,0.818790478114,-0.573961039664,-0.0114727851411,0.0,-0.00720059200633,0.00971524144561,-0.999926880106,0.0,0.511469778718,0.0635205048749,0.304774637884,1.0,-0.39998,-0.525688,1.574
0.24027481284,-0.0909506202006,-0.133391134677,-2.23548888326,-0.00187857559952,2.13919908834,-0.0654031128636,-0.889395452119,-1.32726029651,-0.0246686210115,-1.51902733567,-0.209663443005,0.175922001721,-0.780170384436,0.574115626012,0.818753410301,0.00385330901599,0.0,0.818730539067,-0.57404530464,-0.0115342759295,0.0,-0.00723189304103,0.00977701805161,-0.999926052086,0.0,0.50466610993,0.0545224703661,0.304774337013,1.0,-0.39998,-0.525688,1.591
0.225937741992,-0.112096546389,-0.133682177858,-2.25933900382,-0.00540262636814,2.14182885508,-0.0780844031936,-0.915512438015,-1.30444767982,-0.0225377319908,-1.49426431858,-0.227479573794,0.161168362647,-0.797540004199,0.573897073861,0.818907076144,0.00375448483684,0.0,0.818882838524,-0.573826964423,-0.0115870001891,0.0,-0.00733439301906,0.0097244159289,-0.999925818455,0.0,0.498240309312,0.0462336870542,0.304740016484,1.0,-0.39998,-0.525688,1.607
0.210061482531,-0.134269885024,-0.134119028375,-2.28391717417,-0.00902776039979,2.14412796078,-0.0920279227781,-0.930717830655,-1.28159022905,-0.0208805912289,-1.43914177324,-0.214595436392,0.123753939697,-0.837052054841,0.573901987483,0.818903809635,0.00371567336484,0.0,0.818878195054,-0.573830849298,-0.0117219861794,0.0,-0.00746715490203,0.00977014316956,-0.999924390092,0.0,0.491423669691,0.0373211404332,0.304706216786,1.0,-0.39998,-0.525688,1.624
0.193673103855,-0.156190979119,-0.134568985164,-2.30776521894,-0.0126660640947,2.14602485062,-0.106546984166,-0.983845353833,-1.2850360474,-0.0332883473919,-1.40090443025,-0.218037084857,0.082780079111,-0.870217458129,0.573800649011,0.818974795579,0.003721062008,0.0,0.818948808989,-0.573728930076,-0.0117775188427,0.0,-0.00751075476731,0.00980549604148,-0.999923717496,0.0,0.484609554641,0.0284221544786,0.304689840993,1.0,-0.39998,-0.525688,1.641
0.176766073451,-0.17774917024,-0.134997849298,-2.33083647154,-0.0162333563307,2.14736436278,-0.121481661852,-1.004503417,-1.25594039437,-0.0318292545442,-1.34919722414,-0.20595345483,0.0553637366182,-0.889682618973,0.573745135141,0.819013927471,0.00366788939797,0.0,0.81898607902,-0.573672095492,-0.0119530802052,0.0,-0.00768572134123,0.00986216185119,-0.99992183067,0.0,0.477776672224,0.0195619319593,0.304651260392,1.0,-0.39998,-0.525688,1.658
0.159155779945,-0.199096289287,-0.135576574942,-2.35316227736,-0.0198641455592,2.14839064527,-0.137046776796,-1.04587705608,-1.24570681162,-0.022320725254,-1.30497835341,-0.205439348981,0.0542852378564,-0.928764474689,0.573792957902,0.818980143093,0.00373009153095,0.0,0.818953133852,-0.573719724846,-0.0119242935949,0.0,-0.00762587940968,0.00989703639017,-0.999921944271,0.0,0.470973718135,0.0105636273915,0.304673115137,1.0,-0.39998,-0.525688,1.675
0.14212417874,-0.218861979103,-0.136148743363,-2.37342923873,-0.0231712386225,2.14891666807,-0.152206756508,-1.08065923075,-1.24729853715,-0.0547224371976,-1.25396905206,-0.218248013024,0.0466583816574,-0.958148282218,0.573827048841,0.818955756796,0.0038384021019,0.0,0.818929668447,-0.573752782305,-0.0119452850967,0.0,-0.00758051205929,0.00999810154972,-0.999921283803,0.0,0.464574324356,0.00213134235877,0.304708422026,1.0,-0.39998,-0.525688,1.691
0.123495283573,-0.23941087588,-0.136700490256,-2.39425051581,-0.0266740099701,2.14903205365,-0.168736742953,-1.10303664995,-1.19883280987,-0.0279620664582,-1.19177437417,-0.19633449954,0.00473809407797,-0.980632879428,0.573876145374,0.818921457044,0.00381626305972,0.0,0.818894156725,-0.573800741229,-0.0120754439816,0.0,-0.00769921384121,0.0100551183582,-0.999919805135,0.0,0.457751202494,-0.00678427515755,0.304687276335,1.0,-0.39998,-0.525688,1.708
0.104168307765,-0.259709202051,-0.137355149389,-2.4142967008,-0.0301190127063,2.14899336374,-0.185989082052,-1.13644829469,-1.18283708693,-0.0303843923691,-1.18153059823,-0.200191819436,-0.0117406865124,-1.01482811703,0.573980831351,0.818846940179,0.00405471355528,0.0,0.818823225094,-0.573905175878,-0.0119214952278,0.0,-0.00743500194042,0.0101629990412,-0.999920713955,0.0,0.45098151758,-0.0157851898195,0.304753361586,1.0,-0.39998,-0.525688,1.725
0.084354441871,-0.279468933126,-0.137999030018,-2.43345118746,-0.0335219483281,2.14862935295,-0.203771115013,-1.17895819385,-1.13513689864,-0.0396061879359,-1.12358597011,-0.195941281025,-0.0477272190041,-1.06567759749,0.574036536152,0.818806711721,0.00428612918583,0.0,0.818786896363,-0.573961343119,-0.0117107579052,0.0,-0.00712891196146,0.0102320263153,-0.999922239102,0.0,0.444259970623,-0.0247314963388,0.304824235683,1.0,-0.39998,-0.525688,1.742
0.0639699899059,-0.298866049643,-0.138567977631,-2.45182651967,-0.0368460773272,2.14780618245,-0.222256525088,-1.22431822005,-1.13538974445,-0.0345338856093,-1.05237507884,-0.196556254106,-0.0398226208501,-1.10451025241,0.573937322358,0.818875123272,0.00449770965404,0.0,0.818858818889,-0.57386263262,-0.0115178344935,0.0,-0.00685073253574,0.0102937024893,-0.999923550654,0.0,0.437520427387,-0.0336267566453,0.304925629241,1.0,-0.39998,-0.525688,1.759
0.0442626997043,-0.316550409721,-0.139122248471,-2.46862945866,-0.0399561293013,2.14666240417,-0.240104165234,-1.23722838289,-1.09250789435,-0.0370791992794,-1.04688794337,-0.189857898742,-0.0788197274284,-1.12716377324,0.573904550937,0.818898487584,0.00442496872769,0.0,0.818880289769,-0.57382867216,-0.0116821631917,0.0,-0.00702746714052,0.0103281651436,-0.999921968811,0.0,0.431080420766,-0.0419849778851,0.304855430786,1.0,-0.39998,-0.525688,1.775
0.0213932287968,-0.335955204672,-0.13982829329,-2.48654375932,-0.0433562938895,2.14518406674,-0.260960215612,-1.28780757033,-1.05377103503,-0.0432761939229,-0.993363172632,-0.184505292593,-0.093436978294,-1.16374495161,0.573903777589,0.818898353615,0.00454834223012,0.0,0.818881872658,-0.57382769176,-0.0116191953998,0.0,-0.00690510820473,0.0103930552339,-0.999922148911,0.0,0.423911086912,-0.0514469173844,0.304878318687,1.0,-0.39998,-0.525688,1.793
-0.000857008622783,-0.353807317565,-0.140458839638,-2.50263985504,-0.0465377817644,2.14341108494,-0.281302957239,-1.31490017841,-1.05805676562,-0.0277606829537,-0.913048888156,-0.176898752594,-0.0938441451099,-1.23607270632,0.573885455126,0.818910831259,0.00461321392396,0.0,0.818895516051,-0.573809672182,-0.0115473287905,0.0,-0.00680925694854,0.0104047845597,-0.99992268425,0.0,0.417121070732,-0.0603813253799,0.304931560224,1.0,-0.39998,-0.525688,1.81
-0.0223206126282,-0.370012486563,-0.141168676824,-2.51715021785,-0.0493999812482,2.14158487505,-0.30109182336,-1.34961119919,-1.00401808887,-0.0390191989595,-0.89698614683,-0.195642256056,-0.114422032373,-1.26951830889,0.573913190664,0.81889094306,0.00469253207341,0.0,0.818876012653,-0.573836180497,-0.0116129563724,0.0,-0.00681713136452,0.0105076331027,-0.999921555106,0.0,0.41070255321,-0.0688055724165,0.304915888643,1.0,-0.39998,-0.525688,1.826
-0.0470920541983,-0.387578456103,-0.14190041801,-2.53248067504,-0.0525803066077,2.13935722738,-0.323938212487,-1.39029656853,-0.961029412802,-0.040582015531,-0.844567707361,-0.177494228724,-0.115307913858,-1.28098432343,0.573952506125,0.818862815277,0.00479138498639,0.0,0.818849689155,-0.573876015759,-0.0115000873328,0.0,-0.00666746133258,0.0105241306742,-0.999922390805,0.0,0.403539014921,-0.0782686827765,0.304963993588,1.0,-0.39998,-0.525688,1.844
-0.0696703251654,-0.402562351152,-0.142572753711,-2.54550510258,-0.0551970919475,2.13716125397,-0.344975670736,-1.42804027909,-0.919531247349,-0.0577507115759,-0.835753922645,-0.170776059923,-0.13434067363,-1.3358011797,0.573958650125,0.818858004046,0.00487689023868,0.0,0.818844727928,-0.573879914477,-0.0116577101672,0.0,-0.00674738983435,0.0106846651647,-0.999920152143,0.0,0.397101542928,-0.0866543168618,0.304925077615,1.0,-0.39998,-0.525688,1.86
-0.092718271057,-0.416968638176,-0.143171684296,-2.55750524348,-0.0578194572286,2.13491063832,-0.366553049782,-1.45899761803,-0.914353544976,-0.0430998785681,-0.747448125823,-0.156228190072,-0.131455241754,-1.35296232028,0.57387268433,0.818917340782,0.00502772783568,0.0,0.818907373373,-0.573795715369,-0.0113990245668,0.0,-0.0064500943799,0.0106590374423,-0.99992238759,0.0,0.390784474092,-0.0950375156016,0.305046155273,1.0,-0.39998,-0.525688,1.876
-0.117797412073,-0.431407302322,-0.14381584964,-2.56973553165,-0.0604438977961,2.13234569327,-0.390137933267,-1.49216892326,-0.816848222516,-0.0422339181534,-0.706210216076,-0.141673137363,-0.151204237251,-1.39161149722,0.573808514443,0.81896235915,0.00501895902818,0.0,0.818950916805,-0.573729350721,-0.0116092586909,0.0,-0.00662814939338,0.0107719799747,-0.999920012843,0.0,0.383951498767,-0.103921863472,0.304982483019,1.0,-0.39998,-0.525688,1.893
-0.143374655716,-0.445155864596,-0.144455820485,-2.58093101596,-0.0629828905016,2.12976238219,-0.414286202613,-1.53521835186,-0.792081854084,-0.0389314437277,-0.628643043982,-0.132202312895,-0.139939119596,-1.43794808858,0.573755792226,0.818998677445,0.00511899710953,0.0,0.818989002679,-0.57367711454,-0.0115034188185,0.0,-0.00648475815902,0.0107927633091,-0.999920728944,0.0,0.377198801555,-0.112811251124,0.30505232995,1.0,-0.39998,-0.525688,1.91
-0.169525280253,-0.457957717342,-0.145118363544,-2.59142804073,-0.0654187535031,2.12720097455,-0.439116830398,-1.55528879176,-0.755004668126,-0.0336797917188,-0.601250379348,-0.132587259145,-0.16792000266,-1.47637650519,0.573696280754,0.81904029148,0.00513081686317,0.0,0.819030121149,-0.5736165012,-0.0115981508543,0.0,-0.00655635786921,0.0108563185836,-0.999919574025,0.0,0.370393815899,-0.121709892202,0.305016442742,1.0,-0.395897714286,-0.520322710204,1.927
-0.194293087536,-0.468853459232,-0.14548085715,-2.60038784581,-0.0674066177509,2.1248503938,-0.462712905387,-1.56432138246,-0.66595185879,-0.019888064281,-0.527453657695,-0.120936486344,-0.147199436352,-1.47013874666,0.573617723522,0.819095480735,0.00510368519353,0.0,0.819083485547,-0.57353563321,-0.0118265820592,0.0,-0.00676008475063,0.0109644924358,-0.999917037138,0.0,0.363719575481,-0.130415373542,0.304932284692,1.0,-0.381870285714,-0.501886661225,1.944
-0.220541962157,-0.479385788656,-0.145727724254,-2.60859000598,-0.0691803249632,2.12257203646,-0.487445982349,-1.54322700622,-0.600073231378,-0.00501820641075,-0.464569311338,-0.0952774991495,-0.140210548953,-1.46551560695,0.573747424268,0.81900342141,0.00529488105002,0.0,0.818994687289,-0.573665963323,-0.0116538242297,0.0,-0.00650715416125,0.0110230433122,-0.999918071374,0.0,0.357716441338,-0.138404360975,0.305011815944,1.0,-0.368668,-0.484535085714,1.96
-0.246368171325,-0.488713800357,-0.145776997715,-2.61598746221,-0.0706958899875,2.12033431076,-0.51193195407,-1.51500681338,-0.526257509592,0.00422085846484,-0.420717292886,-0.0886638308306,-0.128572012533,-1.44515388846,0.573798199666,0.81896737536,0.00536759326104,0.0,0.81895853806,-0.573714711252,-0.0117936394943,0.0,-0.00657926543595,0.0111632203659,-0.999916044364,0.0,0.351461080631,-0.146556230225,0.304985863692,1.0,-0.354640571429,-0.466099036735,1.977
-0.270221019575,-0.49637796783,-0.145675078903,-2.62200210555,-0.0718120592398,2.11850424618,-0.534575554031,-1.46844714261,-0.463212613456,0.00340337108707,-0.354546465561,-0.0629842301644,-0.100771721589,-1.4061719157,0.573881071816,0.818908312863,0.00551701336875,0.0,0.818900927913,-0.57379620076,-0.0118295037178,0.0,-0.0065217631852,0.0113068333312,-0.999914807434,0.0,0.345831738852,-0.153946856714,0.304978186727,1.0,-0.341438285714,-0.448747461225,1.993
-0.296300040595,-0.503797206559,-0.145393522579,-2.62772498659,-0.0728148949784,2.11664231348,-0.559416427518,-1.41251028465,-0.37723321065,0.00993120975637,-0.291430694561,-0.0445323259259,-0.0990341337716,-1.36755717385,0.57392135281,0.818879019824,0.00567261688776,0.0,0.818873453899,-0.573835554373,-0.0118224336958,0.0,-0.00642611738287,0.0114305225967,-0.999914020388,0.0,0.339800234265,-0.161890880115,0.304996315002,1.0,-0.326585714286,-0.429226938776,2.011
-0.318906383635,-0.509463050399,-0.145082262547,-2.63196048945,-0.0736179992128,2.1152805658,-0.58099132749,-1.39467818211,-0.339639221727,0.0115266529787,-0.250021271351,-0.0473879824648,-0.0656156218619,-1.32858172328,0.573943832147,0.818862535303,0.00577691254743,0.0,0.818859639231,-0.573860052183,-0.011587866449,0.0,-0.00617384922898,0.0113814841294,-0.999916169189,0.0,0.3346864667,-0.168726147436,0.305068044158,1.0,-0.313383428572,-0.411875363265,2.027
-0.342233885416,-0.514544754938,-0.144576607589,-2.63590389361,-0.0742531704189,2.11381830619,-0.603276137235,-1.35011891577,-0.270610071147,0.0350608807409,-0.2242578319,-0.0358752511275,-0.0782250085934,-1.28292599802,0.573927368595,0.81887396945,0.00579177310813,0.0,0.818870399834,-0.573841951305,-0.0117230584495,0.0,-0.00627626586232,0.0114711165031,-0.999914507332,0.0,0.329401417684,-0.175618353862,0.305044108152,1.0,-0.299356,-0.393439314286,2.044
-0.364681615027,-0.518698918758,-0.144018388061,-2.63925391591,-0.0747044174446,2.11260603218,-0.624792762842,-1.30428185632,-0.221318277216,0.0507312062014,-0.182864876152,-0.0327507315614,-0.0692382314861,-1.24973002534,0.573898275901,0.818894201182,0.00581404238372,0.0,0.818889437073,-0.573810088863,-0.0119506765474,0.0,-0.00645030773643,0.0116197542774,-0.99991168352,0.0,0.324351003199,-0.182163991546,0.304963958732,1.0,-0.285328571429,-0.375003265306,2.061
-0.386322211414,-0.522034705882,-0.143447155162,-2.64187499482,-0.0749926983154,2.11164769893,-0.645486323864,-1.25677350652,-0.172571169629,0.0335205526526,-0.136823259656,-0.0286698321373,-0.0542749916407,-1.20674336372,0.573986891865,0.818831546538,0.00589009862527,0.0,0.818827181932,-0.573897313083,-0.0120277623045,0.0,-0.0064685239735,0.0117269765405,-0.999910314088,0.0,0.319570249308,-0.188452042899,0.304931931036,1.0,-0.271301142857,-0.356567216327,2.078
-0.40576096924,-0.524606474496,-0.142725351443,-2.64382246066,-0.0751436914073,2.11086720085,-0.664250900268,-1.19985357431,-0.155128811179,0.0443998931676,-0.109714775202,-0.00464325634388,-0.0469944566089,-1.16454616042,0.57384509497,0.818930804494,0.00590688838827,0.0,0.818926680562,-0.573755515965,-0.0120185966377,0.0,-0.00645341346663,0.0117343471518,-0.999910325255,0.0,0.315331782709,-0.1940165019,0.304942383912,1.0,-0.258098857143,-0.339215640816,2.094
-0.425655321479,-0.526657636194,-0.142044016152,-2.64541496997,-0.0752355157211,2.11024097092,-0.683386340746,-1.14577810876,-0.10870968114,0.0372312522598,-0.0868374454981,0.00251613409008,-0.0396815431335,-1.10558222528,0.573849341768,0.818927602729,0.0059381261572,0.0,0.818923809018,-0.573759493435,-0.0120243760208,0.0,-0.00644016116618,0.0117632796354,-0.999910070745,0.0,0.311016359124,-0.199717301438,0.304934003507,1.0,-0.244071428572,-0.320779591837,2.111
-0.445691917989,-0.528274392181,-0.141252272558,-2.64669224005,-0.0752671971829,2.10971396948,-0.702611535328,-1.07605168366,-0.076395703599,0.0468642965924,-0.065901593482,0.00777509326633,-0.0270071631197,-1.05211561896,0.573864218404,0.81891733427,0.00591653349991,0.0,0.818913166031,-0.573774286661,-0.0120433121656,0.0,-0.00646784683215,0.0117565794539,-0.999909970846,0.0,0.30668486871,-0.205405267977,0.304920493215,1.0,-0.229218857143,-0.301259069388,2.129
-0.46258513699,-0.529237993595,-0.140595501818,-2.64747699169,-0.0752221376959,2.10936077442,-0.71877447309,-1.04561937217,-0.0502282855313,0.0328097255763,-0.0460905100597,0.0042061430357,-0.0267433591939,-0.99327743816,0.573971028133,0.81884245516,0.00591940813201,0.0,0.818838084286,-0.573880626493,-0.0120816041899,0.0,-0.0064960218584,0.0117817544286,-0.999909491885,0.0,0.30304007083,-0.210191687566,0.304903021085,1.0,-0.216016571429,-0.283907493878,2.145
-0.47948872232,-0.529933805751,-0.139723264091,-2.64799567462,-0.0750617362969,2.10908898503,-0.735059869797,-0.971437489039,-0.0341885914131,0.0494891598918,-0.0272085176773,0.00568463349308,-0.0201778266608,-0.942912947224,0.573899128353,0.818893079356,0.005887440758,0.0,0.818888646255,-0.573809517008,-0.0120320458468,0.0,-0.00647481419694,0.0117265647887,-0.999910278205,0.0,0.299443507839,-0.214915274865,0.304921277226,1.0,-0.201989142857,-0.265471444898,2.162
-0.494562487091,-0.530226530233,-0.138958244314,-2.64822027485,-0.0748299521163,2.10892167952,-0.749484596974,-0.912432757019,-0.0117385045482,0.0526171452881,-0.00944246669744,0.0232897170705,-0.00956949916683,-0.876359438441,0.573976425838,0.81883879275,0.00590262406241,0.0,0.818834694523,-0.5738869853,-0.0120090819583,0.0,-0.00644618715332,0.0117264290812,-0.999910464758,0.0,0.296245696178,-0.219126486106,0.304932122993,1.0,-0.188786857143,-0.248119869388,2.178
-0.509370782152,-0.530306338148,-0.138018099016,-2.64830363801,-0.0744680882084,2.10882197866,-0.763807333235,-0.852573398937,-0.00414002421885,0.0507399597337,-0.0025023003533,0.0196952971861,-0.00726225777794,-0.822287489791,0.573860366519,0.818920031065,0.00591687081876,0.0,0.818916235141,-0.573771104457,-0.0119860925179,0.0,-0.00642084537371,0.0117239907433,-0.999910656402,0.0,0.293133335022,-0.223192800026,0.304939886939,1.0,-0.174759428572,-0.229683820408,2.195
-0.523317363628,-0.530186170397,-0.137114496497,-2.64827214799,-0.0740890709141,2.10880491482,-0.777143708422,-0.791681986079,0.0150512961626,0.0582775062139,0.00520117499957,0.0326536319438,0.00059034148649,-0.761695885187,0.573886489567,0.818901612255,0.00593240600357,0.0,0.818898071899,-0.573797256774,-0.0119750932784,0.0,-0.00640254817057,0.0117306059323,-0.999910696143,0.0,0.290194096238,-0.227005338564,0.304932875327,1.0,-0.160732,-0.211247771429,2.212
-0.536087858167,-0.52989417883,-0.136159515233,-2.64809973212,-0.0736302516457,2.10881988048,-0.789403253472,-0.734421304062,0.0209364704354,0.0524280204575,0.0149332536164,0.0252839706916,0.000953335156834,-0.705990499792,0.573837126853,0.818936009617,0.00595910224201,0.0,0.818932814256,-0.573747791458,-0.0119693121927,0.0,-0.00638320191097,0.0117487662887,-0.999910606616,0.0,0.287529570718,-0.230454543819,0.30493120064,1.0,-0.146704571429,-0.192811722449,2.229
-0.547904544072,-0.529424226659,-0.135247659436,-2.64784779255,-0.0731742617341,2.10884190512,-0.800622020866,-0.667108753062,0.037307299221,0.0574370216175,0.0186439460443,0.0329914801866,0.000104091599582,-0.643719191298,0.573892999828,0.818896716586,0.00597822834572,0.0,0.81889314598,-0.573802427059,-0.012063874605,0.0,-0.00644886952981,0.0118191309589,-0.999909356004,0.0,0.285055287471,-0.233628039597,0.304899995474,1.0,-0.132677142857,-0.17437567347,2.246
-0.558556303419,-0.528870051728,-0.134278758231,-2.64754504411,-0.0726622559427,2.10893294087,-0.810831187819,-0.60721863805,0.0416168476669,0.0536924954759,0.0158979593162,0.030505855272,0.000142003774432,-0.572977577971,0.573808022314,0.818956117542,0.00599816381585,0.0,0.81895236032,-0.573716564218,-0.0121277520272,0.0,-0.00649097575007,0.0118714403824,-0.999908463879,0.0,0.282859738923,-0.236445765155,0.304868283265,1.0,-0.118649714286,-0.15593962449,2.263
-0.567834284889,-0.528328836232,-0.133500630804,-2.64719308719,-0.0722096934232,2.10901861025,-0.819442411612,-0.561288390363,0.038644314333,0.0449161979015,0.027711951396,0.0273072179265,0.00991804167147,-0.513333910031,0.574018056083,0.818808578672,0.00604397921476,0.0,0.818805236002,-0.573926017209,-0.0121515088366,0.0,-0.00648108754146,0.0119242568871,-0.99990789956,0.0,0.280933621612,-0.238918777818,0.304858036524,1.0,-0.105447428572,-0.13858804898,2.279
-0.576378968583,-0.527669790545,-0.132534951621,-2.64675686069,-0.0716680011682,2.10915635149,-0.827612166665,-0.480800757447,0.0395442314828,0.0564096741233,0.0231800614042,0.0321613539299,0.00963288538615,-0.45084792296,0.573899189416,0.818891819287,0.00605438634471,0.0,0.818888571992,-0.573807055217,-0.0121538860339,0.0,-0.00647879298295,0.0119332028824,-0.999907807706,0.0,0.279234445982,-0.241144071882,0.304852035793,1.0,-0.0914200000001,-0.120152,2.296
-0.584043961317,-0.527093114362,-0.131627179491,-2.64633462001,-0.07117177597,2.10926481775,-0.83467972421,-0.43129260076,0.02914121503,0.050593412957,0.0247484369956,0.0295138419346,0.00753026291865,-0.394589422802,0.573982561075,0.818833430517,0.00604810305924,0.0,0.818830290388,-0.573890785553,-0.0121271885242,0.0,-0.00645932112797,0.0119133940818,-0.99990816989,0.0,0.277709952902,-0.243125135899,0.304865487143,1.0,-0.0773925714287,-0.101715951021,2.313
-0.590642329465,-0.526528249599,-0.130699529162,-2.64590922866,-0.0706211533948,2.10939047849,-0.840635223228,-0.368132655701,0.0359669775595,0.0525471137946,0.0229508370753,0.0325674543383,0.0019535508045,-0.322897003197,0.574111957486,0.818742590953,0.00606439884369,0.0,0.818740005459,-0.574020717449,-0.0120733716082,0.0,-0.00640401627407,0.0118968620013,-0.999908722459,0.0,0.276445338643,-0.244794687432,0.304886412332,1.0,-0.0633651428573,-0.083279902041,2.33
-0.59608796749,-0.525973134781,-0.129741039093,-2.6455301436,-0.0700533201794,2.10949061399,-0.845639464485,-0.289674190379,0.02991622496,0.0619444081186,0.017923616697,0.0372563945792,0.00680109784884,-0.27022283894,0.574059272889,0.818779453176,0.00607496238567,0.0,0.818776904021,-0.573967810099,-0.0120864102597,0.0,-0.00640939492704,0.0119125841338,-0.999908500812,0.0,0.275447401496,-0.24611686032,0.304888168495,1.0,-0.0493377142858,-0.0648438530614,2.347
-0.600390579884,-0.525567594354,-0.128711038986,-2.6452797879,-0.0694789122441,2.10956818435,-0.849488034646,-0.237777343431,0.0204775664067,0.0595213825897,0.0128532427665,0.0315251774179,0.000660125646602,-0.203140016249,0.573961930909,0.818847815783,0.00605832949443,0.0,0.818844925886,-0.573870330999,-0.0121069174821,0.0,-0.00643715131894,0.0119099714051,-0.999908353632,0.0,0.274710043455,-0.247071904202,0.304885735634,1.0,-0.0353102857144,-0.0464078040818,2.364
-0.603600195208,-0.52528839031,-0.127735427168,-2.64510625081,-0.0689657816689,2.10959945348,-0.852191821615,-0.183410545212,0.0169416956867,0.0577783426116,0.00397706011079,0.0305267003777,0.000979404359646,-0.142113024003,0.573914819968,0.818881149148,0.00601580349279,0.0,0.818877569303,-0.573823166094,-0.0121345559022,0.0,-0.0064848765287,0.0118906369392,-0.999908275358,0.0,0.274200869356,-0.247720753147,0.304889091398,1.0,-0.0221080000001,-0.0290562285716,2.38
-0.606073014197,-0.525031299549,-0.126947931861,-2.64492506936,-0.068474882071,2.10968730394,-0.854181107294,-0.131938624174,0.0106797937378,0.0342501043238,0.00475337019186,0.0264784332764,0.00194964894165,-0.109942205498,0.573973021385,0.818840206709,0.00603601685509,0.0,0.818837209028,-0.573881854086,-0.0120826140605,0.0,-0.00642989344617,0.011877838379,-0.999908782553,0.0,0.273844005916,-0.248221312821,0.304904096785,1.0,-0.0196915789474,-0.0258803609023,2.397
-0.607984539178,-0.524839319268,-0.126405405244,-2.6447526897,-0.0681854013722,2.10973100085,-0.85589071353,-0.10569291137,0.0110858212821,0.0270756185238,0.0141675951218,0.0105708496362,-0.000173628324569,-0.0999894491526,0.573887193401,0.818900561965,0.00600880732294,0.0,0.818897556519,-0.573796799854,-0.0120320948212,0.0,-0.0064053781212,0.011825890447,-0.999909555633,0.0,0.273550086587,-0.248637120013,0.304929046186,1.0,-0.0193515789474,-0.0254335037594,2.414
-0.609697289974,-0.524657081577,-0.126067023033,-2.64457517951,-0.0679910414416,2.10975996505,-0.857475265796,-0.0997796976821,0.013262016223,0.0176288680047,0.00485202937445,0.0134439320256,0.00289142826375,-0.0893810712597,0.573844946276,0.818930216636,0.00600206753053,0.0,0.818927408006,-0.573755115461,-0.0119881108236,0.0,-0.00637383196083,0.0117948015034,-0.999910124423,0.0,0.273253623751,-0.249053616052,0.304953629932,1.0,-0.0190115789474,-0.0249866466165,2.431
-0.611210455153,-0.524457632105,-0.125879198153,-2.64442716058,-0.0678601447916,2.10983959122,-0.858928456984,-0.0848345662198,0.0123079218446,0.0107976149475,0.010249961704,0.00890528713376,0.0024741482817,-0.0855489296751,0.573824892031,0.818944176175,0.00601468999004,0.0,0.818941789746,-0.57373549248,-0.0119447300949,0.0,-0.00633134792171,0.0117800912455,-0.999910567743,0.0,0.272970461858,-0.249454984999,0.304959154847,1.0,-0.0186715789474,-0.0245397894737,2.448
-0.612618542187,-0.524303736917,-0.125762227941,-2.64429035845,-0.0678090537867,2.10983848857,-0.860346507298,-0.090331023481,0.00637316698788,0.00545290103573,0.00981509206297,0.000849507361638,-0.00105555881579,-0.0882878118343,0.573762950472,0.818987669621,0.00600171448951,0.0,0.818985074678,-0.573673542443,-0.0119524498187,0.0,-0.0063460063916,0.0117734141374,-0.999910553461,0.0,0.272676565677,-0.249838766585,0.304967631301,1.0,-0.0183515789474,-0.0241192180451,2.464
-0.614082251449,-0.524163225457,-0.125698456848,-2.64413257757,-0.0677826470828,2.1098468866,-0.861735613224,-0.080471500161,0.0128894071172,0.0046162688249,0.0104949501893,0.000733771941406,0.000784460423061,-0.0789436262372,0.573798280947,0.818962995189,0.00599100951011,0.0,0.818960495156,-0.573709343354,-0.0119182054922,0.0,-0.00632359288388,0.0117452720712,-0.99991102642,0.0,0.272361855091,-0.250258568056,0.304990069751,1.0,-0.0180115789474,-0.0236723609023,2.481
-0.615465401399,-0.523989752929,-0.125678827889,-2.64396540872,-0.0677400273675,2.10991543058,-0.863138902953,-0.0804656308029,0.0153997184833,0.000332428478037,0.0115078401523,0.000395143723065,0.0014319634492,-0.0788152066213,0.573794708798,0.818965353873,0.00601067494293,0.0,0.818963535207,-0.573706489004,-0.0118464921731,0.0,-0.00625362383825,0.0117202037772,-0.999911760613,0.0,0.272070153315,-0.250674162183,0.305008773392,1.0,-0.0176715789474,-0.0232255037594,2.498
-0.616810252328,-0.523805937889,-0.125682892007,-2.6438193134,-0.067705890628,2.10994933229,-0.864439333287,-0.0797225156571,0.0119890937385,-0.00135474885893,0.00838096441232,0.000188579702067,-4.89526532666e-05,-0.0727746295268,0.573856230828,0.818922039211,0.006038786021,0.0,0.818920587411,-0.573767892639,-0.0118416127306,0.0,-0.00623261611269,0.0117408954927,-0.999911649032,0.0,0.271770876127,-0.251075122383,0.305010564985,1.0,-0.0173315789474,-0.0227786466165,2.515
-0.61816811138,-0.523630266232,-0.125682900307,-2.64370364148,-0.0676841956302,2.10994523462,-0.86573676917,-0.0812925259323,0.00953739289821,0.000131541422144,0.0082588773001,0.000458508405163,0.00012233493611,-0.0832997339872,0.573921240888,0.818876317461,0.00606076397523,0.0,0.818874782567,-0.57383210856,-0.0118974183233,0.0,-0.00626477374876,0.0117914148911,-0.999910853599,0.0,0.271454315157,-0.251467069133,0.304998348459,1.0,-0.0169915789474,-0.0223317894737,2.532
-0.619480927842,-0.523458361036,-0.125668391152,-2.64360200589,-0.0676612318171,2.10995538221,-0.867089999074,-0.0754109432419,0.00869367680474,0.00119998244371,0.00596275551901,0.00121615485181,0.000308453729562,-0.07484396133,0.573893263276,0.818895798802,0.00607782622299,0.0,0.818894139831,-0.573803417134,-0.0119487713495,0.0,-0.00629744244874,0.0118346435124,-0.999910137678,0.0,0.271150771031,-0.251841519616,0.304982688777,1.0,-0.0166515789474,-0.0218849323308,2.549
-0.62065096956,-0.523275584482,-0.125606864048,-2.64350021532,-0.0676215007755,2.10998545247,-0.86825936167,-0.0737503789743,0.0126855583804,0.001195622635,0.00696342279738,-0.000214063295524,0.00351004702145,-0.0751578042283,0.573872857759,0.818910067837,0.00608200815881,0.0,0.818908188465,-0.573782482876,-0.0119911680181,0.0,-0.00633006034618,0.0118622405269,-0.999909604707,0.0,0.270897080896,-0.252167255068,0.304965932342,1.0,-0.0163315789474,-0.0214643609023,2.565
-0.621866499392,-0.523104880504,-0.125530434925,-2.64338219197,-0.0675942423216,2.11002095367,-0.869497763104,-0.0736187140746,0.010060583512,0.0041967575853,0.00703421753984,-0.000164257322692,0.00293227308958,-0.0734551958886,0.573817996499,0.818948624902,0.0060665943026,0.0,0.81894649737,-0.573727608493,-0.0120005250053,0.0,-0.0063473630167,0.0118545616076,-0.999909586089,0.0,0.270638565437,-0.252508011739,0.304961784027,1.0,-0.0159915789474,-0.0210175037594,2.582
-0.622961453911,-0.52293061258,-0.125437220239,-2.64327379831,-0.0675703838038,2.11003896378,-0.870656449886,-0.0716803571481,0.0138943488655,0.00583888544237,0.00585130229872,0.00111629594557,0.00160944296847,-0.0645319614557,0.573720299971,0.819017293182,0.00603637072472,0.0,0.819014547535,-0.57362964163,-0.0120396042768,0.0,-0.00639812611398,0.0118514689926,-0.999909299219,0.0,0.270394646298,-0.252828433422,0.304950250455,1.0,-0.0156515789474,-0.0205706466165,2.599
-0.624096635247,-0.522751629981,-0.125355807187,-2.64316435003,-0.0675368811797,2.11006832895,-0.871779392715,-0.0637272860577,0.0123550874067,0.00511695541815,0.00635554388392,0.00427060854366,-0.00119490376402,-0.0730098084647,0.573688546269,0.819039586116,0.00602952360727,0.0,0.819036535493,-0.573597524774,-0.0120739389871,0.0,-0.0064306379838,0.0118653090752,-0.999908926521,0.0,0.27016759644,-0.253121339457,0.304939336874,1.0,-0.0153315789474,-0.020150075188,2.615
-0.625220013552,-0.522578071861,-0.125333264539,-2.64305082185,-0.0675126149012,2.11009562227,-0.872999351231,-0.0683432958413,0.00912802847347,-0.000288953488674,0.00527852650323,0.00161467128317,0.00503738887656,-0.071471796184,0.573609954773,0.819094553651,0.00603977371639,0.0,0.819091455354,-0.573518571221,-0.0120988896815,0.0,-0.00644633636299,0.0118873994757,-0.99990856306,0.0,0.26991715505,-0.253446485099,0.304930085792,1.0,-0.0149915789474,-0.0197032180451,2.632
-0.626307567928,-0.522431461801,-0.12533564387,-2.64295019702,-0.0674858898085,2.11013631906,-0.874050124866,-0.0666479651584,0.00593756515533,0.000105940415117,0.00720176352872,0.000618688866989,0.000708887086965,-0.0628817665573,0.57365854413,0.81906035615,0.00606255973968,0.0,0.81905754671,-0.5735670365,-0.012096971501,0.0,-0.00643098917891,0.0119053455816,-0.999908448372,0.0,0.269670098285,-0.253766046453,0.304925412623,1.0,-0.0146715789474,-0.0192826466165,2.648
-0.627438248756,-0.522276521265,-0.125348817053,-2.6428390473,-0.0674645525189,2.11014900649,-0.875158126894,-0.0662650152161,0.00847390162022,-0.00070917193906,0.00605084013549,0.00179329433226,0.0025398918585,-0.0711985452225,0.573698517233,0.819032173076,0.00608750301747,0.0,0.819029562832,-0.573606658831,-0.0121129291846,0.0,-0.00642917022739,0.0119352442381,-0.999908103635,0.0,0.269396339245,-0.254116347882,0.304922229658,1.0,-0.0143115789474,-0.0188095037594,2.666
-0.628547837386,-0.522129174414,-0.125350612568,-2.64272110681,-0.0674349637272,2.11017130746,-0.87627588852,-0.0642135810082,0.0094743978938,-0.000679897339182,0.00851125631538,0.00105343357375,-0.000485636758765,-0.0707518332282,0.573714870928,0.819020524452,0.00611345269615,0.0,0.819018180133,-0.573622760259,-0.0121200835584,0.0,-0.00641990518519,0.011960731357,-0.999907858616,0.0,0.269154741589,-0.254425026555,0.304921164527,1.0,-0.0139915789474,-0.0183889323308,2.682
-0.629741067186,-0.521965763647,-0.125327333561,-2.64257825646,-0.0674101737358,2.11021110344,-0.877434743317,-0.061416778779,0.00681544574624,0.00118642449292,0.00721482392474,0.00233081764,0.00160839927561,-0.066828415721,0.573744539221,0.818999706012,0.00611818328916,0.0,0.818997590823,-0.573652713928,-0.0120936731644,0.0,-0.00639512544411,0.0119496863797,-0.999908149465,0.0,0.268894273824,-0.254777014552,0.304930018723,1.0,-0.0136115789474,-0.0178895037594,2.701
-0.63064865287,-0.521826155637,-0.12528902784,-2.64245890892,-0.0673881331103,2.11024571284,-0.878319557078,-0.0578799055428,0.00828189596134,0.00678289542896,0.0137141879996,-0.000503632996491,-7.88411077688e-05,-0.0539645887281,0.573751677433,0.81899474587,0.00611275559917,0.0,0.818992692791,-0.573660122571,-0.0120739317358,0.0,-0.00638196539994,0.0119339705211,-0.999908421239,0.0,0.268703375692,-0.255042709243,0.304936841027,1.0,-0.0133115789474,-0.0174952180451,2.716
-0.631733394912,-0.521652729637,-0.125243542058,-2.64232561182,-0.0673559766505,2.11028577478,-0.879517534074,-0.0510204544764,0.0022373393932,0.00269332716663,0.00517226452125,0.00246269387011,-0.000225959129953,-0.0663307984224,0.573647454566,0.819067737128,0.00611447192449,0.0,0.819065742453,-0.57355598173,-0.0120661618416,0.0,-0.0063761346884,0.0119301072049,-0.999908504539,0.0,0.268472780352,-0.255356903605,0.304938211732,1.0,-0.0129315789474,-0.0169957894737,2.735
-0.632575529256,-0.521510624686,-0.125204514385,-2.64223023308,-0.0673391939561,2.11030078176,-0.880377832072,-0.0573870568147,0.00723346960529,0.000616804009345,0.00892675097887,0.00109002833716,-0.00123255535316,-0.0574297125286,0.573617210006,0.819088960023,0.00610891606028,0.0,0.819086725764,-0.573525455371,-0.0120927506951,0.0,-0.00640154297493,0.0119405718618,-0.999908217284,0.0,0.268288934992,-0.255596322354,0.304931550638,1.0,-0.0126315789474,-0.0166015037594,2.75
-0.633533762063,-0.521364622891,-0.125158289932,-2.6421361366,-0.0673246967023,2.11031690334,-0.881295528531,-0.0542983316515,0.00841763413135,0.00337915673963,0.00507266473936,0.000510100413949,0.0046997363997,-0.0542779833505,0.573628926973,0.819080830194,0.00609874169482,0.0,0.819078279507,-0.573536872359,-0.0121233240161,0.0,-0.00643225290361,0.0119498662732,-0.999907909169,0.0,0.268076303833,-0.255865142466,0.304923132301,1.0,-0.0122915789474,-0.0161546466165,2.767
-0.634411764977,-0.521230619573,-0.125146197639,-2.6420627639,-0.0673090079023,2.11033751249,-0.882192746968,-0.0577687230739,0.00640890902997,9.62343562708e-06,0.00686264016423,-0.000241430062186,0.00534439228518,-0.0498917674701,0.5736153638,0.819090256788,0.00610839985202,0.0,0.819087599264,-0.57352283693,-0.0121575964669,0.0,-0.00645498627824,0.0119773292911,-0.999907434083,0.0,0.267872916974,-0.256115294397,0.30490927683,1.0,-0.0119715789474,-0.015734075188,2.783
-0.63532476272,-0.52107775237,-0.125141731189,-2.64197383978,-0.0672942343264,2.11035270232,-0.883129257994,-0.0546384926141,0.00423414399574,0.000563801028321,0.0067743185124,-0.000309123273974,0.00161853771882,-0.0536332591673,0.573604110497,0.819098046724,0.00612055351719,0.0,0.819095256337,-0.573510990758,-0.0122004683598,0.0,-0.00648329991459,0.0120117864174,-0.999906837565,0.0,0.267660945189,-0.256379304876,0.304894905452,1.0,-0.0116315789474,-0.0152872180451,2.8
-0.636211170203,-0.520939806067,-0.125148234146,-2.64188205017,-0.067289990357,2.11038145259,-0.883951448974,-0.0475525613314,0.00371161608655,-0.000842638919179,0.00859984583965,-8.12614469588e-06,0.0003926960074,-0.0432092586252,0.573668048144,0.819053228788,0.00612583475074,0.0,0.819050424581,-0.573574737245,-0.0122135043387,0.0,-0.00649001105866,0.0120240962496,-0.999906646075,0.0,0.267455438085,-0.256642379926,0.304888205245,1.0,-0.0112915789474,-0.0148403609023,2.817
-0.637087409056,-0.520782714845,-0.125135180666,-2.64176032329,-0.0672821451831,2.11042063467,-0.884802500326,-0.0496546436781,0.0126818114219,-7.74582174806e-05,0.00716735918203,0.000214910003321,0.00234958564723,-0.0570677895581,0.573689169319,0.819038476665,0.00612026546181,0.0,0.819035660029,-0.57359599102,-0.0122054736813,0.0,-0.00648631771975,0.0120150950473,-0.999906778242,0.0,0.267265007182,-0.256906604564,0.304889417967,1.0,-0.0109515789474,-0.0143935037594,2.834
-0.637943017302,-0.520664955274,-0.125132316846,-2.64163469665,-0.0672791056837,2.11045867646,-0.885678000624,-0.0501481153607,0.00396253202496,-0.0010991483429,0.00753450541708,-0.000202408991224,0.00320947117325,-0.0634940130044,0.573678525766,0.819045974737,0.00611451080643,0.0,0.819043410849,-0.573585983944,-0.0121555365345,0.0,-0.00644886973285,0.0119816507495,-0.999907421777,0.0,0.267078626677,-0.257169410762,0.304906516173,1.0,-0.0106115789474,-0.0139466466165,2.851
-0.638735601237,-0.520546346056,-0.125117720886,-2.64152204292,-0.0672675155578,2.11048354694,-0.886432687932,-0.0515016128075,0.00596527504011,0.00245422978398,0.00686915071428,0.000798188079968,0.000627918544564,-0.0420562759436,0.57370995297,0.819023982233,0.00611173397457,0.0,0.819021536467,-0.573617703795,-0.012132584118,0.0,-0.00643120237095,0.0119664564054,-0.999907717521,0.0,0.266906356311,-0.257406671745,0.30491656259,1.0,-0.0102915789474,-0.013526075188,2.867
-0.63953941298,-0.520428764276,-0.125107059925,-2.64141653611,-0.0672597435895,2.11050631399,-0.887193519126,-0.0437601224232,0.00283134963373,-0.000487144820805,0.00223263647421,0.000307380258801,0.00356342387182,-0.0412406264778,0.573746366567,0.818998495295,0.00610888346366,0.0,0.818996113247,-0.573654310053,-0.0121180009103,0.0,-0.00642036079479,0.0119560409962,-0.999907911785,0.0,0.266727830261,-0.257645982071,0.304923460119,1.0,-0.00995157894737,-0.0130792180451,2.884
-0.64031101237,-0.520324840616,-0.125105944491,-2.64132433643,-0.0672526242874,2.11053031339,-0.887959481189,-0.0438275102247,0.00146426801301,0.000501460272718,0.00880241365032,-0.0001114121888,0.00526656007448,-0.0512198642591,0.573757996557,0.818990327791,0.00611156881136,0.0,0.818988084388,-0.573666118943,-0.0121015911565,0.0,-0.00640520946749,0.0119489167842,-0.999908094116,0.0,0.266552703614,-0.257875769087,0.304929209673,1.0,-0.00961157894737,-0.0126323609023,2.901
-0.641123875419,-0.520227374659,-0.125098847538,-2.64126016115,-0.0672408095246,2.11055258864,-0.888774282786,-0.0449322002718,0.0017415794704,0.0031834141861,0.00482525198528,0.000333632955358,0.000640476553777,-0.0444679269119,0.573759854236,0.818988965801,0.00611967846701,0.0,0.818986781483,-0.57366785362,-0.0121075340149,0.0,-0.00640539727399,0.0119589829704,-0.999907972572,0.0,0.266361811343,-0.258107373658,0.30492459494,1.0,-0.00923157894737,-0.0121329323308,2.92
-0.64180073303,-0.520145798245,-0.125080749508,-2.6412083276,-0.0672270355843,2.11056838733,-0.889469820878,-0.0464975607496,0.00550754197595,0.00138638305463,-0.000521331496687,0.00021633617412,0.00385520154898,-0.0446994901711,0.573740391216,0.819002565029,0.00612444805572,0.0,0.819000375181,-0.57364824731,-0.0121169597333,0.0,-0.00641066563418,0.011968144897,-0.999907829189,0.0,0.266204865976,-0.258296241189,0.304919923456,1.0,-0.00891157894737,-0.0117123609023,2.936
-0.642485170414,-0.520072121738,-0.125066175873,-2.6411468047,-0.0672196096735,2.11058621892,-0.890131927584,-0.0391347634636,0.00624709480719,0.00168759958084,0.00599972621049,0.00143300111085,0.00381921730798,-0.0350398670108,0.573754715153,0.818992538292,0.00612339474109,0.0,0.818990397478,-0.57366269006,-0.0121075915509,0.0,-0.00640338732242,0.0119620195403,-0.999907949123,0.0,0.266047248558,-0.258491336785,0.304922644763,1.0,-0.00857157894737,-0.0112655037594,2.953
-0.64296258928,-0.519997070248,-0.125044912188,-2.64109969672,-0.0672119291258,2.11060763157,-0.890591294585,-0.0381479871805,0.00726329077297,0.000129167759477,0.00802432923576,4.51302235529e-05,0.000386838446636,-0.0387456451168,0.573760235907,0.818988707546,0.00611845612322,0.0,0.818986482518,-0.573668194344,-0.0121116122645,0.0,-0.00640943339989,0.0119603246422,-0.999907930661,0.0,0.265941709221,-0.25862659344,0.304918772503,1.0,-0.00833157894737,-0.010950075188,2.965
-0.643726273623,-0.519869110552,-0.125009130258,-2.64098085296,-0.0672009945726,2.11062775983,-0.891314113184,-0.0360034132883,0.00885443235918,-0.000760552095341,0.00721319524115,-0.000455794325546,-0.000911128503616,-0.0390074146733,0.573779114151,0.818975589197,0.00610404496699,0.0,0.818973286075,-0.573687336489,-0.0120972537964,0.0,-0.00640566558557,0.0119404312222,-0.999908192561,0.0,0.265780639222,-0.258851603157,0.304928261439,1.0,-0.00793157894737,-0.0104243609023,2.985
-0.644356117191,-0.519760115452,-0.124984620441,-2.64089150649,-0.067191050459,2.11066448101,-0.891932907697,-0.0381893577768,0.006296216561,0.00303030359771,0.00733627441453,0.000226038815589,0.00159809387532,-0.0407649626001,0.57377966894,0.818975268689,0.00609489037733,0.0,0.818972985086,-0.573688189762,-0.0120771490248,0.0,-0.00639444285306,0.0119214026592,-0.999908491443,0.0,0.265647778718,-0.259038641674,0.304932470074,1.0,-0.00759157894737,-0.0099775037594,3.002
-0.644918735958,-0.51966193746,-0.124971072223,-2.64080869209,-0.06717932706,2.11069112751,-0.892502461181,-0.037124901892,0.0079223030965,0.00125281033143,0.0032797394518,6.83823381057e-05,0.00335606366939,-0.0396050794623,0.573773675375,0.8189794766,0.00609370620087,0.0,0.818977270688,-0.57368237626,-0.0120626766146,0.0,-0.00638335562607,0.0119120825133,-0.99990867336,0.0,0.265527132671,-0.259207096931,0.30493657058,1.0,-0.00727157894737,-0.00955693233083,3.018
-0.645603110141,-0.519560081531,-0.124960379755,-2.64075171473,-0.0671646684335,2.11070552067,-0.89313141455,-0.0323926263878,0.00300277931084,0.00388939106665,0.000458615364307,0.00196673286747,0.000345929054115,-0.0271605381713,0.573820855358,0.818946356882,0.00610224600493,0.0,0.818944090351,-0.573729188649,-0.0120889152953,0.0,-0.00639925969601,0.0119344997948,-0.999908304391,0.0,0.265366450897,-0.259399765035,0.304926463835,1.0,-0.00687157894737,-0.00903121804512,3.038
-0.646064004417,-0.519515485427,-0.124953838461,-2.6407080117,-0.0671590402248,2.11071218752,-0.89355862905,-0.0318633529048,0.000149054579553,-0.00126920334884,0.00015842014393,0.00206918768639,0.000684165381649,-0.0329457624205,0.573848433234,0.818927023329,0.00610352670158,0.0,0.818924827787,-0.573756856441,-0.0120806879883,0.0,-0.00639138461446,0.011931043137,-0.999908396011,0.0,0.265258926854,-0.259531384038,0.304930634518,1.0,-0.00659157894737,-0.00866321804512,3.052
-0.646596441767,-0.519461126515,-0.124946160914,-2.64067270765,-0.0671431650896,2.11072724727,-0.894056568879,-0.0349007798107,0.00319994456043,0.00262806305549,0.00730960331968,0.00267103900977,0.00245894023156,-0.0309055325187,0.573879897249,0.818904893452,0.00611440229333,0.0,0.818902830284,-0.573788249106,-0.0120808377975,0.0,-0.00638480793048,0.0119402811848,-0.999908327755,0.0,0.26513309812,-0.259679497484,0.3049281446,1.0,-0.00625157894737,-0.00821636090226,3.069
-0.647119768094,-0.519402131478,-0.124935044332,-2.64061065457,-0.0671270915179,2.11074179114,-0.894552050159,-0.0318284564236,0.00356945228451,0.00313565388604,4.6714429345e-05,0.000534417860272,-0.000176483372685,-0.0302959730194,0.573904817566,0.818887386489,0.00612009194515,0.0,0.818885528354,-0.573813384639,-0.0120597662962,0.0,-0.00636392235586,0.0119330424503,-0.999908547313,0.0,0.265016296388,-0.259831054781,0.304936138299,1.0,-0.00589157894737,-0.00774321804512,3.087
-0.647590022985,-0.519341704637,-0.124930070585,-2.64054508894,-0.0671177622895,2.1107668269,-0.895018890359,-0.0247408704835,0.00127892988652,-0.00105758222758,0.00492329964105,-4.90786564698e-05,0.00217520794857,-0.0263060127079,0.573911372752,0.818882784399,0.00612115533049,0.0,0.818881148384,-0.573820324966,-0.0120269022548,0.0,-0.00633630185866,0.0119151040922,-0.99990893664,0.0,0.264913710839,-0.259972873697,0.304945945979,1.0,-0.00555157894737,-0.00729636090226,3.104
-0.648079841477,-0.519298458887,-0.124916303433,-2.64045461735,-0.0671050597929,2.1107830769,-0.895488393439,-0.0230987818954,-0.000894033518849,0.00099016824484,0.00681569404032,-6.37363139349e-05,0.000521970879299,-0.0262870901047,0.573928042394,0.818871128979,0.00611744883787,0.0,0.818869867582,-0.573837803752,-0.0119608466598,0.0,-0.00628408959036,0.0118742884455,-0.999909751674,0.0,0.264812898608,-0.260123004456,0.304972854496,1.0,-0.00517157894737,-0.00679693233083,3.123
-0.648438517102,-0.519237914956,-0.124909580062,-2.64039689506,-0.0670903290422,2.11079465527,-0.895834842696,-0.0221223336557,0.00204807527021,-3.62946139127e-06,0.00158968467175,0.000172221821414,0.000569354948469,-0.0229518593803,0.573942520969,0.818860937124,0.0061233305751,0.0,0.818859818405,-0.57385238013,-0.0119494988261,0.0,-0.00627121072234,0.0118727034297,-0.999909851351,0.0,0.264736122192,-0.260230381906,0.304977949863,1.0,-0.00487157894737,-0.00640264661655,3.138
-0.648784932922,-0.519201374747,-0.124882626213,-2.64035178763,-0.0670722164189,2.11080443059,-0.89618266594,-0.0181485143759,0.00101454407986,0.00651318175828,0.00225335563053,0.00028222186664,0.000307700723304,-0.0180385467409,0.573932232301,0.818868149474,0.00612318578133,0.0,0.818867159621,-0.573842341957,-0.0119284689576,0.0,-0.00625422044546,0.0118604369155,-0.999910103341,0.0,0.264664549081,-0.260326647587,0.304986475035,1.0,-0.00455157894737,-0.00598207518798,3.154
-0.649107003302,-0.519158503418,-0.124854643528,-2.64033138519,-0.0670502153076,2.11081113717,-0.89650121516,-0.020576755948,-0.000947014913833,0.00406304669314,-0.000182870012522,0.00341492515825,-0.000318179847877,-0.0184798630884,0.573925799292,0.818872609981,0.00612963548477,0.0,0.818871617231,-0.573835719293,-0.0119410492633,0.0,-0.00626091493074,0.0118728893552,-0.999909913664,0.0,0.264593546415,-0.260408965792,0.304981207454,1.0,-0.00423157894737,-0.0055615037594,3.17
-0.649425326587,-0.519114089881,-0.124810516514,-2.64031767058,-0.0670291933558,2.11081604121,-0.896817556347,-0.0241927382875,0.00327139005154,0.00294332594791,0.00155897042228,0.00328496868754,0.000140058719343,-0.0118048624639,0.573905939357,0.818886537628,0.00612847158462,0.0,0.818885385111,-0.573815594368,-0.0119639714216,0.0,-0.00628064349069,0.0118849388928,-0.999909646791,0.0,0.264525065487,-0.26048485073,0.304972558405,1.0,-0.00389157894737,-0.00511464661655,3.187
-0.649703112229,-0.519060219204,-0.124765227963,-2.64031386407,-0.0670051423546,2.11082696813,-0.897096152995,-0.0151419547967,0.000366229139018,0.00158362634903,-0.000189067858371,0.004593535661,0.000570372960378,-0.020396381508,0.573883843983,0.818902010998,0.00612999992131,0.0,0.818900646665,-0.573793059401,-0.0120001156808,0.0,-0.00630968893532,0.0119067626568,-0.999909204292,0.0,0.264466114575,-0.260547580098,0.304956467621,1.0,-0.00357157894737,-0.00469407518798,3.203
-0.649969858158,-0.519004705294,-0.12472189806,-2.64029799767,-0.0669830810982,2.11083263065,-0.897371112361,-0.0174445959315,0.00370048141884,0.00317208192489,0.000389054390973,0.000171502222111,-0.00109078254449,-0.0156456640962,0.573856794097,0.818920969183,0.00612968211955,0.0,0.818919400257,-0.573765638811,-0.0120313965532,0.0,-0.00633588393437,0.0119242438383,-0.999908830336,0.0,0.264411321748,-0.260610332045,0.304944753884,1.0,-0.00323157894737,-0.00424721804512,3.22
-0.650244015104,-0.518945332399,-0.12468659926,-2.64028125854,-0.0669614810437,2.11084717817,-0.897655623076,-0.0135349466909,0.00375269861901,0.0013124637447,0.00167921048481,0.00339098707937,0.000544062822838,-0.0183799575498,0.573833542319,0.818937244081,0.00613211766778,0.0,0.818935541212,-0.573742069983,-0.0120566733193,0.0,-0.00635552730036,0.0119405625532,-0.999908510934,0.0,0.264354311128,-0.26067823738,0.304932583525,1.0,-0.00285157894737,-0.00374778947369,3.239
-0.650463362893,-0.518911734875,-0.124655843873,-2.64026134023,-0.0669366850775,2.11085118574,-0.897866901171,-0.00853747039634,0.00304954489909,0.00417899335034,0.000425564788452,0.00205273696355,0.00119978531135,-0.0179659708186,0.573829991073,0.818939685794,0.00613834492072,0.0,0.818938012922,-0.573738396486,-0.0120635936073,0.0,-0.00635767379131,0.0119496058709,-0.999908389255,0.0,0.264310508085,-0.260732086738,0.304930343586,1.0,-0.00251157894737,-0.00330093233083,3.256
-0.650652753113,-0.518856635204,-0.124630173252,-2.64023207327,-0.0669085252305,2.11085442775,-0.898072192408,-0.0143005354983,-0.002810136792,0.00179978960823,0.00410697954112,0.00405987507698,-0.000281347535081,-0.00987413917453,0.573812386042,0.818951938173,0.0061494299715,0.0,0.818950271458,-0.573720487029,-0.0120831512449,0.0,-0.00636758876885,0.0119697696464,-0.99990808499,0.0,0.264275245013,-0.260780706734,0.304924250016,1.0,-0.00217157894737,-0.00285407518798,3.273
-0.650829592044,-0.518844049469,-0.124608059692,-2.64021698842,-0.0668870352709,2.11085756882,-0.898246879637,-0.00861365665278,-2.96452899785e-05,0.000703291087732,0.000444977069394,0.000809217651815,-0.000536541135032,-0.0173801901077,0.573808382247,0.818954688954,0.00615668774622,0.0,0.818953160098,-0.573716533821,-0.0120750688744,0.0,-0.00635686310989,0.0119710451016,-0.999908137966,0.0,0.2642395511,-0.260824528141,0.304927271004,1.0,-0.00185157894737,-0.00243350375941,3.289
-0.650983339126,-0.518831217343,-0.124587668784,-2.64020490412,-0.0668712273013,2.11086233597,-0.898385719457,-0.0121989376234,-0.000947519590233,0.00131560847603,0.00165789291821,0.000239204416688,-0.000335176611324,-0.0124309016205,0.573813484739,0.818951090219,0.00615982638076,0.0,0.818949636195,-0.573721685483,-0.012069295104,0.0,-0.00635025867234,0.0119703423217,-0.999908188345,0.0,0.264208552034,-0.260862649512,0.304928932419,1.0,-0.00155157894737,-0.00203921804512,3.304
-0.651158722418,-0.518818410319,-0.124559723563,-2.64019013407,-0.0668498566456,2.11086274733,-0.898535982898,-0.0110826871146,0.00183714395251,0.00136461491565,0.00368485192258,-5.36000904847e-06,-0.000379063516935,-0.0101306395278,0.5738240911,0.81894362597,0.00616415920461,0.0,0.818942253976,-0.573732318965,-0.0120647308064,0.0,-0.00634387917735,0.0119713541079,-0.999908216727,0.0,0.264173977148,-0.26090434815,0.304931632698,1.0,-0.00119157894737,-0.00156607518798,3.322
-0.651305797533,-0.518823808593,-0.124531820282,-2.64019696357,-0.0668305924954,2.11086826647,-0.898647622451,-0.00702024429221,-0.000868056388309,0.00198429222657,-0.000567608335999,-0.000235826812124,0.00125550558069,-0.00091567938027,0.573841190159,0.818931614587,0.00616814464607,0.0,0.818930330736,-0.573749465451,-0.0120586565006,0.0,-0.00633636733899,0.011971265017,-0.999908265424,0.0,0.264142840944,-0.260934271035,0.304931656742,1.0,-0.000831578947374,-0.00109293233083,3.34
-0.651395447307,-0.518823476481,-0.124522877179,-2.64018972691,-0.0668154901803,2.11086706655,-0.898671660451,-0.00237367840954,-0.00170845508952,-0.000478064882839,0.00047696701211,0.000269309162885,0.000349399405601,-0.000328378504185,0.573895353173,0.818893600699,0.00617585962134,0.0,0.818892459637,-0.573803663414,-0.0120516514808,0.0,-0.00632541118381,0.0119739821949,-0.999908302258,0.0,0.264124215484,-0.260956152272,0.30493493992,1.0,-0.000511578947374,-0.000672360902262,3.356
-0.651430788382,-0.518817083802,-0.124519328408,-2.64018784508,-0.0667980087701,2.110866292,-0.898731164215,-0.00187794492878,0.000330205458829,-0.000358204068821,0.0011040904401,0.000220876399536,-0.000407816077959,-0.0091978114143,0.573880623014,0.818903819375,0.00618967235557,0.0,0.81890282089,-0.57378880564,-0.0120550139686,0.0,-0.00632045396159,0.0119871098681,-0.999908176314,0.0,0.264117500506,-0.260963207505,0.304933469365,1.0,-0.000171578947374,-0.000225503759405,3.373
-0.651420610781,-0.518814272139,-0.124496541862,-2.64019008975,-0.0667841828134,2.11086476665,-0.898742196325,0.0019829666999,-0.00122652283126,0.00247160764797,0.000488235492224,-0.000453523185174,0.000419914658467,-0.00297507936038,0.573852899991,0.818923237991,0.00619082802485,0.0,0.818922214655,-0.573761007844,-0.0120606435755,0.0,-0.00632480733434,0.0119910727535,-0.999908101271,0.0,0.264125547922,-0.260953307142,0.304931828175,1.0,0.0,0.0,3.389
-0.651412833176,-0.518811269161,-0.124462967352,-2.64019334698,-0.0667731341739,2.11086821844,-0.89875247501,0.000826776538767,-0.000792142662516,-0.000601432742875,-0.000452541879077,0.00185213331558,0.000370814412545,-0.00482288197274,0.573818873085,0.818947133509,0.00618387504717,0.0,0.818946008083,-0.573726996733,-0.0120629999103,0.0,-0.00633122503474,0.0119864675755,-0.999908115871,0.0,0.264135623619,-0.260942402621,0.304930332596,1.0,0.0,0.0,3.405
-0.651411750904,-0.518811026473,-0.124416830087,-2.64018778209,-0.0667580402254,2.1108717937,-0.898751037248,0.000169825540409,-0.000356260277162,0.00525920577041,-0.00137806324256,0.000405885526719,0.000408253941039,0.00105781283671,0.5737931294,0.818965256384,0.00617255140355,0.0,0.818964051224,-0.573701436044,-0.0120537124857,0.0,-0.00633049201352,0.0119716656035,-0.999908297842,0.0,0.264149161201,-0.260932442353,0.304934169726,1.0,0.0,0.0,3.422
-0.651411672435,-0.518800812961,-0.12439696312,-2.64018686279,-0.0667514513786,2.11086758542,-0.898761892421,5.87914320334e-05,0.00204694526772,-0.000861368300999,-0.000326821009296,-0.000234138747833,0.000226653148709,-0.0010008958931,0.573772988019,0.818979393227,0.00616916453288,0.0,0.818978061662,-0.573681158208,-0.0120669023997,0.0,-0.00634353308371,0.0119763036382,-0.999908159652,0.0,0.264153423879,-0.260926888026,0.304930937668,1.0,0.0,0.0,3.439
-0.651409234771,-0.518810373019,-0.12438694453,-2.64018705898,-0.0667459284567,2.11087044327,-0.898755111027,0.000853008420865,-0.00106678279998,-0.000312986034679,0.000672828330947,-0.00014999279245,-0.000770815851295,0.00106160202359,0.573771736352,0.818980278067,0.00616811168827,0.0,0.818979012828,-0.573680062563,-0.0120544293534,0.0,-0.00633393915251,0.0119682753087,-0.999908316598,0.0,0.264157360591,-0.260924011379,0.304934851716,1.0,0.0,0.0,3.455
-0.651414524484,-0.518806063674,-0.124385879414,-2.64018458766,-0.0667434907909,2.11087129419,-0.898760195984,-0.00164462909204,0.000207991308643,-0.000150645276881,0.000958706161785,0.000168043620824,-0.00068476214564,-0.000261552307912,0.573768010075,0.818982866178,0.00617109585226,0.0,0.81898166655,-0.573676374699,-0.0120496418193,0.0,-0.00632836013765,0.0119679437943,-0.99990835589,0.0,0.264159771238,-0.260924172666,0.304936149737,1.0,0.0,0.0,3.47
-0.651409234769,-0.518807867318,-0.124387129078,-2.64017939294,-0.0667394508102,2.11087129879,-0.898769222093,0.000713260453606,-0.000773963724605,2.90787005025e-05,0.000461855774237,-1.96148557123e-05,-4.00596162655e-05,-0.00234306524095,0.573763437042,0.818986057684,0.0061727250156,0.0,0.818984888587,-0.573671813199,-0.012047817589,0.0,-0.00632599807392,0.0119681961628,-0.999908367816,0.0,0.264159739917,-0.260925440592,0.304937484892,1.0,0.0,0.0,3.49
-0.651414524484,-0.518797210924,-0.124383154394,-2.64018468265,-0.0667397910742,2.1108708326,-0.898762915144,-0.00192731150304,0.0020485440445,-0.000233129566375,0.000212519747346,6.16645483228e-05,0.00683721808837,-0.000137122859012,0.573769779669,0.818981622209,0.00617165486484,0.0,0.818980336623,-0.573677965251,-0.0120642990886,0.0,-0.00634001889828,0.0119768247996,-0.999908175698,0.0,0.264157670443,-0.260924400322,0.304931210379,1.0,0.0,0.0,3.506
-0.651414524484,-0.518795182001,-0.124383136487,-2.64018711173,-0.0667356693007,2.110871652,-0.89876607059,-0.00111111198292,0.00203705837913,0.00122602011175,-0.000407441355796,-0.000159553044707,0.00562882491891,-0.00134493382902,0.573768838599,0.818982252389,0.00617551818915,0.0,0.818980992658,-0.573676961292,-0.0120675038304,0.0,-0.00634044103176,0.0119818203615,-0.999908113173,0.0,0.264157570314,-0.260923436327,0.30492943253,1.0,0.0,0.0,3.523
-0.651422319851,-0.518799389532,-0.124386554051,-2.64018217416,-0.0667363943407,2.11087129879,-0.898771191472,-0.00196366343473,0.000621349084704,-0.000670814320066,0.000222832263412,-0.000181071763379,0.000162233417965,-0.000730926612797,0.57377335027,0.818979089415,0.00617580136696,0.0,0.818977889086,-0.573681576092,-0.0120587454454,0.0,-0.00633303883313,0.0119770621367,-0.999908217089,0.0,0.264155897336,-0.260927604156,0.304933114604,1.0,0.0,0.0,3.54
-0.651421992459,-0.518802116522,-0.124384039606,-2.64018138482,-0.0667381578765,2.11087308321,-0.898768811587,-0.0006444856271,0.000572571102681,0.000105305151157,0.000428677858082,-0.000144089702893,0.00195579307109,-0.00189896850996,0.573772516975,0.818979697299,0.00617260699713,0.0,0.818978490579,-0.573680823453,-0.0120536995218,0.0,-0.00633075080734,0.0119715443643,-0.999908297655,0.0,0.264156897472,-0.260927646873,0.304934687634,1.0,0.0,0.0,3.553
-0.651422814047,-0.518807154321,-0.124388689884,-2.64017908169,-0.0667370509208,2.11087568415,-0.898769725173,-0.000334772218423,-0.00199888086072,0.000334798032734,2.37473780381e-05,0.000261574930376,3.2520538429e-05,-0.000385174452768,0.573776291607,0.818977034602,0.00617502108253,0.0,0.818975921055,-0.573684703629,-0.0120436064179,0.0,-0.0063210436301,0.0119677598231,-0.999908404371,0.0,0.264156820153,-0.260929809244,0.304937702841,1.0,0.0,0.0,3.573
