nelsonifechukwu/NELSON_IML_WORK/CNN-GradCAM/train2dof/data_sample_2022-02-21-15-28-11/robot_state.csv
position_joint1,position_joint2,position_joint3,position_joint4,position_joint5,position_joint6,position_joint7,velocity_joint1,velocity_joint2,velocity_joint3,velocity_joint4,velocity_joint5,velocity_joint6,velocity_joint7,ee_T_00,ee_T_10,ee_T_20,ee_T_30,ee_T_01,ee_T_11,ee_T_21,ee_T_31,ee_T_02,ee_T_12,ee_T_22,ee_T_32,ee_T_03,ee_T_13,ee_T_23,ee_T_33,v_x,v_y,time
0.465074045871,0.54786085875,-0.123908185427,-1.35586047682,0.0794734619708,1.89409744191,0.159167061461,-0.000271771678474,-0.000570464120788,0.000171914748225,0.00114155447757,-4.04415194781e-05,0.000211837809046,-0.00109003788125,0.573750349741,0.819016389039,0.00185406543465,0.0,0.818971779982,-0.573691983472,-0.0119782550674,0.0,-0.00874689314038,0.00839111685841,-0.999926537811,0.0,0.661650974163,0.260928359087,0.303141884595,1.0,0.0,0.0,0.0
0.465076110332,0.54786013089,-0.123911045185,-1.35585794335,0.0794734590674,1.89409751134,0.159168468758,0.00194424028142,0.000337820035755,0.000616124174445,0.00103493206204,7.13129446827e-05,0.00038004192862,-0.000778385925781,0.573751670148,0.819015459385,0.0018561225522,0.0,0.818970895017,-0.573693312044,-0.0119751297399,0.0,-0.00874313962309,0.00839102258952,-0.999926571429,0.0,0.661651707177,0.2609283854,0.303143706578,1.0,-0.00012,-0.000157714285714,0.007
0.465073487196,0.547861677283,-0.123909008073,-1.35586548539,0.0794734634492,1.89409432538,0.159173961868,0.000635433199117,0.000640795682268,0.000402294486643,0.000661681029759,7.47066188623e-06,0.000163974250741,0.0013397876012,0.573757285693,0.819011547404,0.00184641124298,0.0,0.818966833704,-0.573698946796,-0.011982931181,0.0,-0.00875504338529,0.00838760512585,-0.999926495946,0.0,0.661649515741,0.260926694562,0.303138677709,1.0,-0.00038,-0.000499428571429,0.02
0.465069573853,0.547844963387,-0.123911139865,-1.35587501767,0.0794702696337,1.8940953287,0.159166129023,-0.000448261297953,-0.00346119582845,0.000327063094145,-0.000987123901365,-0.000205569412382,0.000169020733904,-0.00179303912386,0.573755217457,0.819012983928,0.00185189077444,0.0,0.818968373746,-0.573696886034,-0.0119763375031,0.0,-0.00874652034202,0.00838828760489,-0.99992656481,0.0,0.661649664834,0.260921512354,0.303146132982,1.0,-0.00074,-0.000972571428571,0.038
0.465074669581,0.547806722879,-0.123906442085,-1.35590035604,0.079473820657,1.89409784425,0.159173148066,-0.000367655277405,-0.0104381228251,0.00140548158288,-0.00677579622305,0.000181683380462,0.00436887859632,0.00114331000773,0.573755785203,0.819012545593,0.00186976158532,0.0,0.818968089349,-0.573697301243,-0.0119758956184,0.0,-0.00873589977383,0.00840267624466,-0.999926536845,0.0,0.661642764852,0.260925847794,0.303161232916,1.0,-0.00102,-0.00134057142857,0.052
0.465074317247,0.547676517536,-0.12390887298,-1.35605770988,0.0794686873857,1.89412834148,0.159166824022,8.11935295597e-05,-0.0119902006496,-0.000812898048,-0.00905906080425,-0.000437756888752,0.000281899808671,-0.000136302158862,0.573759800364,0.819009718141,0.00187616017422,0.0,0.8189652812,-0.573701226826,-0.0119798760072,0.0,-0.00873544766282,0.0084102432342,-0.999926477179,0.0,0.661617154808,0.260908481298,0.303181298766,1.0,-0.00138,-0.00181371428571,0.07
0.46506233384,0.547536482851,-0.123906363065,-1.35626413571,0.0794667986816,1.89417166334,0.159162754458,-0.00162722128379,-0.00897340993085,0.00057684902293,-0.0138031154831,0.000169714173666,-0.000808565060764,-0.000297938480009,0.573775339822,0.818998859053,0.00186418435802,0.0,0.818954110442,-0.573716666329,-0.0120041104076,0.0,-0.00876200778824,0.0084145059763,-0.999926208932,0.0,0.661584817529,0.260881973735,0.303185925179,1.0,-0.00172,-0.00226057142857,0.087
0.465045667826,0.547384179784,-0.123908581258,-1.35646075089,0.0794648411825,1.89428898963,0.159152926588,-0.00231291629129,-0.0133774585316,0.000967601475967,-0.0101427252127,7.32112266451e-05,0.00231677486523,-0.00346009425463,0.573793250984,0.818986158309,0.0019299027872,0.0,0.818942250794,-0.573734278738,-0.0119713895321,0.0,-0.00869731838921,0.00844974413456,-0.999926476536,0.0,0.661572132491,0.26085599315,0.303210488409,1.0,-0.00204,-0.00268114285714,0.103
0.465026822068,0.547185064593,-0.123909699162,-1.35667919757,0.0794623241269,1.89440995063,0.159136842588,-0.000979595395652,-0.00956317376768,-0.000700985530096,-0.0121563917929,0.000324005377269,0.00493817123106,-0.00273892481801,0.573808032918,0.818975579891,0.00202183125842,0.0,0.81893283929,-0.573748643288,-0.0119266909966,0.0,-0.00860781146066,0.00849953875545,-0.999926829034,0.0,0.661556746739,0.260827391939,0.303258091007,1.0,-0.00238,-0.003128,0.12
0.464996441571,0.546974898419,-0.123909326338,-1.35698577746,0.0794539849101,1.89455493624,0.159120324957,-0.001574238042,-0.0148167554181,-0.000335024248353,-0.0163739536956,2.65652919564e-05,0.00938600640962,-0.00135379527598,0.573834267087,0.818957084377,0.00206755079296,0.0,0.818914890491,-0.573774637738,-0.0119085734569,0.0,-0.00856646732116,0.00852685982137,-0.999926951482,0.0,0.661529199987,0.260782382566,0.303273592676,1.0,-0.00272,-0.00357485714286,0.137
0.464961502359,0.546741776292,-0.12391183404,-1.35733985246,0.0794449892079,1.89467654898,0.159045861697,-0.00307922940027,-0.0147901603989,-0.00122934887843,-0.023099594165,-0.000934499528849,0.0143621765585,-0.00608354595078,0.57382100201,0.818966359931,0.00207505535188,0.0,0.818924147471,-0.573761227741,-0.0119181009651,0.0,-0.00857010245935,0.00853833396221,-0.999926822421,0.0,0.661488563324,0.26072565166,0.303280799635,1.0,-0.00304,-0.00399542857143,0.153
0.464916860076,0.546442135131,-0.123911914928,-1.35778961043,0.0794315945206,1.89484339625,0.158950126112,-0.00199124263858,-0.0143569023746,-0.000549684018513,-0.0235875784807,-0.000353030749518,0.00913525330138,-0.000588258227396,0.573800801523,0.818980456398,0.00209740558769,0.0,0.818938407074,-0.573740810466,-0.0119211881086,0.0,-0.00856001770314,0.00855819805465,-0.999926738988,0.0,0.66143894091,0.260655786241,0.303293398739,1.0,-0.0034,-0.00446857142857,0.171
0.464868294638,0.546152142987,-0.123906785041,-1.35828329398,0.0794113382791,1.89501354521,0.158928291934,-0.00403734707707,-0.0134542495493,0.00139850190246,-0.0279480956935,-0.00582070505905,0.00539133622456,0.000136655459911,0.573841291923,0.818952144791,0.00207439819567,0.0,0.818909663281,-0.573781258433,-0.0119489646994,0.0,-0.00859554495225,0.00855571879226,-0.999926455437,0.0,0.661379803189,0.260580107745,0.303278342319,1.0,-0.00374,-0.00491542857143,0.188
0.464813190117,0.545840156628,-0.123912571628,-1.358826015,0.0793610678843,1.89518693932,0.158853156392,-0.00326983201622,-0.0190918158249,-0.00099183569337,-0.0339523377288,-0.00890711063812,0.00676413813747,-0.00907963967433,0.57384578123,0.8189491489,0.0020143936432,0.0,0.818906026784,-0.573786137166,-0.0119639037897,0.0,-0.0086421640673,0.00851519875548,-0.999926399487,0.0,0.661316472776,0.260483610785,0.303256087284,1.0,-0.00406,-0.005336,0.204
0.46475106952,0.545473884588,-0.123912891683,-1.35946629847,0.0792855814005,1.89541065813,0.158760327896,-0.000610327004658,-0.0206230397272,-0.000236416326395,-0.0424876232306,-0.00595278174848,0.0170179114819,-0.00791525834,0.573836528906,0.81895578724,0.00195026675769,0.0,0.818912139125,-0.573777459284,-0.0119617102655,0.0,-0.00867725980619,0.00846132632768,-0.999926552862,0.0,0.661244121954,0.260374110717,0.303229951518,1.0,-0.0044,-0.00578285714286,0.221
0.46468501347,0.545067703664,-0.123913472729,-1.36015579339,0.0792667181844,1.89562807943,0.158692841762,-0.00294237174173,-0.0243723080627,0.000989056281502,-0.0386876388696,-0.000874303578746,0.0125007213588,-0.00699932322618,0.573869020442,0.81893312264,0.00190654700219,0.0,0.818888638621,-0.573809875112,-0.0120154759821,0.0,-0.00874604415729,0.0084567219292,-0.999925992544,0.0,0.661158090413,0.260265285752,0.303208180411,1.0,-0.00474,-0.00622971428571,0.238
0.464620712881,0.544658367299,-0.123915724851,-1.36083539914,0.0792455172038,1.89586447097,0.158584938174,-0.00583900597504,-0.0231735571728,-0.000837104169542,-0.0397460342407,-0.000939727128124,0.0180305024722,-0.0018106484194,0.573867089455,0.818934518977,0.00188790103364,0.0,0.818889588347,-0.573807829003,-0.0120484178599,0.0,-0.00878374200532,0.00846033587777,-0.999925631531,0.0,0.661078179243,0.260158787861,0.30319501093,1.0,-0.00506,-0.00665028571429,0.254
0.464552286228,0.54419180987,-0.123918171462,-1.36161647431,0.0792105873919,1.89615320499,0.158515243074,-0.00375567888517,-0.0269747632208,0.000538713524791,-0.0473754272608,0.000537597446985,0.0150560854685,-0.00401983412648,0.573902048913,0.818910060218,0.00187040885137,0.0,0.818864792489,-0.573842756134,-0.012070201141,0.0,-0.00881125821686,0.00845888798135,-0.999925401689,0.0,0.660988669488,0.260039492091,0.30317853044,1.0,-0.0054,-0.00709714285714,0.271
0.464475258532,0.543676446039,-0.12391614264,-1.36245674939,0.0791648774538,1.89643427492,0.158396923623,-0.00558661637551,-0.0350983237302,-0.00134106087927,-0.0488292415295,-0.000292211795506,0.0124477522851,-0.0072745959607,0.573908152477,0.818905840024,0.00184515498082,0.0,0.81886016421,-0.573848895516,-0.0120922903662,0.0,-0.0088437773225,0.00845095064087,-0.999925181719,0.0,0.660882942668,0.259901429606,0.303174769278,1.0,-0.00576,-0.00757028571429,0.289
0.464402359223,0.543158589519,-0.12392735519,-1.36326874317,0.0791133931193,1.89673217108,0.158282341754,-0.00322961590657,-0.0308854475029,-0.000627654641727,-0.0519032127343,-0.00214509107314,0.0176120364766,-0.0117333564941,0.573906407652,0.818907084355,0.00183557892306,0.0,0.818861319891,-0.57384722822,-0.0120931530909,0.0,-0.008849997251,0.00844358519246,-0.999925188911,0.0,0.660797416784,0.25977609434,0.303173563815,1.0,-0.00606,-0.00796457142857,0.304
0.464324594325,0.542544997935,-0.123927544546,-1.36422627293,0.0790595516279,1.8970806239,0.158173047049,-0.00600747591627,-0.0299263181267,-0.0021398492241,-0.0548393895865,-0.00142553256979,0.026625042304,-0.00535751218182,0.573919539873,0.818897868171,0.00184123811555,0.0,0.818852125833,-0.573860284211,-0.0120961615756,0.0,-0.00884907787117,0.00845008792115,-0.999925142116,0.0,0.660685651271,0.259633940548,0.303182010133,1.0,-0.00642,-0.00843771428571,0.322
0.464243743159,0.541937769265,-0.123927809076,-1.3651700744,0.0790061126573,1.89742906958,0.158034867882,-5.80668564119e-05,-0.0377916433352,-0.000824174018523,-0.0597156148425,-0.00133016838115,0.0242464845628,-0.0120912304394,0.573910913864,0.818903886714,0.00185315209697,0.0,0.818858257483,-0.573851565732,-0.0120946913739,0.0,-0.00884112576137,0.00845890713645,-0.99992513789,0.0,0.66057752143,0.259491323154,0.303192408918,1.0,-0.00676,-0.00888457142857,0.339
0.464163411543,0.541315879545,-0.123925541486,-1.366112703,0.0789546870187,1.89778124903,0.157914033993,-0.00524400260914,-0.0373564325383,3.20697740586e-05,-0.0617164869003,-0.00144293827916,0.0187007731588,-0.00773723406177,0.573914705749,0.818901160041,0.00188348333735,0.0,0.818855863414,-0.57385516199,-0.01208614546,0.0,-0.00881668165044,0.00847888123452,-0.99992518455,0.0,0.66046981526,0.259351438599,0.303213889027,1.0,-0.00708,-0.00930514285714,0.355
0.464081083248,0.540627616886,-0.123928262923,-1.36717374128,0.0788897834525,1.89817050271,0.157776186838,-0.00632124272254,-0.0390944057794,-0.000345846465276,-0.0665888522534,-0.00889407951051,0.0236710432705,-0.0139680685437,0.573912555232,0.818902637485,0.00189635646704,0.0,0.818857516686,-0.573852962487,-0.0120785641714,0.0,-0.00880310776756,0.00848504873798,-0.999925251827,0.0,0.660346150613,0.259194501943,0.303229202352,1.0,-0.00742,-0.009752,0.372
0.463976040769,0.539883696267,-0.12392321033,-1.36828555784,0.0788206837471,1.89859334406,0.157647474991,-0.0104821806725,-0.0475402011567,0.000204489818067,-0.0675684698099,-0.00101633395557,0.0271837550747,-0.00352361826531,0.573932698043,0.818888410841,0.00194309268167,0.0,0.818843905748,-0.573872904,-0.0120538365097,0.0,-0.00875582736079,0.00850934434172,-0.999925460495,0.0,0.660223062855,0.259023393187,0.303262219964,1.0,-0.00776,-0.0101988571429,0.389
0.463894743254,0.539179363305,-0.123928900144,-1.36939380715,0.078759451738,1.89900954424,0.15750554275,-0.00660317827081,-0.0417042540232,-3.93063863363e-05,-0.0674778849476,-0.00711932104751,0.029768090743,-0.0119221542301,0.573931965212,0.818888897427,0.00195445135005,0.0,0.818844513847,-0.573872095993,-0.0120509951701,0.0,-0.00874698946163,0.00851700708508,-0.999925472606,0.0,0.660094077709,0.258862458915,0.303268645229,1.0,-0.00808,-0.0106194285714,0.405
0.463774349877,0.53835963471,-0.123934782143,-1.37065563888,0.0786923755081,1.89949563346,0.157347200324,-0.00807360849834,-0.046607842017,-0.000618432566046,-0.0685732071355,-0.00749768031191,0.0248337982183,-0.0124662316142,0.573956835826,0.818871369324,0.00199449535037,0.0,0.818827473346,-0.573896756682,-0.0120344698322,0.0,-0.00871021607645,0.00854057824668,-0.999925592561,0.0,0.659956787756,0.258662699575,0.303289429741,1.0,-0.00844,-0.0110925714286,0.423
0.463670481595,0.537618306236,-0.123938005508,-1.37184562837,0.0786223821619,1.89994569383,0.157205186095,-0.00880636409942,-0.046373458026,0.00185713125332,-0.077313753712,-0.0083075205309,0.0275239179989,-0.00877741199794,0.5739718429,0.818860836479,0.00200023476745,0.0,0.818816990737,-0.57391171307,-0.0120344581435,0.0,-0.00870675593206,0.00854543085801,-0.999925581237,0.0,0.659811211525,0.258472756493,0.303291334477,1.0,-0.00878,-0.0115394285714,0.44
0.463562189799,0.536780825845,-0.123938325059,-1.37313878755,0.0785417919844,1.90043401976,0.157042934291,-0.0108147948284,-0.0496116304123,-5.18620671109e-05,-0.0749115945443,-0.0102491013713,0.0331268869741,-0.0129986259177,0.573980470234,0.818854740545,0.00202004405955,0.0,0.818811203729,-0.573920304326,-0.0120184787711,0.0,-0.00868221117395,0.00855257146805,-0.999925733607,0.0,0.659674041094,0.25828595207,0.303303794025,1.0,-0.0091,-0.01196,0.456
0.463438779934,0.535876407898,-0.123940736991,-1.37457561157,0.078464779846,1.90095946241,0.156873617623,-0.00821815600436,-0.0508954707456,0.00144218713418,-0.0824849418642,0.000129076523104,0.0328759360996,-0.00644652282711,0.574002877075,0.818839038776,0.00201806514431,0.0,0.818795373037,-0.573942615258,-0.0120315579024,0.0,-0.00869382310415,0.00855869603575,-0.999925580312,0.0,0.659505886165,0.258067668984,0.303303921305,1.0,-0.00946,-0.0124331428571,0.474
0.463310320401,0.534967767869,-0.123944756341,-1.37600857085,0.078388854351,1.90147475015,0.156688906117,-0.00536124930933,-0.0565329680326,-0.00127299653658,-0.0862886156788,-0.0042419558292,0.031777563984,-0.00873226073159,0.574017814153,0.818828574832,0.00201518623483,0.0,0.818784755074,-0.573957448199,-0.0120465520657,0.0,-0.00870759755882,0.00856510415732,-0.999925405586,0.0,0.659337962222,0.257845146772,0.303307854181,1.0,-0.0098,-0.01288,0.491
0.463202281257,0.534182025368,-0.123947677445,-1.37731295622,0.0783098314916,1.90194448136,0.156539487657,-0.00841168696618,-0.0530470126594,6.59976238241e-05,-0.0887285292594,-0.000378179401169,0.0253351466976,-0.0028787205987,0.574036209342,0.818815786047,0.00197123943532,0.0,0.818771366599,-0.573976005533,-0.0120723324682,0.0,-0.00875374079897,0.00854411487501,-0.999925182263,0.0,0.659181914671,0.257646801156,0.30328213183,1.0,-0.0101,-0.0132742857143,0.506
0.463070363453,0.533263645401,-0.123951099909,-1.37879151893,0.0782298532509,1.90250423127,0.156355775128,-0.0129536950754,-0.0528406326997,-0.0016987660745,-0.085849628265,-0.00323670882289,0.0333566255373,-0.00952395235277,0.574055738338,0.818802089701,0.00197334329811,0.0,0.818757625684,-0.573995452586,-0.0120796397723,0.0,-0.00875831283358,0.00855024102043,-0.999925089862,0.0,0.65901278863,0.257419452853,0.303274731721,1.0,-0.01044,-0.0137211428571,0.523
0.462937026324,0.532253019489,-0.123953458211,-1.38044420277,0.0781365940296,1.90311918874,0.1561445754,-0.00179365572503,-0.0559743957589,-0.000952422932411,-0.0830032376445,0.000637204401863,0.0336106762131,-0.0147476004695,0.57405891007,0.818799918669,0.00195137364069,0.0,0.818755093331,-0.573998647573,-0.0120994475584,0.0,-0.00878711002522,0.00854365727704,-0.999924893488,0.0,0.658816975596,0.257173954262,0.303254050911,1.0,-0.0108,-0.0141942857143,0.541
0.462816021687,0.531371739149,-0.123949073956,-1.38185427283,0.0780406084878,1.90363445517,0.155968243572,-0.00720726704126,-0.0516564785001,0.00471753604562,-0.0909875533648,-0.00882053860276,0.0377506681886,-0.00719236514329,0.574061474964,0.818798161181,0.00193419466139,0.0,0.818753156327,-0.574001331319,-0.0121032040724,0.0,-0.00880002035588,0.00853177542867,-0.999924881403,0.0,0.658649463543,0.256960439,0.30324855999,1.0,-0.0111,-0.0145885714286,0.556
0.46267722201,0.530272379453,-0.12395414191,-1.38359877143,0.0779410699901,1.90424806024,0.155734872741,-0.00787614809842,-0.0618712871586,-0.00119802892282,-0.0970942482731,-0.00706825084763,0.040219726056,-0.0123471152401,0.574055508642,0.818802401134,0.00190992052621,0.0,0.818756973195,-0.573995370788,-0.0121276567714,0.0,-0.0088340390266,0.00852587307512,-0.999924631781,0.0,0.658435749607,0.256698999642,0.303246212122,1.0,-0.01146,-0.0150617142857,0.574
0.462531269481,0.529213034819,-0.123954326833,-1.38524842254,0.0778300667435,1.90486404463,0.155518223012,-0.00587391148786,-0.062973623013,-0.000135920185142,-0.101785685212,-0.00654411150472,0.0422251720813,-0.00740490810757,0.574057364744,0.818801064534,0.0019249942494,0.0,0.818755924867,-0.573997248059,-0.0121095672085,0.0,-0.00881055475017,0.0085278508745,-0.999924822116,0.0,0.658244485468,0.256444761566,0.303260564645,1.0,-0.0118,-0.0155085714286,0.591
0.462411271246,0.528247274616,-0.123959754858,-1.38673992552,0.0777426089827,1.90544584661,0.155302433692,-0.00609319539634,-0.0617716317208,-0.00130212926882,-0.100858916738,-0.00852112177451,0.0445255875825,-0.0219103954362,0.574030497724,0.818819779761,0.0019755647818,0.0,0.818775355292,-0.573970215772,-0.0120770805721,0.0,-0.00875520567492,0.00855032094813,-0.999925116389,0.0,0.658062005417,0.256209108009,0.303284449875,1.0,-0.01212,-0.0159291428571,0.607
0.46225103733,0.527023479792,-0.123959764618,-1.38859636606,0.0776222858119,1.90616182703,0.155038128311,-0.00767380900274,-0.0740744958692,-0.00115175577801,-0.100827756877,-0.00413039247895,0.0353734549547,-0.0158891236945,0.574022973954,0.818824901368,0.00203793356362,0.0,0.818781358761,-0.573962490489,-0.0120371491143,0.0,-0.00868678726023,0.00857838730535,-0.999925472722,0.0,0.657861528013,0.255942995487,0.303321109772,1.0,-0.01246,-0.016376,0.624
0.462098160325,0.525850936786,-0.12396615216,-1.39041574158,0.077509737669,1.90682694666,0.154799431043,-0.00737078493188,-0.0717379337375,-0.00309749065524,-0.111336154061,-0.0116154141259,0.0312412160535,-0.0188389098812,0.574024881855,0.818823531709,0.00205081282413,0.0,0.81878017361,-0.573964359511,-0.0120286414559,0.0,-0.00867240818023,0.00858406964072,-0.999925548771,0.0,0.657645028333,0.25566511289,0.303338007157,1.0,-0.0128,-0.0168228571429,0.641
0.461947235043,0.524684251275,-0.123970067953,-1.39226789219,0.0773905889774,1.90748538404,0.154544930336,-0.00262729267017,-0.066666282404,0.000133835515994,-0.1131419697,-0.00552882265694,0.040763967187,-0.0171413746084,0.574013936898,0.818831261498,0.00202789085833,0.0,0.818787637442,-0.573953546436,-0.0120365363349,0.0,-0.008692144432,0.00856971656672,-0.999925500516,0.0,0.657433300701,0.255396961294,0.30333855439,1.0,-0.01312,-0.0172434285714,0.657
0.461789951211,0.523480161201,-0.123973201091,-1.39417947157,0.0772692721557,1.90819099032,0.15429422691,-0.00587453836702,-0.0678641606235,0.000508593085499,-0.11184570252,-0.00975748002547,0.0508914122077,-0.0163054101208,0.574005687217,0.818837071056,0.00201717814723,0.0,0.818793312101,-0.573945348488,-0.012041424679,0.0,-0.00870238244862,0.00856366310124,-0.999925463329,0.0,0.657188453508,0.255096507326,0.303332221635,1.0,-0.01348,-0.0177165714286,0.675
0.461635414996,0.522252888352,-0.123975608196,-1.39612334897,0.0771580690666,1.90894957913,0.154031281529,-0.00992973404313,-0.0746913565557,3.46450398747e-05,-0.114466517032,-0.00688182780689,0.0442405854175,-0.0167047061513,0.573992999547,0.818845874639,0.00205352371753,0.0,0.818802565781,-0.57393248343,-0.012025374656,0.0,-0.00866851135677,0.00858407662836,-0.999925582501,0.0,0.656960397348,0.254812417005,0.303335403287,1.0,-0.01382,-0.0181634285714,0.692
0.461486679255,0.521145550867,-0.123975489344,-1.39789852287,0.07705377297,1.90963022817,0.153784714922,-0.00948450500382,-0.075507994243,7.32900465731e-05,-0.122340124926,-0.00726654805396,0.0426898077698,-0.0204725923436,0.573979675605,0.818855187185,0.00206429487763,0.0,0.81881198814,-0.573919084996,-0.0120232631436,0.0,-0.00866073991077,0.00859154348557,-0.999925585714,0.0,0.656750349982,0.254547936386,0.303327467385,1.0,-0.01412,-0.0185577142857,0.707
0.46130517163,0.519775642012,-0.123981891838,-1.40006515451,0.0769071161474,1.91041615616,0.153494282805,-0.0110758612305,-0.0755104121145,2.71128423831e-05,-0.119625053996,-0.0108350209602,0.0476125849214,-0.0151769574926,0.573970617786,0.818861584412,0.00204509007534,0.0,0.8188182403,-0.573910214316,-0.012020905011,0.0,-0.00866992616287,0.00857436841541,-0.99992565353,0.0,0.656487304885,0.254215525035,0.303326579542,1.0,-0.01448,-0.0190308571429,0.725
0.461134744468,0.518425354652,-0.123983063734,-1.4021546834,0.0767719377166,1.91114525013,0.153224120971,-0.0104961014586,-0.0795958914884,0.000575060637552,-0.126705098256,-0.0104085616627,0.0483475222701,-0.00791260041645,0.57396382964,0.818866371405,0.00203345727265,0.0,0.818822857863,-0.573903459087,-0.0120288814804,0.0,-0.00868320554586,0.00856934916264,-0.999925581329,0.0,0.656225197488,0.253900404552,0.303343077016,1.0,-0.01482,-0.0194777142857,0.742
0.460968005451,0.517143950609,-0.123988526895,-1.40416954368,0.0766445491053,1.91187653504,0.152944906531,-0.0130432139001,-0.0804015011534,0.000258669748709,-0.119231439038,-0.0112665333911,0.0488676795411,-0.0190518264386,0.573947767899,0.818877643287,0.00202779449249,0.0,0.818834068533,-0.573887436028,-0.0120302069695,0.0,-0.00868770901465,0.00856530256054,-0.999925576883,0.0,0.655978273455,0.253594584415,0.303346741738,1.0,-0.01514,-0.0198982857143,0.758
0.460787111658,0.515790334009,-0.12399172651,-1.40634282811,0.0765094336,1.91269771931,0.15264190344,-0.00777518950333,-0.0828787915918,4.12344308433e-05,-0.129227079791,-0.0078488037305,0.0421724801181,-0.0208228098318,0.573928466763,0.818891178607,0.00202473236387,0.0,0.818847585132,-0.57386817132,-0.0120291799456,0.0,-0.00868882717109,0.00856200085433,-0.999925595444,0.0,0.655716397831,0.253267814671,0.303333033098,1.0,-0.01548,-0.0203451428571,0.775
0.460591070239,0.514307848962,-0.123987128492,-1.40870241856,0.0763733926012,1.91354291399,0.152322550615,-0.010850872887,-0.0853603467464,0.00178241497027,-0.137026234848,-0.00589978337009,0.0458063379102,-0.0195885909036,0.573911593893,0.818903057267,0.00200302149964,0.0,0.818858998396,-0.573851214826,-0.0120611313299,0.0,-0.00872762903315,0.008562380137,-0.999925254275,0.0,0.655419712579,0.252916820572,0.303322393009,1.0,-0.01584,-0.0208182857143,0.793
0.460406209922,0.512976203927,-0.123994932688,-1.41083539126,0.0762400102727,1.91428925941,0.15201885892,-0.0124815520282,-0.0896320488059,-0.00033066648928,-0.135084287678,-0.00970987389173,0.0425935295707,-0.0298522294986,0.573895465209,0.818914480358,0.00195340039142,0.0,0.818869729498,-0.573835261125,-0.0120915715943,0.0,-0.00878120211053,0.00853904295838,-0.999924984804,0.0,0.655152137077,0.252584656445,0.303305261472,1.0,-0.01616,-0.0212388571429,0.809
0.460223598482,0.511649689858,-0.123994644591,-1.41299283066,0.0761133645079,1.91509047919,0.151716347136,-0.0152175149875,-0.0810087898085,-0.000671960658925,-0.134507131104,-0.00623400655625,0.0494065491402,-0.0260705639263,0.573879813517,0.818925491344,0.0019355013759,0.0,0.818880478576,-0.573819662813,-0.0121038538342,0.0,-0.00880169516139,0.00853126592752,-0.99992487101,0.0,0.654873951771,0.252232463925,0.303281407091,1.0,-0.0165,-0.0216857142857,0.826
0.460004303571,0.510084477231,-0.124000976359,-1.41545385739,0.0759566598946,1.91601946892,0.151365938854,-0.00467247524154,-0.0868857410817,0.000100933251046,-0.128895127563,-0.00606074619883,0.0528892635391,-0.026452504551,0.57385914858,0.818939935495,0.00195103678819,0.0,0.818895129464,-0.573798935824,-0.0120952506521,0.0,-0.00878595011276,0.00853882916324,-0.999924944922,0.0,0.65459077378,0.251879508221,0.303282211709,1.0,-0.01684,-0.0221325714286,0.843
0.459813240592,0.50864690425,-0.124005186219,-1.41769247452,0.0758112416812,1.91681897686,0.151056365541,-0.0105865225191,-0.0881963007453,0.00100267668474,-0.140890445348,-0.00591125665897,0.0490245442086,-0.0253326831468,0.573841869047,0.81895205761,0.00194513917263,0.0,0.818907188263,-0.573781697704,-0.0120965818618,0.0,-0.0087906045954,0.00853457791237,-0.999924940308,0.0,0.654310247136,0.251536109802,0.303292063188,1.0,-0.01716,-0.0225531428571,0.859
0.459598422218,0.507114098253,-0.124011673505,-1.42008470848,0.0756590116753,1.91769272435,0.150722099129,-0.0128987739687,-0.0949331198494,-0.000915413775496,-0.145932654174,-0.0091650956994,0.0519411097676,-0.0211350877045,0.573831348261,0.818959411102,0.00195284958332,0.0,0.818914665683,-0.573771166962,-0.0120898798207,0.0,-0.00878080113161,0.00853693356393,-0.999925006336,0.0,0.654016249689,0.251162851251,0.303301438599,1.0,-0.0175,-0.023,0.876
0.459375461217,0.505523777708,-0.124014543874,-1.42255288012,0.0755037701903,1.91862309561,0.150383347703,-0.0139208880538,-0.0958513483284,0.00101628899927,-0.150648627942,-0.0139703146656,0.050157104583,-0.0158976410408,0.573824123356,0.818964374919,0.00199373243474,0.0,0.818920198193,-0.573763798847,-0.0120647845298,0.0,-0.00873686543705,0.00855593689517,-0.999925228768,0.0,0.653717262117,0.250781530941,0.303319116329,1.0,-0.01784,-0.0234468571429,0.893
0.459170097798,0.50397227346,-0.12402261975,-1.42488545023,0.0753613491372,1.91951309008,0.150060139646,-0.0181742747017,-0.099431154572,0.000887738785145,-0.149719025619,-0.00613880082702,0.043684005562,-0.0226806443819,0.573816459415,0.818969490783,0.0020954643912,0.0,0.818926688005,-0.573755747448,-0.0120070331238,0.0,-0.008631275244,0.00860603064167,-0.999925715903,0.0,0.653420507302,0.250397483718,0.303378134647,1.0,-0.01818,-0.0238937142857,0.91
0.458934162784,0.502290914845,-0.12403148625,-1.42737575717,0.075205013142,1.92044624488,0.149720303862,-0.0132170646828,-0.0984054066945,-0.0040337862246,-0.155885298017,-0.0020794443382,0.0560250058059,-0.0257938146134,0.573821640944,0.818965618702,0.00218784582979,0.0,0.818924088667,-0.573760613703,-0.0119516553528,0.0,-0.00853285933849,0.00864996467746,-0.999926181487,0.0,0.653138050109,0.250029100148,0.303440075422,1.0,-0.0185,-0.0243142857143,0.926
0.458684533883,0.50047652571,-0.124033136942,-1.43011449911,0.0750206079558,1.92140859291,0.149320742163,-0.00847545599522,-0.10363602414,0.00060503500225,-0.155327860739,-0.00890991696085,0.056379880641,-0.0274231974177,0.573789411626,0.818988127782,0.00221462418413,0.0,0.818946982325,-0.573728315619,-0.0119334361625,0.0,-0.00850291364527,0.00866110586005,-0.99992634014,0.0,0.652790895328,0.249599829633,0.303486152955,1.0,-0.01886,-0.0247874285714,0.944
0.458454338667,0.498883974435,-0.124037135678,-1.43258151799,0.0748698687912,1.92231308817,0.14898076763,-0.0168864335872,-0.100934175807,-0.000455666577131,-0.159035117676,-0.0113267635899,0.053307934611,-0.0222277848951,0.573787143641,0.818989647458,0.00224010024273,0.0,0.818948789618,-0.573725899711,-0.0119255559707,0.0,-0.00848186665523,0.00867742514651,-0.999926377405,0.0,0.652484566224,0.249212691036,0.303501297854,1.0,-0.01918,-0.025208,0.96
0.458191746852,0.497214083996,-0.124042112941,-1.43522984653,0.0747047906459,1.92328785641,0.148599936048,-0.0189292737505,-0.106036980078,-0.00216761680976,-0.154800734928,-0.00749114856772,0.054146149424,-0.0197546519699,0.573783559274,0.818992175336,0.00223399789455,0.0,0.818951215298,-0.573722317227,-0.0119313276374,0.0,-0.00849013298903,0.00867570196352,-0.999926322204,0.0,0.652158429451,0.24878593864,0.303489661879,1.0,-0.01952,-0.0256548571429,0.977
0.457931672174,0.495540514452,-0.124042624404,-1.4379309187,0.0745366184522,1.92422053418,0.148197326877,-0.0129197140014,-0.10046909569,-0.000727788991032,-0.1602272717,-0.00895823870514,0.053113105031,-0.0251370954949,0.5737578137,0.819010426755,0.00215383049548,0.0,0.818968267334,-0.573696746953,-0.0119902684179,0.0,-0.00858467458673,0.00864359543817,-0.999925793057,0.0,0.651808460021,0.24835414,0.303451114968,1.0,-0.01986,-0.0261017142857,0.994
0.457670924081,0.493935290098,-0.124046485232,-1.44054525965,0.0743722023655,1.92515088032,0.147816753418,-0.0164144486804,-0.107276051373,-0.00299667863261,-0.168270619419,-0.00622965224177,0.0578958455216,-0.0262274255794,0.573749396227,0.819016504318,0.00208395924085,0.0,0.818973350987,-0.573688541804,-0.012035542276,0.0,-0.00866193099337,0.00861225800955,-0.999925397199,0.0,0.651476731054,0.247929862105,0.303405567803,1.0,-0.0224691428571,-0.0295308734694,1.01
0.457369547318,0.491734396346,-0.124102573401,-1.44400197436,0.0741696240076,1.92645364208,0.147336998564,-0.0158148442151,-0.127244759911,0.000629730048114,-0.205394836183,-0.0129770835828,0.0776384112553,-0.0250008435572,0.573762598194,0.819007175658,0.00211519174297,0.0,0.818964557514,-0.573701737574,-0.0120048632608,0.0,-0.00861874591268,0.00862037457422,-0.99992570042,0.0,0.651052818586,0.247375585823,0.303406759787,1.0,-0.0274474285714,-0.0360737632653,1.028
0.456998380468,0.489275987764,-0.124105735164,-1.44795337038,0.0739324945005,1.92786482999,0.146753466632,-0.0195035107679,-0.153253392314,0.000646692555246,-0.245484826203,-0.0210120378153,0.0907740924796,-0.0397229866889,0.573723736316,0.819034566736,0.00204933650488,0.0,0.818990854145,-0.57366292688,-0.0120654072694,0.0,-0.00870652486541,0.00860076398469,-0.999925108837,0.0,0.650541758544,0.246753864108,0.303358292265,1.0,-0.0321491428571,-0.0422531591837,1.045
0.456561254197,0.486534807859,-0.124136154671,-1.45222770349,0.0736774620697,1.92947750546,0.146142546467,-0.0342207437832,-0.18327180277,-0.000186348703526,-0.278902061381,-0.0250139648238,0.104959637606,-0.0378294970462,0.573746647572,0.819018353589,0.00211371371466,0.0,0.818975498476,-0.573685577579,-0.012030705483,0.0,-0.00864092788858,0.00863382290971,-0.99992539295,0.0,0.650020045874,0.246049619372,0.30336926579,1.0,-0.0365742857143,-0.0480690612245,1.061
0.456045366082,0.483257075604,-0.124193684699,-1.45728286438,0.0733776824214,1.93130163732,0.14534979364,-0.0360467333268,-0.199799107325,-0.0028689083957,-0.312389461418,-0.0215275374214,0.103208453441,-0.0568288829532,0.573729220189,0.81903046233,0.00215187778644,0.0,0.818988069312,-0.573667955779,-0.0120152294187,0.0,-0.00860654127755,0.00865601709364,-0.999925497632,0.0,0.649387586618,0.245200568507,0.303398178411,1.0,-0.041276,-0.0542484571429,1.078
0.455449514877,0.479569042722,-0.124259001763,-1.46307390433,0.073027034294,1.93332567641,0.144480415739,-0.0378432562799,-0.227356662323,-0.00173986135816,-0.358247894771,-0.0253337700689,0.130047784699,-0.0630571302077,0.573740010638,0.819023087453,0.00208070049736,0.0,0.818979648764,-0.573678930056,-0.0120651159171,0.0,-0.00868812172706,0.00862645718315,-0.99992504758,0.0,0.648643980224,0.244219482326,0.303376370265,1.0,-0.0459777142857,-0.0604278530612,1.095
0.454825555055,0.475710057478,-0.124314424722,-1.46897039999,0.0726629329292,1.93548641246,0.143658651869,-0.0421926931456,-0.24604276289,-0.00346088381666,-0.381353007525,-0.0195862256082,0.141360989238,-0.0470824779494,0.573805090449,0.818977242294,0.00217753999453,0.0,0.818935150558,-0.573743675386,-0.0120067079484,0.0,-0.00858403603418,0.00867294116461,-0.999925544437,0.0,0.647905597358,0.243223378998,0.303430740809,1.0,-0.0504028571429,-0.066243755102,1.111
0.454079459545,0.471276615301,-0.124347350966,-1.47581622589,0.0722655418058,1.9379332385,0.142641395918,-0.0454157299448,-0.267026852102,-0.000251740462358,-0.414876105104,-0.0176708495783,0.146209848353,-0.0593630836206,0.573827943951,0.818961110523,0.00222195678477,0.0,0.818919195093,-0.573765931897,-0.0120313841683,0.0,-0.00857851779737,0.00872371546042,-0.999925150109,0.0,0.647023923274,0.242071738229,0.303450999614,1.0,-0.0551045714286,-0.0724231510204,1.128
0.453277681593,0.466400953999,-0.124385192813,-1.48311428565,0.0717904759694,1.94067113396,0.141454566579,-0.0494822456932,-0.291354177313,-0.0071762231047,-0.442693326601,-0.0268589029707,0.160633173634,-0.0743716115261,0.57375720775,0.819009939677,0.00247632138655,0.0,0.818971619098,-0.573694474305,-0.0118694635974,0.0,-0.00830071658332,0.00883839739299,-0.999926487716,0.0,0.646109555812,0.240841846801,0.303581259521,1.0,-0.0598062857143,-0.0786025469388,1.145
0.452437591452,0.461533422139,-0.124408320067,-1.49066349793,0.071296431501,1.94325408646,0.140310072256,-0.0578602391151,-0.316211212135,-0.00264092597465,-0.476404365392,-0.0317352687564,0.159310433655,-0.0744855467759,0.573742986494,0.819020163897,0.00238819613712,0.0,0.818980449065,-0.573680340127,-0.0119431278572,0.0,-0.00841176331531,0.00880834137756,-0.999925824929,0.0,0.645098248686,0.239554904239,0.303567437326,1.0,-0.0642314285714,-0.0844184489796,1.161
0.451244466937,0.454684442033,-0.124468151591,-1.50126322994,0.0705835873393,1.94694415489,0.138701339235,-0.0609922260987,-0.335932299824,-0.00478791775587,-0.512783918287,-0.0265868651796,0.189622273745,-0.0782360834805,0.573740150681,0.819022366167,0.00231303173499,0.0,0.81898167899,-0.573677815391,-0.0119800045171,0.0,-0.00848512001849,0.00876790902012,-0.999925560484,0.0,0.643684493043,0.237727175983,0.303554852464,1.0,-0.0700394285714,-0.0920518204082,1.182
0.450452766023,0.450065097264,-0.124497443844,-1.5080573983,0.0701186419777,1.94954680434,0.137587593815,-0.0596069122669,-0.366360652022,-0.000974409914573,-0.53212280142,-0.0432091464458,0.202754795759,-0.0870423428636,0.573680273624,0.81906327439,0.00265388426199,0.0,0.819027519275,-0.573617164832,-0.0117480969181,0.0,-0.00810027711883,0.00891342730915,-0.999927465531,0.0,0.642826350398,0.236562313629,0.303717628952,1.0,-0.0736348571429,-0.0967772408163,1.195
0.449400778794,0.444233331374,-0.124536731293,-1.51696356123,0.069536486385,1.95266329589,0.136266617428,-0.0703752742789,-0.369576074453,-0.00633444225264,-0.572580178888,-0.0348259776615,0.194017384761,-0.0881116982363,0.573729583903,0.819028635252,0.00268441676235,0.0,0.818993113389,-0.573666178255,-0.0117534271191,0.0,-0.00808658995993,0.00894197985315,-0.999927321388,0.0,0.6416259102,0.235010460199,0.303745630009,1.0,-0.07806,-0.102593142857,1.211
0.448137521386,0.437357810977,-0.124559834504,-1.52769946535,0.0687966008202,1.95624060473,0.13452967164,-0.0681315696798,-0.392366963953,-0.00200351294506,-0.608880094577,-0.0375395076047,0.200839996318,-0.10027523578,0.573628077625,0.819100521866,0.00243116032003,0.0,0.819061303694,-0.57356520906,-0.011928061332,0.0,-0.00837601354887,0.00883371030917,-0.999925901234,0.0,0.640115349405,0.233141594291,0.303647572719,1.0,-0.0830382857143,-0.109136032653,1.229
0.446826965594,0.430400781404,-0.124578193382,-1.53807502466,0.0680882471914,1.96003304975,0.132832299792,-0.0814936807468,-0.413469863184,-0.00165320122528,-0.617570185387,-0.0454821162791,0.220957914709,-0.0976040775874,0.573580269202,0.819133053118,0.00273184428337,0.0,0.819097967036,-0.573516512003,-0.0117506492782,0.0,-0.00805874257038,0.00897776152476,-0.999927225585,0.0,0.638731304471,0.231310535561,0.303782285403,1.0,-0.08774,-0.115315428571,1.246
0.44549589595,0.423659352318,-0.124646074888,-1.54843662925,0.0673357486707,1.96355039988,0.13112640266,-0.0874615951058,-0.426711518588,-0.00714202227414,-0.650127113663,-0.0474717618534,0.213328847567,-0.111941089658,0.573554975519,0.819151178786,0.0026044678278,0.0,0.819114625996,-0.573491893139,-0.0117908814459,0.0,-0.00816503045224,0.00889624769004,-0.99992709187,0.0,0.637287977077,0.229416043229,0.30374392375,1.0,-0.0921651428571,-0.121131330612,1.262
0.443876764739,0.415674237892,-0.124769415966,-1.56053194352,0.0664607112836,1.96772027786,0.129199412583,-0.0935109046372,-0.46528733381,-0.0118533854694,-0.682752470807,-0.0501422610654,0.253438954413,-0.100965774882,0.573655395359,0.819080864379,0.00260228458391,0.0,0.819044759412,-0.573592827442,-0.0117344487342,0.0,-0.00811896695517,0.00886308802079,-0.999927761414,0.0,0.635618587977,0.227148449327,0.303769756298,1.0,-0.0971434285714,-0.127674220408,1.28
0.442341808337,0.408327108629,-0.124814193356,-1.57167952891,0.0657304187088,1.97155974212,0.12730382332,-0.101999754303,-0.46665535856,-0.00252646615341,-0.714631691718,-0.0515856106466,0.243319935028,-0.112874187658,0.573648059975,0.819085859067,0.00264682175977,0.0,0.819049818806,-0.573584768439,-0.0117751700551,0.0,-0.00812685510121,0.00892285413333,-0.999927165798,0.0,0.634046671292,0.225089111865,0.303769473503,1.0,-0.101568571429,-0.133490122449,1.296
0.440688414012,0.400704705385,-0.12490754258,-1.5832497228,0.0649209806623,1.97540963891,0.125369334058,-0.104613487544,-0.489094330091,-0.00670391720695,-0.726821194114,-0.0440177735814,0.250125831084,-0.133362014366,0.573724542226,0.819032603619,0.00254769659145,0.0,0.818995050298,-0.573661366705,-0.0118528831235,0.0,-0.00824654138787,0.00888701194465,-0.999926505086,0.0,0.632389680173,0.222875672735,0.303742475252,1.0,-0.105993714286,-0.13930602449,1.312
0.438730014346,0.391745147085,-0.124982494636,-1.59655123714,0.0639165955388,1.98007144305,0.123081879542,-0.109629753785,-0.498254913942,-0.00164033304554,-0.761000553849,-0.0538950559337,0.248392275083,-0.132489438842,0.573747246463,0.819016012527,0.0027595835037,0.0,0.818981888426,-0.573684043351,-0.0116632643714,0.0,-0.0079694246923,0.0089519870805,-0.999928172519,0.0,0.630516491797,0.220327729587,0.303843903042,1.0,-0.110972,-0.145848914286,1.33
0.43676770247,0.383061238961,-0.125036643397,-1.60970753706,0.0629266347227,1.98432647691,0.120749081304,-0.117399835125,-0.528049943575,-0.00366692359926,-0.762890302526,-0.0616535361171,0.254109162104,-0.144110683167,0.573703057753,0.819047663681,0.00254421816005,0.0,0.819010526624,-0.573640395755,-0.011798327743,0.0,-0.00820408441505,0.00885264859854,-0.999927159153,0.0,0.628556371759,0.217789345512,0.303775448434,1.0,-0.115673714286,-0.152028310204,1.347
0.43496856606,0.37512422525,-0.125084760811,-1.62146998979,0.0620765291154,1.98835548165,0.118659326957,-0.127833535738,-0.524947827335,-0.00346736680807,-0.779102692655,-0.0693892160536,0.26760032559,-0.145774850334,0.57369786348,0.819050815388,0.00269632168862,0.0,0.819015622448,-0.573634612222,-0.0117255595943,0.0,-0.00805728082797,0.00893543010823,-0.999927616538,0.0,0.626717568267,0.215355993549,0.303827738465,1.0,-0.120098857143,-0.157844212245,1.363
0.432211668438,0.363629843611,-0.1252171378,-1.6385488941,0.060741858554,1.9939434972,0.115653328558,-0.133159415587,-0.555555939001,-0.0025639229599,-0.785107185625,-0.0665045229239,0.275573112739,-0.150495663067,0.573823749311,0.818962827286,0.00263422685194,0.0,0.818927203364,-0.573761117722,-0.0117116302364,0.0,-0.00808012843517,0.0088778225273,-0.9999279453,0.0,0.624284492782,0.212083269594,0.303845236603,1.0,-0.125630285714,-0.165114089796,1.383
0.42988086415,0.354069908466,-0.125319654184,-1.65280137365,0.0596689474257,1.99855746576,0.112982694716,-0.140080378212,-0.568601665692,-0.00394070516626,-0.854068582811,-0.0610246180255,0.277696623245,-0.159123940297,0.573810662732,0.818972283868,0.00254332304159,0.0,0.818935231565,-0.573748094346,-0.0117880294206,0.0,-0.00819500040761,0.00884708415191,-0.999927282891,0.0,0.622106398802,0.209217171744,0.303805148968,1.0,-0.130332,-0.171293485714,1.4
0.428256535285,0.347707892511,-0.125374666548,-1.66221595001,0.058965254948,2.00152634303,0.111215436285,-0.146762767162,-0.593044921133,-0.00279034156393,-0.823268312265,-0.0669492940544,0.282153886898,-0.165181500401,0.573858687156,0.81893873681,0.00250986644994,0.0,0.818900886681,-0.573795848362,-0.0118494344328,0.0,-0.00826396902436,0.00885540324239,-0.999926641634,0.0,0.620524267866,0.207108661259,0.303809744865,1.0,-0.133650857143,-0.175655412245,1.412
0.425257900838,0.335867014741,-0.125456162527,-1.67949618565,0.057595699746,2.00721579826,0.107940257597,-0.152286302552,-0.600423611903,-0.000530112954281,-0.877804393408,-0.0811614369703,0.285817304846,-0.166431350143,0.573854425651,0.818941349513,0.00262890090866,0.0,0.81890527166,-0.573791387158,-0.011762099006,0.0,-0.00812418494978,0.00890272478738,-0.999927366917,0.0,0.617980880388,0.203753981922,0.303859981677,1.0,-0.138905714286,-0.182561795918,1.431
0.422612871162,0.325442591103,-0.125450902174,-1.69458245542,0.0563356873951,2.01200709172,0.104990076873,-0.157554856446,-0.628551541061,0.00109661690653,-0.909047247175,-0.0699995310306,0.288423859025,-0.178374945105,0.573701365833,0.819048390634,0.00268766469624,0.0,0.819013226196,-0.573638301123,-0.0117124592373,0.0,-0.00805147849422,0.00892085854966,-0.999927793381,0.0,0.615567624615,0.200700666247,0.303930847441,1.0,-0.143607428571,-0.188741191837,1.448
0.419960338934,0.315523697702,-0.125471756323,-1.70910414564,0.0551675357577,2.01655660585,0.102167201445,-0.168302628987,-0.622303606741,-0.00221637275036,-0.910503600694,-0.0733099689989,0.281972786221,-0.180711153178,0.573672464004,0.819068848195,0.00262161420169,0.0,0.81903242965,-0.57360920645,-0.0117942510625,0.0,-0.00815667863257,0.00891339572781,-0.999927007321,0.0,0.613213357577,0.197698743888,0.303893748501,1.0,-0.148032571429,-0.194557093878,1.464
0.4171807754,0.305284539012,-0.125527945158,-1.72371652073,0.0539172210814,2.02121451411,0.0991222698925,-0.17973168718,-0.637249430406,-0.00209119174668,-0.916068787947,-0.0763871402054,0.291236463388,-0.189927993685,0.573548677046,0.819154951884,0.0027976355273,0.0,0.819121355875,-0.573485407885,-0.011637791626,0.0,-0.00792890414396,0.00896661563235,-0.999928363576,0.0,0.610859012858,0.194603374909,0.304002875416,1.0,-0.152457714286,-0.200372995918,1.48
0.413818731706,0.293626425535,-0.12560477123,-1.74063999083,0.0525700640048,2.02627582566,0.0956979193102,-0.197457234856,-0.664874512454,-0.0058765996874,-0.931329427652,-0.064913711551,0.273156477763,-0.191135061163,0.57362740281,0.819100372833,0.00263227496112,0.0,0.819063603983,-0.573563577131,-0.0118483129985,0.0,-0.0081953383375,0.00895268999638,-0.999926340173,0.0,0.608034159426,0.190940883754,0.303939134513,1.0,-0.157436,-0.206915885714,1.498
0.410714594344,0.283006016523,-0.125727779416,-1.75578686174,0.051304981812,2.03096885858,0.0924781663667,-0.193530173078,-0.667112343308,-0.0128075758434,-0.952100456809,-0.0793238077845,0.281621173109,-0.204324591534,0.573649871431,0.819084299003,0.00273551353305,0.0,0.819048929823,-0.573585723557,-0.0117904702699,0.0,-0.00808849329535,0.00900429454678,-0.999926746795,0.0,0.605527773068,0.187597851049,0.30398415718,1.0,-0.161861142857,-0.212731787755,1.514
0.407243540913,0.271433061422,-0.12583407781,-1.77221324145,0.0498798678882,2.03589299678,0.0889081461545,-0.207698272796,-0.701832854719,-0.00777869272487,-0.970218025732,-0.0880113615342,0.291537989067,-0.217204473056,0.573631653398,0.819097013625,0.00274870746691,0.0,0.81906181774,-0.573567461949,-0.0117835569652,0.0,-0.00807546263228,0.00901095608794,-0.999926792107,0.0,0.602743845285,0.183933814336,0.304018654872,1.0,-0.166562857143,-0.218911183673,1.531
0.403319986619,0.259057491565,-0.126028787981,-1.78989486535,0.0483203416176,2.04111597776,0.0850552858091,-0.223683121039,-0.692504237896,-0.00657940432361,-0.994148467615,-0.0835703589736,0.279073525534,-0.205247768758,0.573784777,0.818990188737,0.00261674161492,0.0,0.818953316451,-0.573721096995,-0.0118454733158,0.0,-0.00820020443603,0.00893991360981,-0.999926414589,0.0,0.599719732263,0.179851825064,0.303959359985,1.0,-0.171541142857,-0.225454073469,1.549
0.399653948248,0.247770393246,-0.126155836432,-1.80569811866,0.0468416971216,2.04580475059,0.0814871306059,-0.226113134135,-0.70145140938,-0.00473825381452,-0.995850805779,-0.101160700832,0.301244944689,-0.234431215543,0.573857423407,0.818939103919,0.00267368170806,0.0,0.818903674997,-0.573794296781,-0.0117312812479,0.0,-0.0080732170719,0.00892174237785,-0.999927610219,0.0,0.596997842427,0.176155859751,0.304012118623,1.0,-0.175966285714,-0.23126997551,1.565
0.395907042617,0.236295750002,-0.126229655356,-1.82167743695,0.0454651982626,2.05043730197,0.0777340904796,-0.240141345363,-0.739188083146,-0.00442117825641,-0.978754954268,-0.0947782539174,0.29559815389,-0.237032378902,0.573839240998,0.818951376378,0.00281345347762,0.0,0.818917137653,-0.57377492065,-0.0117392074792,0.0,-0.00799970509591,0.00904057723772,-0.999927133686,0.0,0.593992269241,0.172235046532,0.304067404777,1.0,-0.180668,-0.237449371429,1.582
0.391537488962,0.223226762935,-0.126271397116,-1.83995930164,0.0437490236034,2.05567404899,0.0734256177352,-0.249301524541,-0.736879786904,-0.00228616609961,-1.02027966924,-0.103529502017,0.280950587081,-0.240623561739,0.573723452807,0.819032731603,0.002744296436,0.0,0.818997574771,-0.573659372908,-0.0117746887537,0.0,-0.00806971948824,0.00900316055176,-0.999926908693,0.0,0.590865795115,0.168236013333,0.304023553978,1.0,-0.185369714286,-0.243628767347,1.599
0.387158608434,0.210505964275,-0.126385705631,-1.85731448168,0.0421282240787,2.06056605942,0.0691761915411,-0.265488851686,-0.735908512958,-0.00464561211425,-1.03707122845,-0.102344760911,0.289371145489,-0.259996707882,0.573720872365,0.819033941718,0.00291716089584,0.0,0.81900111388,-0.573656280494,-0.0116787933606,0.0,-0.00789203243757,0.00908970054296,-0.999927543959,0.0,0.587712774887,0.164078060026,0.304132213831,1.0,-0.190071428571,-0.249808163265,1.616
0.382856760545,0.198484220202,-0.126504268311,-1.87384440049,0.0405580608029,2.06503976802,0.0650205424589,-0.265498054611,-0.765250759959,-0.00842567587016,-1.01951172333,-0.0972102121421,0.277580802685,-0.26405580504,0.573707522105,0.819043670183,0.0028093262309,0.0,0.819008996025,-0.573642802892,-0.0117875366936,0.0,-0.00804311239742,0.00906363642715,-0.999926576723,0.0,0.585008825872,0.16056544169,0.304097510666,1.0,-0.193943428571,-0.254897077551,1.63
0.378020654583,0.185462614214,-0.126673520825,-1.89162705208,0.0388861444386,2.06982476139,0.0604370112346,-0.291607878575,-0.778698812772,-0.0142312946204,-1.0514560707,-0.0977312156231,0.272447506544,-0.272028527014,0.573785472647,0.818988892178,0.00285880557281,0.0,0.818954463997,-0.573720114785,-0.011813665488,0.0,-0.00803526125288,0.00911991680793,-0.999926128118,0.0,0.581300371021,0.155631660563,0.304114710963,1.0,-0.199198285714,-0.261803461224,1.649
0.373247469626,0.172928626355,-0.126810734952,-1.90837643253,0.0372789809804,2.07429551516,0.0560125179536,-0.301295281245,-0.798716946998,-0.000960964827751,-1.05855219046,-0.105621831425,0.268442515922,-0.275124071944,0.573890894986,0.818914321421,0.00305314993905,0.0,0.818882262187,-0.573824653659,-0.0117411426043,0.0,-0.00786316851252,0.00923848303565,-0.999926407798,0.0,0.57812927664,0.151387679692,0.30422126255,1.0,-0.203623428571,-0.267619363265,1.665
0.36805855511,0.159539291032,-0.126891523657,-1.92636810319,0.035426845678,2.07890088166,0.0510533921792,-0.313015739293,-0.786437807101,-0.000223873919394,-1.03840307237,-0.103217760147,0.285887664972,-0.294223801229,0.573751558174,0.819012153948,0.00299801274716,0.0,0.818979328479,-0.573685469607,-0.0117723569116,0.0,-0.00792193956233,0.00920989590687,-0.999926207623,0.0,0.574618716192,0.14685194887,0.304223881627,1.0,-0.208325142857,-0.273798759184,1.682
0.362345928678,0.145184627208,-0.126975635145,-1.94562993813,0.0334028615027,2.08374715423,0.045725029422,-0.325828739946,-0.829516925701,-0.00330459817202,-1.08143201959,-0.114118929206,0.261196864943,-0.299512784823,0.573662403789,0.819075025273,0.00288033907569,0.0,0.819040595529,-0.573596663885,-0.011837100858,0.0,-0.00804347566161,0.00914979052582,-0.999925789163,0.0,0.570793158307,0.14195476373,0.30417419996,1.0,-0.213303428571,-0.28034164898,1.7
0.357317319005,0.132930788282,-0.127082846747,-1.96161091856,0.0317977516228,2.08781443007,0.0410454810052,-0.340097064787,-0.819967047909,-0.0050825632458,-1.06971497438,-0.118983924198,0.271043900133,-0.315585692793,0.573646320278,0.819085287376,0.00315248099743,0.0,0.819054319733,-0.573579536693,-0.0117167962812,0.0,-0.00778900682168,0.00930352937275,-0.999926385147,0.0,0.567622917248,0.137768332772,0.304292161411,1.0,-0.217452,-0.285794057143,1.715
0.350957697558,0.118150307484,-0.127326322527,-1.98093719796,0.0296466312721,2.09249983629,0.0353004183608,-0.357838229293,-0.839012369341,-0.0135610184238,-1.08491035968,-0.124438146466,0.267099177088,-0.32555674786,0.573757103926,0.819007666733,0.00315823178582,0.0,0.81897755031,-0.57369121663,-0.0116149451968,0.0,-0.00770102759787,0.00925085635727,-0.999927555291,0.0,0.563725806735,0.132505175242,0.30433454454,1.0,-0.222430285714,-0.292336946939,1.733
0.34470136668,0.104021134021,-0.127468412308,-1.99942359619,0.0276504153979,2.09677881785,0.0295579577301,-0.374651655363,-0.852919721771,-0.00792055840037,-1.07962428165,-0.12082309876,0.24766799827,-0.336579262285,0.573719112015,0.819034635886,0.00306473942652,0.0,0.819002824368,-0.573652968163,-0.0117214630454,0.0,-0.00784233833808,0.00923503541925,-0.999926603232,0.0,0.55988803907,0.127490035094,0.304291741044,1.0,-0.227132,-0.298516342857,1.75
0.338687805324,0.0905424304447,-0.127584367177,-2.01677149327,0.0257538034534,2.10080765091,0.0240147620317,-0.385572662835,-0.81051374095,-0.0106201273909,-1.10007088514,-0.111425610313,0.250317662534,-0.351144606186,0.573619217823,0.819104218812,0.00316521228963,0.0,0.819073640258,-0.573552662868,-0.0116816802248,0.0,-0.00775324689172,0.00929355715545,-0.999926755797,0.0,0.556243920402,0.122774166438,0.304323436571,1.0,-0.231557142857,-0.304332244898,1.766
0.331935803296,0.0759452835028,-0.127763674319,-2.03527988256,0.0236784271072,2.10487321985,0.0178574349305,-0.402685384303,-0.866492343768,-0.00968277413564,-1.09003765782,-0.132959719049,0.253478637885,-0.361831124454,0.573577967997,0.819132734605,0.0032595442276,0.0,0.819103308872,-0.573511021704,-0.011645783809,0.0,-0.00767020587303,0.00934984848868,-0.999926871464,0.0,0.552289489211,0.117579021927,0.304399377327,1.0,-0.236258857143,-0.310511640816,1.783
0.324817115915,0.0613119193579,-0.127985677001,-2.0539695711,0.0215534164362,2.10874559958,0.0115184204005,-0.430741085357,-0.880962919637,-0.018664814453,-1.08052949329,-0.128487016481,0.216720767577,-0.374614057057,0.573692056546,0.819053409182,0.00311192309741,0.0,0.819021352483,-0.573624739404,-0.0118080235989,0.0,-0.00788647774769,0.00932308030442,-0.999925439042,0.0,0.547974478349,0.111881465918,0.304341997799,1.0,-0.23998,-0.315402285714,1.801
0.317883693951,0.0474914132883,-0.128178001017,-2.07128953556,0.0195243992734,2.11241381269,0.00538142603961,-0.43325260922,-0.865433422927,-0.00801433274999,-1.0737935779,-0.126240659832,0.2211137161,-0.387034337931,0.573746438066,0.819015017373,0.0031895181543,0.0,0.818984094999,-0.573678992687,-0.0117563765781,0.0,-0.00779903956111,0.00935752398666,-0.999925803111,0.0,0.544411608282,0.107121053103,0.304361757622,1.0,-0.23998,-0.315402285714,1.816
0.310426690077,0.0328092863794,-0.128319975512,-2.08949632222,0.0174233465397,2.11598530568,-0.00121727980435,-0.440511066982,-0.85716194204,-0.0104720939602,-1.07078599131,-0.134763293601,0.215695313311,-0.391708335939,0.573771298961,0.818997347881,0.00325385218607,0.0,0.81896670569,-0.573702957714,-0.0117982279572,0.0,-0.00779612288308,0.00943446282872,-0.999925102885,0.0,0.540060836317,0.101478824457,0.304401357342,1.0,-0.23998,-0.315402285714,1.834
0.302271832343,0.017460345307,-0.12849466629,-2.10838079982,0.0150856855881,2.11954782627,-0.00841319438302,-0.458437619106,-0.844101098959,-0.0102616124694,-1.02761622962,-0.127872484347,0.19835326448,-0.399269189689,0.573779054738,0.818992077318,0.00321255903568,0.0,0.818960804502,-0.573710744429,-0.0118291723386,0.0,-0.00784506983261,0.00941847258995,-0.999924870804,0.0,0.535979114417,0.0960819992723,0.304402617301,1.0,-0.23998,-0.315402285714,1.851
0.294777035742,0.00387190366571,-0.128697243018,-2.1248857079,0.0130572257847,2.12252646014,-0.0149300486286,-0.470737662515,-0.865334477656,-0.0132446170862,-1.03708193854,-0.114331905858,0.179811979218,-0.404861429937,0.573913132587,0.818897977598,0.0032504509902,0.0,0.818866975887,-0.573844402456,-0.0118416414726,0.0,-0.0078319939373,0.00945794261981,-0.999924600754,0.0,0.532145320749,0.0909478581994,0.304435951087,1.0,-0.23998,-0.315402285714,1.867
0.286818551443,-0.0104719958008,-0.12877019007,-2.14203380293,0.0109148951396,2.12562140845,-0.022012188423,-0.464448547111,-0.831984490149,-0.00166937306835,-1.02125848962,-0.118305534961,0.180422314647,-0.423259973514,0.573780030054,0.818990392065,0.00345857164143,0.0,0.818962457805,-0.573711055302,-0.0116989158733,0.0,-0.00759722518168,0.00954522840855,-0.999925582623,0.0,0.528100489478,0.0856741841824,0.304530323085,1.0,-0.23998,-0.315402285714,1.884
0.278620587283,-0.0246024512845,-0.128895638387,-2.15901474485,0.00870393253513,2.12829973313,-0.0292192826643,-0.490376758829,-0.836639836674,-0.00728874913019,-0.966332536901,-0.117933260047,0.153908139339,-0.426250944372,0.573721782985,0.81903186625,0.00329616393945,0.0,0.819001332799,-0.573652764816,-0.0118350831523,0.0,-0.00780260690865,0.00948979037531,-0.999924528754,0.0,0.523973685283,0.0803170855288,0.304488777755,1.0,-0.23998,-0.315402285714,1.901
0.270661286272,-0.0378738301408,-0.12910807747,-2.17463240744,0.00667703242109,2.13083770685,-0.0360765402752,-0.501469527263,-0.851835445206,-0.0122854320641,-0.969379168975,-0.123247132941,0.139986689087,-0.439754514008,0.573879758338,0.818920639804,0.00342864035955,0.0,0.818892085413,-0.573810579078,-0.0117438786922,0.0,-0.00765006182959,0.00954744453786,-0.999925158628,0.0,0.520176589651,0.0752041434821,0.304545826695,1.0,-0.23998,-0.315402285714,1.917
0.262094159914,-0.0519151815628,-0.129220559738,-2.19094872691,0.0046091755534,2.13332860933,-0.0435607413916,-0.504683744421,-0.863090992485,-0.00212662481746,-0.948729916888,-0.128825783105,0.153973280099,-0.443976295491,0.573892534286,0.818910809174,0.00363216329437,0.0,0.818884683367,-0.573822413109,-0.011681629247,0.0,-0.00748213980709,0.00967850904367,-0.999925169223,0.0,0.516121551122,0.0698766965161,0.304624243331,1.0,-0.23998,-0.315402285714,1.934
0.252879988334,-0.0664452856558,-0.129360794139,-2.20807286066,0.0022797626429,2.1356564851,-0.0517076231892,-0.51105307999,-0.829432023194,-0.00712592009176,-0.931969996714,-0.121036046206,0.114652409181,-0.458796143151,0.573766410912,0.819000141448,0.00340894679636,0.0,0.818970388723,-0.573696145288,-0.011873591604,0.0,-0.00776892314241,0.00960467944203,-0.999923694072,0.0,0.511743949235,0.064226320141,0.304509492284,1.0,-0.23998,-0.315402285714,1.952
0.24493904128,-0.0786325075162,-0.129577783708,-2.22190344472,0.000405326526795,2.13751637719,-0.0586227539621,-0.535351134691,-0.794040920626,-0.0184935992856,-0.919374010045,-0.127088964815,0.118988038718,-0.466328166915,0.573881080815,0.818919148406,0.00356094882972,0.0,0.818891640012,-0.573810608327,-0.0117734697931,0.0,-0.00759835593445,0.00967278902814,-0.999924348208,0.0,0.507953010571,0.0591080903487,0.304586185763,1.0,-0.23998,-0.315402285714,1.968
0.235294270644,-0.0930074250432,-0.129690245087,-2.23839416236,-0.00177581297111,2.13943785857,-0.0670383988707,-0.532259888444,-0.782032869222,-0.00761258670903,-0.889689328352,-0.11733778887,0.101601830709,-0.467229826526,0.573858564823,0.818935179598,0.0035022986985,0.0,0.818905513597,-0.573786544737,-0.0119794732969,0.0,-0.00780099044027,0.00974276264632,-0.999922108529,0.0,0.503829540112,0.053799399259,0.304533618283,1.0,-0.23998,-0.315402285714,1.985
0.226024769882,-0.10652775939,-0.129842820737,-2.25358786545,-0.00398415262106,2.14115223533,-0.0751289880429,-0.549828371416,-0.795315330512,-0.00942527334085,-0.902032210551,-0.116456057066,0.0879442379437,-0.475311227271,0.573817733049,0.818963836331,0.0034915499945,0.0,0.818934420897,-0.573746246151,-0.0119334068242,0.0,-0.00776991452556,0.00970713781666,-0.999922696964,0.0,0.499759734896,0.0484585977692,0.304550905789,1.0,-0.23998,-0.315402285714,2.002
0.216432705506,-0.120019677011,-0.130064960551,-2.26853584555,-0.00616016161195,2.14269206068,-0.0834347987859,-0.570322490448,-0.79002860964,-0.0117519185578,-0.857499921709,-0.124019904701,0.097880963525,-0.493990984561,0.573912509144,0.818897216855,0.00353934687034,0.0,0.818868704186,-0.573841189699,-0.0118777612106,0.0,-0.00769579074686,0.00971524317332,-0.999923191478,0.0,0.49568914371,0.0430237217613,0.304592001208,1.0,-0.23998,-0.315402285714,2.019
0.207391882281,-0.132564118882,-0.130166495458,-2.28240892564,-0.00806887826094,2.14394236673,-0.0914486359068,-0.567715685365,-0.772875414812,-0.00630277209403,-0.848091820458,-0.130588656682,0.0768625243933,-0.510234672391,0.573806047219,0.81897174556,0.00355626905465,0.0,0.818942449303,-0.573733416664,-0.0119990929894,0.0,-0.00778671765383,0.00979772044496,-0.999921682784,0.0,0.491814105764,0.038059574554,0.304574969318,1.0,-0.23998,-0.315402285714,2.035
0.19689927214,-0.146567115888,-0.130361801306,-2.29757266246,-0.0103206521804,2.14529627171,-0.100637660383,-0.593170028549,-0.769039315955,-0.0127696251328,-0.847685266936,-0.125985776223,0.0727907166792,-0.513785494564,0.573807341761,0.818970241317,0.00369124363786,0.0,0.818943339633,-0.573735038163,-0.0118599896973,0.0,-0.00759532904861,0.00982845778198,-0.999922853221,0.0,0.487543748684,0.0323719701615,0.304638289595,1.0,-0.23998,-0.315402285714,2.053
0.187943032279,-0.158124141583,-0.130540813472,-2.31013952675,-0.0122234783372,2.1461431002,-0.108448070016,-0.596270610835,-0.760706054882,-0.00593581046156,-0.836573534053,-0.136096005851,0.0475584605052,-0.527108952797,0.573839267926,0.818948368806,0.00357920614241,0.0,0.818919494261,-0.573766702639,-0.0119741289285,0.0,-0.00775271331126,0.00980249579081,-0.999921900207,0.0,0.483898256671,0.0275971730098,0.304596268892,1.0,-0.23998,-0.315402285714,2.068
0.177178454709,-0.171904398483,-0.130680784894,-2.32469453047,-0.0142628554133,2.14708984466,-0.118009795166,-0.607317797707,-0.735149350804,-0.0123445110244,-0.811151766402,-0.11726338333,0.0505814409876,-0.543891692453,0.573771157911,0.818994996016,0.00382122377997,0.0,0.818968812277,-0.57369713043,-0.0119345697521,0.0,-0.00758227377152,0.00997736710157,-0.999921477552,0.0,0.479622357454,0.0220303716284,0.304680208168,1.0,-0.23998,-0.315402285714,2.086
0.166602953116,-0.184735596341,-0.130916075369,-2.33837629781,-0.016409904971,2.14772958219,-0.127223180145,-0.633240196912,-0.760150655095,-0.0184163724387,-0.821284514444,-0.117391530925,0.0312458725409,-0.54780058808,0.573854740287,0.818937091915,0.0036774225823,0.0,0.818908427175,-0.573780444277,-0.0120721401463,0.0,-0.00777643990212,0.00993931855399,-0.999920365294,0.0,0.475494726914,0.0165979743274,0.304622886721,1.0,-0.23998,-0.315402285714,2.103
0.156589289339,-0.19681312262,-0.13103603012,-2.35077479502,-0.0183592120961,2.14837306844,-0.136114679962,-0.623774007389,-0.755811929946,-0.00314981983246,-0.768909898457,-0.120678026235,0.0290431628198,-0.560917287375,0.573742708122,0.819014575607,0.00389573109023,0.0,0.818990069484,-0.573669366368,-0.0118097874266,0.0,-0.0074376696493,0.00996653638345,-0.999922671622,0.0,0.471728262761,0.0116046345578,0.30474239379,1.0,-0.23998,-0.315402285714,2.119
0.145701457018,-0.209377917891,-0.131253744259,-2.36396062051,-0.0203190350504,2.14869066443,-0.145736126662,-0.648868024126,-0.733660705166,-0.0185741545055,-0.764101763673,-0.113777126256,0.0161802499217,-0.565658343213,0.573787800643,0.818983413766,0.00380456449363,0.0,0.818955858463,-0.573712321141,-0.0120922024899,0.0,-0.00772073639664,0.0100543222294,-0.999919647189,0.0,0.467579132338,0.00624785717189,0.304655806588,1.0,-0.23998,-0.315402285714,2.136
0.134514799296,-0.22192830587,-0.131477147654,-2.37658054671,-0.0223781346411,2.14905033606,-0.155509206239,-0.657595077666,-0.721379676691,-0.00869478899302,-0.736964886727,-0.127715219724,0.0105485521672,-0.572857123859,0.573905210491,0.818900204087,0.00400150201147,0.0,0.818876521538,-0.573830740183,-0.0118436056942,0.0,-0.0074026887837,0.0100740370234,-0.999921853935,0.0,0.463577192152,0.000833873487393,0.304771026924,1.0,-0.23998,-0.315402285714,2.153
0.124056432485,-0.233531634838,-0.131630407076,-2.38850326394,-0.0242362461574,2.14915573624,-0.164979088961,-0.663509793448,-0.714129680827,-0.0135765508808,-0.740454447813,-0.120451998423,0.0029058074505,-0.59823793475,0.573698122628,0.819045677745,0.00392285110863,0.0,0.819019948894,-0.57362258698,-0.0120082438825,0.0,-0.00758521028684,0.0101021947845,-0.999920201939,0.0,0.459443649867,-0.00441550476426,0.304699699146,1.0,-0.23998,-0.315402285714,2.17
0.111717153284,-0.246510754464,-0.131897170593,-2.40127987754,-0.0263193139119,2.14923265528,-0.175824094577,-0.687749268798,-0.720114843479,-0.00992157565825,-0.717107503108,-0.111168357155,0.00231296944103,-0.60234565531,0.573875091426,0.818920494006,0.00416543386241,0.0,0.818898834056,-0.573799923592,-0.0117938191244,0.0,-0.00726821448723,0.0101794439474,-0.99992177293,0.0,0.455445341232,-0.00986273245683,0.304813888298,1.0,-0.23998,-0.315402285714,2.187
0.100106940923,-0.258558782292,-0.132031209025,-2.41335359211,-0.0282415671457,2.14916087428,-0.186325010516,-0.688605468561,-0.719011765144,-0.00662615028132,-0.705226250654,-0.115703718713,-0.00197218168375,-0.615348268783,0.57369480164,0.819046763979,0.00417371403055,0.0,0.819024665453,-0.57361887003,-0.0118632299805,0.0,-0.00732255998182,0.0102244449603,-0.999920917293,0.0,0.45134211382,-0.015121577716,0.304765437756,1.0,-0.23998,-0.315402285714,2.204
0.0888133563052,-0.269790768332,-0.132302399522,-2.4242364496,-0.0300846766415,2.14901127275,-0.196347561032,-0.716634016557,-0.706262452617,-0.0219869544905,-0.67144541596,-0.119324273164,-0.00415331586892,-0.634251639049,0.573807510988,0.818966959393,0.00433666431485,0.0,0.81894784549,-0.573732259726,-0.0116819269397,0.0,-0.00707916426446,0.0102548767562,-0.999922358454,0.0,0.447565302466,-0.0202215782849,0.304837315791,1.0,-0.23998,-0.315402285714,2.22
0.0767168462414,-0.281510049548,-0.132438267546,-2.43569286783,-0.0320372859268,2.14865389526,-0.20723951163,-0.704200752352,-0.705557774711,-0.00891380852041,-0.675455404174,-0.109345453965,-0.0269882221205,-0.650067388708,0.57367841528,0.819057618787,0.00429416470911,0.0,0.819037913115,-0.573603260278,-0.0117022894861,0.0,-0.00712183960099,0.0102306315608,-0.999922303771,0.0,0.443482339169,-0.0255213552381,0.304808224908,1.0,-0.23998,-0.315402285714,2.237
0.064372039438,-0.293110628989,-0.132707278574,-2.44683850858,-0.0338071365427,2.14815010894,-0.21842423951,-0.730053492651,-0.684740582225,-0.0250768831724,-0.635031252671,-0.105527898869,-0.0294626720651,-0.664807512504,0.573693903145,0.819046088368,0.00442238898721,0.0,0.8190271649,-0.573617052409,-0.0117782529603,0.0,-0.007110311175,0.0103793684623,-0.999920852961,0.0,0.439403920613,-0.0308697501613,0.304809015306,1.0,-0.23998,-0.315402285714,2.254
0.0524766365421,-0.303890349454,-0.132897740466,-2.45695684828,-0.0356578118503,2.14767905119,-0.229068461079,-0.72577162278,-0.662119000806,-0.00851914994822,-0.643737603999,-0.104563370032,-0.0350548780651,-0.664844186929,0.57370431005,0.819038328803,0.00450860105486,0.0,0.819021965041,-0.57362932444,-0.0115397497611,0.0,-0.00686536376142,0.0103132460323,-0.999923248923,0.0,0.435627747661,-0.0359430947821,0.304879343266,1.0,-0.23998,-0.315402285714,2.27
0.0389677200046,-0.315801823817,-0.133157645225,-2.46829538492,-0.0375885410293,2.1468220424,-0.241277308678,-0.761991110787,-0.664075833834,-0.0217151441412,-0.620142930994,-0.11408630629,-0.0395897657023,-0.686555550244,0.573719145313,0.819028293893,0.00444331029832,0.0,0.819009760613,-0.573642395255,-0.0117542029997,0.0,-0.00707828994557,0.0103829257061,-0.999921043216,0.0,0.431248233099,-0.0415922845305,0.304812647344,1.0,-0.23998,-0.315402285714,2.288
0.0266889468268,-0.326289221388,-0.133371264002,-2.4778262259,-0.0392712368543,2.14615544154,-0.252421815872,-0.759665848757,-0.653177093392,-0.0046363844031,-0.5883255375,-0.0954728116264,-0.0397481340972,-0.697268456366,0.57372149265,0.819025389292,0.00466984659724,0.0,0.819011126127,-0.573646064521,-0.011476708623,0.0,-0.0067210060255,0.0104092911334,-0.999923234422,0.0,0.427495131165,-0.0466494983318,0.304928490195,1.0,-0.23998,-0.315402285714,2.304
0.0143106012572,-0.33649521738,-0.133556468326,-2.48736651361,-0.0408700512502,2.14527038922,-0.26376432243,-0.792077765395,-0.636659269184,-0.0193100119517,-0.598326025694,-0.0926253354652,-0.0633850695089,-0.718043888929,0.573648861838,0.819076278618,0.00466690674278,0.0,0.819060816328,-0.573571666685,-0.0116477136286,0.0,-0.00686369260193,0.0105043803544,-0.999921270759,0.0,0.423626549295,-0.0516309910262,0.304867745875,1.0,-0.23998,-0.315402285714,2.32
0.000812110438772,-0.347189624512,-0.133807301655,-2.49715302508,-0.0427380316436,2.14419080336,-0.275984026204,-0.792881133546,-0.626650501533,-0.00688580725886,-0.557335425637,-0.0973383184132,-0.0679730559809,-0.734334176706,0.573664885792,0.819065550519,0.00457926446644,0.0,0.819048796772,-0.573587728519,-0.0117018416982,0.0,-0.00695809947403,0.0104637781929,-0.999921043982,0.0,0.419284005729,-0.0573414566979,0.304851227127,1.0,-0.23998,-0.315402285714,2.338
-0.0136106024599,-0.358343484111,-0.134069100161,-2.50700479067,-0.0445301745107,2.14313585538,-0.2892382105,-0.823414046342,-0.60618620611,-0.017504944326,-0.554854255359,-0.0984435703772,-0.0635377085738,-0.738035149406,0.573655161016,0.819071164882,0.00478852795718,0.0,0.81905835217,-0.573579280834,-0.0114442666893,0.0,-0.00662719602053,0.0104873483822,-0.999923044937,0.0,0.41528945551,-0.0626936903906,0.304957550082,1.0,-0.23998,-0.315402285714,2.355
-0.0275302846427,-0.368647390728,-0.134277573939,-2.51631197355,-0.0462086585361,2.14186350844,-0.302006961462,-0.821659460969,-0.606994449165,-0.00843130457645,-0.537625491635,-0.0992460128037,-0.0711441117747,-0.749337730616,0.573633558599,0.819086622934,0.00473196372919,0.0,0.819071969533,-0.573556112138,-0.0116293531668,0.0,-0.00681153203613,0.0105470091553,-0.999921178708,0.0,0.411145552223,-0.0680360775696,0.304904431478,1.0,-0.23998,-0.315402285714,2.372
-0.0415966432417,-0.378679966785,-0.134560287864,-2.52518200249,-0.0478758661743,2.14056989793,-0.314950378177,-0.846089197081,-0.585015673141,-0.0255619566647,-0.499855226111,-0.0974684542529,-0.0661711753521,-0.754611917918,0.573657670828,0.819069662715,0.00474459916725,0.0,0.819054755709,-0.573579535102,-0.0116863580304,0.0,-0.00685066824228,0.0105902593353,-0.999920454212,0.0,0.407061139922,-0.0733906671389,0.304900792169,1.0,-0.23998,-0.315402285714,2.389
-0.0550805749914,-0.387898790174,-0.13476243972,-2.53314310231,-0.0494169986384,2.13944129191,-0.327399411853,-0.841846975203,-0.565679524424,-0.0115117629918,-0.500290678688,-0.0932316087351,-0.0750517960702,-0.782745055338,0.573633493931,0.819086011525,0.00484430248432,0.0,0.819073448599,-0.573556712206,-0.0114948068496,0.0,-0.00663688107039,0.0105618491054,-0.99992219655,0.0,0.403289086676,-0.0784411862463,0.304961421365,1.0,-0.23998,-0.315402285714,2.405
-0.0687816492456,-0.396921112242,-0.135052148176,-2.54105561053,-0.0509341116818,2.13808145917,-0.340067643641,-0.860466051708,-0.555193057562,-0.0289815703764,-0.480955826629,-0.0952451463501,-0.0867129927866,-0.802674291951,0.573679400209,0.819054083572,0.0048063355834,0.0,0.819040027869,-0.573601145189,-0.0116578680588,0.0,-0.00679163560454,0.0106246645436,-0.999920491934,0.0,0.399397987228,-0.0835109497179,0.304915999629,1.0,-0.23998,-0.315402285714,2.421
-0.0834055988469,-0.406244758762,-0.135257431773,-2.54912939833,-0.0524477363021,2.13660432645,-0.35375600092,-0.857455988646,-0.552565408936,-0.0127427921188,-0.457552069909,-0.0773564281933,-0.0848273603612,-0.813349863319,0.573568036802,0.819132120941,0.00479817709892,0.0,0.819117021721,-0.573488368,-0.0117959059289,0.0,-0.00691083974324,0.0106962290765,-0.999918912201,0.0,0.395303139985,-0.0888006404097,0.304884583116,1.0,-0.23998,-0.315402285714,2.438
-0.098441601097,-0.415327662764,-0.13558295842,-2.55669343063,-0.0539379012245,2.13529495896,-0.367664215124,-0.887915101919,-0.523554189616,-0.0137238535449,-0.438418371509,-0.0953191907917,-0.0814425109928,-0.814809603578,0.573728442751,0.819018624871,0.00499129182755,0.0,0.819007319522,-0.573650181134,-0.0115424068594,0.0,-0.00659031761675,0.0107103178605,-0.999920925276,0.0,0.391057985407,-0.0945613692024,0.304971612323,1.0,-0.23998,-0.315402285714,2.456
-0.115298961932,-0.42512576248,-0.135773403677,-2.56507910172,-0.0556038975211,2.133515582,-0.383533968954,-0.890031359603,-0.503445944473,-0.0084272348332,-0.443557256971,-0.0872663086113,-0.0978938965927,-0.834942108661,0.573551314189,0.819143302782,0.00488737153934,0.0,0.819129326946,-0.573471294993,-0.0117714254879,0.0,-0.00683984875512,0.0107551129873,-0.999918768708,0.0,0.386692350402,-0.100156942253,0.304907765882,1.0,-0.23998,-0.315402285714,2.474
-0.128870325465,-0.432621714265,-0.136052431022,-2.57141326495,-0.0569107717598,2.13216906549,-0.396155504428,-0.910993853774,-0.490617142921,-0.0107009474234,-0.414419093438,-0.0899178744079,-0.0896380609143,-0.852037568849,0.573657522552,0.819069029666,0.00487015021807,0.0,0.819054224131,-0.573576595287,-0.011866514798,0.0,-0.00692622393174,0.0107964404535,-0.999917728764,0.0,0.383061481967,-0.104910110286,0.304872998972,1.0,-0.23998,-0.315402285714,2.489
-0.144371650793,-0.440856226554,-0.136288465408,-2.57815512703,-0.0582406519534,2.13069031732,-0.410806234426,-0.928421229221,-0.480981050221,-0.0239388649511,-0.382606857768,-0.0776510242482,-0.0785138197947,-0.86398672934,0.573614179531,0.819098648326,0.00499241955735,0.0,0.819085726935,-0.573533306315,-0.0117841155821,0.0,-0.00678916496226,0.0108489642696,-0.999918100253,0.0,0.379027227484,-0.110250086914,0.304914357743,1.0,-0.23998,-0.315402285714,2.506
-0.159229703552,-0.448397070413,-0.136489584101,-2.58417106455,-0.0595006679934,2.12930882743,-0.424778310432,-0.924090863055,-0.460660660616,-0.00725398301027,-0.384835371849,-0.0727099175282,-0.0821140193045,-0.8787491926,0.573634585419,0.81908363079,0.00511029197194,0.0,0.819073456032,-0.573555311787,-0.0115639459637,0.0,-0.00654092967409,0.0108193921623,-0.999920075302,0.0,0.375242384463,-0.115318073736,0.305003287414,1.0,-0.23998,-0.315402285714,2.522
-0.175122219807,-0.456025410864,-0.136807106969,-2.59054874581,-0.060803518251,2.1276345684,-0.43983325457,-0.948773067036,-0.447345756278,-0.023066911546,-0.366044123798,-0.0810164223157,-0.104936858024,-0.890115667177,0.573660894334,0.819065440832,0.00507236113869,0.0,0.819052714491,-0.573578383294,-0.0118842754748,0.0,-0.00682473402663,0.0109722865074,-0.999916512482,0.0,0.371081443182,-0.120661260336,0.304916437084,1.0,-0.23998,-0.315402285714,2.539
-0.19113431029,-0.463318490079,-0.137000041882,-2.59647460453,-0.0620835756314,2.12615468999,-0.455136041179,-0.949057311923,-0.418698168831,-0.0134156978128,-0.349004659809,-0.0736773886097,-0.0799255170805,-0.906382692384,0.573518153524,0.819165388266,0.00507357348599,0.0,0.819152685984,-0.573435676836,-0.011880592469,0.0,-0.00682293345938,0.0109699780102,-0.999916550099,0.0,0.367025369628,-0.125971094126,0.304907262447,1.0,-0.23998,-0.315402285714,2.556
-0.206594849046,-0.469910866126,-0.137263847188,-2.60174151305,-0.063211393577,2.12477352493,-0.469674250063,-0.960471771302,-0.415964984145,-0.00122165500837,-0.318420905664,-0.0749311824721,-0.0844376576064,-0.909724602355,0.57368428889,0.819048537271,0.00515530568125,0.0,0.819036990061,-0.573601643768,-0.0118452555925,0.0,-0.00674487731352,0.0110180352106,-0.999916551283,0.0,0.362942863253,-0.131390047071,0.30492066117,1.0,-0.23998,-0.315402285714,2.573
-0.223941196833,-0.476998664295,-0.137511311043,-2.6071652512,-0.0644409220375,2.12325871597,-0.486302824483,-0.976811972752,-0.382948057493,-0.0212671050534,-0.295768952856,-0.0656127297496,-0.086660794559,-0.930459794842,0.57364084004,0.819078194215,0.00527686462631,0.0,0.819069558291,-0.573560017303,-0.0116065556557,0.0,-0.00648020284516,0.0109803249202,-0.999918716414,0.0,0.358944946861,-0.136750165863,0.305024599244,1.0,-0.23998,-0.315402285714,2.59
-0.240445585673,-0.483245821798,-0.137686935222,-2.61221565492,-0.0654671729036,2.12178568047,-0.502188114298,-0.971923219139,-0.355640170626,-0.00699590409405,-0.29145957724,-0.0551232540898,-0.0914860865016,-0.941414524239,0.573557483729,0.819136317717,0.00531533221952,0.0,0.819126960556,-0.573474488872,-0.0117804925188,0.0,-0.00660174893909,0.0111109354914,-0.999916478524,0.0,0.354866261247,-0.14202208347,0.304971158388,1.0,-0.235806285714,-0.309916832653,2.607
-0.256125916617,-0.488690466315,-0.137860369299,-2.61660252464,-0.0664040872535,2.12041758944,-0.517046936637,-0.977657027822,-0.331858220288,-0.0054824839797,-0.264567130573,-0.0577665395264,-0.0930642029499,-0.93493108016,0.573710231813,0.81902930774,0.00532070274176,0.0,0.819018641778,-0.573624884817,-0.0119876119315,0.0,-0.00676624827557,0.011235386669,-0.999913988286,0.0,0.351045133336,-0.146999833251,0.304913719939,1.0,-0.231381142857,-0.304100930612,2.623
-0.272497192833,-0.494026083707,-0.137871891791,-2.62079096319,-0.067247690279,2.11921209675,-0.53277736136,-0.964258082703,-0.311100435618,-0.00148514674545,-0.233864699799,-0.0433543501775,-0.0638067233708,-0.927867293772,0.573646965448,0.819073140298,0.00539414272209,0.0,0.819063625132,-0.573561679155,-0.0119383873173,0.0,-0.00668466753333,0.0112667826698,-0.999914183732,0.0,0.347168406107,-0.152116204451,0.304914494522,1.0,-0.226679428571,-0.297921534694,2.64
-0.288837378438,-0.498969439648,-0.137869047339,-2.62459522118,-0.0680309403345,2.11797516496,-0.548323103815,-0.950501848458,-0.279482451592,0.010529125681,-0.219541524318,-0.0465299486834,-0.0760495392281,-0.912557898342,0.573744523479,0.819004430524,0.00545082207599,0.0,0.818995642546,-0.573658989285,-0.0119267935376,0.0,-0.0066413115322,0.0113073497049,-0.999914014715,0.0,0.34333037459,-0.157180950793,0.304932155112,1.0,-0.221977714286,-0.291742138776,2.657
-0.303961603268,-0.503229654509,-0.137884434641,-2.62784766668,-0.0686379773453,2.11688163704,-0.562810655435,-0.95055723177,-0.258493394532,-0.00274524914184,-0.194698394688,-0.0364730511715,-0.0639257389438,-0.898489748525,0.573831721746,0.818942503689,0.00557473495559,0.0,0.818935125745,-0.573745356683,-0.0119277997953,0.0,-0.00656983042198,0.0114101158451,-0.999913319536,0.0,0.33980073657,-0.161831272393,0.304950552216,1.0,-0.217552571429,-0.285926236735,2.673
-0.320774287981,-0.507546999623,-0.137806375878,-2.63112251997,-0.0692841300685,2.11581969764,-0.578990228966,-0.927076369647,-0.232568220493,0.000402159237621,-0.174150510239,-0.0300993141746,-0.0587698982023,-0.895765177222,0.573830045659,0.818943082973,0.00566148841028,0.0,0.818937307151,-0.573744189563,-0.0118337990294,0.0,-0.00644308583011,0.0114272135198,-0.999913949016,0.0,0.335941030933,-0.166956424535,0.304979564315,1.0,-0.212574285714,-0.279383346939,2.691
-0.336478000769,-0.511266185115,-0.13777882894,-2.6339620976,-0.0699016678905,2.11485213654,-0.594023856538,-0.913788217988,-0.21190355425,0.00796724642243,-0.166957064404,-0.0332543001461,-0.0564162616133,-0.881892640104,0.573931418051,0.818871768313,0.00570099419904,0.0,0.818866599503,-0.573845564968,-0.0118112948445,0.0,-0.00640056888916,0.0114474473315,-0.999913990635,0.0,0.332321888394,-0.171721079287,0.304986079332,1.0,-0.207872571429,-0.27320395102,2.708
-0.350862439618,-0.514302750498,-0.137627864366,-2.63635918429,-0.0703105081688,2.11395182828,-0.608015571438,-0.897156391793,-0.184939079659,0.0087597091561,-0.147792486028,-0.0233661713208,-0.0499472676963,-0.877136488086,0.573832747831,0.818940635704,0.00574104605256,0.0,0.818934902624,-0.573744827447,-0.0119685063213,0.0,-0.00650772599226,0.0115696866121,-0.999911892046,0.0,0.329023757486,-0.176001317345,0.304946500311,1.0,-0.203447428571,-0.26738804898,2.724
-0.366106697322,-0.517164512963,-0.137521972037,-2.63864513676,-0.0707419728498,2.11314002372,-0.622667905743,-0.877927336061,-0.157905902533,0.0197588559745,-0.121772241803,-0.021555987711,-0.0456810171097,-0.860383142425,0.573926074479,0.818874949391,0.00578145253118,0.0,0.818868854366,-0.573836394646,-0.0120970422192,0.0,-0.00658848380746,0.0116772841884,-0.999910112418,0.0,0.325552942289,-0.180545012309,0.304896633911,1.0,-0.198745714286,-0.261208653061,2.741
-0.380967147172,-0.519716658583,-0.137378153025,-2.64063727365,-0.0710837910945,2.11244065948,-0.637013395515,-0.879533386923,-0.145704894924,0.0027195098205,-0.111866877192,-0.0171760017275,-0.0453469690306,-0.842004856323,0.573989716125,0.818829748924,0.0058647217917,0.0,0.818824361496,-0.573898996729,-0.0121389240066,0.0,-0.00657408071558,0.0117700212304,-0.999909119902,0.0,0.322004489055,-0.185204951407,0.304872573909,1.0,-0.193767428571,-0.254665763265,2.759
-0.394676481153,-0.521789065499,-0.137189182936,-2.64220594129,-0.0713752750758,2.11181488493,-0.650357389146,-0.84289393461,-0.126464208769,0.0133687251582,-0.0970776141951,-0.0102462255797,-0.0386498951212,-0.827093275828,0.573933623283,0.818868882498,0.00589035170297,0.0,0.81886368938,-0.573842553768,-0.012154365521,0.0,-0.00657282379502,0.0117994213448,-0.999908781661,0.0,0.319138229961,-0.188982756797,0.304874520514,1.0,-0.189618857143,-0.249213355102,2.774
-0.409068028854,-0.523807880013,-0.137050115784,-2.64363762893,-0.071623924365,2.11122809651,-0.664245586863,-0.853627105651,-0.106784307397,0.00478987168215,-0.0775707863684,-0.0175888374316,-0.0263216093665,-0.815831882591,0.574056982111,0.818781637507,0.00599652158291,0.0,0.818778331646,-0.573966346388,-0.0120591767059,0.0,-0.00643215470518,0.0118327043401,-0.999909303134,0.0,0.315933492014,-0.193227289903,0.304917821701,1.0,-0.184917142857,-0.243033959184,2.791
-0.424677784818,-0.525657642619,-0.136786588655,-2.64497430501,-0.0718535161843,2.11070473979,-0.679504252287,-0.823280452863,-0.090599841231,0.0159962394853,-0.0662438040842,-0.00798496564291,-0.0221306439432,-0.798006974985,0.573981647545,0.818834032917,0.00605324040177,0.0,0.818832062928,-0.573891900098,-0.0119535193522,0.0,-0.00631416439002,0.0118179155888,-0.99991023007,0.0,0.312487668094,-0.197789484393,0.304949874336,1.0,-0.179662285714,-0.23612757551,2.81
-0.43524078799,-0.526709422489,-0.136694970078,-2.64574708969,-0.0719935423358,2.11036720857,-0.689716117663,-0.808765318028,-0.0753530527513,0.00515739986258,-0.0546695795072,-0.00872401784389,-0.0317993971774,-0.785800097778,0.574099399404,0.8187509931,0.0061186438782,0.0,0.818749887554,-0.574009385331,-0.0119412764251,0.0,-0.00626489353895,0.0118653470557,-0.999909978272,0.0,0.310139399278,-0.200889643968,0.304956922157,1.0,-0.176066857143,-0.231402155102,2.823
-0.450156548538,-0.527970754793,-0.136371460256,-2.64670638041,-0.0721403270902,2.10994737113,-0.704316962314,-0.774462249472,-0.057175187449,0.00796372501584,-0.0445229874636,-0.00517157615285,-0.0173803107752,-0.763169336133,0.57401022983,0.818813392809,0.00613438743849,0.0,0.818812450535,-0.573920091048,-0.0119434853148,0.0,-0.00625895803967,0.0118788242657,-0.999909855426,0.0,0.306848691353,-0.205196766911,0.304954400794,1.0,-0.170812,-0.224495771429,2.842
-0.463335835985,-0.52880644769,-0.136187151641,-2.64736108736,-0.0722425488994,2.1096328748,-0.717054837307,-0.77132561024,-0.0420553058097,0.00749382785724,-0.030229851089,-0.00848955845411,-0.0200170059911,-0.746296154513,0.574159967597,0.818707988238,0.00618938646637,0.0,0.818707461524,-0.574068996626,-0.0119844256956,0.0,-0.00625873067291,0.0119485043971,-0.999909026628,0.0,0.303930815778,-0.209024482666,0.304939883708,1.0,-0.166110285714,-0.21831637551,2.859
-0.475225826909,-0.529341264058,-0.135864320701,-2.64779977231,-0.0722804937118,2.10941495745,-0.728790998929,-0.738645433408,-0.030675586305,0.0172634304564,-0.0224459096791,-0.00122572640619,-0.0163457669613,-0.729649035024,0.574016689897,0.818808460171,0.00618806708025,0.0,0.818807727921,-0.573925395971,-0.0120121379104,0.0,-0.0062842722882,0.0119622350982,-0.999908702259,0.0,0.301335906848,-0.212435049069,0.304925415602,1.0,-0.161685142857,-0.212500473469,2.875
-0.487729699633,-0.529718147886,-0.135668799439,-2.64814813241,-0.0723100789047,2.10920052435,-0.740917129161,-0.741712953934,-0.0215137925588,0.00522027893955,-0.0133247266977,-0.00136834835786,-0.00798030808936,-0.702022196113,0.574155658786,0.818710588831,0.00624484763281,0.0,0.818709933736,-0.574062824307,-0.012110534801,0.0,-0.0063302100847,0.0120662831919,-0.999907162316,0.0,0.298568477726,-0.216045408004,0.3048913031,1.0,-0.156983428571,-0.206321077551,2.892
-0.499711962793,-0.529924157319,-0.135325345418,-2.64831831688,-0.0723193217634,2.10904792912,-0.752785489802,-0.685054082411,-0.00436823462577,0.0179481348883,-0.00874912577079,0.000573011785227,-0.00964275246873,-0.6972606685,0.573993042791,0.818824744426,0.00622668809382,0.0,0.818823706129,-0.573900046828,-0.0121334839145,0.0,-0.00636182276149,0.0120633274301,-0.999906997346,0.0,0.295954112067,-0.219472000998,0.304884901042,1.0,-0.152281714286,-0.200141681633,2.909
-0.511510601743,-0.530015650756,-0.135078225105,-2.6484181704,-0.0723280121694,2.10892865059,-0.764284750044,-0.687814257098,-0.00644439908644,0.0151427941253,-0.00400777253347,-9.75095782171e-05,-0.00781031009279,-0.665047970002,0.574054697898,0.818781401377,0.00624239388688,0.0,0.818780287333,-0.573961085145,-0.0121762356296,0.0,-0.00638690707082,0.012101207312,-0.999906379717,0.0,0.293344761425,-0.222854562321,0.304869037046,1.0,-0.14758,-0.193962285714,2.926
-0.522922069106,-0.529976623679,-0.13477288303,-2.64838784824,-0.0723218998143,2.10887482933,-0.775490007003,-0.653720049903,0.00247261896663,0.0245451498409,0.00600423594816,0.000476878557616,0.0079103942308,-0.656733315406,0.574012658461,0.818811005913,0.00622506414248,0.0,0.818809817023,-0.573919420439,-0.0121543938841,0.0,-0.0063795891045,0.0120741520417,-0.9999067535,0.0,0.290837949025,-0.226113871129,0.304871811283,1.0,-0.142878285714,-0.187782889796,2.943
-0.533910682425,-0.529798147621,-0.134486248601,-2.64826473721,-0.0723147812485,2.10887421682,-0.786277122942,-0.65200508176,0.0112297438319,0.0175423376699,0.00781932406308,-0.00059887748609,-0.00133043636203,-0.611764930655,0.573985812675,0.818830023875,0.00619885065058,0.0,0.818828664136,-0.57389302216,-0.0121311502567,0.0,-0.00637599567826,0.0120391365269,-0.999907198629,0.0,0.288417752615,-0.229253362602,0.30486992954,1.0,-0.138176571429,-0.181603493878,2.96
-0.543481730493,-0.529600591836,-0.134296445882,-2.64808624998,-0.0723027273749,2.10888332335,-0.795555476836,-0.627577172593,0.01938555938,0.0178668568342,0.0174063655614,0.00207141705862,0.00158768566194,-0.605011340574,0.574096467118,0.818752466641,0.00619610459715,0.0,0.818751387596,-0.574004263711,-0.0120837680921,0.0,-0.0063371464843,0.0120105490481,-0.999907789392,0.0,0.286157096375,-0.232168805125,0.304882151744,1.0,-0.133751428571,-0.175787591837,2.976
-0.554240620515,-0.529118477454,-0.133888176451,-2.64774425267,-0.0722237876651,2.10892587927,-0.806328489559,-0.589235465803,0.0274762850412,0.0100217102657,0.0246077697508,0.000487917160177,0.00436803889264,-0.593026483476,0.573860773173,0.818918055759,0.00614637025543,0.0,0.81891628652,-0.573768759566,-0.0120943424984,0.0,-0.00637780299961,0.0119740619801,-0.999907968499,0.0,0.283944116884,-0.235039503759,0.304878149078,1.0,-0.129049714286,-0.169608195918,2.993
-0.564332706282,-0.528584398306,-0.133615317868,-2.64737665969,-0.0721560728363,2.10899818125,-0.816156506322,-0.593546949846,0.0313493439858,0.0131789458837,0.0288559473058,0.0113652306111,0.00252761754715,-0.575682642774,0.573934624161,0.818866402403,0.00613262628543,0.0,0.818864308814,-0.57384238337,-0.0121206311585,0.0,-0.00640614008574,0.0119784692957,-0.999907734565,0.0,0.28170742357,-0.237911684953,0.304863345985,1.0,-0.124348,-0.1634288,3.01
-0.573414517831,-0.52796188521,-0.133326900378,-2.64689282444,-0.072035145633,2.10911153009,-0.825093919456,-0.552904029997,0.04485048561,0.0189950280682,0.0291305892468,0.0142489401802,0.00540902591934,-0.557739377364,0.57392828388,0.818870843889,0.00613293503305,0.0,0.818868989937,-0.5738364843,-0.0120836048637,0.0,-0.00637573258679,0.0119574231358,-0.999908180818,0.0,0.279725591344,-0.240502779467,0.304872895703,1.0,-0.119922857143,-0.157612897959,3.026
-0.582599939034,-0.527180861335,-0.133008199449,-2.64632428314,-0.0718668221093,2.10923075389,-0.834216567032,-0.541475142929,0.0472222379248,0.0193490407819,0.0380091792124,0.0103563701885,0.00788270100759,-0.536202912127,0.573858768607,0.818919443971,0.00614856728212,0.0,0.818917584775,-0.573766523213,-0.0121125177875,0.0,-0.00639145731482,0.0119862751837,-0.999907734984,0.0,0.277722738355,-0.243113083726,0.30486414584,1.0,-0.115221142857,-0.151433502041,3.043
-0.592153562134,-0.526301842618,-0.132730724627,-2.64564858426,-0.0716721551828,2.10937799168,-0.84347239861,-0.524077584711,0.0502813618833,0.0144139125705,0.0419372297377,0.00693883916951,0.00908318645116,-0.515685275829,0.574027649996,0.818800712004,0.00619660894555,0.0,0.818799502335,-0.573935199356,-0.0121040826937,0.0,-0.00635450188115,0.0120220899273,-0.999907540555,0.0,0.275627102773,-0.245843222716,0.304869398646,1.0,-0.110242857143,-0.144890612245,3.061
-0.599617854787,-0.525451176054,-0.132405567627,-2.64504366869,-0.0714906236908,2.10952053615,-0.850910357358,-0.480315240625,0.0602333422072,0.0240926859747,0.0417302176755,0.0193531213646,0.00451736102215,-0.490279499909,0.573931095839,0.818868396938,0.00619617837409,0.0,0.818866852105,-0.573838045832,-0.0121541178769,0.0,-0.00639714329711,0.0120497032665,-0.999906936274,0.0,0.274015215459,-0.247956334278,0.30485339802,1.0,-0.106094285714,-0.139438204082,3.076
-0.608230079854,-0.524412490945,-0.132026143373,-2.64430636009,-0.0712723701428,2.10969440703,-0.859468215283,-0.480774816476,0.0619957556183,0.0203045704325,0.0381179607212,0.00469551066351,0.00301804193789,-0.461023605822,0.573842012514,0.81893081794,0.00619733842399,0.0,0.818928846707,-0.573748147058,-0.0122210751934,0.0,-0.00645262789983,0.012088378331,-0.999906112944,0.0,0.272146713616,-0.250389595616,0.30483247476,1.0,-0.101116,-0.132895314286,3.094
-0.616141437955,-0.523474852753,-0.131702589845,-2.64355211472,-0.0710469752717,2.10987622845,-0.867142498141,-0.449498132277,0.0509725027099,0.0236598250776,0.0441217936869,0.016447447285,0.00944429582555,-0.444307692365,0.573945114077,0.818858386174,0.00622063667774,0.0,0.818857049156,-0.573851740013,-0.0121680086228,0.0,-0.00639427583193,0.0120778138262,-0.999906615465,0.0,0.270430414443,-0.252638022502,0.304855226386,1.0,-0.0964142857143,-0.126715918367,3.111
-0.623159338134,-0.522491262188,-0.13141104494,-2.64279537488,-0.0708303768998,2.11005584552,-0.874084591525,-0.424333619216,0.0646964052002,0.0207996800189,0.045815376449,0.0232254529476,0.0122225342551,-0.422096793182,0.573935143803,0.818865196672,0.00624398020222,0.0,0.818864153643,-0.573841645193,-0.0121659780332,0.0,-0.00637936294558,0.0120956867951,-0.999906494673,0.0,0.268915003518,-0.254642176464,0.304860958272,1.0,-0.0919891428572,-0.120900016327,3.127
-0.630125799197,-0.521479022252,-0.131036692962,-2.64201700145,-0.0705895514692,2.11024805301,-0.881096742255,-0.409885549691,0.0571580980028,0.0188885904238,0.0477046614913,0.0153817851862,0.00933158584128,-0.418358534118,0.573778291277,0.818975105961,0.00624461181491,0.0,0.818974107763,-0.57368489331,-0.0121573394437,0.0,-0.00637424162023,0.0120900256124,-0.9999065958,0.0,0.26742444882,-0.256609577779,0.304868819693,1.0,-0.0872874285715,-0.114720620408,3.144
-0.637000679139,-0.520490984042,-0.130713417377,-2.64122924769,-0.0703758353984,2.1104376786,-0.887713983711,-0.391561220857,0.0627222032079,0.0208773811779,0.0483403088418,0.0098378686957,0.0169709668819,-0.384747876352,0.573894494769,0.818893701277,0.00624193754251,0.0,0.81889290576,-0.573801534883,-0.0121224734958,0.0,-0.00634550601774,0.0120687315345,-0.999907035815,0.0,0.265932326693,-0.258560404325,0.304887986051,1.0,-0.0825857142858,-0.10854122449,3.161
-0.643041847356,-0.519509143925,-0.130446839167,-2.64045906152,-0.0701250931973,2.1106400257,-0.8936700257,-0.367616125015,0.0655862067793,0.0113614630113,0.0511663151925,0.0204554666321,0.0173388411627,-0.359906950682,0.573924224985,0.818872482129,0.00629197015612,0.0,0.81887252116,-0.573831382784,-0.0120865678653,0.0,-0.00628694893644,0.0120893283167,-0.999907156897,0.0,0.264632436666,-0.260288093258,0.304900836483,1.0,-0.0781605714286,-0.102725322449,3.177
-0.649432072533,-0.518447112409,-0.130130994907,-2.63965666544,-0.0698658719154,2.11085994216,-0.899944070414,-0.339804769984,0.0539187384109,0.0192871615506,0.0387505368314,0.0101533732636,0.00594784908875,-0.34945336755,0.573949760914,0.818854330113,0.00632494290337,0.0,0.818854815544,-0.573856797621,-0.0120794778897,0.0,-0.00626184185566,0.0121124566035,-0.999907034545,0.0,0.263249984644,-0.262099115461,0.304901192666,1.0,-0.0731822857144,-0.0961824326531,3.195
-0.655025849699,-0.517469354357,-0.129737906744,-2.63894871865,-0.0696219605303,2.11105168118,-0.905530440259,-0.325788089113,0.0549094825708,0.0234374587698,0.0441680706378,0.0118050268801,0.0191969677136,-0.314870166113,0.573819660215,0.818945592877,0.00631350607591,0.0,0.818945690078,-0.573726315682,-0.0121168600622,0.0,-0.00630094588023,0.0121235445297,-0.999906654518,0.0,0.262057231497,-0.263652017996,0.304888801834,1.0,-0.0684805714286,-0.0900030367348,3.212
-0.660102547297,-0.516588053033,-0.129428645076,-2.63827856329,-0.0694019443164,2.11123613646,-0.910448685858,-0.312589495505,0.0603334708647,0.0176667925558,0.0474059766893,0.0178999193727,0.0148876945116,-0.29726976083,0.573860006023,0.818917283051,0.00631853690061,0.0,0.818917504821,-0.573766743406,-0.0121074919145,0.0,-0.00628978914055,0.0121225992533,-0.999906736221,0.0,0.260964369835,-0.265075906271,0.304891797991,1.0,-0.0640554285715,-0.084187134694,3.228
-0.66505984311,-0.515605643154,-0.129116159152,-2.63755057123,-0.0691502106027,2.11144168663,-0.915296230886,-0.279806778127,0.0560603223398,0.0241342449864,0.0427994342971,0.012157674213,0.00755801030572,-0.283946690242,0.573874722576,0.81890679281,0.00634148078696,0.0,0.818907225011,-0.573781181191,-0.0121185740708,0.0,-0.0062854813043,0.0121478616506,-0.999906456716,0.0,0.259913454372,-0.26647683761,0.304885389616,1.0,-0.0593537142858,-0.0780077387756,3.245
-0.669742746068,-0.514707130311,-0.128863521893,-2.63689425922,-0.0689264526103,2.11162405964,-0.919790790339,-0.268515945115,0.0527737702297,0.0119741449986,0.03585737116,0.0102812379256,0.0102720743912,-0.262819361069,0.573980360537,0.81883247777,0.00637698739271,0.0,0.818833200432,-0.573886298304,-0.0121430387504,0.0,-0.00628356979668,0.0121917894856,-0.999905934086,0.0,0.258894999216,-0.267797580867,0.304873639725,1.0,-0.0546520000001,-0.0718283428572,3.262
-0.673822588137,-0.513946191539,-0.128557776444,-2.63631443556,-0.0687067990376,2.11179108398,-0.923760148498,-0.246742724571,0.0496320166447,0.0213226532447,0.0322986586038,0.0100770918819,0.0160954757288,-0.234884497053,0.573978264116,0.818833892508,0.00638401935756,0.0,0.818834807927,-0.573884366163,-0.0121259433681,0.0,-0.00626556513738,0.012187719841,-0.99990609668,0.0,0.258027507699,-0.268928046196,0.304877690731,1.0,-0.0502268571429,-0.0660124408164,3.278
-0.677690253923,-0.51316274559,-0.128142089692,-2.63571573491,-0.0684845223202,2.11196981503,-0.927533583392,-0.221417364399,0.0460886512389,0.0255414195822,0.0355785246719,0.0180617408416,0.00768912080972,-0.213227288558,0.573886564964,0.818898553031,0.00633382190877,0.0,0.818898973759,-0.573793226633,-0.0121058146574,0.0,-0.00627925089129,0.0121343582749,-0.999906659823,0.0,0.257243194097,-0.269983753623,0.304885437435,1.0,-0.0455251428572,-0.0598330448981,3.295
-0.68143965573,-0.512390984353,-0.127755511726,-2.63514279167,-0.0682537156758,2.11213593018,-0.931202232135,-0.204774267144,0.0408846176881,0.0197237874068,0.0313576684322,0.01282942872,0.00976290086521,-0.193849992299,0.573806675496,0.818954718978,0.00630985909581,0.0,0.818954807758,-0.57371342563,-0.0121109455898,0.0,-0.00629838642842,0.0121170641598,-0.999906749194,0.0,0.256473620701,-0.271003777133,0.304883809296,1.0,-0.0405468571429,-0.0532901551021,3.313
-0.684349896939,-0.51180089682,-0.127492265939,-2.63469162006,-0.0680575976776,2.11226976839,-0.933947948835,-0.193454573277,0.0348246291201,0.0166237386259,0.0293765767001,0.0154641370891,0.0119536801815,-0.176526842052,0.573861628703,0.818916133856,0.00632010395223,0.0,0.818916470467,-0.57376854076,-0.0120922674754,0.0,-0.00627639694848,0.012115158784,-0.999906910552,0.0,0.255869172886,-0.271802763201,0.304888183994,1.0,-0.0363982857144,-0.0478377469389,3.328
-0.687465071405,-0.511159718584,-0.127202461349,-2.6342181653,-0.0678233681343,2.11241160016,-0.936842419837,-0.161296390645,0.0315536188406,0.0144578743164,0.0241888934429,0.0158893094282,0.0113381454,-0.147675536621,0.573961114074,0.818846178907,0.00634993868773,0.0,0.818846902609,-0.573867866224,-0.0120900415139,0.0,-0.00625597897811,0.0121390750376,-0.999906748444,0.0,0.255221118268,-0.27264957541,0.3048849719,1.0,-0.0314200000001,-0.041294857143,3.346
-0.690141919266,-0.510631137109,-0.126891994642,-2.63381513443,-0.067598175253,2.11253364609,-0.939383890209,-0.137958251063,0.0275983851179,0.0226640283834,0.0174515387034,0.0138678340265,0.00972312119534,-0.143490527497,0.573968220536,0.818841076305,0.00636556920744,0.0,0.818842126519,-0.573875139488,-0.0120682648255,0.0,-0.00622906897086,0.0121394304348,-0.999906912132,0.0,0.254678136287,-0.273360111229,0.304890145275,1.0,-0.0264417142858,-0.034751967347,3.364
-0.692099372614,-0.510272573843,-0.126610424377,-2.63354130649,-0.0674226935132,2.11260282115,-0.941176290003,-0.125420297625,0.0195323123123,0.0181306500605,0.0215636989321,0.0130332162196,0.00173296637699,-0.114237966889,0.573992110194,0.818824345075,0.00636366623472,0.0,0.818825389479,-0.573899069431,-0.0120659252507,0.0,-0.00622789111705,0.0121367110485,-0.99990695248,0.0,0.254286441357,-0.27385841859,0.304894324295,1.0,-0.0222931428572,-0.0292995591838,3.379
-0.693965652765,-0.509910875335,-0.12630289154,-2.63325349171,-0.0672231966753,2.11268466494,-0.942902825206,-0.103546040665,0.0197939658451,0.0168469734076,0.0116254584119,0.0119745104777,0.00368163270045,-0.0954584564135,0.57398761472,0.818827491677,0.00636426928874,0.0,0.818828711153,-0.573894898504,-0.0120388605951,0.0,-0.00620544782036,0.0121216366751,-0.999907274872,0.0,0.253931985761,-0.274330754768,0.304905342072,1.0,-0.0198072727273,-0.0260324155844,3.396
-0.695694987075,-0.509535375766,-0.126071585461,-2.63297631082,-0.0670366253249,2.11276316824,-0.944530690304,-0.0913280582508,0.0227998029808,0.0109913745656,0.0194838794287,0.00569352246726,0.00130978537012,-0.0934811085161,0.574000088581,0.81881851805,0.00639372417617,0.0,0.818820098602,-0.573907194259,-0.0120384967344,0.0,-0.00618805889211,0.0121456418935,-0.999907091339,0.0,0.25359238931,-0.274781644247,0.304904260421,1.0,-0.0194472727273,-0.0255592727273,3.414
-0.697150528436,-0.509240376043,-0.125894777581,-2.63274506225,-0.0669605721327,2.11279916395,-0.945995490871,-0.0885107879602,0.0179147896137,0.00955344201118,0.0144055313823,0.000202225392304,0.00288909977871,-0.0872771644111,0.573910974265,0.818881213335,0.00636387982712,0.0,0.818882298402,-0.573818024237,-0.0120583301116,0.0,-0.00622275085091,0.0121319100988,-0.999907042744,0.0,0.253289676123,-0.275167804815,0.304907148527,1.0,-0.0191272727273,-0.0251387012987,3.43
-0.698639863316,-0.50888797024,-0.125750126791,-2.63247874257,-0.0668977020162,2.11289574157,-0.947425748399,-0.0881355056593,0.0190339940022,0.00938489216771,0.016725485364,0.00431061538679,0.00204368180276,-0.08093065452,0.573896885338,0.818891375501,0.00632669187273,0.0,0.818892110362,-0.573804364936,-0.0120419794378,0.0,-0.00623090965772,0.0120919653597,-0.999907475789,0.0,0.252983944637,-0.275587548772,0.304909031871,1.0,-0.0187872727273,-0.0246918441559,3.447
-0.700030419421,-0.508538760657,-0.12566749766,-2.6322237927,-0.0668449850256,2.11297505393,-0.948872335355,-0.0782110480799,0.0186485757181,0.00215013757542,0.0148681789608,0.000487034373022,0.004172439861,-0.0861303918008,0.573827867196,0.818939822568,0.00631607021958,0.0,0.818940375387,-0.573735324174,-0.0120493259951,0.0,-0.00624404051464,0.0120869566649,-0.999907454436,0.0,0.252684454985,-0.275990467721,0.30490395945,1.0,-0.0184472727273,-0.024244987013,3.464
-0.701319553328,-0.508226556923,-0.125626918971,-2.63200529415,-0.0667993194829,2.11299222456,-0.950123407172,-0.0804727785578,0.0237946349566,0.000820275664999,0.0123949350746,0.0046167951566,0.000884015145009,-0.0807787904195,0.573861084145,0.818916425766,0.00633171500277,0.0,0.818916746596,-0.573767621122,-0.0121171778311,0.0,-0.00629014400984,0.0121389579699,-0.999906535526,0.0,0.252385464247,-0.276358643145,0.304889743253,1.0,-0.0181272727273,-0.0238244155844,3.48
-0.702643083115,-0.507881162135,-0.125610217442,-2.63175837161,-0.0667514481846,2.11307142223,-0.951511465503,-0.0764225328028,0.0212380573117,0.0011242499762,0.0126356707435,0.00520147695984,0.00577961780255,-0.0749213214703,0.573829647735,0.818938314608,0.0063497360269,0.0,0.818938789906,-0.573735953737,-0.0121268577109,0.0,-0.00628819762718,0.0121590297255,-0.999906303894,0.0,0.25208586165,-0.276756228369,0.304880808853,1.0,-0.0177872727273,-0.0233775584416,3.497
-0.704045640011,-0.507523196405,-0.125597351808,-2.63148946876,-0.0666907989052,2.11316911249,-0.952903310235,-0.0842335914606,0.0210435933539,4.59609008084e-05,0.0127095447756,0.00644046668126,0.00130755902389,-0.0736544090465,0.573869067554,0.818910502689,0.00637407188774,0.0,0.818911401048,-0.573775458515,-0.0121073259157,0.0,-0.00625765081099,0.0121680542465,-0.999906385749,0.0,0.251771330238,-0.277181421274,0.304878642532,1.0,-0.0174272727273,-0.0229044155844,3.515
-0.70528976605,-0.507229533133,-0.125599502866,-2.63127148718,-0.0666594017551,2.11318344548,-0.954146618813,-0.0772734458574,0.0241582937477,0.000682315526365,0.00691391470097,0.000369560729728,-0.000304664047493,-0.0870092311278,0.573896034087,0.818891421408,0.00639757019366,0.0,0.818892278681,-0.573801634808,-0.0121600455912,0.0,-0.00628694182578,0.0122177580027,-0.99990559592,0.0,0.251471676865,-0.277547410933,0.304869729117,1.0,-0.0171072727273,-0.0224838441559,3.531
-0.706621610931,-0.50691688681,-0.12560156085,-2.63101906624,-0.0666277446894,2.11323925887,-0.955534176545,-0.0728737330859,0.0131152038045,0.000634998438934,0.0152865117716,0.00175521243517,0.0052552360041,-0.0811953041886,0.573878362408,0.81890370146,0.00641091222767,0.0,0.81890474434,-0.5737839271,-0.0121561342843,0.0,-0.00627634580567,0.0122263042693,-0.999905558024,0.0,0.251160409556,-0.277950209037,0.304872909626,1.0,-0.0167472727273,-0.0220107012987,3.549
-0.70780009248,-0.506630007015,-0.125598426248,-2.63078621414,-0.0665885721085,2.11332315406,-0.956656042248,-0.0747613214044,0.0197627003643,0.000371691732072,0.0209662926464,0.00654586736121,-0.000404502204251,-0.0751127652766,0.57395113503,0.818852615133,0.00642154100038,0.0,0.818854029355,-0.573857088488,-0.0121188903426,0.0,-0.00623865834101,0.0122141907513,-0.99990594192,0.0,0.25089368205,-0.278311778573,0.304879271671,1.0,-0.0164272727273,-0.0215901298701,3.565
-0.708955197513,-0.506368075423,-0.125581155126,-2.63055869359,-0.0665564568928,2.1133645935,-0.957852033739,-0.07051298084,0.0104025830266,0.00161453560121,0.0144839527549,-0.00109260368721,-0.00135524864107,-0.0881487915963,0.573930625739,0.818866953587,0.0064262012995,0.0,0.818868508661,-0.573836719216,-0.0121050445399,0.0,-0.00622495052425,0.0122099047403,-0.999906079698,0.0,0.25062865551,-0.278657635463,0.304889168779,1.0,-0.0161072727273,-0.0211695584416,3.581
