nelsonifechukwu/NELSON_IML_WORK/CNN-GradCAM/train2dof/data_sample_2022-02-22-08-47-53/robot_state.csv
position_joint1,position_joint2,position_joint3,position_joint4,position_joint5,position_joint6,position_joint7,velocity_joint1,velocity_joint2,velocity_joint3,velocity_joint4,velocity_joint5,velocity_joint6,velocity_joint7,ee_T_00,ee_T_10,ee_T_20,ee_T_30,ee_T_01,ee_T_11,ee_T_21,ee_T_31,ee_T_02,ee_T_12,ee_T_22,ee_T_32,ee_T_03,ee_T_13,ee_T_23,ee_T_33,v_x,v_y,time
0.465057386042,0.5477866768,-0.124012303357,-1.35582304237,0.0794557444194,1.89411085617,0.159162594287,-0.000423428514981,0.000295404749555,-0.000444654273879,0.000320377183105,-6.67274653482e-06,0.000324568587875,-0.000524798208371,0.573826315868,0.818963001769,0.00192557850484,0.0,0.818920086784,-0.573768377857,-0.0118527184589,0.0,-0.00860226745338,0.00837845799388,-0.999927898619,0.0,0.661693472125,0.26086056638,0.303216830677,1.0,0.0,0.0,0.0
0.465057383426,0.547781084699,-0.124010534285,-1.35582304205,0.0794557269493,1.89411012206,0.159165247809,-0.000504526743204,-3.68778843088e-05,0.000672062534055,0.0011918143734,5.99798370883e-05,0.000445448353411,-0.00101498591125,0.573820011077,0.818967397486,0.00193484985511,0.0,0.81892458252,-0.573762015857,-0.0118500719197,0.0,-0.00859484468423,0.00838446593701,-0.99992791209,0.0,0.661693335828,0.260863774334,0.30322219505,1.0,-0.00022,-0.000289142857143,0.012
0.465055205154,0.547781485567,-0.124010543054,-1.35582626101,0.0794561813717,1.8941103015,0.159165742856,-0.00104661542188,0.000154614636524,-0.000288873658567,-0.000876709496831,8.97348347789e-05,-0.000132379398939,0.000503334900785,0.573829729033,0.81896060528,0.0019276873772,0.0,0.818917701111,-0.573771765788,-0.0118535435072,0.0,-0.00860169818442,0.00838069432855,-0.999927884775,0.0,0.661692901363,0.260859861682,0.303218870608,1.0,-0.00056,-0.000736,0.029
0.465054194209,0.54775516886,-0.124012665165,-1.35584994606,0.0794558495656,1.89411327169,0.159163579911,-0.000596288583038,0.00240046146379,-0.000280177715344,-0.00320143193521,2.67337046997e-05,-0.000179733307908,0.000355996655543,0.573831447981,0.818959388144,0.00193307520286,0.0,0.818916547377,-0.573773455975,-0.0118514366921,0.0,-0.00859686361846,0.00838391576499,-0.999927899347,0.0,0.661689530645,0.260855648092,0.303226568331,1.0,-0.0009,-0.00118285714286,0.046
0.465053496566,0.547669410447,-0.124008028742,-1.35593993344,0.0794560791637,1.89413890053,0.159162754113,-0.000702830745661,-0.00733991455102,-0.000221879039087,-0.0073909924644,0.000104940092174,0.00470444145317,0.000546833462539,0.57383310404,0.818958172099,0.00195651774847,0.0,0.818915551197,-0.573774933069,-0.0118487590318,0.0,-0.00858120241285,0.00840159474136,-0.999927885485,0.0,0.661675387085,0.260850097022,0.303246562765,1.0,-0.00122,-0.00160342857143,0.062
0.465050307826,0.547536583509,-0.124007615246,-1.35613223474,0.0794524757572,1.89416845749,0.159154942945,-0.000727744968763,-0.00762116724002,-0.000115649460263,-0.0111443176872,0.000215218283459,-0.000142392580584,-0.000151389759133,0.573838541417,0.818954407953,0.00193726093486,0.0,0.818911406574,-0.57378032163,-0.0118742407753,0.0,-0.00861306544993,0.00840050381972,-0.9999276207,0.0,0.661641638085,0.260828561806,0.303251674721,1.0,-0.00156,-0.00205028571429,0.079
0.46503431212,0.54737596306,-0.124012993988,-1.35634546044,0.0794520980542,1.89426248753,0.159147275149,0.000741691683655,-0.0109346196002,-0.000717310613962,-0.00895192663682,0.00926029772157,0.00668723653988,-0.00148252681962,0.573861027023,0.81893855495,0.00197782267157,0.0,0.818896015631,-0.573802574074,-0.0118603739805,0.0,-0.00857820294577,0.00842599972533,-0.999927705868,0.0,0.661621176485,0.260797997323,0.303272308446,1.0,-0.0019,-0.00249714285714,0.096
0.465011668177,0.547196050242,-0.12400956759,-1.35655342198,0.0794474639966,1.8943800621,0.159139176571,-0.00410215422426,-0.0105243965994,-0.000932743273129,-0.0133477730419,0.000322291442062,0.00223038567125,-0.00194173083849,0.573881159174,0.818924248139,0.00205860527743,0.0,0.818882726005,-0.573822345122,-0.0118213447392,0.0,-0.00849967578965,0.00846996639636,-0.999928004999,0.0,0.661607076067,0.260769926415,0.303310852979,1.0,-0.00222,-0.00291771428571,0.112
0.464994877513,0.54699383215,-0.124007721812,-1.35681553346,0.0794445977958,1.89450711676,0.15912612965,-0.00230233312068,-0.0139774733556,1.44227772995e-05,-0.0187453801244,0.000329252358414,0.00248066962431,0.000411590809584,0.573895119218,0.818914281452,0.00213041606957,0.0,0.818873589769,-0.573835916571,-0.0117954115139,0.0,-0.00843708412635,0.0085140344731,-0.999928160834,0.0,0.66157959685,0.260739615527,0.303344170533,1.0,-0.00258,-0.00339085714286,0.13
0.464959084518,0.546736412151,-0.124002956037,-1.35719211122,0.0794370902417,1.89464400532,0.159097688936,-0.00111684438396,-0.0127562932849,-0.000808020968735,-0.0212064719649,0.000394970044128,0.00129095399022,-0.000484583927491,0.573918723728,0.818897694072,0.0021475799295,0.0,0.818857080884,-0.573859304885,-0.0118036513302,0.0,-0.008433736506,0.00853306182671,-0.999928026882,0.0,0.661538126442,0.260685443523,0.303355087678,1.0,-0.00292,-0.00383771428571,0.147
0.464925380116,0.546481229753,-0.124010514317,-1.35756592584,0.0794274649124,1.89479238317,0.158956500424,-0.00369755560255,-0.0159880220592,-0.000244960888888,-0.0236536975836,-0.000927882286455,0.00263187543923,-0.0112688231954,0.573854394786,0.818942691448,0.00217913079874,0.0,0.818902414079,-0.573794785378,-0.0117952274157,0.0,-0.00840940330415,0.00855340324119,-0.999928058027,0.0,0.661499739498,0.260626269382,0.303370998609,1.0,-0.00324,-0.00425828571429,0.163
0.464879129388,0.546194636959,-0.124007730257,-1.35803133374,0.0794139601789,1.89494853496,0.158920770113,-0.00180733050686,-0.0161582998078,0.000745127058562,-0.0268332421516,-0.000212477593529,0.00770778443889,-0.00130515678649,0.573883428238,0.81892237469,0.00216839264322,0.0,0.818881790632,-0.573823687479,-0.0118209796717,0.0,-0.0084363521074,0.00855968639008,-0.999927777258,0.0,0.661443787321,0.260554215555,0.303365866085,1.0,-0.00358,-0.00470514285714,0.18
0.464829166761,0.545857121768,-0.124007730907,-1.35859804476,0.0793908647068,1.89513740596,0.158889530353,-0.00133038898577,-0.016709753526,0.000277226797279,-0.0334319231768,-0.00210676090947,0.00950528807518,-0.000529315875421,0.573924222034,0.818893861603,0.00213955457886,0.0,0.818852772298,-0.573864458587,-0.0118518931738,0.0,-0.00847779146213,0.00855423346328,-0.999927473441,0.0,0.661374542633,0.260467405851,0.303351469232,1.0,-0.00394,-0.00517828571429,0.198
0.464756621795,0.545543654994,-0.124006202197,-1.35916014955,0.0792815501159,1.8953294242,0.158776768846,-0.00466385621622,-0.0166075666837,-0.000358795484694,-0.0392200898823,-0.0116698763481,0.0131996833302,-0.00262727801351,0.573892557823,0.818916282599,0.00204965123182,0.0,0.818874662286,-0.57383379625,-0.0118240707648,0.0,-0.00850692871327,0.00846431663966,-0.999927991161,0.0,0.661316646789,0.26035303032,0.30332228042,1.0,-0.00426,-0.00559885714286,0.214
0.464700014603,0.545154699579,-0.12401340071,-1.35985845338,0.0792459949493,1.89554325169,0.158710010061,-0.00289074138697,-0.021829874471,0.00108826727829,-0.041958838997,-0.000787781385942,0.0118690021671,-0.00389544926126,0.573918612274,0.818898219194,0.00196976862121,0.0,0.818855470975,-0.573860083046,-0.0118772741653,0.0,-0.00859607257933,0.00842970681656,-0.999927521163,0.0,0.661227441237,0.26024239151,0.30328400166,1.0,-0.0046,-0.00604571428571,0.231
0.464628643498,0.544726717375,-0.124013037005,-1.3605730318,0.0792355063429,1.89578716617,0.158611467133,-0.00828318547629,-0.0203384029016,-0.00200909700343,-0.0438677627059,4.45153346757e-06,0.0190726513175,-0.00773333335364,0.573933102375,0.818888107962,0.00195129132315,0.0,0.818844783514,-0.573874319344,-0.0119261481872,0.0,-0.00864655141731,0.0084427784992,-0.999926975654,0.0,0.661142149112,0.260131064379,0.303267974166,1.0,-0.00494,-0.00649257142857,0.248
0.464571353097,0.544318506861,-0.124020020234,-1.36123958688,0.0792068415292,1.8960361207,0.158520215486,0.000255675099183,-0.029230928659,-0.000457186600858,-0.044803293015,-0.00370953781532,0.0249643372419,-0.0136249006758,0.573940879248,0.818882680348,0.00194161161831,0.0,0.818839115849,-0.573882024633,-0.0119444991698,0.0,-0.0086670543567,0.00844546649798,-0.999926775451,0.0,0.661060912883,0.260021215384,0.303257070936,1.0,-0.00526,-0.00691314285714,0.264
0.464498698308,0.543821572347,-0.124024743949,-1.36205855903,0.0791719488938,1.8963173739,0.158446812199,-0.00919498845312,-0.0325020480908,-0.00213427818603,-0.0500035068566,0.000138604286716,0.0140549075236,-0.00846404266091,0.573978707523,0.818856220041,0.00191862256949,0.0,0.81881224933,-0.573919841634,-0.0119692366491,0.0,-0.00870011582224,0.0084412411637,-0.999926524017,0.0,0.660969976692,0.259899624353,0.303247778793,1.0,-0.00558,-0.00733371428571,0.28
0.464418107849,0.543255036822,-0.124023291308,-1.36295786514,0.0791111394134,1.89662263392,0.158314120391,-0.00862897400185,-0.0352415437097,7.08846511939e-05,-0.0555893873528,-0.00245495723301,0.0144960968919,-0.0160585600524,0.573968710181,0.818863288037,0.00189265388884,0.0,0.81881898261,-0.573909959809,-0.0119824309515,0.0,-0.00872592789146,0.00842744362415,-0.999926415481,0.0,0.66086270388,0.259758767155,0.303246918583,1.0,-0.00594,-0.00780685714286,0.298
0.464344628517,0.542734218498,-0.124018456544,-1.36379472516,0.0790607123609,1.89692508309,0.158202247648,-0.00724380387306,-0.0366340862789,0.0022674484996,-0.0530299437648,-0.000835279932827,0.0258394599208,-0.000551702566592,0.573966958476,0.818864540674,0.00188188886145,0.0,0.818820049401,-0.573908210548,-0.0119933092153,0.0,-0.00874103246477,0.0084248537474,-0.99992630538,0.0,0.660764716276,0.259632879423,0.303243037929,1.0,-0.00626,-0.00822742857143,0.314
0.464271380088,0.542139466818,-0.124021201903,-1.36471827026,0.0790195612383,1.89726612083,0.158088932236,-0.00399422142153,-0.0404113549833,0.000170510382369,-0.0566790496096,-0.00188632603904,0.0258528241432,-0.0115118667879,0.573975251594,0.818858682352,0.00190152453341,0.0,0.818814345521,-0.573916320337,-0.0119946538224,0.0,-0.00873077855556,0.00844179254248,-0.999926252103,0.0,0.660651340263,0.259489759277,0.303257652208,1.0,-0.00662,-0.00870057142857,0.332
0.464191192798,0.541506907235,-0.124026881954,-1.3656763123,0.078963853843,1.89762238135,0.157950381134,-0.00810117451465,-0.0415028878743,0.000245218985714,-0.0501418743932,-0.000844547411684,0.0197916966996,-0.00586383584982,0.573970894843,0.818861679832,0.0019256367542,0.0,0.818817631837,-0.573911836335,-0.0119848574738,0.0,-0.00870896247231,0.00845586749729,-0.999926323425,0.0,0.660549345323,0.259351047918,0.303276057487,1.0,-0.00694,-0.00912114285714,0.348
0.464112709812,0.540868598756,-0.124029363697,-1.36665707728,0.0789003541341,1.89798519656,0.157831554096,-0.00588965785575,-0.0394457844918,9.36519446989e-05,-0.0636063027934,-0.0064277773166,0.0181760607922,-0.0113079695614,0.573977002233,0.818857365428,0.00193981774566,0.0,0.818813545753,-0.573917924961,-0.0119724517474,0.0,-0.00869060144117,0.00846042389914,-0.999926444632,0.0,0.66043657267,0.25920408282,0.303291988618,1.0,-0.00726,-0.00954171428571,0.364
0.464017581162,0.540091846193,-0.124032139973,-1.36782220354,0.0788307676155,1.89840686091,0.157672474525,-0.00340014739077,-0.0458454231561,-0.00116419441527,-0.0685585889343,-0.000921251394688,0.0222028742893,-0.0109669443079,0.573972396828,0.818860524311,0.00196883338062,0.0,0.818817066765,-0.573913181974,-0.0119589979506,0.0,-0.00866297869097,0.00847641228821,-0.99992654892,0.0,0.660301130696,0.259028908091,0.303323026713,1.0,-0.00762,-0.0100148571429,0.382
0.463914686696,0.539347256208,-0.124029731187,-1.36896723115,0.0787660291016,1.89884734932,0.157541305874,-0.00691724521389,-0.0468841477715,0.000956741926852,-0.0677219146579,-7.94494499169e-05,0.0210825663485,-0.00347578563613,0.573993675153,0.818845521444,0.0020049429183,0.0,0.818802496653,-0.573934269391,-0.0119445718013,0.0,-0.00863021983457,0.0084979245449,-0.999926649602,0.0,0.660173563215,0.258855644037,0.30334225051,1.0,-0.00796,-0.0104617142857,0.399
0.463812255286,0.538636783205,-0.124036321137,-1.37007140558,0.0787094138801,1.89927933831,0.157395993269,-0.0023110190117,-0.0415764812777,-0.000198950597514,-0.0743533214475,-0.00534843559831,0.016999034351,-0.0118305389359,0.57400920674,0.818834546741,0.0020402306413,0.0,0.818791945126,-0.573949616493,-0.0119304327365,0.0,-0.00859822643056,0.00851886666101,-0.999926747024,0.0,0.660054116069,0.258682612557,0.303356269672,1.0,-0.00828,-0.0108822857143,0.415
0.463698695481,0.537849364742,-0.124038975347,-1.37130361859,0.0786345689127,1.89974988285,0.157240180979,-0.00945578889561,-0.045892656617,0.000265668054194,-0.0716227187251,-0.00545576402521,0.0336326008835,-0.00386600785526,0.574024518487,0.818823763046,0.00206013316342,0.0,0.818781445399,-0.573964868916,-0.0119172488639,0.0,-0.00857584761041,0.00852775603577,-0.999926863433,0.0,0.659917492866,0.258490014666,0.303366763393,1.0,-0.00862,-0.0113291428571,0.432
0.463590794525,0.537024213587,-0.124048171757,-1.37260241293,0.0785536982301,1.9002233188,0.157093774849,-0.00874213309468,-0.0485878053596,-0.000570989355995,-0.0818027078947,-0.00315497501938,0.0309477790308,-0.00840880411384,0.574049294255,0.818806404685,0.00205579965777,0.0,0.818764074864,-0.573989703399,-0.0119145711083,0.0,-0.0085758844091,0.0085229301338,-0.999926904263,0.0,0.659767094348,0.258289187094,0.30337252512,1.0,-0.00896,-0.011776,0.449
0.463475117403,0.5362306898,-0.124041066541,-1.37383884033,0.0784900324672,1.90068775293,0.156940490508,-0.00773506518982,-0.0481176908265,0.00204344249963,-0.0731149180733,-0.00318252965779,0.0329207221529,-0.00747462188062,0.574064514222,0.818795669842,0.00208121605264,0.0,0.818753532906,-0.574004679734,-0.0119175038814,0.0,-0.00856353769428,0.00854558360121,-0.999926816734,0.0,0.65962557744,0.258101860388,0.303384207797,1.0,-0.00928,-0.0121965714286,0.465
0.463361720684,0.535338530891,-0.124057649785,-1.37525028009,0.0784096713904,1.90119816492,0.15676217828,-0.0103836638276,-0.0585088946387,-0.00102090750488,-0.0837744978707,-0.0033947593781,0.0229469351666,-0.0137151897992,0.574078945981,0.818785574732,0.0020720264896,0.0,0.818743321413,-0.57401915067,-0.0119220470757,0.0,-0.00857238232607,0.00854081850654,-0.99992678166,0.0,0.659460648838,0.257883247004,0.303386797399,1.0,-0.00962,-0.0126434285714,0.482
0.4632363394,0.534451755863,-0.124057633687,-1.37669580028,0.078326649473,1.90172552664,0.156592208471,-0.00884273687225,-0.0545292261384,0.000864960676871,-0.086495541241,-0.00463724344464,0.033034391675,-0.00782114724021,0.574099436475,0.818771272493,0.00204628461953,0.0,0.818728612642,-0.574039674056,-0.0119439671683,0.0,-0.00860489431186,0.00853254086607,-0.999926573074,0.0,0.659290125875,0.257662987648,0.303370129001,1.0,-0.00996,-0.0130902857143,0.499
0.463108031803,0.533523184571,-0.124066283143,-1.37817544519,0.0782495500018,1.90225958542,0.156405547948,-0.00784835268704,-0.0568544964541,-0.000474312277033,-0.0850091023194,-0.00519755832621,0.0322395453069,-0.0128773160248,0.574118014969,0.818758270934,0.00203606641974,0.0,0.818715369407,-0.574058185251,-0.0119620543326,0.0,-0.00862537639344,0.00853475407983,-0.999926377717,0.0,0.659116136854,0.257433697123,0.30336738685,1.0,-0.0103,-0.0135371428571,0.516
0.462981449578,0.532582129168,-0.124061784101,-1.37969923436,0.0781605544943,1.90284248243,0.156208692416,-0.0048423961582,-0.0596542748722,0.00029684306792,-0.0924752166724,-0.00217297045518,0.0335402495178,-0.0124119793439,0.574116866051,0.81875907475,0.00203679431236,0.0,0.818716134286,-0.57405698552,-0.0119672777743,0.0,-0.00862924741446,0.00853833676615,-0.999926313732,0.0,0.658938766322,0.257209510948,0.303356044384,1.0,-0.01064,-0.013984,0.533
0.462848440778,0.531608219475,-0.124059603582,-1.38126013954,0.0780658658757,1.90340942571,0.156010020408,-0.00924467842726,-0.0573292775209,-0.000391697449435,-0.0884900822603,-0.00677701349149,0.0323995431205,-0.00786950731626,0.574121214975,0.818756068451,0.00201935423328,0.0,0.818712852825,-0.574061359819,-0.0119819315658,0.0,-0.00865121250679,0.00853251665087,-0.999926173616,0.0,0.65875250414,0.256973805885,0.303348670773,1.0,-0.01098,-0.0144308571429,0.55
0.462723448411,0.530649886731,-0.124061348951,-1.38281645012,0.0779726362704,1.90395082912,0.155812989199,-0.00876604249198,-0.060634911115,0.000149304668881,-0.0981894198659,-0.0100814606999,0.03324758678,-0.0112989409191,0.574122937817,0.818754977669,0.00197122214407,0.0,0.818711057275,-0.574063210937,-0.0120158830384,0.0,-0.00870662556478,0.00851261933045,-0.999925862244,0.0,0.658560130484,0.256739978598,0.303330219023,1.0,-0.0113,-0.0148514285714,0.566
0.462573955763,0.529568202104,-0.12406484424,-1.38454324171,0.0778561456508,1.9045912567,0.155575754934,-0.00704300383143,-0.0639300630798,-0.00014651631023,-0.100161348075,-0.00964474687933,0.0263170103434,-0.0175696161169,0.574116035379,0.818759847641,0.00195875263498,0.0,0.818715864862,-0.574056460616,-0.0120108097022,0.0,-0.00870970180573,0.00849942394578,-0.999925947702,0.0,0.658358461616,0.256473364703,0.303325913031,1.0,-0.01166,-0.0153245714286,0.584
0.462443954539,0.528466543844,-0.124065883036,-1.38623707124,0.0777549591187,1.90523250899,0.155345734594,-0.00680809716929,-0.0687902460902,-0.000450409989636,-0.0997382163523,-0.00552079182763,0.0390363584316,-0.0163865738142,0.574099532425,0.818771318167,0.00200057933091,0.0,0.818727871543,-0.574039772755,-0.0119899356005,0.0,-0.00866877017251,0.00852151054496,-0.999926115411,0.0,0.658158293848,0.256227732675,0.303351086383,1.0,-0.012,-0.0157714285714,0.601
0.462310942647,0.527484314697,-0.124068040575,-1.38776486891,0.0776675908934,1.90582510218,0.155124388973,-0.00477902154882,-0.0690801640879,-0.000406393803103,-0.100328568026,-0.00200028365503,0.0354238881923,-0.00804979145216,0.574088061793,0.818779259262,0.0020417664958,0.0,0.818736329933,-0.574028110938,-0.0119706641922,0.0,-0.00862946633958,0.00854404831124,-0.999926263056,0.0,0.657983954793,0.255996552921,0.303366791833,1.0,-0.0123,-0.0161657142857,0.616
0.462160608417,0.526333582008,-0.124066045725,-1.38955647523,0.0775448512131,1.90650461359,0.154887814405,-0.00750589182008,-0.0681153935633,0.000400454334323,-0.107461906299,-0.00606218980634,0.0449150127639,-0.0132873899166,0.574079728223,0.8187850408,0.00206627842241,0.0,0.818742547397,-0.574019792036,-0.0119443013216,0.0,-0.00859389599376,0.00854889590846,-0.999926527966,0.0,0.657774521456,0.25572752548,0.303382637257,1.0,-0.01264,-0.0166125714286,0.633
0.461998780299,0.52508160592,-0.12407122517,-1.39150828536,0.0774275208384,1.90720068877,0.15462738509,-0.0084852019485,-0.0728625216548,-3.41858284897e-07,-0.10848351021,-0.00382364983658,0.0418839858602,-0.00190422629603,0.574075968072,0.81878768493,0.00206319896818,0.0,0.818745100572,-0.574015994567,-0.011951785278,0.0,-0.00860183100272,0.00855063137649,-0.999926444898,0.0,0.657537125081,0.255431125002,0.303394827059,1.0,-0.013,-0.0170857142857,0.651
0.461851778287,0.523969472454,-0.124082514786,-1.39328940206,0.0773208293033,1.90783184008,0.154380581337,-0.0114298164956,-0.0726799646799,-0.000784239439834,-0.113366191049,-0.00234425585042,0.0377721367909,-0.0185316126192,0.574069039841,0.818792627326,0.00202924461836,0.0,0.818749569697,-0.574009178343,-0.011972977942,0.0,-0.00863874735264,0.00853492343299,-0.999926260844,0.0,0.657319598311,0.255156692601,0.303384190882,1.0,-0.01332,-0.0175062857143,0.667
0.461697861243,0.522754138495,-0.12408399129,-1.3952075616,0.0771987606132,1.9085832488,0.154130569753,-0.00158512524031,-0.0759299848107,-0.000357887506095,-0.111626070543,-0.00588267845095,0.0476563562986,-0.0177760498487,0.574061571023,0.818797775655,0.0020644996673,0.0,0.818755264285,-0.574001649641,-0.0119444680357,0.0,-0.00859524312939,0.00854734461921,-0.999926529649,0.0,0.657096359631,0.254874185425,0.303390670159,1.0,-0.01366,-0.0179531428571,0.684
0.461534738561,0.521529941901,-0.12408969333,-1.39718699244,0.0770797563358,1.90934392353,0.153863285551,-0.00842936691336,-0.0713215528387,-0.000333004626907,-0.1168982436,-0.00998682216209,0.0473538555458,-0.0172763454187,0.574054330981,0.818802848684,0.00206566470951,0.0,0.818760371343,-0.57399442443,-0.0119416055672,0.0,-0.00859230605881,0.0085465793475,-0.999926561432,0.0,0.656863246406,0.254577173719,0.303374859872,1.0,-0.014,-0.0184,0.701
0.46137882169,0.520311012403,-0.124095418092,-1.39910263253,0.0769591602723,1.91004214761,0.15360149777,-0.0120432257483,-0.0787018309574,-0.00158633019483,-0.118660107956,-0.00868759520104,0.0416648525998,-0.00764426855407,0.574041227985,0.818812041003,0.00206324567711,0.0,0.818769549023,-0.573981349852,-0.0119407920799,0.0,-0.00859316524034,0.00854399417958,-0.999926576142,0.0,0.656630167287,0.254287973996,0.303379912166,1.0,-0.01432,-0.0188205714286,0.717
0.461214726976,0.518984739204,-0.124093365437,-1.40116951123,0.076827259055,1.91078080822,0.153321142966,-0.0103414245028,-0.0804797153304,0.00383403220719,-0.122305008852,-0.00898487440957,0.0440410045832,-0.0175845163622,0.574018664576,0.818827868306,0.00205953992332,0.0,0.818785301268,-0.573958777981,-0.0119456480414,0.0,-0.00859950407082,0.00854351044188,-0.99992652578,0.0,0.656372510062,0.253982378423,0.303391230363,1.0,-0.01466,-0.0192674285714,0.734
0.461038740132,0.517633178994,-0.124096563041,-1.40328745363,0.0766902832543,1.91154213801,0.153025303407,-0.00887035356699,-0.0797792801146,-0.000135469847903,-0.12617768442,-0.0146463712629,0.0514626865771,-0.020953859122,0.573997930587,0.8188424253,0.00205063673496,0.0,0.818799760357,-0.573938101464,-0.0119480135723,0.0,-0.00860676756353,0.00853736030292,-0.999926515816,0.0,0.656111699449,0.253660959386,0.303397726893,1.0,-0.015,-0.0197142857143,0.751
0.460860659009,0.516366899829,-0.124099995965,-1.40529940066,0.0765599825251,1.91228945006,0.15274742293,-0.00854225501274,-0.0774667096858,0.000506284115521,-0.126773356248,-0.00989536598979,0.048891757901,-0.00873567744644,0.57398986589,0.818848090256,0.00204593259199,0.0,0.818805416644,-0.573930109471,-0.0119442881165,0.0,-0.00860650089901,0.00853128527625,-0.999926569961,0.0,0.655870431454,0.253349646966,0.30339326967,1.0,-0.01532,-0.0201348571429,0.767
0.460662550276,0.514905439442,-0.124100408352,-1.40762748677,0.0764181010647,1.91316233446,0.152429161225,-0.00693243457095,-0.0778085713173,0.000618778042304,-0.130849588913,-0.0118447880021,0.0449697629808,-0.0205450573834,0.57397634921,0.818857555963,0.0020495098006,0.0,0.818814902012,-0.573916552916,-0.0119454356574,0.0,-0.00860552833052,0.00853473103494,-0.999926548927,0.0,0.655588597901,0.252998694854,0.303385619602,1.0,-0.01568,-0.020608,0.785
0.460471246932,0.513492485694,-0.124114477662,-1.40989995906,0.0762918171943,1.91394492858,0.152134882635,-0.0154536631776,-0.0807430116925,-0.000155362390096,-0.131404139575,-0.0118363121455,0.0398628976862,-0.0172315699293,0.573987195657,0.818850103493,0.00198849992165,0.0,0.818806478329,-0.57392748054,-0.0119977092934,0.0,-0.00868323792571,0.00851489206767,-0.999926046262,0.0,0.655300251692,0.252646713718,0.303362609092,1.0,-0.01602,-0.0210548571429,0.802
0.460286611938,0.512145345018,-0.124117677197,-1.41205448383,0.0761569540272,1.91471107566,0.151816452134,-0.0110464473187,-0.0855916641011,-0.000759334181777,-0.136613563482,-0.00784400406068,0.0469154996569,-0.0148787040332,0.573956217276,0.818871906909,0.00195131430574,0.0,0.818827748752,-0.573896617949,-0.0120223409451,0.0,-0.00872507255931,0.00849825124941,-0.999925823666,0.0,0.655030421718,0.252316144265,0.303347386217,1.0,-0.01634,-0.0214754285714,0.818
0.460081740911,0.510697687148,-0.124118453884,-1.41435876604,0.0760152009474,1.91559366634,0.151484420901,-0.0183600596586,-0.0870220031136,-0.00028865083795,-0.138556124451,-0.0087629908095,0.0470949715465,-0.0213166744501,0.573935000867,0.818886731455,0.00197046378943,0.0,0.818842831848,-0.573875330689,-0.0120111805529,0.0,-0.00870516342649,0.00850730086234,-0.999925920237,0.0,0.654754904025,0.251964062884,0.303340866487,1.0,-0.01668,-0.0219222857143,0.835
0.459875418876,0.509122326544,-0.124123834624,-1.41685106121,0.0758673782289,1.91651054889,0.151144429801,-0.00931687443713,-0.090572825788,-0.000494207408489,-0.140684403893,-0.00644489098042,0.0454415302072,-0.0174446197937,0.573919297109,0.818897736223,0.00197101879566,0.0,0.818853769575,-0.573859553931,-0.0120192893525,0.0,-0.00871164860113,0.00851224215469,-0.999925821705,0.0,0.654445463084,0.251589168959,0.303336852316,1.0,-0.01704,-0.0223954285714,0.853
0.459669947843,0.507697678595,-0.124127975559,-1.41908512579,0.075718709573,1.91731542742,0.150832817827,-0.0129658641805,-0.0912383186405,-0.000373310730526,-0.139911679467,-0.00731502839121,0.0537905512549,-0.0224797395159,0.573910845161,0.818903685687,0.0019601721998,0.0,0.818859630192,-0.573851200915,-0.0120188248895,0.0,-0.00871758066919,0.00850300354196,-0.99992584861,0.0,0.654169973567,0.251236620789,0.303339979448,1.0,-0.01736,-0.022816,0.869
0.459457513968,0.506130510812,-0.124139628639,-1.42151906609,0.075561953208,1.91822084585,0.150492174498,-0.0106632543711,-0.0916612372629,-0.00409427769931,-0.144400301901,-0.00778152132308,0.0567453982432,-0.0181261025546,0.57389603057,0.818913996771,0.00198969581045,0.0,0.818870353391,-0.573836288598,-0.0120002136366,0.0,-0.00868555047568,0.00851634184944,-0.99992601383,0.0,0.653853813819,0.250839476068,0.303357221533,1.0,-0.01772,-0.0232891428571,0.887
0.459227783734,0.504396032978,-0.124140848101,-1.42414732999,0.0753951431555,1.91922893031,0.150144411259,-0.0107938179563,-0.108764005725,0.000399631819847,-0.148723309082,-0.00742196793574,0.0497821213121,-0.0174199548674,0.57389179548,0.818916764407,0.00207049622612,0.0,0.818874349862,-0.573831889074,-0.0119377184112,0.0,-0.00858804632141,0.0085465994525,-0.999926597855,0.0,0.653576715139,0.250477158357,0.303400837058,1.0,-0.01804,-0.0237097142857,0.903
0.459026051666,0.502920963425,-0.124151782145,-1.42632414144,0.0752585701425,1.920066226,0.149828137854,-0.0127571462302,-0.100687764353,-0.00124666390128,-0.144136157741,-0.0135881105584,0.0605351209631,-0.0186795876958,0.573881372173,0.818923756379,0.00219061907059,0.0,0.818882959908,-0.573821034348,-0.0118686736279,0.0,-0.00846267842241,0.00860523701347,-0.999927163832,0.0,0.653299844469,0.250118051034,0.303471449137,1.0,-0.01836,-0.0241302857143,0.919
0.458773945671,0.501111096026,-0.124150332103,-1.4290335863,0.0750879866006,1.9210181536,0.14944882388,-0.0131221640685,-0.104143178494,2.41957615617e-06,-0.1486434331,-0.010169122071,0.0476254917797,-0.0212895802836,0.573868218476,0.81893284812,0.00223718438455,0.0,0.818892576339,-0.573807614993,-0.0118539568812,0.0,-0.00842404342315,0.00863478904815,-0.999927235308,0.0,0.652957208198,0.249693809619,0.303527561616,1.0,-0.01872,-0.0246034285714,0.937
0.458528654233,0.499411585408,-0.124142643437,-1.43162977199,0.0749328049485,1.92195658235,0.149084694105,-0.0119615278119,-0.102256945331,0.000134992195228,-0.152763347129,-0.00633382646263,0.0540923294383,-0.0257736428267,0.573855690739,0.818941512532,0.00227863108103,0.0,0.818901631847,-0.573794773715,-0.0118499753877,0.0,-0.00839713183274,0.00866631737544,-0.999927188909,0.0,0.652631107099,0.249291281991,0.303558582017,1.0,-0.01906,-0.0250502857143,0.954
0.458286219592,0.497832189811,-0.124151037375,-1.43412656757,0.0747755424404,1.92288663671,0.148711295317,-0.0190714114989,-0.102570854543,0.00124367546581,-0.163826545974,-0.0020164892849,0.0575375552617,-0.0280519176282,0.573838865281,0.818953285615,0.00228463858521,0.0,0.818913508917,-0.573777953561,-0.0118436405837,0.0,-0.00838867462559,0.00866742954864,-0.999927250255,0.0,0.652326047572,0.248890601697,0.303552391943,1.0,-0.01938,-0.0254708571429,0.97
0.458013730506,0.496073421822,-0.12415104082,-1.43694805253,0.0745941704733,1.92388588423,0.148297332713,-0.0147656180806,-0.0985456727809,-0.000425435265407,-0.1530600007,-0.012900345271,0.0519881069312,-0.0251950480468,0.573816472285,0.818969134194,0.00222716693363,0.0,0.818928541959,-0.573755720353,-0.0118812216753,0.0,-0.00845266680025,0.00864169765726,-0.999926934073,0.0,0.651966640898,0.248440138074,0.303521841161,1.0,-0.01974,-0.025944,0.988
0.45775857011,0.494499441788,-0.124151129446,-1.43953385389,0.0744293802367,1.92477055193,0.147929818362,-0.016215080296,-0.0988189831716,-0.00167747083045,-0.161074379723,-0.00970490852592,0.0514367418227,-0.0255229341386,0.573811358736,0.818973043093,0.00210384745739,0.0,0.818930643966,-0.573750906207,-0.0119684961783,0.0,-0.00859495683071,0.00859072960533,-0.999926160315,0.0,0.65160780452,0.247994934695,0.303451708611,1.0,-0.0221765714286,-0.0291463510204,1.005
0.457492824464,0.492629552812,-0.124212081045,-1.44239500767,0.0742664660343,1.92582435116,0.147529785164,-0.0188158140132,-0.138558691532,-0.00765840207052,-0.209048664971,-0.0143524398316,0.0802866702204,-0.0327001841539,0.573843706058,0.818950219193,0.00216481017801,0.0,0.818908785027,-0.573783170763,-0.0119172839034,0.0,-0.00851769460887,0.00861160623408,-0.999926641868,0.0,0.651283238293,0.247543316989,0.30349728605,1.0,-0.0298645714286,-0.0392505795918,1.019
0.457137523545,0.48985903958,-0.124254547137,-1.4467742085,0.0740286481236,1.92748876747,0.146864052301,-0.0270188359047,-0.178175264387,-0.000453124287585,-0.292997786185,-0.0180085807498,0.119242787237,-0.0479420755773,0.5737779383,0.818996190269,0.00220561721692,0.0,0.818955129189,-0.573717085528,-0.0119142372938,0.0,-0.0084924781786,0.00864259444038,-0.999926588993,0.0,0.650693122839,0.246828036136,0.30347431436,1.0,-0.0397491428571,-0.0522417306122,1.037
0.456554538227,0.486008813886,-0.124297445413,-1.45284956001,0.0736866511366,1.9297525693,0.145976295145,-0.0370131749721,-0.232815937613,-0.00494834440538,-0.359837501985,-0.0188270056739,0.135518488017,-0.0640901881661,0.573767014738,0.819003699681,0.00225823110618,0.0,0.818963123598,-0.57370574722,-0.0119106966548,0.0,-0.0084595073336,0.00868354004864,-0.999926513734,0.0,0.649974013752,0.245903672949,0.303467125941,1.0,-0.0490845714286,-0.0645111510204,1.054
0.455966565527,0.482138551603,-0.124415112366,-1.45893553755,0.0733145809277,1.93192492205,0.145034316832,-0.0396219587424,-0.276019130566,-0.00557976041243,-0.42094651615,-0.0225137161844,0.149576281194,-0.0692864569397,0.573760744659,0.819008245826,0.00220183074614,0.0,0.818967140476,-0.573699914463,-0.0119154465714,0.0,-0.00849582245486,0.00864000887468,-0.999926582929,0.0,0.649207843982,0.244870264222,0.303448108028,1.0,-0.0573217142857,-0.0753371102041,1.069
0.455104619156,0.476625058356,-0.124548645833,-1.46756777976,0.0727889223567,1.9349564199,0.143764745007,-0.0461031592834,-0.325343029571,-0.00934642636882,-0.499570315714,-0.034516617947,0.178724444691,-0.0690405449428,0.573801128774,0.818980188945,0.0021122581079,0.0,0.818937946182,-0.573740689426,-0.0119586162026,0.0,-0.00858214656694,0.00859184121187,-0.999926260794,0.0,0.64809981915,0.243404612249,0.303426348502,1.0,-0.0672062857143,-0.0883282612245,1.087
0.454133881415,0.470668528548,-0.12466088853,-1.47682026577,0.0722540284466,1.9382849265,0.142414386083,-0.0600107308383,-0.365603979031,-0.0068294853545,-0.556526826332,-0.0335870492358,0.199633854981,-0.0879812766051,0.573872328603,0.818930214494,0.00214502987772,0.0,0.818888142925,-0.573811487814,-0.0119721648096,0.0,-0.00857368978004,0.00862719973112,-0.999926028898,0.0,0.646917688873,0.241833527064,0.303433366861,1.0,-0.0765417142857,-0.100597681633,1.104
0.453084233326,0.464305323338,-0.124700825326,-1.48640962089,0.0716601618041,1.94188287835,0.140843549296,-0.070119841112,-0.404387204294,-0.00355037131156,-0.619605260284,-0.0372093442988,0.230685194263,-0.105000210905,0.573768326116,0.81900219391,0.00246195390578,0.0,0.818964251123,-0.573706247268,-0.0118086464168,0.0,-0.00825902799809,0.00879184879532,-0.999927243279,0.0,0.645706926258,0.240230106501,0.303572528295,1.0,-0.085328,-0.112145371429,1.12
0.451792911095,0.456927530424,-0.124770309295,-1.49795281647,0.0709147498939,1.94580407003,0.139117877968,-0.0786898245733,-0.449050427143,-0.00659819295387,-0.697342613336,-0.0386185992601,0.237917810129,-0.107189882581,0.573796651964,0.818982964879,0.00224773965757,0.0,0.818941812879,-0.57373497304,-0.0119680712817,0.0,-0.0085122035366,0.00870817488129,-0.999925852292,0.0,0.644150963831,0.238237998617,0.303499553493,1.0,-0.0946634285714,-0.124414791837,1.137
0.450294270826,0.448145640512,-0.124929997967,-1.51110673986,0.0699984489022,1.95056679071,0.137038278037,-0.0872834310436,-0.503970995037,-0.0109647575907,-0.75690550118,-0.0552764411692,0.276041174398,-0.107839479895,0.573786583779,0.818989239074,0.00251584121076,0.0,0.818952534582,-0.573724879453,-0.0117156177768,0.0,-0.00815172113882,0.00878278793304,-0.999928203462,0.0,0.642445346601,0.235921086162,0.303683741097,1.0,-0.104548,-0.137405942857,1.155
0.448791655185,0.439845268937,-0.124965230262,-1.52383094572,0.0691867082849,1.95501384179,0.13505755475,-0.099119402208,-0.535904921547,-0.0026364441191,-0.830407834267,-0.052535701985,0.283443275707,-0.131045279322,0.573768606121,0.819001658785,0.0025722438828,0.0,0.818965159753,-0.573706128741,-0.0117512491717,0.0,-0.0081487373727,0.00884924635525,-0.999927641841,0.0,0.640828832229,0.233869982947,0.303703825201,1.0,-0.112785142857,-0.148231902041,1.17
0.4470325817,0.430253845074,-0.125037593641,-1.53818055068,0.0682151242647,1.96009745226,0.132692107663,-0.105978249465,-0.576377505749,-0.00332542944968,-0.865149037765,-0.0605120409559,0.309870101381,-0.142708040895,0.573683595238,0.819060447828,0.00280397224773,0.0,0.81902700258,-0.573620364893,-0.0116272493312,0.0,-0.00791515685166,0.00896706382821,-0.999928468471,0.0,0.638766089321,0.231183352829,0.303850507965,1.0,-0.122669714286,-0.161223053061,1.188
0.445072896292,0.42016447428,-0.125110555909,-1.55359483441,0.0671121032271,1.96535879271,0.13013639641,-0.123760226683,-0.597715559457,-0.000220104092467,-0.918850325357,-0.0610325177298,0.297377015239,-0.148564215365,0.573597832463,0.819120835087,0.0027075858049,0.0,0.819086208618,-0.573535021297,-0.0116665804173,0.0,-0.0080035979058,0.00890984297314,-0.999928275987,0.0,0.636607457475,0.228400585273,0.303831355071,1.0,-0.132005142857,-0.173492473469,1.205
0.443065826035,0.409990502383,-0.125236018344,-1.56882076153,0.0660249810645,1.97074031023,0.127626872714,-0.130528024893,-0.648547801846,-0.00665904220045,-0.968024104143,-0.067058868444,0.32702666126,-0.159004097603,0.573607398164,0.819113368754,0.00293066551911,0.0,0.819082159827,-0.573544447976,-0.0114860154025,0.0,-0.00772763061335,0.00898909232129,-0.999929737504,0.0,0.634366194224,0.225418179151,0.303944374589,1.0,-0.141340571429,-0.185761893878,1.222
0.440680770645,0.398648152191,-0.125332014221,-1.58594527585,0.0648898935965,1.97650567695,0.124744827814,-0.146976388264,-0.701036266958,-0.0105520729801,-1.01613439274,-0.0641887365997,0.35977610567,-0.164845102128,0.573645267921,0.819086820121,0.00293846851551,0.0,0.819054888345,-0.57358133087,-0.011588514054,0.0,-0.0078066987477,0.00905463758101,-0.999928531943,0.0,0.632040830157,0.222400434572,0.303949515394,1.0,-0.150126857143,-0.197309583673,1.238
0.43793627938,0.38603181409,-0.125467935322,-1.60500295849,0.0634400811814,1.98293497194,0.121456840732,-0.152729994697,-0.704805762652,-0.0133765438111,-1.09687734563,-0.0896181196676,0.360181167607,-0.192464683933,0.573629769323,0.819098000537,0.00284607855916,0.0,0.819065382168,-0.573566725378,-0.0115697093642,0.0,-0.00784446087789,0.00896802679879,-0.999929016945,0.0,0.629274746318,0.218756127294,0.303914559168,1.0,-0.160011428571,-0.210300734694,1.256
0.435464139459,0.374933486644,-0.125588949629,-1.6214409652,0.062228969332,1.98843442013,0.118483223532,-0.165494937246,-0.767164585823,-0.00497561893305,-1.11217031403,-0.0774559595532,0.373595014839,-0.211507425094,0.573581636522,0.819131351481,0.00294655167445,0.0,0.819100081176,-0.57351832882,-0.0115121859788,0.0,-0.0077402400908,0.00901687279213,-0.999929389851,0.0,0.62685354782,0.215565932661,0.303991409777,1.0,-0.168248571429,-0.221126693878,1.271
0.432358444861,0.361899610397,-0.12577768373,-1.64077899371,0.0607518696436,1.99483765834,0.115060990237,-0.188091146235,-0.797516937099,-0.0125985355972,-1.1462354667,-0.0926778211328,0.393275680729,-0.209008418599,0.573739007429,0.819021077376,0.00296193670015,0.0,0.818990373831,-0.573676061026,-0.0114582493969,0.0,-0.00768550355647,0.00900001555934,-0.999929963925,0.0,0.623981191695,0.211669853342,0.304022664026,1.0,-0.177584,-0.233396114286,1.288
0.428777427655,0.347586050634,-0.125962374129,-1.66211623065,0.059143099167,2.00166287017,0.111041760871,-0.211514605951,-0.809172882721,-0.0131922413686,-1.17854536674,-0.080577786249,0.381104990771,-0.234770986924,0.573793219507,0.818983797803,0.00276171783348,0.0,0.818950025869,-0.573730368076,-0.0116218233459,0.0,-0.00793375638149,0.0089304042633,-0.999928649149,0.0,0.620706823859,0.207304713817,0.303941624886,1.0,-0.187468571429,-0.246387265306,1.306
0.425384193584,0.334262209428,-0.126095654599,-1.68157747173,0.0576335767539,2.00804044301,0.107354622303,-0.21788988007,-0.815929040119,-0.00447108309638,-1.24795304173,-0.0948811726378,0.390701340557,-0.236577023882,0.573855912751,0.818939314348,0.00292193738674,0.0,0.818907661149,-0.57379257362,-0.0115356781386,0.0,-0.0077705839801,0.00901278754292,-0.999929191336,0.0,0.617704651107,0.203298664895,0.304008366766,1.0,-0.196254857143,-0.257934955102,1.322
0.42163338013,0.31960210417,-0.126201049952,-1.70280043758,0.0558649821174,2.01483605297,0.103172368018,-0.230415646485,-0.870344120964,-0.00642292982525,-1.26482455102,-0.0992705711818,0.401818309861,-0.244133020629,0.573722229614,0.819032569342,0.0030332335495,0.0,0.819002839427,-0.573659130094,-0.0114148311662,0.0,-0.00760922288037,0.00903334319685,-0.999930246786,0.0,0.614328315496,0.198928541904,0.304097466807,1.0,-0.205590285714,-0.27020437551,1.339
0.417590946366,0.304484516099,-0.126303346286,-1.72464629709,0.0540646521238,2.02168764778,0.098708310902,-0.240783009517,-0.893001916039,-0.00403883201863,-1.30815148283,-0.111575580025,0.394780077189,-0.267190003397,0.573564463457,0.819142869574,0.00308421578019,0.0,0.819113710489,-0.573501127775,-0.0113987995095,0.0,-0.00756858983049,0.00906444427503,-0.999930273718,0.0,0.610770166053,0.194354384876,0.304135400409,1.0,-0.214925714286,-0.282473795918,1.356
0.413420996474,0.289786361396,-0.126460631227,-1.74575322673,0.0523258771727,2.02813421965,0.0943795969066,-0.264645790969,-0.941773191937,-0.0138245024252,-1.32813236454,-0.105563238764,0.417600916641,-0.274349946921,0.573621934748,0.819102638245,0.00308073000768,0.0,0.819073079653,-0.573558178139,-0.0114478547812,0.0,-0.0076101366817,0.00909025863893,-0.999929724039,0.0,0.607275717017,0.189769235696,0.304159254669,1.0,-0.223712,-0.294021485714,1.372
0.408703020173,0.273850109166,-0.126608592855,-1.76863633967,0.0503939801662,2.0349626659,0.0894774163216,-0.28538463285,-0.963755271802,-0.00978750708145,-1.33950500789,-0.108576956909,0.421635467831,-0.298553460657,0.573578990893,0.819132976053,0.00300926080757,0.0,0.819102040456,-0.57351492596,-0.0115422668338,0.0,-0.00772894419885,0.00908546835432,-0.999928856312,0.0,0.603171463814,0.184420114648,0.304139496292,1.0,-0.233596571429,-0.307012636735,1.39
0.403588172022,0.257372642914,-0.126838869876,-1.79198640874,0.0483377534921,2.04189897538,0.0843425464701,-0.307035570712,-0.969668322809,-0.0189645170025,-1.3555015743,-0.116825136962,0.394265052024,-0.298976927703,0.57369042785,0.819055229204,0.0029276967485,0.0,0.819023134159,-0.573626492928,-0.0115973801013,0.0,-0.00781964095116,0.00905133158526,-0.999928460747,0.0,0.599397327473,0.179388640728,0.304115711818,1.0,-0.242382857143,-0.318560326531,1.406
0.398419713822,0.24142436752,-0.127007713347,-1.8144612672,0.0462852460442,2.0484474137,0.0792318087761,-0.330077142266,-0.982809123322,-0.006620926662,-1.42439743206,-0.131226898182,0.402929226413,-0.329353241568,0.573729022758,0.819028404996,0.0028683020436,0.0,0.818995619051,-0.573665371019,-0.0116174425189,0.0,-0.00786972137684,0.00901456430941,-0.999928399995,0.0,0.595463533697,0.174177820487,0.304097351645,1.0,-0.251169142857,-0.330108016326,1.422
0.392412864846,0.223014924852,-0.12716054254,-1.83999082305,0.0439858666435,2.05579450813,0.0731929651239,-0.342601427603,-1.01924837417,-0.00707985235899,-1.45597875141,-0.136684257026,0.404341970865,-0.345913117988,0.573618387564,0.819105339953,0.00302231861718,0.0,0.819074121312,-0.573553743846,-0.011594551259,0.0,-0.00776384617074,0.00912652647733,-0.999928212027,0.0,0.590878878792,0.168274362434,0.304162858464,1.0,-0.261053714286,-0.343099167347,1.44
0.386280792641,0.205177925608,-0.127354998118,-1.86445677845,0.0416285460401,2.06260901289,0.0671827934828,-0.373373890928,-1.04901340803,-0.00919258060081,-1.48091950644,-0.146264981591,0.40716885073,-0.365815991567,0.573570823715,0.81913826606,0.00312380548389,0.0,0.81910862214,-0.573506172678,-0.0115100797755,0.0,-0.00763697209762,0.00916075831657,-0.999928876053,0.0,0.586679170585,0.162773061693,0.304255113722,1.0,-0.26984,-0.354646857143,1.456
0.380116312015,0.188025448962,-0.127563784608,-1.88780782913,0.0393964472519,2.06889012043,0.0612056293723,-0.39580352972,-1.08189377003,-0.0148464770302,-1.46910126346,-0.141962899149,0.397132368388,-0.373806279362,0.573533962265,0.819164101055,0.00311714181432,0.0,0.819133984548,-0.57346887444,-0.011563403839,0.0,-0.00768488946115,0.00918553846592,-0.999928281607,0.0,0.582021551363,0.156687233135,0.304280534365,1.0,-0.279175428571,-0.366916277551,1.473
0.373011836275,0.169457918981,-0.127868164785,-1.91289724603,0.0369665241672,2.07549865446,0.0545548514341,-0.419487123765,-1.07812322076,-0.007732698715,-1.48238271744,-0.150027693212,0.371215289662,-0.400550433627,0.573708898288,0.819041446998,0.00315515843617,0.0,0.81901132111,-0.573643063857,-0.0116119801498,0.0,-0.00770090653848,0.00924618483554,-0.999927599431,0.0,0.577255788619,0.150289432615,0.304306207997,1.0,-0.288510857143,-0.379185697959,1.49
0.365640087013,0.150476943665,-0.128090936977,-1.93826797455,0.0343249619618,2.08203593615,0.0475642895745,-0.433389389063,-1.11050534944,-0.0118365014458,-1.49530603214,-0.144304763017,0.369843953593,-0.413288326592,0.573618780095,0.819104463122,0.00318127599076,0.0,0.819074969437,-0.573553228003,-0.0115601033606,0.0,-0.00764444832244,0.00923697376272,-0.999928117779,0.0,0.572299225402,0.143829936816,0.304338404361,1.0,-0.297846285714,-0.391455118367,1.507
0.358224704161,0.13222595301,-0.12834696442,-1.96235752915,0.0318122403562,2.0880181047,0.0406293363288,-0.463233223444,-1.15587989017,-0.0165376289188,-1.50675687511,-0.150581504023,0.357639121902,-0.437358916437,0.573605988282,0.819113171641,0.00324486565918,0.0,0.81908436614,-0.573540074025,-0.011546927459,0.0,-0.00759732615534,0.00928138416379,-0.999928065684,0.0,0.567493402558,0.137523448496,0.304386246018,1.0,-0.306632571429,-0.403002808163,1.523
0.349267730908,0.111346137834,-0.128744278808,-1.98966009338,0.0288370661863,2.09460212345,0.0324206177537,-0.504028336912,-1.16956609399,-0.0175575872506,-1.53863467138,-0.162289923545,0.356262190049,-0.467809776991,0.573724470649,0.819030051815,0.0032791620112,0.0,0.81900201754,-0.573658837006,-0.0114882936979,0.0,-0.00752828245969,0.00927693413321,-0.999928629181,0.0,0.561953337666,0.1301040767,0.304418119835,1.0,-0.316517142857,-0.415993959184,1.541
0.340373877505,0.0912689303847,-0.129038456973,-2.01560271283,0.0259356366342,2.10057076785,0.0242090654128,-0.528756091769,-1.19339888014,-0.0115854202064,-1.54154379643,-0.159788492794,0.33544241626,-0.480301855757,0.573645486605,0.819085340869,0.00328739586847,0.0,0.81905744282,-0.573579875313,-0.0114794990735,0.0,-0.00751725002964,0.00927790751404,-0.99992870315,0.0,0.556524872187,0.122999479942,0.304438062303,1.0,-0.325852571429,-0.428263379592,1.558
0.332032873956,0.0732124526206,-0.129355346379,-2.03861081974,0.0233592848552,2.10564950867,0.0165714165698,-0.561288088614,-1.20354906375,-0.0185067025911,-1.54819974942,-0.182346553556,0.340423453477,-0.507708920153,0.573634885384,0.819092650732,0.00331582402361,0.0,0.819064636607,-0.5735685912,-0.0115299240845,0.0,-0.00754236878116,0.00933002051144,-0.999928029105,0.0,0.551268663271,0.116098945133,0.304446403489,1.0,-0.32998,-0.433688,1.574
0.321526289905,0.0517374598352,-0.12976757986,-2.06583546056,0.0201618324759,2.11131844613,0.00720085855452,-0.598511889031,-1.20927337164,-0.0264450077962,-1.52114372749,-0.177835299638,0.305616990604,-0.523589266302,0.573786469112,0.818986790006,0.00323613356333,0.0,0.818957497173,-0.573720101898,-0.0116021292789,0.0,-0.00764550293724,0.0093075798364,-0.99992745499,0.0,0.545650913123,0.108612549525,0.304428206823,1.0,-0.32998,-0.433688,1.591
0.311258020762,0.0315817173281,-0.130012987796,-2.09091571179,0.017223383079,2.11628322829,-0.00184037537271,-0.618225744073,-1.20494417575,-0.0202098032689,-1.46716650935,-0.183089064478,0.29165909585,-0.543713528657,0.573891057796,0.818913354286,0.00327396642397,0.0,0.818883682749,-0.573823493436,-0.0116986926484,0.0,-0.00770168506799,0.00939495366326,-0.999926206724,0.0,0.54001326078,0.101227569817,0.304439978846,1.0,-0.32998,-0.433688,1.608
0.301333583374,0.0127997341297,-0.130261246281,-2.11383458336,0.0143175742404,2.12064370566,-0.0106386459724,-0.624648310577,-1.20124446371,-0.0187988219104,-1.42839810744,-0.189170533382,0.278561747237,-0.548378391563,0.573857166245,0.818936733884,0.00336534485585,0.0,0.818908882756,-0.573790095208,-0.0115721771981,0.0,-0.00754602473763,0.009396868529,-0.999927375549,0.0,0.534765295349,0.0942825699091,0.304522814116,1.0,-0.32998,-0.433688,1.624
0.290416270187,-0.00693168891128,-0.130530670736,-2.13765447911,0.0113941887337,2.12483182694,-0.0202641262862,-0.647790118909,-1.18828330991,-0.00657730136522,-1.3867213941,-0.178086558508,0.257731739938,-0.572590844546,0.57391244974,0.818897559982,0.00346888890394,0.0,0.818870274827,-0.573844072377,-0.0116275751219,0.0,-0.00753133656213,0.00951396330614,-0.999926379026,0.0,0.529163712584,0.0868923704655,0.304576761071,1.0,-0.32998,-0.433688,1.641
0.279305315286,-0.0264336333599,-0.130739933503,-2.16091222335,0.00834596944156,2.12865188456,-0.0301108916804,-0.661274119004,-1.16091365986,-0.0162906176045,-1.33437186935,-0.18424655831,0.221560821936,-0.581312913104,0.573778057339,0.818991497067,0.00352357057976,0.0,0.818965084773,-0.573709736018,-0.0115791028416,0.0,-0.00746182368705,0.00952969988902,-0.999926750321,0.0,0.523223555918,0.0791608870561,0.304639069453,1.0,-0.32998,-0.433688,1.659
0.268352966293,-0.0445768905997,-0.131076346623,-2.18244725695,0.00553510736099,2.13200656492,-0.0396276820895,-0.693833899396,-1.11395746092,-0.0235114412244,-1.3326745286,-0.162037002962,0.190523327208,-0.599295851628,0.573946250909,0.81887393837,0.00345268395133,0.0,0.81884576844,-0.573877072411,-0.0117243409215,0.0,-0.00761948776598,0.00955654115262,-0.999925305174,0.0,0.518248062138,0.0725624147448,0.304571545617,1.0,-0.32998,-0.433688,1.674
0.255852976649,-0.06491207107,-0.131293302019,-2.20593441639,0.00234897829998,2.13544339026,-0.0506531384484,-0.710537346005,-1.11375675816,-0.0139216962174,-1.31302762426,-0.180166097401,0.185416343887,-0.614244136023,0.573816822658,0.818963800011,0.00364625945936,0.0,0.818938562297,-0.573747583651,-0.0115796518747,0.0,-0.00739142545581,0.0096308469493,-0.999926304093,0.0,0.512329547578,0.0648417398822,0.304669518418,1.0,-0.32998,-0.433688,1.692
0.24354541096,-0.0837692961554,-0.131654012761,-2.22746591301,-0.000635417610653,2.13824086289,-0.0614105207215,-0.734403148629,-1.09718117408,-0.0184270358935,-1.25534523582,-0.17997251207,0.162366769126,-0.644864315513,0.573910175079,0.818897961256,0.00373990533279,0.0,0.818873878409,-0.573840563334,-0.0115466892441,0.0,-0.00730959163055,0.00968945978253,-0.999926339407,0.0,0.506768781647,0.0574044690787,0.30472257703,1.0,-0.32998,-0.433688,1.709
0.231103465215,-0.102438610385,-0.131840646406,-2.24860877765,-0.00362593849635,2.1406783055,-0.0724286180431,-0.739130061022,-1.09900553931,-0.0145511833938,-1.22763024095,-0.178337606007,0.129296831709,-0.659847675237,0.573706984615,0.819040439917,0.0037149004819,0.0,0.819015646775,-0.573636967673,-0.0116080384701,0.0,-0.00737659070968,0.00970236116935,-0.99992572229,0.0,0.501131986403,0.0501631905865,0.304715616713,1.0,-0.32998,-0.433688,1.726
0.217327856922,-0.121907104674,-0.132224816375,-2.27046459452,-0.00679184301523,2.14292377239,-0.0844012901547,-0.765885208647,-1.07698081195,-0.0273881556329,-1.20800774544,-0.169327151866,0.131401358353,-0.673230505502,0.573837412068,0.818949463511,0.00362596579977,0.0,0.81892278568,-0.573766710376,-0.0117464913575,0.0,-0.00753946948462,0.00971014916544,-0.999924431846,0.0,0.495171700581,0.0423015617069,0.304650867876,1.0,-0.32998,-0.433688,1.744
0.204029144596,-0.140093208294,-0.132470961222,-2.29061138884,-0.00974310790498,2.14460417363,-0.0961252948907,-0.798269590819,-1.06303093684,-0.0167690099475,-1.16046308559,-0.170700099302,0.100517983241,-0.697819426732,0.573734340141,0.819022370692,0.00346556652883,0.0,0.818992258975,-0.573662515359,-0.0119893749715,0.0,-0.00783165148375,0.00971717538378,-0.999922117836,0.0,0.489495305224,0.0349846896062,0.304568378235,1.0,-0.32998,-0.433688,1.761
0.192734815951,-0.155045686696,-0.132837637678,-2.30677864019,-0.0121952757879,2.1459198834,-0.106063527208,-0.81854843543,-1.06689762175,-0.0413018334049,-1.15341344979,-0.178639421496,0.0770305180742,-0.716646393416,0.573792801266,0.818981023615,0.00355683499096,0.0,0.81895219595,-0.573720751739,-0.0119392912057,0.0,-0.00773757186027,0.00976374515487,-0.99992239662,0.0,0.484879239824,0.0288538366951,0.304594120865,1.0,-0.32998,-0.433688,1.775
0.178743466475,-0.172967024057,-0.133134395508,-2.32582801073,-0.0150428099797,2.14709269147,-0.118372386276,-0.837596945125,-1.04318053013,-0.0166704513589,-1.11722143332,-0.168460805015,0.0637402435421,-0.732000659747,0.573795366219,0.818978801372,0.00365342437566,0.0,0.818950396881,-0.57372190165,-0.0120072443606,0.0,-0.00773777799008,0.0098818647741,-0.999921234668,0.0,0.478936721252,0.0210959988439,0.304625485289,1.0,-0.32998,-0.433688,1.793
0.16338340052,-0.191627667401,-0.133589265437,-2.34542757208,-0.0181789872999,2.14805438224,-0.131844994325,-0.863804366075,-1.02824703028,-0.0238708575646,-1.06213805124,-0.177176070233,0.0663000751061,-0.76184962495,0.57391783164,0.818892740816,0.00370789236847,0.0,0.818865327367,-0.57384451067,-0.0119499000961,0.0,-0.00765808020211,0.00989471575353,-0.99992172114,0.0,0.473353867332,0.0136378987956,0.304671906634,1.0,-0.32998,-0.433688,1.81
0.14954084391,-0.208013817375,-0.13387889057,-2.36246700293,-0.0208137007993,2.14865372063,-0.144217717675,-0.869876050789,-1.024424894,-0.0203648034275,-1.06690677426,-0.16830717122,0.0323873245393,-0.777654146957,0.573799455382,0.818975408765,0.00376984645197,0.0,0.818947941246,-0.573724808478,-0.0120358035864,0.0,-0.00769432086786,0.00999363794212,-0.99992045915,0.0,0.468054121508,0.0067795321087,0.304660447865,1.0,-0.32998,-0.433688,1.826
0.13340120501,-0.226195604982,-0.134288244032,-2.38092173064,-0.0238788701779,2.14904548829,-0.15840869171,-0.895444385952,-0.976056211339,-0.00946191478873,-1.02969786621,-0.168180589717,0.0149736409923,-0.800006457782,0.573906714641,0.818899666451,0.003894364848,0.0,0.818874548459,-0.573832558397,-0.0118918337889,0.0,-0.00750364984767,0.0100139923177,-0.999921704533,0.0,0.462489786425,-0.000635445861063,0.304742708909,1.0,-0.32998,-0.433688,1.843
0.118817193038,-0.242102151687,-0.134577440909,-2.39686854643,-0.026501880168,2.14913645931,-0.171496770837,-0.927831573165,-0.988914027859,-0.0264627681151,-0.958458567451,-0.154413638377,0.00801453381487,-0.821971781745,0.573767305283,0.81899698531,0.00397043349725,0.0,0.818972691413,-0.573692682195,-0.0118820880897,0.0,-0.00745372918953,0.0100694241393,-0.99992152123,0.0,0.456902959647,-0.00791573170342,0.304765073722,1.0,-0.32998,-0.433688,1.86
0.10378278132,-0.25775043785,-0.134959067416,-2.41248045757,-0.0291051992952,2.14908508506,-0.184940789226,-0.936735189968,-0.978217920594,-0.0091294070117,-0.968140317074,-0.159790479764,-0.0110365063525,-0.842839902928,0.573769382134,0.818995185806,0.0040408727384,0.0,0.818971517905,-0.573694118562,-0.0118936154526,0.0,-0.00742273178425,0.0101337471759,-0.999921101998,0.0,0.451621918101,-0.0148535693189,0.30474481067,1.0,-0.32998,-0.433688,1.876
0.0874426876269,-0.274231133698,-0.135412593336,-2.42846679394,-0.0319191718185,2.1488610546,-0.199582694743,-0.977222793227,-0.972797829401,-0.0340226038422,-0.944895529454,-0.168136167535,-0.0186620250332,-0.854583149744,0.573778723328,0.818987638281,0.00423932786096,0.0,0.818967858255,-0.573704636953,-0.0116354452478,0.0,-0.00709730041749,0.0101482395634,-0.99992331784,0.0,0.446061809053,-0.0222424290771,0.30482863329,1.0,-0.32998,-0.433688,1.893
0.0697514083534,-0.291233467702,-0.135790373181,-2.44494032782,-0.0346907639063,2.1481438173,-0.215594341311,-0.993859696242,-0.939734187339,-0.0263993812272,-0.906661402315,-0.157110964005,-0.0405861907507,-0.896234102185,0.573684499622,0.819053473275,0.00427196794391,0.0,0.819032864942,-0.573608537248,-0.0117965690849,0.0,-0.00721172244624,0.0102665886404,-0.999921291011,0.0,0.440086596799,-0.0299686527707,0.304791742864,1.0,-0.32998,-0.433688,1.911
0.0535150583703,-0.306039034868,-0.136274325022,-2.45889722852,-0.0372472028678,2.14744667616,-0.230202602636,-1.01460310239,-0.916290608307,-0.0219556603432,-0.882631001612,-0.158166482513,-0.0524965327833,-0.913069111534,0.573806035361,0.81896757138,0.00441562149577,0.0,0.818949783528,-0.573730982621,-0.0116085546149,0.0,-0.00697378518751,0.0102774288403,-0.999922867414,0.0,0.435197108036,-0.0365525398506,0.304860543344,1.0,-0.32998,-0.433688,1.926
0.0369833396001,-0.320558921307,-0.136689610099,-2.4725094259,-0.0396499610837,2.14644055768,-0.245133959215,-1.05006154893,-0.889257941586,-0.0361335557348,-0.845237137978,-0.139543375348,-0.062648438385,-0.940295737082,0.57385461555,0.818933157652,0.00448446336249,0.0,0.818915469153,-0.573778169537,-0.0116967279939,0.0,-0.00700588609578,0.0103848177045,-0.999921533482,0.0,0.429575749013,-0.0438982780049,0.304846536506,1.0,-0.32998,-0.433688,1.943
0.018045711232,-0.336539996745,-0.137107122882,-2.48715393331,-0.0423463404007,2.14523514113,-0.262493514191,-1.05505758947,-0.890361592727,-0.016953066795,-0.817668064544,-0.15346436499,-0.0816929003616,-0.981225131617,0.573717694538,0.81902817905,0.0046471277989,0.0,0.819013335872,-0.573641890377,-0.0115275396726,0.0,-0.00677572310527,0.0104198137392,-0.999922755546,0.0,0.423697020109,-0.0516368399652,0.304909259894,1.0,-0.32998,-0.433688,1.961
0.000711059956792,-0.350356901039,-0.137577866068,-2.49974308745,-0.0447961536644,2.14386406253,-0.278285097327,-1.07536865852,-0.885864436804,-0.0199421762214,-0.761096408105,-0.148899674742,-0.0864613063885,-0.999232938953,0.573757424788,0.819000550195,0.00461120183707,0.0,0.818985058869,-0.573681439216,-0.0115683425545,0.0,-0.00682924949477,0.0104141283454,-0.999922450634,0.0,0.418402762744,-0.0586065827173,0.304899650298,1.0,-0.32998,-0.433688,1.977
-0.0181143293255,-0.364666151064,-0.138085938496,-2.51248956943,-0.047146646411,2.14237559236,-0.295574365373,-1.1268622935,-0.820891244953,-0.0362583610731,-0.755449953458,-0.136774622536,-0.101622832378,-1.02289244799,0.573836545341,0.818943851532,0.0048305455883,0.0,0.818931218117,-0.573759940379,-0.011486414237,0.0,-0.00663528251653,0.0105474119173,-0.99992235955,0.0,0.412839260174,-0.0659995839091,0.304951056587,1.0,-0.32998,-0.433688,1.994
-0.0383756427055,-0.379318621712,-0.138496917973,-2.5255476935,-0.0497489461141,2.14047631486,-0.314316942454,-1.14851772788,-0.802800124563,-0.0303807291455,-0.697008164206,-0.139077908713,-0.104567915463,-1.05586574411,0.573650913821,0.819074663036,0.00469812146817,0.0,0.819059585821,-0.573573591709,-0.0116394445843,0.0,-0.0068389874177,0.0105252220891,-0.999921220872,0.0,0.407193836985,-0.0732858982478,0.304896393999,1.0,-0.32998,-0.433688,2.011
-0.0568755023561,-0.391987587996,-0.138957595666,-2.53652245347,-0.0519757612791,2.13886739737,-0.331362655754,-1.16153049298,-0.7775914334,-0.0256090151271,-0.68340954486,-0.127737698086,-0.104875932431,-1.08164146302,0.573745471994,0.819007691016,0.00482517608289,0.0,0.818995102811,-0.573669079394,-0.0114697785536,0.0,-0.00662591009758,0.0105327318797,-0.99992257644,0.0,0.401629791159,-0.0807024661009,0.304950513799,1.0,-0.32998,-0.433688,2.028
-0.0768414244035,-0.404980128139,-0.13942626042,-2.54781816485,-0.0541633316436,2.13681782229,-0.349961964364,-1.1693356595,-0.749324153186,-0.0212600062649,-0.664667008432,-0.138353833177,-0.129010963255,-1.10087079577,0.573731989665,0.819017085831,0.00483363764066,0.0,0.819002852934,-0.573652807538,-0.011727326663,0.0,-0.00683218264565,0.0106873112414,-0.999919548093,0.0,0.395961645195,-0.0880242605474,0.304893640215,1.0,-0.32998,-0.433688,2.045
-0.0984539682157,-0.418209370129,-0.139975079169,-2.55883723965,-0.056454551748,2.13481930588,-0.370184220182,-1.21601792305,-0.711851989238,-0.0329549703121,-0.596776686,-0.131922694036,-0.105136541761,-1.12261913926,0.573745996188,0.819005896951,0.00506157273334,0.0,0.818995959715,-0.573668281552,-0.0114484764513,0.0,-0.00647283061488,0.010714131425,-0.999921651857,0.0,0.390115681619,-0.0958588725726,0.305005321782,1.0,-0.32998,-0.433688,2.063
-0.116746153406,-0.428735946221,-0.14028746775,-2.56780909653,-0.0583366466889,2.13287357511,-0.38740082954,-1.22101542111,-0.6905173341,-0.0271960258183,-0.584942660435,-0.122902009752,-0.140659258108,-1.14725523728,0.573592234154,0.819114293135,0.00494677688133,0.0,0.819101520279,-0.573512698259,-0.0116889398008,0.0,-0.0067376680265,0.010756804661,-0.999919444247,0.0,0.385119253657,-0.102284939992,0.30493483148,1.0,-0.32998,-0.433688,2.078
-0.139068008332,-0.440876816078,-0.140758043214,-2.57787054119,-0.0604116277333,2.13063020741,-0.408423061346,-1.23749328239,-0.664129748357,-0.025401727689,-0.527473905374,-0.0978650279181,-0.118116672818,-1.18691016479,0.573587796597,0.819116764152,0.00505105741594,0.0,0.819104724088,-0.573506924501,-0.0117475711052,0.0,-0.00672594552151,0.0108758178098,-0.999918235779,0.0,0.379189184128,-0.110027193719,0.304937749951,1.0,-0.32998,-0.433688,2.096
-0.16068230862,-0.451752241073,-0.141226553042,-2.58665506066,-0.0624591586664,2.12861109353,-0.428781532538,-1.28030018448,-0.618356903233,-0.0365404751805,-0.517330156271,-0.115859015697,-0.129667380079,-1.20075039194,0.573609732711,0.819101077716,0.00510352087883,0.0,0.819091013618,-0.573530811823,-0.0115354324031,0.0,-0.00652178420503,0.0107972922684,-0.99992043924,0.0,0.373627946404,-0.117449003744,0.305002579445,1.0,-0.32998,-0.433688,2.113
-0.179969118997,-0.460859151355,-0.14162390275,-2.59407987187,-0.0641166737996,2.12660111167,-0.447149622557,-1.2866441723,-0.588442019338,-0.0128168095473,-0.482537074587,-0.114234022634,-0.134733729138,-1.22079459155,0.573536358985,0.81915261941,0.00507719774173,0.0,0.819140944026,-0.573455450358,-0.0117348700705,0.0,-0.00670123185864,0.0108895248617,-0.999918252529,0.0,0.368635092598,-0.123920225211,0.304969904414,1.0,-0.32998,-0.433688,2.128
-0.202070345658,-0.470480935208,-0.142065799345,-2.60185694186,-0.0657429264947,2.12463302862,-0.468207451334,-1.30987786564,-0.543458683544,-0.0308089195114,-0.441145941348,-0.0999858166252,-0.113182570648,-1.20777982335,0.573584723506,0.819117635531,0.00525461932972,0.0,0.819107708108,-0.573502297111,-0.0117653995626,0.0,-0.00662383754418,0.0110527654512,-0.99991697713,0.0,0.363076983615,-0.131228735533,0.304951049536,1.0,-0.321760571429,-0.422885322449,2.145
-0.225495894189,-0.479755548186,-0.142297220415,-2.60906852853,-0.0673258245932,2.12258912158,-0.490330881657,-1.30021531449,-0.496316367783,-0.0225075730949,-0.385896728685,-0.0821427743006,-0.10875872623,-1.19586137982,0.57373170039,0.819013853099,0.00538435702722,0.0,0.819006395541,-0.573650156373,-0.0116090076204,0.0,-0.00641932440311,0.0110704916643,-0.999918114892,0.0,0.357381093055,-0.138828940297,0.305027363596,1.0,-0.311876,-0.409894171429,2.163
-0.246025188339,-0.487230757021,-0.142350517136,-2.6150021217,-0.0685749780334,2.1207931144,-0.509881346596,-1.2802098142,-0.448251825558,0.00466440643949,-0.360145192109,-0.0711039130318,-0.114464857701,-1.20537903363,0.573696978612,0.819038093766,0.00539672055203,0.0,0.819030079315,-0.573614167519,-0.0117159250698,0.0,-0.00650027871959,0.0111416817879,-0.999916801191,0.0,0.352392411392,-0.145321518925,0.305005451426,1.0,-0.303089714286,-0.398346481633,2.179
-0.268886407953,-0.494677529458,-0.142377676747,-2.62087580696,-0.0697388440576,2.11899495487,-0.531584056637,-1.25258288101,-0.393912411371,0.00524567084398,-0.307496289094,-0.0589862304835,-0.0907141904496,-1.21462456452,0.573827368328,0.818946076916,0.00549739599591,0.0,0.818938672625,-0.573742985467,-0.011797627218,0.0,-0.0065076534286,0.0112720485807,-0.999915292096,0.0,0.346962278252,-0.15246881055,0.304983660561,1.0,-0.293205142857,-0.385355330612,2.197
-0.288793069624,-0.500587065604,-0.142216992476,-2.62546643807,-0.0706939885862,2.11752570109,-0.550531277097,-1.23139818387,-0.355987186743,0.0187981730837,-0.273511514917,-0.0651399913129,-0.0995577486378,-1.16841852711,0.573820527394,0.818950894721,0.00549374906835,0.0,0.818943498066,-0.573736253949,-0.0117900289389,0.0,-0.00650361695249,0.0112646475826,-0.999915401762,0.0,0.342311481187,-0.158583169167,0.304987536853,1.0,-0.284418857143,-0.373807640816,2.213
-0.308325033873,-0.505769059303,-0.142116522287,-2.62945057819,-0.0713593586304,2.11621930383,-0.569160705085,-1.20784461464,-0.313031024822,0.002869862346,-0.233782056625,-0.044538964728,-0.0779368887718,-1.1554094789,0.573968970057,0.818845617847,0.0056764818459,0.0,0.818840313204,-0.57388352452,-0.0117893450726,0.0,-0.00639613728685,0.011415070197,-0.999914389135,0.0,0.33781920529,-0.164540957025,0.304998637015,1.0,-0.275632571429,-0.362259951021,2.229
-0.328607842457,-0.510680390808,-0.141819283251,-2.63316966646,-0.072016333317,2.11499364869,-0.588602403761,-1.19499141332,-0.283882431389,0.00799787132319,-0.217080373858,-0.0375377128975,-0.0626407272499,-1.13361243076,0.573944369818,0.818862249145,0.00576404201494,0.0,0.81885867003,-0.573859685577,-0.0116741889643,0.0,-0.00625192166273,0.0114204906864,-0.999915239342,0.0,0.333214326401,-0.170631160933,0.305033961259,1.0,-0.266297142857,-0.349990530612,2.246
-0.348321552829,-0.514867192771,-0.141464900797,-2.6364862769,-0.0725403351356,2.11374468184,-0.60758071109,-1.14136152193,-0.229611563744,0.0312945460899,-0.190555221101,-0.0343542020132,-0.0621122663294,-1.10295958081,0.573856711891,0.818923588547,0.00577730393705,0.0,0.818918662896,-0.573769245461,-0.0119089640852,0.0,-0.00643781623169,0.0115654036571,-0.999912394143,0.0,0.32845515893,-0.176784062605,0.304971487151,1.0,-0.256412571429,-0.336999379592,2.264
-0.366480095142,-0.518231598371,-0.141134245356,-2.63918014889,-0.073018581945,2.11279251919,-0.625030269269,-1.12395852291,-0.196422574253,0.028679527801,-0.160319127382,-0.0312657380628,-0.0548282634482,-1.07485993171,0.573855971955,0.81892415249,0.00577085970396,0.0,0.818918341714,-0.573767099415,-0.0120337913587,0.0,-0.00654375894383,0.0116317498427,-0.999910936841,0.0,0.324608714868,-0.181794092502,0.304920288638,1.0,-0.248175428572,-0.326173420408,2.279
-0.386310458671,-0.521392581089,-0.140778918496,-2.64163231786,-0.0733685626645,2.11188979628,-0.644057543885,-1.08709638314,-0.16458106811,0.0167620170754,-0.129456024316,-0.0186876407814,-0.0539234321986,-1.04776602984,0.573966267058,0.818846218745,0.0058601389272,0.0,0.818841128573,-0.573876212161,-0.0120849565775,0.0,-0.00653285244457,0.0117351061242,-0.999909800494,0.0,0.320190486397,-0.187611412441,0.304900173379,1.0,-0.238290857143,-0.313182269388,2.297
-0.404340154864,-0.523902283676,-0.140285685032,-2.64351099768,-0.0736095740362,2.11113988291,-0.661512319417,-1.06518432529,-0.138417964564,0.0229807984416,-0.105037246858,-0.0112205257455,-0.0432763638564,-1.01263019436,0.573872547438,0.818911690012,0.0058898353151,0.0,0.818907105261,-0.573782600729,-0.0120593098986,0.0,-0.00649614989552,0.0117439609879,-0.999909935653,0.0,0.316218772588,-0.192831152084,0.304915892409,1.0,-0.228955428572,-0.30091284898,2.314
-0.420873066066,-0.525785665084,-0.139927145402,-2.6449296555,-0.0737776362523,2.11057446818,-0.677471723604,-1.01154759567,-0.100133503117,0.0230169323721,-0.0857019761542,-0.00392143369592,-0.0357807550464,-0.990477732382,0.573932182914,0.818869380481,0.00596104246904,0.0,0.818865775905,-0.573842022275,-0.0120383314104,0.0,-0.00643724825576,0.0117907064993,-0.999909766467,0.0,0.312586783502,-0.197634037238,0.304921934999,1.0,-0.220169142857,-0.289365159184,2.33
-0.437840000822,-0.527419809381,-0.139509625088,-2.64612366395,-0.0738962585138,2.11007461298,-0.693811550715,-0.991355250921,-0.0894762458258,0.0190066775729,-0.0673807917575,-0.0147611802287,-0.0291524603904,-0.94492074075,0.574028573302,0.818801355197,0.00602367510479,0.0,0.818798930481,-0.573938806376,-0.0119710016483,0.0,-0.00634477362962,0.0118041029961,-0.999910199468,0.0,0.308874906147,-0.202534277764,0.304945151041,1.0,-0.210833714286,-0.277095738776,2.347
-0.453998756856,-0.528605443415,-0.138954595516,-2.64704511077,-0.0739379365328,2.10966955985,-0.709525227319,-0.936947995275,-0.0603030843982,0.0307712223918,-0.0489478118018,-0.00205680969401,-0.0301201204264,-0.910619619421,0.573928715037,0.818871374441,0.00602072080025,0.0,0.818868849025,-0.573838865164,-0.0119796421348,0.0,-0.0063549847819,0.0118058686286,-0.999910113777,0.0,0.305362643897,-0.20713872888,0.304939489903,1.0,-0.201498285714,-0.264826318367,2.364
-0.468830396773,-0.529399900929,-0.138505096824,-2.64766174326,-0.0739411793022,2.1093722824,-0.723753158327,-0.901611159252,-0.0374939852571,0.0378850221804,-0.0305921824702,-0.000326342337037,-0.0199772602581,-0.879524770886,0.574068001984,0.818773562327,0.00604397497651,0.0,0.818771289186,-0.573977933597,-0.0119856017735,0.0,-0.00634450774445,0.0118294113989,-0.999909902065,0.0,0.302137731579,-0.211377157135,0.304935663291,1.0,-0.192712,-0.253278628572,2.38
-0.48457443269,-0.529947292963,-0.137895436888,-2.64808270426,-0.0739308185536,2.109134139,-0.739104991961,-0.860567998792,-0.0224430551923,0.0341302085839,-0.0162767483174,7.09252399777e-05,-0.00963809361325,-0.837034531205,0.573938900151,0.818864457307,0.00599052204708,0.0,0.818861579564,-0.573849247458,-0.0119792156013,0.0,-0.00637181999098,0.011780972993,-0.99991030027,0.0,0.298926639086,-0.215598751791,0.304935664509,1.0,-0.183376571429,-0.241009208163,2.397
-0.4988088757,-0.530168046492,-0.137337585448,-2.64826543228,-0.0738841951954,2.10896803514,-0.752941362658,-0.826780872242,-0.00961260888378,0.0339798340906,-0.0071468653174,0.00260610493641,0.00105594051326,-0.802375944277,0.573880556352,0.818905782286,0.0059307403262,0.0,0.818902174991,-0.573791248639,-0.0119823904902,0.0,-0.00640956536493,0.0117333829774,-0.999910618603,0.0,0.295674468186,-0.219876724277,0.304937610955,1.0,-0.173492,-0.228018057143,2.415
-0.511602053084,-0.530223381763,-0.136799666005,-2.64833397986,-0.0737609746086,2.10889595161,-0.76531705031,-0.799885426317,0.00324551346094,0.0237010216753,-0.00196194501243,0.0129384397074,-0.00217715804159,-0.768887850282,0.573891785021,0.818898003475,0.00591826758846,0.0,0.818894337911,-0.573802715916,-0.0119688531789,0.0,-0.00640547528155,0.0117154878934,-0.999910854641,0.0,0.292917793994,-0.223474789076,0.304934599419,1.0,-0.164705714286,-0.216470367347,2.431
-0.524525886599,-0.530099593117,-0.136176215933,-2.64828232979,-0.0735529079442,2.10885592064,-0.777848489159,-0.742362777149,0.0101859354994,0.0391602384191,0.00674966543572,0.0174324868034,-0.00125804783017,-0.723364080701,0.573865391616,0.818916498303,0.00591844694338,0.0,0.81891275901,-0.573776188105,-0.0119802334879,0.0,-0.00641507044006,0.0117219587817,-0.999910717291,0.0,0.290142243784,-0.227075383879,0.304925854958,1.0,-0.155370285714,-0.204200946939,2.448
-0.536702252545,-0.529834366744,-0.135592714632,-2.64812053936,-0.0732997422853,2.10885924052,-0.789663759041,-0.709392556549,0.0150688512241,0.0281904217697,0.0134316222826,0.0188309086989,-0.0004786837408,-0.693564780306,0.573867042576,0.81891507954,0.00595456532934,0.0,0.818911719625,-0.573777525532,-0.0119872247211,0.0,-0.00640004654635,0.0117555628638,-0.999910419061,0.0,0.287522530619,-0.230460015717,0.304918198111,1.0,-0.146034857143,-0.191931526531,2.465
-0.547595583545,-0.529447510949,-0.135016538012,-2.64788361943,-0.0730420646907,2.10887941815,-0.800162415079,-0.665486871809,0.0335075581167,0.0404980863569,0.0210434288444,0.0196028737074,0.000979702308361,-0.649274963702,0.573907629827,0.818886511144,0.00597169937177,0.0,0.818883064673,-0.573817465138,-0.0120328714731,0.0,-0.00642701448351,0.0117961073416,-0.999909768597,0.0,0.285180836449,-0.23346792256,0.304901459863,1.0,-0.137248571429,-0.180383836735,2.481
-0.558324069221,-0.528910200279,-0.13434849186,-2.64754381586,-0.0727057490255,2.10896124472,-0.810633093353,-0.62136336888,0.0333649078993,0.0380331875732,0.0214354022291,0.0150051397911,0.00518684537016,-0.601580460245,0.573810612421,0.818954324716,0.00599516496705,0.0,0.818950957362,-0.57371995303,-0.012061999549,0.0,-0.00643880489902,0.0118312772263,-0.99990927722,0.0,0.282903498188,-0.23640546243,0.304884105965,1.0,-0.127913142857,-0.168114416327,2.498
-0.569173245051,-0.528272914311,-0.133757302696,-2.64706953514,-0.0723728435518,2.10903841403,-0.820948184961,-0.582892236132,0.0331089126183,0.0373833215999,0.026420570043,0.020751443584,0.00114403985898,-0.551727099814,0.573999678574,0.818821487723,0.00604045865336,0.0,0.818818655933,-0.573908686405,-0.0120654575664,0.0,-0.00641290769189,0.0118718375704,-0.9999089629,0.0,0.280581427897,-0.239402871886,0.304888808123,1.0,-0.118028571429,-0.155123265306,2.516
-0.577831024733,-0.527541930173,-0.133101726939,-2.64658557402,-0.0719997772495,2.10917480524,-0.829529000599,-0.526763524043,0.0480868940751,0.0375018900883,0.0339072504281,0.0288855897648,0.00717840795813,-0.51170464538,0.573786714505,0.818970581243,0.00606137085001,0.0,0.818967737995,-0.573695151191,-0.012102252837,0.0,-0.00643413385107,0.0119084083414,-0.99990839167,0.0,0.278784542087,-0.241756638915,0.304870168407,1.0,-0.109242285714,-0.14357557551,2.532
-0.586595302669,-0.526819871417,-0.132496843101,-2.64607352552,-0.0716704069858,2.10929308726,-0.837890981522,-0.501556369684,0.0443912767796,0.0355172946647,0.0315370393754,0.0200860079053,0.00538983782611,-0.469125423039,0.573858420075,0.818920286541,0.00606835241171,0.0,0.818917389923,-0.573766543955,-0.0121247029226,0.0,-0.00644747173463,0.0119275718239,-0.999908077344,0.0,0.276932119288,-0.244147210966,0.304864443171,1.0,-0.0999068571429,-0.131306155102,2.549
-0.594695136036,-0.526053107091,-0.131939696394,-2.64549854612,-0.0713021279469,2.10942575227,-0.845568740167,-0.456770822746,0.0517039413136,0.0336351761738,0.0302012011003,0.0208647818329,0.00873786806473,-0.437120561245,0.573999620764,0.818820953961,0.00611781160812,0.0,0.818818704209,-0.5739075007,-0.0121184644278,0.0,-0.0064119180828,0.0119656029343,-0.999907851581,0.0,0.275233053431,-0.246364084093,0.304870770997,1.0,-0.0905714285715,-0.119036734694,2.566
-0.60099519173,-0.525344226466,-0.131324548222,-2.64500939168,-0.0709278706108,2.10956024236,-0.851742491801,-0.398582373486,0.0525937110038,0.0437670056435,0.0309874262809,0.029512286943,0.0122082220722,-0.405351506566,0.573855350061,0.818921939284,0.0061352641615,0.0,0.818919703363,-0.573762784305,-0.0121463447909,0.0,-0.00642684572037,0.0119947645855,-0.999907406352,0.0,0.27395695902,-0.248042706835,0.3048606458,1.0,-0.0823342857144,-0.10821077551,2.581
-0.608044056716,-0.524593109828,-0.130642124945,-2.64444081812,-0.0705384670888,2.10970067871,-0.858435142511,-0.381650630521,0.0354096106009,0.0359367583303,0.0299808253801,0.020710992882,0.0123716509458,-0.354904488907,0.573862033005,0.818917294474,0.00613015403716,0.0,0.81891511667,-0.573769721509,-0.0121278716221,0.0,-0.00641455054174,0.0119800315263,-0.99990766193,0.0,0.272517906975,-0.249921998734,0.304873075715,1.0,-0.0724497142858,-0.0952196244899,2.599
-0.614295170893,-0.523853718393,-0.129939880195,-2.64387711544,-0.0701181262856,2.10986610746,-0.864312675732,-0.331133984722,0.0399956121774,0.0382703577133,0.0344063614247,0.0189255526162,0.00510536721342,-0.307349510916,0.573881406704,0.818903712317,0.00613089675847,0.0,0.818901843444,-0.5737896478,-0.012081298868,0.0,-0.00637569815279,0.0119540655994,-0.999908221183,0.0,0.271276967031,-0.251571283106,0.304889953022,1.0,-0.0625651428572,-0.0822284734695,2.617
-0.618887039999,-0.523255187787,-0.129417712682,-2.64344829763,-0.0697492886997,2.10998440794,-0.868597740281,-0.295631449502,0.0368837561677,0.0383697412231,0.0259140714062,0.0220827973069,-0.000306030189049,-0.274574100665,0.573948193395,0.818856559111,0.00617687627518,0.0,0.818855222468,-0.573856093077,-0.0120853620848,0.0,-0.00635166221484,0.0119945700642,-0.999907889096,0.0,0.270312119121,-0.252848063957,0.304888845512,1.0,-0.053778857143,-0.0706807836736,2.633
-0.623603066695,-0.522651269435,-0.128693276666,-2.6430119723,-0.0693304420249,2.11011959598,-0.873014552793,-0.242814947067,0.028633227788,0.03873460706,0.0248358385407,0.0187583536818,0.00477592145455,-0.227614365223,0.57387872305,0.818905324427,0.00616666494389,0.0,0.818903945204,-0.573786853097,-0.0120715634653,0.0,-0.00634723852766,0.0119777502868,-0.999908118809,0.0,0.269472687762,-0.25396001382,0.304894648198,1.0,-0.0444434285715,-0.0584113632654,2.65
-0.627354788765,-0.522214584643,-0.127949173407,-2.6426992288,-0.0689355647986,2.11020582299,-0.876469984294,-0.208911776378,0.0214512175582,0.0376423745312,0.011099224325,0.0203012244051,-4.44117492742e-05,-0.194756007506,0.573779911392,0.818974825257,0.00613153977117,0.0,0.81897303885,-0.573688310204,-0.0120677782996,0.0,-0.00636573649406,0.011946044521,-0.999908380513,0.0,0.26878790265,-0.254847161996,0.304902137909,1.0,-0.0351080000001,-0.0461419428573,2.667
-0.630116447114,-0.521887299724,-0.127358839859,-2.64244408189,-0.0686089019216,2.11026196293,-0.878905385867,-0.176058117838,0.0176776392506,0.0388760445555,0.019378858887,0.0219918326574,0.00335472297891,-0.146011722178,0.573794200072,0.818964938812,0.00611488849484,0.0,0.818963067311,-0.573702914942,-0.0120501729396,0.0,-0.00636066225258,0.0119224167241,-0.999908694809,0.0,0.268268033307,-0.255531782269,0.304918058991,1.0,-0.0263217142858,-0.0345942530614,2.683
-0.632737231959,-0.521536899298,-0.126734720451,-2.64220625227,-0.0682068080499,2.11039269309,-0.881190270584,-0.129965709738,0.0194193865342,0.0292613222512,0.0143462004014,0.0266659576318,0.00249297521492,-0.106474294862,0.573799309772,0.818961224268,0.0061328746493,0.0,0.818959898579,-0.573708533208,-0.0119979308523,0.0,-0.00630747905864,0.0119072120933,-0.999909212883,0.0,0.267865531075,-0.256086531684,0.304922915226,1.0,-0.0198709677419,-0.0261161290323,2.7
-0.634724250457,-0.521288192701,-0.126366388817,-2.64204630494,-0.0679322529943,2.11038951642,-0.8829024125,-0.112673861864,0.0106700400011,0.0252782489014,0.0105904919262,0.0143746559821,0.00147147153445,-0.100621510215,0.573889279972,0.818897768128,0.00618761581483,0.0,0.818896693964,-0.573797377032,-0.012063234554,0.0,-0.00632823996623,0.0119902099753,-0.999908089898,0.0,0.267490329549,-0.25654478096,0.304912928289,1.0,-0.0195309677419,-0.0256692718894,2.717
-0.636320708132,-0.521066336425,-0.126084712011,-2.6418741057,-0.0677697362391,2.11039578699,-0.884349664606,-0.0956907027505,0.0128212309473,0.0136863452381,0.0127371744528,0.00891074190622,0.00107000052424,-0.092129333218,0.573890355905,0.818897038011,0.00618445123478,0.0,0.818895757796,-0.57379815475,-0.012089763044,0.0,-0.0063517667315,0.0120028503886,-0.99990778907,0.0,0.267191225227,-0.256933588558,0.304916997082,1.0,-0.0192109677419,-0.0252487004608,2.733
-0.637931705508,-0.520771774104,-0.125867325366,-2.64164622273,-0.0676463795542,2.11049231431,-0.885948714238,-0.0850004545894,0.0149574260218,0.00794193878902,0.014460022273,0.00676147357083,0.00531155454,-0.0951094360168,0.573810743348,0.818952953562,0.00616746078128,0.0,0.818951740698,-0.573719179097,-0.0120456151796,0.0,-0.00632652339742,0.0119629864674,-0.999908426835,0.0,0.266896288067,-0.257369515885,0.304925751023,1.0,-0.0188509677419,-0.0247755576037,2.751
-0.63940476451,-0.520517087146,-0.125721654732,-2.64148076454,-0.0676084146516,2.1105419945,-0.887435570259,-0.0827236767497,0.0133737687665,0.00847567157743,0.00594240305678,0.000584345380069,-0.000670836928401,-0.0879937733309,0.573721339395,0.819015910085,0.00612459398836,0.0,0.819013976174,-0.573629673912,-0.0120768762668,0.0,-0.00637802775103,0.0119451196829,-0.999908313236,0.0,0.266592170534,-0.257771153084,0.304915009274,1.0,-0.0185109677419,-0.0243287004608,2.768
-0.640769501573,-0.520330105936,-0.125647632611,-2.64132828725,-0.0675747216756,2.11053955998,-0.888743719375,-0.0818641465045,0.0111811335134,0.00167451078089,0.00735290536503,0.00124748882558,-0.000429099213123,-0.0838713633069,0.573737610873,0.819004569394,0.00611686871258,0.0,0.819002360885,-0.57364565054,-0.0121056756106,0.0,-0.00640581184054,0.011955441499,-0.999908012266,0.0,0.266289805692,-0.258150367978,0.30491709762,1.0,-0.0181909677419,-0.0239081290323,2.784
-0.642134677403,-0.520114927983,-0.125603005263,-2.64114299161,-0.0675347511685,2.11058277637,-0.890192112846,-0.0816649660787,0.0131661047774,-0.00122510123422,0.0129655132476,0.00519397615518,0.00122180191235,-0.085602798683,0.57366451505,0.819055729102,0.00612239313867,0.0,0.819053723369,-0.573572790428,-0.0120830135541,0.0,-0.00638514629353,0.0119463950121,-0.999908252568,0.0,0.265995239348,-0.258549401474,0.304926915146,1.0,-0.0178509677419,-0.0234612718894,2.801
-0.64347327049,-0.519905424998,-0.125580025261,-2.64096612618,-0.0675011000767,2.11067535159,-0.891469535135,-0.0823638617896,0.0168170901036,0.00186416208481,0.00752836386411,0.00152808189893,0.0121333448621,-0.0726395452245,0.573721867244,0.8190155224,0.00612699070976,0.0,0.819014008993,-0.573630922388,-0.0120151926574,0.0,-0.00632611975613,0.0119116993281,-0.999909041677,0.0,0.265707761277,-0.258951258329,0.304938669893,1.0,-0.0175109677419,-0.0230144147465,2.818
-0.644845871274,-0.519720337719,-0.125587416091,-2.64079600324,-0.067475230574,2.11069053615,-0.892852748999,-0.0797062913641,0.0101975836784,0.000835854140188,0.0096491559249,0.000384477120763,0.000116476168316,-0.0805853107788,0.573738254088,0.819003873592,0.00614961290169,0.0,0.819002689016,-0.5736472746,-0.012006107997,0.0,-0.00630546167504,0.0119251425394,-0.999909011925,0.0,0.265390286002,-0.259357174287,0.304949002551,1.0,-0.0171709677419,-0.0225675576037,2.835
-0.646186920524,-0.519526164879,-0.125584593486,-2.64062118302,-0.0674436340526,2.11071506232,-0.894124118533,-0.0740888748288,0.0147706082668,-0.000895237817313,0.00956490844243,0.00452288974219,0.000264389237731,-0.0732439137413,0.573815852445,0.818949360031,0.00616928590389,0.0,0.818948504478,-0.573724911487,-0.0119924915472,0.0,-0.00628189121449,0.011934038992,-0.999909054142,0.0,0.265085484049,-0.259753879897,0.304959158342,1.0,-0.0168309677419,-0.0221207004608,2.852
-0.647468650569,-0.519324379404,-0.125569390319,-2.6404469813,-0.0674207699808,2.11077451912,-0.895404628549,-0.0795941286006,0.0142775508192,0.000953162379984,0.0116239756884,0.000626816973964,0.00634449091821,-0.0775921364597,0.573830773933,0.818938852758,0.0061761827023,0.0,0.818938398219,-0.573740393875,-0.011941828143,0.0,-0.00623622160962,0.0119107309733,-0.999909617929,0.0,0.264785113307,-0.260160612122,0.304971982352,1.0,-0.0164709677419,-0.0216475576037,2.87
-0.648570307116,-0.519156381931,-0.125532440103,-2.64030509676,-0.0674024439778,2.11081510396,-0.896512709978,-0.0688234106828,0.0136103320189,0.00257437830305,0.00924800525598,-0.000747177902589,0.00337920757948,-0.0749547335745,0.573808594575,0.818954488394,0.00616357302135,0.0,0.818953936882,-0.573718399239,-0.0119329183784,0.0,-0.00623648188982,0.0118951225329,-0.999909802109,0.0,0.264560887801,-0.260458149416,0.304976462833,1.0,-0.0161909677419,-0.0212795576037,2.884
-0.649751380048,-0.518949521593,-0.125482518074,-2.64013621051,-0.0673749591827,2.11084101853,-0.897701599844,-0.075155829626,0.00707385409662,0.00417925030882,0.00880149181604,0.00251815599951,0.00525598030148,-0.0705011949692,0.573787337615,0.81896943482,0.0061565351024,0.0,0.818968764194,-0.573697123207,-0.0119382159753,0.0,-0.00624516775175,0.0118922360673,-0.999909782231,0.0,0.264304673636,-0.26080021034,0.304980448225,1.0,-0.0158509677419,-0.0208327004608,2.901
-0.650915895166,-0.518721837551,-0.125412260045,-2.63997791738,-0.067340222136,2.11088625175,-0.898936253542,-0.0681888525187,0.0143842815423,0.0045278213243,0.0114235741372,-0.00081822144375,0.000821389856143,-0.0732743865289,0.573689478268,0.819038100037,0.00614167020582,0.0,0.819037086068,-0.57359906113,-0.0119630939786,0.0,-0.00627549432171,0.0118935858004,-0.999909576306,0.0,0.264043746531,-0.261149645422,0.304971349716,1.0,-0.0154909677419,-0.0203595576037,2.919
-0.652004154087,-0.518526219988,-0.125371920464,-2.63983376467,-0.0673245802645,2.11091321037,-0.900063912327,-0.0659247619493,0.0138325581589,0.000197349045307,0.00885676928085,0.000819301513313,-0.000463745023004,-0.0633159416325,0.573655620239,0.819061826123,0.00614013496359,0.0,0.819060679283,-0.573565002871,-0.0119807359918,0.0,-0.00629131809906,0.0119021888045,-0.999909374503,0.0,0.263801318002,-0.261466665207,0.304968081988,1.0,-0.0151709677419,-0.0199389861751,2.935
-0.653217619267,-0.51830887605,-0.125360190338,-2.63967411678,-0.0672959509206,2.11095287494,-0.901270010306,-0.0650185789338,0.0153849227445,0.0010031549996,0.00932717882251,0.00495240823066,0.0054496884624,-0.064971863394,0.57367503748,0.819048152837,0.0061499273651,0.0,0.819047103084,-0.57358431747,-0.0119841805414,0.0,-0.0062882401136,0.0119123347632,-0.999909273043,0.0,0.263542030365,-0.26180393852,0.304966941196,1.0,-0.0148309677419,-0.0194921290323,2.952
-0.654342053552,-0.518112607654,-0.125366294691,-2.63951728454,-0.0672718628908,2.11099822801,-0.902411863466,-0.0655546496735,0.0161784546658,1.83543300746e-05,0.0133602857877,0.000978450985643,0.000384089841115,-0.0706057682832,0.573683563982,0.819042056482,0.00616644402198,0.0,0.819041287173,-0.573592897204,-0.0119710101752,0.0,-0.00626785297561,0.0119183734964,-0.999909329086,0.0,0.263286923055,-0.262142459705,0.304969628512,1.0,-0.0144909677419,-0.0190452718894,2.969
-0.655402822608,-0.517930601742,-0.125370502901,-2.63938532399,-0.0672549466763,2.11103159579,-0.903405432693,-0.0639094259698,0.0159417995714,-0.000521813895656,0.0111962913902,0.000762963345181,0.00170301002466,-0.0548282693338,0.573755776245,0.818991379327,0.00617873078743,0.0,0.818990697799,-0.573664905338,-0.0119816611538,0.0,-0.00626847687034,0.0119351001228,-0.999909125662,0.0,0.263040624048,-0.262456441597,0.304965277271,1.0,-0.0141709677419,-0.0186247004608,2.985
-0.656561241661,-0.517745337562,-0.125360179009,-2.63922077715,-0.067231097908,2.11105574708,-0.904492289942,-0.063049596173,0.0133456376858,0.000625931414218,0.00702339896961,-0.000341661385281,0.00046579557085,-0.0592485894428,0.573825727637,0.818942306464,0.00618707410741,0.0,0.818941795063,-0.573734924108,-0.0119716356094,0.0,-0.00625445880239,0.0119367159091,-0.999909194156,0.0,0.262778021182,-0.26279905504,0.304974081787,1.0,-0.0138109677419,-0.0181515576037,3.003
-0.657525036371,-0.517567346271,-0.12535296102,-2.63906339909,-0.0672115746087,2.11109446148,-0.905523405763,-0.060766162005,0.0128073159947,0.00281560832813,0.0142915241711,0.000843532250528,0.00648674099657,-0.0624875526484,0.573781916686,0.818972968148,0.00619164173608,0.0,0.818972656124,-0.573691370784,-0.0119476570933,0.0,-0.00623283675856,0.0119263644847,-0.999909452689,0.0,0.262565933605,-0.263091758709,0.304983466169,1.0,-0.0134909677419,-0.0177309861751,3.019
-0.658462344141,-0.517377442482,-0.125340280577,-2.63891881986,-0.0671925905893,2.1111511569,-0.906492839843,-0.0549177803239,0.0158314178269,0.000851020582949,0.00805101376104,9.27288044331e-05,0.00255585332511,-0.0626325646387,0.573762270585,0.818986724395,0.00619265841386,0.0,0.818986526574,-0.573671917992,-0.011930913585,0.0,-0.00621882533793,0.011917441321,-0.99990964632,0.0,0.262361308851,-0.263375251269,0.304984297381,1.0,-0.0131709677419,-0.0173104147465,3.035
-0.659471334281,-0.517181058439,-0.125293911408,-2.63877951871,-0.06717158011,2.11118943273,-0.907482350869,-0.0625059249633,0.00984689406691,0.00404366929607,0.0095576874125,0.00555077158992,0.000862781328474,-0.0560806537231,0.573761631973,0.818987249704,0.00618234586696,0.0,0.818986843607,-0.573671180361,-0.0119446106492,0.0,-0.0062359702352,0.0119168486633,-0.999909546606,0.0,0.262140872403,-0.26366578165,0.304979555238,1.0,-0.0128309677419,-0.0168635576037,3.052
-0.66050492252,-0.516979508169,-0.12526444717,-2.63863497291,-0.0671583746911,2.11120498233,-0.908516347796,-0.0556947374835,0.0117853893017,0.000594329292232,0.00739762058359,0.00267210177934,0.000448121922064,-0.0624027031628,0.573753654984,0.818992881608,0.00617658234813,0.0,0.818992178405,-0.573662805547,-0.0119809909573,0.0,-0.00626919145151,0.0119329397306,-0.999909146967,0.0,0.261906702567,-0.26396506308,0.30497293516,1.0,-0.0124709677419,-0.0163904147465,3.07
-0.661384261276,-0.516819916834,-0.125234865966,-2.6384995006,-0.067141375293,2.11124570807,-0.909419975215,-0.0542469235886,0.00687848623605,0.00112152808001,0.0104872221827,0.00494689896819,0.00426434857442,-0.057755515909,0.573727007029,0.819011608856,0.00616870044334,0.0,0.81901094101,-0.57363645884,-0.0119598702223,0.0,-0.00625680153734,0.0119141630866,-0.999909448476,0.0,0.261716141731,-0.26422531648,0.304979809423,1.0,-0.0121509677419,-0.015969843318,3.086
-0.66228122612,-0.516631727819,-0.12521957284,-2.63835889397,-0.0671285212809,2.11129741828,-0.910312377676,-0.0522675032702,0.0117244801423,-0.000471642148691,0.0143821514969,-0.000297414712033,0.00434130219124,-0.0584646647655,0.573732728615,0.819007640071,0.00616348292021,0.0,0.819006963004,-0.573642312619,-0.0119515113816,0.0,-0.0062528649228,0.0119051378748,-0.999909580598,0.0,0.261519378836,-0.264495956217,0.304979056974,1.0,-0.0118109677419,-0.0155229861751,3.103
-0.66322147662,-0.516457444514,-0.12519764051,-2.63822045007,-0.0671110396906,2.11133123908,-0.911237784237,-0.0507286312907,0.0110614933973,0.00020690701781,0.00876923308289,0.00189836257274,-0.000194695777264,-0.0567636200088,0.573743972107,0.81899978118,0.00616115238134,0.0,0.818999095526,-0.57365360478,-0.0119486463978,0.0,-0.00625169187651,0.0119016712174,-0.999909629202,0.0,0.261309796505,-0.264772997332,0.304981074253,1.0,-0.0114509677419,-0.015049843318,3.121
-0.664038272847,-0.516300863788,-0.12518550722,-2.63809939774,-0.0670962992234,2.11135272581,-0.912078017739,-0.0482383906861,0.0111644758412,-0.000940519750384,0.00891753525937,0.00297886148283,0.00314462839749,-0.0485720677919,0.573728771822,0.819010409907,0.00616374472654,0.0,0.819009694683,-0.573638276459,-0.0119580390246,0.0,-0.00625811902991,0.011909067016,-0.999909500939,0.0,0.261124754423,-0.265014061936,0.304980427551,1.0,-0.0111309677419,-0.0146292718894,3.137
-0.6648479867,-0.516137504936,-0.12517159048,-2.63797885001,-0.0670840803695,2.11138875791,-0.912871805311,-0.0489004983961,0.00935397121165,0.000984200872293,0.0103680741108,-4.90687744984e-05,0.000359429963836,-0.0511626717497,0.573743462418,0.819000136438,0.00616139184496,0.0,0.818999377063,-0.573652947998,-0.0119608747013,0.0,-0.00626157797141,0.0119088790304,-0.999909481524,0.0,0.260943548366,-0.265254845843,0.304978324574,1.0,-0.0108109677419,-0.0142087004608,3.153
-0.665734986084,-0.51597197568,-0.125173723821,-2.63786564168,-0.0670660858569,2.11141374212,-0.913723505792,-0.05005496034,0.0057813386661,0.00111388454333,0.00961984104012,2.16208754659e-05,0.000804905423061,-0.0446118305276,0.57378756527,0.818969134424,0.00617524927043,0.0,0.818968408569,-0.573696704168,-0.0119826663782,0.0,-0.006270834491,0.0119330687827,-0.999909135124,0.0,0.260735134548,-0.265515025484,0.304970760865,1.0,-0.0104509677419,-0.0137355576037,3.171
-0.666507005135,-0.515819955008,-0.125170758825,-2.63776946963,-0.0670441592438,2.11143668702,-0.914467984355,-0.044928811926,0.00663181278113,0.00264478497736,0.00863923343014,0.0018218013199,-0.000210752953579,-0.0489680365517,0.573822520015,0.818944524617,0.00619096322158,0.0,0.818943817964,-0.573731232041,-0.0120101331902,0.0,-0.00628380484214,0.0119619662554,-0.999908708413,0.0,0.26055465263,-0.265739101467,0.304960384609,1.0,-0.0101309677419,-0.0133149861751,3.187
-0.66728340344,-0.515665539404,-0.125165013132,-2.63765159326,-0.0670249944091,2.11146748358,-0.915257083692,-0.042949538263,0.00512427849919,7.9659595039e-05,0.00332392719737,-0.000120069607695,0.00322539516095,-0.0416280169433,0.573822367084,0.818944570114,0.00619911409421,0.0,0.818943956031,-0.573731018481,-0.0120109206763,0.0,-0.00627977513209,0.0119690923956,-0.999908648453,0.0,0.260379246398,-0.265970610991,0.304959710784,1.0,-0.00979096774194,-0.0128681290323,3.204
-0.668026693251,-0.515507350665,-0.125146219055,-2.63754252689,-0.0670049286736,2.11150241796,-0.915980730076,-0.0447686809582,0.0110342473214,0.00243236769393,0.00390337535672,2.1283441436e-05,0.00419579772188,-0.0374387479489,0.573839422486,0.818932597921,0.00620194847682,0.0,0.818931958147,-0.573747938802,-0.0120207132256,0.0,-0.00628591977899,0.0119771635432,-0.999908513198,0.0,0.260214022357,-0.266188720819,0.304954295769,1.0,-0.00945096774194,-0.0124212718894,3.221
-0.668703482887,-0.515372161415,-0.125106766323,-2.63744122311,-0.0669866396963,2.11153646813,-0.916621910814,-0.0459874954201,0.00621256307338,0.00345598075831,0.00207311720103,-3.68034275305e-05,0.00686131730237,-0.0379689311362,0.573853641282,0.818922707969,0.00619222585954,0.0,0.818921974492,-0.573762258925,-0.0120173553037,0.0,-0.00628854072486,0.0119673833362,-0.99990861382,0.0,0.260069406698,-0.266383410971,0.304954248532,1.0,-0.00913096774194,-0.0120007004608,3.237
-0.669398898483,-0.515215857663,-0.12506206292,-2.63734254027,-0.0669621865242,2.11156174194,-0.917306188621,-0.0368517016523,0.0147914424713,0.00270333688948,0.000754314716273,0.00267450952217,-8.76486736224e-08,-0.036276558542,0.573846704249,0.818927597453,0.00618846129658,0.0,0.818926640265,-0.57375500765,-0.0120455785331,0.0,-0.00631391759199,0.0119804420207,-0.999908297522,0.0,0.259919003234,-0.266578811642,0.304944586974,1.0,-0.00879096774194,-0.011553843318,3.254
-0.670056321195,-0.515093533025,-0.12502154752,-2.63723676136,-0.0669412141915,2.11158787062,-0.918000682157,-0.0386458267491,0.00624462269891,0.00141083592101,0.00655783233409,0.00353038824647,-0.000128633761707,-0.0446055531161,0.573801932575,0.818959027085,0.0061806981365,0.0,0.818958055975,-0.573710444465,-0.0120322635404,0.0,-0.00630812121853,0.0119660989876,-0.999908505855,0.0,0.259779813544,-0.266768074546,0.304950661154,1.0,-0.00845096774194,-0.0111069861751,3.271
-0.670657146211,-0.514990078414,-0.124997685471,-2.63715926289,-0.0669177446263,2.11160657195,-0.9186344621,-0.0359868968294,0.00603737819646,2.0086100751e-05,0.00777762600079,0.000821221804704,0.000343848081491,-0.0357764692035,0.573772046632,0.818979917558,0.00618708674796,0.0,0.818979002789,-0.573680486397,-0.0120349249961,0.0,-0.00630707237687,0.0119726281913,-0.999908434314,0.0,0.259645011105,-0.266937778041,0.304949829474,1.0,-0.00813096774194,-0.0106864147466,3.287
-0.67132156247,-0.514859653984,-0.124976676119,-2.63706273967,-0.0668923322483,2.11163433451,-0.919281666726,-0.0382934411833,0.00764262731233,0.00131843309543,0.00643572092005,0.00278241877432,0.00166481517445,-0.0285234426423,0.573787097077,0.818969321579,0.00619390357535,0.0,0.818968480693,-0.573695475906,-0.0120364221379,0.0,-0.00630416738788,0.0119791861548,-0.999908374089,0.0,0.259497738163,-0.267130143091,0.304948381975,1.0,-0.00777096774194,-0.0102132718894,3.305
-0.671917792161,-0.514742596894,-0.124962845038,-2.63699797999,-0.0668652877791,2.1116615568,-0.919855014571,-0.0334494868022,0.00838536447311,0.00209079692119,0.00220966844523,0.0023049598287,-0.000110311173286,-0.0319727710375,0.573811067799,0.818952409651,0.00620935581241,0.0,0.818951630627,-0.57371910936,-0.0120564152594,0.0,-0.00631132575463,0.0120034976861,-0.999908037377,0.0,0.259360178578,-0.26729797133,0.304937225197,1.0,-0.00743096774194,-0.00976641474655,3.322
-0.672429159606,-0.514662178619,-0.124952183602,-2.636939439,-0.0668496716378,2.11167316408,-0.920349970932,-0.029917945625,0.00162453245875,0.000513716042432,0.00461837522065,0.000567010064254,0.0016670657562,-0.0290161812943,0.57382666152,0.818941427607,0.00621671771596,0.0,0.818940696613,-0.573734576441,-0.0120630895016,0.0,-0.00631233936425,0.0120134768099,-0.999907911133,0.0,0.259240439324,-0.267442311685,0.304935360684,1.0,-0.00713096774194,-0.00937212903226,3.337
-0.673006447602,-0.514563168409,-0.124941424868,-2.636865358,-0.0668244695188,2.11168680919,-0.920931616339,-0.0273518313008,0.00859584976064,-0.000320550129749,0.0056810800717,0.00370948452339,-0.000138815030518,-0.0355372035553,0.573830071368,0.818938926698,0.00623140701563,0.0,0.818938332882,-0.573737817769,-0.01206939515,0.0,-0.00630902511554,0.0120291515516,-0.999907743602,0.0,0.259107272355,-0.267606746367,0.304933866453,1.0,-0.00677096774194,-0.00889898617512,3.355
-0.673526682295,-0.51445268026,-0.124900464068,-2.63678297385,-0.066803340074,2.11170672451,-0.921449188796,-0.0241774648499,0.00892014944007,0.0037886531125,0.0106213104428,0.000238528038957,-0.000285460393267,-0.0304146666571,0.573816446069,0.818948518543,0.00622551989625,0.0,0.818947819817,-0.57372416761,-0.0120745525026,0.0,-0.00631682728213,0.0120271843117,-0.999907718007,0.0,0.258998264971,-0.267753137612,0.304933141843,1.0,-0.00643096774194,-0.00845212903226,3.372
-0.673991567297,-0.514374474937,-0.124866405688,-2.63671588566,-0.0667831562802,2.11172265789,-0.921932745215,-0.0316951993662,0.00918870363879,0.00534789073308,0.00016774438509,0.00063754042192,0.000111036312856,-0.0340720860033,0.573788995938,0.818967770999,0.00622295001691,0.0,0.818967088542,-0.573696829435,-0.0120665936188,0.0,-0.00631218611424,0.0120203013225,-0.999907830084,0.0,0.258899036012,-0.267882713536,0.304936891071,1.0,-0.00611096774194,-0.00803155760369,3.388
-0.674479215863,-0.514281195553,-0.124841785054,-2.63663110734,-0.0667563353898,2.11174597835,-0.922417566007,-0.0253963432684,0.00834886416038,0.00111523498895,0.00373344913983,0.00156557708941,0.000353262328661,-0.0285454320612,0.57378957251,0.818967332139,0.00622754107357,0.0,0.818966822677,-0.573697601567,-0.0120479131645,0.0,-0.00629424310827,0.0120133477646,-0.99990802676,0.0,0.258796903622,-0.268024950727,0.304943515841,1.0,-0.00575096774194,-0.00755841474655,3.406
-0.674875307125,-0.514204768687,-0.124819145361,-2.63657363724,-0.0667360660452,2.11177255252,-0.922797723211,-0.0195141882791,0.00708895171725,0.000542566679018,0.00188926903461,0.000344480316275,0.00395219238122,-0.0195506759899,0.573798157044,0.818961302853,0.00622947059375,0.0,0.818960883789,-0.573706300497,-0.0120373790944,0.0,-0.0062843821315,0.0120089498925,-0.999908141613,0.0,0.258712964773,-0.268138140454,0.304944188731,1.0,-0.00543096774194,-0.00713784331798,3.422
-0.675271229112,-0.514131708669,-0.124808700759,-2.63652695243,-0.0667155534521,2.11178846388,-0.923205249246,-0.02212180155,0.00944885446514,-0.000951903000362,0.00311020237967,0.000444195192096,0.000616562184118,-0.0279489764343,0.573792463782,0.818965203861,0.00624101536818,0.0,0.818964880853,-0.573700454326,-0.0120440664335,0.0,-0.00628331894324,0.0120221984248,-0.999907989091,0.0,0.258622316054,-0.268249543003,0.304940009602,1.0,-0.00509096774194,-0.00669098617512,3.439
-0.675672838983,-0.514070805467,-0.124784277209,-2.63647587476,-0.0666987824391,2.11180111156,-0.923579835392,-0.0233293384523,-0.0011849319375,0.00191774659785,0.00109832921608,-2.93787471936e-05,-5.92807868607e-07,-0.0258689841294,0.573807009401,0.818955012157,0.00624106770083,0.0,0.818954725695,-0.573715065222,-0.0120386086847,0.0,-0.00627860524133,0.012019221341,-0.99990805449,0.0,0.258533638944,-0.268360654545,0.304942364139,1.0,-0.00475096774194,-0.00624412903227,3.456
-0.676050393249,-0.514011531078,-0.124755178534,-2.63643188257,-0.0666827987283,2.11180941952,-0.923941796282,-0.0235905819684,0.0045157328144,-0.000459256681604,0.00230883993843,-0.000298235210071,0.000917257633537,-0.0225092746843,0.573808203461,0.818954185756,0.00623972546917,0.0,0.818953855028,-0.573716213619,-0.012043108702,0.0,-0.00628304357887,0.0120207132316,-0.999908008677,0.0,0.258450135811,-0.268462137993,0.304941840075,1.0,-0.00441096774194,-0.00579727188941,3.473
-0.676384364189,-0.513937559657,-0.124729704292,-2.63638050092,-0.0666685770697,2.11182201217,-0.924257261496,-0.0183078122076,0.0053927137164,-0.00124654724427,0.00361513936779,0.0013840002271,0.000816841559618,-0.0128335333875,0.573814011811,0.818950135203,0.00623721102741,0.0,0.818949724361,-0.573721941139,-0.0120511462442,0.0,-0.00629098414907,0.012023310311,-0.999907927525,0.0,0.258379310736,-0.268555586427,0.30493951838,1.0,-0.00409096774194,-0.00537670046084,3.489
-0.676700787966,-0.513896677823,-0.124716121879,-2.63633928062,-0.0666554649366,2.11183554171,-0.924583788799,-0.0199750281713,0.00243268085198,-0.000510153257391,0.00364637034583,3.34029738443e-05,-0.000410572719587,-0.0240895991621,0.573803747506,0.818957311867,0.00623919777325,0.0,0.818957025807,-0.573711859559,-0.0120349068756,0.0,-0.00627669407254,0.0120155408543,-0.999908110723,0.0,0.258308985668,-0.268645188742,0.304944610728,1.0,-0.00375096774194,-0.00492984331798,3.506
-0.676992817676,-0.5138355358,-0.12469477384,-2.63630011196,-0.0666405296295,2.1118510456,-0.924876446152,-0.0174316291249,0.00255513427024,0.000102300611308,0.00465269032529,0.000405985736259,0.000162787904258,-0.0127987121804,0.573796501171,0.81896238355,0.006239909883,0.0,0.818962078312,-0.573704557221,-0.0120391948308,0.0,-0.00627990386574,0.012018528831,-0.999908054659,0.0,0.258246507826,-0.268726020826,0.30494163331,1.0,-0.00341096774194,-0.00448298617512,3.523
-0.677240771492,-0.513794581482,-0.124672699491,-2.63627645194,-0.066632804148,2.1118585327,-0.925119914031,-0.00964345640566,0.00224869945493,0.00191543570655,0.000576130787691,-0.000275122929063,-0.000227885643112,-0.006557091479,0.573789046351,0.818967635812,0.00623607896653,0.0,0.818967230299,-0.573697024373,-0.0120476895241,0.0,-0.00628916894568,0.0120202080282,-0.999907976242,0.0,0.258191096007,-0.268791135978,0.304938401872,1.0,-0.00309096774194,-0.00406241474655,3.539
-0.677511983697,-0.51375230867,-0.124658917726,-2.63624339126,-0.0666194028945,2.11187045055,-0.92536971592,-0.0104024210615,0.00399386948571,-0.000400999304217,0.000923442521065,1.20352697555e-05,0.0045448681584,-0.0134865451479,0.57380420601,0.818956992019,0.0062390135243,0.0,0.818956653557,-0.573712223079,-0.0120429060686,0.0,-0.00628334478416,0.0120199832141,-0.99990801556,0.0,0.258130819956,-0.268866546476,0.304939139272,1.0,-0.00273096774194,-0.00358927188941,3.557
-0.677747511617,-0.513731570889,-0.124641584895,-2.63622293506,-0.0666064847407,2.11187803376,-0.925586589812,-0.0122408751009,0.000234348613773,-0.00153517399021,0.000164756201988,1.09762675595e-05,0.000662415594539,-0.0190413662258,0.573813699373,0.818950327013,0.00624076905608,0.0,0.818950068569,-0.573721816146,-0.0120336931183,0.0,-0.00627465236392,0.012016207561,-0.999908115525,0.0,0.258077866507,-0.268928460929,0.304941825158,1.0,-0.00239096774194,-0.00314241474655,3.574
