nelsonifechukwu/NELSON_IML_WORK/CNN-GradCAM/train2dof/data_sample_2022-02-21-15-42-36/robot_state.csv
position_joint1,position_joint2,position_joint3,position_joint4,position_joint5,position_joint6,position_joint7,velocity_joint1,velocity_joint2,velocity_joint3,velocity_joint4,velocity_joint5,velocity_joint6,velocity_joint7,ee_T_00,ee_T_10,ee_T_20,ee_T_30,ee_T_01,ee_T_11,ee_T_21,ee_T_31,ee_T_02,ee_T_12,ee_T_22,ee_T_32,ee_T_03,ee_T_13,ee_T_23,ee_T_33,v_x,v_y,time
0.465082130829,0.547862291672,-0.123913721696,-1.35585502306,0.0795076171737,1.89409872383,0.159171745688,-0.000535069629209,0.00210024707609,-0.000466774887372,0.00116957802018,-0.000291475651932,0.000508970086431,-0.00112790507177,0.573760199695,0.819009439312,0.00187575729119,0.0,0.818964833206,-0.573701470071,-0.0119988379379,0.0,-0.00875120530431,0.00842079703493,-0.999926250572,0.0,0.66164968768,0.260936757422,0.303143822857,1.0,0.0,0.0,0.0
0.465085032078,0.547854193916,-0.123914600639,-1.35585760612,0.0795057452233,1.89409791287,0.159169447046,0.000396295428176,-0.00102745491158,-0.000393056329857,0.0010543424065,0.000157349012913,-0.000103876135277,-3.45227737778e-05,0.573756180383,0.819012247888,0.00187887797047,0.0,0.818967700656,-0.573697455327,-0.0119950795724,0.0,-0.00874637796851,0.00842115354343,-0.999926289806,0.0,0.661648699183,0.260937610905,0.303148285186,1.0,-0.0003,-0.000394285714286,0.016
0.465084211184,0.547846674635,-0.123909246351,-1.35586404231,0.0795077592737,1.89409897402,0.159177827259,-4.33625798402e-05,-0.00297636579355,0.00190973122054,-0.000425703258968,0.00016348173785,0.000578742265982,-0.000396016685306,0.573760854086,0.819008963355,0.0018833914964,0.0,0.818964424244,-0.573702060176,-0.0119985362832,0.0,-0.00874657158007,0.00842688330171,-0.999926239841,0.0,0.661646505901,0.260939900232,0.303150467474,1.0,-0.00064,-0.000841142857143,0.033
0.465078630575,0.547813487367,-0.123916845362,-1.35589600101,0.0795034398427,1.89410145545,0.159170407699,0.000702778242904,1.62704040364e-05,0.000280091376816,-0.00222001393547,-0.000121197548423,-5.64191424532e-05,0.00169182053822,0.573765215857,0.819005905988,0.00188412601424,0.0,0.818961425882,-0.573706465879,-0.0119925321602,0.0,-0.00874118768501,0.0084240865205,-0.999926310487,0.0,0.661643997735,0.26092792231,0.303159226366,1.0,-0.00098,-0.001288,0.05
0.465080985335,0.547720140472,-0.123914261581,-1.35601336062,0.0795041473711,1.89412208205,0.15916987611,-0.000163858261874,-0.00576200027737,-0.000711738547531,-0.0111984729225,-0.000423530524817,0.000835900531264,-0.000909471073078,0.573767616606,0.819004216549,0.00188740826516,0.0,0.818959663636,-0.573708740787,-0.0120040402939,0.0,-0.00874870543691,0.00843340319622,-0.999926166206,0.0,0.661622426648,0.260919786474,0.303171204945,1.0,-0.0013,-0.00170857142857,0.066
0.465074592828,0.547570056358,-0.123911834996,-1.35621173348,0.0795059050829,1.89416115509,0.159170293142,-0.000643419076193,-0.00703990062587,-0.000432610829007,-0.0120880926716,0.000336099576024,0.000959536282802,-0.000374284808046,0.573782793135,0.81899357956,0.00188940267926,0.0,0.818948867799,-0.573723728636,-0.0120242268466,0.0,-0.00876393816947,0.00844678127704,-0.999925919893,0.0,0.66158971503,0.260898322821,0.303186424264,1.0,-0.00166,-0.00218171428571,0.084
0.465053167574,0.547413093768,-0.123912151045,-1.35641542426,0.0794993595375,1.89427034265,0.159158115511,-0.00018687828561,-0.0123596083396,0.000588557957603,-0.0118926759481,0.000233027913925,0.0102279495958,0.000552235269178,0.57380045431,0.818981076342,0.00194476947237,0.0,0.818937086241,-0.573741149136,-0.0119953936715,0.0,-0.00870837381154,0.00847576936829,-0.999926160053,0.0,0.661574970312,0.260868216545,0.303210143467,1.0,-0.00198,-0.00260228571429,0.1
0.46503437804,0.547219072734,-0.123913992352,-1.35663656386,0.0794964806504,1.89439770839,0.159146449119,-0.000963175417517,-0.0122499427636,-0.00060779114064,-0.0159859409664,-0.000156798225343,0.00783709541511,0.00106359798512,0.573819420744,0.818967568985,0.00203475546317,0.0,0.818924736032,-0.573759718412,-0.0119502779786,0.0,-0.00861959533718,0.00852377727711,-0.999926521199,0.0,0.661560283218,0.260839222633,0.303253437249,1.0,-0.00232,-0.00304914285714,0.117
0.465009062279,0.547000515018,-0.123911864592,-1.35691373536,0.0794907814927,1.8945207569,0.159126085991,0.000199953764696,-0.0140665290365,-0.000651910439154,-0.0133910435314,-0.00297107488636,0.00670351757359,0.000237801267281,0.573836061935,0.818955753821,0.00209623634388,0.0,0.818913644951,-0.573776026976,-0.0119272747094,0.0,-0.00856530499832,0.00856110172164,-0.999926668855,0.0,0.661533463,0.260801121002,0.303286921877,1.0,-0.00266,-0.003496,0.134
0.464973997206,0.546779770238,-0.123909706217,-1.35726389159,0.079487396263,1.89465560184,0.159059485223,-0.00253819380401,-0.0195822898929,0.000197301964299,-0.0212335263054,0.000612109339188,0.0128347959851,-0.00659363242094,0.573827471556,0.81896173518,0.00211094770246,0.0,0.818919649833,-0.573767209036,-0.0119391730604,0.0,-0.00856669825002,0.00857988723248,-0.999926495907,0.0,0.661494689896,0.260749117713,0.303288235704,1.0,-0.00298,-0.00391657142857,0.15
0.464930340237,0.546494170574,-0.123912522743,-1.35767680228,0.0794738403177,1.8948102919,0.158956283344,-0.00593392929341,-0.0196824334527,0.000179393190888,-0.0276336004586,-0.000978544004976,0.0122609179581,-0.00199493938134,0.573800156824,0.818980795939,0.002140750618,0.0,0.81893900995,-0.573739686233,-0.0119338729771,0.0,-0.00854554372977,0.00860096797274,-0.999926495815,0.0,0.661451118381,0.260681658748,0.30330746569,1.0,-0.00332,-0.00436342857143,0.167
0.464885835847,0.546197550188,-0.123912446757,-1.35819282739,0.0794555764268,1.89498607806,0.158938741044,-0.00300853808734,-0.0223171266562,0.00354544918276,-0.0334577118677,-0.000224003041401,0.0110055601594,-0.00776310644002,0.573846154935,0.818948647449,0.00210955173205,0.0,0.818906312536,-0.573785664221,-0.0119670265483,0.0,-0.00859011505026,0.00859492287964,-0.999926165886,0.0,0.661388150409,0.260603877265,0.303287132356,1.0,-0.00368,-0.00483657142857,0.185
0.464844057236,0.54591257746,-0.123917986495,-1.3586808874,0.0794284704419,1.89514712941,0.15887740431,-0.00261370176911,-0.0193873757535,-0.000134152408939,-0.0359882536148,-0.00285849405012,0.00932400792145,-0.00856798405476,0.573854012221,0.818943233907,0.0020734505406,0.0,0.818900399292,-0.573793642126,-0.011989128274,0.0,-0.00862884887502,0.00857812399412,-0.999925976638,0.0,0.661329387009,0.26052538368,0.303270732733,1.0,-0.00398,-0.00523085714286,0.2
0.46478475466,0.5455585506,-0.123915604908,-1.35929587372,0.0793343086999,1.89535259508,0.158759050927,-0.00460001423799,-0.0224250942688,0.00175248480815,-0.0360269759549,-0.0108455846272,0.00919330397555,-0.0028214093686,0.573813332831,0.818971928246,0.00199667494109,0.0,0.818928556918,-0.573753749303,-0.0119750042557,0.0,-0.00866175935821,0.00850671501142,-0.999926302147,0.0,0.661254061209,0.260410660251,0.303250097798,1.0,-0.00434,-0.005704,0.218
0.464713066815,0.545159184389,-0.123912937915,-1.35998890503,0.0793140951208,1.89557479265,0.158726138413,-0.00604045764596,-0.0234693287423,-3.9785385819e-05,-0.0413591982624,-0.000163706074547,0.00853289458476,-0.00300510450521,0.573868281392,0.818933540883,0.00194887949031,0.0,0.818889276721,-0.573808631244,-0.012031379085,0.0,-0.00873478417462,0.0085005070156,-0.999925719704,0.0,0.661167450799,0.260303378278,0.303221108704,1.0,-0.00468,-0.00615085714286,0.235
0.464654836468,0.544728308255,-0.123921080586,-1.36070682084,0.0792909122103,1.89581747159,0.158616222416,-0.00342607605478,-0.0256526276059,-0.000237114354258,-0.0395017025005,-0.000471688782018,0.0145030740513,-0.0103092058292,0.573873416993,0.818930016214,0.00191747595209,0.0,0.818885154899,-0.57381372084,-0.0120691243746,0.0,-0.00878366332181,0.00849650582105,-0.999925325536,0.0,0.661086348175,0.260196748532,0.303202885042,1.0,-0.005,-0.00657142857143,0.251
0.464586941936,0.544268758777,-0.123922210288,-1.36147535579,0.0792598079889,1.89610169476,0.158506534568,-0.00150386269125,-0.023345028904,-0.000154375922307,-0.0530548947698,-0.00201144612217,0.0146252960524,-0.00408358315061,0.573874606595,0.818929215419,0.00190340236365,0.0,0.818884022244,-0.573814829077,-0.0120932603949,0.0,-0.00881149339363,0.00849884446416,-0.999925060806,0.0,0.660998007034,0.26008027249,0.303186992499,1.0,-0.00534,-0.00701828571429,0.268
0.464509171993,0.543758999697,-0.123920007889,-1.36230435668,0.0792215834421,1.89639257668,0.158417533503,-0.00266045260932,-0.0319128648747,-0.00100331723807,-0.0458660068125,-0.00158564163128,0.0183351471899,-0.00244391663048,0.5738997904,0.818911607732,0.00188578938959,0.0,0.818866031744,-0.573839940739,-0.0121198749833,0.0,-0.00884313529429,0.00849996623744,-0.999924771936,0.0,0.660900493784,0.259951987867,0.303178254246,1.0,-0.00568,-0.00746514285714,0.285
0.464442518732,0.543246186994,-0.123929354526,-1.36311316305,0.0791750245606,1.89666978368,0.158307836389,-0.00550825406813,-0.031256789847,-0.000981240805204,-0.0499125386191,-0.00166132795895,0.00836179766658,-0.0112549272712,0.573903547603,0.8189090126,0.00186923314474,0.0,0.81886320667,-0.57384375834,-0.0121299908747,0.0,-0.0088608816765,0.00849225454453,-0.999924680358,0.0,0.660805092922,0.259824529107,0.303180404515,1.0,-0.006,-0.00788571428571,0.301
0.464361472049,0.542631047814,-0.123923233586,-1.3640749718,0.0791144851257,1.89701426847,0.158181287543,-0.00146953541823,-0.0322990761983,0.000395643639478,-0.0540880877641,-0.00562124275746,0.0142781528711,-0.00554741248001,0.573899250649,0.818912027722,0.00186758049373,0.0,0.818866165776,-0.573839436349,-0.0121346915623,0.0,-0.00886572422787,0.00849355239984,-0.99992462641,0.0,0.660691399743,0.259682016901,0.303187356271,1.0,-0.00636,-0.00835885714286,0.319
0.464281110234,0.542025121713,-0.123933429133,-1.3649990203,0.0790648840425,1.89736824795,0.158056906123,-0.00320598133481,-0.0399362298776,0.00428381997486,-0.0525993296545,-0.000491903572825,0.0195816093317,-0.0120654939952,0.573908508552,0.81890546832,0.00189859651591,0.0,0.818860019457,-0.573848562111,-0.01211788761,0.0,-0.00883406763078,0.00850940741746,-0.999924771788,0.0,0.660590867349,0.25953728739,0.303207057673,1.0,-0.0067,-0.00880571428571,0.336
0.46420467894,0.541427970226,-0.123928607874,-1.36592144361,0.079010305211,1.89770594715,0.157935037049,-0.00348038485422,-0.0350841738649,0.000412242879081,-0.0586191273931,-0.00224365105352,0.0269790193361,-0.00707113086079,0.573904496817,0.818908251062,0.00191096219735,0.0,0.818862915786,-0.573844449695,-0.0121169140689,0.0,-0.00882621578995,0.00851893156443,-0.999924760029,0.0,0.660482891398,0.259402031676,0.303219332173,1.0,-0.00702,-0.00922628571429,0.352
0.464117214855,0.540723010059,-0.123928806301,-1.36697829187,0.0789491717331,1.89810343005,0.15780370123,-0.00261500978069,-0.0430702207372,0.000394902346591,-0.0609969378798,-0.00185726065147,0.0295541138056,-0.0189299219331,0.573910956731,0.818903628799,0.00195125243991,0.0,0.818858802227,-0.573850713789,-0.0120982312897,0.0,-0.00878772709076,0.00854127217599,-0.999924908442,0.0,0.6603628674,0.259245046934,0.303249092196,1.0,-0.00736,-0.00967314285714,0.369
0.464012583411,0.539950903601,-0.123928911641,-1.36815304625,0.0788767463928,1.89853774523,0.15766348079,-0.00746511853491,-0.0426370522645,-2.0672453737e-05,-0.070116382981,-0.00926596989046,0.0255189883704,-0.00632837951234,0.573927519451,0.818891958348,0.00197733941078,0.0,0.8188474808,-0.573867168299,-0.0120840074866,0.0,-0.00876093506214,0.00855464854054,-0.999925029192,0.0,0.660229559383,0.259064348725,0.303273252184,1.0,-0.00772,-0.0101462857143,0.387
0.463924214777,0.539293659414,-0.123931699932,-1.3691697029,0.0788248900215,1.89892910383,0.157533327144,-0.00594699426113,-0.0432980008467,-0.000196796940874,-0.067546880131,-0.00345540903667,0.0288267094819,-0.00249329629351,0.573937707395,0.818884742719,0.00200825151534,0.0,0.818840610397,-0.573877163306,-0.0120748954833,0.0,-0.00873562618628,0.00857484081966,-0.999925077663,0.0,0.660116248577,0.258910507617,0.303287772063,1.0,-0.00802,-0.0105405714286,0.402
0.463814541777,0.538527443878,-0.123929254768,-1.37036932457,0.0787558262991,1.89939321709,0.15738363799,-0.00360168915096,-0.0530304620637,0.000316528683685,-0.0701000834321,-0.00433495528768,0.0299119167484,-0.0111390246149,0.573951132484,0.818875266104,0.00203543220715,0.0,0.818831464889,-0.573890445833,-0.0120637966877,0.0,-0.00871079733587,0.00859087110771,-0.999925156671,0.0,0.659983050996,0.258727515653,0.303298206211,1.0,-0.00836,-0.0109874285714,0.419
0.463700246128,0.537701594361,-0.123940611454,-1.37167659846,0.0786773743543,1.89989538002,0.157224661693,-0.00208485376837,-0.0486084582384,-0.00215832502841,-0.074350529465,-0.000379231098279,0.0278669657883,-0.0053626819524,0.573973751506,0.818859378342,0.00204889827746,0.0,0.81881581944,-0.573913069851,-0.0120494393823,0.0,-0.00869107427182,0.00859389770696,-0.999925302285,0.0,0.659838686679,0.258522546501,0.303303127806,1.0,-0.00872,-0.0114605714286,0.437
0.463598899317,0.536974949624,-0.123945941082,-1.37282245842,0.0786112959915,1.90031423055,0.157073818505,-0.00212886584895,-0.0506815033773,-0.00136177574521,-0.0772976044923,-0.00425855122769,0.0245343544223,-0.00629569785435,0.573982340442,0.818853358509,0.00204866312597,0.0,0.818809773999,-0.573921636423,-0.0120522259255,0.0,-0.00869340095781,0.00859539572346,-0.999925269184,0.0,0.659706810449,0.258343842183,0.303307271223,1.0,-0.00902,-0.0118548571429,0.452
0.463474036202,0.53607090073,-0.123943770803,-1.3742359607,0.0785341724494,1.90083753457,0.15690533515,-0.00136059018828,-0.050051074863,-0.00011534050269,-0.083338830695,-0.00422818624196,0.0267965741961,-0.00947634450536,0.57400215617,0.8188394275,0.00206484496839,0.0,0.81879595521,-0.573941282295,-0.012055501216,0.0,-0.00868658718878,0.00861073618332,-0.999925196415,0.0,0.659543055426,0.258129852235,0.303317934333,1.0,-0.00938,-0.012328,0.47
0.463356486895,0.535172677271,-0.123950156848,-1.37564535975,0.078454265074,1.90134849839,0.156737492382,-0.00636087889361,-0.0551471436242,-0.000558300396052,-0.0829542958757,-0.0034775743966,0.0260769044287,-0.0135503794262,0.574021341749,0.81882597603,0.00206569513687,0.0,0.818782468501,-0.573960415863,-0.012060563797,0.0,-0.00869004299298,0.00861454183295,-0.999925133608,0.0,0.659377508564,0.257914864452,0.303325461119,1.0,-0.00972,-0.0127748571429,0.487
0.463233237158,0.534277899398,-0.123952664813,-1.37711863759,0.0783742104182,1.9018911838,0.156558636807,-0.00406801459463,-0.0554637764549,-0.000948476750954,-0.0874742614456,0.000237612999927,0.0354409691413,-0.00702199618167,0.574036917782,0.818815126753,0.00203767642154,0.0,0.818771153894,-0.573976012377,-0.0120864249554,0.0,-0.00872713821933,0.00860661050725,-0.999924878835,0.0,0.659203577025,0.25769287943,0.30330262547,1.0,-0.01006,-0.0132217142857,0.504
0.463093711672,0.533352854786,-0.123950908822,-1.37860785151,0.0782816685912,1.9024456048,0.156365045071,-0.00949044322058,-0.0539215898319,-0.000112101035626,-0.0885763208804,-0.00667379045127,0.0213428589762,-0.0104625804365,0.574048091652,0.818807319588,0.00202700800886,0.0,0.818763203738,-0.573987227545,-0.0120923828142,0.0,-0.00873802308632,0.00860141445323,-0.999924828486,0.0,0.659032606945,0.257459956542,0.303294219432,1.0,-0.0104,-0.0136685714286,0.521
0.462969837464,0.532405526585,-0.123950488279,-1.38015920061,0.0782067677516,1.90302454195,0.156172954769,-0.00614723590905,-0.0608978151335,0.00112582183087,-0.0871942705647,-0.00543455464653,0.0330277287476,-0.0169484933424,0.574056697345,0.818801318069,0.00201411605357,0.0,0.818756837487,-0.573995695516,-0.0121214478837,0.0,-0.008769132392,0.00860763535314,-0.999924502615,0.0,0.658847539874,0.257234012856,0.303273977365,1.0,-0.01074,-0.0141154285714,0.538
0.462860355015,0.531539294023,-0.123956568318,-1.38155055174,0.078124136179,1.90352890741,0.155994906335,-0.0102694874643,-0.0566389814371,-0.00138225856554,-0.0943804754308,-0.00577404638074,0.0354682035915,-0.00825442734723,0.574058445431,0.818800138948,0.00199514124153,0.0,0.818755387669,-0.57399750468,-0.0121337004101,0.0,-0.00879003872315,0.00859915139575,-0.999924392049,0.0,0.658680589238,0.25702543076,0.303266239069,1.0,-0.01104,-0.0145097142857,0.553
0.462731433629,0.530518189489,-0.123953725155,-1.38319894607,0.0780178619605,1.90411058803,0.155797569634,-0.00739542151056,-0.0588510938033,0.00151576426124,-0.0951009204243,-0.000661732061107,0.0332971658905,-0.000116067736865,0.574061356855,0.818798199416,0.00195297197688,0.0,0.818752870303,-0.574000577159,-0.0121581944421,0.0,-0.00883427076251,0.00857871617689,-0.99992417777,0.0,0.658477020334,0.256782211458,0.303251505119,1.0,-0.01138,-0.0149565714286,0.57
0.462584610038,0.529470026702,-0.123957010395,-1.38483966727,0.0779164091357,1.90471993455,0.15555771933,-0.011905932642,-0.0582689426646,-0.000651488103578,-0.0931687231222,-0.00278984592381,0.0364830221188,-0.0151341710558,0.574049302068,0.818806622163,0.00196499304114,0.0,0.818761466582,-0.573988486202,-0.0121501214068,0.0,-0.00882088631631,0.00858379456246,-0.999924252349,0.0,0.658286752785,0.256527580618,0.30326183611,1.0,-0.01172,-0.0154034285714,0.587
0.462465166928,0.52841886399,-0.123952681195,-1.38644018268,0.0778092349038,1.90532722489,0.155338369217,-0.00674480375944,-0.0693191225067,0.00119380522543,-0.100516026062,-0.00419304591874,0.031826535753,-0.0126173558895,0.57402232445,0.818825427049,0.00200946583088,0.0,0.818780932722,-0.573961393554,-0.0121181608031,0.0,-0.00876947122556,0.00860157274648,-0.999924551814,0.0,0.658096664805,0.256299181818,0.30329270957,1.0,-0.01204,-0.015824,0.603
0.462313172097,0.527223393256,-0.123957323996,-1.38828616928,0.0777095428398,1.9060433074,0.155075661267,-0.0106707861329,-0.0711911948643,-0.000132070373465,-0.104160746212,0.000595913799678,0.0422860522314,-0.0144484547497,0.574008173781,0.818835197193,0.00206958248438,0.0,0.818791429585,-0.573946924728,-0.0120941860074,0.0,-0.0087154824819,0.00863688431126,-0.999924719464,0.0,0.657884084204,0.256025482294,0.303317836692,1.0,-0.0124,-0.0162971428571,0.621
0.462159435883,0.526060310518,-0.123962997596,-1.39010274946,0.0775911523242,1.90671281543,0.15483511024,-0.0112236221675,-0.0675759927689,-0.00254957959918,-0.11428763729,-0.00816551841041,0.040767509694,-0.0193349519093,0.57400713207,0.818835908789,0.00207694778721,0.0,0.818792312306,-0.573945925637,-0.0120818315922,0.0,-0.00870114935552,0.0086358126498,-0.999924853546,0.0,0.657669357861,0.255746994408,0.303329815242,1.0,-0.01274,-0.016744,0.638
0.462022503076,0.525014444852,-0.123965918756,-1.3917238454,0.0774865712338,1.90729674565,0.154619034117,-0.00832386856732,-0.0681952427024,0.000303568157149,-0.105937245398,-0.0032129638705,0.0417153501344,-0.0216043135257,0.573994900917,0.818844484699,0.00207617456686,0.0,0.818800881971,-0.5739337032,-0.0120816768812,0.0,-0.00870159545514,0.00863496074058,-0.999924857022,0.0,0.657459446322,0.255485853559,0.303340798713,1.0,-0.01306,-0.0171645714286,0.654
0.461858365837,0.523837078511,-0.12396404056,-1.39361377512,0.0773707624125,1.9079843178,0.154358096011,-0.0111525809427,-0.0716869439449,0.00108353368835,-0.110648653839,-0.0059173256512,0.041903253183,-0.0168166673362,0.573992940097,0.81884590364,0.00205857051685,0.0,0.818802040621,-0.573931788649,-0.012094095852,0.0,-0.00872188971121,0.0086276534849,-0.999924743286,0.0,0.657245837055,0.255211557988,0.303332477591,1.0,-0.01338,-0.0175851428571,0.67
0.461678073891,0.522472114222,-0.123972931565,-1.39578282861,0.0772324478297,1.90881436863,0.154069085969,-0.00961539594408,-0.0694462836913,-0.00185739346574,-0.111279625336,-0.0068267350106,0.0432447087419,-0.0122563098679,0.573989280745,0.818848433518,0.00207253856265,0.0,0.818804862394,-0.573928177869,-0.0120743889467,0.0,-0.00869777365299,0.00862774059032,-0.999924952597,0.0,0.656992336273,0.254882322084,0.303331724168,1.0,-0.01376,-0.0180845714286,0.689
0.461524269692,0.521291218058,-0.123970768992,-1.39765462131,0.0771199304352,1.90954117629,0.153803820621,-0.00706917298376,-0.0788457662856,0.000165850149091,-0.116137283007,-0.00817614030945,0.0415539276819,-0.0125805332465,0.57397342229,0.818859489947,0.0020959796412,0.0,0.818816210352,-0.57391220639,-0.0120639928124,0.0,-0.00867597374003,0.00864079970996,-0.99992502922,0.0,0.656786988889,0.254624450811,0.303326047198,1.0,-0.01406,-0.0184788571429,0.704
0.461352768211,0.520004934987,-0.123983133778,-1.39969427806,0.0769888173174,1.91028320053,0.153530677302,-0.0102443568823,-0.0817239089553,-0.00211313970348,-0.12273279558,-0.00971418015678,0.039613667241,-0.0147246175933,0.573965120226,0.818865336896,0.00208511285665,0.0,0.818821998098,-0.573904034144,-0.0120599305689,0.0,-0.00867897152525,0.00862948191869,-0.999925100943,0.0,0.656526093621,0.254291143999,0.303330726005,1.0,-0.01442,-0.018952,0.722
0.461191841739,0.518734828132,-0.123984190169,-1.40166421545,0.076869394246,1.91098060047,0.153271257559,-0.0116104441604,-0.0847042310784,0.000679407410421,-0.123787281515,-0.00684617139613,0.0420091708442,-0.0129465213355,0.57395713051,0.818870902603,0.00209859644032,0.0,0.818827671257,-0.573895919525,-0.0120608970397,0.0,-0.00867210867628,0.00864099305834,-0.999925061077,0.0,0.656269882303,0.253975156152,0.303353945591,1.0,-0.01476,-0.0193988571429,0.739
0.461005846053,0.517398143059,-0.123988798713,-1.40378993316,0.0767206687507,1.91173879415,0.152987978091,-0.0129414649925,-0.0813197586698,-0.000782595772979,-0.127183048625,-0.0100000436467,0.0519519623248,-0.0194976514052,0.573953219302,0.81887377636,0.00204630027588,0.0,0.818829970291,-0.573892340679,-0.0120750968466,0.0,-0.00871379186713,0.00860627840012,-0.999924998089,0.0,0.656020355546,0.253663823526,0.3033372775,1.0,-0.01508,-0.0198194285714,0.755
0.460819504818,0.516032544847,-0.123991787931,-1.40593467759,0.0765958980258,1.91254973325,0.15268368698,-0.0171564941047,-0.0848911766259,-0.000834210576073,-0.131350862601,-0.00789614383092,0.0483294307214,-0.0182155408272,0.573938582147,0.81888396401,0.00207468353739,0.0,0.818840479936,-0.573877535078,-0.0120660702961,0.0,-0.00869026451407,0.00862418418355,-0.999925048566,0.0,0.655764449251,0.253338093684,0.303344716599,1.0,-0.01542,-0.0202662857143,0.772
0.460621058984,0.514570955637,-0.123991964696,-1.4082873671,0.076456409439,1.91341013959,0.152366296594,-0.0106496377677,-0.083612074881,-0.00353835400755,-0.131308577257,-0.0102675893887,0.0443795667388,-0.0168286954559,0.573927621513,0.818891709446,0.00204947942575,0.0,0.818847795788,-0.573866585118,-0.0120903564886,0.0,-0.00872473291156,0.00861736716404,-0.999924807182,0.0,0.655473942122,0.252983723699,0.303324282284,1.0,-0.01578,-0.0207394285714,0.79
0.460453357378,0.513349981274,-0.123992330441,-1.41029300497,0.0763373137277,1.91410049069,0.152079388531,-0.0101051835438,-0.0764765201749,0.000351380598821,-0.139843080469,-0.00476327543097,0.0439826808148,-0.018484302462,0.573903222569,0.81890900088,0.00197137117184,0.0,0.818863904183,-0.573842373085,-0.0121484229186,0.0,-0.00881736632472,0.00858646907265,-0.999924260432,0.0,0.655215923517,0.252679288115,0.303285256584,1.0,-0.01608,-0.0211337142857,0.805
0.46025461381,0.511889788984,-0.123995614106,-1.41257168935,0.0761962920717,1.91492020167,0.151764620018,-0.00722704635086,-0.0863264525957,0.00120566547553,-0.138527461856,-0.00429477372108,0.05225446006,-0.0108993374098,0.573891604761,0.818917142758,0.00197134041678,0.0,0.818872003358,-0.573830715703,-0.0121531367773,0.0,-0.00882136620159,0.00858902400971,-0.99992420321,0.0,0.654933983599,0.252328832386,0.303294683138,1.0,-0.01642,-0.0215805714286,0.822
0.460055290136,0.510429331949,-0.124003110446,-1.41490097329,0.0760528873339,1.91582057757,0.151433574102,-0.0125651130342,-0.0803081221501,-0.00046629246036,-0.135580669616,-0.00308354896942,0.0578981967463,-0.0147070930518,0.573872262345,0.818930644953,0.00199303011209,0.0,0.818885847591,-0.57381133657,-0.0121353013995,0.0,-0.00879451625101,0.0085963425272,-0.99992437683,0.0,0.654656423453,0.251974615545,0.303286911343,1.0,-0.01676,-0.0220274285714,0.839
0.45985357584,0.508920764652,-0.124002003741,-1.41727635966,0.0759004980705,1.9166832747,0.151097668125,-0.00809373305494,-0.0913494947268,0.00068361396861,-0.141593440327,-0.00931556690779,0.0585782025438,-0.0169976231778,0.57384383035,0.818950585276,0.00198598769073,0.0,0.818905683564,-0.573782927355,-0.0121400413491,0.0,-0.00880273761718,0.00859298987746,-0.999924333305,0.0,0.654359765939,0.251615174326,0.303286789034,1.0,-0.0171,-0.0224742857143,0.856
0.459628173048,0.507304973253,-0.124009934752,-1.41979876052,0.0757380797697,1.91758807851,0.150754007512,-0.00931640729973,-0.0974541982739,-0.000826077862472,-0.141834553368,-0.00696719665157,0.0624695569578,-0.0225229227311,0.573839266245,0.818953800149,0.00197904988009,0.0,0.818908830093,-0.573778416389,-0.0121409959378,0.0,-0.0088075482273,0.00858780696432,-0.99992433547,0.0,0.654046694498,0.251220264262,0.30329506864,1.0,-0.01746,-0.0229474285714,0.874
0.459407886293,0.505726155753,-0.124011801994,-1.4222401404,0.0755900784414,1.91851314642,0.150430384999,-0.0149009863983,-0.0959349418359,0.00108303346139,-0.145648660297,-0.0051492951734,0.0621328858941,-0.018439093645,0.573842289397,0.818951553244,0.00203156101139,0.0,0.818907261977,-0.573781200438,-0.0121151643032,0.0,-0.00875622969259,0.00861601957062,-0.999924543477,0.0,0.653751620279,0.250845075889,0.30331703818,1.0,-0.0178,-0.0233942857143,0.891
0.45920497095,0.504178458611,-0.124017979426,-1.42457807578,0.0754484828604,1.9194038632,0.150089656763,-0.0159995510137,-0.0983407132775,0.000382201696161,-0.14143375919,-0.00820833482761,0.0543052737735,-0.0180245465711,0.573816108373,0.818969682341,0.00211661994793,0.0,0.818926528665,-0.573754681036,-0.0120687008127,0.0,-0.00866964638534,0.00865873786748,-0.999924928927,0.0,0.653468967668,0.25048936614,0.30336303074,1.0,-0.01812,-0.0238148571429,0.907
0.45898554112,0.502603837159,-0.124026495837,-1.42691372289,0.0752991634372,1.92028914438,0.149767899936,-0.0118494752568,-0.0986301648366,0.00129099948022,-0.144486835793,-0.000152605800735,0.052439248613,-0.0157100537875,0.573817858139,0.818968188605,0.00221779954445,0.0,0.81892646601,-0.573756115951,-0.0120045648905,0.0,-0.00855904549894,0.00870481605131,-0.999925481682,0.0,0.653190614736,0.250120612297,0.303427894915,1.0,-0.01844,-0.0242354285714,0.923
0.458758650072,0.50089110271,-0.124028692495,-1.42948651216,0.0751258877708,1.92118442188,0.149400070649,-0.0108094877088,-0.100440545585,0.00163839109392,-0.154538886128,-0.0138876595475,0.0511998673916,-0.0185397761083,0.57379554047,0.81898374063,0.0022488265456,0.0,0.818942411137,-0.573733661203,-0.0119900019243,0.0,-0.00852955335901,0.00872163698638,-0.999925587115,0.0,0.65284189681,0.249697132324,0.30347940509,1.0,-0.0188,-0.0247085714286,0.941
0.458524774665,0.499289805369,-0.124033959767,-1.4319445166,0.0749688811481,1.92208366254,0.149054233724,-0.017058548502,-0.0976528393715,9.31693942542e-05,-0.148981503483,-0.00935680591946,0.0513529129068,-0.0202230024686,0.573782734364,0.818992639041,0.00227548751206,0.0,0.818951721482,-0.573720813522,-0.0119688309228,0.0,-0.00849705347176,0.00873119105174,-0.999925780438,0.0,0.652558313986,0.249330947347,0.30350158391,1.0,-0.0191,-0.0251028571429,0.956
0.458272943813,0.497613262649,-0.124034200658,-1.43458935464,0.074816048623,1.92306954549,0.148659369815,-0.0170448617576,-0.0995531860243,0.00644795039169,-0.158172146112,-0.00167645065739,0.0544887885244,-0.0246276322607,0.573759009045,0.819009205866,0.00229502660017,0.0,0.818968414095,-0.57369687897,-0.0119739164869,0.0,-0.00849026169922,0.00874986521497,-0.999925674895,0.0,0.652231338445,0.248917119245,0.303497223474,1.0,-0.01944,-0.0255497142857,0.973
0.457990271899,0.495829999246,-0.12403716644,-1.43744472639,0.0746383684233,1.92405579026,0.148245515639,-0.0184208029865,-0.0970923526854,0.000109628137977,-0.158397644022,-0.00186027174025,0.0512343561876,-0.0246423528881,0.573749679203,0.819015942675,0.00222219714587,0.0,0.818974050215,-0.573687696342,-0.0120282601469,0.0,-0.00857665478871,0.00872130010964,-0.99992518716,0.0,0.651864572201,0.248454358981,0.303466502208,1.0,-0.0198,-0.0260228571429,0.991
0.457745791058,0.494360857821,-0.124037104954,-1.43987291267,0.0744879111834,1.92490657823,0.147905442045,-0.0206275077423,-0.101466609901,-0.00259331460264,-0.159780475611,-0.0117962524859,0.0591418884106,-0.0215678591109,0.573765318333,0.819005210914,0.00213796049154,0.0,0.818962096412,-0.57370356654,-0.0120850850784,0.0,-0.00867135904501,0.00868507850798,-0.999924685636,0.0,0.651535930976,0.248030373411,0.303414098156,1.0,-0.0217937142857,-0.0286431673469,1.007
0.457449736677,0.492216389966,-0.124096366337,-1.44319810699,0.0742851655019,1.92615861802,0.14743597224,-0.0137372168353,-0.128672629859,-0.00117002816682,-0.194288673318,-0.0160274816752,0.0722109661414,-0.0265257304063,0.573765764038,0.819004795977,0.00217694391981,0.0,0.818962396113,-0.573704053209,-0.0120415939814,0.0,-0.00861336750562,0.00869205692879,-0.99992512622,0.0,0.651149394805,0.247518768568,0.303428295427,1.0,-0.0269325714286,-0.0353970938776,1.024
0.457091430504,0.489818120321,-0.124102624779,-1.44709532888,0.0740646607264,1.92756188159,0.146866427907,-0.0218841634283,-0.146523272761,-0.000855746430024,-0.248222744975,-0.0155896127201,0.0858375005584,-0.0362835347481,0.573732566568,0.819028241097,0.00210457720301,0.0,0.818984566828,-0.573670839633,-0.0121158554682,0.0,-0.00871606103359,0.0086750441244,-0.999924384086,0.0,0.650645589255,0.246911227016,0.303363563933,1.0,-0.0320714285714,-0.0421510204082,1.041
0.456660981459,0.487095703277,-0.124129830564,-1.45137568625,0.0738105135524,1.92914242981,0.146245330673,-0.0314385207559,-0.173329858252,-0.00689257857093,-0.278074793894,-0.022326932273,0.0998232554989,-0.0458457065003,0.573740071144,0.819022936242,0.00212310471194,0.0,0.818979434341,-0.573678193332,-0.0121145995698,0.0,-0.00870432362084,0.00868957761638,-0.999924360135,0.0,0.650113720857,0.246210193162,0.303356150582,1.0,-0.036908,-0.0485076571429,1.057
0.456109695213,0.483559472781,-0.12418909331,-1.45683844981,0.0734730063537,1.93115087196,0.145400857208,-0.0378650773955,-0.201777521446,-0.000547087590705,-0.317130851911,-0.0151556502815,0.115893761252,-0.0481319811704,0.573720702376,0.819036349025,0.00218209599722,0.0,0.818993751842,-0.573658708536,-0.0120692777589,0.0,-0.00863356504222,0.00871168522758,-0.999924781219,0.0,0.649436770304,0.245298540388,0.303386868049,1.0,-0.0423491428571,-0.0556588734694,1.075
0.455510181927,0.479764418321,-0.124254056709,-1.4627880639,0.0731198943388,1.93322557838,0.144513271735,-0.0397635110684,-0.225468783816,0.00070426698249,-0.360558548633,-0.0240524935131,0.12065048975,-0.0554619325896,0.573726775653,0.819032271344,0.00211478069372,0.0,0.818988592153,-0.573664867377,-0.0121265313127,0.0,-0.00871901296637,0.00868946427205,-0.999924233141,0.0,0.648668491518,0.244300865839,0.303368385477,1.0,-0.047488,-0.0624128,1.092
0.454897988922,0.476015492079,-0.124318702513,-1.46850824241,0.0727725292408,1.93530606088,0.143706134115,-0.0461302912144,-0.256894335936,-0.00415682261073,-0.38508297923,-0.025013933428,0.146002612191,-0.0534293970722,0.573797203292,0.818982703431,0.00220178948107,0.0,0.818940221535,-0.573734972562,-0.012076494192,0.0,-0.00862736233727,0.00873276069102,-0.999924650916,0.0,0.647953414001,0.243323564066,0.303424009795,1.0,-0.0520222857143,-0.0683721469388,1.107
0.454079649744,0.471158184867,-0.124361847487,-1.47600866827,0.0723278101503,1.93799895433,0.142582920221,-0.0492930582749,-0.278104259388,-0.00139973022232,-0.428184139017,-0.0228675742477,0.149835092675,-0.0679586497617,0.573818570471,0.818967592093,0.00225348291397,0.0,0.818925479137,-0.573755806457,-0.0120864005593,0.0,-0.00860558714068,0.00878100472767,-0.999924416057,0.0,0.646992352731,0.242056306738,0.303447516028,1.0,-0.0574634285714,-0.0755233632653,1.125
0.453188374698,0.465776283456,-0.124404422018,-1.48410594254,0.0718052802603,1.94101561335,0.141269086091,-0.0511594402115,-0.306323715739,-0.00143381654572,-0.471903690701,-0.0281221060289,0.167078493188,-0.07954238853,0.573745462313,0.819018104669,0.00249711853873,0.0,0.818979413078,-0.573681965609,-0.0119360877374,0.0,-0.00834348072204,0.00889353608047,-0.999925642908,0.0,0.645972388108,0.240689351803,0.303570736062,1.0,-0.0629045714286,-0.0826745795918,1.143
0.45236635305,0.460981805904,-0.124431919813,-1.49154845698,0.0713238110962,1.94356654191,0.140157148138,-0.0570172136747,-0.327632170755,-0.0023656214641,-0.504473410984,-0.0356288023331,0.172415609929,-0.0680778781168,0.573744626954,0.819018944449,0.00241217259321,0.0,0.818978871984,-0.573681181307,-0.0120106768639,0.0,-0.0084533166169,0.00886675041856,-0.999924958272,0.0,0.644974225019,0.23942308003,0.30355406779,1.0,-0.0674388571429,-0.0886339265306,1.158
0.451355881461,0.455216846639,-0.124488018376,-1.50049366829,0.0707259301351,1.94665796967,0.138790925993,-0.0597455132161,-0.345415777718,-0.00198135412988,-0.534168905203,-0.0333532234621,0.182599709935,-0.078225231096,0.573743463627,0.819020029543,0.00231863203026,0.0,0.818978682555,-0.573680348128,-0.0120632745678,0.0,-0.00855007447805,0.0088203049569,-0.999924546377,0.0,0.643778057726,0.237873897462,0.303531411123,1.0,-0.0725777142857,-0.0953878530612,1.175
0.450200245625,0.448562479958,-0.124541096112,-1.5103523361,0.0700457446753,1.95038612498,0.1372187793,-0.0640309239663,-0.378786361585,-0.00406141538293,-0.560931903096,-0.0328625993572,0.209391139368,-0.0880814490093,0.573703776875,0.819046573203,0.00272657750793,0.0,0.819011278914,-0.573639867022,-0.011771783013,0.0,-0.00807772049939,0.00898678713046,-0.999926991379,0.0,0.642524752163,0.23616856907,0.303729809544,1.0,-0.0780188571429,-0.102539069388,1.193
0.449151663465,0.442791463431,-0.124564751328,-1.51921279228,0.0694699054748,1.95342568864,0.135871167755,-0.0704015190049,-0.389343880996,-0.00242039894558,-0.59733998723,-0.0460369594008,0.206322055754,-0.0972125284634,0.573715158181,0.819038730427,0.00268742186253,0.0,0.819002549218,-0.573650972126,-0.0118377977162,0.0,-0.0081541296408,0.00899270248286,-0.999926318021,0.0,0.641310788892,0.234629365997,0.303728916247,1.0,-0.0825531428571,-0.108498416327,1.208
0.447882023667,0.435914592074,-0.124594910634,-1.52986879165,0.0687299476949,1.95702916871,0.134141530707,-0.0774599977749,-0.418428827027,-0.00460803154895,-0.616161503659,-0.0415854026306,0.219964839652,-0.104923800815,0.573632233621,0.819097245299,0.00255150858675,0.0,0.819059039015,-0.573568299139,-0.0119349793197,0.0,-0.00831260428655,0.00893629706792,-0.999925518829,0.0,0.639743955048,0.232651731791,0.303688486202,1.0,-0.0879942857143,-0.115649632653,1.226
0.446414553981,0.428192039107,-0.124627702081,-1.54152738572,0.0679267955783,1.96120654002,0.132267380968,-0.0860783936852,-0.425506648818,-0.00156635828318,-0.66826040096,-0.0522822027722,0.228918668605,-0.108797250303,0.573598504884,0.819120382556,0.00270203215767,0.0,0.819084330698,-0.573534212664,-0.0118369341685,0.0,-0.00814632300023,0.00900301327878,-0.99992628887,0.0,0.638246167367,0.230696095513,0.303746495573,1.0,-0.0931331428571,-0.122403559184,1.243
0.444997031894,0.421047001683,-0.124702649466,-1.55251022958,0.0671281591589,1.96487271472,0.130419347394,-0.082883707418,-0.444350126709,-0.00171873976775,-0.695363688325,-0.0517622052162,0.226271014561,-0.116845131674,0.573543110875,0.819159757686,0.00251758948882,0.0,0.81912138767,-0.573479618813,-0.0119174648768,0.0,-0.00831868154075,0.00889756258052,-0.999925813707,0.0,0.636698571223,0.228679557708,0.303695987165,1.0,-0.0979697142857,-0.128760195918,1.259
0.44337777498,0.413023490859,-0.124818135766,-1.56448902085,0.066281945802,1.96915975849,0.128491570795,-0.0961288952401,-0.469626869618,-0.000362547356455,-0.725325592939,-0.046882050736,0.258529569082,-0.119793283573,0.573638574134,0.81909214756,0.00275444610257,0.0,0.819057452357,-0.573574837417,-0.0117278523919,0.0,-0.00802646536079,0.00898377109657,-0.999927431222,0.0,0.635072497819,0.226444054087,0.303807514035,1.0,-0.103108571429,-0.135514122449,1.276
0.441614415063,0.404744382274,-0.124870560814,-1.57714287687,0.0654299339995,1.97335450399,0.126392350015,-0.10135652803,-0.493277942306,-0.00794256554661,-0.745993162638,-0.0604156811314,0.242490930116,-0.121014670112,0.573679120066,0.819064222568,0.00261025094194,0.0,0.819026927427,-0.573615110062,-0.0118888418022,0.0,-0.00824060424374,0.00895841858977,-0.999925916845,0.0,0.633249022002,0.22408040776,0.303745931222,1.0,-0.108247428571,-0.14226804898,1.293
0.439849958782,0.396567486492,-0.12499246291,-1.58925632531,0.0645797129446,1.97756658297,0.124290634103,-0.109467213241,-0.523654678934,-0.00562321626335,-0.758230779962,-0.0584522543665,0.266777590111,-0.136115354566,0.57373704497,0.819022964464,0.00281670222955,0.0,0.818988631455,-0.573672572229,-0.0117536514012,0.0,-0.00801079983339,0.00905052657742,-0.99992695486,0.0,0.631555985756,0.221743999695,0.303857599442,1.0,-0.113084,-0.148624685714,1.309
0.437875766572,0.387660846256,-0.125048399889,-1.60271732567,0.0635428505967,1.98210086182,0.121992177335,-0.113721587208,-0.536290318414,-0.000188893966965,-0.794365305211,-0.0644605612749,0.263288995403,-0.138418352564,0.573738501975,0.819022200307,0.00274110507975,0.0,0.818987224067,-0.573674679407,-0.0117488690325,0.0,-0.00805023698028,0.0089858815648,-0.99992722116,0.0,0.629599192053,0.219169954088,0.303827901612,1.0,-0.118222857143,-0.155378612245,1.326
0.435795555301,0.378363105787,-0.125121507172,-1.61651178669,0.0625062881158,1.98670389811,0.119510946119,-0.11915290644,-0.555756791811,-0.0020765683742,-0.794143916076,-0.064129338601,0.276897527373,-0.146569482334,0.573688437743,0.819057090834,0.00279378881793,0.0,0.819022928641,-0.573624580858,-0.0117059598364,0.0,-0.00798541721334,0.00900392426393,-0.999927578607,0.0,0.627569617735,0.216500348454,0.303886330613,1.0,-0.123361714286,-0.162132538775,1.343
0.433675246963,0.369441330751,-0.125186072962,-1.62996725905,0.0614922606851,1.99115431619,0.117136994449,-0.136164450092,-0.56863954845,-0.00329672167309,-0.872309584196,-0.0638827199522,0.26415193548,-0.149392239482,0.573742461474,0.819019648319,0.00267403622348,0.0,0.818983867217,-0.573678954451,-0.0117740970151,0.0,-0.00810933462156,0.00894546415837,-0.999927106025,0.0,0.62543532227,0.213671460462,0.303822064109,1.0,-0.128500571429,-0.168886465306,1.36
0.431163006111,0.358972102771,-0.125327912743,-1.64538930558,0.0602717336119,1.99623937101,0.114343508637,-0.142613716959,-0.578611976806,-0.00251113837307,-0.868118709438,-0.068980047782,0.275774203709,-0.165492533792,0.57380206796,0.818977710227,0.00272834323637,0.0,0.818943218347,-0.573739008177,-0.0116748670405,0.0,-0.00799625288627,0.00893359304109,-0.999928122844,0.0,0.623257862119,0.210725520457,0.303882993811,1.0,-0.133639428571,-0.175640391837,1.377
0.428618801263,0.34888916786,-0.125414811108,-1.66052544237,0.0591780549975,2.0009931489,0.111521662484,-0.154029368746,-0.605926056506,-0.00568811683195,-0.893980481083,-0.0593623302843,0.27750509715,-0.165100551018,0.573846080129,0.81894763306,0.00248948332584,0.0,0.818908964436,-0.573782730843,-0.0119261332204,0.0,-0.00833861657552,0.00888259602946,-0.999925780726,0.0,0.620900755119,0.2076562789,0.303769062056,1.0,-0.138778285714,-0.182394318367,1.394
0.426120350074,0.338980955581,-0.125509125203,-1.67482800553,0.0580719820214,2.00574363852,0.108814932587,-0.154560914647,-0.608872759093,-0.00470325966262,-0.903936662707,-0.0713574472376,0.297531490263,-0.175751791085,0.573900094632,0.818908927374,0.00275625636349,0.0,0.818873995238,-0.573836026046,-0.0117618891316,0.0,-0.00805043180998,0.00900734936531,-0.99992702644,0.0,0.618721515341,0.204713683545,0.303906995603,1.0,-0.143614857143,-0.188750955102,1.41
0.423215325449,0.327612109203,-0.125524279511,-1.69146701182,0.0566940506816,2.01102129603,0.105558141199,-0.161321554288,-0.650767837616,0.000528623843341,-0.920503348969,-0.0780007292964,0.303966640929,-0.185999518378,0.573759977504,0.819007332264,0.00268790134274,0.0,0.818971473949,-0.573696133345,-0.0117990823293,0.0,-0.00812165270156,0.00897132846222,-0.999926774331,0.0,0.616214006478,0.201521277896,0.303895679762,1.0,-0.148753714286,-0.195504881633,1.427
0.42030788058,0.316581959584,-0.125534047723,-1.70753345968,0.0553806244505,2.01609256201,0.102452466604,-0.174813605555,-0.658480248165,-0.00116363343795,-0.952700915977,-0.0729455040358,0.30064174415,-0.184049546052,0.573691715108,0.819055104352,0.00270165744089,0.0,0.819019329103,-0.573627723415,-0.0118034056774,0.0,-0.00811805035921,0.00898439868943,-0.999926686232,0.0,0.613472758446,0.198036115177,0.303912307579,1.0,-0.154194857143,-0.202656097959,1.445
0.417625298801,0.306579542015,-0.125592563504,-1.72183650789,0.0541835591167,2.02061645072,0.0994749401823,-0.173897552819,-0.673772626446,0.000345494554536,-0.966632122596,-0.0854756416487,0.298647367433,-0.205065396492,0.573556511899,0.819149307332,0.00284373984516,0.0,0.819115631501,-0.573492314469,-0.0117001870416,0.0,-0.00795349029457,0.00904024427994,-0.99992750536,0.0,0.61115738148,0.195026986791,0.304006427419,1.0,-0.158729142857,-0.208615444898,1.46
0.414350124121,0.295137478144,-0.125645932185,-1.73853044556,0.0528113858986,2.02564426262,0.096095963647,-0.197121027481,-0.683115319288,-0.000795435075469,-0.973389623407,-0.0736513717756,0.288090014709,-0.192868955997,0.57356994747,0.819140592267,0.00263673322679,0.0,0.819103515102,-0.573505712375,-0.0118901775062,0.0,-0.00822770388579,0.00897977883064,-0.99992583148,0.0,0.608372621807,0.191444340683,0.303913446244,1.0,-0.163868,-0.215369371429,1.477
0.41090834033,0.283339737447,-0.125778929032,-1.75529117447,0.0514375653968,2.03084208082,0.0925477793401,-0.204620049932,-0.67647499111,-0.00259133786015,-1.00523079904,-0.0835082829654,0.293912836205,-0.215106884572,0.573621754056,0.819103743268,0.00280854767981,0.0,0.81906881297,-0.573556771936,-0.0118176091604,0.0,-0.00806914171468,0.00907940631631,-0.999926223945,0.0,0.605605552108,0.187745006321,0.303995431722,1.0,-0.169006857143,-0.222123297959,1.494
0.407300060726,0.271248896439,-0.125899777625,-1.77246782523,0.0499409906793,2.03598706422,0.0888206301017,-0.215449098936,-0.719113130369,-0.00413979269058,-1.02024155722,-0.0886421132281,0.313607811891,-0.221553689633,0.573596048511,0.819121755469,0.00280530768461,0.0,0.81908683843,-0.573531143921,-0.0118120686283,0.0,-0.00806674637503,0.00907332118172,-0.999926298507,0.0,0.602692073802,0.183919024107,0.304024788263,1.0,-0.174145714286,-0.22887722449,1.511
0.403421333577,0.259032891956,-0.126083415821,-1.78988646042,0.0483967793958,2.04111293035,0.0850150565887,-0.229353651153,-0.720375450616,-0.0111867195065,-1.02413944719,-0.0968550407387,0.294207876061,-0.222784699508,0.573740466227,0.819021031673,0.0026784310853,0.0,0.818984513559,-0.573676068341,-0.0118693750727,0.0,-0.00818487358721,0.00900370771682,-0.999925967805,0.0,0.599710796841,0.17989244396,0.303979415843,1.0,-0.179284571429,-0.23563115102,1.528
0.399347299904,0.246500731944,-0.126239608996,-1.80745654662,0.0467703197227,2.04630489014,0.0810410727721,-0.243000790016,-0.725488813981,-0.00827431923745,-1.04836615917,-0.0943358439776,0.300871851551,-0.236242197884,0.573831514633,0.818957105005,0.00272027167997,0.0,0.818921741832,-0.573767625547,-0.0117745288643,0.0,-0.00808218585598,0.00898445833338,-0.999926976224,0.0,0.59667865663,0.175778276543,0.304023798542,1.0,-0.184423428571,-0.242385077551,1.545
0.395410466255,0.234430384611,-0.126327956975,-1.82417281959,0.045325218102,2.05118267169,0.0771471217787,-0.254110395394,-0.767370597202,-0.00287706697009,-1.02518941466,-0.093655439508,0.318412174751,-0.239642305518,0.573840321238,0.818950273749,0.0029123442169,0.0,0.818916945235,-0.573775226412,-0.0117376856124,0.0,-0.00794170278543,0.00912070091377,-0.999926868412,0.0,0.59372450869,0.171908545915,0.30411036487,1.0,-0.18926,-0.248741714286,1.561
0.390807565771,0.220781543665,-0.126385985974,-1.8433446806,0.0435074281914,2.05657748319,0.0725804983887,-0.262503775823,-0.779125865786,-0.00335138506263,-1.06023356403,-0.109310612686,0.291445842456,-0.265398988381,0.573712427297,0.819040467343,0.00274053273171,0.0,0.819004739836,-0.573647781446,-0.0118408559542,0.0,-0.00812619612739,0.00903792951584,-0.999926137655,0.0,0.590236015246,0.167449073353,0.304023373415,1.0,-0.194701142857,-0.255892930612,1.579
0.386731712027,0.209041494171,-0.126510322114,-1.85932843898,0.0420130043321,2.06112651498,0.0686479886677,-0.280348450221,-0.776119524307,-0.00697197216855,-1.05849681874,-0.110449678637,0.299504778641,-0.264843805729,0.57374115214,0.819019610366,0.00295213116738,0.0,0.818986868982,-0.573676013474,-0.0117084115378,0.0,-0.00789600383888,0.00913553007429,-0.999927094949,0.0,0.587343422084,0.163590893268,0.304135913606,1.0,-0.199235428571,-0.261852277551,1.594
0.381619346722,0.19481287602,-0.126667427601,-1.87880105078,0.0401659960367,2.06642951341,0.0637271087167,-0.286609826312,-0.786317766379,-0.00833892041244,-1.07678498134,-0.101411224261,0.306405471697,-0.276637337021,0.573751782036,0.819012125252,0.00296280308793,0.0,0.818979254911,-0.573686295369,-0.0117371816192,0.0,-0.00791332689107,0.00916087951083,-0.999926726088,0.0,0.583723998417,0.158830624192,0.304155616178,1.0,-0.204676571429,-0.269003493878,1.612
0.376146077424,0.180344474259,-0.12688143028,-1.89847375068,0.038285879623,2.0716621352,0.0585685147857,-0.311227107408,-0.826529017642,-0.0126047606041,-1.08426759369,-0.100311171646,0.300881453477,-0.287698503202,0.573864835157,0.818932930467,0.00295859229052,0.0,0.81889958135,-0.573798858014,-0.0117937741143,0.0,-0.00796082638963,0.00919099918129,-0.999926072656,0.0,0.580022732257,0.153857047538,0.304163298528,1.0,-0.210117714286,-0.276154710204,1.63
0.370819171273,0.166478009423,-0.126992036979,-1.91731752265,0.0363801676949,2.07655253083,0.0535869803765,-0.317508038089,-0.842560834433,-0.00139173912306,-1.12519170693,-0.118031990535,0.282814457689,-0.295150157561,0.573857246333,0.818938699145,0.00283103775103,0.0,0.818903454596,-0.573791466447,-0.0118841064264,0.0,-0.00810808546037,0.00913830312403,-0.999925372398,0.0,0.576378974785,0.149132496525,0.304107667198,1.0,-0.215256571429,-0.282908636735,1.647
0.365978969491,0.153948641449,-0.127079263453,-1.93382479088,0.0346969522092,2.08090269522,0.0489708552603,-0.326509109676,-0.836642232815,-0.00766425941789,-1.10941471363,-0.120651207737,0.289636286338,-0.307368368922,0.573744903082,0.819016473471,0.0030901896114,0.0,0.818985007895,-0.57367868723,-0.0117075856767,0.0,-0.00781608009802,0.00924816462853,-0.999926687484,0.0,0.573175368194,0.144949512157,0.304244055559,1.0,-0.219790857143,-0.288867983673,1.662
0.359843431131,0.138806259586,-0.127206601423,-1.95393977426,0.0326471236505,2.08587781166,0.0432917856865,-0.349765504387,-0.848112129496,-0.00969098335405,-1.10559415949,-0.102554582642,0.293606428639,-0.322820572855,0.573739469604,0.819020354363,0.00307035153414,0.0,0.818988055688,-0.573672644617,-0.0117901806351,0.0,-0.00789517324386,0.00927925187172,-0.999925778108,0.0,0.569161341244,0.139748413383,0.304247994837,1.0,-0.225232,-0.2960192,1.68
0.354114057118,0.125179168821,-0.127364908885,-1.97199173656,0.0307057954245,2.09026544329,0.0379618545956,-0.366154105438,-0.844952887331,-0.0167147765785,-1.14250154296,-0.125822935747,0.260601165426,-0.325569024078,0.573687122692,0.819057362632,0.00297806589034,0.0,0.819023837001,-0.57362060306,-0.0118365987299,0.0,-0.00798672715554,0.00922978892222,-0.999925508818,0.0,0.565511197621,0.13497146382,0.30421036707,1.0,-0.230068571429,-0.302375836735,1.696
0.348029154201,0.1112638136,-0.127567122954,-1.98995072279,0.0287311190106,2.09467080657,0.03249120892,-0.386270873692,-0.866167201757,-0.00739652048188,-1.14239304334,-0.126418671365,0.273999694997,-0.35374173776,0.573799245417,0.818978004578,0.00319388127504,0.0,0.81894810686,-0.573732943477,-0.0116299072119,0.0,-0.00769235139842,0.0092890338489,-0.999927268145,0.0,0.561886241582,0.130035250073,0.304328283148,1.0,-0.234905142857,-0.308732473469,1.712
0.341447063257,0.0963249838099,-0.127677402799,-2.00915425753,0.0266071319209,2.09911847538,0.0264090141869,-0.390491388197,-0.881448285053,-0.0075555184864,-1.13721208272,-0.117822234513,0.273143621705,-0.368493480918,0.573662841165,0.819073163451,0.00329309615087,0.0,0.81904466664,-0.573596381281,-0.011565998899,0.0,-0.00758463729907,0.00933235630518,-0.999927687587,0.0,0.557874902195,0.124830768966,0.304401102687,1.0,-0.240044,-0.3154864,1.729
0.33457039112,0.0812858867191,-0.127844265958,-2.02859963477,0.0245394594438,2.10332564497,0.0200760631358,-0.408969278352,-0.899719225896,-0.00817033602916,-1.12475294491,-0.127691401536,0.242799110359,-0.387555555002,0.573597293202,0.819119564084,0.00316731222061,0.0,0.819087958861,-0.57352947419,-0.0118154468933,0.0,-0.00786186816157,0.00937179609397,-0.999925177434,0.0,0.553697967173,0.119485697261,0.304332827125,1.0,-0.245182857143,-0.322240326531,1.746
0.327312519965,0.0659993695661,-0.128033618082,-2.04805423587,0.022271514071,2.10762094768,0.0135573675015,-0.435902885178,-0.873211043804,-0.0145977442097,-1.15801999868,-0.129887228099,0.234893383115,-0.388356080156,0.57358880839,0.819125397085,0.00319525280577,0.0,0.819094552884,-0.57352136924,-0.0117515684749,0.0,-0.00779361248036,0.00935796249632,-0.999925841321,0.0,0.549511790237,0.113976100787,0.304338415666,1.0,-0.24998,-0.328545142857,1.763
0.319654613321,0.0505934853806,-0.128286493609,-2.06730238716,0.0200196147953,2.11161325957,0.00677917801452,-0.45295844686,-0.88972603855,-0.00851211917365,-1.13480083909,-0.134912994879,0.231680129056,-0.398686615051,0.573712747197,0.819038282959,0.00327439345101,0.0,0.819008558676,-0.573645134741,-0.0117041490326,0.0,-0.00770795465681,0.00939675667265,-0.999926141472,0.0,0.545299772482,0.108303468812,0.304408235917,1.0,-0.24998,-0.328545142857,1.78
0.311914404524,0.0353787072376,-0.128439253957,-2.0863403002,0.0178554361897,2.11538114878,-7.6501823721e-05,-0.46516539688,-0.894139555452,-0.0118442102734,-1.11067875765,-0.126629136079,0.227766968248,-0.412203270171,0.573757264924,0.819007151473,0.00326093303429,0.0,0.81897616163,-0.573688368885,-0.0118511176174,0.0,-0.00783554158653,0.00947047358614,-0.999924454355,0.0,0.541015611437,0.102744762537,0.304378228256,1.0,-0.24998,-0.328545142857,1.797
0.304428569841,0.0211512750615,-0.128595453328,-2.10395305649,0.015645308556,2.1187009957,-0.00670496493952,-0.476249838214,-0.891367662818,-0.00706780478922,-1.09629171011,-0.132469830482,0.196099766506,-0.42459794501,0.573719458532,0.819034099929,0.00314212602764,0.0,0.819001635935,-0.573651082402,-0.0118954989948,0.0,-0.00794048819465,0.009398266545,-0.999924307752,0.0,0.536985250865,0.097467346933,0.304355440232,1.0,-0.24998,-0.328545142857,1.813
0.296187096848,0.00606487339304,-0.128835113532,-2.12219500007,0.0133835683094,2.12207507019,-0.0138770766736,-0.493744640233,-0.87056167431,-0.0134834918486,-1.0656160309,-0.132697555009,0.186009711689,-0.431101860233,0.573869481517,0.818928442839,0.00328185825216,0.0,0.818898079775,-0.573800926243,-0.011797410125,0.0,-0.00777825115373,0.00945786314561,-0.999925021006,0.0,0.532781224933,0.0917895814384,0.304449373469,1.0,-0.24998,-0.328545142857,1.83
0.287869878966,-0.00889993970959,-0.12893995416,-2.14009319324,0.0111820156461,2.12530685119,-0.0212318229582,-0.490751619775,-0.868248450792,-0.00139806533383,-1.04588989664,-0.130880398557,0.193088007852,-0.43493625386,0.573812483707,0.818967410852,0.00351573684765,0.0,0.818940221784,-0.573743322502,-0.0116730428563,0.0,-0.00754285636815,0.00957750042412,-0.99992568564,0.0,0.528572533892,0.0862571542774,0.304553057549,1.0,-0.24998,-0.328545142857,1.847
0.27989124883,-0.0227322977357,-0.129062758779,-2.15684360672,0.0090146576993,2.12797228398,-0.028262973188,-0.503068159028,-0.85219568824,-0.00525036798753,-1.04623683955,-0.136409847469,0.151767872147,-0.447085183419,0.573739739922,0.819019285547,0.0032966101173,0.0,0.818988516567,-0.57367042432,-0.0118659552125,0.0,-0.00782742913795,0.00950803894643,-0.999924161398,0.0,0.524503013363,0.081021531603,0.304465173797,1.0,-0.24998,-0.328545142857,1.863
0.271116643391,-0.0374535402989,-0.129294732663,-2.17411440834,0.00675158712105,2.13078983846,-0.0358511428709,-0.525916532982,-0.852531636296,-0.00956847416093,-1.01167086103,-0.126969976758,0.154949463226,-0.460201045567,0.573878407977,0.818921397676,0.00347335379604,0.0,0.818893472128,-0.573809140381,-0.011717449483,0.0,-0.00760277432886,0.00956888223548,-0.999925314369,0.0,0.520311681937,0.075373649284,0.304557862113,1.0,-0.24998,-0.328545142857,1.88
0.261678328432,-0.0529332819383,-0.129415855628,-2.19208268327,0.00447595547099,2.1335103313,-0.044122351493,-0.524657773896,-0.85733838434,-0.00386110714344,-0.986956934605,-0.129202615951,0.162329690161,-0.457211001612,0.573869233979,0.818926842665,0.00369804754563,0.0,0.81890153522,-0.573798858465,-0.0116572956072,0.0,-0.00742467977346,0.00971828721993,-0.999925211715,0.0,0.51584037385,0.0695079598348,0.304649319591,1.0,-0.24998,-0.328545142857,1.898
0.253130866529,-0.0663970055639,-0.129563076937,-2.20797083171,0.00232158462885,2.13564418196,-0.0516488344389,-0.538559076765,-0.831444622999,-0.00935610559692,-0.986636943267,-0.142219446023,0.130669145243,-0.472312222944,0.573793405924,0.818980987788,0.00346639019067,0.0,0.818951798671,-0.57372270422,-0.0118725320735,0.0,-0.0077347802095,0.00965137291577,-0.999923509163,0.0,0.511771534013,0.0642605651393,0.304529246749,1.0,-0.24998,-0.328545142857,1.914
0.243755272203,-0.0807446787277,-0.129810196611,-2.22431905508,6.60989451595e-05,2.13781481949,-0.0598249207465,-0.556680504463,-0.831480382913,-0.017950533895,-0.958021250694,-0.128568594902,0.122722199881,-0.47805498232,0.573868549327,0.818927839464,0.00358172375869,0.0,0.818900483921,-0.573797859246,-0.0117796884543,0.0,-0.00759167555358,0.00969325466925,-0.999924200765,0.0,0.507564285176,0.0586083260193,0.304594178317,1.0,-0.24998,-0.328545142857,1.931
0.233730363231,-0.0957446497751,-0.129911518148,-2.24136928814,-0.00220724461796,2.13984403335,-0.068642569221,-0.561769996857,-0.813637924369,-0.0118472401199,-0.922228589844,-0.131195903292,0.128416857181,-0.498279718036,0.57378702991,0.818984762961,0.00362618894361,0.0,0.818957132993,-0.573715108598,-0.0118716210975,0.0,-0.00764242454727,0.00978166383804,-0.999922953232,0.0,0.503051871485,0.052779552914,0.304591498807,1.0,-0.24998,-0.328545142857,1.949
0.225173188947,-0.108136399334,-0.130055860978,-2.25535257325,-0.00420726913655,2.14134362711,-0.0760880070791,-0.574763217324,-0.80542870869,-0.00854880389272,-0.930993841546,-0.122452319357,0.0920606186319,-0.493046707503,0.573785052597,0.81898648428,0.00354949068156,0.0,0.818957560243,-0.573713029936,-0.0119423909972,0.0,-0.00774441686706,0.00975943557451,-0.9999223857,0.0,0.499280114751,0.0478646882261,0.304566216702,1.0,-0.24998,-0.328545142857,1.964
0.214566406686,-0.122977764816,-0.130291803158,-2.27177238875,-0.00658499093003,2.14302859448,-0.0852789229605,-0.591039955378,-0.8175226716,-0.00684367057668,-0.887765342067,-0.118354149419,0.0883900619479,-0.5235534762,0.573885870758,0.818915513144,0.00362444176778,0.0,0.81888781168,-0.573813878738,-0.0118798716587,0.0,-0.00764900347344,0.00978589008783,-0.999922861575,0.0,0.494798437778,0.0418828553927,0.304610316291,1.0,-0.24998,-0.328545142857,1.982
0.205095265398,-0.135980748074,-0.130435451968,-2.28619756316,-0.00864772057906,2.14426832054,-0.0936458312628,-0.602150193527,-0.785194195886,-0.015092382092,-0.908419739488,-0.135993825147,0.0696326985148,-0.524914397226,0.573794987543,0.818979603798,0.0035309679359,0.0,0.818949712602,-0.573722121008,-0.0120433798151,0.0,-0.00783763891482,0.00980230487205,-0.999921240016,0.0,0.490745326971,0.0366789988835,0.304553647257,1.0,-0.24998,-0.328545142857,1.998
0.194689252796,-0.149730738586,-0.130668276412,-2.30100155803,-0.0108581933163,2.14559196379,-0.10273548074,-0.612725362334,-0.779584914453,-0.0196485654817,-0.878890667135,-0.136141786617,0.0732926627573,-0.5308835581,0.573854281798,0.818937208905,0.00372263815249,0.0,0.81891068373,-0.573781820954,-0.0118516208679,0.0,-0.0075698969606,0.00984980117519,-0.999922836061,0.0,0.486568723948,0.0310509504927,0.304639142451,1.0,-0.24998,-0.328545142857,2.015
0.18415872159,-0.163346112924,-0.130812163784,-2.31567722315,-0.0130400521192,2.14648359907,-0.11199052181,-0.61167964655,-0.821451113161,-0.00729363426332,-0.850998482267,-0.125449621273,0.0573555344153,-0.544867413553,0.573797225994,0.818977553623,0.00364101683888,0.0,0.818949129108,-0.573723987923,-0.0119940200331,0.0,-0.00773404338824,0.00986413290791,-0.999921438641,0.0,0.482272657144,0.0255083460647,0.30462132835,1.0,-0.24998,-0.328545142857,2.032
0.173449945343,-0.176802430655,-0.130985828279,-2.32996690074,-0.0151357569775,2.14736251282,-0.121469266977,-0.632984191368,-0.76594726128,-0.00945478771386,-0.815979158055,-0.127141584714,0.0431390100812,-0.560630681614,0.573748876168,0.819010962553,0.00374395721156,0.0,0.818983486185,-0.573674759434,-0.0120027766344,0.0,-0.00768273980852,0.00995301036042,-0.999920953423,0.0,0.478041207856,0.0199851497167,0.304642116406,1.0,-0.24998,-0.328545142857,2.049
0.162950551047,-0.189356711602,-0.131244586978,-2.34319713119,-0.0172305849344,2.14797442836,-0.130597789382,-0.660524709157,-0.784436955642,-0.0133235910954,-0.837892767102,-0.130816167269,0.0452005724074,-0.57705518775,0.573881983581,0.81891788718,0.00370268542266,0.0,0.818889773628,-0.573807872281,-0.0120337548763,0.0,-0.0077301759039,0.00993823768781,-0.999920734765,0.0,0.47403425411,0.0146224133758,0.304635829868,1.0,-0.24998,-0.328545142857,2.065
0.151857674781,-0.202639477761,-0.13138886032,-2.3569276427,-0.0193078595221,2.14855994102,-0.140541492224,-0.666557384041,-0.793683837062,-0.0114371665685,-0.791012008472,-0.121283726,0.0140178953868,-0.593467933297,0.573718259238,0.81903185684,0.00386308154662,0.0,0.819005933718,-0.57364371409,-0.011954778138,0.0,-0.00757545754125,0.0100227541811,-0.999921075306,0.0,0.469806238683,0.00913774434437,0.304691362488,1.0,-0.24998,-0.328545142857,2.082
0.140315060523,-0.215731580119,-0.131681685974,-2.37035822659,-0.0213635779208,2.14887039877,-0.150639152769,-0.693571293857,-0.789126900655,-0.0196333286991,-0.766493816015,-0.122811271381,0.0267737928176,-0.587686579049,0.573910031059,0.818897098305,0.0039453185118,0.0,0.818871520177,-0.573834190135,-0.0120209224856,0.0,-0.00758008582954,0.0101298319951,-0.999919961198,0.0,0.465557477764,0.00348190693739,0.304712162012,1.0,-0.24998,-0.328545142857,2.099
0.12944001178,-0.2279058959,-0.13180069882,-2.3827803352,-0.0234226179372,2.14910432535,-0.160319118905,-0.671475428699,-0.758582503278,-0.00729024814439,-0.772120943942,-0.116910891253,0.00638919754063,-0.605130720581,0.573760438353,0.81900207491,0.00391248965825,0.0,0.818976500952,-0.573685317156,-0.0119747513185,0.0,-0.00756295391625,0.0100750696323,-0.999920644201,0.0,0.461556855402,-0.00169474920688,0.304709439021,1.0,-0.24998,-0.328545142857,2.115
0.116858479156,-0.241492433383,-0.132068356704,-2.39636572162,-0.0256339691783,2.1491965711,-0.171524502005,-0.711872118218,-0.740949248419,-0.0231046865494,-0.740432561129,-0.117280541702,0.00593516008906,-0.617723067586,0.573760101933,0.819001774894,0.00402306502486,0.0,0.81897792996,-0.57368497656,-0.0118930571755,0.0,-0.00743260607183,0.0101187579809,-0.999921180446,0.0,0.457082196722,-0.00761462242449,0.304759290881,1.0,-0.24998,-0.328545142857,2.133
0.104684453231,-0.254102501335,-0.132258731815,-2.40892128692,-0.0276147172226,2.14919158049,-0.182357956394,-0.715787935562,-0.736121862289,-0.00375910195869,-0.738366525164,-0.119548545429,-0.00257368796085,-0.641149057254,0.573780257394,0.818987029615,0.00414830655392,0.0,0.818964643958,-0.573704460296,-0.0118680699593,0.0,-0.007340034709,0.0102071771558,-0.999920965589,0.0,0.452855777688,-0.0131895934613,0.304769705601,1.0,-0.24998,-0.328545142857,2.15
0.093133867746,-0.265843936925,-0.132483102285,-2.4204906844,-0.0295500289845,2.1490428616,-0.192715984797,-0.735258381107,-0.736395034457,-0.0160110501592,-0.694212945895,-0.125869290386,-0.000523339564498,-0.659641331415,0.573736019315,0.819017750443,0.00420136907529,0.0,0.818996229549,-0.573660292534,-0.0118233521171,0.0,-0.00727351667859,0.0102245852652,-0.999921273807,0.0,0.448867884154,-0.0184115252405,0.304774969527,1.0,-0.24998,-0.328545142857,2.166
0.0804756089885,-0.278151552817,-0.13275323236,-2.43240609085,-0.0315770191686,2.14876333967,-0.20399766449,-0.746666312951,-0.719630266436,-0.00743552354472,-0.711510206899,-0.124477726179,-0.0316928926598,-0.670107554132,0.573810174617,0.818965198768,0.00431666697872,0.0,0.818945722122,-0.573734836873,-0.0117041906105,0.0,-0.0071088394321,0.0102512969833,-0.999922184628,0.0,0.44465970029,-0.0240446154009,0.304817375828,1.0,-0.24998,-0.328545142857,2.183
0.0678062392573,-0.29028224813,-0.132935541087,-2.44416715543,-0.0334699560523,2.14825081097,-0.215560424753,-0.753858072551,-0.71284180889,-0.0136970533453,-0.675504512818,-0.116133032356,-0.0276974304852,-0.686669319399,0.573642604765,0.81908239104,0.00435265298098,0.0,0.819062381157,-0.573565733956,-0.0118284194148,0.0,-0.00719205592415,0.010350578919,-0.999920566769,0.0,0.440386685314,-0.0295202352611,0.304784967724,1.0,-0.24998,-0.328545142857,2.2
0.0554117106366,-0.301607634807,-0.133233667486,-2.45472116371,-0.0353851650721,2.14779023069,-0.226617102711,-0.769423770153,-0.693903966988,-0.0119683630645,-0.654260854241,-0.126069576082,-0.0377188244668,-0.684817571714,0.573766933058,0.818994252734,0.00454614324524,0.0,0.818978432806,-0.573691916266,-0.0115177563612,0.0,-0.00682502203708,0.0103318999345,-0.99992333252,0.0,0.436468259259,-0.0348678793222,0.304903831566,1.0,-0.24998,-0.328545142857,2.216
0.0422250235191,-0.313349418655,-0.13342232951,-2.46594918927,-0.0372837657473,2.14698656814,-0.238570980471,-0.787238686572,-0.689792094532,-0.0180645251333,-0.653496911324,-0.121978123494,-0.0548912758518,-0.712086825042,0.573691645315,0.81904743458,0.00446574792919,0.0,0.819029304052,-0.573614990795,-0.0117298056624,0.0,-0.00704578293179,0.0103870699115,-0.999921229758,0.0,0.432163363436,-0.040373577266,0.304828514368,1.0,-0.24998,-0.328545142857,2.233
0.0278660132495,-0.325652992725,-0.133727749136,-2.47720335479,-0.0392889288928,2.14618687959,-0.251564820744,-0.791841042436,-0.68919852557,-0.0118693052394,-0.613875294621,-0.105856878551,-0.0344623141311,-0.732944529297,0.573749910933,0.819005420152,0.00468063744737,0.0,0.818991233494,-0.573674350109,-0.0114824382422,0.0,-0.00671914687562,0.0104216496044,-0.999923118187,0.0,0.427740691904,-0.0463244683855,0.304934846667,1.0,-0.24998,-0.328545142857,2.251
0.0150359318299,-0.336294334181,-0.133899625964,-2.48712967313,-0.0409490926912,2.1452912045,-0.263371218857,-0.815593422282,-0.670143109188,-0.013644536058,-0.616901142761,-0.109360221867,-0.0685560825566,-0.737465207667,0.573614937031,0.819099829797,0.00470316308672,0.0,0.81908493726,-0.573537789155,-0.0116196757774,0.0,-0.00682036400588,0.0105177121297,-0.999921427096,0.0,0.423727696626,-0.0514823837619,0.304884972313,1.0,-0.24998,-0.328545142857,2.267
0.00014021981025,-0.348052436338,-0.134171260178,-2.49790945856,-0.0429967219199,2.14409184011,-0.276884919606,-0.815275691052,-0.64467691343,-0.0065289696856,-0.592063752476,-0.108205195219,-0.0650875309914,-0.769432103662,0.573630955782,0.819089254731,0.00458979880218,0.0,0.819072539147,-0.573553622159,-0.0117117472858,0.0,-0.00696060464113,0.0104778006786,-0.999920879708,0.0,0.419199695191,-0.0574324161817,0.304853005867,1.0,-0.24998,-0.328545142857,2.285
-0.0140483498053,-0.359020603145,-0.134446158713,-2.50759624475,-0.0447736219365,2.14305498567,-0.289916995332,-0.852056055608,-0.629575320015,-0.025347806621,-0.575788043959,-0.104548916236,-0.0690222332633,-0.768708220737,0.573614277275,0.819099722697,0.00480125872285,0.0,0.819086968706,-0.573538200752,-0.0114549934385,0.0,-0.00662920429245,0.0105035984625,-0.99992286106,0.0,0.415033372963,-0.063006280778,0.304956992028,1.0,-0.24998,-0.328545142857,2.302
-0.0268273762017,-0.368463731966,-0.134649909564,-2.51612374178,-0.0463177979748,2.14188783972,-0.301656701358,-0.851010198354,-0.639099314386,-0.00320523128025,-0.564263931875,-0.0979631782895,-0.0789726567338,-0.786854421267,0.573587820516,0.819118534204,0.00475247106182,0.0,0.819104122144,-0.573510280661,-0.0116250575671,0.0,-0.00679683996212,0.0105609634017,-0.999921131399,0.0,0.411232909371,-0.0679148053456,0.304908051911,1.0,-0.24998,-0.328545142857,2.317
-0.0423679665354,-0.379545096081,-0.134963369415,-2.5258861446,-0.0481498457639,2.14046516764,-0.315922629796,-0.884278304408,-0.612242058834,-0.0264909589445,-0.517325387513,-0.0991377463163,-0.0805571089363,-0.787616963387,0.573647526147,0.819076477385,0.00479445934859,0.0,0.819062300944,-0.573569365544,-0.0116566283141,0.0,-0.00679784593063,0.0106139612531,-0.999920563404,0.0,0.406732599249,-0.0738288002003,0.304918956639,1.0,-0.24998,-0.328545142857,2.335
-0.0563743734146,-0.389135416523,-0.135191612715,-2.534195384,-0.049745834914,2.13927271994,-0.328906599922,-0.871493511593,-0.592288459015,-0.015920826455,-0.520314989613,-0.0935272723221,-0.082363560008,-0.820006142868,0.573591939151,0.819114826458,0.00489237349539,0.0,0.819102697621,-0.573514726333,-0.0115054913295,0.0,-0.00661859771591,0.0106070176284,-0.999921839616,0.0,0.402789530291,-0.0790663228539,0.304964387051,1.0,-0.24998,-0.328545142857,2.351
-0.0707017944343,-0.398506902525,-0.135509101327,-2.54238052827,-0.0513895559476,2.13783870378,-0.342140434046,-0.899284996894,-0.576490320889,-0.0248318845574,-0.504913294746,-0.100697232126,-0.0801179301953,-0.823216510585,0.573637884447,0.819083105315,0.0048157051064,0.0,0.819069246949,-0.573559725954,-0.0116428676644,0.0,-0.00677451213057,0.0106233904641,-0.99992062163,0.0,0.398735381388,-0.0843725176741,0.304925770444,1.0,-0.24998,-0.328545142857,2.367
-0.0868563427339,-0.40874962792,-0.135725224415,-2.55117435786,-0.0529666036949,2.13624392558,-0.357253045919,-0.903720233076,-0.568788436873,-0.0123595902763,-0.480446959277,-0.0824793437796,-0.0761527246949,-0.847936493104,0.573558256333,0.819138281793,0.0049141423224,0.0,0.819124884511,-0.573478512178,-0.0117288765963,0.0,-0.00678954751464,0.0107526972944,-0.999919137503,0.0,0.394248211633,-0.0901880629538,0.304921546667,1.0,-0.24998,-0.328545142857,2.385
-0.102577398504,-0.418105220798,-0.136065026145,-2.55898411185,-0.0546019565301,2.13484803946,-0.371811741216,-0.931011173644,-0.535497733732,-0.00908790012113,-0.456453237385,-0.0991249472665,-0.0885494507403,-0.856790988181,0.573679596617,0.81905265026,0.00502229311562,0.0,0.819041948169,-0.573601582237,-0.0115003867838,0.0,-0.00653875288797,0.0107112122128,-0.999921254221,0.0,0.390059579428,-0.0958659166822,0.304991406376,1.0,-0.24998,-0.328545142857,2.402
-0.117424877975,-0.426652027701,-0.136284991736,-2.56632341686,-0.0560289608136,2.13324359232,-0.385785279368,-0.938374406792,-0.525290012183,-0.0155840146754,-0.449685502551,-0.0875330679312,-0.104847970515,-0.870975642158,0.573582816925,0.819120928581,0.00493997875008,0.0,0.819107434719,-0.573502298572,-0.0117843464788,0.0,-0.00681984696551,0.0108058800171,-0.99991835799,0.0,0.385991923421,-0.101065312618,0.304912304874,1.0,-0.24998,-0.328545142857,2.418
-0.133408013333,-0.435394310795,-0.136547047988,-2.57370034523,-0.0575820043296,2.13168443409,-0.400769361027,-0.937961732405,-0.502838742924,-0.0105351653645,-0.429782752169,-0.0815371420916,-0.0920386664143,-0.884043525191,0.573555499824,0.819140365213,0.0048885173701,0.0,0.819125840044,-0.573474591133,-0.0118532020363,0.0,-0.00690612870923,0.0108029881068,-0.999917797038,0.0,0.38173466463,-0.106625301409,0.304872833374,1.0,-0.24998,-0.328545142857,2.435
-0.150701972934,-0.444382666124,-0.13689640034,-2.58090521892,-0.0590308833115,2.13004818969,-0.417009540128,-0.968360874969,-0.492506277315,-0.0158694141896,-0.395305902141,-0.0814055493866,-0.0892744672888,-0.909987309977,0.573683104009,0.819049669275,0.00510708688925,0.0,0.819038857928,-0.573602851054,-0.0116561300838,0.0,-0.00661763729992,0.0108700367822,-0.99991902131,0.0,0.377298713839,-0.11260044501,0.304974831658,1.0,-0.24998,-0.328545142857,2.453
-0.165149208414,-0.451554602615,-0.137068523709,-2.58682036705,-0.0602352710775,2.128629135,-0.430705316894,-0.965889313844,-0.467000208534,-0.0106370615628,-0.397983705711,-0.0778183065968,-0.0986671602351,-0.924100763839,0.57359953631,0.819108156276,0.00511343015432,0.0,0.819096979547,-0.573518543511,-0.0117202920972,0.0,-0.00666766820956,0.0109113593844,-0.999918238876,0.0,0.373552860001,-0.117465833468,0.304955554602,1.0,-0.24998,-0.328545142857,2.468
-0.181799507102,-0.459392005903,-0.137389232751,-2.59325751991,-0.061645585373,2.12692499193,-0.446524565075,-0.970490329627,-0.447914569752,-0.00951472204884,-0.367765522279,-0.0739618507789,-0.091776061148,-0.919834046831,0.573568748824,0.819130003196,0.00506706399806,0.0,0.819117080159,-0.573486067854,-0.0119031874326,0.0,-0.00684449912975,0.0109780263508,-0.999916314383,0.0,0.369246980014,-0.123052131283,0.304911938258,1.0,-0.24998,-0.328545142857,2.485
-0.199698624832,-0.467235840644,-0.137702581204,-2.59963834528,-0.0629544968043,2.1253201934,-0.463496751005,-1.0139828437,-0.425672863,-0.0229031766771,-0.338582042596,-0.0747914510437,-0.0953869160817,-0.93254922689,0.573653005267,0.819070361925,0.0051690100726,0.0,0.819058214965,-0.573569048946,-0.0119554794977,0.0,-0.00682772618272,0.0110922304663,-0.999915168691,0.0,0.364745858416,-0.128979905524,0.304886104042,1.0,-0.24998,-0.328545142857,2.503
-0.21573207372,-0.473981711493,-0.137890000085,-2.60482781408,-0.0641479980169,2.12387689746,-0.478746345256,-0.998388746334,-0.415863534317,-0.0119472051081,-0.313648787143,-0.0691881868901,-0.091673003663,-0.957211603978,0.573634739568,0.819082714578,0.00523823834097,0.0,0.819072796474,-0.573552729784,-0.0117374245206,0.0,-0.00660964289489,0.0110237052251,-0.99991739186,0.0,0.360806807116,-0.134231675056,0.304980414641,1.0,-0.24998,-0.328545142857,2.519
-0.233950674007,-0.481055566522,-0.138148205672,-2.61041685145,-0.0653596963766,2.12230232675,-0.496158129269,-1.00676945671,-0.376897914491,-0.00856426442352,-0.311279210312,-0.0641220024005,-0.0844218218135,-0.96346715553,0.57365505046,0.81906794012,0.00532348103804,0.0,0.81905907087,-0.573572655239,-0.0117215395595,0.0,-0.00654746016683,0.0110845792128,-0.999917128001,0.0,0.356338818481,-0.140126987588,0.304990789706,1.0,-0.245669142857,-0.322879444898,2.537
-0.250062224353,-0.486850501098,-0.138266016495,-2.6151246533,-0.0662873138151,2.12087413061,-0.511575404093,-1.02102340558,-0.354263982162,-0.0132093653275,-0.286986515628,-0.0560485382563,-0.0858014262697,-0.96277976564,0.573650117773,0.819071218014,0.00535061695468,0.0,0.819061068881,-0.573564880998,-0.0119599176801,0.0,-0.00672722788473,0.0112435067002,-0.999914160297,0.0,0.352385516901,-0.145220400798,0.304919724433,1.0,-0.240832571429,-0.316522808163,2.553
-0.26613720747,-0.492195656056,-0.138320627949,-2.61936958402,-0.0671736088978,2.11958279772,-0.52690982304,-0.99560038115,-0.322817835411,-0.000900697291772,-0.251937036857,-0.0465698985746,-0.0847411329905,-0.9626620263,0.573678000821,0.819051533599,0.00537434496038,0.0,0.819041120294,-0.57359171065,-0.0120390881062,0.0,-0.00677808435622,0.011308587239,-0.999913082936,0.0,0.348536666116,-0.15026619613,0.304892867049,1.0,-0.235996,-0.310166171429,2.569
-0.284116674564,-0.497740604458,-0.138355290859,-2.62363431145,-0.0680479662276,2.11828179345,-0.544014171932,-0.98933302995,-0.294899444962,0.00105971069536,-0.230013824762,-0.0482487469528,-0.0695052852422,-0.946424470808,0.573803232954,0.818963105869,0.00547977898507,0.0,0.818954506975,-0.573717258488,-0.0119486283303,0.0,-0.00664176986647,0.0113440696708,-0.999913595755,0.0,0.344323400307,-0.155872430449,0.304922778587,1.0,-0.230554857143,-0.303014955102,2.587
-0.300683345254,-0.50251242884,-0.138307142178,-2.62727007109,-0.0687272072133,2.11704944287,-0.55995979534,-0.984696809135,-0.266580473294,0.000428528095808,-0.210203778767,-0.0389914526403,-0.0715728250401,-0.933791187602,0.573778735689,0.818979539361,0.0055877974726,0.0,0.818972212264,-0.573692124135,-0.0119419071606,0.0,-0.00657462880615,0.0114284832839,-0.999913078235,0.0,0.340455028921,-0.160953011699,0.304949052318,1.0,-0.225416,-0.296261028571,2.604
-0.316208827447,-0.506564447428,-0.138275515831,-2.63034166113,-0.0693599271996,2.11605569397,-0.574815832154,-0.955786879011,-0.244878835697,0.00273803630776,-0.17838997621,-0.0454500421734,-0.0548979343557,-0.929568353809,0.573856957064,0.818924195729,0.00566580797716,0.0,0.818918356168,-0.573770867324,-0.0118517780445,0.0,-0.00645495652378,0.0114412797195,-0.999913711604,0.0,0.336882944264,-0.165708668881,0.304977349544,1.0,-0.220579428571,-0.289904391837,2.62
-0.332487113534,-0.51049355818,-0.138231176606,-2.63330593136,-0.0699407301483,2.11505996454,-0.590397026481,-0.961190200195,-0.224668651443,-0.000571962766539,-0.174080394747,-0.0422430891236,-0.0639281919753,-0.916965546815,0.573976425882,0.818839744889,0.00576902264684,0.0,0.818835569293,-0.573890514721,-0.0117785599622,0.0,-0.00633408760917,0.0114847178088,-0.999913986596,0.0,0.333150839191,-0.170651455758,0.305004131122,1.0,-0.215440571429,-0.283150465306,2.637
-0.3482997806,-0.513925617819,-0.138077151644,-2.63599164691,-0.0704356751437,2.1140548648,-0.605760275024,-0.923811232602,-0.19538320211,0.0127992487545,-0.153482460636,-0.0228881679722,-0.0507541016949,-0.897406149528,0.573867913918,0.818915611549,0.00579529456522,0.0,0.818910829956,-0.573780213995,-0.0119191236831,0.0,-0.00643565501053,0.0115860551934,-0.999912168978,0.0,0.329517566721,-0.175368612757,0.304971286756,1.0,-0.210301714286,-0.276396538776,2.654
-0.363156479026,-0.516772089501,-0.137998892443,-2.63828310584,-0.0708542284149,2.11324925624,-0.619993327575,-0.916059535187,-0.167405197034,0.0072066207452,-0.139496695554,-0.0190444915154,-0.0434397547564,-0.888023953751,0.574011796082,0.818814367187,0.00585123471246,0.0,0.818809284395,-0.573921990887,-0.0120685983564,0.0,-0.0065239150563,0.0117187887495,-0.999910050216,0.0,0.326120868209,-0.179800190009,0.304913414765,1.0,-0.205465142857,-0.270039902041,2.67
-0.378463528912,-0.519403868362,-0.137800910746,-2.64036618947,-0.0711965073744,2.1125254373,-0.634830138558,-0.905071505627,-0.155420010752,0.0032341721987,-0.116026107071,-0.022656917304,-0.0392605234704,-0.873048354635,0.57398929212,0.818829710901,0.00591134320463,0.0,0.818824913474,-0.573898339724,-0.012132750632,0.0,-0.00654227260075,0.0118046513109,-0.999908920291,0.0,0.32267554791,-0.184319499453,0.304878991028,1.0,-0.200326285714,-0.26328597551,2.687
-0.394405791215,-0.521823332668,-0.137581700447,-2.6422099952,-0.0715423107802,2.11180433575,-0.650283471002,-0.872599941503,-0.126928797294,0.0133745491216,-0.0974075768688,-0.016374480938,-0.0322854689464,-0.856583704106,0.573978917643,0.818836737647,0.00594525702744,0.0,0.818832174274,-0.573887443614,-0.0121580975914,0.0,-0.00654371459745,0.0118468875238,-0.999908411333,0.0,0.319114614049,-0.189018478617,0.304874053461,1.0,-0.194885142857,-0.256134759184,2.705
-0.407444238058,-0.523653207989,-0.137454645902,-2.64352972367,-0.0717470329127,2.1112562941,-0.662895638603,-0.878773530058,-0.119212343664,0.00252539307262,-0.0838203081848,-0.014298705435,-0.0391466950915,-0.8268984508,0.574072926535,0.818770023603,0.00605560655587,0.0,0.818767086456,-0.573981293384,-0.0121111470268,0.0,-0.00644056325465,0.0119110422783,-0.999908318906,0.0,0.316205291608,-0.19285685731,0.304901975224,1.0,-0.190350857143,-0.250175412245,2.72
-0.422737739472,-0.52548720864,-0.137192879576,-2.64485506563,-0.0719627439975,2.11071938551,-0.677789940043,-0.837227084427,-0.0935142782106,0.0147302466281,-0.0695605133839,-0.00711587829829,-0.027356002402,-0.817947447613,0.57404453759,0.818789460503,0.00611842578373,0.0,0.818787813433,-0.573953519359,-0.0120258509543,0.0,-0.00633506997322,0.0119132958872,-0.999908965991,0.0,0.312828122367,-0.197324326297,0.304932299332,1.0,-0.184909714286,-0.243024195918,2.738
-0.436910674374,-0.526897385286,-0.137034769017,-2.64588337234,-0.072154918045,2.11028664009,-0.69148911721,-0.827348483078,-0.0789469850786,0.00892633313756,-0.0603106367311,-0.00585551870677,-0.0270674705413,-0.811418426431,0.574178241066,0.818695178082,0.0061886810262,0.0,0.818694688727,-0.574087358057,-0.0119774317289,0.0,-0.00625314245445,0.011944050929,-0.999909114798,0.0,0.309688153432,-0.20147840804,0.304947893656,1.0,-0.179770857143,-0.236270269388,2.755
-0.449739412219,-0.527969160189,-0.136740886301,-2.64670155513,-0.0722638132709,2.10992991959,-0.704077219801,-0.800752227869,-0.0589614399101,0.0110087768246,-0.0483627554546,-0.000463290660015,-0.0198591507997,-0.773032641411,0.574073451849,0.818768507271,0.00620888756114,0.0,0.818768231456,-0.573982411336,-0.0119800474094,0.0,-0.00624521352009,0.0119612973494,-0.999908958193,0.0,0.3068607124,-0.205175532313,0.304944850144,1.0,-0.174934285714,-0.229913632653,2.771
-0.463256013601,-0.528836208119,-0.13652472453,-2.647372023,-0.0723593594887,2.10960667227,-0.717116284313,-0.79175466218,-0.0423215035793,0.00491967799151,-0.0356905286479,-0.00482474871024,-0.0250517409316,-0.758111742769,0.574232023436,0.81865690205,0.00626154034777,0.0,0.818657090934,-0.574140299899,-0.0120095960423,0.0,-0.00623685611661,0.0120225805138,-0.999908275385,0.0,0.303873601062,-0.209093221479,0.304934709026,1.0,-0.169795428571,-0.223159706123,2.788
-0.476201710844,-0.52943115901,-0.136156314763,-2.64783165255,-0.0723944279419,2.1093694959,-0.7298567323,-0.754190632478,-0.0316122960548,0.0247858807326,-0.026614420939,-0.000512769361606,-0.0167232764659,-0.7391408805,0.574098458232,0.818750591611,0.00625906486058,0.0,0.818750747435,-0.574006772577,-0.0120077271358,0.0,-0.00623870819086,0.0120184630611,-0.99990831333,0.0,0.301054188195,-0.21280346495,0.304932218654,1.0,-0.164656571429,-0.216405779592,2.805
-0.488189089479,-0.529774427683,-0.13594907304,-2.64813197049,-0.0724133756043,2.10917188542,-0.741494534533,-0.750016114104,-0.0223415951571,0.00322487913309,-0.0212566669479,-0.000568313584984,-0.0128748350375,-0.703663119853,0.574213212137,0.818669722941,0.00631020192053,0.0,0.818670076831,-0.574120374243,-0.0120767579481,0.0,-0.00626418120012,0.0121008404433,-0.999907160538,0.0,0.298411803285,-0.216264047091,0.304909426707,1.0,-0.15982,-0.210049142857,2.821
-0.500417242073,-0.529966438737,-0.135579135749,-2.64831104629,-0.072411567686,2.10901995173,-0.753598621012,-0.708970644163,-0.00876725134954,0.0132625355191,-0.00974231077665,0.00130115198213,-0.00661410861144,-0.706940210308,0.574044560538,0.81878815039,0.00628921281557,0.0,0.818787968634,-0.573951349525,-0.0121184859226,0.0,-0.00631289203391,0.0121063157955,-0.999906787912,0.0,0.295744018855,-0.219751683835,0.304894635435,1.0,-0.154681142857,-0.203295216327,2.838
-0.513153859394,-0.530036289055,-0.135306754292,-2.64838798207,-0.0724171201095,2.10890013142,-0.76595842879,-0.707798470169,2.04482702281e-05,0.00870852960784,-0.00316006834352,-6.73084696179e-05,-0.00405757036972,-0.682393440004,0.574154408325,0.818711022323,0.00630271594922,0.0,0.818710797327,-0.574060691099,-0.0121531961744,0.0,-0.00633193610022,0.0121381464558,-0.999906281601,0.0,0.292932275659,-0.223405007911,0.304881907528,1.0,-0.14924,-0.196144,2.856
-0.523988910651,-0.529973820679,-0.134952783623,-2.64835160046,-0.0724076500898,2.10887675784,-0.776600055295,-0.661466301137,0.0123097499778,0.0213561459905,0.00521788852601,0.000723384072144,-0.000128876457426,-0.648375222303,0.574058049233,0.818778953564,0.00625525484725,0.0,0.818778375622,-0.573965077599,-0.0121164438958,0.0,-0.00633051330212,0.0120774420776,-0.999907025675,0.0,0.29071341896,-0.226294075937,0.304884618731,1.0,-0.144705714286,-0.190184653061,2.871
-0.535127254261,-0.529792511324,-0.134644472367,-2.64822787959,-0.0723986881462,2.10887449229,-0.787536774532,-0.661036807722,0.00790877974613,0.0154390264087,0.00924445251441,0.00235949026799,-0.000280607967546,-0.627412469464,0.574028308722,0.818800069594,0.00622042759995,0.0,0.81879918573,-0.573935781219,-0.0120979082981,0.0,-0.00633576416547,0.012038054663,-0.999907467385,0.0,0.288111133282,-0.229659284845,0.304880533873,1.0,-0.139264571429,-0.183033436735,2.889
-0.545993436142,-0.529496783668,-0.134337757689,-2.64800716704,-0.0723687374302,2.10888723093,-0.798110681001,-0.622507562718,0.0275863283376,0.0231398744466,0.0136201868258,0.00496708112819,0.00174393677601,-0.611328604534,0.574076864166,0.818766271277,0.00618821053993,0.0,0.818765096891,-0.573984713967,-0.0120835072176,0.0,-0.00634175199011,0.0120037838439,-0.999907841431,0.0,0.285710832597,-0.232750233861,0.304881876492,1.0,-0.134125714286,-0.176279510204,2.906
-0.55562487515,-0.529049713279,-0.133971371408,-2.64769241959,-0.0722832124358,2.10891317721,-0.8077374951,-0.605270997858,0.0303819544389,0.0155951730692,0.0220675294923,0.00172302390187,-0.000510797672155,-0.588133717806,0.57387689064,0.818906748575,0.00614804268997,0.0,0.818904845689,-0.573784574609,-0.0121186859005,0.0,-0.00639654476152,0.0119895265691,-0.999907663471,0.0,0.283606531749,-0.235467855553,0.304873350221,1.0,-0.129289142857,-0.169922873469,2.922
-0.565787368575,-0.52849678834,-0.133689833731,-2.64729566357,-0.0722115377792,2.10900386859,-0.817586116974,-0.600543096904,0.0342804365554,0.0114906663435,0.025655390972,0.00688339364547,0.00597835174431,-0.568642128933,0.573988646896,0.818828552417,0.00613040645065,0.0,0.818826467098,-0.573896473992,-0.0121161388801,0.0,-0.00640294509041,0.0119744957634,-0.999907802623,0.0,0.281360619452,-0.238363243307,0.304866706777,1.0,-0.124150285714,-0.163168946939,2.939
-0.575867630925,-0.527738254789,-0.133294419964,-2.64675206463,-0.0720512526626,2.10915384442,-0.827603732864,-0.54892154249,0.0451265094877,0.0280212356759,0.0315070006666,0.0146678872216,0.0162877469036,-0.541132583717,0.573857158905,0.818920862216,0.00610978742425,0.0,0.818918611679,-0.573765298078,-0.012101118496,0.0,-0.00640439769439,0.0119479621501,-0.999908110723,0.0,0.279296442446,-0.241064808523,0.304862187297,1.0,-0.119011428571,-0.156415020408,2.956
-0.584016242048,-0.527054167312,-0.133016439945,-2.64624082302,-0.071895616893,2.10925098137,-0.8355959,-0.542446578624,0.0482711148685,0.015524270185,0.0317659926085,0.00836445119045,0.0051321027403,-0.527672320314,0.573887425596,0.818899477574,0.00613312921102,0.0,0.818897332462,-0.573795084078,-0.0121287788268,0.0,-0.00641321472784,0.0119831875206,-0.999907632681,0.0,0.27739471311,-0.243532142917,0.304857242981,1.0,-0.114174857143,-0.150058383674,2.972
-0.593512513157,-0.526161135656,-0.1326963376,-2.64555108086,-0.0716972868197,2.10940069855,-0.844803814652,-0.519671763931,0.0542435398953,0.0181992933166,0.0381285750988,0.0104382704819,0.00683576413108,-0.502461479063,0.574020780311,0.818805798377,0.00616078051006,0.0,0.818804069534,-0.573928391957,-0.012117900838,0.0,-0.00638648357855,0.0120006300972,-0.999907594583,0.0,0.275321609854,-0.246237196328,0.304865004671,1.0,-0.108733714286,-0.142907167347,2.99
-0.60131250379,-0.525239730384,-0.132304560861,-2.64490016623,-0.0714630678373,2.10955600076,-0.852607435343,-0.473698588324,0.0636295124164,0.028270773851,0.0469488325088,0.0114242265773,0.0104208342363,-0.483843278033,0.573877628557,0.81890606545,0.00617011441781,0.0,0.818904065179,-0.573784491541,-0.0121752290336,0.0,-0.00643017674069,0.0120400551527,-0.99990684061,0.0,0.273653048143,-0.248431587791,0.304846762938,1.0,-0.103897142857,-0.136550530612,3.006
-0.609374706159,-0.524315826074,-0.131940076675,-2.64421808063,-0.0712631103534,2.1097117911,-0.860514354993,-0.46982654659,0.0503127332964,0.0177997123629,0.0403966418854,0.0137866164952,0.00928618822048,-0.449358711965,0.57387058731,0.818911049478,0.00616351881498,0.0,0.818908772298,-0.573777125246,-0.0122057403792,0.0,-0.00645905391335,0.0120521070662,-0.999906509299,0.0,0.271900236729,-0.250703507824,0.304840806898,1.0,-0.0987582857144,-0.129796604082,3.023
-0.617125075924,-0.523377724997,-0.131609299755,-2.64346809719,-0.0710217100274,2.10989418306,-0.868030296962,-0.4524853039,0.0566147067034,0.0130026669794,0.0401473763505,0.0107154938972,0.0141547450758,-0.431021370029,0.573972965891,0.818839055963,0.00619530119587,0.0,0.818837486603,-0.57387988617,-0.0121570426053,0.0,-0.0063994257539,0.0120509906795,-0.999906906154,0.0,0.270224088403,-0.252902472325,0.304861657443,1.0,-0.0936194285715,-0.123042677551,3.04
-0.62433855955,-0.522335568641,-0.131247238768,-2.64267003873,-0.070760612749,2.11009079577,-0.875172708313,-0.404514580285,0.0597017018625,0.0277453328611,0.0448076197987,0.0128849091643,0.0115853129838,-0.406775244838,0.573930414408,0.818868711243,0.00621772192415,0.0,0.818867440213,-0.573837253336,-0.0121519111092,0.0,-0.00638298221031,0.012066073724,-0.999906829361,0.0,0.26868683832,-0.254949526838,0.304867862749,1.0,-0.0884805714286,-0.11628875102,3.057
-0.630724589702,-0.521428373674,-0.130869207409,-2.64197586705,-0.0705221970682,2.11026701205,-0.881549466151,-0.393942357727,0.0531269401961,0.0273677538598,0.0423151176143,0.0151860711857,0.0167871576441,-0.38454934757,0.573810234456,0.818952931649,0.00621751392076,0.0,0.818951708336,-0.573717195693,-0.0121418977133,0.0,-0.00637667084798,0.012059220998,-0.9999069523,0.0,0.267324014385,-0.256738039189,0.304874716414,1.0,-0.0836440000001,-0.109932114286,3.073
-0.63732960963,-0.520462106857,-0.13051997455,-2.64122300016,-0.0702846796357,2.11045152903,-0.887908281646,-0.376250522137,0.0590808948918,0.0236629287947,0.0481821035401,0.0179677407691,0.00973574387288,-0.374412887183,0.57390695722,0.818885105203,0.00622381175275,0.0,0.818884076585,-0.573814082315,-0.0121249723158,0.0,-0.00635777080783,0.0120554184123,-0.999907118505,0.0,0.265900132119,-0.258599131563,0.304886228251,1.0,-0.0785051428572,-0.103178187755,3.09
-0.643800126512,-0.519408357001,-0.130196872259,-2.64041417229,-0.0699945434613,2.11067005159,-0.894245636362,-0.357258108891,0.0566917066726,0.0220862704036,0.0424872146419,0.0180753930814,0.0130671683628,-0.340060080637,0.573954888853,0.81885109013,0.00627890558667,0.0,0.818850878834,-0.573861944869,-0.0121017918677,0.0,-0.00630646191075,0.0120876026879,-0.99990705488,0.0,0.264513849803,-0.260434847874,0.30489295186,1.0,-0.0730640000001,-0.0960269714287,3.108
-0.649168846689,-0.518513387482,-0.12987904009,-2.63976378552,-0.0697454042806,2.11085459978,-0.899484432284,-0.320205887369,0.0561254337286,0.0191301579146,0.0386204420727,0.0127957276778,0.00881745703768,-0.32068001187,0.573977762394,0.818834812697,0.006310680999,0.0,0.818834870782,-0.57388439165,-0.0121204914366,0.0,-0.00630320036539,0.012124531649,-0.99990662834,0.0,0.263361196339,-0.261935513212,0.304882738263,1.0,-0.0682274285715,-0.089670334694,3.124
-0.6544052566,-0.517612991584,-0.129448878758,-2.63910241991,-0.0694867618339,2.11102969401,-0.904719313174,-0.301165637909,0.0530100227465,0.019318531837,0.0381739594437,0.0149008750275,0.00948169526154,-0.29056970149,0.573820168367,0.818945376806,0.0062953223391,0.0,0.818945078082,-0.573726601888,-0.0121446396484,0.0,-0.00633412455118,0.0121245958484,-0.999906432143,0.0,0.262261582921,-0.263372549116,0.304877182477,1.0,-0.0630885714286,-0.0829164081634,3.141
-0.659394232974,-0.516766338744,-0.129089606403,-2.63844867682,-0.0692529195993,2.11122138159,-0.909504332571,-0.285721928129,0.051412444057,0.0177231974466,0.0424687495618,0.011275190837,0.00676547987658,-0.280775955203,0.573867155226,0.818912522909,0.00628608597995,0.0,0.818912334689,-0.573774062849,-0.0121103178115,0.0,-0.00631061931906,0.0120976998954,-0.999906906537,0.0,0.261203987374,-0.264759487167,0.304887357001,1.0,-0.0579497142858,-0.0761624816327,3.158
-0.663671004077,-0.515924940084,-0.128761582477,-2.63783404134,-0.0689999846619,2.11139878756,-0.913666064522,-0.253488711916,0.0521289722861,0.0213709628473,0.0359383667707,0.019463904045,0.0102151109536,-0.251433674452,0.573869555728,0.818910664257,0.00630903122284,0.0,0.818910662681,-0.573776142865,-0.0121248227832,0.0,-0.00630929655267,0.0121248330441,-0.999906586237,0.0,0.260312627126,-0.265949563103,0.304879489834,1.0,-0.0531131428572,-0.0698058448981,3.174
-0.667896936918,-0.515138803423,-0.128459806627,-2.63726555942,-0.0687579976054,2.11156586272,-0.91771441028,-0.241183081496,0.0387158031712,0.0100974185152,0.0313897823297,0.0185600803428,0.00596245267505,-0.226624139514,0.573934504984,0.818864900069,0.00634084585423,0.0,0.818865190307,-0.573840695194,-0.012140986165,0.0,-0.00630331338793,0.0121606629622,-0.999906188858,0.0,0.259412012113,-0.267117623804,0.304869292594,1.0,-0.0479742857144,-0.0630519183674,3.191
-0.67198815439,-0.514407332448,-0.12809809982,-2.63671852167,-0.0685176195587,2.11172099235,-0.921584948043,-0.214262694107,0.0394528845234,0.0230689735369,0.0278142275645,0.0177600808157,0.00916656141627,-0.204060555694,0.573989998921,0.818825991236,0.00634224846846,0.0,0.818826320389,-0.573896210225,-0.0121385266806,0.0,-0.00629967006923,0.0121608270263,-0.999906209823,0.0,0.258550357432,-0.268228776092,0.304869756934,1.0,-0.0425331428572,-0.0559007020409,3.209
-0.674955981195,-0.513825333717,-0.127730169702,-2.63626054025,-0.0683048376121,2.11185865753,-0.924457232457,-0.190132135583,0.0376988339741,0.0214347004828,0.0293712001604,0.0127937010862,0.0150448035829,-0.18030519117,0.573921721067,0.818874066855,0.00631408112083,0.0,0.818874278806,-0.573828558104,-0.0121015831676,0.0,-0.00628659359489,0.0121160333345,-0.999906835899,0.0,0.257966142372,-0.269025573995,0.304883457577,1.0,-0.0379988571429,-0.0499413551021,3.224
-0.677964297807,-0.513240832265,-0.127331780382,-2.63581309992,-0.0680855165599,2.11199129046,-0.927361784793,-0.169947473942,0.0281801378781,0.0275582375536,0.0234082199221,0.0150268559149,0.00983258872106,-0.162430921774,0.57384065142,0.818931143542,0.00627979425695,0.0,0.818931049993,-0.573747931943,-0.0120827500629,0.0,-0.00629204249952,0.0120765241821,-0.999907279584,0.0,0.257373006194,-0.269820832842,0.304891611992,1.0,-0.0328600000001,-0.0431874285715,3.241
-0.680796884837,-0.512691132655,-0.126963737796,-2.6354123153,-0.0678385512992,2.11211222889,-0.93005140903,-0.146541903462,0.02882731525,0.0185900406116,0.0218649042546,0.00506015351738,0.00900291478234,-0.142038774953,0.573822585803,0.818943731895,0.00628895174481,0.0,0.818943739973,-0.57372979536,-0.0120838560175,0.0,-0.0062879602078,0.0120845198333,-0.999907208663,0.0,0.256809398676,-0.27055999419,0.304889603657,1.0,-0.0274188571429,-0.036036212245,3.259
-0.682863049231,-0.512274694053,-0.12667740473,-2.63511377348,-0.0676473118351,2.11219602781,-0.931911520483,-0.127652637134,0.0285707084385,0.020706357746,0.0182733139627,0.00992824284541,0.00391700498709,-0.121000682209,0.57389196514,0.818895011805,0.00630229244558,0.0,0.818895050748,-0.573798824703,-0.0121058469566,0.0,-0.00629729093059,0.0121085975197,-0.999906858659,0.0,0.256377885292,-0.2711256815,0.304881901787,1.0,-0.0225822857144,-0.0296795755103,3.275
-0.68494149701,-0.511885205024,-0.126379362187,-2.63480748348,-0.067419236867,2.11227517568,-0.933754379909,-0.107093140614,0.0174661205369,0.0112690531696,0.0176926147516,0.00639470548763,0.00792439747488,-0.0973416514286,0.573979249775,0.818833656874,0.00632535360747,0.0,0.818834154251,-0.573886290937,-0.0120788992772,0.0,-0.00626069608328,0.0121126863235,-0.999907038936,0.0,0.255998823149,-0.271626812959,0.304894127499,1.0,-0.019812173913,-0.0260388571429,3.292
-0.686650930233,-0.511578854969,-0.126136002298,-2.634575461,-0.0672424508782,2.11235357705,-0.935350201043,-0.0944989473197,0.0134006925196,0.0171680893148,0.0148047415659,0.00896204249829,0.00233837552059,-0.0933104817415,0.573986679631,0.818828311574,0.00634308056676,0.0,0.818829167231,-0.573893886797,-0.0120560561709,0.0,-0.00623170493754,0.012114148264,-0.999907202327,0.0,0.255662607863,-0.272062718951,0.304898649051,1.0,-0.019472173913,-0.025592,3.309
-0.68808641284,-0.511287682748,-0.125955823853,-2.63434721393,-0.0671328652635,2.11238851426,-0.936755302712,-0.0868725089657,0.0160738675473,0.0100360058886,0.0135545506788,0.00756504412869,0.00108672030794,-0.0917605387463,0.573941971227,0.818859681467,0.0063389773316,0.0,0.818860382699,-0.57384901048,-0.0120720221622,0.0,-0.00624779664261,0.0121196109402,-0.999907035713,0.0,0.255372468078,-0.27244111707,0.304901794217,1.0,-0.019152173913,-0.0251714285714,3.325
-0.689613594511,-0.510947642711,-0.125798837924,-2.634081903,-0.0670801610653,2.11248180023,-0.938304477032,-0.0879877071999,0.0132502833802,0.00657322173948,0.0175339351982,1.06302984503e-05,0.00158750243528,-0.09000320262,0.573848418173,0.818925636175,0.00628826497014,0.0,0.818925862768,-0.57375606295,-0.0120481707709,0.0,-0.00625874626153,0.012063678818,-0.999907643609,0.0,0.255062132528,-0.272870591303,0.304908030815,1.0,-0.018792173913,-0.0246982857143,3.343
-0.691101549837,-0.510638899759,-0.125716484913,-2.63384052227,-0.0670304093939,2.1125353536,-0.939831797615,-0.0780025697469,0.0126155785375,0.00125028627762,0.0145810325281,-0.000183728464778,0.00259480724538,-0.0849491240668,0.573791289549,0.818965733877,0.00627930528414,0.0,0.818965811843,-0.573698924755,-0.0120536164532,0.0,-0.00626918885605,0.0120590286519,-0.999907634284,0.0,0.254733800171,-0.273294163875,0.304909806134,1.0,-0.018432173913,-0.0242251428571,3.361
-0.69233258153,-0.510372708928,-0.125686191105,-2.6336484838,-0.0669820937515,2.11256710394,-0.941051302708,-0.083571152424,0.0201045912346,0.000310037506659,0.0124743212164,0.00291151778478,0.00373242120662,-0.0779266241647,0.573809856594,0.818952565121,0.00630011568429,0.0,0.818952689205,-0.573716962258,-0.0120866440118,0.0,-0.00628402587188,0.0120951650185,-0.999907104686,0.0,0.254449795592,-0.273647531428,0.304901827475,1.0,-0.018132173913,-0.0238308571429,3.376
-0.693684109952,-0.51006698472,-0.125681159929,-2.63340751759,-0.0669429972778,2.11266393123,-0.942434821383,-0.077204153399,0.0155528435979,-0.000324918398087,0.0160032535607,-0.00212152399242,0.00134374368577,-0.0731111874692,0.5738092069,0.818952934173,0.00631130630784,0.0,0.818953448194,-0.57371673402,-0.0120459826385,0.0,-0.00624431100684,0.0120809944041,-0.999907524801,0.0,0.254145342462,-0.274059395524,0.304906340041,1.0,-0.017792173913,-0.023384,3.393
-0.695001976198,-0.509766115688,-0.125669851786,-2.63318110023,-0.0669016986543,2.11270979662,-0.94370275303,-0.0764684541003,0.0199904623301,0.00135860329539,0.0148614174883,0.000701071946272,0.000468260342955,-0.0721042950216,0.573871470313,0.818909159046,0.00633022065347,0.0,0.81890978545,-0.573778640327,-0.0120657407411,0.0,-0.00624872051125,0.0121082971389,-0.999907167007,0.0,0.253840339816,-0.27444954264,0.304901821326,1.0,-0.017452173913,-0.0229371428571,3.41
-0.696242888228,-0.509487083192,-0.125665650616,-2.63296511104,-0.0668491157869,2.11274636074,-0.944987527911,-0.075853834943,0.0157100784134,0.00167679787297,0.0131815734841,0.00114648569741,0.00541030594911,-0.0753625752179,0.573866233538,0.818912567307,0.00636396201059,0.0,0.818913505701,-0.573773005243,-0.0120812059422,0.0,-0.00624210194604,0.0121447644153,-0.999906766084,0.0,0.253552111631,-0.274816489393,0.30489968369,1.0,-0.017132173913,-0.0225165714286,3.426
-0.697607416566,-0.509179485978,-0.125636466501,-2.63272835099,-0.0668235825375,2.11282997009,-0.946374940694,-0.0774596697072,0.0162651908594,0.000230525400776,0.0176086657158,4.91537072059e-05,0.0117275681172,-0.0773540826198,0.573849829456,0.818924131801,0.00635503653323,0.0,0.818925077844,-0.57375688609,-0.0120623150154,0.0,-0.00623199486441,0.0121264896746,-0.999907050924,0.0,0.253243612447,-0.27522380388,0.304900942252,1.0,-0.016772173913,-0.0220434285714,3.444
-0.698793408676,-0.508892925675,-0.125599608459,-2.63250646655,-0.0667918879544,2.11288794602,-0.94753375555,-0.0746457922498,0.0182203525942,0.000654422789566,0.0119936700088,0.000282636965654,-0.000303752473136,-0.071190439516,0.573870816933,0.818909463931,0.00634998094616,0.0,0.818910344827,-0.57377789299,-0.01206331433,0.0,-0.00623540363423,0.0121230825426,-0.999907070988,0.0,0.252979394802,-0.2755760129,0.304901220008,1.0,-0.016452173913,-0.0216228571429,3.46
-0.700020296975,-0.508595492973,-0.125568660619,-2.63228963569,-0.0667494669112,2.11291903644,-0.948789372305,-0.0720925007691,0.0198456496684,0.00333955591605,0.00995578515668,0.00719402821139,0.00127115477799,-0.0752031870749,0.573854663976,0.81892067202,0.00636431240124,0.0,0.818921468915,-0.573761152724,-0.0121043081454,0.0,-0.00626099348468,0.0121582198271,-0.999906484453,0.0,0.252697675002,-0.275932985069,0.304892718709,1.0,-0.016112173913,-0.021176,3.477
-0.701204563221,-0.508313478475,-0.125544876324,-2.63208973157,-0.0667177759362,2.11298870624,-0.949939219301,-0.0661681563725,0.0185361038624,0.00159465748716,0.00714605353734,0.000178550171942,0.00839669951904,-0.0685029082467,0.573889847888,0.81889599037,0.00636760151101,0.0,0.81889679399,-0.573796243644,-0.0121102631706,0.0,-0.00626346071574,0.0121645997579,-0.999906391405,0.0,0.25242704203,-0.276282915519,0.304885342721,1.0,-0.015772173913,-0.0207291428572,3.494
-0.702347605009,-0.508014953585,-0.125518323843,-2.63186846295,-0.0666805770338,2.11304738471,-0.951132437976,-0.0636126044447,0.0215711936847,0.00104448519775,0.0148683051011,0.0048754979952,0.00096715294006,-0.0733804449148,0.573857192313,0.818918826665,0.00637377951986,0.0,0.818919630078,-0.573763410144,-0.0121216976252,0.0,-0.00626976563604,0.0121759709571,-0.999906213487,0.0,0.252171129818,-0.276624894832,0.304880644092,1.0,-0.015432173913,-0.0202822857143,3.511
-0.703418839741,-0.507745672072,-0.125490014202,-2.63164624511,-0.0666501331345,2.11308879711,-0.952243428697,-0.0664975533837,0.017626643619,0.000464044705453,0.0144029807972,0.0004736294076,0.000659095979493,-0.0629224249837,0.573828834196,0.818938708049,0.00637247250733,0.0,0.818939492571,-0.573735060719,-0.012121654609,0.0,-0.0062709019983,0.0121746587343,-0.999906222339,0.0,0.251932668418,-0.276947057677,0.304885771659,1.0,-0.015112173913,-0.0198617142857,3.527
-0.704623043677,-0.507458095034,-0.125458574288,-2.63142752176,-0.0666173297217,2.11316729015,-0.953415163937,-0.0640226342137,0.0177503532629,-0.00137155804218,0.0136056858181,0.00378186377541,0.00670408477208,-0.0704552810738,0.573858279332,0.818918105314,0.00636858955299,0.0,0.818918943243,-0.573764719175,-0.0121061277499,0.0,-0.00625997572715,0.0121627944381,-0.99990643519,0.0,0.251662323724,-0.277305855034,0.30488573223,1.0,-0.014752173913,-0.0193885714286,3.545
-0.705715361988,-0.507187776326,-0.125445833473,-2.63122677372,-0.0665889221683,2.11319783383,-0.954568299374,-0.0618088428993,0.018254629377,2.22618539299e-05,0.00936357613318,0.00384610539933,-0.000176151136603,-0.065083598351,0.573821935724,0.818943483889,0.00637990428441,0.0,0.818944254621,-0.573727914604,-0.0121381518178,0.0,-0.00628025207145,0.0121901584292,-0.999905974815,0.0,0.25140706022,-0.277628929242,0.304879388869,1.0,-0.014412173913,-0.0189417142857,3.562
-0.706638271723,-0.506956581306,-0.125435934565,-2.63104287509,-0.0665631234936,2.11324015021,-0.955522663187,-0.0618974571037,0.0150753417481,0.00196201158392,0.00959526977196,0.00335458285903,9.55742330564e-05,-0.0544277845574,0.573809577514,0.818952097212,0.00638577532657,0.0,0.818952941616,-0.573715526327,-0.0121375932819,0.0,-0.00627660986499,0.0121945515442,-0.999905944117,0.0,0.251196537206,-0.277907995819,0.304880844488,1.0,-0.014112173913,-0.0185474285714,3.577
-0.707702960461,-0.50671717652,-0.125424026208,-2.63083822703,-0.0665319793982,2.1133006405,-0.956511115021,-0.0604487946343,0.0150378698749,0.00357977728057,0.00875573704451,0.000812840074105,0.00709942678863,-0.05270659777,0.573887220646,0.818897664686,0.00638902594705,0.0,0.818898754579,-0.573793532527,-0.0121061422569,0.0,-0.00624783014505,0.0121797602217,-0.99990630464,0.0,0.250954267442,-0.278229728031,0.30489025176,1.0,-0.013772173913,-0.0181005714286,3.594
