nelsonifechukwu/NELSON_IML_WORK/CNN-GradCAM/train2dof/data_sample_2022-02-21-14-37-12/robot_state.csv
position_joint1,position_joint2,position_joint3,position_joint4,position_joint5,position_joint6,position_joint7,velocity_joint1,velocity_joint2,velocity_joint3,velocity_joint4,velocity_joint5,velocity_joint6,velocity_joint7,ee_T_00,ee_T_10,ee_T_20,ee_T_30,ee_T_01,ee_T_11,ee_T_21,ee_T_31,ee_T_02,ee_T_12,ee_T_22,ee_T_32,ee_T_03,ee_T_13,ee_T_23,ee_T_33,v_x,v_y,time
0.465091484886,0.547879439661,-0.123987487562,-1.3558540001,0.079461644298,1.89409705988,0.159169994602,0.00249596876653,4.79157477514e-05,-0.000485655995832,0.00129573462868,0.000180885762283,0.0021601260405,0.000315256702447,0.57379042069,0.818988400466,0.00181657010953,0.0,0.818943830646,-0.573732714941,-0.0119382140475,0.0,-0.00873520130608,0.00833786227444,-0.999927085497,0.0,0.661666217156,0.260892584244,0.30313437445,1.0,0.0,0.0,0.0
0.465093593311,0.547885023167,-0.123982170567,-1.35585684156,0.0794599620587,1.8940977821,0.159176346854,0.00100011776559,0.00178292668327,0.00102228049059,4.26247746056e-05,-0.000201055622218,-5.05106483841e-05,0.000834814419019,0.573789904158,0.818988776432,0.00181021176143,0.0,0.818944110001,-0.573732212444,-0.0119431988826,0.0,-0.00874293736933,0.00833550968647,-0.9999270375,0.0,0.661663883359,0.260896420132,0.303128950368,1.0,-0.00024,-0.000315428571429,0.013
0.465087980464,0.54787682824,-0.12398805993,-1.35586080601,0.0794627850448,1.89409816021,0.159168010346,0.000121035066447,8.49763357873e-05,0.000352468928779,-0.000236301099982,0.000280646617342,0.00736071690916,-0.00111015242066,0.573792742172,0.818986778226,0.00181466851043,0.0,0.818942170307,-0.573735031527,-0.0119407785863,0.0,-0.00873836912954,0.00833780118553,-0.999927058328,0.0,0.661665926468,0.260889419541,0.303133101961,1.0,-0.00056,-0.000736,0.029
0.465082665715,0.547855413872,-0.123982779252,-1.35588728891,0.0794613483861,1.89409823121,0.159171626629,-0.000442887107999,-0.00155929027043,0.00149369098613,-0.00114658866046,0.000228859399687,-0.000628614018917,0.00546061713418,0.573797393812,0.818983524584,0.00181224028678,0.0,0.818938843846,-0.573739653681,-0.0119468294995,0.0,-0.0087446707786,0.00833933415439,-0.999926990454,0.0,0.661660689713,0.260885867764,0.303135496884,1.0,-0.00092,-0.00120914285714,0.047
0.465081395305,0.547764926358,-0.123982858248,-1.35598631024,0.0794619417801,1.89412103582,0.159166419017,-0.000408877834105,-0.00648054608451,0.00213695415503,-0.00905269495676,-4.20565924719e-05,0.000264397138511,-0.000414550485291,0.57379978791,0.818981809506,0.00182920585286,0.0,0.818937271098,-0.573741899907,-0.0119467652485,0.0,-0.0087348595527,0.00835321704051,-0.999926960329,0.0,0.661645249537,0.260876064996,0.303154454928,1.0,-0.00124,-0.00162971428571,0.063
0.465083269646,0.547636909501,-0.123980728504,-1.35616124405,0.079457767407,1.89414793767,0.159165935477,0.000130317834063,-0.0069189328603,0.000699462822437,-0.0162526286405,-0.000169441896052,-0.000267013101471,0.000216134416246,0.573804767983,0.818978345528,0.00181788268908,0.0,0.818933538941,-0.573746812605,-0.011966650535,0.0,-0.00875759186892,0.00835540710521,-0.999926743195,0.0,0.661613144992,0.260860600373,0.303164141083,1.0,-0.00156,-0.00205028571429,0.079
0.465061953972,0.547477428588,-0.123986101736,-1.356383687,0.0794556082487,1.89424402133,0.159157210506,-0.00219609093136,-0.00824122349457,-0.000285091489287,-0.0123127388951,0.000178539367834,0.010202184102,-0.000242361193612,0.573830791176,0.818960039002,0.00185054535181,0.0,0.818915601112,-0.573772638338,-0.0119559462522,0.0,-0.00872981799617,0.00837629182589,-0.999926811328,0.0,0.661592436236,0.260825260411,0.303179758814,1.0,-0.00192,-0.00252342857143,0.097
0.465042104615,0.547283626558,-0.123983645981,-1.35659606477,0.0794492661103,1.89437508809,0.159152754881,-0.000830918133202,-0.0107070608487,0.000113095247779,-0.0126748237146,0.000220253696671,0.00594587556372,0.00127249934623,0.573852164354,0.818944832908,0.00194962067957,0.0,0.818901687198,-0.573793593991,-0.0119031550458,0.0,-0.00862951360826,0.00842736120237,-0.999927252893,0.0,0.661579978707,0.260798781836,0.303227241409,1.0,-0.00226,-0.00297028571429,0.114
0.465019340259,0.547083791498,-0.123980753374,-1.3568395628,0.079445795457,1.89449536314,0.159135915935,-0.00105859563634,-0.0126693850491,0.00128059568372,-0.0161070130117,-0.00122244071404,0.0083701098798,-0.00275933549025,0.573867840577,0.818933673789,0.00202148155522,0.0,0.818891389058,-0.573808899994,-0.0118737574144,0.0,-0.00856404055783,0.00846950442987,-0.999927459721,0.0,0.661558872706,0.260766736382,0.303263232389,1.0,-0.00258,-0.00339085714286,0.13
0.464978568316,0.546856660254,-0.123980429686,-1.35719651623,0.0794385119852,1.8946277217,0.159105987532,-0.00426832140393,-0.0167325521948,0.00156580911665,-0.0190981249254,0.000279297083768,0.00686887812896,-0.00116720262126,0.573894547596,0.818914934226,0.00203116797533,0.0,0.818872644333,-0.573835434393,-0.0118841700904,0.0,-0.00856673314663,0.00848369164598,-0.999927316388,0.0,0.661520343037,0.260708369803,0.303265674906,1.0,-0.00292,-0.00383771428571,0.147
0.464937540277,0.546573974993,-0.123981169529,-1.3575995348,0.0794263298242,1.89477248003,0.158985145434,-0.00920764621397,-0.0198429270788,-0.000198180463612,-0.025042220438,-0.000322522697574,0.00694039582607,-0.00227497814358,0.573848950608,0.818946814656,0.00205998834779,0.0,0.818904780671,-0.57378960738,-0.0118824895325,0.0,-0.0085492916479,0.00850585221898,-0.999927277401,0.0,0.661475747261,0.260644533681,0.303286624419,1.0,-0.00326,-0.00428457142857,0.164
0.464901639686,0.546299822279,-0.123986317906,-1.3580438245,0.0794116506939,1.89493301522,0.158936908673,-0.00312790096988,-0.0135489147071,-0.0011377461629,-0.0327471039151,0.000282339613683,0.012639465934,-0.00168027244815,0.573863397008,0.818936699714,0.00205677828477,0.0,0.818894531518,-0.573803973148,-0.0118951061831,0.0,-0.00856131628052,0.00851061438765,-0.999927133998,0.0,0.661424379187,0.260577187148,0.303283383594,1.0,-0.00358,-0.00470514285714,0.18
0.46485713682,0.545982817873,-0.123986050057,-1.35857985497,0.0793585990634,1.89511652664,0.158897105892,-0.00174822804022,-0.0166624203694,-2.09955646305e-05,-0.0340190639416,-0.00502517783062,0.0137301408498,-0.002818608004,0.573882881375,0.818923151106,0.0020144350309,0.0,0.818880594053,-0.5738237893,-0.0118986729434,0.0,-0.00858833335007,0.00847818969949,-0.999927177763,0.0,0.661360765105,0.26049230084,0.303268548222,1.0,-0.00392,-0.005152,0.197
0.464796842131,0.545606208575,-0.123988256933,-1.35921956216,0.0792763408394,1.89533375108,0.158793606302,-0.00229866429139,-0.0215764643913,-0.000928959920655,-0.0373287884834,-0.000275170739879,0.0139744257484,-0.003199854758,0.573862844603,0.818937346716,0.00195054846085,0.0,0.81889433181,-0.573804385072,-0.0118889823928,0.0,-0.0086172643448,0.00842010044689,-0.999927419698,0.0,0.6612878901,0.260381575129,0.303249499859,1.0,-0.00428,-0.00562514285714,0.215
0.464740706536,0.545233073756,-0.123989354123,-1.35986793726,0.0792635613668,1.89553952311,0.158725743097,-0.00119995428007,-0.0249390631233,-0.00157435418257,-0.0420622404443,0.000431892998645,0.0109004933144,-0.00464933915418,0.573886645161,0.818920774471,0.00190539958767,0.0,0.818876883194,-0.573828090628,-0.0119465257613,0.0,-0.00869005363185,0.00841640130787,-0.999926820901,0.0,0.661205339869,0.260283642616,0.303222934844,1.0,-0.0046,-0.00604571428571,0.231
0.464673702376,0.544802428456,-0.123989230654,-1.36057620314,0.0792412907633,1.89577987781,0.15863814221,-0.0061196167875,-0.0258208428653,0.00014940477814,-0.0421723415966,0.000575377103486,0.0115302990335,-0.00751056223004,0.573903175251,0.818909237676,0.00188488349743,0.0,0.818864852615,-0.573844487111,-0.0119835163767,0.0,-0.00873195037401,0.00842100507705,-0.999926417151,0.0,0.661120442856,0.260173697548,0.303211482852,1.0,-0.00494,-0.00649257142857,0.248
0.464604010363,0.544352332997,-0.123990225669,-1.36132840601,0.0792049399255,1.89605621522,0.158532015658,-0.00410882243869,-0.0307535440975,5.92871700782e-05,-0.0463613613694,-0.0060047955597,0.0168613611397,-0.00446417839783,0.573906341917,0.818907060195,0.00186664720153,0.0,0.818862346017,-0.57384764384,-0.0120036176252,0.0,-0.00875884475756,0.00841764145335,-0.999926210253,0.0,0.661034781436,0.26005653636,0.303195980135,1.0,-0.00528,-0.00693942857143,0.265
0.464537854282,0.543875255701,-0.12398994382,-1.36210765172,0.0791681653744,1.89632822884,0.158462632414,-0.00549621830372,-0.0314505624573,0.000246176476415,-0.0473371153716,0.00017545110503,0.0176603854825,-0.0044727788928,0.573937044928,0.81888558876,0.00184604503302,0.0,0.818840480235,-0.573878311921,-0.0120290455223,0.0,-0.00879117607482,0.00841569326989,-0.999925942923,0.0,0.660941454756,0.259939240529,0.303186233889,1.0,-0.0056,-0.00736,0.281
0.464453080142,0.54331172758,-0.124000846385,-1.36300548827,0.0791099962622,1.8966372595,0.158320156593,-0.00741541322903,-0.0269251236615,-0.000159171438697,-0.0475726056729,0.00043401479523,0.0184074958221,-0.00952044101949,0.573931760257,0.818889350418,0.00182023125875,0.0,0.818843954393,-0.573873187802,-0.0120370086248,0.0,-0.00881256592795,0.00839906861819,-0.999925894418,0.0,0.66083896567,0.259789276404,0.3031846953,1.0,-0.00596,-0.00783314285714,0.299
0.46437789202,0.542781493658,-0.123999413943,-1.36385858593,0.0790707124044,1.89694392649,0.158229209087,-0.00583933101934,-0.0348694795828,0.00047040504105,-0.0560948343618,0.00018313667748,0.0192536116756,-0.00441983044219,0.573954787949,0.81887322694,0.00181286873225,0.0,0.818827593001,-0.573896109946,-0.0120571485252,0.0,-0.00883304787077,0.00840484688485,-0.999925665144,0.0,0.660738924545,0.259660570729,0.303180254532,1.0,-0.00628,-0.00825371428571,0.315
0.464306503818,0.542223293891,-0.124007318002,-1.36472003751,0.079014179782,1.89726256132,0.158093655848,-0.00675948976097,-0.0364074397851,-0.00152296607341,-0.0516097929983,-0.00285279804634,0.0180656277329,-0.0124136943721,0.573940553842,0.818883184036,0.00182166382715,0.0,0.818837737666,-0.573881908214,-0.0120441562146,0.0,-0.00881750684111,0.00840443858686,-0.99992580574,0.0,0.660642077779,0.25952637427,0.303192861377,1.0,-0.0066,-0.00867428571429,0.331
0.464218138322,0.541553626521,-0.124012938342,-1.36573723539,0.0789556498424,1.89764573105,0.15796262735,-0.00422761155862,-0.0345001106494,-0.000159028385739,-0.0544792180608,-0.00515662075339,0.0213340052732,-0.010074411877,0.573950415446,0.818876203967,0.00185204952858,0.0,0.818831157746,-0.573891639273,-0.0120278168181,0.0,-0.00878658640709,0.0084200484314,-0.9999259466,0.0,0.660528963838,0.259369326373,0.303215606637,1.0,-0.00696,-0.00914742857143,0.349
0.464133043146,0.540880324466,-0.124005224929,-1.36678510001,0.0788943344036,1.89803843774,0.157820972175,-0.000625493597252,-0.039110309419,-0.00102661093966,-0.0631046130627,-0.0059342263249,0.0244630116637,-0.00785901449532,0.573940440499,0.818883154548,0.00186998870827,0.0,0.818838280111,-0.573881527829,-0.0120253874347,0.0,-0.00877440415474,0.0084332368651,-0.999925942432,0.0,0.660406830729,0.259218778691,0.303226614321,1.0,-0.0073,-0.00959428571429,0.366
0.464047065834,0.540200087789,-0.124008411035,-1.36783127225,0.0788153700491,1.89841506759,0.157707462,-0.00072289187316,-0.0409993437287,-0.000156409611344,-0.0704669094791,-0.00625482990351,0.0288680457513,-0.00566586251573,0.573956848005,0.818871655308,0.00186966884147,0.0,0.81882691645,-0.573898069033,-0.012009752622,0.0,-0.00876161535981,0.008424177124,-0.99992613094,0.0,0.660285579986,0.259057689952,0.303242154441,1.0,-0.00762,-0.0100148571429,0.382
0.463941128381,0.539465489598,-0.124011961948,-1.36897374051,0.0787679002207,1.89885578815,0.157568292031,-0.00466369694232,-0.0390446585289,-0.000657551315252,-0.0684041659444,-0.000646955180361,0.0173077679295,-0.00329569669569,0.573982762819,0.81885340355,0.0019074544412,0.0,0.818808991832,-0.573923657947,-0.012009023507,0.0,-0.00873906479583,0.00845497612376,-0.99992606833,0.0,0.660159583816,0.258881936861,0.303255807879,1.0,-0.00796,-0.0104617142857,0.399
0.463826571971,0.538657583738,-0.124012307143,-1.37023173434,0.0786960029197,1.89934018988,0.157414024974,-0.00599693736923,-0.0455364459255,0.00177939032115,-0.0674344668615,-0.00150623127748,0.0311254203518,-0.0091390547147,0.574000864622,0.818840643973,0.0019375480613,0.0,0.818796603669,-0.573941608152,-0.0119957972852,0.0,-0.0087107746332,0.00847221890204,-0.999926169231,0.0,0.660020111309,0.258688632089,0.303269784548,1.0,-0.00832,-0.0109348571429,0.417
0.463731759879,0.537962570391,-0.124014776241,-1.3713123802,0.0786282758215,1.89975072859,0.157275295909,-0.00167968989906,-0.0450312082896,0.000836267799906,-0.06873135358,-0.00727377694162,0.0296603402145,-0.00565996368381,0.574008175985,0.818835474765,0.00195603402389,0.0,0.818791714327,-0.573948877795,-0.0119816997488,0.0,-0.00868854455073,0.00847934132328,-0.999926302266,0.0,0.659898890466,0.258522375723,0.303281958904,1.0,-0.00862,-0.0113291428571,0.432
0.463615654264,0.537088105085,-0.124029418444,-1.37268014146,0.0785463285195,1.90026107828,0.157109904853,-0.00297083092361,-0.0507698148351,-0.00117372943513,-0.0772384991365,-0.00625321959219,0.0303685483403,-0.0114430153246,0.574031526089,0.818819080568,0.001966533838,0.0,0.81877551631,-0.573972238526,-0.0119695527869,0.0,-0.00867232934783,0.00848121370104,-0.999926427152,0.0,0.659744597067,0.258307761947,0.303293119383,1.0,-0.00898,-0.0118022857143,0.45
0.463502352993,0.536194153365,-0.124030094481,-1.37407187227,0.0784804586611,1.90078537306,0.15693442344,-0.00711156735343,-0.0492412296103,0.00037095273859,-0.0779421971459,-0.00917253528798,0.0238313362095,-0.011031879964,0.574040060502,0.818813020882,0.00199816778647,0.0,0.81876970361,-0.57398047647,-0.0119721335676,0.0,-0.00865619621336,0.00850868734238,-0.99992633354,0.0,0.65958289955,0.258104068929,0.303307236472,1.0,-0.00934,-0.0122754285714,0.468
0.463396409629,0.535409204274,-0.124030084052,-1.37533309925,0.0783950706538,1.90123532201,0.156776938922,-0.00767395239129,-0.0540500174486,0.000411485217469,-0.0851870853912,-0.00807254240117,0.03535419806,-0.0134156854483,0.574044103532,0.818810254013,0.0019702854456,0.0,0.81876661533,-0.57398467792,-0.011981904486,0.0,-0.00868015971878,0.00849150905265,-0.999926271833,0.0,0.659432498552,0.257911518419,0.303299866817,1.0,-0.00964,-0.0126697142857,0.483
0.463270627723,0.534510267935,-0.124029322969,-1.37678682369,0.0783226096888,1.90176292999,0.156604268359,-0.00886786849923,-0.0533593340492,0.00171813213907,-0.0880774885648,-0.00195390605721,0.0334654730698,-0.0146458786346,0.574065441031,0.818795331764,0.00195473701359,0.0,0.818751310025,-0.57400590284,-0.0120109424199,0.0,-0.00871264074457,0.00849567401618,-0.999925953966,0.0,0.659259775026,0.257692331554,0.303287906384,1.0,-0.00998,-0.0131165714286,0.5
0.463142567139,0.533593400483,-0.124039275796,-1.37826112972,0.0782345476389,1.90230852551,0.156422677592,-0.012706984529,-0.0538795073179,-0.00194103852027,-0.0850381558929,-0.00426874223149,0.0312189001785,-0.0101574249887,0.574086612369,0.818780498662,0.00195023363656,0.0,0.818736436739,-0.574027108899,-0.0120113406985,0.0,-0.00871533234784,0.00849244073585,-0.999925957975,0.0,0.659080837058,0.257447642381,0.303285475785,1.0,-0.01034,-0.0135897142857,0.518
0.463018329629,0.532635873737,-0.124042525974,-1.37978050865,0.0781522116103,1.90288890321,0.156234987153,-0.0105756517238,-0.0604390583283,-0.000520461927315,-0.0892136438903,-7.46226620523e-05,0.0310022615635,-0.00254761695036,0.574097110388,0.81877311457,0.00196000068509,0.0,0.818729114632,-0.574037500016,-0.0120138391475,0.0,-0.0087116623299,0.00850198365433,-0.999925908862,0.0,0.658914230825,0.257236433522,0.303282922365,1.0,-0.01066,-0.0140102857143,0.534
0.462881382717,0.531650708208,-0.124037189278,-1.38135099384,0.0780514876252,1.90345468389,0.156022614206,-0.00763070196627,-0.059840475313,-0.00027593775349,-0.0921125616502,-0.00696388110131,0.0336895980943,-0.0129477111201,0.574090058993,0.818778103435,0.00194123735751,0.0,0.818733837411,-0.574030509261,-0.0120260058365,0.0,-0.0087324689089,0.00849353063797,-0.999925799209,0.0,0.658726411412,0.256997927289,0.303278721608,1.0,-0.011,-0.0144571428571,0.551
0.462741013414,0.530642807407,-0.124039338726,-1.3829953811,0.0779553582067,1.9040299107,0.155816841541,-0.00982443004716,-0.0605364289723,-0.000285929462202,-0.098377296274,-0.000877711402561,0.0341386572984,-0.00611204740238,0.574101510419,0.818770193833,0.00189005984365,0.0,0.818725162286,-0.574042086912,-0.0120639128898,0.0,-0.00879276768613,0.0084735133052,-0.999925440625,0.0,0.658525704596,0.256745753528,0.303256241296,1.0,-0.01134,-0.014904,0.568
0.462602683442,0.529669702577,-0.124038242544,-1.38453869379,0.0778602065669,1.90460536089,0.155604511794,-0.0102410848685,-0.0595285461902,0.000217736158618,-0.092250684271,-0.00602176603318,0.0379837064502,-0.023266992652,0.574098415711,0.818772357075,0.00189295269341,0.0,0.818727355532,-0.574038972448,-0.0120632630486,0.0,-0.00879060694775,0.00847547553652,-0.999925442993,0.0,0.658345988232,0.256508545492,0.303257025805,1.0,-0.01166,-0.0153245714286,0.584
0.462462378933,0.52856015879,-0.124046078233,-1.3862234689,0.0777464094633,1.90524737963,0.155371112865,-0.0140455647718,-0.0654387435961,-0.000526641826919,-0.101273205401,-0.00575824101503,0.0380810761335,-0.0134403290998,0.574088441173,0.818779237857,0.00194120265091,0.0,0.818735020526,-0.574028939597,-0.0120203814563,0.0,-0.00872790030741,0.00849025610852,-0.999925866906,0.0,0.658153200804,0.256251380705,0.303292343493,1.0,-0.012,-0.0157714285714,0.601
0.462331280427,0.52744202988,-0.124044263225,-1.38795373411,0.0776490103467,1.90591645396,0.155138916326,-0.00904432551004,-0.0665637780912,0.000759540893652,-0.0995618161372,-0.00429625550205,0.0348666764862,-0.0109936460366,0.574071950293,0.818790676062,0.00199288275198,0.0,0.818747073378,-0.574012171969,-0.0120001320199,0.0,-0.0086818244045,0.00852077016445,-0.999926008463,0.0,0.657949423584,0.256005087958,0.303313858311,1.0,-0.01234,-0.0162182857143,0.618
0.462186033312,0.526345299637,-0.124047730346,-1.38964875205,0.0775422301229,1.90655594129,0.154911178285,-0.0108017033774,-0.0708806205005,0.000514087498475,-0.108756367713,-0.0157991983891,0.0314592114704,-0.00648944616845,0.574069613979,0.818792236975,0.00202432112888,0.0,0.818749093005,-0.574009751192,-0.011978110891,0.0,-0.0086457706015,0.00853384488655,-0.999926209349,0.0,0.657752267138,0.255746840928,0.303334393801,1.0,-0.01266,-0.0166388571429,0.634
0.462038100496,0.52516889193,-0.124052451086,-1.39150122133,0.0774120902935,1.9072065849,0.154654558415,-0.00842853182825,-0.0629239787168,-0.000907871166411,-0.107831381669,-0.0101734058098,0.036427882508,-0.0163032594708,0.574048311411,0.818807249771,0.00199268422109,0.0,0.818763796698,-0.573988686282,-0.011982493006,0.0,-0.00866774082624,0.00851023142337,-0.999926220393,0.0,0.65752417548,0.255465514321,0.303336747519,1.0,-0.013,-0.0170857142857,0.651
0.461884069292,0.523991645682,-0.124053132688,-1.39339603806,0.0773101327499,1.90789298024,0.154390049834,-0.0087297231113,-0.0667128255744,0.0012064289787,-0.111008077756,-0.00721018707959,0.0428857218644,-0.00927969610047,0.574032660495,0.818818270765,0.00197257381866,0.0,0.818774382088,-0.573972952888,-0.0120128053228,0.0,-0.00870426804614,0.00851099937209,-0.999925896558,0.0,0.657291781186,0.255184482279,0.30332227651,1.0,-0.01334,-0.0175325714286,0.668
0.461731626081,0.522840358443,-0.124057018217,-1.39521144061,0.0771888644154,1.90858719445,0.154151194473,-0.00755332384341,-0.0761924581818,0.00120829937811,-0.115244811607,-0.00571225205876,0.0411314066336,-0.0168033909651,0.574029342105,0.818820556283,0.00198945048481,0.0,0.818777010682,-0.573969683582,-0.0119898293811,0.0,-0.00867580153437,0.00851159406699,-0.999926138889,0.0,0.657079744776,0.254909165451,0.303327769838,1.0,-0.01366,-0.0179531428571,0.684
0.461570545644,0.52160614737,-0.124062375888,-1.39718222592,0.0770753157212,1.90935573587,0.153876612079,-0.0102803196748,-0.0711731496426,-8.98126064115e-05,-0.120766647883,-0.012238342972,0.0444763681613,-0.0206119574439,0.574015284231,0.818830346262,0.00201603855789,0.0,0.818787138034,-0.573955506156,-0.0119769130008,0.0,-0.00865010993012,0.00852580170945,-0.999926240431,0.0,0.656849626199,0.254616251683,0.303323805675,1.0,-0.014,-0.0184,0.701
0.461383985915,0.5201786891,-0.124064881836,-1.39945458879,0.0769303783773,1.91018492787,0.153578829033,-0.0109561673075,-0.0756530832021,0.0012974459528,-0.1156653263,-0.00802053042301,0.048136870294,-0.0135561926715,0.574007927195,0.818835548971,0.00199753847833,0.0,0.818792115509,-0.5739482437,-0.0119846583257,0.0,-0.00866714744746,0.00851502158073,-0.999926184757,0.0,0.656572328612,0.25427415829,0.303316794446,1.0,-0.01438,-0.0188994285714,0.72
0.461234213472,0.519007690934,-0.124069205731,-1.40128913552,0.0768088505994,1.91083227819,0.153333988886,-0.00731559504217,-0.0756358783312,0.000946470556137,-0.116928305138,-0.00748249585483,0.0410692898274,-0.0191676717777,0.57399758375,0.818842846723,0.00197816069827,0.0,0.818799194726,-0.57393801703,-0.0119907557943,0.0,-0.00868337016223,0.0085025449404,-0.999926150179,0.0,0.656344436616,0.253995278603,0.303321961367,1.0,-0.01468,-0.0192937142857,0.735
0.461059110842,0.517638793278,-0.124074807703,-1.40340344451,0.0766738615567,1.91159874881,0.153053407636,-0.0120979235288,-0.0818444977431,-4.06739748391e-05,-0.122625983313,-0.00323812497415,0.0524632232336,-0.0115237305468,0.573990659207,0.81884766724,0.00199195873888,0.0,0.818804223431,-0.573931062702,-0.0119802278118,0.0,-0.00866690146553,0.00850772688754,-0.999926248981,0.0,0.656086158222,0.253674359214,0.303342869354,1.0,-0.01502,-0.0197405714286,0.752
0.460874128875,0.516301743111,-0.124075515598,-1.40555831443,0.0765410043611,1.91240428171,0.152734053222,-0.0138792457405,-0.0833013005272,0.0012819533989,-0.132404668607,-0.0154328999099,0.0456773238149,-0.0163392778796,0.573959296506,0.818869682483,0.00197887982998,0.0,0.81882605153,-0.573899742929,-0.0119887156934,0.0,-0.00868168433682,0.00850155686433,-0.999926173219,0.0,0.655825716993,0.253347597734,0.303325024091,1.0,-0.01536,-0.0201874285714,0.769
0.460705756158,0.515001798421,-0.124084020947,-1.40761533666,0.0764123867443,1.91318022351,0.152457244926,-0.0129778130578,-0.0814730111461,-0.00141924803926,-0.128811894153,-0.00821567574814,0.0603715385507,-0.0158027285136,0.57395036438,0.818875917015,0.00198963881151,0.0,0.818832479997,-0.573890819026,-0.0119768293112,0.0,-0.00866586848283,0.00850345014735,-0.999926294313,0.0,0.655578169119,0.253037034178,0.303324987827,1.0,-0.01568,-0.020608,0.785
0.46051829545,0.513587284757,-0.1240816909,-1.40988779606,0.0762800152996,1.91395622177,0.152145221194,-0.00862362159674,-0.0786670765045,0.000893319628908,-0.130974274072,-0.00686593405821,0.0450447970489,-0.0172603633868,0.573930072354,0.818890292916,0.00192538726028,0.0,0.818845805086,-0.573870596403,-0.012034657388,0.0,-0.00875030944884,0.00848381040636,-0.999925725764,0.0,0.65528420993,0.252695745129,0.303302006633,1.0,-0.01602,-0.0210548571429,0.802
0.460302098372,0.512075840009,-0.124086638981,-1.41231251348,0.0761262243944,1.91482879476,0.151806929332,-0.0118797723144,-0.0860186564371,0.000344095770477,-0.133975313144,-0.00144033730492,0.0502374396554,-0.0260712903963,0.573918951019,0.818898178711,0.00188612471689,0.0,0.81885316673,-0.573859635846,-0.0120563918795,0.0,-0.00879075575808,0.00846401393635,-0.999925538768,0.0,0.654984991027,0.25231772995,0.303282583853,1.0,-0.01638,-0.021528,0.82
0.460126382314,0.510805141434,-0.12407983656,-1.41434699358,0.0760059331783,1.91560573973,0.151517651145,-0.012259096488,-0.0879607550016,0.00118155104551,-0.142513454278,-0.00803350125877,0.0578481710214,-0.0251799364951,0.573895139487,0.818914836535,0.0018990200103,0.0,0.818869914578,-0.573835695458,-0.0120583796368,0.0,-0.00878522966373,0.0084754589961,-0.999925490391,0.0,0.654737785188,0.252015154141,0.30327120064,1.0,-0.01668,-0.0219222857143,0.835
0.459908738381,0.50922617529,-0.124090819335,-1.41683890053,0.0758558703924,1.91652954247,0.151163933383,-0.0159778245834,-0.0889066766595,0.00062030683993,-0.141676958877,-0.0134823301221,0.0450167411169,-0.0196753288257,0.573880830866,0.818924847064,0.00190623387513,0.0,0.818880003599,-0.573821342002,-0.012056287601,0.0,-0.00877952483249,0.00848001241468,-0.999925501892,0.0,0.654434180484,0.251629768281,0.303270710204,1.0,-0.01704,-0.0223954285714,0.853
0.45969680557,0.507706156653,-0.12409964518,-1.41923351694,0.075698212227,1.91738040535,0.150841135878,-0.0119003403745,-0.0847488848319,-0.000991433852523,-0.141732663395,-0.00735816287954,0.0538843649717,-0.0136166815301,0.573877652851,0.81892713781,0.00187867434667,0.0,0.818881978799,-0.573818327579,-0.0120655971091,0.0,-0.00880299661984,0.00846275204995,-0.99992544176,0.0,0.654135134793,0.251254141122,0.303268309151,1.0,-0.01738,-0.0228422857143,0.87
0.459488348054,0.506228333835,-0.124102837197,-1.42152059125,0.0755558286067,1.9182363326,0.150523524796,-0.0158355893767,-0.0979600275188,2.41978778505e-05,-0.14689902144,-0.00853368357846,0.0526599035363,-0.0195621888916,0.573870384752,0.818932144491,0.00191601817936,0.0,0.818887482812,-0.573810906888,-0.0120449380082,0.0,-0.0087647235323,0.00848139980623,-0.999925619973,0.0,0.653857835481,0.250899099455,0.303287309728,1.0,-0.0177,-0.0232628571429,0.886
0.45926368366,0.504588935804,-0.124109571827,-1.42399452863,0.0753924102843,1.9192003517,0.150185288953,-0.0162008233413,-0.0996964198167,-2.06866139114e-05,-0.144538624406,-0.0122864878612,0.055200393681,-0.0184949409381,0.57386564847,0.818935220987,0.0020169864352,0.0,0.818892052233,-0.573805911794,-0.0119720207364,0.0,-0.00864711719072,0.0085221896832,-0.999926297108,0.0,0.653566613107,0.250515333602,0.30333915525,1.0,-0.01804,-0.0237097142857,0.903
0.459030305837,0.502921091766,-0.124112693571,-1.42646874328,0.0752329815548,1.92013439252,0.149841550915,-0.0139572867386,-0.10206394192,-0.000992711056427,-0.148049740148,-0.0147728640012,0.0522739569484,-0.0136483890188,0.573861375784,0.818937950403,0.00212171485531,0.0,0.818896225753,-0.573801286105,-0.0119080818441,0.0,-0.00853470174537,0.00857121753965,-0.999926843872,0.0,0.653270158205,0.250127067993,0.303407352379,1.0,-0.01838,-0.0241565714286,0.92
0.458809102824,0.501308527398,-0.124116113477,-1.42887709241,0.0750792266519,1.92098931758,0.149508573837,-0.0108654600174,-0.104521586098,0.00047886673488,-0.152441418555,-0.00981945331801,0.0571183342886,-0.0247993377145,0.573853539612,0.818943311765,0.00217119576096,0.0,0.818902213427,-0.57379323306,-0.0118843359481,0.0,-0.00848694340416,0.00859803080293,-0.999927020166,0.0,0.652967930208,0.249749398705,0.303460843405,1.0,-0.0187,-0.0245771428571,0.936
0.458560599204,0.499598785066,-0.124116731151,-1.43148008695,0.074913469657,1.92192163712,0.149140687416,-0.0115701540576,-0.101340281082,0.000469356977904,-0.157383030201,-0.00951515400846,0.0603841014781,-0.0143532422845,0.573845823136,0.818948626235,0.00220584653816,0.0,0.818907930208,-0.573785329674,-0.0118719920511,0.0,-0.00845703202185,0.00861924422089,-0.999927090961,0.0,0.652621943068,0.249313549074,0.303497526195,1.0,-0.01906,-0.0250502857143,0.954
0.458304740693,0.497924505406,-0.124122365356,-1.43413711178,0.0747507507784,1.92290788599,0.148757334302,-0.0147698690555,-0.102400428445,-0.000103670744676,-0.161036905926,-0.0130298117913,0.0614553887757,-0.0242301786055,0.573821872777,0.818965398178,0.00220948200503,0.0,0.818924720474,-0.573761338292,-0.0118733221477,0.0,-0.00845628745795,0.00862273739863,-0.999927067141,0.0,0.652295646915,0.248895119737,0.30348635458,1.0,-0.0194,-0.0254971428571,0.971
0.458058284382,0.496356267983,-0.124120153886,-1.43664955033,0.0746010674383,1.923792607,0.148377094795,-0.0139850518456,-0.100842496027,-0.000549311360729,-0.160828158197,-0.0177537956154,0.0520009706983,-0.0246255500993,0.573813244533,0.818971578813,0.00215879504191,0.0,0.818930086062,-0.573752757432,-0.011917817845,0.0,-0.00852190356152,0.00860666963989,-0.999926648508,0.0,0.651974648549,0.2484882964,0.303460084989,1.0,-0.01972,-0.0259177142857,0.987
0.457769512186,0.494579457302,-0.124128067622,-1.43953362253,0.0744214706259,1.9247817908,0.147968708407,-0.0169602095714,-0.101274410615,-0.00247215754827,-0.155293320459,-0.0129980315642,0.0588643577051,-0.0231366419904,0.573814131776,0.818971220357,0.00205652657707,0.0,0.818928238108,-0.573753910249,-0.0119890869381,0.0,-0.00863894332196,0.00856382007863,-0.999926012085,0.0,0.651622794587,0.248040652885,0.303409051373,1.0,-0.0205988571429,-0.0270727836735,1.004
0.457520645951,0.492831366068,-0.12416942662,-1.44231942875,0.0742485279875,1.92581927389,0.147571856705,-0.018309393365,-0.116040743973,-0.00220182577932,-0.183334477919,-0.00736206948796,0.0672384682535,-0.0281235855272,0.573815994084,0.818969944718,0.002044867398,0.0,0.818926955535,-0.573755964978,-0.0119783576265,0.0,-0.00863682630166,0.00854813479975,-0.999926164586,0.0,0.651279753585,0.24758955242,0.303391359662,1.0,-0.0238994285714,-0.031410677551,1.02
0.457201032214,0.490689248116,-0.124185652554,-1.44573205847,0.0740492573417,1.92704767271,0.147084636926,-0.0223667113365,-0.13161060233,-5.38231677206e-05,-0.21328760327,-0.00809617316235,0.074244783989,-0.025817650939,0.573807269778,0.818976138664,0.00201205126036,0.0,0.818932556474,-0.573747217587,-0.0120143730665,0.0,-0.00868524326803,0.00854183334654,-0.999925799063,0.0,0.65084444101,0.247046917638,0.303364478309,1.0,-0.0274062857143,-0.0360196897959,1.037
0.456811409336,0.488258064701,-0.1241974412,-1.44962715627,0.0738147547087,1.92844820837,0.146525657752,-0.0223020219454,-0.151848679014,-0.00068361388158,-0.239439798245,-0.0112104928697,0.0897414355328,-0.028344655916,0.573803811782,0.818978672126,0.00196649127454,0.0,0.818934335668,-0.573743799264,-0.012056266944,0.0,-0.00874573169993,0.00852852335432,-0.99992538545,0.0,0.6503208671,0.246373598398,0.303326509676,1.0,-0.0311194285714,-0.0408998204082,1.055
0.45633683928,0.485295289175,-0.124231667783,-1.45416261246,0.0735309663116,1.93020028871,0.145847326103,-0.0271308086249,-0.168065044628,0.00156863426918,-0.257950221907,-0.0128828110203,0.108023465517,-0.0362542916286,0.573813089198,0.818971839101,0.00210055372162,0.0,0.818929455755,-0.573752708797,-0.0119633835452,0.0,-0.0085926412711,0.00858511667546,-0.999926228423,0.0,0.649807729762,0.245660317006,0.303374544058,1.0,-0.0346262857143,-0.0455088326531,1.072
0.45589782922,0.482560075718,-0.124272828551,-1.45837457292,0.0732747068662,1.93164939654,0.145198182914,-0.0330650714864,-0.182169690688,-0.00754913251435,-0.290076448261,-0.0110399444415,0.101653038604,-0.0427083720337,0.573807094663,0.818976158237,0.00205359565682,0.0,0.818933062712,-0.573746811983,-0.0119992265128,0.0,-0.00864900299018,0.00856716362877,-0.999925896482,0.0,0.649228114936,0.244893312217,0.303379722242,1.0,-0.0379268571429,-0.0498467265306,1.088
0.455323657105,0.478997734403,-0.124331087965,-1.46392711096,0.0729295665022,1.93364279847,0.144377708177,-0.0289684391848,-0.203645183207,-0.00282468901761,-0.311214811666,-0.015939210045,0.110549183862,-0.0395292148129,0.573825287881,0.818963369071,0.00207026809155,0.0,0.818920512442,-0.573764954105,-0.0119882710804,0.0,-0.00863027375634,0.00857472320034,-0.99992599351,0.0,0.648564023628,0.244007992693,0.303395625969,1.0,-0.0414337142857,-0.0544557387755,1.105
0.454712573674,0.475318982762,-0.124367345626,-1.46954047805,0.0725880404734,1.93571222203,0.143586929557,-0.0356886601324,-0.221102738736,-0.00214517505153,-0.334799308757,-0.0208241279855,0.127141686337,-0.0456153897465,0.573883608041,0.818922208361,0.00218356970475,0.0,0.818880800403,-0.573822770669,-0.0119335449122,0.0,-0.00851982696818,0.008636715402,-0.99992640714,0.0,0.647863162549,0.24306013461,0.303451036861,1.0,-0.0449405714286,-0.0590647510204,1.122
0.454084214527,0.47162930163,-0.124397604415,-1.47525519304,0.0722469058759,1.93772269429,0.142729246829,-0.0413692060107,-0.232908730489,-0.00352950035675,-0.36251564899,-0.0262212202788,0.129285899806,-0.0604841353956,0.573899274406,0.818911240432,0.0021794565677,0.0,0.818869479844,-0.573838149027,-0.0119708229863,0.0,-0.00855255084113,0.00865490372554,-0.999925970518,0.0,0.647122780051,0.242089889479,0.30345746573,1.0,-0.0482411428571,-0.063402644898,1.138
0.453385182738,0.467360599598,-0.124413906641,-1.48163089327,0.0718448507698,1.94013121304,0.141711727382,-0.0406505795286,-0.25719769673,0.00039663125061,-0.383808709233,-0.0223172965462,0.144247252888,-0.0571438919328,0.573844351689,0.818949011854,0.00243370476474,0.0,0.818910639121,-0.573782304038,-0.0118312978081,0.0,-0.00829297258705,0.00878247923459,-0.999927044671,0.0,0.646323907342,0.241029316009,0.303579234216,1.0,-0.051748,-0.0680116571429,1.155
0.452627093102,0.462862538257,-0.124426681864,-1.48854040538,0.0713868853909,1.94252069046,0.140639298146,-0.0446028469049,-0.266196906916,-0.000239046885277,-0.420979627797,-0.0225280127706,0.133608143863,-0.0706205741014,0.573795164082,0.818983546896,0.00240966602547,0.0,0.818944710432,-0.573733055624,-0.0118612410798,0.0,-0.00833181665155,0.00877947504914,-0.999926748142,0.0,0.64540250016,0.239864334323,0.303599204674,1.0,-0.0552548571429,-0.0726206693878,1.172
0.451853730319,0.458415373081,-0.124440812435,-1.49542428999,0.0709195832182,1.94489628153,0.139630069129,-0.0493323129801,-0.27885501676,-0.000738007909633,-0.434020315694,-0.0347729189758,0.153638669608,-0.0643996950708,0.5738035903,0.818977829712,0.0023454424515,0.0,0.81893807579,-0.573741646811,-0.0119036816631,0.0,-0.00840333514967,0.00875131589415,-0.999926396506,0.0,0.644479364494,0.238690082824,0.303590546266,1.0,-0.0585554285714,-0.0769585632653,1.188
0.450927010371,0.453162488283,-0.124457298549,-1.50355523103,0.0703766388108,1.94779743246,0.138323030512,-0.0532494220643,-0.302793715547,-2.30344220482e-05,-0.452081852057,-0.0321005797323,0.169991970698,-0.0747848095804,0.573728811292,0.819030195401,0.0023530865053,0.0,0.818990491636,-0.573666795636,-0.01190500297,0.0,-0.00840083105548,0.00875756728658,-0.999926362815,0.0,0.643399924562,0.237304053362,0.303582666846,1.0,-0.0622685714286,-0.0818386938775,1.206
0.450034490765,0.448151148617,-0.124501424698,-1.51101015507,0.069866182153,1.95059936368,0.137181896988,-0.0592653836067,-0.31376785357,0.000473033860752,-0.477720504267,-0.0248238899097,0.164700649507,-0.0718031680749,0.573755796374,0.819010447178,0.00263067333169,0.0,0.818974824979,-0.573693238689,-0.0117068712353,0.0,-0.00807900588776,0.00887151126411,-0.999928010385,0.0,0.642450689798,0.235999982696,0.303715826639,1.0,-0.0655691428571,-0.0861765877551,1.222
0.44903296876,0.442678027485,-0.124530833741,-1.51954591747,0.0692901082779,1.9534472016,0.135898289455,-0.0620317220988,-0.316864404483,-0.000147588106293,-0.512421964431,-0.0384475826693,0.171928343576,-0.074285307754,0.573768894345,0.819001861162,0.0024401222086,0.0,0.818963439818,-0.573706691819,-0.0118432640809,0.0,-0.00829990068341,0.00879383672329,-0.999926887369,0.0,0.641262348012,0.234509631405,0.303649029803,1.0,-0.069076,-0.0907856,1.239
0.447970477628,0.436938720183,-0.124551263495,-1.52844195658,0.0686925195599,1.95647567808,0.134436593717,-0.0640519469486,-0.346009487577,0.0018333849749,-0.524646864576,-0.027567139886,0.188326885182,-0.0932408507061,0.57368408428,0.819061599124,0.00232705507868,0.0,0.819021367687,-0.573621981996,-0.0119401819674,0.0,-0.0084450571831,0.00875596877084,-0.999926004272,0.0,0.6400251106,0.232957857763,0.303600685167,1.0,-0.0725828571429,-0.0953946122449,1.256
0.446808538038,0.430892889355,-0.124589601022,-1.5374377715,0.06806806359,1.9598367481,0.132974802999,-0.068152936428,-0.35728389392,-0.00409412502893,-0.535547637675,-0.0366431905584,0.191590974661,-0.0836238569586,0.573685444562,0.819059673376,0.00264746066267,0.0,0.819024091204,-0.573622640312,-0.0117197034731,0.0,-0.00808064870086,0.00889192855754,-0.999927815756,0.0,0.638851227399,0.231343967456,0.303733951647,1.0,-0.0760897142857,-0.10000362449,1.273
0.445563280341,0.424679247235,-0.124667391226,-1.54702014159,0.067375558234,1.96300797582,0.13140741624,-0.0791236317893,-0.377630393823,-3.86197906827e-05,-0.567297256134,-0.0416712138533,0.184928337919,-0.100755928873,0.573694545298,0.819053927289,0.00244536063049,0.0,0.819015790704,-0.573632561959,-0.0118137775064,0.0,-0.00827354167064,0.00878045773612,-0.999927223387,0.0,0.637507362678,0.229568860184,0.303678924712,1.0,-0.0795965714286,-0.104612636735,1.29
0.444162273731,0.417793489653,-0.124784101693,-1.55750407492,0.0666297395548,1.96654874355,0.129742401494,-0.0752689312952,-0.392717285388,-0.0078350787517,-0.578605940539,-0.0436683698781,0.21414097508,-0.0936652338756,0.573796558488,0.818982717588,0.00235895325835,0.0,0.818943676261,-0.573735123356,-0.0118325923159,0.0,-0.00833743479382,0.00872151851866,-0.999927208499,0.0,0.636049494474,0.227595229532,0.303673957805,1.0,-0.0833097142857,-0.109492767347,1.308
0.442848471994,0.411412894219,-0.12480698264,-1.5669998136,0.0659834386807,1.96999457763,0.128103329926,-0.0783674258248,-0.400585302939,-0.000857644078943,-0.608090736841,-0.044979588442,0.210745432467,-0.106461397055,0.573759834692,0.819007616346,0.0026312284146,0.0,0.818972162127,-0.573697451144,-0.0116867066371,0.0,-0.00806212793192,0.00886043628283,-0.999928244807,0.0,0.634754777574,0.225853371565,0.303774472713,1.0,-0.0866102857143,-0.113830661224,1.324
0.441453764916,0.40494051887,-0.124852192129,-1.57696339428,0.0652776642226,1.97325749708,0.126492929937,-0.0879919249227,-0.406802314668,-0.00270425005479,-0.638985796552,-0.0507244931986,0.212914409622,-0.104402891804,0.573821861036,0.818964796525,0.00242502588621,0.0,0.818926315533,-0.57375985433,-0.0118349561556,0.0,-0.0083011897843,0.0087772430697,-0.999927022463,0.0,0.633311069352,0.223978475564,0.303690305446,1.0,-0.0899108571428,-0.118168555102,1.34
0.439794756959,0.397290412649,-0.124941062442,-1.58826795799,0.0644856424815,1.97723344085,0.124544717419,-0.093578894922,-0.426636099338,-0.002756351365,-0.63233326861,-0.0496251768907,0.223681800779,-0.111487707525,0.573878753898,0.81892415128,0.00267529001047,0.0,0.818889141829,-0.573816059807,-0.0116811729969,0.0,-0.00803102493193,0.00889451419132,-0.99992819255,0.0,0.631738928347,0.221808315399,0.303811514743,1.0,-0.093624,-0.123048685714,1.358
0.438248298696,0.390376846998,-0.124967872273,-1.59872235209,0.0636713699131,1.98073771501,0.122780181584,-0.099088011148,-0.428901703689,-0.00335917880659,-0.662753155356,-0.0458054995946,0.210722501239,-0.0997521866463,0.573893419686,0.818914125769,0.00259699017722,0.0,0.818878367254,-0.573831294066,-0.0116881347922,0.0,-0.00808150004509,0.00883453281389,-0.999928317624,0.0,0.630219853643,0.219807303319,0.303787016371,1.0,-0.0969245714286,-0.127386579592,1.374
0.43664685051,0.383249927864,-0.125023712318,-1.60954031164,0.0628524099623,1.98418780401,0.12082363008,-0.102193994411,-0.456030731948,-0.00373006882149,-0.670615669227,-0.0503161094677,0.225456231014,-0.125357744707,0.573821244805,0.818965401954,0.00236565302653,0.0,0.818926448667,-0.573759781698,-0.0118292637491,0.0,-0.00833060156692,0.00872534667138,-0.999927232054,0.0,0.628595512704,0.217718018723,0.30371680773,1.0,-0.100225142857,-0.131724473469,1.39
0.434867525046,0.37542515841,-0.125047331124,-1.62111084459,0.0620387756478,1.98817254557,0.118789259674,-0.105475953116,-0.460894482504,0.000473386606246,-0.692228877931,-0.0480479848601,0.22775524338,-0.122367198509,0.573830744177,0.818958134241,0.00256871559305,0.0,0.818921546365,-0.573768225094,-0.0117588976076,0.0,-0.00815635449393,0.00885136392666,-0.999927560995,0.0,0.626903409359,0.215499864054,0.303785816624,1.0,-0.103732,-0.136333485714,1.407
0.432948923042,0.367424990385,-0.12512447002,-1.63310982803,0.0611084344921,1.99200880587,0.116707988333,-0.111460342854,-0.473292737104,-0.0107293110873,-0.710044464057,-0.0584133230306,0.229499780027,-0.109397185056,0.573921964789,0.818894745102,0.00239200318667,0.0,0.81885583842,-0.573860076529,-0.0118522298564,0.0,-0.0083332140556,0.00876112950015,-0.999926897405,0.0,0.625090087886,0.213098482517,0.303741481864,1.0,-0.107238857143,-0.140942497959,1.424
0.431120563153,0.359631491785,-0.125209525211,-1.64444751038,0.0601986085042,1.99585142372,0.114596033786,-0.115035509989,-0.486160383064,-0.0028171819044,-0.721454375825,-0.0558016047181,0.242487808999,-0.147079439937,0.573890758406,0.818916033576,0.00258346063938,0.0,0.818880329247,-0.573828931988,-0.0116666227592,0.0,-0.00807167538046,0.00881108172293,-0.999928603899,0.0,0.623409397713,0.210831965706,0.303857295428,1.0,-0.110539428571,-0.145280391837,1.44
0.428896587588,0.35080899423,-0.125231318229,-1.65775591126,0.0592397433769,2.00001646667,0.112147645151,-0.127286013792,-0.490094437432,-0.00158408678125,-0.75780655891,-0.0568878851685,0.231199637392,-0.144841147791,0.573895894164,0.818913208473,0.00232519932334,0.0,0.818873023029,-0.573833845043,-0.0119347115266,0.0,-0.00843937732441,0.00875349347408,-0.999926073899,0.0,0.621211657757,0.208023997951,0.303725255605,1.0,-0.114458857143,-0.150431640816,1.459
0.426730596463,0.342102714262,-0.125306448574,-1.670245134,0.0582769205588,2.00421118098,0.109790558228,-0.124653376923,-0.511500212652,-0.00451655065362,-0.736461951657,-0.055251831461,0.236775791496,-0.136518827816,0.573943896249,0.818878573075,0.00265205922175,0.0,0.818842908344,-0.573880885788,-0.0117374308588,0.0,-0.00808972029007,0.00890841819995,-0.999927595634,0.0,0.61943479634,0.205617222827,0.303894844662,1.0,-0.117759428571,-0.154769534694,1.475
0.424640287957,0.33388442407,-0.125295965138,-1.68249694254,0.0572837075575,2.00807961811,0.107439088721,-0.133165227044,-0.520977399598,0.00843524723483,-0.779974988789,-0.0677973991959,0.241749619198,-0.14596648726,0.573825610386,0.818961993883,0.00248361449263,0.0,0.818923857261,-0.573762935045,-0.0118556855088,0.0,-0.00828450940478,0.00883715727654,-0.999926633086,0.0,0.617473760698,0.203167774354,0.303806100567,1.0,-0.12106,-0.159107428571,1.491
0.422166109405,0.324297210893,-0.125308967831,-1.69629981112,0.0561386411782,2.01252872302,0.104697893275,-0.136236700663,-0.53179438318,0.000545554835164,-0.772157188918,-0.0623760284224,0.249762309777,-0.155749245617,0.573708999181,0.819043221439,0.00263297825505,0.0,0.819007312187,-0.57364609131,-0.0117444203492,0.0,-0.00810894631456,0.00889447933449,-0.99992756399,0.0,0.615288371194,0.200338448738,0.303905287357,1.0,-0.124773142857,-0.163987559184,1.509
0.419838755778,0.315668448349,-0.125319952033,-1.70892115718,0.0551296914383,2.01646318897,0.102263299019,-0.149457508527,-0.542140482685,0.00165997703565,-0.779013705117,-0.062771605259,0.226648119918,-0.153496183553,0.573712547614,0.819040931915,0.00257127577886,0.0,0.819003777458,-0.573649383978,-0.0118297790693,0.0,-0.00821422065592,0.00889294848016,-0.999926718338,0.0,0.613239201814,0.197721039786,0.303875227076,1.0,-0.128073714286,-0.168325453061,1.525
0.417720360834,0.307930246189,-0.125388993589,-1.71998061947,0.0541817227743,2.01999291385,0.0999587828187,-0.157445966113,-0.556480012,-0.00196819271971,-0.813994881935,-0.0776834224293,0.25804987259,-0.165666781338,0.573652525247,0.819082583873,0.00269220624409,0.0,0.819047516375,-0.573589492799,-0.0117049806625,0.0,-0.00804327944925,0.00891980828677,-0.999927868736,0.0,0.611469854556,0.19535198253,0.303954416205,1.0,-0.130961714286,-0.172121110204,1.539
0.414696061689,0.297368314257,-0.125457045329,-1.73539387765,0.0529139200866,2.02467127429,0.0968457991649,-0.166688498172,-0.557575043063,-0.00209929537248,-0.824822360611,-0.0673835270246,0.236617862968,-0.16149378302,0.57368759079,0.819058566529,0.00252183876831,0.0,0.819020797705,-0.573624648504,-0.0118508419922,0.0,-0.00826010380985,0.0088642900561,-0.999926594829,0.0,0.608916522965,0.192032025339,0.30387574338,1.0,-0.134881142857,-0.177272359184,1.558
0.411842808999,0.287577467719,-0.12558142984,-1.74918552507,0.0517997758041,2.02899971872,0.093932354778,-0.166349425595,-0.576394298649,-0.00494961510273,-0.81631524642,-0.0703453211853,0.254987433321,-0.17797657274,0.573774947037,0.818996543204,0.00277835792519,0.0,0.818962138499,-0.573711085658,-0.0117197610604,0.0,-0.00800462316783,0.00900004850846,-0.999927459936,0.0,0.606670198408,0.188967245569,0.304009022689,1.0,-0.138388,-0.181881371429,1.575
0.408901413437,0.27779195641,-0.125647310765,-1.76341014556,0.0505727250238,2.03315064589,0.0908969508824,-0.171739740165,-0.57953275761,-0.00129003420025,-0.861325701882,-0.0756322330437,0.238049883419,-0.171719476914,0.573743218888,0.819019651573,0.00250519810154,0.0,0.818981199296,-0.573679833842,-0.0119159701279,0.0,-0.00832239230353,0.00888858833592,-0.999925862644,0.0,0.60423381704,0.185830608939,0.303894530002,1.0,-0.141894857143,-0.186490383673,1.592
0.405595486629,0.267096290741,-0.125772969357,-1.77842159208,0.049254187334,2.03781931586,0.0876130398866,-0.190176886073,-0.57975409796,-0.0141709057709,-0.828382107972,-0.0628317448271,0.257901957274,-0.185163799648,0.573826408154,0.818960624765,0.00273775284097,0.0,0.818925821711,-0.573762828138,-0.0117244395948,0.0,-0.00803118818804,0.00896998225518,-0.99992751709,0.0,0.601736899358,0.182403801307,0.304002724861,1.0,-0.145608,-0.191370514286,1.61
0.402524392073,0.257545541606,-0.12591504701,-1.79210076717,0.0480428827454,2.04177794804,0.084638426478,-0.199550735662,-0.602512261477,-0.00922093199042,-0.866390713982,-0.0774459745102,0.237626023182,-0.185903750526,0.573964594518,0.818864382281,0.00255236618296,0.0,0.818827012601,-0.573901502916,-0.0118378751384,0.0,-0.00822896595742,0.00888463863724,-0.999926670969,0.0,0.599373037924,0.179230745199,0.303927489165,1.0,-0.148908571429,-0.195708408163,1.626
0.399179495093,0.247122288498,-0.125984183968,-1.80663982528,0.0466971512444,2.04608233353,0.081322038392,-0.199183473268,-0.612549188695,-0.00140418609032,-0.874047384881,-0.0804996665473,0.252728042703,-0.199016719195,0.573945983773,0.81887713051,0.00264570202275,0.0,0.818841405404,-0.57388302035,-0.0117379151434,0.0,-0.00809374263266,0.00890351103718,-0.99992760679,0.0,0.59684910493,0.175880217936,0.303995711778,1.0,-0.152415428571,-0.200317420408,1.643
0.395743297163,0.236533425746,-0.125999339387,-1.82134806985,0.0454284570599,2.05034921668,0.0778855854684,-0.203254049719,-0.629767263963,0.00049688300749,-0.865505757955,-0.0734139478368,0.26438573625,-0.200415926251,0.573875208356,0.818926298421,0.00277666889704,0.0,0.81889164144,-0.573811081108,-0.0117503054776,0.0,-0.00802950538122,0.00901717356355,-0.999927106155,0.0,0.594233062818,0.172524715585,0.30405342596,1.0,-0.155922285714,-0.204926432653,1.66
0.392418381521,0.226473395511,-0.125994111919,-1.83531738184,0.0441253715536,2.05442215766,0.0746021680338,-0.210708277178,-0.632500250645,0.00132663321218,-0.898999412146,-0.0953652351571,0.247058585452,-0.220917316894,0.573771121996,0.818998906444,0.00287014087829,0.0,0.818965568695,-0.573706799977,-0.0116898183629,0.0,-0.00792748174557,0.00905800114923,-0.9999275512,0.0,0.591724402235,0.169323134494,0.304083030726,1.0,-0.159222857143,-0.209264326531,1.676
0.388903770454,0.216177540157,-0.12604379893,-1.84945039483,0.042804201043,2.05835582413,0.0711509584396,-0.222362629651,-0.653666858309,-0.00782191847423,-0.876392515827,-0.0778805832002,0.255609785136,-0.210561607523,0.573706590157,0.81904393513,0.00292021207068,0.0,0.819011122354,-0.573641961471,-0.011680256929,0.0,-0.00789163935683,0.00909290160694,-0.999927517957,0.0,0.589146832053,0.16597828126,0.304140971734,1.0,-0.162523428571,-0.213602220408,1.692
0.385020859984,0.205227513018,-0.126160636738,-1.86462269073,0.0413970009976,2.06255008592,0.067448121059,-0.230846294073,-0.644255237388,-0.00616964444292,-0.907374822467,-0.0954282372899,0.237170756441,-0.217944297666,0.573765376209,0.819003045346,0.00283754818626,0.0,0.818968811455,-0.573700631179,-0.0117651412768,0.0,-0.00800793752676,0.00907446888802,-0.999926760793,0.0,0.586181307624,0.162088773238,0.304095414004,1.0,-0.166236571429,-0.21848235102,1.71
0.380747571657,0.193345838174,-0.126277436994,-1.88072691194,0.0398439658024,2.06692982557,0.0633344774451,-0.238925481674,-0.658007745337,-0.00718252399387,-0.892162935193,-0.0859162709201,0.241569195885,-0.227788256209,0.573746743719,0.819015673135,0.00295772424131,0.0,0.818983070172,-0.573681661291,-0.0116974001782,0.0,-0.0078837137104,0.00913384719696,-0.999927207297,0.0,0.583357306083,0.158363377492,0.304182630221,1.0,-0.169743428571,-0.223091363265,1.727
0.376685046549,0.182750182208,-0.1264395633,-1.8952758395,0.0384963747793,2.07073612831,0.0595449758373,-0.259899111506,-0.66733715164,-0.0115637406655,-0.910265014755,-0.0856530680839,0.232138994899,-0.246074093483,0.573883161411,0.818920503466,0.00284129443994,0.0,0.818885527582,-0.573817492458,-0.0118627554707,0.0,-0.00808442488196,0.00913470638046,-0.999925596839,0.0,0.580607665649,0.15467503811,0.30412212986,1.0,-0.173044,-0.227429257143,1.743
0.372280949182,0.171293333242,-0.126548668165,-1.91069910785,0.0369270403258,2.07485692469,0.0554637537961,-0.25614452047,-0.663272813657,-0.00215149865173,-0.926986497307,-0.092913615489,0.231646258319,-0.243281754735,0.573927516311,0.818889203608,0.00290260842744,0.0,0.818855428892,-0.573862077767,-0.011783428049,0.0,-0.00798377882018,0.00913982623252,-0.999926358715,0.0,0.577677932027,0.150766186129,0.304162904939,1.0,-0.176550857143,-0.232038269388,1.76
0.367771255129,0.159669734194,-0.126578116447,-1.92629386933,0.0353612527265,2.0788414502,0.0511423911911,-0.270578143393,-0.6922282839,0.000923682165742,-0.903164903318,-0.0899904576474,0.242903761664,-0.247576461408,0.573778511558,0.818993658537,0.00289030295098,0.0,0.818959345065,-0.573712704598,-0.0118351431906,0.0,-0.00803485839377,0.00915796777499,-0.999925783584,0.0,0.574624733758,0.146859404256,0.304172598579,1.0,-0.180057714286,-0.236647281633,1.777
0.363363619367,0.148648594005,-0.126641484382,-1.94105043038,0.0337996508887,2.08263804245,0.0470718763468,-0.275158716648,-0.692557663956,-0.0066695084999,-0.931563972909,-0.0954152519199,0.225690204839,-0.256215224197,0.573732864415,0.819025704397,0.0028710151941,0.0,0.818991496186,-0.573667538944,-0.011799611795,0.0,-0.0080173314998,0.00912133771752,-0.999926259078,0.0,0.571539635111,0.142849720695,0.304165642443,1.0,-0.183564571429,-0.241256293878,1.794
0.358192076941,0.13598107125,-0.12677636484,-1.95767037696,0.032119714625,2.08681416592,0.0422799347734,-0.289859319082,-0.716778381394,-0.00569793559269,-0.919828008897,-0.0959623377393,0.230858310669,-0.279952877924,0.573750469109,0.819012766709,0.00303876064443,0.0,0.818980544234,-0.573684324189,-0.0117435619267,0.0,-0.00787498941591,0.00922673765413,-0.99992642322,0.0,0.568238382657,0.138492810274,0.304244107685,1.0,-0.187277714286,-0.24613642449,1.812
0.353062801978,0.124056709238,-0.126954669214,-1.97354090936,0.0304248019941,2.09060345662,0.0376053824999,-0.309626240148,-0.70183348117,-0.0116083712374,-0.938260365081,-0.0948509333692,0.209168904085,-0.265034936018,0.573830553384,0.818957282709,0.00286565917942,0.0,0.818922510743,-0.573764673226,-0.0118645714788,0.0,-0.00807251863713,0.00915518269312,-0.999925505762,0.0,0.565206996475,0.134469412572,0.304170371979,1.0,-0.190578285714,-0.250474318367,1.828
0.347992942042,0.112526453564,-0.127121195537,-1.9884182505,0.0287982830779,2.09425266013,0.0330653938657,-0.320408243589,-0.716759717564,-0.010076125223,-0.951881810179,-0.093817186357,0.216679953968,-0.286859779513,0.573942938734,0.8188778599,0.00304967936802,0.0,0.818846137285,-0.573877151111,-0.0116946905712,0.0,-0.00782653256459,0.00920948055549,-0.999926962761,0.0,0.562206913666,0.130366320846,0.304270204843,1.0,-0.193878857143,-0.254812212245,1.844
0.3428616983,0.100956980877,-0.127209222482,-2.00340995388,0.0271350046863,2.09768459469,0.0283650449615,-0.326955689398,-0.738599801322,-0.00533755859448,-0.9126009293,-0.105601809635,0.218415775416,-0.291742340483,0.573873869838,0.81892639567,0.0030144473609,0.0,0.818894159606,-0.573808145937,-0.0117181022759,0.0,-0.00786670026807,0.00919340304,-0.999926795504,0.0,0.559075295675,0.126293018745,0.304281101862,1.0,-0.197179428571,-0.259150106122,1.86
0.33692251817,0.0878211417501,-0.127295163004,-2.02041553257,0.0253792856652,2.1014966846,0.0229252011936,-0.333143626725,-0.748749405194,-0.00170424770614,-0.967200143391,-0.100528801424,0.205788753698,-0.304578779324,0.573820669304,0.818963677272,0.00301358426779,0.0,0.818930107729,-0.57375341591,-0.0118845819541,0.0,-0.00800414077672,0.00928771247763,-0.999924833239,0.0,0.555456802162,0.12168237003,0.304245664156,1.0,-0.200892571429,-0.264030236735,1.878
0.331396419093,0.0758843868168,-0.127425675559,-2.03541783972,0.0236258088044,2.10484080261,0.0178728335205,-0.346250971199,-0.745577767254,-0.00994001994348,-0.926132393572,-0.11410649609,0.216766932802,-0.303463416538,0.573747636933,0.819014301244,0.00315758981065,0.0,0.8189832451,-0.573680637253,-0.0117353136721,0.0,-0.00780009176819,0.00931930106326,-0.999926151871,0.0,0.552460123022,0.117711554992,0.304358614443,1.0,-0.203986857143,-0.268097012245,1.893
0.325218534089,0.0632730775155,-0.127635303389,-2.05162962916,0.0217886632014,2.10822172849,0.0124077081229,-0.370128824398,-0.753044219088,-0.0167812556066,-0.955632623262,-0.103145862767,0.186568145697,-0.326148052986,0.573862486437,0.818934512562,0.00297618835557,0.0,0.818900447192,-0.573795355199,-0.0119035642951,0.0,-0.00804067137699,0.00926838942437,-0.999924719447,0.0,0.548730186286,0.112776661963,0.304267303364,1.0,-0.2077,-0.272977142857,1.911
0.319569157629,0.0518823905117,-0.127785576724,-2.06571800721,0.0201262993086,2.11122638981,0.00741800406636,-0.372052770633,-0.750853262083,-0.0140308183518,-0.935693967561,-0.103769767651,0.194793172056,-0.332780537558,0.573929993401,0.818886451792,0.00317626318058,0.0,0.818855603289,-0.573862863494,-0.0117329350585,0.0,-0.00778535196731,0.00933496397063,-0.999926120642,0.0,0.545664520442,0.108625972385,0.304386851155,1.0,-0.20998,-0.275973714286,1.926
0.312762642391,0.0384014571113,-0.12782501833,-2.08267823655,0.0182227865062,2.11459220741,0.00134521936992,-0.387777908247,-0.753754531001,-0.00563130834991,-0.915616642778,-0.100434336381,0.194990188007,-0.340904142768,0.573860861959,0.818935102717,0.00312338769857,0.0,0.818902329331,-0.573792457745,-0.0119137463331,0.0,-0.00796456211546,0.00939476307991,-0.999924149212,0.0,0.541837079376,0.103767634132,0.304329674743,1.0,-0.20998,-0.275973714286,1.944
0.306114092953,0.0256353139996,-0.127932889418,-2.09842020364,0.0162372867403,2.11769504752,-0.00456274704055,-0.390606349606,-0.75168265694,-0.00965946343777,-0.913701884781,-0.119608613904,0.169578379047,-0.356732444159,0.573783296227,0.818989386937,0.00314005676002,0.0,0.818957552625,-0.573715697172,-0.0118140897763,0.0,-0.00787426589393,0.00935048059882,-0.999925279433,0.0,0.538274040359,0.0990761938365,0.304363275077,1.0,-0.20998,-0.275973714286,1.961
0.298889967295,0.0121581588433,-0.128105749789,-2.11476606841,0.0142339301455,2.12075670945,-0.0108834752758,-0.406696755486,-0.757469555773,-0.0116875270611,-0.890988627025,-0.111638475375,0.169373139645,-0.345380160894,0.573859444247,0.818935548636,0.00326379074338,0.0,0.81890554083,-0.573791669686,-0.0117295310515,0.0,-0.00773314289369,0.00940401955086,-0.999925878712,0.0,0.534519890625,0.094072250954,0.304451018897,1.0,-0.20998,-0.275973714286,1.979
0.293114320058,0.00184927597273,-0.128221556912,-2.12744359854,0.0127475477927,2.12298026308,-0.0159301495712,-0.411529044599,-0.732926227003,-0.00611215523557,-0.916417620062,-0.113924372221,0.16155714903,-0.354711642867,0.573936928978,0.818881539139,0.0031895632849,0.0,0.818849466001,-0.573868079841,-0.0119048675362,0.0,-0.00791844014799,0.009444597144,-0.999924046061,0.0,0.531540533545,0.0901618549995,0.304390753305,1.0,-0.20998,-0.275973714286,1.993
0.285273778542,-0.0121092525028,-0.12827417867,-2.14411136558,0.0106531839468,2.12599056076,-0.0228673742703,-0.418918398497,-0.718232970347,-0.0032514532828,-0.87264686115,-0.108229971881,0.159178494828,-0.355383122546,0.573825575292,0.818958741631,0.00339640230591,0.0,0.818929884441,-0.573756656207,-0.0117426883133,0.0,-0.00766821645121,0.00951985351146,-0.999925282631,0.0,0.527608135997,0.0849995382868,0.304484033633,1.0,-0.20998,-0.275973714286,2.012
0.27807158012,-0.0244894175816,-0.128389589765,-2.15897624205,0.00871586028156,2.12825763633,-0.0292144268982,-0.43047160803,-0.727058983345,-0.00784819251303,-0.837278431774,-0.109110689505,0.140598827848,-0.370174022238,0.573766385141,0.819000981266,0.00320544357614,0.0,0.818969032145,-0.573697402983,-0.0119063470325,0.0,-0.00791250758818,0.00945680279299,-0.999923977663,0.0,0.523978321401,0.0802955165464,0.304444064981,1.0,-0.20998,-0.275973714286,2.029
0.271083140064,-0.0360975405948,-0.128593716787,-2.17267247393,0.0069489876193,2.13052612539,-0.0351766251212,-0.442246054572,-0.722989040468,-0.0115096504264,-0.866728373507,-0.11183869912,0.126412289829,-0.378896847717,0.573975064088,0.81885425112,0.00332988430777,0.0,0.818824199489,-0.573905945065,-0.0118170830727,0.0,-0.00776557782073,0.00950948395371,-0.999924629918,0.0,0.520661676458,0.0757959740211,0.304485650254,1.0,-0.20998,-0.275973714286,2.045
0.263596380435,-0.0483544461959,-0.12867760576,-2.18706465317,0.00517970881001,2.13264660863,-0.0417591883186,-0.444137633433,-0.739010386029,-0.00679540617941,-0.84620022556,-0.11016201561,0.139789817991,-0.390936258226,0.573960795833,0.818864016393,0.00338738912149,0.0,0.818833652147,-0.573890172042,-0.0119275918327,0.0,-0.00782323704991,0.00961986351846,-0.999923124639,0.0,0.517068951918,0.0711311884116,0.304492232718,1.0,-0.20998,-0.275973714286,2.062
0.256020562401,-0.0604638539234,-0.128736903329,-2.20115739217,0.00325755663492,2.1347375256,-0.0484093016006,-0.445818945411,-0.701234518827,-0.00023191723166,-0.855432540001,-0.107548445673,0.108433546438,-0.396345499576,0.573856409845,0.818937012552,0.00342596764989,0.0,0.818907631344,-0.57378625717,-0.0118477555313,0.0,-0.00773694132533,0.00960464642636,-0.999923942361,0.0,0.513523110894,0.0664921974289,0.304509595327,1.0,-0.20998,-0.275973714286,2.079
0.248281082584,-0.0725618845147,-0.128897198296,-2.21510127477,0.00136032847536,2.13658261518,-0.055175814124,-0.45693958869,-0.71687058381,-0.0190988462952,-0.79666809996,-0.115366773684,0.109945467607,-0.396002890036,0.5738628341,0.818932549725,0.00341665647497,0.0,0.818902917295,-0.573792552081,-0.0118687035013,0.0,-0.00775936497373,0.00960910278811,-0.999923725791,0.0,0.509940965322,0.0617891919209,0.304521171608,1.0,-0.20998,-0.275973714286,2.096
0.240297897395,-0.0845246846004,-0.129052024343,-2.22883114361,-0.000442493135112,2.13833872384,-0.0621145633495,-0.462938642755,-0.715330482478,-0.00800895909509,-0.836273315705,-0.108763670712,0.104694152984,-0.396400057551,0.573945980707,0.818874116301,0.00345539931583,0.0,0.818844304431,-0.573874699358,-0.0119407469841,0.0,-0.00779515247192,0.00968296421455,-0.999922734916,0.0,0.506370454349,0.0570523668239,0.304507917068,1.0,-0.20998,-0.275973714286,2.113
0.231859961244,-0.0971659341741,-0.129116678057,-2.24306146154,-0.00240967594731,2.14001537695,-0.0695670667775,-0.468430947976,-0.705526425674,-0.00678531407059,-0.765338111284,-0.120014946418,0.0894957746157,-0.417087417068,0.57380810872,0.818970439735,0.00352421743955,0.0,0.818941578827,-0.5737366675,-0.0119026776494,0.0,-0.00772611713096,0.00971616821115,-0.999922948626,0.0,0.502595538027,0.0521695214155,0.304556085866,1.0,-0.20998,-0.275973714286,2.131
0.225110588526,-0.106874537203,-0.1292105297,-2.25401047664,-0.00396318776461,2.1412100003,-0.0753990923537,-0.484575238947,-0.70495257614,-0.0105426691637,-0.798384641764,-0.103346423275,0.0855591885596,-0.412376675087,0.573837247814,0.818950272561,0.0034656881908,0.0,0.818920333554,-0.573765620074,-0.0119686011745,0.0,-0.00781334689137,0.00970633856444,-0.999922366288,0.0,0.499426018743,0.0480307416079,0.304527603592,1.0,-0.20998,-0.275973714286,2.146
0.215672206968,-0.120055378554,-0.129440465084,-2.26861480749,-0.00606207869267,2.14269989987,-0.0835489395099,-0.503530716981,-0.6955714733,-0.00476041698974,-0.758169281979,-0.110853125761,0.0846615434991,-0.432714219944,0.573977184363,0.818851913734,0.00353300247646,0.0,0.81882312689,-0.573905636483,-0.011906056633,0.0,-0.00772183589329,0.00972689627107,-0.999922877396,0.0,0.495669396923,0.0429631248576,0.304579454268,1.0,-0.20998,-0.275973714286,2.164
0.207260072454,-0.131685705137,-0.129512062989,-2.28148870825,-0.00783557076907,2.14387870665,-0.0909851278728,-0.498346242065,-0.68688480704,-0.00421046246034,-0.746853826867,-0.113854596648,0.0647242186539,-0.435075251519,0.573879338665,0.818920441183,0.00354437123526,0.0,0.818891003869,-0.573806759187,-0.0120030743426,0.0,-0.0077959288601,0.00979095859087,-0.999921677244,0.0,0.492078456812,0.0383536650214,0.304562219136,1.0,-0.20998,-0.275973714286,2.181
0.199124431143,-0.142616435405,-0.12964465632,-2.29333467172,-0.0095789131151,2.14492407625,-0.0981411827144,-0.514617480841,-0.689147927369,-0.0102346881653,-0.736203637657,-0.110242331511,0.0674326508394,-0.44848825847,0.573843622047,0.818945056874,0.00363842809685,0.0,0.818917248442,-0.573771216801,-0.0119112500096,0.0,-0.00766718161716,0.00981495534262,-0.999922437481,0.0,0.488746115534,0.033937297761,0.3046155501,1.0,-0.20998,-0.275973714286,2.197
0.189756869444,-0.1547693087,-0.129850424802,-2.30651148068,-0.0115107558809,2.14594839947,-0.106287952088,-0.518356172751,-0.6722660993,-0.0115574542037,-0.747896587545,-0.109656126206,0.0497641065548,-0.451292917803,0.573943338347,0.818875046891,0.00366726702684,0.0,0.818847385539,-0.573870522232,-0.0119302057762,0.0,-0.00766495894475,0.00985038379776,-0.999922106138,0.0,0.484969162506,0.0289182632743,0.30461470353,1.0,-0.20998,-0.275973714286,2.215
0.181414149658,-0.165516484376,-0.129912150051,-2.31797723584,-0.0131917133561,2.14664626314,-0.113633575498,-0.524008058508,-0.676196589927,-0.00379123848654,-0.703147218502,-0.103090647345,0.0470253751458,-0.463767683305,0.573865041963,0.818929823391,0.00368847871023,0.0,0.818902107447,-0.573791735292,-0.0119636880053,0.0,-0.00768115019149,0.00988623564895,-0.999921628067,0.0,0.481602773718,0.0245812062898,0.304642439479,1.0,-0.20998,-0.275973714286,2.231
0.173405000091,-0.17546246575,-0.130017182094,-2.32858741549,-0.0147495161172,2.14732988677,-0.120710922292,-0.531143462521,-0.657247563365,-0.0107053367991,-0.714927144671,-0.109930156155,0.0395927683901,-0.473894933083,0.573825374735,0.818957377794,0.00374159965609,0.0,0.818930157101,-0.57375162645,-0.0119672819464,0.0,-0.0076540923189,0.00993143005241,-0.999921387694,0.0,0.478464996756,0.0204653435848,0.304638372743,1.0,-0.20998,-0.275973714286,2.246
0.163521420424,-0.187384830039,-0.130246738439,-2.34117500094,-0.016646685178,2.14788884797,-0.129316618032,-0.557397521779,-0.655213543234,-0.00591879841236,-0.683979951051,-0.103609334663,0.0353067543673,-0.478220458367,0.573964449917,0.818859995473,0.00372356632997,0.0,0.818831813613,-0.573889809102,-0.0120704153183,0.0,-0.0077472126205,0.00997715595071,-0.999920215345,0.0,0.474651746613,0.0154205402882,0.304627242879,1.0,-0.20998,-0.275973714286,2.264
0.15418915551,-0.198559999004,-0.130359661518,-2.35264593751,-0.018429448124,2.14847212935,-0.137655472553,-0.556952679016,-0.649604425339,-0.0087198069523,-0.674526170186,-0.102676766282,0.0315150770249,-0.499638931214,0.573833332591,0.818950925344,0.00392876401487,0.0,0.818926526242,-0.573759432058,-0.011840846357,0.0,-0.0074430499728,0.0100122341594,-0.999922175059,0.0,0.471155136983,0.0107850133014,0.304729883991,1.0,-0.20998,-0.275973714286,2.281
0.145195133683,-0.208902542726,-0.130508915351,-2.36352158018,-0.0200406302883,2.1486890027,-0.145574933373,-0.566361632747,-0.643650807198,-0.00649647690406,-0.676208229709,-0.100717917904,0.0102896044604,-0.493701150241,0.573873531901,0.818923335671,0.00380612366247,0.0,0.818895600934,-0.57379777315,-0.0121184652433,0.0,-0.00774029772314,0.0100714782814,-0.999919323304,0.0,0.467719373735,0.00637849888712,0.304643533868,1.0,-0.20998,-0.275973714286,2.297
0.135435464446,-0.219928375988,-0.130696744008,-2.37457061185,-0.02178184449,2.14902416852,-0.154125881068,-0.571721977415,-0.648635577649,-0.00741998078119,-0.648771558556,-0.107028399862,0.0207834673306,-0.501806420211,0.573977198047,0.818849508291,0.00405040675423,0.0,0.818826047933,-0.573901983337,-0.0118812309686,0.0,-0.00740454622739,0.0101363293715,-0.999921210657,0.0,0.464225573835,0.00165709474151,0.304768565986,1.0,-0.20998,-0.275973714286,2.314
0.125685559004,-0.230721343504,-0.130788989562,-2.38565469622,-0.0235181805615,2.14914752931,-0.162903884893,-0.586079356916,-0.639341599603,-0.00970013680704,-0.645440289231,-0.0956400206573,0.00485038167794,-0.507955093232,0.573798644212,0.818974971656,0.00398228597325,0.0,0.818949918553,-0.573722742456,-0.0119996913363,0.0,-0.0075428640657,0.0101468947523,-0.99992006967,0.0,0.460620080869,-0.00294109201491,0.304715348624,1.0,-0.20998,-0.275973714286,2.331
0.115552643369,-0.241442981993,-0.130990189072,-2.39637789744,-0.0253019469684,2.14918533411,-0.171830402072,-0.608286592924,-0.637442597756,-0.00942497926263,-0.622469844999,-0.0989472548462,0.00487039153506,-0.528286880152,0.573871761879,0.818923588304,0.00401302113618,0.0,0.818899321266,-0.573796258765,-0.0119374184531,0.0,-0.00747332092502,0.0101370028133,-0.999920692179,0.0,0.457072875106,-0.00769763158002,0.304746468234,1.0,-0.20998,-0.275973714286,2.348
0.105402679851,-0.252065033064,-0.131111322033,-2.40693474833,-0.0269065510028,2.14921697305,-0.180935740796,-0.587684400854,-0.617592659053,-0.0106714395477,-0.624641418506,-0.0978837095088,-0.00212227945708,-0.542406162778,0.573821290222,0.818958132668,0.00417740670933,0.0,0.818935899537,-0.57374507106,-0.0118883466296,0.0,-0.00733943295386,0.0102430119326,-0.999920603563,0.0,0.453532618101,-0.0123294933041,0.304771862526,1.0,-0.20998,-0.275973714286,2.365
0.0950527361053,-0.262534420379,-0.131284164295,-2.41744293818,-0.0286206324225,2.14907472275,-0.190146498436,-0.6206802128,-0.615379545345,-0.0122994976765,-0.607278919389,-0.0975274805974,-0.0107601396776,-0.543059294783,0.573828500154,0.818953433712,0.00410764199804,0.0,0.818929576587,-0.573751539521,-0.0120110944783,0.0,-0.0074799051568,0.0102563753189,-0.999919425646,0.0,0.449917820003,-0.0170110374397,0.30469893253,1.0,-0.20998,-0.275973714286,2.382
0.0850186312095,-0.272380758189,-0.131497250965,-2.42679868547,-0.0302069114306,2.14895919268,-0.199022624549,-0.624275529153,-0.611920829945,-0.00575124706611,-0.595361702213,-0.0933145320172,-0.0136431182305,-0.55020162802,0.573959618666,0.818860185342,0.00437034359989,0.0,0.818841385799,-0.573884059515,-0.0116883719169,0.0,-0.0070632078563,0.0102874697637,-0.999922136499,0.0,0.446657936422,-0.0215091819842,0.30483707677,1.0,-0.20998,-0.275973714286,2.398
0.0745329373761,-0.282602870827,-0.131583239851,-2.436842172,-0.0318717862296,2.14859511994,-0.208620777833,-0.618436247164,-0.59814166833,-0.0124804557237,-0.588960114093,-0.0940176511454,-0.0327391382002,-0.572475650573,0.573703531628,0.819040036437,0.00429225018701,0.0,0.819019621751,-0.573627399023,-0.011798863392,0.0,-0.00720172784733,0.0102846847339,-0.999921177081,0.0,0.443060748626,-0.0260682129785,0.304779256657,1.0,-0.20998,-0.275973714286,2.415
0.0635708280252,-0.292720815516,-0.131813666915,-2.44658992227,-0.033421373296,2.14815986715,-0.218405725359,-0.656818467955,-0.590713236424,-0.020744672977,-0.56239797023,-0.0912968901165,-0.0281436822411,-0.578798355434,0.573847292766,0.818938843555,0.00438200894071,0.0,0.818918816973,-0.573769714706,-0.0118757144988,0.0,-0.00721135871925,0.0104035564932,-0.999919877949,0.0,0.439486999835,-0.0308143021556,0.304767639422,1.0,-0.20998,-0.275973714286,2.432
0.053213289918,-0.3022212537,-0.131929976723,-2.4554104155,-0.0349953794418,2.14777081608,-0.227729876416,-0.63604459081,-0.581617512597,-0.00230714938408,-0.559091567333,-0.090732461868,-0.0304212261753,-0.596165839717,0.573790685143,0.818977624805,0.00454385442063,0.0,0.818961409909,-0.573715119271,-0.0115722902309,0.0,-0.00687070106827,0.0103615132542,-0.999922713268,0.0,0.43620858128,-0.0352139108914,0.304880204561,1.0,-0.20998,-0.275973714286,2.448
0.0420989789064,-0.312090974051,-0.132123478104,-2.46488730304,-0.0365856552476,2.14706270896,-0.237774850975,-0.661176143972,-0.578295311219,-0.0167550751339,-0.550018678757,-0.102402671351,-0.0348673210994,-0.584747063647,0.573786305938,0.818981247934,0.00444269652063,0.0,0.818962289886,-0.573708936815,-0.0118139944586,0.0,-0.00712676243963,0.0104173097201,-0.999920341285,0.0,0.432567739274,-0.0398691901978,0.304797449429,1.0,-0.20998,-0.275973714286,2.465
0.0299307491553,-0.322422027342,-0.132342829062,-2.47443356457,-0.0382636235602,2.14638770454,-0.248661152925,-0.675442455973,-0.575380970184,-0.00827857064502,-0.510807613818,-0.082489568708,-0.0357920965374,-0.591739194614,0.573922427959,0.818885219453,0.00455970916936,0.0,0.818868419289,-0.573845602426,-0.01168260971,0.0,-0.00695028117541,0.010438914551,-0.999921358235,0.0,0.428826796097,-0.0449126563555,0.304851586216,1.0,-0.20998,-0.275973714286,2.483
0.0172282668179,-0.333121183541,-0.13250583415,-2.48432435261,-0.0399068788877,2.14559155074,-0.260401447356,-0.670798728439,-0.558021094127,-0.0110770274627,-0.526343754538,-0.0867895543083,-0.0536912423855,-0.615547063934,0.573745619241,0.819008409417,0.00468365316036,0.0,0.81899307332,-0.573668216926,-0.0116563134753,0.0,-0.00685988787599,0.0105238409057,-0.999921092242,0.0,0.424871462434,-0.0500436961903,0.304862638221,1.0,-0.20998,-0.275973714286,2.502
0.0074372716526,-0.340908510188,-0.132729939395,-2.49149188679,-0.041168064362,2.1448207396,-0.269129558075,-0.70129454546,-0.548613240591,-0.0192821648543,-0.509175115841,-0.099813833055,-0.0558371854417,-0.62419681102,0.573959445749,0.818858612477,0.00467699788589,0.0,0.818842472495,-0.573880932913,-0.0117654995056,0.0,-0.00695037450651,0.0105828478405,-0.9999198446,0.0,0.421891812102,-0.0539939059184,0.304843315051,1.0,-0.20998,-0.275973714286,2.516
-0.00432288373601,-0.350212757215,-0.132859191513,-2.49990919954,-0.042712466755,2.14389869,-0.279964453144,-0.693293127791,-0.545833135687,-0.0103156567302,-0.479109928084,-0.0902320767,-0.0514111719602,-0.640167621335,0.573806046927,0.818966105848,0.00467812819316,0.0,0.818950257616,-0.573727978171,-0.011723033504,0.0,-0.00691692723988,0.0105581050781,-0.999920338094,0.0,0.418341047632,-0.0586262444398,0.30486354975,1.0,-0.20998,-0.275973714286,2.533
-0.0178533699281,-0.360441052696,-0.133148961275,-2.50903123516,-0.0443822392201,2.14287204294,-0.292285895786,-0.729939433245,-0.533137835791,-0.0146687093128,-0.486561391656,-0.0963700376682,-0.0640874728655,-0.653033935684,0.573915841048,0.818888472831,0.00479826631957,0.0,0.818874694157,-0.573838169447,-0.0116076464761,0.0,-0.0067520695329,0.0105911949682,-0.999921114962,0.0,0.414379300731,-0.0639378196425,0.304909357351,1.0,-0.20998,-0.275973714286,2.552
-0.0278306767949,-0.367820624729,-0.133219036947,-2.51570374556,-0.0455626420468,2.14195413527,-0.30154846317,-0.711814708424,-0.532659648581,-0.00324320237607,-0.468891960499,-0.079543664311,-0.0661476779925,-0.655894263178,0.573760884553,0.818997383906,0.0047412458529,0.0,0.818982075296,-0.573682189956,-0.0117410464385,0.0,-0.00689605078381,0.0106197530214,-0.999919829451,0.0,0.411408154288,-0.0677287285061,0.304868101586,1.0,-0.20998,-0.275973714286,2.566
-0.0401277972034,-0.376604893178,-0.133444223513,-2.52354641322,-0.046956256331,2.1408407422,-0.312844302203,-0.72993097794,-0.527380547953,-0.0173250822665,-0.448977831355,-0.0823508862931,-0.0556561625715,-0.664426107319,0.57382284218,0.818953787013,0.00477361824006,0.0,0.818938089994,-0.573742783912,-0.0118477663335,0.0,-0.0069640781682,0.0107080229175,-0.999918416602,0.0,0.407612031509,-0.0726855179221,0.304845394502,1.0,-0.20998,-0.275973714286,2.584
-0.0519491245919,-0.384741876796,-0.133594912407,-2.53048934881,-0.0483198455801,2.13989367308,-0.323703450376,-0.724251878945,-0.504129697158,-0.000586415581754,-0.433006694064,-0.0755809102253,-0.0611666804199,-0.679275663803,0.573808509005,0.818963116645,0.00489443250923,0.0,0.818950643903,-0.573730661164,-0.011563658236,0.0,-0.00666225185819,0.0106438290727,-0.999921158543,0.0,0.404342652247,-0.0771183393939,0.30494089454,1.0,-0.20998,-0.275973714286,2.6
-0.0653352254392,-0.39369328103,-0.133813256399,-2.53839478045,-0.0497874544645,2.13857923571,-0.336140707194,-0.753449212759,-0.497373027823,-0.0243118193294,-0.434273616744,-0.080579125051,-0.0817623002846,-0.697512662891,0.573764290466,0.818994393725,0.00484447457767,0.0,0.818980209129,-0.573684923024,-0.0117376765469,0.0,-0.00683402083815,0.0107023945126,-0.999919374205,0.0,0.400719891777,-0.0817911780913,0.30488429437,1.0,-0.20998,-0.275973714286,2.617
-0.0781741286295,-0.401942296888,-0.133973115475,-2.5455751931,-0.0511788845209,2.13730580959,-0.347995396552,-0.751626256893,-0.480585316225,-0.00238410049528,-0.428391235477,-0.075380935121,-0.0744129488776,-0.699762990797,0.573758067199,0.818999132583,0.0047799638245,0.0,0.818983569006,-0.573678076532,-0.0118374450697,0.0,-0.00695283065492,0.0107067475746,-0.999918508531,0.0,0.397122123506,-0.086464824789,0.30485309077,1.0,-0.20998,-0.275973714286,2.634
-0.0903441854527,-0.409555939848,-0.134161651768,-2.5520067917,-0.0523338805032,2.13616555449,-0.359393305087,-0.776514874019,-0.477067783315,-0.0177875388401,-0.398176093198,-0.0721175349169,-0.0710091591818,-0.715631262885,0.573731647097,0.819016752747,0.00492978094999,0.0,0.819003263593,-0.573651354573,-0.0117696440778,0.0,-0.00681169130004,0.0107903317167,-0.999918581487,0.0,0.393801122465,-0.0908509586952,0.304896160069,1.0,-0.20998,-0.275973714286,2.65
-0.103588269754,-0.417436397442,-0.134344094112,-2.55855772654,-0.0535916117954,2.13497841798,-0.371645262124,-0.760004263134,-0.462035422262,-0.00609705728842,-0.394965794517,-0.0755487037903,-0.0739735118143,-0.71473299954,0.57382423133,0.818951016911,0.00507250828178,0.0,0.818940361017,-0.573745052865,-0.0115778370873,0.0,-0.00657148144537,0.0107979331243,-0.999920106944,0.0,0.390288710221,-0.0955839921174,0.304969198797,1.0,-0.20998,-0.275973714286,2.667
-0.11758809172,-0.425536316409,-0.134560346439,-2.56549667562,-0.054986025447,2.13346284998,-0.384862273843,-0.783667957969,-0.446726349732,-0.0211572719815,-0.380361594506,-0.0788447242843,-0.0802496048417,-0.729558565695,0.573690139822,0.819045615451,0.00496489492805,0.0,0.819032348539,-0.573609365468,-0.0117921497461,0.0,-0.00681052944075,0.0108316581328,-0.999918142585,0.0,0.386663481861,-0.100227128844,0.304909356954,1.0,-0.20998,-0.275973714286,2.684
-0.129509489548,-0.432106681118,-0.134714061451,-2.57103550556,-0.056050584814,2.13230656902,-0.395917175964,-0.783876199373,-0.430648433711,-0.00520261345102,-0.36572808707,-0.076969887164,-0.0760441706123,-0.732710822214,0.573779575024,0.818982845434,0.00498448313402,0.0,0.818969319196,-0.573697900981,-0.0118625261242,0.0,-0.00685574988216,0.0108888236006,-0.99991721268,0.0,0.383283979933,-0.104641846215,0.304884857862,1.0,-0.20998,-0.275973714286,2.7
-0.143857594603,-0.439697447936,-0.134934091463,-2.57729337519,-0.0573174527607,2.13092238571,-0.409514465942,-0.805276108373,-0.406513495309,-0.0223039248592,-0.335530199589,-0.0733766073028,-0.0696648148887,-0.761684272152,0.573701366658,0.819037331937,0.00503365567926,0.0,0.81902451611,-0.573619648641,-0.011835861009,0.0,-0.00680673927071,0.0109131471553,-0.999917282339,0.0,0.379748195647,-0.109314085302,0.304900113629,1.0,-0.20998,-0.275973714286,2.717
-0.157698450434,-0.44675182908,-0.135083160239,-2.58288424451,-0.0584527571541,2.12965888505,-0.422492372872,-0.794720842421,-0.40981027803,-0.00860854338247,-0.331958734773,-0.0690930008912,-0.0815218266399,-0.756702110875,0.57373965014,0.819009590773,0.00518179318629,0.0,0.819000202349,-0.573659909717,-0.0115638850203,0.0,-0.00649847084247,0.0108787584637,-0.999919708022,0.0,0.376042479221,-0.114318061107,0.305010688712,1.0,-0.20998,-0.275973714286,2.735
-0.170735973952,-0.453113327552,-0.135306708268,-2.58823638638,-0.0594615956153,2.12830666161,-0.434854280344,-0.834744335218,-0.391263386954,-0.0180549674464,-0.330572496988,-0.0685780776271,-0.0890786621,-0.779341639135,0.573748950246,0.819003027097,0.00518947004679,0.0,0.818991941497,-0.573666202571,-0.0118336255097,0.0,-0.00671488082116,0.0110398769146,-0.999916512262,0.0,0.372618709906,-0.11869345651,0.304932698583,1.0,-0.20998,-0.275973714286,2.751
-0.1856008197,-0.460038484999,-0.135468043723,-2.59385053744,-0.060637021367,2.12685172116,-0.448945779802,-0.815796658829,-0.381233606518,-0.00844528656784,-0.306787987158,-0.0648444108312,-0.0708245311273,-0.788384038669,0.573701469749,0.819036297633,0.00518783854546,0.0,0.819024947637,-0.573618337134,-0.0118695136395,0.0,-0.00674585306482,0.0110587395282,-0.999916095353,0.0,0.368833362692,-0.123636145095,0.304933021357,1.0,-0.20998,-0.275973714286,2.769
-0.198996897537,-0.465857670302,-0.135692895589,-2.59861059284,-0.0616547400451,2.12568012511,-0.461647427423,-0.854276011161,-0.353372705518,-0.0212091375326,-0.296787497514,-0.0636848011524,-0.0764859889918,-0.793792973287,0.573745871972,0.819005030585,0.00521355664561,0.0,0.818993791007,-0.573662271388,-0.0118960320829,0.0,-0.00675221937369,0.0110953834427,-0.999915646442,0.0,0.365475065536,-0.128082300674,0.304904776338,1.0,-0.20998,-0.275973714286,2.785
-0.213290639508,-0.471925918255,-0.135825153679,-2.603354194,-0.0626595337408,2.1243671334,-0.475233211822,-0.837111866673,-0.356229971832,-0.0112729479808,-0.269165351133,-0.0508241930628,-0.0695848917965,-0.806811740904,0.573735882968,0.819011601431,0.00528017208219,0.0,0.819001777801,-0.573652960615,-0.0117947292284,0.0,-0.0066311613967,0.0110917432611,-0.999916496979,0.0,0.361942344193,-0.132749198931,0.304958704458,1.0,-0.20998,-0.275973714286,2.802
-0.228652678234,-0.478069498256,-0.136088253572,-2.60811405576,-0.0637238688529,2.12303713714,-0.48986596526,-0.853195649243,-0.333562435084,-0.0136637650242,-0.263779046891,-0.0597780574287,-0.077523461582,-0.810055940732,0.573809008906,0.81895970693,0.00538206513345,0.0,0.818951925233,-0.573726951417,-0.0116565979509,0.0,-0.00645857256783,0.0110965271627,-0.999917573566,0.0,0.358182073756,-0.137768183631,0.305017877073,1.0,-0.20998,-0.275973714286,2.82
-0.242296925523,-0.483230765097,-0.136195609602,-2.61226461633,-0.0646077788406,2.12183050764,-0.503014447549,-0.856299276146,-0.319256816202,-0.0151791056255,-0.25466623266,-0.0511536348085,-0.0761614071774,-0.817847260584,0.573687305816,0.81904503325,0.00537173668326,0.0,0.819036511348,-0.573604268088,-0.0117508983374,0.0,-0.00654338981143,0.0111412041837,-0.999916525326,0.0,0.354816310387,-0.142116581608,0.304984873086,1.0,-0.20998,-0.275973714286,2.836
-0.255349879091,-0.487806795363,-0.136387616111,-2.61594679343,-0.0653689170743,2.12068695271,-0.515465306478,-0.878736020061,-0.295432522167,-0.0112089289767,-0.244356106736,-0.0454391203094,-0.0670518008078,-0.841505973808,0.573800270054,0.818965656071,0.00540843439467,0.0,0.818956244441,-0.573714762269,-0.0119493994411,0.0,-0.0066833777757,0.011286057038,-0.999913974989,0.0,0.351414948753,-0.146541416144,0.30492970859,1.0,-0.208145142857,-0.273562187755,2.852
-0.270819002368,-0.4928846445,-0.136439799409,-2.61999325009,-0.0662053311863,2.1195068914,-0.530392825317,-0.864689230275,-0.278815247683,-0.000140431382234,-0.21801529267,-0.0440400598498,-0.068188698194,-0.830068101803,0.573689162828,0.819043236274,0.00544687705804,0.0,0.819034138655,-0.573603214995,-0.0119657163269,0.0,-0.00667622137048,0.0113259981023,-0.999913571183,0.0,0.347930533014,-0.151122912146,0.304910282228,1.0,-0.204638285714,-0.26895317551,2.869
-0.285547578827,-0.497405487648,-0.136529687406,-2.62351863292,-0.0669720135135,2.11838999654,-0.544406249087,-0.846597812242,-0.265755230596,0.00503936178481,-0.202763414141,-0.0493370851351,-0.0721698292754,-0.820293988916,0.573813735235,0.818955703316,0.00548636156883,0.0,0.818946911176,-0.573727257611,-0.0119890554117,0.0,-0.00667095856625,0.0113727424886,-0.999913075742,0.0,0.344443152907,-0.15572658367,0.304906298399,1.0,-0.201131428571,-0.264344163265,2.886
-0.299099226553,-0.501399457122,-0.136496009326,-2.6265629552,-0.0675896528195,2.11735871167,-0.557475700454,-0.85433354238,-0.244116667678,-0.00111131663241,-0.186332755569,-0.0411311632803,-0.0639718800503,-0.817293993547,0.573748202908,0.81900131662,0.00553081683496,0.0,0.818993110592,-0.573661578747,-0.0119760082068,0.0,-0.00663567712925,0.0114011335776,-0.999912987185,0.0,0.341258229529,-0.159888191428,0.304928566468,1.0,-0.197830857143,-0.260006269388,2.902
-0.313566345023,-0.505257574101,-0.13648745364,-2.62949457748,-0.0681907876988,2.11639015193,-0.571293187415,-0.83219353848,-0.217910019011,0.0105845388652,-0.160824848014,-0.024027111176,-0.0543835343026,-0.806629608126,0.573850602186,0.818929089139,0.00560180633325,0.0,0.818922050378,-0.573764108139,-0.0119235279139,0.0,-0.00655053455719,0.0114299864645,-0.999913219188,0.0,0.337914324288,-0.164330331751,0.304951428168,1.0,-0.194324,-0.255397257143,2.919
-0.329469863779,-0.509216937487,-0.13646284915,-2.63244692781,-0.0687591337323,2.11544627697,-0.586579259645,-0.850485586589,-0.208615495811,-0.00308791621633,-0.151633610811,-0.0286070380261,-0.0625253673809,-0.804739826011,0.573927108827,0.818874531338,0.00573782015812,0.0,0.818870079369,-0.57384155244,-0.0117648930828,0.0,-0.00634149377567,0.011450940787,-0.999914327036,0.0,0.334277104778,-0.169180755016,0.305000510192,1.0,-0.190404571429,-0.250246008163,2.938
-0.341836610525,-0.512056660069,-0.13635576258,-2.63463836034,-0.0692072934248,2.11464374903,-0.598576733949,-0.815995428606,-0.184299510896,0.0102708439583,-0.137978698637,-0.0231706674775,-0.0560406429728,-0.795088490341,0.573836376452,0.818938144069,0.0057337727014,0.0,0.818933272697,-0.573750191781,-0.0118219796537,0.0,-0.00639183995247,0.0114796802296,-0.999913676936,0.0,0.331425645168,-0.172888663806,0.304990662837,1.0,-0.187310285714,-0.246179232653,2.953
-0.356561984554,-0.515083828821,-0.136280707419,-2.6370628053,-0.0696729195113,2.11376895598,-0.612757432226,-0.834537346712,-0.15676288859,-0.000712328441543,-0.131216756247,-0.0315158468015,-0.0423101327454,-0.790847656072,0.573891840445,0.818899089527,0.00576051594741,0.0,0.81889345225,-0.573803550724,-0.011989409502,0.0,-0.00651283741287,0.0115980963752,-0.999911529641,0.0,0.328034176174,-0.17729004323,0.304934720706,1.0,-0.183597142857,-0.241299102041,2.971
-0.371763345713,-0.517900381331,-0.136117494496,-2.63929390857,-0.0701060639481,2.11299692481,-0.627505981162,-0.797216113222,-0.146690625698,0.00757440399849,-0.114830447873,-0.0214085984122,-0.0330262760133,-0.768260713982,0.573833990745,0.818939538714,0.00577320518285,0.0,0.818933577676,-0.573744791876,-0.0120605162419,0.0,-0.00656461359089,0.0116488300167,-0.999910601308,0.0,0.324584291747,-0.181800266751,0.304897377075,1.0,-0.179677714286,-0.236147853061,2.99
-0.382108868095,-0.519622797792,-0.136048954937,-2.64060931803,-0.0703772897769,2.11251469109,-0.637492631073,-0.796470120032,-0.127517331758,0.0021179623865,-0.0991379998172,-0.0258848891042,-0.040187217164,-0.771188397793,0.573887666392,0.818901684423,0.00580728108499,0.0,0.818896107498,-0.573798209558,-0.012063446179,0.0,-0.00654669495111,0.0116788477059,-0.999910368634,0.0,0.322257585719,-0.184883106633,0.30489396234,1.0,-0.176996,-0.232623314286,3.003
-0.393799768225,-0.521448627554,-0.135890228153,-2.6419586917,-0.0706533345734,2.11197632777,-0.648875447519,-0.775394952515,-0.115271515934,0.00754901787816,-0.0866830020713,-0.0149197565102,-0.0280202009051,-0.753630774497,0.573831419259,0.818940997067,0.00582172613783,0.0,0.818935757466,-0.573742180885,-0.0120366904526,0.0,-0.0065172949079,0.0116748756476,-0.999910607077,0.0,0.31964532575,-0.188333472874,0.304909716442,1.0,-0.173901714286,-0.228556538776,3.018
-0.408476320605,-0.523499195983,-0.135790804835,-2.64347701648,-0.0709380998451,2.11133547365,-0.663088218716,-0.775758514482,-0.100673114891,2.82102044596e-06,-0.0735858409056,-0.0148902469258,-0.0363323675615,-0.742886256227,0.573931278272,0.818870387615,0.00590956922521,0.0,0.818866107937,-0.57384132417,-0.0120490185605,0.0,-0.00647555414405,0.0117546808894,-0.999909943283,0.0,0.316351759342,-0.192669178377,0.304919842462,1.0,-0.169982285714,-0.223405289796,3.037
-0.420572230772,-0.524991076034,-0.135630288823,-2.64454476797,-0.0711473271181,2.11089836255,-0.674912585085,-0.74614078889,-0.0782559374077,0.0081079670992,-0.0651675487791,-0.0146959869174,-0.0263392382407,-0.73728160961,0.57388860936,0.818899979951,0.00595262830293,0.0,0.818896679629,-0.573799251617,-0.0119747166038,0.0,-0.00639060456033,0.0117469671771,-0.99991058047,0.0,0.313670982628,-0.196221431575,0.304947948886,1.0,-0.166681714286,-0.219067395918,3.053
-0.434008191253,-0.526407061918,-0.135515235922,-2.64560392434,-0.071351418239,2.11046937469,-0.687970266465,-0.754759386173,-0.0737853340484,0.00187760552301,-0.0569089908075,-0.00882262903908,-0.0136906672706,-0.719717733765,0.573968630059,0.818843376593,0.0060235553399,0.0,0.818841038269,-0.573879039724,-0.0119561161614,0.0,-0.00633351631421,0.0117949970128,-0.999910378292,0.0,0.31067734329,-0.200166552016,0.304951064885,1.0,-0.162968571429,-0.214187265306,3.071
-0.446377239537,-0.527487943486,-0.135321368551,-2.64644113378,-0.0715144189298,2.11011039972,-0.700074302294,-0.718494190267,-0.0596721332385,0.0148148856893,-0.0490460034893,-0.00613584174158,-0.0166189163472,-0.707196677505,0.573930877926,0.818869713493,0.00604041293705,0.0,0.818867420795,-0.573840902688,-0.0119796688044,0.0,-0.00634367408462,0.0118220268071,-0.99990999469,0.0,0.30793301189,-0.203763582746,0.304940002995,1.0,-0.159461714286,-0.209578253061,3.088
-0.457817723091,-0.528305663561,-0.135165153478,-2.64707924115,-0.0716394164776,2.1098239392,-0.711244080109,-0.71891878879,-0.0494294397281,0.00800737543532,-0.0371096789485,-0.00944493461705,-0.0168537051076,-0.697663327102,0.573952206606,0.81885454171,0.00607049864983,0.0,0.81885244785,-0.573861742192,-0.0120048490289,0.0,-0.00634672041275,0.0118612806356,-0.999909510487,0.0,0.305396116769,-0.207092016547,0.304928223053,1.0,-0.156161142857,-0.205240359184,3.104
-0.469801919263,-0.52897547664,-0.134958503195,-2.6476045731,-0.0717477558496,2.10955504538,-0.722917260656,-0.684685126388,-0.0288788285304,0.0165449274197,-0.0228702769665,-0.0029430956829,-0.0121906995914,-0.695675415729,0.573984649261,0.818831732966,0.00607967109019,0.0,0.818829518444,-0.573893690934,-0.012041517029,0.0,-0.00637101403653,0.0118900890006,-0.999909013843,0.0,0.302748621315,-0.210563707605,0.304916303782,1.0,-0.152654285714,-0.200631346939,3.121
-0.481387137863,-0.529435115587,-0.134781137698,-2.64799449586,-0.071802509621,2.10934609444,-0.734389374881,-0.685095218198,-0.026403490029,0.0122857729459,-0.0267097047968,-0.00489593199923,-0.0129085787678,-0.67006922069,0.573906597254,0.818886096934,0.00612574711207,0.0,0.818884058228,-0.573814663119,-0.0120986970419,0.0,-0.00639253435928,0.011960028973,-0.999908042378,0.0,0.300187169347,-0.213916746016,0.304893506515,1.0,-0.149147428571,-0.196022334694,3.138
-0.492291928441,-0.529743017843,-0.134627702174,-2.64822890734,-0.0718438594195,2.10917124807,-0.744938466546,-0.670489802043,-0.0156351625858,0.0162662325745,-0.0107060878131,-0.00198113980828,-0.00600449616228,-0.667892268704,0.574058518059,0.818779273523,0.00616976451395,0.0,0.818777608501,-0.573965981422,-0.0121254644934,0.0,-0.00638696703354,0.0120126224918,-0.999907447494,0.0,0.297776250661,-0.217076842638,0.304888277879,1.0,-0.145846857143,-0.191684440816,3.154
-0.503310676409,-0.529916171578,-0.134375823055,-2.6483646053,-0.0718566833644,2.10905501881,-0.755963971793,-0.650494219028,-0.00683143796091,0.0149947192417,-0.00956120925125,-0.000904334565178,-0.00517106891781,-0.650015609415,0.573862139009,0.818916830739,0.0061819612899,0.0,0.81891531201,-0.57376956617,-0.0121220292581,0.0,-0.0063800353702,0.0120191078028,-0.999907413812,0.0,0.295359900458,-0.220243519328,0.304886270178,1.0,-0.14234,-0.187075428571,3.171
-0.514407179925,-0.529989322821,-0.134236429935,-2.64842244601,-0.0718673427022,2.1089434047,-0.766702500777,-0.648885603643,0.000576660875659,0.00574659901102,-0.0018067086442,-0.000560856792509,-0.0097116641777,-0.622736736395,0.574049146447,0.818785321955,0.00623866294062,0.0,0.818784365206,-0.573955942562,-0.0121443893773,0.0,-0.00636305260634,0.0120798286059,-0.999906790307,0.0,0.292890245211,-0.223449715575,0.304880677398,1.0,-0.138833142857,-0.182466416327,3.188
-0.524371822914,-0.52993327182,-0.133995881239,-2.64838008429,-0.0718637941987,2.10892956447,-0.776593007929,-0.608111604183,0.00209822577912,0.0183609157901,0.00825881798961,-0.000430030044719,0.00110704828829,-0.613470795356,0.573944230467,0.818858902755,0.00623414740012,0.0,0.818858167733,-0.573851603042,-0.0120989968436,0.0,-0.0063300176731,0.0120492639359,-0.999907368767,0.0,0.29070175639,-0.226306606587,0.304884427187,1.0,-0.135532571429,-0.178128522449,3.204
-0.535415389721,-0.529770918688,-0.133809644083,-2.64826521827,-0.071863384542,2.108919344,-0.787436219271,-0.61621302832,0.00862966562873,0.00797091856643,0.00979666460231,-0.000625073486783,0.00027172625725,-0.592551805523,0.57398382812,0.818830990989,0.0062546105463,0.0,0.818830619936,-0.573891286728,-0.0120811329596,0.0,-0.00630306093267,0.0120560736921,-0.999907456973,0.0,0.288243847216,-0.229482097091,0.304881254753,1.0,-0.131819428571,-0.173248391837,3.222
-0.545630125839,-0.52950330534,-0.133601633301,-2.6480369144,-0.0718601539722,2.10893116119,-0.797437130563,-0.584424524233,0.0170081783851,0.0158343769139,0.0154307280104,0.000408692027773,0.00131604967092,-0.579468725607,0.574026534484,0.818801134478,0.00624394009035,0.0,0.81880090627,-0.573934570429,-0.0120387565979,0.0,-0.00627385527765,0.0120233410206,-0.999908034777,0.0,0.285978157082,-0.232416320117,0.304893648062,1.0,-0.128312571429,-0.168639379592,3.239
-0.554748943593,-0.529105591253,-0.133356045762,-2.64773945038,-0.0718478425036,2.10894595812,-0.806623413047,-0.572187704927,0.0265881198994,0.0116195717806,0.0201524938008,-0.00059789393418,-0.00188003591586,-0.570512402023,0.573820369972,0.81894595735,0.00620071329522,0.0,0.818945054816,-0.573728426516,-0.0120597139822,0.0,-0.0063188501878,0.0119983840345,-0.999908051229,0.0,0.2839630601,-0.235022178753,0.304891156641,1.0,-0.125012,-0.164301485714,3.255
-0.56449009552,-0.528612207317,-0.133171977312,-2.64737577804,-0.0718109480581,2.10899455412,-0.81611496165,-0.56804296322,0.0339877264663,0.0152457048294,0.0233630147368,0.00434266535712,0.0083670454936,-0.553775814369,0.573931424404,0.818868106149,0.0062041691028,0.0,0.818867145874,-0.573839246898,-0.012077376773,0.0,-0.00632970478619,0.0120122075723,-0.999907816604,0.0,0.281785963732,-0.237816184246,0.304885103835,1.0,-0.121505142857,-0.159692473469,3.272
-0.573822239364,-0.527944867424,-0.132933141712,-2.64686107186,-0.0717580106402,2.10914505392,-0.82540073746,-0.527838380801,0.0447122986202,0.00964454987253,0.0311944524825,0.000217224125883,0.0103272764625,-0.538932534231,0.573852563071,0.818923631274,0.00616999989813,0.0,0.818922630411,-0.573761317846,-0.0120175890082,0.0,-0.00630150168056,0.0119493068617,-0.999908748408,0.0,0.279742080503,-0.240508200616,0.30489414315,1.0,-0.117998285714,-0.155083461225,3.289
-0.582308787871,-0.52721868897,-0.132712592396,-2.64634673096,-0.0716952002224,2.10923886574,-0.83381753643,-0.532796274947,0.0450042641803,0.00873806977974,0.0360793478668,0.00285638252906,0.00342973172251,-0.524200910463,0.573810098524,0.81895358329,0.00614378947903,0.0,0.818951865764,-0.573718267284,-0.0120804903532,0.0,-0.00636867922497,0.011963605553,-0.999908151816,0.0,0.277864322488,-0.242942535758,0.304876056469,1.0,-0.114697714286,-0.150745567347,3.305
-0.591753880287,-0.52634977728,-0.132500169473,-2.64568246752,-0.07156782786,2.10937887108,-0.843035597522,-0.520593748113,0.0506197121073,0.00759901742622,0.042354354486,0.00748832122759,0.0107470523806,-0.511965442366,0.573937662764,0.818864004103,0.00616838291612,0.0,0.81886256961,-0.573845626209,-0.012084546904,0.0,-0.00635602328154,0.0119870652788,-0.999907951381,0.0,0.275774371343,-0.245662238053,0.304877495843,1.0,-0.110984571429,-0.145865436735,3.323
-0.600167275691,-0.525386613112,-0.132222507773,-2.64499148931,-0.0714048167036,2.10953931603,-0.851497173787,-0.482599690971,0.0534186661864,0.0153026784917,0.0390172590724,0.0084096825372,0.00742149562223,-0.500608732435,0.573810532122,0.818953028817,0.00617711251734,0.0,0.818951338068,-0.573717787349,-0.0121389149683,0.0,-0.00639740502404,0.0120244233262,-0.999907238924,0.0,0.273938117567,-0.248070920314,0.304859728138,1.0,-0.107477714286,-0.14125642449,3.34
-0.607393154832,-0.524522852891,-0.13198621317,-2.64437563986,-0.0712648268875,2.10968053659,-0.858738240468,-0.491721557097,0.0582692890944,0.00549431449085,0.0417908369673,0.00879714571225,0.00703466344693,-0.469580530675,0.573725425397,0.819012602235,0.00618389315259,0.0,0.819010608917,-0.573631934623,-0.0121972522701,0.0,-0.00644254876823,0.0120627800896,-0.999906487079,0.0,0.272348979481,-0.250134662736,0.304841254889,1.0,-0.104383428571,-0.13718964898,3.355
-0.615972209639,-0.523503269246,-0.131743566669,-2.6435509197,-0.0710887038379,2.10986602644,-0.86708882697,-0.468151923122,0.0573770519097,0.00812681495118,0.0468297345388,0.00309400326242,0.0149426320748,-0.456307250607,0.573861624234,0.818917012712,0.00620559608134,0.0,0.818915589584,-0.57376854446,-0.0121516017529,0.0,-0.00639070061687,0.012055429397,-0.999906908451,0.0,0.270460200693,-0.252605109308,0.304864267225,1.0,-0.100670285714,-0.132309518367,3.373
-0.62413143146,-0.522344890469,-0.131493349493,-2.64264856301,-0.0708947002693,2.11007640097,-0.875186560975,-0.441101818467,0.0661729675106,0.0137738440959,0.0494765534456,0.00959531472079,0.0122051210011,-0.440937786709,0.573867566921,0.818912698189,0.00622537405627,0.0,0.818911563631,-0.573774454153,-0.0121438714777,0.0,-0.00637293265596,0.0120672371123,-0.999906879423,0.0,0.26867848632,-0.254965862313,0.304873600752,1.0,-0.0969571428572,-0.127429387755,3.391
-0.630580789199,-0.521393918028,-0.131239842682,-2.64191926,-0.0707273615199,2.11026053471,-0.881718373196,-0.433767158118,0.0616035606314,0.0117053914466,0.0440130062803,0.00543208781641,0.00991157012617,-0.436141935845,0.573732171845,0.819007572368,0.00622400961559,0.0,0.819006440845,-0.573639134009,-0.0121383972575,0.0,-0.00637122645023,0.0120619252138,-0.999906954388,0.0,0.267274756715,-0.25681534012,0.304877898021,1.0,-0.0938628571429,-0.123362612245,3.406
-0.637870556711,-0.520321920786,-0.131005448149,-2.64105928128,-0.0705384874678,2.11045826787,-0.888833776669,-0.418843209827,0.0625092926277,0.0148277053854,0.0481922522775,0.0160152332194,0.0128780083637,-0.408416704154,0.573836555675,0.818934305878,0.00624154858849,0.0,0.818933603201,-0.573743796414,-0.0121060532905,0.0,-0.00633313449821,0.0120585419625,-0.999907237184,0.0,0.26566837499,-0.258915804515,0.304897477544,1.0,-0.0903560000001,-0.1187536,3.423
-0.645208453691,-0.519111838316,-0.130803539056,-2.6401319475,-0.0703344518225,2.11070428462,-0.896092313152,-0.396220734931,0.0682561290034,0.00934658686938,0.0483633354665,0.0113219485086,0.0144165667139,-0.393447574161,0.573896299223,0.818892150284,0.00627939824483,0.0,0.818891982729,-0.573803437333,-0.0120947438549,0.0,-0.00630127182419,0.0120835102624,-0.999907137065,0.0,0.264047441173,-0.26104638516,0.304899804398,1.0,-0.0866428571429,-0.113873469388,3.441
-0.651004216952,-0.518081690024,-0.130562578744,-2.63935375967,-0.0701431995954,2.11090885313,-0.901934797831,-0.377887121456,0.0671544060182,0.0173096298342,0.0467429342813,0.00883827488495,0.0169838961235,-0.386340113041,0.573811308139,0.818951619354,0.00629084331875,0.0,0.81895152924,-0.57371827573,-0.0121028819381,0.0,-0.00630262432537,0.012096899176,-0.999906966651,0.0,0.26278629273,-0.262713445153,0.304897608422,1.0,-0.0835485714286,-0.109806693878,3.456
-0.657718093435,-0.516886225894,-0.130250982512,-2.63847312838,-0.069937729959,2.11114436389,-0.908598973056,-0.368304310503,0.0586607422175,0.00734637068504,0.0466090257475,0.00753168446155,0.013592124646,-0.362967047826,0.573766687301,0.81898298338,0.00627760926597,0.0,0.818982494865,-0.573673292243,-0.012139759999,0.0,-0.00634108217193,0.0121068750725,-0.999906602765,0.0,0.261313291527,-0.264626033377,0.304885054455,1.0,-0.0798354285715,-0.104926563265,3.474
-0.663863924728,-0.515751016441,-0.129996632158,-2.63759526484,-0.0697226984912,2.11138480876,-0.914662713977,-0.35204903891,0.0669182828177,0.0114763819705,0.0556855409438,0.00906473699255,0.0136871997487,-0.355144639574,0.573792580534,0.818964737826,0.00629123376147,0.0,0.818964566198,-0.573699384318,-0.012116214171,0.0,-0.00631359678277,0.0121047243773,-0.999906802729,0.0,0.259967658153,-0.266395239882,0.304892034375,1.0,-0.0763285714286,-0.10031755102,3.491
-0.669370034199,-0.514635696509,-0.129820807543,-2.63675296271,-0.0695209611059,2.11160703102,-0.920115663888,-0.347977123043,0.0711618002476,0.0100100638438,0.0458916448751,0.0057756945962,0.0124356042248,-0.337433079179,0.57384287789,0.818929177571,0.00633249703431,0.0,0.81892943039,-0.573749264441,-0.0121291588647,0.0,-0.00629977786846,0.0121463334731,-0.999906385309,0.0,0.258752688096,-0.267998793558,0.304886314332,1.0,-0.0730280000001,-0.0959796571429,3.507
-0.674983900893,-0.513501396969,-0.129600804962,-2.6358947853,-0.0693086657431,2.11182855937,-0.925660089848,-0.314926265114,0.0651559002093,0.0134421283653,0.0486467073883,0.0101665506692,0.0129489598049,-0.312837401092,0.573880244738,0.818902770303,0.00636116264701,0.0,0.818903272649,-0.573786251019,-0.0121455789371,0.0,-0.00629622179298,0.0121795192159,-0.999906004034,0.0,0.257513029435,-0.269617991977,0.304881423327,1.0,-0.0695211428572,-0.091370644898,3.524
-0.68019984797,-0.512400368383,-0.129296858966,-2.63508620704,-0.0691011853835,2.112043909,-0.930897021756,-0.299656637673,0.0698025286464,0.0136848609153,0.0515847912007,0.0133138595176,0.0154723452742,-0.301719479289,0.573779010008,0.818973798199,0.00634920771439,0.0,0.818973868829,-0.573684562577,-0.0121890006996,0.0,-0.00634015181642,0.0121938627299,-0.999905551633,0.0,0.256378954978,-0.27109876142,0.304867417434,1.0,-0.0660142857143,-0.0867616326531,3.541
-0.684996018215,-0.511380839941,-0.129051921928,-2.63429265126,-0.0689151249718,2.11225968446,-0.935624737389,-0.295593387437,0.0648120191359,0.0181211101489,0.047069472803,0.0120968248227,0.0166160970834,-0.291265221204,0.573782494624,0.818971431391,0.00633958432201,0.0,0.818971507819,-0.573688344073,-0.0121696407617,0.0,-0.00632976434992,0.0121749001706,-0.999905848512,0.0,0.255334116842,-0.272479810653,0.304874955929,1.0,-0.0627137142858,-0.0824237387756,3.557
-0.689781913259,-0.510300301311,-0.128840350105,-2.63349204789,-0.0687039216262,2.11248121103,-0.940314288964,-0.271651859008,0.0645054976115,0.0154097328069,0.0445136433109,0.00565215108171,0.0121834064216,-0.272992216921,0.573843734842,0.818928288388,0.00636972228133,0.0,0.81892858169,-0.573749089687,-0.0121945510709,0.0,-0.00633196238555,0.0122143495289,-0.99990535348,0.0,0.25428070855,-0.273860571274,0.304862456442,1.0,-0.0592068571429,-0.0778147265307,3.574
-0.694349284491,-0.509290870408,-0.128653809015,-2.63276085876,-0.0685108007169,2.11268427187,-0.944781451511,-0.263518249307,0.0527356120864,0.0105397173772,0.0419455770779,0.00629039099923,0.00795060576488,-0.262985904459,0.573914464705,0.818878444485,0.0064052525978,0.0,0.818878908442,-0.573819068069,-0.012237537775,0.0,-0.00634572199594,0.0122686624068,-0.999904601317,0.0,0.253256410142,-0.275169009658,0.304842249835,1.0,-0.0557000000001,-0.0732057142858,3.591
