nelsonifechukwu/NELSON_IML_WORK/CNN-GradCAM/train2dof/data_sample_2022-02-21-15-18-36/robot_state.csv
position_joint1,position_joint2,position_joint3,position_joint4,position_joint5,position_joint6,position_joint7,velocity_joint1,velocity_joint2,velocity_joint3,velocity_joint4,velocity_joint5,velocity_joint6,velocity_joint7,ee_T_00,ee_T_10,ee_T_20,ee_T_30,ee_T_01,ee_T_11,ee_T_21,ee_T_31,ee_T_02,ee_T_12,ee_T_22,ee_T_32,ee_T_03,ee_T_13,ee_T_23,ee_T_33,v_x,v_y,time
0.465088216673,0.547859789943,-0.123936042995,-1.35584724637,0.0794789342088,1.89409314165,0.159167690062,0.000128169434283,0.000322211371323,0.000546892191859,-0.000584372318889,-0.000174479090805,-0.00147501676519,-0.00165828781154,0.573759420386,0.819010024512,0.00185853949028,0.0,0.818965576082,-0.573701132053,-0.0119642456962,0.0,-0.00873275908404,0.00838684001299,-0.99992669723,0.0,0.661655574675,0.260923795612,0.30314949695,1.0,0.0,0.0,0.0
0.465085432613,0.547865513016,-0.12394665613,-1.35584724637,0.079478969312,1.89409314552,0.159173151972,0.00496178490744,0.00240138685826,-0.00148927180095,-0.000823805594003,-0.000145363102858,-0.000849444137263,0.000393263865814,0.57377360787,0.819000102699,0.00185083549847,0.0,0.818955609156,-0.573715403776,-0.0119621320296,0.0,-0.00873530270707,0.0083794690963,-0.999926736808,0.0,0.661658585086,0.260915740876,0.303145794417,1.0,-2e-05,-2.62857142857e-05,0.002
0.465087271829,0.547856665983,-0.123939152855,-1.35584497915,0.0794778664853,1.89409161867,0.159168734381,-0.00263289758672,-0.000392210711499,-8.27901964978e-05,-0.000266463848711,-1.64964911634e-05,-0.000522375817471,-0.00156481125575,0.573762799912,0.819007652399,0.00186055111112,0.0,0.818963256993,-0.573704528332,-0.0119601324314,0.0,-0.00872820143228,0.00838616352855,-0.999926742697,0.0,0.66165689512,0.260921405387,0.303152757686,1.0,-0.00032,-0.000420571428571,0.017
0.465085136732,0.547848829009,-0.123938502364,-1.35585395862,0.0794744524881,1.89408999252,0.159169994583,0.000205051474011,-0.000599927132636,-0.000148375140018,0.0012059281419,0.000300530149982,-9.71188192295e-05,9.15832613839e-05,0.573764685925,0.819006339192,0.001857000132,0.0,0.818961914388,-0.573706445471,-0.0119601048515,0.0,-0.00873019682914,0.00838325959058,-0.999926749628,0.0,0.661655318666,0.260918741865,0.303153866849,1.0,-0.00066,-0.000867428571429,0.034
0.465087246795,0.547817654745,-0.123942005836,-1.35588832338,0.0794756032834,1.89409760132,0.159173961758,0.000647069645852,-0.000419420769346,-0.000475306829195,-0.00273521277578,-0.000100450542937,0.000525163331691,0.00117394021139,0.573770833531,0.819002020955,0.00186203145668,0.0,0.818957643943,-0.573712553792,-0.0119595129038,0.0,-0.00872676243283,0.00838710605994,-0.999926747352,0.0,0.661649973308,0.260915145384,0.303160374528,1.0,-0.00102,-0.00134057142857,0.052
0.465087131718,0.547701434397,-0.123936707329,-1.35603252836,0.0794751430867,1.89412460915,0.159169170107,-0.000410031706818,-0.00611757093352,0.00116138901216,-0.009496256553,-0.00254943805087,0.00479773192778,0.000229894398141,0.573771031432,0.819001867368,0.00186859258353,0.0,0.81895743727,-0.573712590404,-0.0119719026546,0.0,-0.00873314367867,0.00839959044601,-0.999926586846,0.0,0.661624212051,0.26090430488,0.303176241728,1.0,-0.00134,-0.00176114285714,0.068
0.465080868358,0.547566223775,-0.123935997041,-1.35623225572,0.0794729175479,1.89415966317,0.159172009484,-0.000106164519747,-0.00809342054272,-5.4651939065e-05,-0.0143512620848,0.000122546871254,0.00772772431612,0.00271530999118,0.573788299394,0.818989810755,0.00185047533583,0.0,0.818944997629,-0.573729793122,-0.0119984267643,0.0,-0.00876508518848,0.00840015613702,-0.999926302614,0.0,0.661590574514,0.260880653569,0.303179980667,1.0,-0.00168,-0.002208,0.085
0.465059485518,0.547398773575,-0.123942024717,-1.3564419139,0.0794698780488,1.8942795225,0.159158001262,-0.000985298235584,-0.0119988677581,-0.00129034292048,-0.0136687467884,0.000425315675068,0.00946301026578,0.000725713859006,0.57380973048,0.818974637086,0.00191935334909,0.0,0.81893072504,-0.573750930013,-0.0119618057644,0.0,-0.00869535217823,0.00843578038644,-0.999926611537,0.0,0.661577972437,0.260847995148,0.303209409896,1.0,-0.00202,-0.00265485714286,0.102
0.465039697231,0.547215970939,-0.123937422348,-1.35665006854,0.0794671201453,1.89439983923,0.159138756445,-0.00230536027205,-0.0114085859915,-0.000652604262142,-0.0141228457398,8.78059287139e-05,0.0170538566328,-0.00713180115876,0.573818100051,0.818968564802,0.00200619602024,0.0,0.818925733785,-0.573758885574,-0.0119218568505,0.0,-0.00861271902331,0.00848406613956,-0.999926918176,0.0,0.661563332999,0.260823003434,0.303250111875,1.0,-0.00234,-0.00307542857143,0.118
0.465010839601,0.547008035679,-0.123939462054,-1.35694273419,0.0794592676715,1.89452564313,0.15911891313,-0.00136914403274,-0.0163116366132,-0.00173085140818,-0.0201712315939,4.86604138278e-05,0.00872038409644,-0.00865683435629,0.573841293831,0.818952215937,0.0020455822553,0.0,0.818909844983,-0.573781861922,-0.0119074607165,0.0,-0.00857808849961,0.00850830392262,-0.999927009917,0.0,0.661535224433,0.260778001038,0.303269071457,1.0,-0.00268,-0.00352228571429,0.135
0.464973915652,0.546750959064,-0.123941361011,-1.35734290611,0.0794481277074,1.89466540729,0.159075361425,-0.000499215106479,-0.0198794769458,-0.00080189971257,-0.0189074942438,-0.00450060264839,0.00586908935922,-0.00275474663393,0.573856574663,0.818941498557,0.00204952638391,0.0,0.818899057455,-0.573797004114,-0.0119196757902,0.0,-0.00858567035574,0.0085187035555,-0.999926856302,0.0,0.661488762832,0.260716035087,0.303272857057,1.0,-0.00304,-0.00399542857143,0.153
0.46493887041,0.546501146127,-0.123942310896,-1.35771121283,0.0794385172887,1.89481410408,0.158950476976,-0.00139582749065,-0.0157228417244,-0.000297661331228,-0.0278431129292,8.22462889881e-05,0.00724432701722,-0.00181066174766,0.573801783867,0.818979805932,0.00208259644357,0.0,0.818937695239,-0.573741984638,-0.0119135755354,0.0,-0.00856226961346,0.00854171208051,-0.999926860672,0.0,0.661450388126,0.26066040995,0.303287397918,1.0,-0.00334,-0.00438971428571,0.168
0.464881324057,0.546158508248,-0.123942416733,-1.35829142397,0.0794155392166,1.89501153244,0.158931480648,-0.00168259320275,-0.0199977454282,-0.000632959228616,-0.0289951024496,3.57852259225e-05,0.0208529507856,-0.00321486179241,0.573859707998,0.818939291802,0.00205396674854,0.0,0.8188966737,-0.573799885701,-0.0119447007089,0.0,-0.00860358449944,0.00853673335777,-0.999926548561,0.0,0.661381914365,0.260567587609,0.303270976105,1.0,-0.00374,-0.00491542857143,0.188
0.464827052918,0.545853628777,-0.123939202051,-1.35882032094,0.0793493151971,1.8951892261,0.158855151075,-0.0045083427698,-0.0167385141403,-0.00112769958828,-0.0325960013044,-0.00351720856464,0.0080476077195,-0.0105294596622,0.573851295402,0.81894533007,0.00199600188505,0.0,0.818902219161,-0.573791974464,-0.0119445550515,0.0,-0.00863681400198,0.00848909220376,-0.99992666769,0.0,0.661321040388,0.260476108335,0.30325031598,1.0,-0.00406,-0.005336,0.204
0.464759705685,0.54548574069,-0.123940619856,-1.35945732704,0.0792812374335,1.89540277431,0.158755021103,-0.00769473516393,-0.02027721769,0.000292149564019,-0.0405585385472,-5.8365521363e-05,0.0115604177781,-0.000484358627213,0.573842832811,0.818951414187,0.00193166599923,0.0,0.818907703204,-0.573784015682,-0.011950894669,0.0,-0.00867901011383,0.00843995391355,-0.999926718296,0.0,0.661248654698,0.260363432754,0.30322605154,1.0,-0.0044,-0.00578285714286,0.221
0.464710944579,0.5451241442,-0.123939884543,-1.36007200279,0.0792718491227,1.89559854855,0.158716821327,-0.000830660987986,-0.0246291073865,0.000884121997632,-0.0453213250541,0.000433499906097,0.0131534803784,0.000530574638144,0.573882610171,0.818923619371,0.00189796752545,0.0,0.818879161968,-0.573823633958,-0.0120042537226,0.0,-0.00874163658738,0.0084434010778,-0.999926143657,0.0,0.661168999097,0.260275164007,0.303206426852,1.0,-0.0047,-0.00617714285714,0.236
0.464631536693,0.544642912185,-0.123947775421,-1.36087344153,0.0792456386988,1.89588684058,0.158585803887,-0.00150897177115,-0.0253986643785,-0.000232976883973,-0.042259439902,0.000191975374083,0.0142096851265,-0.00691859643235,0.573883597532,0.818922967801,0.00188047657332,0.0,0.81887809422,-0.573824515569,-0.0120349092022,0.0,-0.00877676898239,0.00844668068632,-0.999925808204,0.0,0.661078827928,0.260144602951,0.303190843965,1.0,-0.00508,-0.00667657142857,0.255
0.464576131491,0.544246233496,-0.123947015283,-1.36152358103,0.0792135615461,1.89611643451,0.158512431488,-0.00487757813792,-0.0224585161505,-0.00256397427805,-0.0490421871735,-0.00774353544815,0.016761649306,-0.00377455911145,0.573896005847,0.818914310366,0.00186377338443,0.0,0.818869125905,-0.573836905988,-0.0120543298205,0.0,-0.00880213070782,0.00844428079794,-0.999925605541,0.0,0.661001528173,0.260046842397,0.303181992795,1.0,-0.00536,-0.00704457142857,0.269
0.464502875831,0.543670417368,-0.123947016295,-1.36244612534,0.0791654879699,1.89643729644,0.158395664087,-0.00156800460573,-0.0286316429792,-0.000462918198288,-0.0459399806208,-0.00773483112941,0.0135831564322,-0.00816418529743,0.573898828467,0.818912372646,0.00184594501459,0.0,0.818866845198,-0.57383970112,-0.0120761813097,0.0,-0.00883022776262,0.008442252016,-0.999925374945,0.0,0.660890069792,0.259910471038,0.303178123344,1.0,-0.00574,-0.007544,0.288
0.464426960588,0.543174753187,-0.123951702204,-1.36320839412,0.0791241371869,1.89669779203,0.15829456368,-0.00179822339698,-0.0381716859773,0.000425595404353,-0.0504788623451,-0.00309306281326,0.0147300371643,-0.00238151210336,0.5739127162,0.818902646528,0.00184298525543,0.0,0.818857024852,-0.573853547096,-0.0120841315879,0.0,-0.0088382938768,0.00844454078923,-0.999925284355,0.0,0.660802633532,0.259784602891,0.3031886837,1.0,-0.00604,-0.00793828571429,0.303
0.464364110908,0.542597932939,-0.123950209105,-1.36411293427,0.0790664152035,1.89702863071,0.15819597626,-0.00151453125584,-0.0402924352677,-0.000580589360046,-0.0524718396013,-0.00203760577761,0.0149866983312,-0.00821391917003,0.573917270733,0.818899452767,0.001843777057,0.0,0.8188538495,-0.573858105264,-0.0120828424933,0.0,-0.00883673683171,0.00844449850993,-0.999925298473,0.0,0.66069457077,0.259657257213,0.303194752608,1.0,-0.00638,-0.00838514285714,0.32
0.464275016581,0.541992966117,-0.123952326054,-1.36504461966,0.0790129598736,1.89738258506,0.158050884715,-0.00662950411395,-0.0343764026466,-0.00011178506204,-0.0554527991758,-0.00613062933403,0.0138033735389,-0.00263057536384,0.573910431645,0.818904191496,0.00186775281648,0.0,0.818858890349,-0.573851150713,-0.0120715128464,0.0,-0.008813770057,0.00845755598117,-0.999925390819,0.0,0.660592864963,0.259509895476,0.303209862365,1.0,-0.00672,-0.008832,0.337
0.464208356075,0.541349126578,-0.123955644423,-1.36604065482,0.0789535380338,1.89775426611,0.15791284785,-0.00223950856833,-0.0406734591881,0.0001086943492,-0.0642410459941,-0.000803829323781,0.0206280459515,-0.0099830519781,0.57389371344,0.818915871354,0.00188367202868,0.0,0.818870782523,-0.573834368996,-0.0120625615141,0.0,-0.0087974767018,0.00846527519184,-0.999925468982,0.0,0.660475497523,0.259369772705,0.303223314793,1.0,-0.00706,-0.00927885714286,0.354
0.464115878985,0.540646368866,-0.123955909527,-1.36711010374,0.0788957733006,1.89814163376,0.157782883247,-0.00997718271271,-0.0420870516581,0.000200446918665,-0.0627482989526,-0.00504312225584,0.0267941762494,-0.00419552649168,0.573906947105,0.818906547035,0.00190530526873,0.0,0.818861660024,-0.573847428682,-0.012060565482,0.0,-0.0087832906104,0.00848198705588,-0.999925452072,0.0,0.660351584755,0.259207769544,0.303244640955,1.0,-0.0074,-0.00972571428571,0.371
0.464023496974,0.539908288426,-0.123958400502,-1.36822378705,0.0788302900005,1.89855968754,0.157650701328,-0.00513385673831,-0.0456299926693,-0.000534773926442,-0.0695325150593,-0.00583350061159,0.0269661449159,-0.00889822508923,0.573920237587,0.81889714715,0.00194169491648,0.0,0.818852734173,-0.573860558416,-0.0120418492425,0.0,-0.00874694226776,0.00850118684371,-0.999925607644,0.0,0.660225215826,0.259040596777,0.303272485808,1.0,-0.00774,-0.0101725714286,0.388
0.46392085954,0.539206304428,-0.123958786861,-1.36932670355,0.0787624658698,1.89898192772,0.157518858391,-0.00414145946699,-0.0469998999153,-2.4663551978e-05,-0.0699307231985,-0.00972161305919,0.0321219880056,-0.0105619112987,0.573939521832,0.818883593185,0.00195780301507,0.0,0.818839413933,-0.573879793648,-0.0120309406783,0.0,-0.00872856439366,0.00850832242512,-0.999925707547,0.0,0.660103302851,0.258868589572,0.303280130218,1.0,-0.00806,-0.0105931428571,0.404
0.463809614729,0.538440424483,-0.123960476436,-1.37052382665,0.078694726288,1.89944172283,0.157363078807,-0.00614542980942,-0.0468265078235,0.000700462853527,-0.0670738844498,-0.00392946856623,0.0255919256767,-0.00645677606794,0.573952321177,0.818874561464,0.00198305423787,0.0,0.818830690966,-0.573892462834,-0.0120202968171,0.0,-0.00870522300682,0.00852302702594,-0.999925785797,0.0,0.659971056879,0.258682375375,0.303291263527,1.0,-0.0084,-0.01104,0.421
0.463692108283,0.537609751291,-0.123967603784,-1.37184898223,0.0786228360413,1.89994772474,0.157208788595,-0.00809497976396,-0.0450313181269,-0.001330716612,-0.0802608538609,-0.000700340787989,0.0203638452669,-0.011629120933,0.57398115833,0.818854322606,0.00199377331355,0.0,0.818810561417,-0.573921220654,-0.0120184814375,0.0,-0.00869728411214,0.0085310687926,-0.999925786303,0.0,0.659822897739,0.25847700124,0.303291274007,1.0,-0.00876,-0.0115131428571,0.439
0.463552939404,0.536616992119,-0.123973552697,-1.37338513484,0.0785284486109,1.90052347967,0.157011275246,-0.00855944318171,-0.0553609123795,0.0026937486561,-0.0767751676402,-0.00867055803743,0.0286856926693,-0.0101546348638,0.573996844221,0.818843266941,0.00201839332749,0.0,0.81879986757,-0.573936839891,-0.012001149318,0.0,-0.0086687969278,0.00854144647415,-0.999925945084,0.0,0.659650238997,0.258236222501,0.30331109863,1.0,-0.00916,-0.0120388571429,0.459
0.463460165889,0.535972328958,-0.123975062803,-1.37441953282,0.0784726349731,1.90090654127,0.156884402859,-0.0019059433043,-0.0530623735536,0.0012899548993,-0.0818615933494,-0.00456690168812,0.0354079389206,-0.00608610761564,0.574011907952,0.818832715423,0.00201508878115,0.0,0.818789206559,-0.573951850359,-0.012010644994,0.0,-0.00867831220425,0.00854435069824,-0.999925837734,0.0,0.659530939865,0.258076790356,0.303307045344,1.0,-0.00942,-0.0123805714286,0.472
0.463320556481,0.534914482287,-0.12398395065,-1.37610060461,0.0783778321624,1.90150946041,0.156682313951,-0.00906831264681,-0.0543278166631,-0.000925255070308,-0.0850245713055,-0.00340591518303,0.0420973050199,-0.00476410407496,0.574033714839,0.818817467669,0.00199894238392,0.0,0.818773681794,-0.573973658089,-0.0120268334281,0.0,-0.00870060853297,0.00854065371993,-0.999925675561,0.0,0.659331826159,0.257819482699,0.303305923225,1.0,-0.00982,-0.0129062857143,0.492
0.463217947506,0.53418515883,-0.123986903025,-1.37731295626,0.0783146263065,1.90194911366,0.156529147933,-0.00381632201911,-0.0559754779449,-0.000598081973311,-0.0848950901721,-0.0125268507714,0.0289282534788,-0.00955710603618,0.574043880078,0.818810422182,0.00196549550638,0.0,0.818766086776,-0.573983855419,-0.0120571872414,0.0,-0.00874455624673,0.00853079985556,-0.999925376311,0.0,0.659187418853,0.25763538631,0.303281613476,1.0,-0.0101,-0.0132742857143,0.506
0.463077647135,0.533161217788,-0.123984889898,-1.37897326828,0.0782094176137,1.9025797623,0.156325766056,-0.00925891134572,-0.0535725385191,-3.392205113e-05,-0.091469690072,-0.00391280407371,0.0361431052519,-0.0126604405725,0.574053508781,0.818803694441,0.00195599778145,0.0,0.81875926703,-0.573993555261,-0.0120585269458,0.0,-0.00875100477604,0.00852389512521,-0.999925378779,0.0,0.658995196962,0.257386211859,0.303268088841,1.0,-0.01048,-0.0137737142857,0.525
0.462965212672,0.532369977457,-0.123987839527,-1.38025213268,0.0781423839531,1.90305780143,0.156155362535,-0.00835633607731,-0.0569377552581,-8.9454480835e-05,-0.0898103476561,-0.00795426118518,0.0380024221236,-0.0185955633738,0.574060027271,0.818799135075,0.00195150984822,0.0,0.818754555211,-0.574000001069,-0.0120716194405,0.0,-0.00876423364052,0.00852780594967,-0.999925229572,0.0,0.658846712114,0.257190578189,0.303258807656,1.0,-0.01076,-0.0141417142857,0.539
0.462822337963,0.531266880964,-0.123982820479,-1.38203412331,0.0780363938184,1.90369746258,0.155929909086,-0.00290983153759,-0.055765991723,0.00181854342227,-0.0948903997421,-0.00419450681013,0.0371422636758,-0.0126364447739,0.574057393648,0.818801057112,0.00191952370009,0.0,0.81875595768,-0.573997409192,-0.0120997068241,0.0,-0.00880562064304,0.00851771162102,-0.999924952001,0.0,0.658629129346,0.256928598203,0.303243428324,1.0,-0.01114,-0.0146411428571,0.558
0.462719832923,0.530476124681,-0.123993130703,-1.38329677314,0.0779543749263,1.904142518,0.15576496692,-0.00884237982803,-0.0633501043363,-0.00180086131223,-0.0946846049811,-0.00500655591988,0.033363348959,-0.0116649395673,0.574059998884,0.818799296478,0.00189120857926,0.0,0.818753877353,-0.57400018776,-0.0121086610623,0.0,-0.00882917906857,0.00849969595856,-0.999924897563,0.0,0.658477104711,0.256732548368,0.303238531922,1.0,-0.0114,-0.0149828571429,0.571
0.46256646573,0.529346296471,-0.123991043063,-1.38504087583,0.0778518851383,1.90478913767,0.155529112358,-0.00601445115614,-0.0654013977141,5.05787563902e-05,-0.106010663222,-0.00765418528903,0.0388346251777,-0.00761597158884,0.574058071842,0.818800578405,0.00192090021166,0.0,0.818755488481,-0.573998073033,-0.0120999643375,0.0,-0.00880503430248,0.00851899380512,-0.999924946241,0.0,0.658272723849,0.256467896052,0.303260215929,1.0,-0.01176,-0.015456,0.589
0.462436558946,0.528245835171,-0.123992067995,-1.38674751691,0.0777423497055,1.90544560146,0.155293672111,-0.00549780660333,-0.0679140397593,-0.000391437811736,-0.10167296892,-0.00880945395785,0.0427238986931,-0.0161239953509,0.574035466349,0.81881633658,0.00195888333064,0.0,0.818771818495,-0.573975377536,-0.0120715418447,0.0,-0.00876019353174,0.00853353591622,-0.999925216091,0.0,0.658072864952,0.256220491996,0.303279712697,1.0,-0.0121,-0.0159028571429,0.606
0.462297264622,0.527173761662,-0.123993553104,-1.38839598352,0.0776345735966,1.90608240121,0.155061596107,-0.0120405761943,-0.0711128627999,-0.000880454398736,-0.108114444028,-0.00409708873313,0.0485420458767,-0.01585020839,0.57402073207,0.818826555156,0.00200465109384,0.0,0.818782733229,-0.573960543964,-0.0120364712398,0.0,-0.00870535925438,0.0085507223623,-0.999925548162,0.0,0.657883885518,0.255972153827,0.303304948082,1.0,-0.01242,-0.0163234285714,0.622
0.462146721962,0.525991441719,-0.12399952264,-1.39020594862,0.0775253245393,1.90675644003,0.154813815026,-0.00861671504593,-0.0716984417672,-0.00124958272988,-0.108025834922,-0.013100120128,0.0354457025779,-0.0193834254923,0.574013492712,0.818831535076,0.00204309828497,0.0,0.818788224674,-0.573953151336,-0.0120154112283,0.0,-0.00866612177121,0.00857003798291,-0.999925723633,0.0,0.657670835057,0.255698408484,0.303333995609,1.0,-0.01276,-0.0167702857143,0.639
0.461985801512,0.524827266778,-0.124000724094,-1.39205050051,0.0774033489441,1.90740408261,0.154564496153,-0.0134141897669,-0.0650785811606,-0.000168640851814,-0.111399526625,-0.00435726628784,0.0399245156473,-0.0151635283306,0.574008049447,0.818835432655,0.00201004972772,0.0,0.818791706326,-0.573947864537,-0.0120306835342,0.0,-0.00869765366484,0.00855168588182,-0.999925606977,0.0,0.657445579789,0.255412494906,0.303331070399,1.0,-0.0131,-0.0172171428571,0.656
0.46183501089,0.523686992205,-0.124005944094,-1.39385228187,0.0772962166345,1.90805744382,0.154321313363,-0.0111298461671,-0.0713116137372,-0.00296261136807,-0.115834717557,-0.00127469180647,0.0399785509559,-0.0168630718443,0.574003857479,0.818838388638,0.00200294603629,0.0,0.81879452547,-0.573943660158,-0.0120393905627,0.0,-0.00870890466276,0.00855082250383,-0.999925516433,0.0,0.657227830458,0.255138463518,0.30333204547,1.0,-0.01342,-0.0176377142857,0.672
0.461680273064,0.522470745145,-0.124012227935,-1.39578934766,0.0771725131334,1.90881255535,0.15406335901,-0.00956950279098,-0.0687842856453,-0.00162398249404,-0.110417709477,-0.00986359235541,0.0522249667389,-0.0190310807236,0.573987091626,0.818850107838,0.00201654202185,0.0,0.818806499377,-0.573926914246,-0.0120233349524,0.0,-0.00868812865569,0.00855256143804,-0.999925682295,0.0,0.656987413056,0.254834994706,0.303321179878,1.0,-0.01378,-0.0181108571429,0.69
0.461514779973,0.521225350441,-0.124015487187,-1.3977832444,0.077052489806,1.90957842537,0.153795723436,-0.0112081195396,-0.0736881333883,0.00183911853255,-0.118285844478,-0.0109360949448,0.0422442365786,-0.0127990081554,0.573986841579,0.818850231668,0.00203732466862,0.0,0.818806904597,-0.573926586002,-0.0120114014936,0.0,-0.00866643095975,0.00856272677088,-0.999925783588,0.0,0.656751641364,0.254535478791,0.303324390722,1.0,-0.01412,-0.0185577142857,0.707
0.461340013714,0.51992309859,-0.124015804086,-1.3998368742,0.0769217037562,1.91032243382,0.153518478695,-0.0104839573642,-0.080461017626,0.000540067635268,-0.12391037861,-0.00818788858343,0.045484133753,-0.0142905699025,0.57397772672,0.818856646549,0.00202695169432,0.0,0.818813213405,-0.573917545157,-0.0120133182638,0.0,-0.00867404936923,0.00855523665251,-0.999925781642,0.0,0.656516701951,0.254239791673,0.303324665427,1.0,-0.01444,-0.0189782857143,0.723
0.461166406685,0.518566284712,-0.124023018497,-1.40190246187,0.0767853532895,1.91105447343,0.153225164131,-0.00723674923406,-0.0768475338811,-0.00217523209414,-0.125804156494,-0.00468966904834,0.0374608951338,-0.0163137168704,0.573957368761,0.8188708805,0.00204127777007,0.0,0.818827690112,-0.573897184304,-0.0119992772637,0.0,-0.00865454180039,0.00855869314801,-0.999925921095,0.0,0.656263354418,0.253921976986,0.303357603183,1.0,-0.01478,-0.0194251428571,0.74
0.460976905973,0.517137531005,-0.124024023537,-1.40416792205,0.0766384749707,1.91187251782,0.152921812141,-0.015476526593,-0.0806580657701,0.00160932503835,-0.126090981196,-0.00515668578536,0.046810082976,-0.0179170304283,0.573947542338,0.818877810498,0.00202410958879,0.0,0.818834404931,-0.573887440373,-0.0120070805885,0.0,-0.0086708877333,0.00854900956,-0.999925862323,0.0,0.656000651618,0.253597054338,0.303353704543,1.0,-0.01512,-0.019872,0.757
0.460818822173,0.515945762297,-0.124031652531,-1.406063337,0.0765241170126,1.91259915011,0.152655533185,-0.0099598362769,-0.0738778543409,-0.000186002438176,-0.130398981631,-0.00973523871635,0.0556986496423,-0.0178057915927,0.573931280742,0.818889177276,0.00203647441813,0.0,0.818845966632,-0.57387116173,-0.0119966481433,0.0,-0.00865541803158,0.0085529751682,-0.999925962436,0.0,0.65575918086,0.253292123185,0.303349768834,1.0,-0.01544,-0.0202925714286,0.773
0.46060255948,0.51438896414,-0.124037780014,-1.40854697941,0.0763792309054,1.91350136753,0.152316065183,-0.0090492814924,-0.0814363147371,-0.00173310749057,-0.133715340946,-0.00546128429605,0.0391462448339,-0.0207103044505,0.57392641482,0.818892635515,0.00201712006445,0.0,0.818849068956,-0.573866276421,-0.0120185671729,0.0,-0.00868452617089,0.00854965466291,-0.999925738448,0.0,0.655454495458,0.25291027984,0.303337508711,1.0,-0.01582,-0.020792,0.792
0.460426380005,0.513068123636,-0.124037874033,-1.41068854763,0.0762401653117,1.91424868338,0.15202438672,-0.0109853745367,-0.0840627620266,-0.0013805556766,-0.135416115471,-0.0140770246275,0.0463882270457,-0.0153046243045,0.573906442229,0.818906794972,0.00195028664493,0.0,0.818862316529,-0.573846554852,-0.0120575683072,0.0,-0.00875502790682,0.00851709634955,-0.999925401496,0.0,0.655181196281,0.25258628929,0.303308588601,1.0,-0.01614,-0.0212125714286,0.808
0.460246140354,0.511716947703,-0.124033983309,-1.412848867,0.0761186359346,1.91503463219,0.151720300079,-0.00799490137685,-0.0813875692597,0.0026522349003,-0.137488428589,-0.00544373461179,0.0625544196759,-0.0209137464434,0.573882559615,0.818923564093,0.00193670984627,0.0,0.818878727403,-0.573822558674,-0.0120850264935,0.0,-0.00878555431794,0.00852148049626,-0.999925096397,0.0,0.65491034214,0.252265583223,0.303294832197,1.0,-0.01646,-0.0216331428571,0.824
0.460045683212,0.510252415889,-0.124042148074,-1.41517077856,0.0759754934566,1.91591730025,0.151387744012,-0.0105520872534,-0.0864991664621,-0.000485990055292,-0.134487274063,-0.00649976199622,0.0466498243786,-0.0197496951894,0.573870703045,0.818931818314,0.00195960230493,0.0,0.818887374649,-0.573810695173,-0.0120623649124,0.0,-0.00875398221134,0.00852709559254,-0.99992532543,0.0,0.654649906903,0.251930273609,0.303296707558,1.0,-0.01678,-0.0220537142857,0.84
0.459847872353,0.508740623675,-0.124047083866,-1.41755222713,0.0758166225244,1.91676883886,0.151070992734,-0.00903316815922,-0.0887599269857,-0.00117444489722,-0.140142678286,-0.00482771868144,0.0462586714813,-0.0161704937066,0.573849589432,0.818946682713,0.00193041017179,0.0,0.818901856823,-0.573789710462,-0.0120774153536,0.0,-0.0087832788514,0.00851160019088,-0.99992520054,0.0,0.654331773264,0.251547163557,0.303290230508,1.0,-0.01714,-0.0225268571429,0.858
0.459645984729,0.507298657679,-0.124052787175,-1.41980648206,0.0756756632336,1.91758746771,0.150744556909,-0.0121432927431,-0.0953542532829,-0.000401588038987,-0.143353075182,-0.00529656900636,0.052326859852,-0.0215172062109,0.573830296564,0.818960194233,0.00193336711012,0.0,0.818915394511,-0.573770395014,-0.0120771411965,0.0,-0.00878155816183,0.00851365751846,-0.999925198138,0.0,0.654053444537,0.251196056761,0.303296994128,1.0,-0.01746,-0.0229474285714,0.874
0.459422690122,0.505732519891,-0.124051332593,-1.42225805264,0.0755209572418,1.91851300648,0.150423507869,-0.0150859248959,-0.0930625149245,0.004563073648,-0.146079411817,-0.00526650387507,0.0554203486809,-0.0245950932302,0.573834136069,0.818957431449,0.00196383770737,0.0,0.818913047635,-0.573774118849,-0.0120593471236,0.0,-0.0087494611494,0.00852844155914,-0.999925353521,0.0,0.653756033329,0.250818431452,0.303305203753,1.0,-0.0178,-0.0233942857143,0.891
0.459188995347,0.503978645437,-0.124060323008,-1.42488652431,0.0753586544181,1.91951147799,0.150049521522,-0.0140128701746,-0.100758274527,-0.00281573335419,-0.14522906308,-0.00767796319683,0.0465877364229,-0.0176099974551,0.573817179581,0.818969058603,0.0020669713815,0.0,0.818926079516,-0.573756781755,-0.0119991074313,0.0,-0.00864112523773,0.00857815590974,-0.99992587035,0.0,0.653439975265,0.250413180818,0.303366323356,1.0,-0.01816,-0.0238674285714,0.909
0.458986032607,0.50251259964,-0.124060657297,-1.42706511228,0.0752160017722,1.92033404504,0.14974631483,-0.0116150328189,-0.100091123911,0.000234861441623,-0.145699092089,-0.0144132333412,0.0570232059804,-0.0163712265824,0.573808392051,0.818974985061,0.00215637606202,0.0,0.818933254423,-0.573747707116,-0.0119432106113,0.0,-0.00854413941188,0.00861920848951,-0.999926350751,0.0,0.653177571221,0.250074018041,0.303424377703,1.0,-0.01846,-0.0242617142857,0.924
0.458731833052,0.50068637375,-0.124067042444,-1.4298099845,0.075047315697,1.92129466373,0.149371051529,-0.0134532816218,-0.105461526645,-0.000671306428926,-0.154910635424,-0.00744830689321,0.0487770449417,-0.0178916303851,0.573808053637,0.818975120999,0.00219446285597,0.0,0.818933799262,-0.573747124978,-0.0119338136049,0.0,-0.00851459361886,0.00864500460418,-0.999926380086,0.0,0.652830428128,0.249640775595,0.303475900633,1.0,-0.01882,-0.0247348571429,0.942
0.458490778205,0.498992545225,-0.12406773313,-1.43242712235,0.0748785110861,1.92225288746,0.148991500749,-0.0132997245524,-0.100258858287,0.000286097871521,-0.157932405248,-0.00996263129873,0.0532568969085,-0.0255239449252,0.573782554073,0.818992916553,0.00222040069397,0.0,0.818951944185,-0.5737215353,-0.0119188904122,0.0,-0.00848775854127,0.00865741952977,-0.99992650082,0.0,0.652504307763,0.249232749477,0.303494826085,1.0,-0.01916,-0.0251817142857,0.959
0.458250898154,0.497421866979,-0.124068429979,-1.43491427119,0.0747229476852,1.92317588191,0.148621493801,-0.0141643351719,-0.0963304444905,0.00113901936576,-0.158059316369,-0.0133929291861,0.058246693876,-0.0188070825567,0.573760652827,0.819008251242,0.00222363806298,0.0,0.81896729655,-0.573699598773,-0.0119199182072,0.0,-0.00848697450185,0.00866043364536,-0.999926481374,0.0,0.652197160853,0.248839111684,0.303486166226,1.0,-0.01948,-0.0256022857143,0.975
0.457983850532,0.495746436754,-0.124068431227,-1.43761104454,0.0745572546553,1.92410511225,0.14822930073,-0.0159695412466,-0.0954260279654,-0.00111166713147,-0.162175651276,-0.0111140179638,0.0538334105559,-0.0228689007731,0.573749331212,0.819016386466,0.00214721542667,0.0,0.81897426023,-0.573688413219,-0.0119796711083,0.0,-0.0085798795205,0.00863200864507,-0.999925934304,0.0,0.65184923582,0.2484037315,0.3034507186,1.0,-0.01982,-0.0260491428571,0.992
0.457683807532,0.493941079696,-0.124080677727,-1.44053866117,0.0743704198036,1.9251500644,0.147809477454,-0.0188687747746,-0.103729403225,-0.00453009749944,-0.171665804032,-0.00800265098969,0.0611479452805,-0.0281348768383,0.573756687702,0.819011419285,0.00207492168741,0.0,0.818968327948,-0.573696049487,-0.0120194643249,0.0,-0.00865387077451,0.00859570867796,-0.999925609389,0.0,0.651482593798,0.247918578641,0.303405667783,1.0,-0.022248,-0.0292402285714,1.01
0.457445822302,0.492155951537,-0.124137911621,-1.44333156456,0.0742045774378,1.92620210534,0.14741209718,-0.0143854363807,-0.117559601416,-0.00472477536004,-0.195683672197,-0.0142117674927,0.0775023770866,-0.028879271015,0.573762880999,0.819007011594,0.00210196296222,0.0,0.81896444976,-0.573702304402,-0.0119851097234,0.0,-0.00861015367516,0.00859820956695,-0.999925965282,0.0,0.651141745116,0.247467034456,0.303411809736,1.0,-0.026028,-0.0342082285714,1.025
0.457065852392,0.489686761095,-0.124135986431,-1.44732605478,0.0739751554893,1.92762843718,0.146835513528,-0.0193953637071,-0.143030442657,-0.00123811714609,-0.235062971713,-0.010833659978,0.0843424364855,-0.0315080158728,0.573737931172,0.819024676721,0.00202784559833,0.0,0.81898079217,-0.57367731968,-0.0120640723367,0.0,-0.00871761175897,0.00858254773912,-0.99992516876,0.0,0.650624569594,0.246839777772,0.303351774896,1.0,-0.030564,-0.0401698285714,1.043
0.456657113204,0.487107691923,-0.124164304752,-1.45138297114,0.0737261060855,1.9291345119,0.146253993744,-0.0262804323374,-0.161754502079,-0.00010003607101,-0.265528363754,-0.0188400149259,0.101145705179,-0.0365942255906,0.573750942784,0.819015517544,0.0020456240693,0.0,0.818971894621,-0.573690282302,-0.0120516685749,0.0,-0.00869711637178,0.00859013021332,-0.999925282123,0.0,0.650123113549,0.246172598704,0.303344618168,1.0,-0.034596,-0.0454690285714,1.059
0.456165117553,0.483974908065,-0.124214250452,-1.45617647991,0.0734280576028,1.9309053211,0.145517172633,-0.0293287596998,-0.18499487621,-0.00523306294828,-0.29238934945,-0.0217091543645,0.0999237381656,-0.0478094349635,0.573742133706,0.819021474505,0.00212960335637,0.0,0.818979089499,-0.57368126063,-0.0119920417711,0.0,-0.00860019177593,0.00862460630144,-0.999925823683,0.0,0.649533487081,0.245369105981,0.3033929882,1.0,-0.03888,-0.0510994285714,1.076
0.455605339481,0.480496900044,-0.124268806469,-1.46161987379,0.0731035554814,1.93279529845,0.144702430945,-0.0344736964641,-0.209912200571,-0.00584420377165,-0.336337791608,-0.0186102030321,0.119047651821,-0.0479308122275,0.573750950448,0.819015458968,0.00206681721715,0.0,0.818972055654,-0.573690142812,-0.0120473648163,0.0,-0.00868143250437,0.00860501823199,-0.999925290405,0.0,0.648831668286,0.244451097567,0.303379714352,1.0,-0.043164,-0.0567298285714,1.093
0.454980901272,0.476642116489,-0.124324079415,-1.46752890737,0.0727370895865,1.93494519277,0.143856660267,-0.0367232161377,-0.234847200277,3.01076972743e-05,-0.358329666441,-0.0234748092506,0.13450916423,-0.0457497593926,0.573797100939,0.818982939005,0.00213997033725,0.0,0.818940555747,-0.573736043683,-0.0120027177474,0.0,-0.00860240856494,0.00863979948703,-0.999925673454,0.0,0.648089614779,0.24345196526,0.303425129778,1.0,-0.047448,-0.0623602285714,1.11
0.454318197569,0.472706904193,-0.124365679097,-1.47358581594,0.072384798986,1.93714526982,0.142967464456,-0.0445463542447,-0.248262585544,-0.004065216839,-0.382969265991,-0.0241222892873,0.138709791089,-0.0595703919843,0.573838187966,0.818953951087,0.00221515972756,0.0,0.818912318151,-0.573776580312,-0.011991579029,0.0,-0.00854970886065,0.00869541498212,-0.999925643354,0.0,0.647322340246,0.242426091529,0.303456300449,1.0,-0.05148,-0.0676594285714,1.126
0.453563466293,0.468183172835,-0.124394732462,-1.48042115866,0.0719510053304,1.93966739262,0.141879527254,-0.0434305513305,-0.275632348955,-0.00389263031737,-0.414403303387,-0.032033085451,0.157322002253,-0.0674663844892,0.573794128184,0.818984332216,0.00238934065432,0.0,0.818945022534,-0.573731879743,-0.0118965177437,0.0,-0.00837238192934,0.00878305976426,-0.999926377831,0.0,0.646458241582,0.241273517132,0.303546769753,1.0,-0.055764,-0.0732898285714,1.143
0.452741666985,0.463309250892,-0.124409393631,-1.48787564046,0.0714695170811,1.94230556707,0.140712152818,-0.0524042208639,-0.291156855286,-0.0025785129158,-0.459389122721,-0.0313278280345,0.156665666523,-0.0706422238042,0.573741135341,0.819021317432,0.00243682405142,0.0,0.818982466457,-0.573678539847,-0.0118911503674,0.0,-0.00834131257216,0.00881832806441,-0.999926327084,0.0,0.64547861916,0.24001948724,0.303588801138,1.0,-0.060048,-0.0789202285714,1.16
0.451897456437,0.458447022362,-0.124438057468,-1.49538492972,0.0709692131661,1.94488213267,0.13961265498,-0.053052422818,-0.313048470754,-0.00123808422143,-0.478317820645,-0.0345738356301,0.163946656183,-0.068087068457,0.573764696229,0.819005017194,0.00236686988053,0.0,0.818965119744,-0.573702231867,-0.0119427255794,0.0,-0.00842343581274,0.00879086744077,-0.999925880443,0.0,0.644472045221,0.238730894781,0.30358630933,1.0,-0.06408,-0.0842194285714,1.176
0.45087716829,0.452656993401,-0.124478650832,-1.50427251132,0.0703659522895,1.94806591137,0.138192013068,-0.0570780800065,-0.336083834335,-0.00492540352907,-0.490772437738,-0.0380501016204,0.18102421091,-0.0826877438892,0.573712850226,0.819041210889,0.0024098238353,0.0,0.819001974168,-0.57365032811,-0.011908579664,0.0,-0.00837138244923,0.00880592520104,-0.999926185094,0.0,0.643364452825,0.237292326084,0.303605740955,1.0,-0.068364,-0.0898498285714,1.193
0.4498367977,0.446782009736,-0.124524167625,-1.51302976697,0.0697838500439,1.95133405306,0.136844861038,-0.0634267365021,-0.342336549713,-0.00503989305933,-0.524651090761,-0.0353592202819,0.178614238196,-0.0797571532099,0.573728463931,0.819029283161,0.00272578439018,0.0,0.818994562558,-0.573665204285,-0.0116998630064,0.0,-0.00801899714272,0.00894511924639,-0.99992783766,0.0,0.64217638675,0.2356762049,0.303756995654,1.0,-0.0729,-0.0958114285714,1.211
0.448796313671,0.441063752421,-0.124548224437,-1.52194626352,0.0691735626894,1.95431092364,0.135463384364,-0.0690052427957,-0.366767069945,-0.00100126326237,-0.57478807368,-0.0414268754206,0.190960867563,-0.0786464697063,0.573695315182,0.819053141098,0.00252671668702,0.0,0.819015527459,-0.573632451865,-0.0118373497375,0.0,-0.0082461705608,0.00886062288321,-0.999926742333,0.0,0.640929664756,0.234126389733,0.303685824458,1.0,-0.076932,-0.101110628571,1.227
0.44760077941,0.434626431381,-0.124568704054,-1.5317495819,0.0685250179701,1.95770245225,0.133865622629,-0.0731435711596,-0.392485133404,-0.000341297223648,-0.575259945091,-0.0331045543801,0.217703655405,-0.0914329217664,0.573632469818,0.819097085386,0.00254974211637,0.0,0.819059442637,-0.573569173349,-0.0118650626466,0.0,-0.00825634371402,0.00889474679866,-0.999926355422,0.0,0.639580047403,0.232409053596,0.303710622281,1.0,-0.081216,-0.106741028571,1.244
0.446297611288,0.427957531758,-0.124594403485,-1.54191363121,0.067785125319,1.96136187922,0.13223888135,-0.0767576161442,-0.401507201391,-0.00331806847973,-0.606360887843,-0.0430168935646,0.205566321131,-0.0963181686838,0.573619072026,0.819106164501,0.00264544623384,0.0,0.819070221291,-0.573555915431,-0.011761435694,0.0,-0.00811670941575,0.00891356167433,-0.999927331083,0.0,0.638210252716,0.230587540983,0.303734692722,1.0,-0.0855,-0.112371428571,1.261
0.444981772888,0.421396884353,-0.12469735994,-1.5520171725,0.0670544510802,1.96468228607,0.130543893934,-0.0863771099271,-0.416386179391,-0.004332947047,-0.640244554301,-0.0530150695251,0.203518816479,-0.106528950594,0.573607986893,0.819114628056,0.00241875552705,0.0,0.819075832039,-0.573545785026,-0.0118642635636,0.0,-0.00833108519768,0.00878674970663,-0.999926690337,0.0,0.636785458225,0.22870212542,0.303676425094,1.0,-0.089532,-0.117670628571,1.277
0.44349903636,0.414051238351,-0.124797950881,-1.56295250661,0.0662952958799,1.96859721954,0.128790277007,-0.0959608822309,-0.44422781912,-0.00222321970872,-0.65698552824,-0.0369791602351,0.237637228459,-0.107241419147,0.573705116793,0.819045845508,0.00266248442645,0.0,0.819010627298,-0.573642442849,-0.0116913231271,0.0,-0.00804857052522,0.00888814606472,-0.999928108102,0.0,0.635303028317,0.226663435215,0.30379363658,1.0,-0.093816,-0.123301028571,1.294
0.441901227795,0.406519821921,-0.124826071064,-1.57443747439,0.0655201334954,1.97243864934,0.126859645258,-0.094580023452,-0.447721410227,-0.000118100616642,-0.69226362485,-0.0437523207865,0.215139350557,-0.110608899169,0.573705485531,0.819045863735,0.00257601874831,0.0,0.81900889138,-0.573642435487,-0.0118126605629,0.0,-0.00819755493347,0.00888694152406,-0.999926908511,0.0,0.633654931146,0.224532465104,0.303754205735,1.0,-0.0981,-0.128931428571,1.311
0.440304082755,0.399150438314,-0.124932420664,-1.58550438813,0.0647470369247,1.97624125651,0.124993528364,-0.107550456592,-0.484232405672,-0.000908492762075,-0.688194588556,-0.0442066936911,0.258170395431,-0.12683296005,0.573790205487,0.818986302927,0.00264246204153,0.0,0.818950272597,-0.573726984668,-0.0117705130943,0.0,-0.00812399363554,0.00891802183587,-0.999927232159,0.0,0.632098140121,0.222405256905,0.303788704966,1.0,-0.102132,-0.134230628571,1.327
0.438413513717,0.390597952355,-0.124987506649,-1.59832390333,0.0637738388322,1.98066684321,0.122796639684,-0.110080559242,-0.476047202548,-0.00187133945948,-0.723439468284,-0.0552857497458,0.239391571367,-0.126754253334,0.573803958744,0.818976404055,0.0027227620508,0.0,0.818941878199,-0.573740961074,-0.0116729010217,0.0,-0.00799782437071,0.00892791257401,-0.999928161011,0.0,0.63026952048,0.219953320341,0.303822424299,1.0,-0.106668,-0.140192228571,1.345
0.436534327226,0.382231012656,-0.125037275008,-1.61092092885,0.0628169344854,1.98471096374,0.120534280387,-0.11176052152,-0.501486556056,-0.00255051059789,-0.737555410415,-0.0616022019905,0.245834902926,-0.132438235511,0.573731900073,0.819027491335,0.00253420155132,0.0,0.818990340022,-0.573669396742,-0.0117895332507,0.0,-0.00820231588718,0.0088396880945,-0.999927288321,0.0,0.628384494877,0.217522492262,0.303786754968,1.0,-0.110952,-0.145822628571,1.362
0.434555434693,0.373616883221,-0.125084331813,-1.62377430415,0.0618911525871,1.98910404841,0.118242609694,-0.119538017708,-0.507840336104,-0.00153450754382,-0.751102867312,-0.0599028704768,0.261729434111,-0.13784959733,0.573724918947,0.819032013695,0.00265043820494,0.0,0.818996222492,-0.573661826428,-0.0117491848385,0.0,-0.00810265929739,0.00891167057425,-0.999927461889,0.0,0.626497197402,0.215039573661,0.303806280858,1.0,-0.115236,-0.151453028571,1.379
0.432546568789,0.365256316598,-0.125195030995,-1.63623052227,0.0609195034689,1.99311571006,0.116098163661,-0.123896015805,-0.530904713714,-0.0122252824689,-0.771971414677,-0.0659436410392,0.258492822744,-0.143751029585,0.573865692479,0.818933766639,0.00252977369694,0.0,0.81889660088,-0.573803235,-0.0117877678916,0.0,-0.0082019667419,0.0088363887932,-0.999927320346,0.0,0.624625837311,0.212521299108,0.303795873067,1.0,-0.119268,-0.156752228571,1.395
0.430345155792,0.356147664529,-0.125280315066,-1.64973162169,0.0598726993689,1.99755252437,0.113569319852,-0.134711665668,-0.531077280998,-0.00164106144511,-0.815398372561,-0.0564487759574,0.255710209337,-0.155365949306,0.573832431345,0.81895708754,0.00252515453491,0.0,0.818919999597,-0.573770143726,-0.0117729915241,0.0,-0.00819287430799,0.00882379378656,-0.999927506109,0.0,0.622581622887,0.209815164629,0.303802086967,1.0,-0.123552,-0.162382628571,1.412
0.42811009187,0.34731933234,-0.125342581396,-1.66277501296,0.0589201436199,2.00170712791,0.111105680826,-0.14661546111,-0.559976975147,-0.00881805163984,-0.817520000629,-0.0601280015532,0.278947887229,-0.152600965656,0.573862085045,0.818936438233,0.00248281753461,0.0,0.818898089671,-0.573799193167,-0.0118807219866,0.0,-0.00830507734769,0.00885124084098,-0.9999263379,0.0,0.620564441673,0.207158033982,0.303794796065,1.0,-0.127584,-0.167681828571,1.428
0.425548676046,0.337160640964,-0.125412506905,-1.67758845358,0.0577343920976,2.0066120428,0.108308302309,-0.141651620461,-0.56560795781,-0.00104125366827,-0.853606719007,-0.0699360258432,0.267307488756,-0.165959917559,0.573862536913,0.818935628389,0.00264048935808,0.0,0.818899728135,-0.573799484937,-0.0117530101418,0.0,-0.00811000345496,0.00890707972267,-0.999927443255,0.0,0.618285206664,0.204137886993,0.303864077845,1.0,-0.13212,-0.173643428571,1.446
0.423190295837,0.327851177696,-0.125406761554,-1.69115929387,0.0566135770197,2.01085651763,0.105677195512,-0.145174436516,-0.593930243926,-0.0005313596458,-0.843981883603,-0.0696114551463,0.28022189808,-0.160872949261,0.573732696674,0.819026757978,0.00259024797768,0.0,0.818990083138,-0.573669712398,-0.0117920185038,0.0,-0.00817218921275,0.00888702508477,-0.999927115398,0.0,0.616100999523,0.201399482659,0.303882841211,1.0,-0.136152,-0.178942628571,1.462
0.420685835216,0.318392695798,-0.125414252967,-1.70488456482,0.0554987319938,2.01526821815,0.103013116477,-0.161536875472,-0.604035965721,-0.00230785214001,-0.849867472243,-0.0733928713015,0.283311201877,-0.169339046474,0.573698492961,0.819050436679,0.00267735901884,0.0,0.819014878813,-0.573635178329,-0.0117497815973,0.0,-0.00808799214882,0.00893380087069,-0.999927383156,0.0,0.613764509074,0.198386590097,0.303915490762,1.0,-0.140436,-0.184573028571,1.479
0.417566301211,0.306845269687,-0.125471947189,-1.72150034365,0.0541056981324,2.02050580085,0.0996003548628,-0.16462214976,-0.611234929464,-0.00751744066742,-0.87973932507,-0.0822591981681,0.279336176579,-0.178971592002,0.573580891208,0.81913244284,0.00278374369639,0.0,0.819098448132,-0.573517418914,-0.0116725906107,0.0,-0.00796502551293,0.00897550787322,-0.999927996721,0.0,0.61136147527,0.195266879595,0.303990726956,1.0,-0.14472,-0.190203428571,1.496
0.414757229652,0.29702100941,-0.125538749974,-1.73588215976,0.0529211883186,2.02482161969,0.0966926773174,-0.180856390413,-0.614553051887,-0.00514511921762,-0.909103587771,-0.07577681376,0.26522996739,-0.177735396942,0.573594679827,0.819123565656,0.00254447672981,0.0,0.819085910145,-0.573531468383,-0.0118605849983,0.0,-0.00825610615512,0.00888748460438,-0.999926421957,0.0,0.608818496938,0.191982977331,0.303882722195,1.0,-0.149004,-0.195833828571,1.513
0.411794258986,0.286833368434,-0.125665514542,-1.75022795115,0.0517678969026,2.02932420522,0.0936583968892,-0.180804382579,-0.631178779376,-0.00753561122822,-0.911308419119,-0.0808339207421,0.289429425374,-0.19680430486,0.573677847849,0.819064423115,0.00281861229745,0.0,0.819030310297,-0.573613596947,-0.0117277071208,0.0,-0.00798910714412,0.00903662866897,-0.999927254109,0.0,0.606478613714,0.188801115118,0.304021947479,1.0,-0.153036,-0.201133028571,1.529
0.408542126135,0.276020892502,-0.125765119983,-1.7658936876,0.050422658606,2.03390833317,0.0903215063527,-0.198303059398,-0.641659120562,-0.00660473391632,-0.922768370522,-0.0771851135462,0.267186731016,-0.200970240077,0.57367986989,0.819063860602,0.00255852287972,0.0,0.819025873096,-0.573616038935,-0.0119166260784,0.0,-0.00829302766783,0.00893199690221,-0.999925719803,0.0,0.603801027947,0.185327329351,0.303916205402,1.0,-0.15732,-0.206763428571,1.546
0.405059899253,0.264829944629,-0.12590273714,-1.78159293932,0.0490486230398,2.0387235271,0.0868771860573,-0.214702850804,-0.660496280807,-0.00636393120553,-0.928642931279,-0.075409041413,0.28707298279,-0.204179029624,0.573781998186,0.818991671536,0.00275815422486,0.0,0.818956753938,-0.573717926833,-0.0117610591005,0.0,-0.00804996191468,0.0090072664401,-0.99992703097,0.0,0.601173161889,0.181726203298,0.304020715477,1.0,-0.161604,-0.212393828571,1.563
0.401639508594,0.254173647914,-0.126084425222,-1.79665283822,0.0477008027843,2.04314939979,0.0835496936332,-0.214611041465,-0.680176893327,-0.00557757084525,-0.938911806773,-0.0831058581196,0.279314997312,-0.215781225401,0.573933402719,0.818885713889,0.00271730236406,0.0,0.818850486452,-0.573869704962,-0.011755401496,0.0,-0.00806710815701,0.00897205468344,-0.999927209351,0.0,0.598589058045,0.17820359942,0.304024126997,1.0,-0.165636,-0.217693028571,1.579
0.397910925604,0.242690706186,-0.126142258661,-1.81292824319,0.0462223281338,2.04789003669,0.0798589279432,-0.222681448361,-0.685550205646,-0.00448768076659,-0.96934212715,-0.0882694114014,0.286944394386,-0.221027296823,0.57390517614,0.818905792117,0.00262665911186,0.0,0.818869232945,-0.573841644419,-0.0118191948584,0.0,-0.00817167807378,0.00893415944945,-0.99992669955,0.0,0.595718468726,0.174481073637,0.303966375784,1.0,-0.16992,-0.223323428571,1.596
0.393833643693,0.230220881804,-0.126172869273,-1.83008385492,0.0447013158893,2.05294273592,0.0758194739621,-0.224571553676,-0.689698141454,-0.00571658203715,-0.949355519095,-0.0921669010026,0.278964873834,-0.226206244197,0.573837698598,0.818952095864,0.00291671873206,0.0,0.818919144331,-0.573772957101,-0.011695112175,0.0,-0.00790435447849,0.00909982826357,-0.999927354514,0.0,0.592676517695,0.170532325537,0.304095329679,1.0,-0.174456,-0.229285028571,1.614
0.389041584124,0.216155762008,-0.126235973063,-1.84955159787,0.042834067815,2.05840886186,0.0710831572923,-0.246511426028,-0.707674905291,-0.00758337401909,-0.952211412517,-0.0890956911451,0.285089398886,-0.237069189788,0.573706250264,0.819044257458,0.00289648656092,0.0,0.81901120308,-0.57364177907,-0.0116835540989,0.0,-0.00790795444017,0.00907535768356,-0.999927548445,0.0,0.589135049227,0.165945162322,0.304114787775,1.0,-0.179496,-0.235909028571,1.634
0.38475050355,0.204013259767,-0.126355238017,-1.86634854926,0.0412841172086,2.062998232,0.0669814147493,-0.251897067874,-0.716671990183,-0.00612429887717,-1.00814098802,-0.0875367967438,0.267404669857,-0.237636953571,0.57375567266,0.819009885597,0.00282529415323,0.0,0.818975315894,-0.573690773129,-0.0117930354312,0.0,-0.00803792216715,0.00908034197287,-0.999926466895,0.0,0.586027077289,0.161898613055,0.30408177408,1.0,-0.18378,-0.241539428571,1.651
0.381092055683,0.193810381289,-0.126446841777,-1.88013510672,0.0399630896582,2.06679345895,0.0634331003926,-0.270388131127,-0.730697014485,-0.00723025108032,-1.00507274436,-0.0969495520394,0.272936562441,-0.248644140576,0.573715499933,0.819037524065,0.00296752621506,0.0,0.819004900788,-0.573650216914,-0.0117110213591,0.0,-0.00788959578043,0.00914938914121,-0.999927018815,0.0,0.583468257927,0.158526457269,0.304168343513,1.0,-0.187308,-0.246176228571,1.665
0.37665325034,0.182070737923,-0.126627625553,-1.89614880386,0.0384802622615,2.07101182271,0.059250756635,-0.278353090349,-0.747121071949,-0.0120113240128,-0.993973212996,-0.0931024242402,0.26067752484,-0.254274536316,0.573831921154,0.818956108238,0.00292676367131,0.0,0.818922151208,-0.573765839667,-0.0118329367979,0.0,-0.00801153310048,0.00918708533727,-0.99992570364,0.0,0.580444717852,0.154486791049,0.304150012037,1.0,-0.19134,-0.251475428571,1.681
0.371776245529,0.169419485121,-0.126744751755,-1.91320426738,0.0367487476606,2.07549830967,0.0547324897503,-0.279836335063,-0.730387453193,-0.00863670338775,-1.01099934645,-0.104754041493,0.260606419096,-0.275478666403,0.573878572754,0.818923400885,0.00293157264021,0.0,0.818889694492,-0.573812683559,-0.0118075968407,0.0,-0.00798749758142,0.00917693813082,-0.999925989106,0.0,0.577184600891,0.150163384854,0.304173452912,1.0,-0.195624,-0.257105828571,1.698
0.366494783221,0.155734242694,-0.126787065741,-1.93138924406,0.0349101300008,2.08026704875,0.0496742795852,-0.29345664076,-0.77122270869,-0.00807147300243,-1.00848926922,-0.102546080562,0.262617790687,-0.286016405239,0.573703522065,0.819045377997,0.0031119853716,0.0,0.819014115242,-0.5736371428,-0.0117070207653,0.0,-0.00780358109409,0.00926529737741,-0.999926626501,0.0,0.573643918152,0.145605766296,0.304261284046,1.0,-0.20016,-0.263067428571,1.716
0.361870105841,0.144329979883,-0.126872280568,-1.94678932065,0.0332725631872,2.08404332955,0.0454043564099,-0.315209462322,-0.764490188048,-0.00934430662997,-1.03403679798,-0.112140413335,0.255892474031,-0.282151846538,0.573672780918,0.819067782954,0.00287302304924,0.0,0.81903317441,-0.573606971406,-0.0118510958379,0.0,-0.00805901990461,0.00915192849743,-0.999925644437,0.0,0.570564712577,0.141647215856,0.304163144973,1.0,-0.20394,-0.268035428571,1.731
0.356399680279,0.131101264568,-0.127023776859,-1.96408387906,0.0315077631839,2.08840901626,0.0403101417768,-0.328330265561,-0.766395329778,-0.00425012975298,-1.00747935571,-0.107939527324,0.247428842536,-0.299503731292,0.573668276159,0.819070125059,0.00309613716612,0.0,0.819038442146,-0.57360170183,-0.011741586184,0.0,-0.00784138388749,0.00927180937783,-0.999926270407,0.0,0.567128490043,0.137080297696,0.304264105315,1.0,-0.208224,-0.273665828571,1.748
0.35096495429,0.118504996165,-0.127223431537,-1.98052015132,0.029689053351,2.09239591409,0.0354433325281,-0.340676356006,-0.772999702281,-0.0115335091388,-1.00580170909,-0.109786648167,0.257179899385,-0.305999733183,0.573798372665,0.818978850585,0.00313316509897,0.0,0.81894833866,-0.573732477135,-0.0116365883306,0.0,-0.00773267004011,0.00924313375901,-0.99992738251,0.0,0.563602591118,0.132312348492,0.304314044982,1.0,-0.212508,-0.279296228571,1.765
0.34498201176,0.10499474626,-0.127362485061,-1.99818305963,0.0277807670334,2.09647973095,0.029969216021,-0.354047749067,-0.818894834155,-0.00757461378623,-1.0462816118,-0.111597483738,0.234528233473,-0.327128858676,0.573777914768,0.81899351779,0.00304454330005,0.0,0.818961356447,-0.573711729743,-0.0117428575495,0.0,-0.00787078554739,0.00923133336069,-0.999926413902,0.0,0.560150294399,0.127799277297,0.304280180799,1.0,-0.21654,-0.284595428571,1.781
0.338885207447,0.0913267383273,-0.127463536741,-2.01576960922,0.0258494879341,2.10057098588,0.0243444911809,-0.367635138914,-0.786090748248,-0.0118155601435,-1.03726330282,-0.109756951222,0.236141692943,-0.334937485233,0.573657534893,0.819077445395,0.00314928671783,0.0,0.819046659375,-0.573591027132,-0.011689750291,0.0,-0.00776855777128,0.00928550487587,-0.999926711769,0.0,0.556459909654,0.12302292104,0.304318659199,1.0,-0.220824,-0.290225828571,1.798
0.332060286701,0.0765751183375,-0.127639817872,-2.03447763247,0.0237804277703,2.10467964437,0.0181273402816,-0.38744965786,-0.811323094079,-0.011232371349,-1.02742772684,-0.124930642331,0.242384313993,-0.350935688351,0.573630854886,0.819095707905,0.00325737871447,0.0,0.819066063626,-0.573563676514,-0.011672159274,0.0,-0.00769244955551,0.00936369934431,-0.999926570981,0.0,0.552464754362,0.117774910844,0.304396923203,1.0,-0.22536,-0.296187428571,1.816
0.325688131562,0.0634773500723,-0.127843006731,-2.05132575929,0.0218691304632,2.10819359965,0.0124569931252,-0.405445672897,-0.8007092152,-0.0176129079025,-1.0602955998,-0.117941052073,0.218059259335,-0.370677610164,0.573719644395,0.819034315042,0.00305079022482,0.0,0.819001170166,-0.573652199087,-0.0118736957201,0.0,-0.00797502526363,0.00931095251491,-0.999924849744,0.0,0.548788028038,0.112949381127,0.304291481571,1.0,-0.229392,-0.301486628571,1.832
0.318627222488,0.0493564281201,-0.128043249567,-2.0689199407,0.0197966948946,2.11191073562,0.00623932677465,-0.413820452043,-0.807745791267,-0.00734157577944,-1.02559767455,-0.119886039267,0.20989228275,-0.366302860091,0.573822482049,0.818961681831,0.00320463563752,0.0,0.818931020364,-0.573755052044,-0.0117418499875,0.0,-0.00777759906949,0.00936229328938,-0.999925925465,0.0,0.545173788905,0.108055543433,0.304383538258,1.0,-0.22998,-0.302259428571,1.848
0.311521000557,0.0353285331404,-0.128155701336,-2.08641667161,0.0178173300997,2.1153727538,-8.92028312402e-05,-0.428181194609,-0.829178921797,-0.00587361539153,-1.02613045912,-0.123677187756,0.212774397742,-0.384624692261,0.573820961828,0.81896267143,0.0032238909925,0.0,0.818931226641,-0.57375222181,-0.0118651127851,0.0,-0.00786752131761,0.00944877735381,-0.9999244085,0.0,0.541001717158,0.102675693119,0.304369267359,1.0,-0.22998,-0.302259428571,1.866
0.304650192756,0.0222321238523,-0.128287015377,-2.1026832738,0.0157614719374,2.1184415145,-0.00616733957632,-0.43221794154,-0.820844093177,-0.00246715933056,-1.01264028486,-0.119978025509,0.183253211216,-0.387797754345,0.573770787647,0.818998416617,0.0030698083101,0.0,0.818965089118,-0.573702762706,-0.0119193024762,0.0,-0.00800088638854,0.00935319348417,-0.999924248925,0.0,0.537275558565,0.0978271819418,0.304327017913,1.0,-0.22998,-0.302259428571,1.882
0.297086517451,0.00836140610404,-0.128501498083,-2.11950822689,0.0136649366947,2.12159301293,-0.0127643397041,-0.460352809807,-0.784716389654,-0.0155283686788,-0.998657882934,-0.130506463437,0.177068601699,-0.38772353673,0.57388679186,0.818916706903,0.0031818524688,0.0,0.818885243839,-0.573818825699,-0.011817766146,0.0,-0.0078521104655,0.00938781267974,-0.999925103862,0.0,0.533409307335,0.0926045529243,0.304400960112,1.0,-0.22998,-0.302259428571,1.899
0.28944397045,-0.00540442138446,-0.128600574133,-2.13601246399,0.0117159362835,2.12453982297,-0.0195412896918,-0.448861979794,-0.797945590441,-0.0071128991507,-0.947484672284,-0.123666298603,0.186733239726,-0.401623671562,0.573859116343,0.818935251052,0.0033935342147,0.0,0.818905986913,-0.573789743972,-0.0117924218122,0.0,-0.00771020323441,0.0095463580429,-0.999924707073,0.0,0.529530439102,0.0875094395927,0.304488528211,1.0,-0.22998,-0.302259428571,1.916
0.282147638045,-0.0181797414242,-0.128667475605,-2.15146358742,0.00969972630369,2.12714511566,-0.0259408540048,-0.458772035297,-0.806465909715,-0.00432705360574,-0.966054834097,-0.126760645192,0.155261387833,-0.405066324862,0.573773636354,0.818995571609,0.00328858813199,0.0,0.818964936368,-0.573704633726,-0.0118394739141,0.0,-0.00780994882176,0.00948659901687,-0.999924501719,0.0,0.525816927832,0.0827184164608,0.304444791993,1.0,-0.22998,-0.302259428571,1.932
0.274154569577,-0.0318053071355,-0.128840200602,-2.1674320647,0.00762735598823,2.12975829672,-0.0328989601068,-0.478474785978,-0.781074874659,-0.0111002710667,-0.949226861589,-0.129105772606,0.158874416327,-0.402216328364,0.573835805078,0.818951250282,0.0034735246816,0.0,0.818923512088,-0.57376677604,-0.0116925174246,0.0,-0.0075827546973,0.0095543201316,-0.999925605632,0.0,0.521955845385,0.0775532178114,0.304560818724,1.0,-0.22998,-0.302259428571,1.949
0.265460206242,-0.0459649788502,-0.129020116627,-2.18426331189,0.00555327248672,2.13223075588,-0.040449217775,-0.47807987455,-0.809740394196,-0.00668104530719,-0.907693887547,-0.105026604438,0.135149622134,-0.417885736428,0.57396222287,0.818862968581,0.00339886827247,0.0,0.818832616681,-0.573891388244,-0.0119401532592,0.0,-0.00782691880425,0.00963648663959,-0.999922935764,0.0,0.51776763061,0.0720628719575,0.30449135883,1.0,-0.22998,-0.302259428571,1.967
0.257181508056,-0.0592898951905,-0.129121535363,-2.199667824,0.00344499882955,2.13456440928,-0.0476956201791,-0.494589697096,-0.762227940098,-0.00498495147207,-0.91307862136,-0.112339753141,0.118430642889,-0.427880133999,0.573894791231,0.81890963156,0.00353989231427,0.0,0.818882016289,-0.573824599536,-0.0117609212006,0.0,-0.00760000068115,0.00964847133586,-0.99992457065,0.0,0.513915433556,0.0669645040005,0.304567006636,1.0,-0.22998,-0.302259428571,1.984
0.249720053682,-0.0709274843719,-0.129249017653,-2.21320395746,0.00162767896765,2.13634408813,-0.0542549258927,-0.502438920611,-0.770920955535,-0.0123428510392,-0.889272697393,-0.123649516994,0.119117955695,-0.439784984125,0.57385664811,0.818936711747,0.00345781332032,0.0,0.818907434689,-0.573785997241,-0.0118739075944,0.0,-0.00774008299724,0.00964573555816,-0.999923522526,0.0,0.5104333165,0.0624340466081,0.304527660439,1.0,-0.22998,-0.302259428571,1.999
0.239490352973,-0.0863952966013,-0.129457557379,-2.23094644342,-0.000751617188938,2.13860232384,-0.0631585553247,-0.506966335696,-0.762308815271,-0.00964639135749,-0.890634292124,-0.1200225841,0.112685759841,-0.443075312293,0.573928956511,0.818885944732,0.00347984188869,0.0,0.818856324051,-0.573857430238,-0.0119464314303,0.0,-0.0077859815684,0.00970608033421,-0.999922582251,0.0,0.505812776655,0.0563471209772,0.304512983938,1.0,-0.22998,-0.302259428571,2.019
0.232303312672,-0.0971418247144,-0.129516664357,-2.24302274612,-0.00242804717358,2.14001872798,-0.0695054086941,-0.514208507428,-0.765241242022,-0.00368798507205,-0.84870148838,-0.127897503527,0.11087568597,-0.456204145896,0.573813736504,0.818966397013,0.00354728969954,0.0,0.818937735814,-0.573742085199,-0.011905941065,0.0,-0.00771548481506,0.00973698939116,-0.999922828188,0.0,0.50260674405,0.0521920639136,0.304559313547,1.0,-0.22998,-0.302259428571,2.033
0.221713681291,-0.112317927733,-0.129721013625,-2.26019673002,-0.00486675167838,2.14179496758,-0.0787086002222,-0.531162345911,-0.767625763753,-0.0130520361349,-0.868695276528,-0.119667562429,0.0778320275281,-0.468335079863,0.573852843288,0.818939659705,0.00339041498062,0.0,0.818908108114,-0.573780720224,-0.0120806649955,0.0,-0.00794813395716,0.00970914920516,-0.999921276695,0.0,0.497947977919,0.0461255541061,0.30448787321,1.0,-0.22998,-0.302259428571,2.053
0.214084939065,-0.122952539126,-0.129869620737,-2.2717807405,-0.00651143755541,2.14302004329,-0.085326735004,-0.541611049911,-0.756626763215,-0.00818070121196,-0.806469366496,-0.112607103385,0.0809196473067,-0.47469498096,0.573930784182,0.818884112209,0.00360730389729,0.0,0.818856003097,-0.573858610699,-0.0119116758059,0.0,-0.00768434761188,0.00979052838551,-0.999922545178,0.0,0.494795090801,0.0418594795491,0.304596801597,1.0,-0.22998,-0.302259428571,2.067
0.204819268546,-0.135677359947,-0.129988787445,-2.28589568401,-0.008530330346,2.1442210214,-0.0935310426846,-0.552408480892,-0.737802748371,-0.0116833808499,-0.813194018192,-0.117819394404,0.0591325305489,-0.483132983863,0.573809396188,0.818969626229,0.00350357836474,0.0,0.818939229069,-0.573736446499,-0.0120737712154,0.0,-0.00787807297575,0.0097974497671,-0.999920969849,0.0,0.490826271357,0.0367773102564,0.304542211165,1.0,-0.22998,-0.302259428571,2.084
0.195277848062,-0.148357799119,-0.130179698153,-2.29948369388,-0.0105260794796,2.14546950659,-0.101862491491,-0.563445390728,-0.745539163805,-0.014341687694,-0.773804232774,-0.119930210794,0.0717269767451,-0.488628233244,0.573852048992,0.818938639947,0.00375190241314,0.0,0.818912408347,-0.57377937369,-0.0118509360445,0.0,-0.00755257063997,0.00987335346526,-0.999922734799,0.0,0.487230634279,0.0319294500879,0.304653086421,1.0,-0.22998,-0.302259428571,2.1
0.183873082251,-0.1630613547,-0.130341837911,-2.31541410087,-0.0129028084133,2.14645922748,-0.111877164439,-0.572796548931,-0.739863424882,-0.000175947097882,-0.803498028843,-0.110981582805,0.0461900442563,-0.499493066493,0.573810263102,0.818968515505,0.00361931929351,0.0,0.818939648991,-0.573736901231,-0.0120235759158,0.0,-0.00777054268982,0.00986344523337,-0.99992116245,0.0,0.482347330492,0.0256107225515,0.304606903119,1.0,-0.22998,-0.302259428571,2.121
0.176334087764,-0.172595630175,-0.130469290751,-2.32543225764,-0.0143252057173,2.14715554358,-0.11856929733,-0.585507167386,-0.713055460448,-0.0113260555352,-0.781201227798,-0.1167432007,0.0494599325332,-0.508547047046,0.573792703116,0.818979811047,0.00384055334138,0.0,0.818953946941,-0.57371869312,-0.0119180894096,0.0,-0.00755742287264,0.00998394127748,-0.999921600065,0.0,0.479409014215,0.0217154455412,0.304683350561,1.0,-0.22998,-0.302259428571,2.134
0.164377066669,-0.187040303583,-0.130717828782,-2.34080755951,-0.0167087451141,2.14786543413,-0.128981768667,-0.606677326686,-0.729473414168,-0.0120866502077,-0.768318160481,-0.111216204645,0.0363385824533,-0.527843760242,0.573896079102,0.81890798793,0.00370737074464,0.0,0.818879620618,-0.573821543408,-0.0120727029876,0.0,-0.00775921309868,0.00996455910626,-0.999920247907,0.0,0.474761206595,0.0156003279579,0.304623567548,1.0,-0.22998,-0.302259428571,2.154
0.156589817186,-0.196483778165,-0.130788296135,-2.3504214212,-0.018218809582,2.14838130933,-0.135917011817,-0.602047576903,-0.715767214739,-0.00627152426482,-0.748017130887,-0.115220392233,0.0408410202511,-0.536690652073,0.573775935042,0.818991094308,0.00393836418375,0.0,0.818967124262,-0.573702420741,-0.0117952835701,0.0,-0.00740092562352,0.00999343305394,-0.999922675808,0.0,0.471842722671,0.011734205779,0.304751968489,1.0,-0.22998,-0.302259428571,2.167
0.144272832387,-0.210606657029,-0.131041357016,-2.36527021592,-0.0204319175095,2.14873282112,-0.146779569505,-0.625999488711,-0.702362621475,-0.0164303103091,-0.735424152043,-0.11587183662,0.00546858185752,-0.545616282336,0.573853363908,0.818937454534,0.00380909364559,0.0,0.818909635712,-0.573777436939,-0.0121329427034,0.0,-0.00775069844948,0.0100820275844,-0.999919136427,0.0,0.467165879721,0.00567516914323,0.304639599626,1.0,-0.22998,-0.302259428571,2.187
0.135428598564,-0.220570357721,-0.131213960677,-2.37519706294,-0.0220536009656,2.14903404326,-0.154506116196,-0.625153361282,-0.704392619789,-0.00429018766783,-0.720145833888,-0.118263305135,0.0178021005122,-0.558011145607,0.573947218236,0.818870600612,0.00403448069198,0.0,0.818847188944,-0.573872413129,-0.0118524895942,0.0,-0.00739052039271,0.0101065211871,-0.999921616147,0.0,0.464024500653,0.00139688007469,0.304774439528,1.0,-0.22998,-0.302259428571,2.201
0.122854935836,-0.234442855644,-0.131379225507,-2.38944855335,-0.0242870375678,2.14915868463,-0.165822496287,-0.64533723209,-0.68407128621,-0.0141993885361,-0.700343545637,-0.113567650312,0.0027060406966,-0.574597973427,0.57375576486,0.819005229644,0.00393738585755,0.0,0.818979356786,-0.573679722099,-0.012047261566,0.0,-0.00760811828075,0.0101370186803,-0.999919675468,0.0,0.459369164087,-0.00453280870923,0.304690206303,1.0,-0.22998,-0.302259428571,2.221
0.113650061463,-0.244155114279,-0.131591331224,-2.39896265217,-0.0258655197694,2.14922830979,-0.173917691809,-0.662338272235,-0.690945790777,-0.0168754832233,-0.680683475993,-0.106756375235,0.0118951123858,-0.577038018584,0.573876414906,0.818919729966,0.00413318128881,0.0,0.818897527653,-0.573801183005,-0.0118232181727,0.0,-0.00731078307543,0.0101699137987,-0.999921559576,0.0,0.456220811228,-0.00884371478335,0.304800906375,1.0,-0.22998,-0.302259428571,2.235
0.101903001567,-0.256387817867,-0.131714760174,-2.41122932686,-0.0277564415651,2.14917428415,-0.184542266883,-0.651491262664,-0.679152605464,-0.0145745342516,-0.688823765439,-0.114268381874,-0.0107265995205,-0.602580431834,0.573711311331,0.819035146429,0.00418414464717,0.0,0.819012811042,-0.573634820901,-0.0119102686462,0.0,-0.00735489916392,0.0102601214517,-0.999920314508,0.0,0.452068069168,-0.0141705717666,0.304759103032,1.0,-0.22998,-0.302259428571,2.253
0.0904428235888,-0.267844690488,-0.131963980899,-2.42242170648,-0.0296538680852,2.14902758676,-0.194678811741,-0.686233048185,-0.672165048866,-0.0145203988617,-0.638653005858,-0.102654762151,-0.00997825799693,-0.595301350558,0.573819989255,0.818958496625,0.00428341437422,0.0,0.818938115023,-0.573744078819,-0.0117831525477,0.0,-0.0071924677389,0.0102694574807,-0.999921400236,0.0,0.448196248331,-0.0193509995486,0.304799698553,1.0,-0.22998,-0.302259428571,2.27
0.079517309121,-0.278446286488,-0.132106037972,-2.43274856403,-0.0314025592955,2.1487830692,-0.204480743547,-0.669230660304,-0.652677413235,-0.00315820251469,-0.65216009852,-0.110592204669,-0.0231149570892,-0.613870921538,0.573758709593,0.819001226546,0.00432215033301,0.0,0.818981723735,-0.573683222067,-0.0117151102439,0.0,-0.00711528152081,0.010261606234,-0.999922033064,0.0,0.444544081845,-0.0241647713401,0.304805259458,1.0,-0.22998,-0.302259428571,2.286
0.0699207627973,-0.287643528088,-0.13226237261,-2.44171297566,-0.0328550853912,2.14837878322,-0.213211909998,-0.693269057551,-0.649062254849,-0.00978419701911,-0.636321590467,-0.107572994025,-0.0277851659561,-0.613897446644,0.573660742887,0.819069951057,0.00430281854458,0.0,0.819049236059,-0.573583956818,-0.0118549691943,0.0,-0.00724216078554,0.0103251494679,-0.999920468035,0.0,0.441288855032,-0.0283289660214,0.304761329713,1.0,-0.22998,-0.302259428571,2.3
0.0556476081127,-0.300684157117,-0.132552613199,-2.45390729653,-0.0349823760951,2.14784317347,-0.225937147828,-0.712635959091,-0.638906055369,-0.00521887580015,-0.600769738598,-0.115519141203,-0.0363905990562,-0.65113809402,0.573806681223,0.81896644943,0.00453808261187,0.0,0.81895026601,-0.573731290051,-0.011559217981,0.0,-0.00686310385285,0.0103494197278,-0.999922890685,0.0,0.436773764309,-0.0344720257976,0.304887673192,1.0,-0.22998,-0.302259428571,2.32
0.0442874895668,-0.310858785441,-0.132717513818,-2.46365576366,-0.0366222405883,2.14716513248,-0.236260598793,-0.72062904355,-0.639439956712,-0.0129368920633,-0.613051694295,-0.104653641063,-0.0591297459959,-0.644272509508,0.573721899055,0.819026236117,0.00446698983131,0.0,0.819008028806,-0.573645098743,-0.0117429272733,0.0,-0.00705543454175,0.0103958752249,-0.999921070196,0.0,0.433051061352,-0.0392277973831,0.304821246051,1.0,-0.22998,-0.302259428571,2.336
0.0317711413776,-0.321561696441,-0.133008640535,-2.47360849042,-0.0383736884297,2.1464202618,-0.247493187083,-0.73842743314,-0.632125461095,-0.00715337299972,-0.567620319595,-0.0967089105516,-0.0444615543971,-0.66344678904,0.573867964633,0.818923472585,0.00454446032398,0.0,0.818906312783,-0.573790953755,-0.011710643633,0.0,-0.00698268516484,0.0104420515155,-0.999921099721,0.0,0.429151406144,-0.0444468310761,0.304847098284,1.0,-0.22998,-0.302259428571,2.353
0.0185882635258,-0.332698567309,-0.133145038531,-2.48385158057,-0.0401180200847,2.14564110127,-0.259648285968,-0.735620836694,-0.604089941841,-0.00922618120157,-0.576499357869,-0.102872886017,-0.0577058336454,-0.677643409621,0.57366503491,0.819064785628,0.00469590966699,0.0,0.819050102202,-0.573588368557,-0.0115784472536,0.0,-0.00679010998357,0.0104885375775,-0.999921939446,0.0,0.425070500428,-0.0497719948592,0.304889069662,1.0,-0.22998,-0.302259428571,2.371
0.0071973543396,-0.341832003991,-0.133410642662,-2.49226468483,-0.0416530972994,2.14475147172,-0.269891170764,-0.761758876726,-0.610172260726,-0.014009060984,-0.564585782739,-0.104364445669,-0.0580304252392,-0.681563513899,0.573810313,0.818963241239,0.00465629631443,0.0,0.818947461503,-0.573732849841,-0.0116798635152,0.0,-0.00689404145911,0.010515490642,-0.9999209452,0.0,0.421580128757,-0.0543721645195,0.304863552565,1.0,-0.22998,-0.302259428571,2.386
-0.00649919621121,-0.352656110995,-0.133590316221,-2.50193342299,-0.0433641831786,2.14368607268,-0.282475809714,-0.76459522497,-0.599306074037,-0.0108061809867,-0.521872783499,-0.0902693088309,-0.0546184397742,-0.703002987229,0.573710136996,0.81903269424,0.00478240257097,0.0,0.819019019099,-0.573633031675,-0.0115645244897,0.0,-0.00672850910959,0.0105517667461,-0.999921690626,0.0,0.417710103453,-0.0594574469591,0.304934091425,1.0,-0.22998,-0.302259428571,2.403
-0.0197807697922,-0.362572405028,-0.133870718454,-2.51087216693,-0.045086963178,2.14260369364,-0.294595073697,-0.784768531942,-0.584293505561,-0.018624790426,-0.530077836211,-0.100237815307,-0.0797788514646,-0.724169175106,0.573766849787,0.818993132789,0.00475367556199,0.0,0.818979140959,-0.573689907026,-0.0115673744823,0.0,-0.00674659446708,0.0105303398869,-0.999921794644,0.0,0.413567524052,-0.0649607820869,0.304923365035,1.0,-0.22998,-0.302259428571,2.421
-0.0314899814496,-0.371179327474,-0.134003664669,-2.51864798256,-0.0464226966083,2.14155074905,-0.305473133841,-0.792184691787,-0.560264985321,-0.0129655283249,-0.516062824302,-0.0916962750606,-0.0682231094778,-0.726414986099,0.573638276631,0.819083219379,0.00474912794959,0.0,0.819068055931,-0.573559642871,-0.011730418764,0.0,-0.00688441358147,0.0106190806512,-0.999919916781,0.0,0.410087492618,-0.0694033795848,0.304870978554,1.0,-0.22998,-0.302259428571,2.436
-0.0467900487605,-0.381887649318,-0.134311450638,-2.52794786481,-0.0482369328314,2.140205207,-0.319391232518,-0.810278586229,-0.555596954412,-0.0131234767599,-0.478042646045,-0.0937037898225,-0.0592446640422,-0.737794829865,0.573807425941,0.818964282846,0.00482579102071,0.0,0.818950878555,-0.573729716813,-0.0115938544411,0.0,-0.00672638247576,0.0106049297475,-0.999921142513,0.0,0.405750292628,-0.0752237860298,0.304936149866,1.0,-0.22998,-0.302259428571,2.455
-0.0596693746473,-0.390608889033,-0.134477189561,-2.53560423062,-0.0496467831205,2.13905551047,-0.331414045986,-0.812270342027,-0.537464834172,-0.0145450840908,-0.48160684989,-0.0888596314482,-0.0807774876919,-0.757682011827,0.573680009993,0.819053346493,0.0048588717337,0.0,0.819040180808,-0.573601921446,-0.0116088258149,0.0,-0.00672131887625,0.0106395673374,-0.999920808604,0.0,0.402096496374,-0.0799943190742,0.30492247091,1.0,-0.22998,-0.302259428571,2.471
-0.0729127641494,-0.399190902329,-0.134752603655,-2.54311658194,-0.0511568503711,2.13773004333,-0.343632332355,-0.830008462099,-0.528530432568,-0.0136772925605,-0.470959972475,-0.098716970263,-0.0816539579041,-0.769679344768,0.573727892066,0.819020355144,0.00476556670168,0.0,0.819005215771,-0.573648897449,-0.0117535483052,0.0,-0.00689276593012,0.0106465674576,-0.999919566955,0.0,0.39835821632,-0.084884103149,0.304876136716,1.0,-0.22998,-0.302259428571,2.487
-0.086942425319,-0.408103837106,-0.134910428787,-2.55075181469,-0.0525244730738,2.13636058467,-0.356764373864,-0.822450027079,-0.517544200071,-0.00248084769945,-0.430584636145,-0.0815907287079,-0.0740560731307,-0.764884055788,0.573633039898,0.819086269167,0.00485449288542,0.0,0.819071821016,-0.573553045756,-0.0117899373434,0.0,-0.00687279893495,0.0107394826946,-0.999918710769,0.0,0.394466358901,-0.0899235318408,0.304882551195,1.0,-0.22998,-0.302259428571,2.504
-0.101421746696,-0.416747921151,-0.135193883317,-2.55794316118,-0.0539605038903,2.13507287068,-0.370158447168,-0.845575585314,-0.50376404689,-0.00656036178106,-0.41707313893,-0.0954566359745,-0.0768712107654,-0.790238560731,0.573768312329,0.818990602609,0.00500634660691,0.0,0.818979263041,-0.573689626517,-0.0115726417622,0.0,-0.00660592291999,0.0107403159721,-0.999920500538,0.0,0.390619494522,-0.0951440866248,0.304962091385,1.0,-0.22998,-0.302259428571,2.521
-0.114995988571,-0.42467820198,-0.13534823803,-2.56471684135,-0.0553056426076,2.13360350469,-0.383005123174,-0.852624172338,-0.486337709409,-0.00917046260847,-0.419779944253,-0.0825195285859,-0.0928768741552,-0.80840882197,0.573568278682,0.819131287463,0.00491024343015,0.0,0.819117596512,-0.573488161332,-0.0117660017387,0.0,-0.00682206502195,0.0107708795338,-0.999918720488,0.0,0.386895562807,-0.0998979306102,0.304912227566,1.0,-0.22998,-0.302259428571,2.537
-0.129746422623,-0.432837252019,-0.135612731418,-2.57160841083,-0.0566656261397,2.13214616256,-0.396727179944,-0.864508133926,-0.469744486259,-0.00482972889107,-0.402417762783,-0.0734095979488,-0.0894200742249,-0.817664690959,0.573678996243,0.819053650503,0.00492684166492,0.0,0.819039434551,-0.573597636044,-0.0118702770015,0.0,-0.00689650175742,0.0108452150107,-0.999917406377,0.0,0.382954366598,-0.105044312884,0.30487781631,1.0,-0.22998,-0.302259428571,2.554
-0.146416999315,-0.441607894718,-0.135889276388,-2.57875801763,-0.0581112181164,2.13055252611,-0.412435451441,-0.898877277786,-0.459055170504,-0.0210320814621,-0.360808350958,-0.0683541979463,-0.0868789850527,-0.832537394859,0.573686732904,0.819047508392,0.00504563054381,0.0,0.819035312783,-0.57360572417,-0.011763354713,0.0,-0.00674067358489,0.0108812396215,-0.999918077616,0.0,0.378638409095,-0.110801395411,0.304932603836,1.0,-0.22998,-0.302259428571,2.573
-0.159753920467,-0.448385735512,-0.136032264077,-2.58416856381,-0.0592219326716,2.12932797178,-0.424981722696,-0.879847052307,-0.442265024689,-0.00773010066195,-0.363464494094,-0.0706266741405,-0.0828242301572,-0.839257674155,0.573682598457,0.819049714875,0.0051563253654,0.0,0.819040131375,-0.573603169932,-0.0115504780185,0.0,-0.00650285635303,0.0108497545391,-0.999919994642,0.0,0.375242097497,-0.115331304537,0.305012746964,1.0,-0.22998,-0.302259428571,2.588
-0.175013018667,-0.455705622866,-0.136331760822,-2.59029616051,-0.0604726801739,2.12772906692,-0.439439415429,-0.914694444098,-0.429952224224,-0.0236805498883,-0.353729044553,-0.0704803346377,-0.0963550412151,-0.856913946036,0.573702643846,0.819035934655,0.00511479120091,0.0,0.819023876803,-0.573620163887,-0.0118551132202,0.0,-0.00677594682781,0.0109906575201,-0.999916642522,0.0,0.371248896487,-0.120462026292,0.304927153547,1.0,-0.22998,-0.302259428571,2.605
-0.191246939052,-0.463087309069,-0.136511439775,-2.59632134135,-0.0617483288878,2.12622205557,-0.454969435465,-0.899497445531,-0.402198665694,-0.0101496305418,-0.327683740912,-0.0685534311101,-0.0781438370549,-0.869547127136,0.57353138431,0.819155869166,0.00511469679847,0.0,0.819143657595,-0.57344868809,-0.0118750684537,0.0,-0.00679464666954,0.0110006076878,-0.99991640621,0.0,0.367366178148,-0.125532634989,0.304912387786,1.0,-0.22998,-0.302259428571,2.622
-0.205144503386,-0.469019583702,-0.136743452075,-2.60109178985,-0.0627753585169,2.12497393523,-0.46803747114,-0.915888319866,-0.389544192065,-0.0133710271385,-0.309859888806,-0.0713652954836,-0.0837728586828,-0.875835010868,0.57369589505,0.81904037733,0.00516015573483,0.0,0.819028568665,-0.573612701155,-0.0118920008916,0.0,-0.00678022856847,0.011048919787,-0.999915971406,0.0,0.36366891392,-0.130429841939,0.304903697873,1.0,-0.22998,-0.302259428571,2.638
-0.220790344768,-0.475511147219,-0.136915701425,-2.60604895778,-0.0638870377988,2.12358548416,-0.483018908271,-0.92911356862,-0.380273339396,-0.0170523857159,-0.291404677093,-0.06627771803,-0.0855044519641,-0.886468000543,0.57361771178,0.819094503747,0.00525942635356,0.0,0.819085382544,-0.573536510469,-0.0116513588086,0.0,-0.00652721659254,0.0109915566472,-0.999918287225,0.0,0.359845076686,-0.135537554594,0.305008284887,1.0,-0.22998,-0.302259428571,2.655
-0.237626034903,-0.481990758002,-0.137153271339,-2.61121052512,-0.0650172774244,2.12210844196,-0.499145978086,-0.927327178459,-0.355958928297,-0.00656071220578,-0.285883984081,-0.0532438946681,-0.0809529940377,-0.900611767125,0.573602712611,0.819104767437,0.00529669227144,0.0,0.819095716561,-0.573520696454,-0.0117031940892,0.0,-0.00654850551127,0.0110516946066,-0.999917485157,0.0,0.355695106998,-0.140966138652,0.304993451877,1.0,-0.228636,-0.300493028571,2.673
-0.252688896058,-0.487326744152,-0.137327179898,-2.61553773288,-0.0658818798089,2.12077429125,-0.513520304249,-0.953333620341,-0.315435686177,-0.016995400722,-0.262365685932,-0.0558969716916,-0.087025448764,-0.895080737922,0.573683068379,0.819048231794,0.00533647363817,0.0,0.81903805992,-0.573598147991,-0.0119401810658,0.0,-0.00671872214983,0.0112208707628,-0.999914471758,0.0,0.352003453484,-0.145747175057,0.304927262986,1.0,-0.224604,-0.295193828571,2.689
-0.268545005479,-0.492573300544,-0.137380195453,-2.61969494278,-0.0667097154364,2.11954117978,-0.528723994882,-0.927251976866,-0.302132914766,-0.000983826945058,-0.23437461859,-0.0478805283959,-0.0673285422248,-0.886049116439,0.573669150581,0.819057547172,0.00540249880385,0.0,0.819047829272,-0.57358330397,-0.0119830577157,0.0,-0.00671616005357,0.0112994330082,-0.999913604272,0.0,0.348218852496,-0.15071844094,0.30490764664,1.0,-0.22032,-0.289563428571,2.706
-0.284404359685,-0.497464728704,-0.137455073525,-2.62348528453,-0.0675449703301,2.11837326229,-0.543831981522,-0.925967619513,-0.279099075467,-0.0016177135942,-0.215347906708,-0.0423133881727,-0.0745920705536,-0.88559770169,0.573766931023,0.818988750497,0.00544814876573,0.0,0.818979828902,-0.573681234499,-0.0119426938497,0.0,-0.00665555934399,0.0113144645808,-0.999913839499,0.0,0.344478786264,-0.155677126952,0.304918334322,1.0,-0.216036,-0.283933028571,2.723
-0.29899639098,-0.501737542055,-0.137414086058,-2.62673946628,-0.0681422381551,2.11726493914,-0.557867222616,-0.913196846336,-0.260259695386,-0.000190912373877,-0.197769938507,-0.0427423658481,-0.0624736008351,-0.864316926074,0.573753124505,0.818997751167,0.00554820743828,0.0,0.818989958055,-0.573666754107,-0.0119436485109,0.0,-0.00659912617252,0.011396851253,-0.999913277897,0.0,0.341059127697,-0.16015032433,0.304942791176,1.0,-0.212004,-0.278633828571,2.739
-0.314515437731,-0.505810908265,-0.137383933057,-2.62984332567,-0.0688007088528,2.11624712131,-0.572684370405,-0.893879844094,-0.224431224888,0.0116247465193,-0.182962503053,-0.0368044425184,-0.0541918041548,-0.861870640843,0.573847393431,0.818931362852,0.00559811489112,0.0,0.81892454079,-0.573761376321,-0.0118838729285,0.0,-0.00652021968303,0.0114041827363,-0.999913711953,0.0,0.337483438974,-0.164912577687,0.304963271583,1.0,-0.20772,-0.273003428571,2.756
-0.330655752277,-0.509780274839,-0.137358950286,-2.63282231805,-0.069369024204,2.11526318434,-0.588184974278,-0.899914312588,-0.215538795716,-0.00323495217967,-0.156414003483,-0.0409084063402,-0.0525316739867,-0.861238626175,0.573939331937,0.818866026204,0.00572898642692,0.0,0.818861375125,-0.573853652651,-0.0117805164483,0.0,-0.0063591873376,0.0114527679451,-0.99991419374,0.0,0.333782783056,-0.169824752383,0.304999791613,1.0,-0.203184,-0.267041828571,2.774
-0.344703391832,-0.512918156979,-0.13725568108,-2.63526625993,-0.0698531084703,2.11435880011,-0.601837158885,-0.864103377729,-0.1887718027,0.0102001645716,-0.146167806623,-0.0159941011511,-0.0594363205746,-0.84373934213,0.573842225892,0.818933990387,0.00574160897024,0.0,0.818928803649,-0.573755262867,-0.0118852760759,0.0,-0.00643910217239,0.0115224640869,-0.999912881597,0.0,0.330544002002,-0.174034239712,0.304976125765,1.0,-0.199152,-0.261742628571,2.79
-0.359604229772,-0.515885518202,-0.13717095281,-2.63762922162,-0.0703061338176,2.11352506165,-0.616133103456,-0.874246333821,-0.166511471808,0.00667456510032,-0.135438406149,-0.024020022154,-0.0433094020017,-0.830631306379,0.573947998969,0.818859597403,0.00577937041452,0.0,0.818854051064,-0.573859347064,-0.0120099852057,0.0,-0.00651807141091,0.0116257916855,-0.999911173911,0.0,0.327132852883,-0.178487005442,0.304928998514,1.0,-0.194868,-0.256112228571,2.807
-0.374029263949,-0.518465314365,-0.136985535542,-2.63969196248,-0.0706700668624,2.11281852471,-0.63016408294,-0.848197235402,-0.142271706467,0.00275264008025,-0.117208836582,-0.0216003451282,-0.0413808170257,-0.819690204895,0.573864853951,0.81891766859,0.00580761324391,0.0,0.818911911475,-0.573775071522,-0.0120911308162,0.0,-0.00656950343748,0.0116948238442,-0.999910032313,0.0,0.323871117249,-0.182750337904,0.304886529269,1.0,-0.190584,-0.250481828571,2.824
-0.387592241761,-0.520676219649,-0.136895202617,-2.64136714438,-0.0709970752146,2.11217183881,-0.64319977368,-0.836370795278,-0.128316402574,0.0104922722986,-0.0952635322369,-0.0228330062173,-0.0439116865896,-0.812449565486,0.573995687459,0.81882552469,0.00587007637046,0.0,0.818820388651,-0.573905269515,-0.0121103118998,0.0,-0.00654749079352,0.0117580313979,-0.99990943543,0.0,0.320815322205,-0.186778531567,0.30488532951,1.0,-0.186552,-0.245182628571,2.84
-0.401526510606,-0.522743635781,-0.136658893949,-2.64288584663,-0.0712447006251,2.11157035889,-0.656868856763,-0.814662948308,-0.116834719262,0.015325843862,-0.0854269087196,-0.0152215623319,-0.0401001780398,-0.794233757591,0.573851089866,0.818926460392,0.00592672175152,0.0,0.818922303885,-0.573760898278,-0.0120597971519,0.0,-0.00647569047576,0.0117742790618,-0.999909711817,0.0,0.317716491967,-0.19086172182,0.304908839023,1.0,-0.182268,-0.239552228571,2.857
-0.416251748911,-0.524652602277,-0.136507616929,-2.64425018664,-0.0715307048866,2.11098665677,-0.671014253623,-0.80044490584,-0.0925172218166,0.0199148671055,-0.0670849195375,-0.0161879670597,-0.0326809118372,-0.76768885429,0.574016834894,0.818809904285,0.00598003387176,0.0,0.818806807254,-0.573927056354,-0.0119955525145,0.0,-0.00639009699848,0.0117823683761,-0.999910167193,0.0,0.314437950187,-0.195201788181,0.304942480971,1.0,-0.177732,-0.233590628571,2.875
-0.428079551208,-0.525943833177,-0.136331908949,-2.64520556015,-0.071685862479,2.11060584006,-0.682638281869,-0.791650621433,-0.0782335264147,0.0157018806609,-0.0552868229779,-0.011789465097,-0.0319954842501,-0.755956709299,0.573937521235,0.818865094623,0.00603534816664,0.0,0.818862896791,-0.573847865174,-0.011955366808,0.0,-0.00632658271781,0.0118039835374,-0.99991031614,0.0,0.311824715205,-0.1986605296,0.304952966999,1.0,-0.173952,-0.228622628571,2.89
-0.442198498986,-0.527266621169,-0.136144661983,-2.64621588322,-0.0718803912652,2.11015971491,-0.696292079515,-0.772869309502,-0.0618965174642,0.0187298676628,-0.0543996345463,-0.00689774472946,-0.0301382705637,-0.749626497921,0.574044416545,0.818789892961,0.00607173120741,0.0,0.81878793303,-0.573954148248,-0.0119876325624,0.0,-0.00633057895231,0.0118531219946,-0.999909709558,0.0,0.308682971818,-0.202776538288,0.304944190931,1.0,-0.169416,-0.222661028571,2.908
-0.455008633519,-0.528241464138,-0.135902065497,-2.64697371854,-0.0719861155919,2.10984442592,-0.708879320938,-0.756271115525,-0.049358640403,0.0156486786597,-0.0375358778062,-0.0138594949067,-0.019925418556,-0.729541229562,0.573966629995,0.818844136762,0.00611017552643,0.0,0.818842604113,-0.573876080404,-0.0119908686619,0.0,-0.00631229044791,0.0118858593558,-0.999909436567,0.0,0.305856675206,-0.206482783148,0.304935245243,1.0,-0.165132,-0.217030628571,2.925
-0.466315718542,-0.528898006254,-0.135751326858,-2.64750022889,-0.0720843655271,2.10956757182,-0.719801735705,-0.74042121074,-0.0437184940167,0.0155583275239,-0.0324321731361,-0.00924230173607,-0.0232414366984,-0.719019796533,0.574092862516,0.818755438509,0.00613710206022,0.0,0.81875380412,-0.574001320312,-0.0120598266828,0.0,-0.00635146628397,0.0119484661249,-0.999908442325,0.0,0.303188195792,-0.209975276943,0.304915808208,1.0,-0.1611,-0.211731428571,2.941
-0.479273455374,-0.529439574966,-0.135464189245,-2.64793828286,-0.0721288569365,2.10934085267,-0.732605316196,-0.719525800091,-0.0280510022539,0.0158348754011,-0.0175948640159,-0.0058850755659,-0.0140469808183,-0.710352187295,0.573982422723,0.818832621338,0.00616956553248,0.0,0.818831210298,-0.573890386579,-0.012083879131,0.0,-0.00635414241323,0.0119879978376,-0.999907952155,0.0,0.300508010215,-0.213499574599,0.30490243752,1.0,-0.156816,-0.206101028571,2.958
-0.491445597504,-0.529782673956,-0.135288953204,-2.64822690914,-0.0721552198474,2.10914835241,-0.744388953172,-0.700303983384,-0.0153997798417,0.0181946790899,-0.0153424323816,-0.00200115086619,-0.0105146246269,-0.683900522205,0.574149174498,0.818715222475,0.00623352328427,0.0,0.818714253333,-0.574056075897,-0.0121383695783,0.0,-0.00635959847614,0.012072941676,-0.999906895459,0.0,0.297815176319,-0.217020300843,0.304884487368,1.0,-0.152532,-0.200470628571,2.975
-0.502348788924,-0.529946465981,-0.135001012955,-2.64834909137,-0.0721585260532,2.10903427177,-0.755258977804,-0.674703877008,-0.0132018506984,0.0111681610851,-0.00891463291604,0.000302178439813,-0.00288429347104,-0.673142013755,0.573964821867,0.818844478771,0.00623295653164,0.0,0.818843553762,-0.573871863631,-0.0121270563544,0.0,-0.006353377081,0.0120645522971,-0.999907036268,0.0,0.295435863014,-0.220146594231,0.304886350716,1.0,-0.1485,-0.195171428572,2.991
-0.513930788178,-0.530022012795,-0.134801419417,-2.64841806154,-0.072169644123,2.10892092107,-0.766477215899,-0.679724279086,-0.00094169141451,0.0153562482265,-0.00164496168309,-0.000160783027512,-0.00068156131664,-0.655366842123,0.574117781143,0.818737013175,0.00626286948842,0.0,0.818736270989,-0.574024259641,-0.0121579114938,0.0,-0.00635921555619,0.0121079446963,-0.999906474653,0.0,0.29271524672,-0.223671951868,0.304876363027,1.0,-0.143964,-0.189209828572,3.009
-0.52494472147,-0.529955914626,-0.134495332781,-2.64837019444,-0.0721622679178,2.10890078198,-0.777386579777,-0.63802504357,0.00762882016934,0.0136402727621,0.000957717216901,0.000504964256794,0.000352937170388,-0.63415046744,0.573989111438,0.818827381503,0.00624228747284,0.0,0.818826685477,-0.573896310145,-0.0121091392268,0.0,-0.00633299094753,0.012062097859,-0.999907195204,0.0,0.290453109846,-0.226624605723,0.304881733171,1.0,-0.139932,-0.183910628572,3.025
-0.535120714519,-0.529797694188,-0.134284092143,-2.64824328179,-0.0721637419523,2.10889606298,-0.787369023066,-0.634108785545,0.00961768631701,0.0108474536522,0.00390541497712,-0.00051668292187,-0.00064769581484,-0.622799480577,0.574005319654,0.818816051787,0.00623804821657,0.0,0.818815528353,-0.573912968153,-0.0120740388874,0.0,-0.00630644150195,0.0120386050778,-0.999907646127,0.0,0.288199705664,-0.229545288791,0.304886672904,1.0,-0.1359,-0.178611428572,3.041
-0.546295852667,-0.529490790698,-0.134005631021,-2.64800044382,-0.0721482297729,2.10890667701,-0.79828884353,-0.597757877804,0.0240505523934,0.0203715167745,0.0159574356021,0.0060012306251,0.000854197997212,-0.608326243548,0.574038538685,0.818792977321,0.00620993519643,0.0,0.818792273896,-0.573946658432,-0.0120495802303,0.0,-0.00630206145137,0.0120018014593,-0.99990811617,0.0,0.285727059427,-0.232738417034,0.304893056411,1.0,-0.131364,-0.172649828572,3.059
-0.556292807138,-0.529023868348,-0.133679768388,-2.64767766163,-0.0721032954946,2.10893670364,-0.808264857469,-0.594314128281,0.0266172450982,0.0132845290354,0.0247114770433,-0.000238381284198,0.00121764336878,-0.568761633297,0.573863705987,0.818915913559,0.00615795185887,0.0,0.818914298404,-0.573771646787,-0.0120919855316,0.0,-0.00636918382597,0.0119822171508,-0.999907925746,0.0,0.283527826322,-0.235575808353,0.30488019059,1.0,-0.12708,-0.167019428572,3.076
-0.565644747285,-0.528525203473,-0.133463524916,-2.64732221168,-0.0720443966265,2.10900318751,-0.817383246748,-0.580212680919,0.033921130901,0.0149746811445,0.0229546227379,0.00376183958696,0.00677304091569,-0.56171619951,0.573947920681,0.818856881077,0.00615950966068,0.0,0.818855199452,-0.573855673434,-0.0121068286442,0.0,-0.00637921319859,0.0119926665341,-0.999907736538,0.0,0.281447061292,-0.238246686368,0.304870837083,1.0,-0.123048,-0.161720228572,3.092
-0.575079083008,-0.527819603147,-0.133153784656,-2.6467902153,-0.0719299794473,2.1091414673,-0.826773808143,-0.533039101581,0.0505482754218,0.0252255935358,0.0299447097273,0.0112709700105,0.0136909668601,-0.542766190444,0.573844155236,0.818929739653,0.00614116551957,0.0,0.818928017078,-0.573752382939,-0.0120769539909,0.0,-0.00636679101716,0.0119596922234,-0.999908210654,0.0,0.279394988072,-0.240943489149,0.304874549556,1.0,-0.118764,-0.156089828572,3.109
-0.584241299843,-0.527039345071,-0.132890856523,-2.64621717063,-0.0717966518697,2.10925446077,-0.835789670408,-0.532881752323,0.0475909360597,0.0161845182954,0.0378747480517,0.00824998991995,0.00788082684263,-0.515945347629,0.573867734368,0.818913120948,0.00615391677926,0.0,0.818911344541,-0.57377548789,-0.012109755554,0.0,-0.00638599406234,0.0119891410755,-0.999907735532,0.0,0.277379563152,-0.243561351918,0.304866113279,1.0,-0.11448,-0.150459428572,3.126
-0.592686005867,-0.526241679975,-0.132654981029,-2.64561866042,-0.0716436792524,2.10938381731,-0.843988414364,-0.525472123183,0.0529109035172,0.015183867984,0.0406470863181,0.00586019392566,0.0143604978394,-0.51582977393,0.57400151559,0.81881912316,0.00618470284483,0.0,0.8188176441,-0.573908907953,-0.0121234476713,0.0,-0.00637757752435,0.0120232526353,-0.999907379661,0.0,0.275520835548,-0.245976936699,0.304863408224,1.0,-0.110448,-0.145160228572,3.142
-0.601065857631,-0.525260941562,-0.132307563657,-2.64491812531,-0.0714306718631,2.10955185232,-0.852389849906,-0.481053538657,0.060985049883,0.0211030232806,0.0397739709684,0.0121975348351,0.0081084645259,-0.488089074392,0.573868746293,0.818912072762,0.00619887202829,0.0,0.818910415828,-0.573775420379,-0.0121755787876,0.0,-0.0064140915493,0.0120637372689,-0.99990665848,0.0,0.27371196762,-0.248356683663,0.304845963945,1.0,-0.106164,-0.139529828572,3.159
-0.609239078529,-0.524304760279,-0.131999670037,-2.64421594516,-0.0712540808735,2.10971519456,-0.860483580201,-0.475850675463,0.0520750664208,0.0222226920279,0.0441575741944,0.0148900449772,0.016180848083,-0.457532541393,0.573829922907,0.818939286293,0.00619772889341,0.0,0.81893737197,-0.573736155361,-0.0122127688832,0.0,-0.00644577918686,0.0120838366902,-0.999906212013,0.0,0.271817908689,-0.250814702064,0.304837433767,1.0,-0.101628,-0.133568228572,3.177
-0.616733895946,-0.523409671009,-0.1317258982,-2.64349159612,-0.0710600296188,2.10988433387,-0.867777264063,-0.459638677046,0.058210969929,0.0185110615806,0.0418097080917,0.0121929469328,0.00435331463089,-0.450041001178,0.573924700553,0.818872687977,0.00622140512802,0.0,0.818871396186,-0.573831393924,-0.0121620210499,0.0,-0.0063892323041,0.0120748474708,-0.999906683531,0.0,0.270288703988,-0.252819979993,0.304858920961,1.0,-0.0978480000001,-0.128600228572,3.192
-0.625070663069,-0.522208506277,-0.131388403881,-2.64256232047,-0.0707947425252,2.11010882297,-0.876089071046,-0.423012972518,0.0592944064572,0.0174501874477,0.0428220005425,0.0146738840956,0.014866011657,-0.428312928559,0.573870818654,0.818910180402,0.00625674302419,0.0,0.818909384577,-0.573777429015,-0.0121502553717,0.0,-0.00636011234384,0.0120966154738,-0.999906606071,0.0,0.268492225039,-0.25520856006,0.304868169671,1.0,-0.0930600000001,-0.122307428572,3.211
-0.631767411276,-0.521241438027,-0.131089343109,-2.64182175123,-0.0706052744027,2.11029342115,-0.882776504068,-0.421333144299,0.0630371136421,0.0153742197401,0.0443335611181,0.00549564582769,0.0169158443622,-0.41693555235,0.573788326898,0.818968016269,0.00625229122244,0.0,0.818967178827,-0.573695006778,-0.0121468557299,0.0,-0.00636110055668,0.0120903781072,-0.999906675224,0.0,0.267037306427,-0.257113444076,0.304872809546,1.0,-0.0890280000001,-0.117008228572,3.227
-0.637933982626,-0.52034339697,-0.130825623813,-2.64109639196,-0.0704103830555,2.1104709714,-0.888745505227,-0.408824703638,0.0584374929242,0.0156043101413,0.0511193011017,0.0108235826742,0.0184681355631,-0.389898655181,0.573886022727,0.818899478402,0.00626291406784,0.0,0.818899073439,-0.573793193744,-0.0121006295679,0.0,-0.00631570337322,0.012073309151,-0.99990716924,0.0,0.265696167519,-0.25887276112,0.304894132928,1.0,-0.0852480000001,-0.112040228572,3.242
-0.644911644931,-0.519204051422,-0.130571289672,-2.64021877904,-0.0701723246488,2.1107026453,-0.895629111729,-0.383163685414,0.0564307087064,0.0131243513208,0.0425418263748,0.0113481776559,0.0169244607412,-0.372030496137,0.573932318123,0.818866704774,0.00630562674595,0.0,0.818866939012,-0.573839446217,-0.0120819311166,0.0,-0.00627519457772,0.0120979129275,-0.999907126905,0.0,0.264172003486,-0.260879842132,0.304899989021,1.0,-0.0807120000001,-0.106078628572,3.26
-0.651078065115,-0.518128924669,-0.130253568184,-2.63942583683,-0.0699224618503,2.11091936172,-0.901773438875,-0.354849041154,0.0654835885387,0.0204566443674,0.0429083410398,0.00665328714077,0.012500559239,-0.363582024527,0.573875087427,0.818906622063,0.00633050335976,0.0,0.818907024079,-0.573781814095,-0.0121021745481,0.0,-0.00627834405451,0.0121294636739,-0.999906724903,0.0,0.262840972147,-0.262627073325,0.30489090658,1.0,-0.0764280000001,-0.100448228572,3.277
-0.656595032719,-0.517151637042,-0.12992265505,-2.63870661724,-0.0697045187399,2.11110702704,-0.90720484303,-0.34133898249,0.062646515828,0.019524127886,0.0448297774046,0.0148436052718,0.0150460046644,-0.329478009664,0.5738425658,0.818929455026,0.00632489281367,0.0,0.818929582898,-0.573748937572,-0.0121343228358,0.0,-0.00630837531072,0.0121430665758,-0.999906370784,0.0,0.261651278524,-0.264176482896,0.304881839215,1.0,-0.0723960000001,-0.0951490285715,3.293
-0.662240736614,-0.516123447042,-0.12962256974,-2.63791654382,-0.0694792496381,2.11132995764,-0.912718361643,-0.319418351587,0.0618747340842,0.0156108750915,0.0448524548402,0.013125294761,0.011813724857,-0.31864881198,0.573876588625,0.818905579932,0.00632922476945,0.0,0.818905911861,-0.573783217607,-0.0121108881889,0.0,-0.0062861919913,0.0121334283863,-0.999906627494,0.0,0.260432615314,-0.265782662532,0.304888116588,1.0,-0.0681120000001,-0.0895186285715,3.31
-0.66746768675,-0.515091362472,-0.12935698969,-2.63713899197,-0.0692413854006,2.11153901967,-0.917890046727,-0.306150348712,0.0599866558523,0.0113034268875,0.0395183009993,0.0174368069595,0.00608381620504,-0.296389376974,0.573876685034,0.818905262121,0.00636152083344,0.0,0.818905944838,-0.573783030737,-0.0121175099807,0.0,-0.00627308075935,0.0121636778758,-0.999906342313,0.0,0.259304705907,-0.267275579375,0.304884904983,1.0,-0.0638280000001,-0.0838882285715,3.327
-0.672190630465,-0.514170710149,-0.129144691004,-2.63646282005,-0.0690364037608,2.11172226774,-0.922499448525,-0.288162384237,0.050935350093,0.0173517286651,0.0448085462622,0.0164656286476,0.0143665018647,-0.288853396777,0.573942781169,0.818858637294,0.00640023239422,0.0,0.818859634324,-0.573848563354,-0.0121438260968,0.0,-0.00627143346913,0.0122109883813,-0.999905776003,0.0,0.258264784179,-0.268619874968,0.304872954339,1.0,-0.0597960000001,-0.0785890285715,3.343
-0.677032905815,-0.513198008297,-0.128770386995,-2.63572778655,-0.0688018012682,2.11192099141,-0.927250725588,-0.257796817238,0.0549323587599,0.0235423058813,0.0452958057211,0.00680005606152,0.00863505000539,-0.263898003866,0.573890674594,0.818895332541,0.00637768437618,0.0,0.818896011886,-0.573796527392,-0.0121496407487,0.0,-0.00628991205359,0.0121954606265,-0.999905849441,0.0,0.257239604426,-0.269970308804,0.304873479371,1.0,-0.0552600000001,-0.0726274285715,3.361
-0.681292885772,-0.512310782447,-0.128412591164,-2.63506134516,-0.0685943617199,2.11211174377,-0.931461107683,-0.248945172537,0.0579792242152,0.0201998157109,0.038493122025,0.0133246298764,0.014396673511,-0.237178228508,0.573800870463,0.818958537504,0.00634206642453,0.0,0.818958757681,-0.573706918752,-0.0121520160859,0.0,-0.00631363149148,0.0121669624999,-0.999906047127,0.0,0.256344811325,-0.271156011144,0.304873055579,1.0,-0.0509760000001,-0.0669970285715,3.378
-0.685062565309,-0.511515060106,-0.128136728996,-2.63445286465,-0.068383621615,2.11228993418,-0.935103807638,-0.224821939802,0.0474804987676,0.0203638292326,0.0351191867892,0.0194913901465,0.00799413023071,-0.218810475691,0.57383078815,0.818937523487,0.00634870835026,0.0,0.818937947154,-0.573737024721,-0.0121330984042,0.0,-0.00629388169638,0.0121617777553,-0.999906234712,0.0,0.255547184788,-0.272214970876,0.304876870798,1.0,-0.0469440000001,-0.0616978285715,3.394
-0.688765251257,-0.510736427136,-0.127878854446,-2.63387090208,-0.0681763968497,2.11245924929,-0.938616429117,-0.213738081013,0.0477976223475,0.0130612713857,0.0284907748506,0.0208461359114,0.0136753206554,-0.204368645996,0.573922185516,0.818873348351,0.0063648435618,0.0,0.818873982075,-0.573828326937,-0.0121325836404,0.0,-0.00628284282167,0.0121753981257,-0.999906138378,0.0,0.254752426653,-0.273250660866,0.304873569324,1.0,-0.0426600000001,-0.0560674285715,3.411
-0.692123026088,-0.510044060745,-0.127605336897,-2.63334639528,-0.0679680275133,2.11261917512,-0.941914658354,-0.194329527204,0.0417084735973,0.017506199924,0.0313557310808,0.0163717298633,0.0156872284196,-0.184367409933,0.57389279854,0.81889384523,0.00637753318713,0.0,0.818894749841,-0.573799092813,-0.0121134912439,0.0,-0.00626036119805,0.0121746082329,-0.999906289005,0.0,0.254039836491,-0.274177876661,0.304875519523,1.0,-0.0383760000001,-0.0504370285715,3.428
-0.695177863416,-0.509406164664,-0.12735159294,-2.63285588484,-0.0677603062952,2.11276278638,-0.94476136652,-0.17484805926,0.0329008447217,0.0145610306736,0.0287306297128,0.00617229569979,0.0162104176439,-0.163149157882,0.573988844469,0.818826399479,0.00639381289339,0.0,0.818827682732,-0.573895367637,-0.0120863517024,0.0,-0.00622736414229,0.0121730964126,-0.99990651346,0.0,0.253430838564,-0.274974458744,0.304883021824,1.0,-0.0343440000001,-0.0451378285715,3.444
-0.697747081135,-0.508853451763,-0.127071456171,-2.63241304343,-0.0675717698896,2.11289474929,-0.947258740308,-0.152529147744,0.0353835581801,0.0177559981326,0.0260725730608,0.0150275761283,0.00467520626629,-0.150109303905,0.57395970319,0.818846851171,0.00639064495163,0.0,0.818848324109,-0.573866699161,-0.0120490911922,0.0,-0.00619910141023,0.0121488956169,-0.999906983412,0.0,0.252873495127,-0.275721629244,0.304894316095,1.0,-0.0300600000001,-0.0395074285715,3.461
-0.700282127007,-0.5082884035,-0.126717214378,-2.63199345414,-0.0673574814378,2.11300786336,-0.949676225569,-0.132391338751,0.0294572409487,0.0200895449625,0.0252078838144,0.0103024160659,0.00542508350546,-0.125097144304,0.573916952799,0.818876927363,0.00637620755519,0.0,0.818878149892,-0.573823901016,-0.0120603960791,0.0,-0.00621727949291,0.0121432366083,-0.99990693929,0.0,0.252372120089,-0.27638614443,0.304893348659,1.0,-0.0255240000001,-0.0335458285715,3.479
-0.702215334007,-0.50785555211,-0.126424621979,-2.63167664496,-0.0671769551809,2.11308212009,-0.951458912811,-0.1176372641,0.0218920554789,0.0176288061668,0.0151089862805,0.00773556723061,0.0015574713268,-0.11256812251,0.573925277159,0.81887113368,0.00637099394511,0.0,0.818872140612,-0.573831959062,-0.0120849902832,0.0,-0.00624028990198,0.0121531448331,-0.999906675572,0.0,0.251992995238,-0.276883266499,0.304889879915,1.0,-0.0214920000001,-0.0282466285715,3.495
-0.704015448396,-0.507463188949,-0.12613468753,-2.63137826508,-0.0669922741008,2.11317911151,-0.953142988693,-0.100786428005,0.0258586762622,0.0163646516512,0.0180811073351,0.0117765717175,0.00245706987214,-0.0934347374553,0.573907889693,0.818883360078,0.00636581789454,0.0,0.818884427703,-0.573814848432,-0.0120648533214,0.0,-0.0062270266859,0.0121372173316,-0.999906951718,0.0,0.25164994829,-0.277345694405,0.304894879622,1.0,-0.01976,-0.0259702857143,3.512
-0.705641061975,-0.507088631776,-0.125949376166,-2.63111413766,-0.0668416851118,2.11323676165,-0.954719267325,-0.098937013312,0.0191643726217,0.0126621541893,0.0155538718181,0.0112446213009,0.00123299745829,-0.0860647703204,0.573894283826,0.818892680767,0.00639337776022,0.0,0.818893862921,-0.573800643538,-0.0120999854359,0.0,-0.00624018538053,0.012179844787,-0.999906351349,0.0,0.251313968128,-0.277774230044,0.304885041503,1.0,-0.01942,-0.0255234285714,3.529
-0.707071357181,-0.506750704703,-0.125806944681,-2.63085119346,-0.0667585894041,2.1132966516,-0.956089626487,-0.0852636670337,0.0229316939626,0.00100339955499,0.0186127697302,0.000370478096668,0.0059462471737,-0.0844505276771,0.573890804013,0.818895230047,0.00637919873468,0.0,0.818896198653,-0.573797173362,-0.0121064682898,0.0,-0.00625368333575,0.0121719267622,-0.999906363438,0.0,0.251016037031,-0.27816944297,0.304887369259,1.0,-0.0191,-0.0251028571429,3.545
-0.708615168422,-0.506377373134,-0.125708818282,-2.63055768743,-0.0667095922637,2.1133811699,-0.957612808668,-0.0811051607478,0.0226898613631,0.00132049895085,0.0200024605912,0.00762947569746,0.00697479057179,-0.0822268253635,0.573873670443,0.818907442823,0.00635274455225,0.0,0.818908153602,-0.573780333115,-0.0120959578215,0.0,-0.00626051053697,0.0121440998357,-0.999906659067,0.0,0.250681755421,-0.27861660565,0.30489141196,1.0,-0.01874,-0.0246297142857,3.563
-0.709906949553,-0.506055911707,-0.125676912262,-2.63031032264,-0.0666293506513,2.11342181378,-0.95899478236,-0.0824014456202,0.0226336060311,0.000162399161685,0.0165799070336,0.0102989259138,-0.000196359992515,-0.0739196848833,0.573824125868,0.818941833699,0.00639472362286,0.0,0.818942927881,-0.573730289154,-0.0121154068074,0.0,-0.00625308722501,0.0121892610886,-0.999906156004,0.0,0.250389093464,-0.27899301466,0.304888471026,1.0,-0.01842,-0.0242091428572,3.579
-0.711256346187,-0.505714485644,-0.125650653965,-2.63003997881,-0.0665984483329,2.11350214591,-0.960333413534,-0.0762446440214,0.0250413757863,0.000667179676835,0.018094314494,0.000159840291715,0.00444823042969,-0.0835872857168,0.573841252613,0.818929885517,0.00638798154849,0.0,0.818930993864,-0.573747641981,-0.0121003104017,0.0,-0.00624433668432,0.0121752077667,-0.999906381905,0.0,0.250084180893,-0.279401221575,0.304891728183,1.0,-0.01808,-0.0237622857143,3.596
