nelsonifechukwu/NELSON_IML_WORK/CNN-GradCAM/train2dof/data_sample_2022-02-22-10-11-05/robot_state.csv
position_joint1,position_joint2,position_joint3,position_joint4,position_joint5,position_joint6,position_joint7,velocity_joint1,velocity_joint2,velocity_joint3,velocity_joint4,velocity_joint5,velocity_joint6,velocity_joint7,ee_T_00,ee_T_10,ee_T_20,ee_T_30,ee_T_01,ee_T_11,ee_T_21,ee_T_31,ee_T_02,ee_T_12,ee_T_22,ee_T_32,ee_T_03,ee_T_13,ee_T_23,ee_T_33,v_x,v_y,time
0.465070161645,0.547795249168,-0.123996802032,-1.35583484409,0.079540230759,1.8940923322,0.159160477678,6.7857270401e-06,-0.00131208012444,-0.00102177399123,0.000421871683547,0.000156057582137,4.3732386339e-05,-0.00147999854655,0.573826204983,0.818963036428,0.0019437951038,0.0,0.818919466056,-0.573767321881,-0.0119463533333,0.0,-0.00866850258466,0.00844710487813,-0.999926749058,0.0,0.661675204553,0.260888905337,0.303203174959,1.0,0.0,0.0,0.0
0.465067310175,0.547795698832,-0.123991740318,-1.35583277779,0.0795396189983,1.89409162013,0.159161329391,0.000404152550946,-1.75565126806e-05,0.00127488601405,0.000589008975286,-0.000206190066327,-0.000145345728981,-0.000868024751871,0.57382542215,0.818963581064,0.00194542700969,0.0,0.818920013004,-0.573766513815,-0.0119476703147,0.0,-0.0086686528915,0.00844918874719,-0.999926730149,0.0,0.661675140221,0.26089003999,0.303203609279,1.0,-4e-05,-5.25714285714e-05,0.003
0.465066316093,0.547792745632,-0.12399429595,-1.35583270815,0.0795402292957,1.89408915329,0.159165655894,-0.00111533181274,-0.000300052910836,-0.000825840823584,-0.000316249671651,0.000150005701566,-0.000185616788848,0.0008018106938,0.57383020219,0.818960222792,0.00194921525523,0.0,0.818916725469,-0.573771298199,-0.0119432412678,0.0,-0.00866280254785,0.00844980021038,-0.999926775683,0.0,0.661676156015,0.26088727894,0.303207275913,1.0,-0.00036,-0.000473142857143,0.019
0.465066165544,0.547781416088,-0.123993879953,-1.35584687335,0.0795396189461,1.89409197334,0.159159891363,-0.000236643714643,-0.00262011331999,0.00069764171155,-0.000298507063759,-0.000186348604222,-0.000117040384867,0.000312795944571,0.57382742363,0.818962176918,0.00194616778182,0.0,0.818918615443,-0.573768508945,-0.0119476493145,0.0,-0.0086681899948,0.00844980453478,-0.999926728958,0.0,0.661673147339,0.260886582993,0.303207120122,1.0,-0.00068,-0.000893714285714,0.035
0.465064143833,0.547754864515,-0.123991749123,-1.35588148361,0.0795383579085,1.8941003278,0.159159825564,-0.000155486958563,-0.000984199355773,0.0010507265494,-0.0051140957628,-0.000451133336168,9.17278015892e-05,-0.000679919795013,0.573829103559,0.818960996322,0.0019476430626,0.0,0.818917429876,-0.573770158876,-0.0119496748886,0.0,-0.00866898508787,0.0084521928112,-0.999926701881,0.0,0.661667690206,0.260883081999,0.303210109592,1.0,-0.00102,-0.00134057142857,0.052
0.465065785222,0.547624990129,-0.12399390626,-1.35603250475,0.0795368812941,1.89413637181,0.159156502279,-0.000240404017186,-0.0104396636686,-0.00016021423328,-0.0149307014003,0.000306757174032,0.00228663182461,-0.00083789158395,0.573834420698,0.818957227995,0.00196551237587,0.0,0.818913810795,-0.573775318661,-0.0119499408779,0.0,-0.00865889467686,0.00846703564763,-0.999926663736,0.0,0.661643842146,0.260868910747,0.303233432516,1.0,-0.00136,-0.00178742857143,0.069
0.465056387071,0.547497711455,-0.123986765073,-1.35621797398,0.0795335540422,1.89417483505,0.159155614968,0.000267151079134,-0.00843954881693,0.000364790813431,-0.0136271113485,6.63418413012e-05,0.00376525928203,-0.00145622559857,0.573845685293,0.81894935781,0.00195594319256,0.0,0.818905666584,-0.573786476333,-0.011972289485,0.0,-0.00868257219931,0.00847214274295,-0.999926415161,0.0,0.661613347587,0.2608485501,0.303238416743,1.0,-0.00168,-0.002208,0.085
0.465028268274,0.547329871436,-0.123997641307,-1.35643548836,0.0795342429658,1.89430236816,0.159148388509,-0.0029137342064,-0.00574996438301,-0.000980669895227,-0.0131888066085,0.000100752016945,0.00904216185222,-0.000758164330092,0.573883043851,0.81892300947,0.00202569525283,0.0,0.81888022633,-0.573823537184,-0.0119360797513,0.0,-0.00861250455341,0.00850887938876,-0.999926709183,0.0,0.661603143261,0.260808823404,0.303265215545,1.0,-0.00202,-0.00265485714286,0.102
0.465006586808,0.547136686584,-0.12399249554,-1.35666323806,0.079532789318,1.89441587666,0.159136483956,-0.00287143752279,-0.0122218333806,-0.000311468146528,-0.0128106073003,0.000183558366462,0.00556671034123,-0.00124580505009,0.573899943412,0.818910977153,0.00210079759579,0.0,0.818869081059,-0.573840035257,-0.0119075153752,0.0,-0.00854583781878,0.00855416529094,-0.999926894784,0.0,0.661583216458,0.260780446495,0.303303336074,1.0,-0.00236,-0.00310171428571,0.119
0.464973703784,0.546927983377,-0.123991720192,-1.35694211791,0.0795250757457,1.89454204115,0.159125965501,-0.00319327768831,-0.00853196496797,0.00109398451216,-0.0231058791934,0.000178984794507,0.00897302868204,0.00020579777572,0.57393139069,0.818888801704,0.00215316644939,0.0,0.818847538436,-0.573871217401,-0.0118861910339,0.0,-0.00849799209367,0.00858513848754,-0.999927037102,0.0,0.661558756475,0.260736103894,0.303329335992,1.0,-0.00268,-0.00352228571429,0.135
0.464937333942,0.546676392894,-0.123997729446,-1.35730864195,0.0795183435625,1.89467176764,0.159086001415,-0.00304011742846,-0.014914220265,-0.00162597416038,-0.0226903693708,-8.68590349708e-05,0.0145434190423,-0.0039580938574,0.573951311777,0.818874786324,0.00217323118589,0.0,0.81883366939,-0.573890939159,-0.01188943755,0.0,-0.00848892638513,0.0086036387912,-0.999926955096,0.0,0.661518420768,0.260676080905,0.303344517922,1.0,-0.00302,-0.00396914285714,0.152
0.464905863463,0.546427224033,-0.123997729446,-1.35767187144,0.079509373202,1.89481039904,0.158963420031,-0.00232347508677,-0.0195976405946,-0.000981139464305,-0.0209275108126,0.000340213875536,0.0101949867134,-0.00797042981108,0.57389465436,0.818914417002,0.00220232231948,0.0,0.818873562029,-0.573834053656,-0.0118876059526,0.0,-0.0084713274535,0.00862582310567,-0.999926913223,0.0,0.661477999294,0.260623380968,0.30336010985,1.0,-0.00332,-0.00436342857143,0.167
0.464866347099,0.54613653301,-0.123990892834,-1.35815559574,0.0794976386552,1.89498108613,0.158935032437,-0.00101375067619,-0.0195953572656,0.00165831201159,-0.0330556251466,0.000379307922541,0.0093415182821,-0.00120487073816,0.573928853471,0.818890488479,0.00218767778404,0.0,0.81884923704,-0.573868098216,-0.0119197210391,0.0,-0.0085056714553,0.0086326163186,-0.999926563048,0.0,0.661415177623,0.260548725892,0.303347066989,1.0,-0.00368,-0.00483657142857,0.185
0.464819475979,0.545814218093,-0.123992706159,-1.35871532591,0.0794694713202,1.89516865029,0.158881271998,-0.00428842082031,-0.0172546792225,0.000215893728935,-0.0312654094086,-0.00721727814963,0.0103966212715,-0.000729067457496,0.573942307445,0.818881150153,0.00215326500386,0.0,0.818839373491,-0.573881612886,-0.0119466193274,0.0,-0.00854730674404,0.00862001439166,-0.999926316735,0.0,0.661349637601,0.260471183455,0.303328389089,1.0,-0.004,-0.00525714285714,0.201
0.464761382262,0.545451163649,-0.123993390092,-1.35933674625,0.0793672481657,1.89537241251,0.1587783327,-0.00124987946255,-0.0197980160292,-0.000378819666896,-0.0420099790448,-0.0146077013005,0.0092271364877,-0.00788900057222,0.573913509173,0.818901546009,0.00207094998745,0.0,0.818859235097,-0.573853695465,-0.0119262818773,0.0,-0.00857819352088,0.00854063523994,-0.999926733389,0.0,0.661278101256,0.260360639852,0.303307174803,1.0,-0.00434,-0.005704,0.218
0.464692098486,0.544992101314,-0.123996111177,-1.36011924636,0.0793358535777,1.89562338728,0.158686987119,-0.00409572994829,-0.0267471337559,-0.000486915342324,-0.0386176196928,-0.000292024645768,0.0170685898671,-0.00676232054194,0.573932505973,0.818888366151,0.00201724355207,0.0,0.818845160538,-0.573872720251,-0.0119770996708,0.0,-0.00865043308363,0.0085260211009,-0.999926235765,0.0,0.661180823578,0.260238335621,0.303281523079,1.0,-0.00472,-0.00620342857143,0.237
0.464631819712,0.54461893636,-0.123996428058,-1.36075784192,0.0793232703531,1.8958390634,0.158622117986,-0.00600121231019,-0.0216543271101,-0.000648179839213,-0.0400121406957,5.24979391848e-05,0.0167618559244,-0.00894135122899,0.573961182731,0.818868337169,0.00198846709377,0.0,0.818824482767,-0.57390124672,-0.0120238237157,0.0,-0.00870491238485,0.00852957784118,-0.999925732643,0.0,0.661103288834,0.260139989275,0.303260417344,1.0,-0.00502,-0.00659771428571,0.252
0.464564979172,0.544116277707,-0.123998756391,-1.36157225628,0.0792924185736,1.89613887283,0.15851927296,-0.00419550720536,-0.0335241530355,0.000385311556227,-0.0430205191003,-0.00163059111119,0.0144445449366,-0.00913422073686,0.573970564675,0.818861764742,0.00198696528076,0.0,0.818817723109,-0.573910469737,-0.0120439175567,0.0,-0.00872213133529,0.00853998096909,-0.999925493799,0.0,0.661008615185,0.26001973195,0.303254570354,1.0,-0.00538,-0.00707085714286,0.27
0.464502461991,0.543663679523,-0.123998840105,-1.36231354524,0.079260763628,1.89639458226,0.158436273403,-0.00817754699711,-0.0315217101776,-0.00179209226808,-0.0446410237995,-0.00062489435186,0.0155579396302,-0.00777366291862,0.573986641885,0.818850546579,0.00196575869511,0.0,0.818806072185,-0.573926484377,-0.0120728449227,0.0,-0.0087578233019,0.0085393912809,-0.999925186865,0.0,0.660918950168,0.259908535187,0.303244149192,1.0,-0.00568,-0.00746514285714,0.285
0.464418119067,0.543123579716,-0.124007230748,-1.36317003027,0.0792075571634,1.89668978486,0.158303729171,-0.00761756697761,-0.033559115885,0.00200396263672,-0.0505236705979,-0.00414963524609,0.0177071989724,-0.00646913961563,0.573986422031,0.8188507493,0.00194540361678,0.0,0.818806023855,-0.573926367725,-0.012081665036,0.0,-0.00877673101528,0.00852778407272,-0.999925120142,0.0,0.660821615946,0.259764776957,0.303244414844,1.0,-0.00602,-0.007912,0.302
0.464331140727,0.542484115476,-0.124002719234,-1.36417968361,0.0791474453905,1.89705367571,0.158191856656,-0.00841982729958,-0.0352632596394,0.000672667841234,-0.0499806214979,-0.000331324332079,0.0259615830143,-0.0151449855034,0.574002952162,0.818839172027,0.0019411761634,0.0,0.818794337766,-0.573942862231,-0.0120900883617,0.0,-0.00878588289594,0.00852933467881,-0.999925026545,0.0,0.660703273233,0.259613430933,0.303247518815,1.0,-0.0064,-0.00841142857143,0.321
0.464254980409,0.541912719717,-0.124010133288,-1.3650670773,0.0791041664702,1.89738744033,0.158057270301,-0.00435425593426,-0.0353993792939,-0.000166484289339,-0.0548805583927,-0.00066523353262,0.0234531048482,-0.0107491770289,0.573998111001,0.818842521,0.00195991580375,0.0,0.818797873639,-0.573937883347,-0.0120869799368,0.0,-0.00877263209516,0.00854284302027,-0.999925027569,0.0,0.660604145977,0.259476628344,0.303258394179,1.0,-0.00672,-0.008832,0.337
0.464165309167,0.54125616288,-0.124011535196,-1.36607353907,0.0790453182087,1.89776045423,0.157935954149,-0.00778199225476,-0.0373744034195,0.000515562691056,-0.0639938478834,-0.00288511406939,0.0157916312562,-0.00647945380712,0.574013325922,0.818831806709,0.00198012296464,0.0,0.818787408025,-0.573952993336,-0.012078443706,0.0,-0.0087538849187,0.00855465209699,-0.999925090907,0.0,0.660490463444,0.259321523726,0.30327591291,1.0,-0.00706,-0.00927885714286,0.354
0.464073702307,0.540564705564,-0.124011564913,-1.36713722323,0.0789802223561,1.89814687438,0.157799622681,-0.00236302659549,-0.043748287908,0.00214859084148,-0.0623771325638,-0.00372297406057,0.0200502854299,-0.00583685311684,0.574018243982,0.818828330511,0.00199189096741,0.0,0.818784075268,-0.573957849621,-0.0120736012252,0.0,-0.00874311361017,0.00856156081419,-0.999925126017,0.0,0.66036750963,0.25915951158,0.303291876552,1.0,-0.0074,-0.00972571428571,0.371
0.463974991923,0.539828434203,-0.124017309399,-1.36825398978,0.0789052130629,1.8985672761,0.157649327531,-0.00482723722677,-0.0397746278604,-9.42390953025e-05,-0.0684522983332,-0.000453312853238,0.0291692731575,-0.00374583686874,0.574021836023,0.818825742958,0.00202023239399,0.0,0.818781960125,-0.57396141942,-0.0120473105807,0.0,-0.00870528018808,0.00856971417167,-0.999925386264,0.0,0.660243748894,0.258984497183,0.303317253563,1.0,-0.00774,-0.0101725714286,0.388
0.463861754939,0.539075294201,-0.124015553042,-1.3694230111,0.0788427697258,1.89900324991,0.157521478119,-0.00680643648841,-0.0420682157139,3.66387182615e-06,-0.0663639709129,-0.00345894906678,0.0315444136927,-0.011254523548,0.574056613651,0.818801308813,0.00204154646452,0.0,0.818757718522,-0.573996016819,-0.0120464907254,0.0,-0.00869201018187,0.00858706492532,-0.999925352851,0.0,0.660112566629,0.25880135819,0.303330690722,1.0,-0.00808,-0.0106194285714,0.405
0.463750601682,0.538247930613,-0.124021427031,-1.37068121896,0.078781176674,1.89949576712,0.157365244125,-0.00432209575046,-0.0535937799831,0.00127512866376,-0.0693583306114,-0.00322949301597,0.0237649939479,-0.00730638024506,0.574077001952,0.81878686772,0.00209951908576,0.0,0.81874396615,-0.574016088653,-0.0120247561871,0.0,-0.00864072108055,0.00862227056983,-0.999925494419,0.0,0.659974890594,0.258609541216,0.303359134021,1.0,-0.00844,-0.0110925714286,0.423
0.463665371136,0.537603938656,-0.12402968936,-1.37170775613,0.0787135954814,1.89989069565,0.157240119764,-0.00586847154812,-0.0470230123231,-0.000965415458372,-0.075306365103,-0.00287364755209,0.0285898382621,-0.00554195338793,0.574088791454,0.818778591377,0.00210350422966,0.0,0.818735843596,-0.5740279615,-0.0120110253033,0.0,-0.00862706623163,0.00861777522936,-0.999925651075,0.0,0.659860502264,0.258450962935,0.303359806526,1.0,-0.00872,-0.0114605714286,0.437
0.463549346846,0.536724329572,-0.124033979789,-1.37307558198,0.0786364838908,1.9004018809,0.157065009504,-0.000968746510884,-0.0529221416793,0.00125243779879,-0.0734277382277,-0.004294627821,0.0248604268915,-0.00915351945603,0.574098150623,0.818771974967,0.0021244673094,0.0,0.818729466531,-0.574037197407,-0.0120043129003,0.0,-0.00860943747962,0.00863118399951,-0.999925687363,0.0,0.659703742498,0.258243309345,0.30337423436,1.0,-0.00908,-0.0119337142857,0.455
0.463446710508,0.535977001944,-0.124039682223,-1.37426460092,0.078569371632,1.90084156777,0.156919486039,-0.00360833521018,-0.0541288943406,0.000752916544351,-0.0809545837918,-0.0117815012124,0.026592759895,-0.0142486327378,0.57411448749,0.818760523329,0.00212310912717,0.0,0.818717967786,-0.574053508435,-0.0120085626908,0.0,-0.00861352466697,0.00863268361063,-0.999925639218,0.0,0.659566731509,0.258059937293,0.30337409372,1.0,-0.00938,-0.012328,0.47
0.463343214692,0.53513023175,-0.124045654422,-1.37558790206,0.0784935482236,1.90131729777,0.156756565321,-0.0109780137354,-0.050861161319,0.000229757807281,-0.0806269992779,-0.00900014649791,0.035889689584,-0.00971296282319,0.574119820696,0.818756769655,0.00212850395914,0.0,0.818714174669,-0.574058708224,-0.0120185943111,0.0,-0.00861858515517,0.00864291597601,-0.999925507222,0.0,0.659399034311,0.257848861563,0.303385131111,1.0,-0.00972,-0.0127748571429,0.487
0.463205496301,0.534133425949,-0.124038134292,-1.37723587722,0.0784037709159,1.90191007539,0.156561606058,-0.0103590643933,-0.0499039858691,0.00123762788886,-0.0888081204017,-0.00861462805395,0.0238883405375,-0.00627846848331,0.574147137156,0.818737730243,0.00208347611722,0.0,0.818694489233,-0.574086153452,-0.0120485939091,0.0,-0.00866871053935,0.00862356214558,-0.999925241022,0.0,0.659202307038,0.257598733931,0.303359204031,1.0,-0.0101,-0.0132742857143,0.506
0.463079161391,0.533265617742,-0.124046052084,-1.37863494223,0.0783194111876,1.90243602988,0.156374778819,-0.00219288313182,-0.0522030087664,-0.000491195323494,-0.0907298305884,-0.00470186463699,0.035867161709,-0.016472295936,0.574146476083,0.818738224428,0.0020714154635,0.0,0.818694796158,-0.574085514349,-0.012058186412,0.0,-0.00868349570517,0.00861918824311,-0.999925150447,0.0,0.65905009008,0.257398461584,0.303345143809,1.0,-0.0104,-0.0136685714286,0.521
0.462949906385,0.532314619551,-0.124050993646,-1.38018047503,0.0782453980405,1.9030181965,0.156186035738,-0.00542693405396,-0.0549032159352,-0.00140161546958,-0.092331499871,-0.0100481658189,0.0328115478906,-0.00886902938605,0.574165554698,0.818724853918,0.00206791603333,0.0,0.818681192537,-0.574104419653,-0.0120816895205,0.0,-0.00870454734304,0.00863002008408,-0.999924873982,0.0,0.658859653768,0.257153224293,0.303328523879,1.0,-0.01076,-0.0141417142857,0.539
0.462822126772,0.531384159594,-0.124045704258,-1.38167053601,0.0781538696026,1.90356770325,0.155992331043,-0.00769683839013,-0.0536656157838,0.000134805919837,-0.0957580736379,-0.00597803469083,0.030016629493,-0.0204029478891,0.574164985502,0.818725274933,0.00205924997847,0.0,0.818681484243,-0.574103871981,-0.0120879458621,0.0,-0.00871465119739,0.00862651117655,-0.999924816253,0.0,0.658692968409,0.256943654203,0.303324740611,1.0,-0.01106,-0.014536,0.554
0.46268257701,0.5303652061,-0.124052058592,-1.38331667794,0.0780533129402,1.90413462875,0.155779041255,-0.00851116986492,-0.0579894569016,-0.00147041777732,-0.100224426079,-0.00296127427462,0.0321873660521,-0.0152021219505,0.574171413039,0.818720898831,0.00200628204558,0.0,0.818676361703,-0.574110475963,-0.0121211830505,0.0,-0.00877220723403,0.0086022981063,-0.999924521575,0.0,0.658491386772,0.256688245301,0.30330854883,1.0,-0.0114,-0.0149828571429,0.571
0.462549879074,0.529313924112,-0.124047384939,-1.38495832622,0.0779477565427,1.9047546756,0.155563251451,-0.00543414130467,-0.0645293893673,0.00122398707591,-0.0998302227199,-0.0103708953952,0.0424444680755,-0.0162991683907,0.574160917182,0.818728205197,0.00202832349292,0.0,0.818683986849,-0.574099915175,-0.0121063609099,0.0,-0.00874752721097,0.00861172104986,-0.999924656676,0.0,0.658297860124,0.256447525313,0.303321253979,1.0,-0.01174,-0.0154297142857,0.588
0.462413608775,0.52822619789,-0.124052587652,-1.38666313768,0.0778364680529,1.90540000274,0.155313890196,-0.0112692523085,-0.0580119767928,-0.000820573334521,-0.0997846545167,-0.00474978124848,0.0385490786756,-0.0169475847108,0.574134523996,0.818746670116,0.002045832769,0.0,0.818702775644,-0.574073543075,-0.0120863226645,0.0,-0.00872134588216,0.0086142699277,-0.999924863417,0.0,0.658098563092,0.2561925065,0.303331816019,1.0,-0.01208,-0.0158765714286,0.605
0.462253977338,0.526933458672,-0.12406411417,-1.38862272423,0.0777185844949,1.9061561073,0.155044893037,-0.00971377938344,-0.070481050572,-0.00175656863414,-0.101759429435,-0.00183318037719,0.0348691014288,-0.0226885657022,0.574127504447,0.818751406593,0.00211890094426,0.0,0.818708544837,-0.574066289801,-0.0120399512657,0.0,-0.00864150380631,0.00864739597174,-0.999925270685,0.0,0.657874331761,0.255897348468,0.303374917325,1.0,-0.01246,-0.016376,0.624
0.462124985502,0.525909638902,-0.124056358371,-1.3902301789,0.0776145727121,1.90674829995,0.154830239764,-0.00545486337081,-0.0691460450418,0.000438758195904,-0.105179768234,-0.00384213020768,0.0387998706196,-0.0143745358514,0.574110548826,0.818763282689,0.00212404060046,0.0,0.818720480897,-0.574049307462,-0.0120380091455,0.0,-0.00863714214107,0.00865031012444,-0.999925283164,0.0,0.657679300393,0.255663016812,0.303381253503,1.0,-0.01276,-0.0167702857143,0.639
0.461959318664,0.524674724341,-0.124059518029,-1.39218766205,0.0774990857204,1.90744616889,0.154571665776,-0.00312345496571,-0.0677230363891,0.000934647176959,-0.10808012397,-0.00710947792255,0.0378199707391,-0.0104199040069,0.574110832672,0.818763134746,0.00210425552256,0.0,0.81871998816,-0.574049588805,-0.0120580878276,0.0,-0.0086649375982,0.00864564135504,-0.999925083065,0.0,0.657440682251,0.255364789579,0.303378738628,1.0,-0.01312,-0.0172434285714,0.657
0.46178143474,0.523396371008,-0.124065228747,-1.39421360354,0.0773750668067,1.90817792313,0.154295825254,-0.01210681612,-0.0727726847354,7.08244053762e-05,-0.11517097523,-0.00737547861828,0.0415767610881,-0.0144353804273,0.574109923403,0.818763812037,0.00208874360893,0.0,0.818720438647,-0.574048721793,-0.0120687717441,0.0,-0.00868260012791,0.00863906503408,-0.999924986692,0.0,0.657197356472,0.25505045658,0.303376845354,1.0,-0.01348,-0.0177165714286,0.675
0.461636009386,0.522245283358,-0.124068422415,-1.39603398422,0.0772664333511,1.90890171467,0.154047217531,-0.00979836269991,-0.0745344620866,4.15867933338e-05,-0.112955978929,-0.00308713891468,0.044089040062,-0.0151472399921,0.57409629949,0.818773251982,0.0021325226723,0.0,0.818730495098,-0.574034958124,-0.0120411855668,0.0,-0.00863502435232,0.00865892812987,-0.999925226864,0.0,0.656987159027,0.254783580636,0.303382244385,1.0,-0.0138,-0.0181371428571,0.691
0.461464431847,0.52098810053,-0.124065920492,-1.39805131559,0.0771451807381,1.90966710973,0.153780361932,-0.00468997743636,-0.0721390419778,0.000953828513905,-0.120234123365,-0.00445475129784,0.0501313314475,-0.0201193855609,0.574091789667,0.818776404782,0.00213609677596,0.0,0.818733661264,-0.57403040037,-0.0120431833484,0.0,-0.00863465612052,0.0086629538047,-0.999925195175,0.0,0.656747050834,0.25448170504,0.303371560572,1.0,-0.01414,-0.018584,0.708
0.461297813577,0.519687755803,-0.124080126284,-1.40009544511,0.0770091264691,1.9104070019,0.153493353142,-0.00756940126745,-0.0802914304483,-0.00143561548244,-0.121810776174,-0.0055896736895,0.0435774524583,-0.0176365059859,0.574075322272,0.818787984422,0.002123163928,0.0,0.818745186654,-0.574014104582,-0.012036360449,0.0,-0.00863666755339,0.00864827425633,-0.999925304873,0.0,0.656499282134,0.25416671232,0.303376339256,1.0,-0.01448,-0.0190308571429,0.725
0.461147536514,0.518487290911,-0.124081236865,-1.40192955717,0.0768873630898,1.91105724504,0.153240412162,-0.0102572255059,-0.0794023598265,0.000272981604265,-0.120551409935,-0.00500689153767,0.0438915587883,-0.0225255395076,0.574056334424,0.818801271152,0.00213311239174,0.0,0.818758633376,-0.573995107393,-0.012027629138,0.0,-0.00862400798964,0.00865120744402,-0.999925388765,0.0,0.656272057323,0.253889981101,0.303402372559,1.0,-0.01478,-0.0194251428571,0.74
0.460963266884,0.517138229966,-0.124095222466,-1.40406686562,0.0767475664018,1.91182830456,0.152953315268,-0.0128701817211,-0.0811348503846,-0.00281929465649,-0.123375890798,-0.00913659709274,0.0485694838584,-0.0237033465915,0.574057448024,0.818800550856,0.00210978374318,0.0,0.818757694229,-0.573996404958,-0.0120296358098,0.0,-0.00863903047195,0.00863326992372,-0.99992541412,0.0,0.656012964037,0.253554721591,0.303398949446,1.0,-0.01512,-0.019872,0.757
0.460783672785,0.515790008345,-0.12409317729,-1.40622115265,0.0766169580845,1.91265118269,0.152654895736,-0.0116827280023,-0.0841481309102,0.00126173415162,-0.127840194679,-0.0016987926298,0.0531962959993,-0.0181083739597,0.574037533971,0.818814478895,0.00212265054124,0.0,0.818771770679,-0.573976419636,-0.0120251462915,0.0,-0.0086281786557,0.00864101803138,-0.999925440891,0.0,0.655754063948,0.253234847644,0.303390466621,1.0,-0.01546,-0.0203188571429,0.774
0.460607588141,0.514469800812,-0.124093912807,-1.40831217838,0.0764941805476,1.91341495975,0.152379018254,-0.0113406265261,-0.0883173561085,0.000942821282106,-0.129092065086,-0.0108397862365,0.0476906431915,-0.0182239587082,0.574033397927,0.818817389012,0.00211858871866,0.0,0.818774535072,-0.573972208465,-0.0120379204457,0.0,-0.00864101390907,0.00864498131321,-0.999925295798,0.0,0.655496165847,0.252920136884,0.303387001769,1.0,-0.01578,-0.0207394285714,0.79
0.460408305231,0.513074151088,-0.124103071435,-1.41058739183,0.0763455437787,1.91419993351,0.152054630179,-0.014632828922,-0.0829687053899,0.000368733400241,-0.133426879431,-0.0111475255039,0.0461318912206,-0.0198343724679,0.574016507108,0.818829451452,0.00203123210111,0.0,0.81878544544,-0.573955682511,-0.012083697655,0.0,-0.0087288183722,0.00859955076956,-0.99992492491,0.0,0.655209034873,0.252561842751,0.303350460638,1.0,-0.01612,-0.0211862857143,0.807
0.460196786206,0.51157315568,-0.124100977656,-1.41301659584,0.0762017023117,1.91508413573,0.151712358888,-0.0109610614991,-0.0847074456548,0.0012241648347,-0.134899194204,-0.00715080178252,0.0602755593395,-0.0117476985186,0.573996369634,0.818843655172,0.0019957286681,0.0,0.81879905367,-0.573935573238,-0.0121166985014,0.0,-0.00877643098586,0.00858920706543,-0.999924597048,0.0,0.654907178407,0.252192721156,0.303322227475,1.0,-0.01648,-0.0216594285714,0.825
0.46000892596,0.510183504773,-0.124106682307,-1.41520447168,0.0760714292943,1.91590728945,0.151406866673,-0.0140445231943,-0.0850525799099,0.000530639230784,-0.14046574694,-0.015321937476,0.0542574233953,-0.0239516858629,0.573983312823,0.8188527571,0.00201635597129,0.0,0.818808401004,-0.573922404009,-0.0121088200021,0.0,-0.00875827740156,0.00860143543219,-0.999924651104,0.0,0.65464188897,0.251859805189,0.303325313383,1.0,-0.0168,-0.02208,0.841
0.459800755018,0.508664609177,-0.124112662942,-1.41757739624,0.0759222099378,1.9167578625,0.151087835443,-0.0159901558056,-0.0922180960002,0.000126923382908,-0.141541990856,-0.0021450784263,0.047813475138,-0.0184758562006,0.573979753506,0.818855266201,0.00201059214861,0.0,0.81881081552,-0.573918851465,-0.0121139268116,0.0,-0.00876580479629,0.00859960889133,-0.999924600854,0.0,0.654346580377,0.251492117284,0.303332652645,1.0,-0.01714,-0.0225268571429,0.858
0.459583582437,0.507137272845,-0.124113193509,-1.41996888549,0.0757663079311,1.91762886806,0.150741209421,-0.0130922954785,-0.0893253217276,0.00284489651839,-0.14367572689,-0.00399454249022,0.0512872369437,-0.0181766734599,0.573955847532,0.818872020513,0.00201146850413,0.0,0.818827602541,-0.57389496555,-0.0121108519256,0.0,-0.00876303485413,0.00859830575813,-0.999924636339,0.0,0.654051540873,0.251120022056,0.303338128866,1.0,-0.01748,-0.0229737142857,0.875
0.459385033288,0.50565750169,-0.124122008283,-1.42227637992,0.0756190986089,1.91850003631,0.150432824784,-0.0146940304915,-0.0894230162498,-3.07919208113e-05,-0.136847175493,-0.00743819202264,0.0581514387233,-0.0237162706144,0.573951776854,0.818874798089,0.00204200921496,0.0,0.818830861192,-0.573890843142,-0.0120858520254,0.0,-0.00872507723175,0.00860892215727,-0.999924876922,0.0,0.653771179431,0.250766049326,0.303350085709,1.0,-0.0178,-0.0233942857143,0.891
0.459156004715,0.504014527264,-0.124125957692,-1.42476010264,0.0754671855777,1.91945616628,0.150086154827,-0.0174663431518,-0.0987584228437,-0.00141832418676,-0.146466576422,-0.0072436188282,0.0465647223253,-0.0202790014489,0.573945654798,0.818878817483,0.00214814260467,0.0,0.818836328837,-0.573884331403,-0.0120244604092,0.0,-0.00861395638364,0.00866053074941,-0.999925394698,0.0,0.653459442548,0.250353645691,0.303405772419,1.0,-0.01816,-0.0238674285714,0.909
0.458913126842,0.502212606269,-0.124137630242,-1.42739370537,0.0752910407596,1.92043960848,0.149716313632,-0.0176377074876,-0.105475693426,-0.000647015624269,-0.150171538599,-0.0135635778336,0.0577359776614,-0.0218539431553,0.573936991452,0.818884589336,0.00225966640808,0.0,0.818843717876,-0.573875374301,-0.011948529899,0.0,-0.00848786351142,0.00870818460476,-0.999926059113,0.0,0.653159071014,0.249965368475,0.303488994226,1.0,-0.0185,-0.0243142857143,0.926
0.458714655607,0.500727046304,-0.124141802153,-1.42966743449,0.0751531893344,1.92123631255,0.149391763751,-0.0118082973964,-0.0988669050406,-0.00128933828459,-0.152234166956,-0.00805312331573,0.0504429609214,-0.0275715646183,0.573915470868,0.818899644603,0.00226964069118,0.0,0.818858802316,-0.573853712512,-0.0119551414792,0.0,-0.00848778278787,0.00871992379492,-0.999925957495,0.0,0.652867558135,0.249615040701,0.303512735753,1.0,-0.0188,-0.0247085714286,0.941
0.458453778618,0.498920547178,-0.124139466781,-1.432432391,0.0749771758943,1.92224731316,0.149006121473,-0.0140589011879,-0.0998078465243,-0.00442451405261,-0.158251927826,-0.00769983471008,0.0534371742662,-0.0205073123811,0.573904741791,0.818907043276,0.00231273092449,0.0,0.818866745879,-0.57384279384,-0.0119351310457,0.0,-0.00844678152734,0.00874361508893,-0.999926097808,0.0,0.652523946744,0.249182193821,0.303544332419,1.0,-0.01916,-0.0251817142857,0.959
0.458208399957,0.49735792614,-0.124140917564,-1.43492707033,0.0748318957424,1.9231702495,0.148638609617,-0.0176042116071,-0.0975695822473,-0.000399768203558,-0.155540880625,-0.0132668462872,0.0576437878492,-0.0195906157185,0.573893396115,0.81891500711,0.00230823038887,0.0,0.81887452799,-0.573831340397,-0.0119518654508,0.0,-0.00846318998523,0.008749416177,-0.999925908321,0.0,0.652215725601,0.248785146868,0.303526500066,1.0,-0.01948,-0.0256022857143,0.975
0.457962675427,0.495776664415,-0.124141942563,-1.4374665593,0.0746728171101,1.92404778512,0.14827068883,-0.0149937370276,-0.102974431326,0.000160858938791,-0.157773146462,-0.00468390569283,0.0478461564302,-0.0239417972181,0.573879182929,0.818925158369,0.00223948470967,0.0,0.818883649259,-0.573817272459,-0.0120022374766,0.0,-0.00854404371781,0.00872187957112,-0.999925461289,0.0,0.651887662673,0.248378020779,0.303495811509,1.0,-0.0198,-0.0260228571429,0.991
0.45764645618,0.493864143812,-0.124162974666,-1.4405930971,0.0744719854505,1.92515429538,0.147829929639,-0.0173364120626,-0.105204587097,-0.00570379868726,-0.176769659845,-0.0114641942591,0.0640788891873,-0.027015917337,0.573895291585,0.818914139529,0.00213852229314,0.0,0.818871312505,-0.573833801541,-0.0120535748811,0.0,-0.00864385294577,0.00866883132987,-0.999925064777,0.0,0.651494620299,0.247856934703,0.303436337848,1.0,-0.0259251428571,-0.034073044898,1.01
0.457368568478,0.491594264692,-0.124234259962,-1.44397849534,0.0742925538308,1.9264358093,0.147325192186,-0.0228366175457,-0.159008627124,-0.0076411742981,-0.247382132636,-0.0116236207649,0.0978347139062,-0.0424576365821,0.573882811876,0.818922500115,0.00228121462566,0.0,0.818881607247,-0.57382080354,-0.0119727039065,0.0,-0.00849587177854,0.0087391419383,-0.999925721022,0.0,0.651081974626,0.247320571178,0.303517814886,1.0,-0.0358337142857,-0.0470957387755,1.025
0.456892856233,0.488059713091,-0.124249066501,-1.44962869616,0.0739988888018,1.92855589678,0.1464825728,-0.0281750338058,-0.216410873963,-0.00142434080786,-0.351387398021,-0.0196979377955,0.125137212987,-0.0534771933509,0.573796845357,0.818982658743,0.00230907717375,0.0,0.818941606656,-0.573734195484,-0.0120193477979,0.0,-0.00851900489857,0.00878783241328,-0.999925097473,0.0,0.650357715386,0.246475439791,0.303470501299,1.0,-0.047724,-0.0627229714286,1.043
0.456320705988,0.484226641885,-0.12433764319,-1.45562247041,0.0736330562638,1.93080532588,0.145576001284,-0.0410631321506,-0.265240082575,-0.00393610891021,-0.42183900286,-0.0319566789685,0.152696305631,-0.0713593494074,0.57378488047,0.818990877957,0.00236636176987,0.0,0.818950843543,-0.573722279561,-0.0119586243527,0.0,-0.0084365322183,0.00879978123542,-0.999925691626,0.0,0.64962146515,0.245485367981,0.30347715529,1.0,-0.0576325714286,-0.0757456653061,1.058
0.455520817656,0.479022155166,-0.124485779004,-1.46389071579,0.0731356061989,1.93365074141,0.144328825492,-0.0541774096364,-0.326267838224,-0.00831663262597,-0.513793877662,-0.0292251314265,0.174374711448,-0.0738254205721,0.57379535893,0.81898409269,0.00216538475794,0.0,0.818941380839,-0.573733530883,-0.0120663661329,0.0,-0.00863997442281,0.00869711551635,-0.999924852688,0.0,0.648549589282,0.244081785232,0.303401805945,1.0,-0.0688622857143,-0.0905047183673,1.075
0.454533923604,0.472821149289,-0.124624596472,-1.47355028802,0.0725571162262,1.9370560171,0.142932097452,-0.0602744433341,-0.376293128625,-0.00833943125506,-0.594533191098,-0.0399311296842,0.207422026637,-0.0830275510628,0.573870488373,0.818931590681,0.0021116960125,0.0,0.81888807846,-0.573808781646,-0.0121055343812,0.0,-0.00870206235234,0.00867641866525,-0.999924494084,0.0,0.647306474877,0.242437281322,0.303394907403,1.0,-0.080092,-0.105263771429,1.092
0.453463517868,0.466138173179,-0.124720939512,-1.48368273794,0.0719669926865,1.94085317188,0.141325680172,-0.0731114236525,-0.436367857009,-0.00483952353652,-0.661004715561,-0.0353243268401,0.249122522304,-0.108871850558,0.573819287008,0.818966567032,0.00243615329752,0.0,0.818927237643,-0.573756188004,-0.011948350299,0.0,-0.00838770288593,0.0088513965567,-0.999925646845,0.0,0.645947883159,0.240629362896,0.30352515958,1.0,-0.0913217142857,-0.12002282449,1.109
0.451930425913,0.457295094013,-0.124790943289,-1.49750877619,0.0710774957298,1.94564134609,0.139217805375,-0.0852889691876,-0.485870575721,-0.00589891800121,-0.774923161184,-0.0471466250485,0.260311661122,-0.111807813391,0.573809322866,0.81897410194,0.00224237459406,0.0,0.818931769165,-0.57374653111,-0.0121005120553,0.0,-0.00862361738011,0.00877990746268,-0.999924270357,0.0,0.644184065112,0.238376416862,0.303445235679,1.0,-0.103212,-0.135650057143,1.127
0.450462369322,0.448833664721,-0.124954090472,-1.51025413062,0.0701807332438,1.95021483774,0.137202946441,-0.0955854254315,-0.554850512876,-0.00411739990213,-0.803177399835,-0.0662506343667,0.308409493836,-0.129830660595,0.573817195838,0.818968077406,0.00242091943887,0.0,0.818929068847,-0.573754704959,-0.011893932757,0.0,-0.0083518981243,0.00880767401893,-0.999926332625,0.0,0.642529643349,0.236111139369,0.303588897298,1.0,-0.113781142857,-0.149540930612,1.143
0.448622290788,0.438572737617,-0.125053470813,-1.52599787909,0.0691554863056,1.95567040293,0.134743081377,-0.108210763058,-0.584551002255,-0.00209141380841,-0.911846797278,-0.0599971552883,0.301051471423,-0.147926811504,0.573805250956,0.81897653337,0.00239137299651,0.0,0.818936731208,-0.573742449053,-0.0119573966329,0.0,-0.00842095717243,0.00881976996848,-0.999925646805,0.0,0.640381632965,0.233361310269,0.303593318073,1.0,-0.125671428571,-0.165168163265,1.161
0.44689095712,0.429231561443,-0.125150784644,-1.53996907963,0.0682191227374,1.96063528022,0.132438370571,-0.121703950857,-0.628903459589,-0.00575048431428,-0.96011279254,-0.0604509444071,0.33159296909,-0.155879866461,0.573758934783,0.81900816276,0.00265725254177,0.0,0.818971960842,-0.573695264095,-0.0118075489056,0.0,-0.00814618257645,0.008951074343,-0.999926756306,0.0,0.638495603612,0.23086662749,0.303746162499,1.0,-0.13558,-0.178190857143,1.176
0.444848245523,0.418724185204,-0.125269205294,-1.55588324788,0.0670796703037,1.96612747501,0.129781111986,-0.132533183772,-0.670780171999,-0.00695919833542,-0.998471601951,-0.0746410566391,0.344162135772,-0.163140475867,0.573701624162,0.819048244252,0.00267711093329,0.0,0.819012657778,-0.573638281983,-0.0117530738151,0.0,-0.00809079692925,0.00893551731364,-0.999927345128,0.0,0.63628944629,0.227961528368,0.303790926471,1.0,-0.146149142857,-0.192081730612,1.192
0.442156407061,0.405343448941,-0.125414825283,-1.57603846248,0.0656846896176,1.97315615174,0.126451980462,-0.146946944738,-0.723620203053,-0.00245702615496,-1.09944052217,-0.0671716657663,0.374889128408,-0.168807685127,0.573729247853,0.819028284159,0.00285776253452,0.0,0.818995116843,-0.573665351794,-0.0116537393359,0.0,-0.00790549498792,0.00902675845782,-0.999928007799,0.0,0.633466694093,0.224246335332,0.303864210692,1.0,-0.1587,-0.208577142857,1.211
0.439613978368,0.393280848868,-0.125549974827,-1.59394940468,0.0644657287257,1.97927393323,0.1233687151,-0.159757171643,-0.749288602035,-0.00606498433565,-1.14867654687,-0.0768989320431,0.39014294645,-0.197514564465,0.573758661186,0.819006856924,0.00308446550368,0.0,0.818976303905,-0.573693632641,-0.0115834541429,0.0,-0.00771753873688,0.00917238789557,-0.999928150867,0.0,0.63090877482,0.220859297373,0.303995643972,1.0,-0.169269142857,-0.222468016327,1.227
0.436496205145,0.379113734839,-0.125710969654,-1.61522589504,0.0628035042469,1.9863660717,0.119590856167,-0.177934734528,-0.811038749962,-0.00826162701351,-1.19526993134,-0.0963325381023,0.426923199774,-0.219550082643,0.573675614654,0.819065471004,0.00296483756745,0.0,0.819034093595,-0.573611835643,-0.0115482656701,0.0,-0.00775826911164,0.0090534357629,-0.999928919754,0.0,0.627785603428,0.21675037193,0.30398194823,1.0,-0.181159428571,-0.23809524898,1.245
0.433822686255,0.367572476668,-0.125814112511,-1.63253622516,0.0615305249552,1.99202588059,0.11653845171,-0.202785803166,-0.840230408032,-0.00935584929082,-1.23943347591,-0.0980839180643,0.405117114803,-0.213082376519,0.573715537148,0.819037913175,0.00285063462351,0.0,0.819004631469,-0.573651642136,-0.0116599316886,0.0,-0.00791480726966,0.00902434067765,-0.999927955955,0.0,0.625181498405,0.213362181575,0.303933575586,1.0,-0.190407428571,-0.250249763265,1.259
0.430276656779,0.352933594578,-0.126034238083,-1.6542434609,0.0598486379658,1.9991657898,0.112548792259,-0.21899922607,-0.843983506242,-0.016977642575,-1.31682127737,-0.102272265038,0.416167887852,-0.245071406813,0.573797830429,0.818980328018,0.00283178645662,0.0,0.81894721815,-0.573734462962,-0.0116175210195,0.0,-0.00788997959999,0.00898536499315,-0.999928503163,0.0,0.621913450719,0.208956502642,0.303939725263,1.0,-0.201637142857,-0.265008816327,1.276
0.425926311858,0.335743534809,-0.126233765831,-1.67940301321,0.0579526798741,2.00733575184,0.107757639631,-0.239460204616,-0.894597058461,-0.0100279681448,-1.35563671399,-0.106611361452,0.44021081876,-0.257866160743,0.573880657225,0.818921782331,0.00297532991206,0.0,0.818890122402,-0.573816329231,-0.011598906911,0.0,-0.00779145464192,0.00909303166609,-0.999928302435,0.0,0.618035833515,0.203777762358,0.304012410536,1.0,-0.214188,-0.281504228571,1.295
0.422086949074,0.320695693117,-0.126335711513,-1.70128285274,0.0561812289129,2.01431684592,0.103462324554,-0.242292995038,-0.956916499803,-0.00443336256368,-1.37803384977,-0.109638295355,0.42596252585,-0.266095094628,0.573751720185,0.819011869045,0.00304447855728,0.0,0.818981115887,-0.573687197694,-0.0115619169385,0.0,-0.00772291751965,0.00912721590541,-0.999928522683,0.0,0.61454715427,0.19929505675,0.304064415208,1.0,-0.224757142857,-0.295395102041,1.311
0.417401550947,0.303149774894,-0.126480371632,-1.72658271623,0.0540668219238,2.02231081,0.0983006095707,-0.262400217311,-0.979973129314,-0.00289145835778,-1.41111813677,-0.122055415859,0.440902778416,-0.292647965107,0.573590171271,0.819124568975,0.00316272429637,0.0,0.819095659321,-0.573525676691,-0.0114606264268,0.0,-0.00757392291125,0.00916445286191,-0.99992932175,0.0,0.610445861861,0.193979095715,0.304137664373,1.0,-0.236647428571,-0.311022334694,1.329
0.413118304321,0.2879594633,-0.126641876881,-1.74830519428,0.0522637193056,2.02899297001,0.0938177058677,-0.286091135565,-1.03678331466,-0.010755821688,-1.45071203122,-0.120600695536,0.469245777262,-0.304735273621,0.573611705412,0.819109166963,0.00324513673651,0.0,0.819081160931,-0.573546764373,-0.0114414940319,0.0,-0.00751073957513,0.00922118280598,-0.999929276788,0.0,0.606850848271,0.189270560526,0.304200090958,1.0,-0.246556,-0.324045028571,1.344
0.408238012429,0.271439082782,-0.126814165878,-1.7719631507,0.050256164483,2.03610996143,0.0886905664065,-0.319770625165,-1.072004264,-0.0174614291408,-1.49481271379,-0.128418679107,0.462836307409,-0.333119636517,0.573545604685,0.819155693232,0.00318378589267,0.0,0.819126479888,-0.573480354164,-0.0115256338787,0.0,-0.00761559657236,0.0092185774695,-0.999928507704,0.0,0.60284070807,0.184048502817,0.304169393673,1.0,-0.257125142857,-0.337935902041,1.36
0.401861427532,0.251048080471,-0.127096390663,-1.80067280511,0.0476626610663,2.04467715372,0.0823655706759,-0.35243360461,-1.11571349104,-0.0208025876435,-1.54209668037,-0.145958729587,0.467793031787,-0.335560976734,0.573685588257,0.819057323736,0.00327004010283,0.0,0.819029881071,-0.573620862197,-0.0113976868779,0.0,-0.00745973931084,0.00921712671606,-0.999929695961,0.0,0.59792470042,0.177448911259,0.304241422968,1.0,-0.269676,-0.354431314286,1.379
0.396124733118,0.233430376359,-0.127269858057,-1.82530847527,0.0454668822704,2.05177472833,0.0766430939419,-0.365648291338,-1.12267398763,-0.0120716962162,-1.53908716269,-0.148751913092,0.466098087688,-0.366007375492,0.5736782337,0.819062355933,0.00329972329061,0.0,0.819034813666,-0.573612824146,-0.0114476582306,0.0,-0.00748372640955,0.00927003908118,-0.999929027589,0.0,0.593561386084,0.171732633575,0.304263538676,1.0,-0.280245142857,-0.368322187755,1.395
0.389310163008,0.212986727078,-0.127491670959,-1.8535844859,0.0428255729826,2.05977181501,0.0698331772827,-0.391994438263,-1.180080136,-0.0230028776897,-1.60948671771,-0.165391144844,0.453401447832,-0.393188419065,0.573563657222,0.819142347719,0.00336038504788,0.0,0.819115534722,-0.573498017061,-0.0114241894758,0.0,-0.00743100629638,0.00930522264628,-0.999929093975,0.0,0.58842796679,0.165088687651,0.304306077557,1.0,-0.292135428571,-0.383949420408,1.413
0.382307797074,0.193198054294,-0.12771146213,-1.88069083742,0.0402282611659,2.06713145939,0.0630075138109,-0.429099290869,-1.19261137752,-0.0179799428744,-1.63940891794,-0.174261048988,0.458245177885,-0.4088369046,0.573504860291,0.819183618922,0.0033347584317,0.0,0.819156127397,-0.573438870336,-0.0114825013204,0.0,-0.00749414116341,0.00931713750202,-0.999928511843,0.0,0.583379562193,0.158513440446,0.304325505181,1.0,-0.303365142857,-0.398708473469,1.43
0.375165981897,0.174107861887,-0.128071706024,-1.9064784074,0.0377665014167,2.07400662869,0.0562262576845,-0.457123033191,-1.22147039634,-0.0217624489578,-1.59905330671,-0.160224803622,0.443779834049,-0.42977866909,0.573668249153,0.819068722646,0.00345172393483,0.0,0.819042318606,-0.573601354327,-0.0114853623762,0.0,-0.00742753056983,0.0094160769887,-0.999928082056,0.0,0.578516877836,0.15198524478,0.304389575445,1.0,-0.313934285714,-0.412599346939,1.446
0.367181322276,0.153381617869,-0.128340110018,-1.93423752782,0.0349007755458,2.08116966834,0.0486048575206,-0.483174967716,-1.23570627133,-0.00934069555042,-1.6104957167,-0.177268638363,0.425495028004,-0.458521919573,0.573570762702,0.819136947747,0.00346235622689,0.0,0.819110867848,-0.573504086784,-0.011454061106,0.0,-0.00739691162112,0.00940594927207,-0.999928404345,0.0,0.573116705043,0.144929457923,0.304423437072,1.0,-0.325164,-0.4273584,1.463
0.359690174442,0.134700736254,-0.128601683751,-1.95896555185,0.0323130180617,2.0873520455,0.041579010402,-0.51098624107,-1.27655025176,-0.0176743218473,-1.63275483834,-0.167221658199,0.424816284518,-0.484405444623,0.573540767323,0.819157760854,0.00350684360837,0.0,0.819132227896,-0.573473930588,-0.0114363919045,0.0,-0.00735726744691,0.00943198720112,-0.999928451557,0.0,0.568194001501,0.138508807502,0.304458851002,1.0,-0.335072571429,-0.440381093878,1.478
0.350552018172,0.113113996459,-0.129003332667,-1.9872384983,0.0292319753998,2.09415299519,0.0331237834558,-0.559544995386,-1.30488680257,-0.026613802139,-1.70229954735,-0.202354844097,0.413045213313,-0.518933392083,0.573589380501,0.819123749038,0.0035004627179,0.0,0.819098370479,-0.573522859145,-0.011407734988,0.0,-0.007336892523,0.00941076013913,-0.999928801266,0.0,0.562452199935,0.130890905774,0.304482902204,1.0,-0.346302285714,-0.455140146939,1.495
0.339690583855,0.0884868136336,-0.129395284624,-2.01906077295,0.025689637827,2.10139758585,0.0230712742516,-0.582388692161,-1.30090098192,-0.0199439862232,-1.71125435458,-0.181662849793,0.375826856843,-0.536711784708,0.573501090744,0.819185712433,0.00346617416675,0.0,0.819159603205,-0.573434313031,-0.011462112246,0.0,-0.00740211789779,0.00941306496106,-0.999928298859,0.0,0.555773226523,0.122186359532,0.304496376706,1.0,-0.358853142857,-0.471635559184,1.514
0.329915299957,0.0675143766211,-0.129758754923,-2.04584883627,0.0226883764887,2.10726173427,0.0141101434336,-0.615009702411,-1.30462786726,-0.020627045878,-1.64338463801,-0.19288978723,0.347832639446,-0.56001209175,0.573475997816,0.819203193692,0.00348629801521,0.0,0.819176667844,-0.573408302813,-0.0115434841115,0.0,-0.00745753040302,0.00947598750244,-0.999927292807,0.0,0.550015749651,0.114642144279,0.304482269737,1.0,-0.35998,-0.473116571429,1.53
0.318891040508,0.0454223545555,-0.13025340428,-2.07372999936,0.0193368002592,2.11293412338,0.00442488191418,-0.652881390591,-1.29303619506,-0.0239121388573,-1.62327139699,-0.189698168847,0.323271273145,-0.574498152703,0.573771969953,0.818996663257,0.0033074115811,0.0,0.818967614952,-0.573704543376,-0.0116571638884,0.0,-0.00764984856004,0.00939739779158,-0.999926581671,0.0,0.543880278044,0.106388278851,0.304435088275,1.0,-0.35998,-0.473116571429,1.547
0.308939472513,0.0260312666827,-0.130554807839,-2.09763144112,0.0165071611529,2.11757786971,-0.00436494966852,-0.662650639404,-1.28901099832,-0.0188950904205,-1.59392227967,-0.196455640033,0.297767884904,-0.599202010034,0.573889959084,0.818913521002,0.00342153250278,0.0,0.818885297813,-0.573821330855,-0.0116917142634,0.0,-0.00761130110079,0.00951178321405,-0.999925794285,0.0,0.538478628634,0.099261576155,0.30450342973,1.0,-0.35998,-0.473116571429,1.562
0.297226531683,0.00436734462209,-0.130973211801,-2.12402071967,0.0131556693598,2.12249125571,-0.0146662787774,-0.706150522246,-1.27399878511,-0.0278778521526,-1.53140799066,-0.184333854616,0.272299714516,-0.609883708597,0.574027863115,0.818816559309,0.00349306017295,0.0,0.818789663592,-0.57395948989,-0.0116076553036,0.0,-0.00749980973691,0.00952338248826,-0.999926526321,0.0,0.532400241228,0.0910970920213,0.304562894153,1.0,-0.35998,-0.473116571429,1.579
0.285245313345,-0.0170419309894,-0.131224199253,-2.14971758872,0.00992479434507,2.12698069009,-0.025274031631,-0.704878495431,-1.24380193519,-0.00949771993813,-1.50199343293,-0.188778262227,0.244361192507,-0.63694944367,0.573974990072,0.818852919234,0.00365435838529,0.0,0.818827767064,-0.573905678701,-0.011580446494,0.0,-0.00738556758341,0.0096393623657,-0.999926265324,0.0,0.526298889064,0.0831105045667,0.304622210723,1.0,-0.35998,-0.473116571429,1.596
0.272806374972,-0.0382346250668,-0.131585647502,-2.17475051217,0.00653811761039,2.13094305387,-0.0361419016052,-0.740473936113,-1.24190508933,-0.0251972774286,-1.45185812165,-0.190360831651,0.21327278871,-0.638713429584,0.574035280448,0.818810568782,0.00367371118442,0.0,0.818786081271,-0.573966444615,-0.0115160963239,0.0,-0.00732105538707,0.00961881435936,-0.99992693761,0.0,0.520194467332,0.0750167977286,0.304682752194,1.0,-0.35998,-0.473116571429,1.613
0.2592670478,-0.0604000372566,-0.131868820681,-2.20060589854,0.00312382330273,2.13472496471,-0.0480709424764,-0.75775436904,-1.20547853669,-0.00602223738804,-1.43099905211,-0.182507498558,0.195101515045,-0.672335418395,0.573977723001,0.818850453973,0.00377550353727,0.0,0.818826625064,-0.573907719769,-0.0115600249711,0.0,-0.00729928160323,0.00972686690239,-0.99992605154,0.0,0.513702582934,0.0665635571448,0.304713591843,1.0,-0.35998,-0.473116571429,1.631
0.246054165371,-0.0811117737438,-0.132221017892,-2.22437007941,-0.000186039560201,2.13785821607,-0.0597304498926,-0.791950208188,-1.20003225375,-0.0266888179515,-1.38457915136,-0.190638241887,0.171393020946,-0.685154486192,0.573917838347,0.81889220661,0.00382304603427,0.0,0.818868903349,-0.573847580985,-0.0115507500599,0.0,-0.00726511336177,0.00975994292837,-0.999925978081,0.0,0.507574207577,0.0585299961379,0.304747497844,1.0,-0.35998,-0.473116571429,1.648
0.23164330515,-0.102725824373,-0.132516076926,-2.24880584773,-0.00367087942426,2.14073882466,-0.0724468245382,-0.795922773262,-1.19536187856,-0.015387248518,-1.34203895003,-0.189174363004,0.146747241203,-0.724476371343,0.573816106225,0.81896332333,0.00385981579996,0.0,0.818940504386,-0.573745765621,-0.0115322854842,0.0,-0.00723010507633,0.00977855891803,-0.999926049949,0.0,0.501454960343,0.0505417703176,0.304766289065,1.0,-0.35998,-0.473116571429,1.665
0.220045370292,-0.119233682535,-0.13281282404,-2.26730146744,-0.00639141034779,2.14263405754,-0.0825544173766,-0.841860903574,-1.19448360106,-0.0331916759448,-1.30116940425,-0.191431189867,0.14664521505,-0.733181609414,0.573819655245,0.818961206987,0.00378042398282,0.0,0.818936921846,-0.573748967854,-0.0116269869015,0.0,-0.00735317843972,0.00976791045765,-0.999925256553,0.0,0.496051106898,0.0434650410853,0.304736819679,1.0,-0.35998,-0.473116571429,1.68
0.205593209714,-0.139058307459,-0.133167344049,-2.28936007811,-0.00960514336594,2.14453020417,-0.095298570189,-0.857369785976,-1.1478336808,-0.0175124815203,-1.26901968261,-0.186078567705,0.0940655277634,-0.758051342068,0.573775007541,0.818993298534,0.00360063591596,0.0,0.818964941161,-0.573702675423,-0.0119336609552,0.0,-0.00770804229477,0.0097962195932,-0.999922307065,0.0,0.489859181211,0.0354480802508,0.304618779293,1.0,-0.35998,-0.473116571429,1.697
0.188812979618,-0.161034676262,-0.133682189756,-2.313205511,-0.0133107960915,2.14635201516,-0.110008422818,-0.901690079005,-1.14199437958,-0.0238847141794,-1.2386898737,-0.19358726604,0.0754465152457,-0.782864229798,0.573848365802,0.818942087112,0.00355779760425,0.0,0.818913065163,-0.573776043773,-0.011966210751,0.0,-0.00775840394666,0.00978050573068,-0.999922071401,0.0,0.483006645938,0.0263771358234,0.3045907449,1.0,-0.35998,-0.473116571429,1.716
0.173474516711,-0.18048338735,-0.134035037951,-2.33380679224,-0.016427852752,2.14753082309,-0.1236021611,-0.915867746368,-1.13361741734,-0.0233834658379,-1.19885134635,-0.19064537976,0.0601439316835,-0.809359995441,0.573784089793,0.818986600117,0.0036761434645,0.0,0.818958342239,-0.573710351176,-0.0120172181433,0.0,-0.00773304795723,0.00990608765462,-0.99992103158,0.0,0.476883097844,0.0184156131273,0.304627549203,1.0,-0.35998,-0.473116571429,1.733
0.157502267272,-0.199661620763,-0.134529897063,-2.35376821096,-0.0196514857444,2.14843041646,-0.137641692756,-0.943089514614,-1.12370272056,-0.0185841191656,-1.16077275187,-0.185201519656,0.0459233419002,-0.836550680023,0.573902891973,0.818902853783,0.00378596785586,0.0,0.818876327908,-0.573829124321,-0.0119349308468,0.0,-0.00760119665733,0.00994992235072,-0.999921607355,0.0,0.470789577774,0.0102941026643,0.304680023812,1.0,-0.35998,-0.473116571429,1.75
0.143096456292,-0.216337221864,-0.134950754188,-2.37087494271,-0.0223694239277,2.14885051236,-0.150432895968,-0.975369656646,-1.10458552394,-0.0383389400647,-1.11072242872,-0.183224462824,0.0450889232536,-0.856924751312,0.573948775549,0.818870238535,0.00388360525384,0.0,0.818844254173,-0.573873685482,-0.0119928070682,0.0,-0.00759200009415,0.0100635185337,-0.999920540408,0.0,0.465388591152,0.0031879610574,0.304711258656,1.0,-0.35998,-0.473116571429,1.765
0.127392232314,-0.233840070442,-0.135374664397,-2.38869077144,-0.025402851129,2.14907180696,-0.164379987726,-0.984366425914,-1.09495483434,-0.0206187594043,-1.09828148201,-0.188981930348,0.00832785234054,-0.888145326413,0.573917344713,0.818892518169,0.0038304080416,0.0,0.818865751866,-0.573842338758,-0.0120248729865,0.0,-0.00764917548195,0.0100380663998,-0.999920360497,0.0,0.459603570814,-0.00436464315868,0.304691818376,1.0,-0.35998,-0.473116571429,1.781
0.109113585249,-0.253236782694,-0.135896572684,-2.40790017268,-0.0285937444866,2.14910169125,-0.180674302065,-1.0249926136,-1.04856446197,-0.0282313753777,-1.06936639181,-0.179959477963,-0.00893866805856,-0.915349827187,0.573999850134,0.818833417657,0.00409305219688,0.0,0.8188103653,-0.573924282165,-0.0118849030677,0.0,-0.00738279589522,0.0101735620168,-0.999920993359,0.0,0.453182427801,-0.0129043148894,0.304777164451,1.0,-0.35998,-0.473116571429,1.799
0.093602589554,-0.269085523551,-0.136272429714,-2.42340430441,-0.0312759252347,2.1489540678,-0.194617763103,-1.05034928539,-1.05524044068,-0.0287556444298,-1.00993581086,-0.166040585244,-0.0016855017986,-0.935141663343,0.573920788221,0.818887956272,0.00426507001061,0.0,0.818867982235,-0.573845844447,-0.01170134105,0.0,-0.00713473192192,0.0102083686951,-0.999922439397,0.0,0.447841173964,-0.0199398073509,0.304829344326,1.0,-0.35998,-0.473116571429,1.814
0.0754967969155,-0.286688589816,-0.136798264507,-2.44051042039,-0.0342518784335,2.14833751744,-0.210947007955,-1.07080314898,-1.03421396466,-0.0284730991942,-0.996990962159,-0.178844686952,-0.0514799209327,-0.976219690619,0.573916568878,0.818890703667,0.00430515008611,0.0,0.818870492929,-0.573840411719,-0.0117917170073,0.0,-0.00718579668846,0.0102930203117,-0.999921205925,0.0,0.441702879273,-0.0279767831304,0.304803271653,1.0,-0.35998,-0.473116571429,1.831
0.0545948167704,-0.305940537783,-0.13738856591,-2.4587564207,-0.0376170258691,2.14743125934,-0.229785374118,-1.11390539407,-0.998942109065,-0.0215509919294,-0.970876619981,-0.182779214941,-0.0528108285355,-1.00128299674,0.573944707379,0.818870415688,0.00441158524366,0.0,0.818852382474,-0.573869360977,-0.011639551101,0.0,-0.00699974521061,0.0102930940119,-0.99992252489,0.0,0.434905122688,-0.0370118639571,0.304849107355,1.0,-0.35998,-0.473116571429,1.85
0.0377755699958,-0.320776616644,-0.137876623191,-2.47272421635,-0.0400911538895,2.14635696906,-0.245024163894,-1.13551626603,-0.979366168128,-0.045527145015,-0.906973743295,-0.16079489888,-0.0710871342516,-1.01962255098,0.57404629842,0.81879882621,0.00448066600086,0.0,0.818780452457,-0.57396889399,-0.0117909417835,0.0,-0.00708278274892,0.0104374291741,-0.999920443966,0.0,0.429121717774,-0.0445654228397,0.304824089711,1.0,-0.35998,-0.473116571429,1.866
0.0170816875922,-0.33818698199,-0.138373703348,-2.4887277695,-0.0430920427073,2.14499297101,-0.263981295959,-1.15359611731,-0.969278350582,-0.0135656903878,-0.852382344081,-0.164188386929,-0.0931206430982,-1.06900922286,0.573872333613,0.818920316048,0.00456153238773,0.0,0.818903327765,-0.573795192592,-0.0117116879835,0.0,-0.00697368813512,0.010456669089,-0.999921009753,0.0,0.423022063003,-0.0525346997204,0.304846977589,1.0,-0.35998,-0.473116571429,1.883
-0.000698698991131,-0.352363717371,-0.138865122493,-2.50151086166,-0.0456066709675,2.1435881901,-0.280162522931,-1.1900344813,-0.952746107016,-0.022771813484,-0.81663961209,-0.157592071394,-0.0884042719952,-1.09428688375,0.573929590766,0.818879942092,0.00460566867717,0.0,0.818863885897,-0.573852844157,-0.0116445922342,0.0,-0.00689267965021,0.0104547930929,-0.99992159106,0.0,0.41762152783,-0.0596679290824,0.304888571121,1.0,-0.35998,-0.473116571429,1.898
-0.0199849148387,-0.367009289939,-0.139431860455,-2.51456111413,-0.0480777102783,2.14199056516,-0.297925205348,-1.21518236121,-0.904979224465,-0.0319500722023,-0.809555410028,-0.151667452487,-0.11044841098,-1.11794134446,0.573949165856,0.818865286655,0.00476909066843,0.0,0.81885099365,-0.573871365233,-0.0116384391168,0.0,-0.00679360000867,0.0105852508545,-0.999920896603,0.0,0.411521808077,-0.0676934297255,0.304915112794,1.0,-0.35998,-0.473116571429,1.915
-0.044670865169,-0.384675614069,-0.140046621248,-2.53001535538,-0.0512156186461,2.13973943086,-0.320753775708,-1.26280954282,-0.861237523364,-0.0430275388978,-0.729699696529,-0.158413133315,-0.104766529949,-1.15414026817,0.57389033734,0.818906114462,0.00483769629777,0.0,0.818893239822,-0.573813172917,-0.0115347848516,0.0,-0.00667010040185,0.0105814620901,-0.99992176815,0.0,0.404726455727,-0.0766594007112,0.304972531465,1.0,-0.35998,-0.473116571429,1.934
-0.0649007706892,-0.398305345471,-0.140485226299,-2.54181434114,-0.0535400426407,2.1378786564,-0.339570924453,-1.28356993072,-0.815457540311,-0.0358659400919,-0.715125681004,-0.14993574128,-0.119898022521,-1.18289863125,0.57381302852,0.818959580727,0.00495583883346,0.0,0.818948270106,-0.573735592181,-0.0114868645244,0.0,-0.00656406300545,0.0106500932078,-0.999921741234,0.0,0.398990046024,-0.0841631664623,0.304991257001,1.0,-0.35998,-0.473116571429,1.95
-0.0868186526906,-0.41224692551,-0.141035725309,-2.55357831811,-0.0560064255587,2.13567234388,-0.3600774138,-1.28462914557,-0.800255313948,-0.031223956133,-0.665274631561,-0.144543362193,-0.12417187498,-1.21424428305,0.573736949722,0.81901231201,0.00504898013642,0.0,0.819002483494,-0.573659721063,-0.0114106688099,0.0,-0.00644920587408,0.0106820552508,-0.999922147689,0.0,0.392908466641,-0.0921691804916,0.305059290221,1.0,-0.35998,-0.473116571429,1.967
-0.109334117237,-0.425548897851,-0.14161423205,-2.5646760628,-0.0584307619979,2.13354259321,-0.381133349734,-1.32074772364,-0.762542654626,-0.0343894396125,-0.644052446883,-0.1392748638,-0.134562361903,-1.23026864685,0.573753574765,0.819000012787,0.0051537754223,0.0,0.818992517418,-0.573677723316,-0.0112193174946,0.0,-0.00623213500873,0.0106582322303,-0.999923778385,0.0,0.386839854889,-0.100249019754,0.305121095182,1.0,-0.35998,-0.473116571429,1.984
-0.130864682843,-0.437457652339,-0.142111894182,-2.57464048133,-0.0605227081995,2.13128876903,-0.401361658914,-1.34302430923,-0.738839708067,-0.0146837871652,-0.605713423387,-0.130168261122,-0.139858666924,-1.27667683744,0.573768341806,0.818989558392,0.0051710819243,0.0,0.818981056071,-0.573690351178,-0.0114086661773,0.0,-0.00637710144821,0.0107811571808,-0.999921546536,0.0,0.38105362501,-0.107770318494,0.305086897779,1.0,-0.35998,-0.473116571429,2.0
-0.155570146511,-0.450272651472,-0.142712640182,-2.5847486637,-0.0628581282839,2.12901878169,-0.424737759262,-1.37210416634,-0.684212772011,-0.025793351537,-0.554527696913,-0.122315677652,-0.128362482751,-1.32161134128,0.573749858164,0.819000836319,0.00542929709885,0.0,0.818998404823,-0.573676123774,-0.0108657631681,0.0,-0.00578452237741,0.0106810213826,-0.99992622482,0.0,0.374722850018,-0.116323489251,0.305290874463,1.0,-0.35998,-0.473116571429,2.018
-0.176558325961,-0.460346412533,-0.143192746599,-2.59277622995,-0.0647425551958,2.12695029147,-0.444651696007,-1.41251231654,-0.66095750039,-0.0315766747637,-0.518803644508,-0.133930566953,-0.136624408338,-1.34177506551,0.573729608161,0.81901470745,0.00547655011881,0.0,0.819013401623,-0.573656764514,-0.0107569228849,0.0,-0.00566852716451,0.0106571382767,-0.999927143948,0.0,0.36934182124,-0.123430421752,0.305353720921,1.0,-0.358270285714,-0.470869518367,2.033
-0.199031039347,-0.470379502276,-0.143457389707,-2.60050976681,-0.0663987856507,2.12494475781,-0.466122051561,-1.41058834969,-0.606376491495,-0.0153576683516,-0.459917405791,-0.0933045362465,-0.123389841485,-1.33506221997,0.573598266885,0.819105059191,0.00571639181225,0.0,0.819108462568,-0.57352836265,-0.0103581217836,0.0,-0.00520597735148,0.010623950156,-0.999930012292,0.0,0.363780630506,-0.130847561697,0.305514260238,1.0,-0.347701142857,-0.456978644898,2.049
-0.225675816736,-0.481269621613,-0.143698873483,-2.60842871222,-0.0681551639347,2.12268646062,-0.491306273125,-1.40237632934,-0.55649521958,-0.0126219153742,-0.402371138509,-0.0806782443572,-0.122268668463,-1.33735287412,0.573760389962,0.818988851754,0.0060846129729,0.0,0.819000107033,-0.573697500583,-0.00952624820523,0.0,-0.00431124682942,0.0104492837423,-0.999936110769,0.0,0.357413821672,-0.139535077666,0.305863781691,1.0,-0.335150285714,-0.440483232653,2.068
-0.247809807141,-0.489433388918,-0.143721171902,-2.61454679487,-0.0694779053707,2.12081735462,-0.512342136659,-1.39013870918,-0.485280914416,0.00224315388942,-0.374311975987,-0.0821886281831,-0.112547516415,-1.31659131698,0.573753370435,0.818993015245,0.00618528859256,0.0,0.819006684454,-0.573693491972,-0.0091964661832,0.0,-0.00398345845138,0.0103424952964,-0.999938580539,0.0,0.352124596313,-0.146559799436,0.306008658655,1.0,-0.324581142857,-0.426592359184,2.084
-0.272345993538,-0.497518416296,-0.143651856723,-2.62061759336,-0.0706856073963,2.11890765956,-0.535631756995,-1.35000668646,-0.420684317133,0.0175361547877,-0.321035694746,-0.0667075191603,-0.099911260197,-1.28949156746,0.573851066348,0.818923569624,0.00631566836822,0.0,0.818939623627,-0.573793467237,-0.00892730146995,0.0,-0.00368695932135,0.0102952907608,-0.999940204872,0.0,0.346356709987,-0.154215043171,0.30612445169,1.0,-0.312690857143,-0.410965126531,2.102
-0.290978970406,-0.503098483159,-0.143568780341,-2.62482665349,-0.0715401965107,2.11769048539,-0.553378813395,-1.29646180737,-0.374859255821,-0.0174718551512,-0.305311212653,-0.0754188007959,-0.0667165948247,-1.26687773311,0.573902573427,0.81888684548,0.0063966721383,0.0,0.818904753449,-0.573847637035,-0.00863951086403,0.0,-0.00340413214657,0.0101966990564,-0.999942217937,0.0,0.342029354563,-0.159964583832,0.30619382811,1.0,-0.303442857143,-0.398810612245,2.116
-0.314475278116,-0.508744688431,-0.143283268899,-2.6294239784,-0.0722526192539,2.11598934122,-0.575763302206,-1.28437882277,-0.329049826272,0.0162666540043,-0.245345383844,-0.0336212911803,-0.087066261214,-1.25682102127,0.574033392948,0.818795271591,0.00638074471627,0.0,0.818811334594,-0.573973670568,-0.00910882734677,0.0,-0.00379595837948,0.0104535984286,-0.999938154578,0.0,0.33662965807,-0.167065259677,0.306065428872,1.0,-0.291552571429,-0.383183379592,2.134
-0.337272885134,-0.514176670265,-0.143026286966,-2.63354589748,-0.0729693204351,2.11465171744,-0.597593703492,-1.24382509869,-0.279067119677,0.0165469814248,-0.214767773132,-0.0419106616553,-0.0860811515815,-1.21566584014,0.574089578897,0.818755188024,0.006468723796,0.0,0.8187726974,-0.57403100287,-0.00896797850523,0.0,-0.00362940079655,0.0104450385342,-0.999938862441,0.0,0.331407835052,-0.173896030074,0.30609522437,1.0,-0.279662285714,-0.367556146939,2.152
-0.3569909553,-0.517772510013,-0.142609850677,-2.63664289594,-0.0734149924367,2.11343351705,-0.616511655385,-1.23701465493,-0.216791398215,0.00832494866549,-0.176667248366,-0.025391835334,-0.0717826007264,-1.17273403606,0.574075232784,0.818766064062,0.00636445957581,0.0,0.818780364248,-0.574011329538,-0.00951081409069,0.0,-0.00413393950731,0.0106712227969,-0.99993451563,0.0,0.326917623306,-0.179681427062,0.3059203118,1.0,-0.269093142857,-0.353665273469,2.168
-0.378357294339,-0.521444535784,-0.142064147406,-2.63959950796,-0.0738410995458,2.11246348591,-0.637059179724,-1.17032053219,-0.178149146346,0.0262068240728,-0.15064782199,-0.0221430994596,-0.0458443897077,-1.14271389253,0.57400023154,0.818818995575,0.00631930203833,0.0,0.818832525475,-0.573935793542,-0.00957846633839,0.0,-0.00421623773199,0.0106726974258,-0.999934156267,0.0,0.322132712486,-0.185904857427,0.305858403725,1.0,-0.257202857143,-0.338038040816,2.186
-0.395581537691,-0.523805278074,-0.141571046169,-2.64149934495,-0.0740618801034,2.11168285674,-0.653683057712,-1.13581546272,-0.160611511624,0.032677146177,-0.121917458729,-0.00916051345222,-0.0364292293304,-1.09225035085,0.573934804074,0.818865171366,0.00627843110847,0.0,0.818877527014,-0.573868718843,-0.00974865051493,0.0,-0.00437991948496,0.010736562675,-0.999932769004,0.0,0.318327762826,-0.190894997248,0.305807260422,1.0,-0.247294285714,-0.325015346939,2.201
-0.413407079751,-0.526026373516,-0.141039994153,-2.64319757,-0.07422448552,2.11107306814,-0.670833772844,-1.09847184527,-0.118959405229,0.0299751607171,-0.104566006419,-0.00603653071318,-0.040692717872,-1.05604349818,0.573940295814,0.818861267057,0.00628562288421,0.0,0.818873964415,-0.573874830017,-0.00968797072368,0.0,-0.00432602650719,0.0107076558686,-0.999933313577,0.0,0.314422650534,-0.196039233705,0.305810827779,1.0,-0.236725142857,-0.31112447347,2.217
-0.433631200566,-0.52798391882,-0.140335981973,-2.64470491376,-0.0743233116358,2.1103867994,-0.690418550104,-1.05266347784,-0.110388729338,0.0227909260041,-0.0783352867779,0.00252264146914,-0.0308131968656,-1.015272594,0.573833767643,0.818936280266,0.00623882022,0.0,0.818948198396,-0.573767843406,-0.00974972398283,0.0,-0.00440485307616,0.0107041975148,-0.999933006468,0.0,0.310016878992,-0.201826944189,0.305801436461,1.0,-0.224174285714,-0.294629061225,2.236
-0.449901106589,-0.529235309091,-0.139810638219,-2.6456622842,-0.0743361953999,2.10999617677,-0.706158100757,-1.00750838283,-0.0611341626514,0.0282452787362,-0.0552722559642,0.0072730130699,-0.024887632448,-0.972780962967,0.573834267962,0.818935837945,0.00625085138119,0.0,0.818948035882,-0.573768659279,-0.00971530002695,0.0,-0.00436974888333,0.0106943004386,-0.99993326639,0.0,0.306483341313,-0.206483040887,0.3058038447,1.0,-0.213605142857,-0.280738187755,2.252
-0.465679779468,-0.530200102614,-0.139282005931,-2.64631403606,-0.0743573734244,2.10965917594,-0.721235896306,-0.969526748967,-0.0526092486645,0.0332956504916,-0.0377937051721,-0.00355851878285,-0.0199678294024,-0.925348578379,0.573967023869,0.818843175452,0.006201324702,0.0,0.818855312631,-0.573902750252,-0.00961026171774,0.0,-0.00431042290918,0.0105941649648,-0.999934589822,0.0,0.302864162065,-0.211263215242,0.305843401386,1.0,-0.202375428572,-0.265979134694,2.269
-0.482366298321,-0.530817788249,-0.138514401893,-2.64674984757,-0.0743249028625,2.1094229479,-0.737414422898,-0.916320906379,-0.0245554931329,0.0430984974525,-0.0194639189124,0.000517515553327,-0.0104886489882,-0.875556971321,0.573848845558,0.818926923977,0.00607803737412,0.0,0.818938147296,-0.573786058285,-0.00951930259526,0.0,-0.004308203032,0.0104403784808,-0.999936216908,0.0,0.299503573925,-0.215717893467,0.305872176655,1.0,-0.191145714286,-0.251220081633,2.286
-0.496493052246,-0.531110893513,-0.137912634664,-2.64697596696,-0.0742394679863,2.10924965594,-0.751048067156,-0.851702327665,-0.00548921518224,0.0469954481887,-0.0103505346572,0.0122014494056,-0.0125987770912,-0.840774875236,0.573851236728,0.818925779136,0.00600610293262,0.0,0.818936289889,-0.573788847305,-0.00951097847029,0.0,-0.00434263418479,0.0103767021937,-0.999936730788,0.0,0.296460408596,-0.219704280118,0.305877317784,1.0,-0.180576571429,-0.237329208163,2.302
-0.510611375419,-0.531185729531,-0.137201988247,-2.64704178639,-0.0740327950775,2.10913493391,-0.764736768264,-0.821363725253,0.00304207551159,0.0353296940575,-0.000544567091576,0.0196106414779,-0.00177609311638,-0.786949978717,0.57378590195,0.818971892126,0.00596032992037,0.0,0.818981963561,-0.573723805279,-0.00950186922681,0.0,-0.00436226464388,0.0103336402608,-0.999937091284,0.0,0.293441802021,-0.223645798647,0.305883645601,1.0,-0.169346857143,-0.222570155102,2.319
-0.524746802976,-0.531047849573,-0.136418011016,-2.64701405266,-0.0737481344732,2.10911234364,-0.778376552519,-0.756539499973,0.0146494495715,0.0438723246606,0.010766834252,0.0275209880064,0.00367893965788,-0.734328315929,0.573761990426,0.818988909269,0.0059238280259,0.0,0.818998521541,-0.573699863658,-0.00952024436532,0.0,-0.00439855990384,0.010314159331,-0.999937133418,0.0,0.290421573175,-0.227554335906,0.305864674459,1.0,-0.157456571429,-0.206942922449,2.337
-0.536451599971,-0.53078748447,-0.135710349864,-2.64686695928,-0.073435051434,2.10912088991,-0.789655289217,-0.72395058239,0.0188026293555,0.0389603286118,0.00774992888515,0.0227715429525,-0.00157799401677,-0.695868656863,0.573753666635,0.81899480427,0.00591502349022,0.0,0.819004280645,-0.573691474477,-0.00953033566028,0.0,-0.00441198178536,0.0103126931393,-0.99993708941,0.0,0.287931089591,-0.230767684108,0.305855898193,1.0,-0.146887428572,-0.19305204898,2.353
-0.547471323943,-0.530356950094,-0.135029603613,-2.64661927126,-0.0730986838187,2.10913813317,-0.800265415981,-0.664687565151,0.0320516976649,0.0498787689836,0.0197965201373,0.0201439014011,0.00107119524722,-0.651325131332,0.573766604752,0.818985716544,0.0059182995249,0.0,0.818994885082,-0.573703600873,-0.00960746877856,0.0,-0.00447311607465,0.010359701237,-0.999936331885,0.0,0.285584553997,-0.233784203813,0.305830677252,1.0,-0.136318285714,-0.17916117551,2.369
-0.559457150233,-0.529697508709,-0.134126158382,-2.64626886697,-0.072648570573,2.10921245215,-0.81186394,-0.620657219265,0.0333736771235,0.0413448336444,0.0209828151417,0.026167909555,0.00487741559869,-0.598345728346,0.573658647551,0.819061480693,0.00589863003251,0.0,0.819069830521,-0.573594343216,-0.00974110169843,0.0,-0.00459522883372,0.0104196577377,-0.9999351552,0.0,0.283060466937,-0.237014412192,0.305779061885,1.0,-0.123767428572,-0.162665763265,2.388
-0.568949660514,-0.529125400158,-0.133532466394,-2.64586742628,-0.0722853304366,2.10931512866,-0.820786493417,-0.573586690286,0.0350652208849,0.0351742781523,0.0260371108095,0.0218001298387,0.00759941999591,-0.537364307364,0.573883787733,0.818903462585,0.00593835368436,0.0,0.818912272663,-0.573819367688,-0.0097349807176,0.0,-0.0045645549434,0.010449939513,-0.999934979687,0.0,0.281048463287,-0.239615243156,0.305776820604,1.0,-0.113198285714,-0.148774889796,2.404
-0.577900865374,-0.528400114719,-0.132731085882,-2.64534032196,-0.0718338273624,2.10945932101,-0.829527196592,-0.513110825371,0.0432269158552,0.0456181251809,0.0328849376984,0.0248434850262,0.00495001796969,-0.489331158365,0.573712248901,0.819023705505,0.00593061412785,0.0,0.81903253427,-0.573648120985,-0.00971020080035,0.0,-0.00455088660864,0.0104284278369,-0.999935266567,0.0,0.279226891513,-0.242024165551,0.305784427592,1.0,-0.101968571429,-0.134015836735,2.421
-0.586691354191,-0.52763797711,-0.131929126826,-2.64480474919,-0.0713977371505,2.10959361707,-0.837799888013,-0.468746824694,0.0444316526512,0.0469195689361,0.0299478116176,0.0266344607909,0.00155172641549,-0.438144506081,0.573785634141,0.818972482854,0.00590468301304,0.0,0.818980965102,-0.573721438229,-0.00972815601066,0.0,-0.0045795370214,0.0104178997351,-0.999935245506,0.0,0.277422546932,-0.244376334682,0.30578123625,1.0,-0.0900782857144,-0.118388604082,2.439
-0.592850290413,-0.527065498013,-0.131333431677,-2.64437403932,-0.0710395230726,2.10970614509,-0.84357221451,-0.422789974026,0.042930080989,0.0424572139804,0.0314035829326,0.0215817316725,0.00974420771835,-0.414574572993,0.573857702635,0.81892196135,0.00590806623828,0.0,0.818930595636,-0.57379374542,-0.00970382141971,0.0,-0.00455674874609,0.0104071092394,-0.999935461976,0.0,0.276173535524,-0.246018438313,0.305792417025,1.0,-0.0808302857144,-0.106234089796,2.453
-0.599716294351,-0.526299860516,-0.130452299187,-2.64386577598,-0.0705465481258,2.10984198971,-0.850150076672,-0.356404241252,0.0407785415354,0.0512126509193,0.0255373107635,0.0262741660533,0.00440399808552,-0.338601665237,0.573709161827,0.819026236849,0.00587944633743,0.0,0.819034307135,-0.573644757254,-0.00975925771873,0.0,-0.00462046351503,0.0104146443374,-0.999935091144,0.0,0.274828157512,-0.247788834314,0.305777083247,1.0,-0.0689400000001,-0.090606857143,2.471
-0.605125281745,-0.525778915142,-0.129701203491,-2.64348397027,-0.0701286755403,2.1099325895,-0.855212977581,-0.323325050625,0.0317293139476,0.0448221729249,0.021513451389,0.0259068807604,0.00916033520854,-0.290169596545,0.573660351459,0.8190605841,0.00585727225645,0.0,0.819068439187,-0.573596092498,-0.00975507558439,0.0,-0.00463037857623,0.0103938070462,-0.999935262089,0.0,0.273769502676,-0.24915686113,0.305786469992,1.0,-0.058370857143,-0.0767159836736,2.487
-0.610147156406,-0.525271598939,-0.128932699274,-2.64309851771,-0.0696590500833,2.11004374816,-0.859700234697,-0.277017586064,0.0307321577084,0.0434266644949,0.0249743594647,0.0318722402247,0.0105933217119,-0.244165149507,0.57377545556,0.818979909367,0.005863578345,0.0,0.818988028588,-0.573711595752,-0.00971395030967,0.0,-0.00459161565792,0.0103760265041,-0.999935625498,0.0,0.272813725003,-0.250409272532,0.305804540284,1.0,-0.0471411428573,-0.0619569306124,2.504
-0.613992078962,-0.524812931267,-0.128244939505,-2.64274079909,-0.0692164294371,2.11017851403,-0.863242731808,-0.226108819276,0.0285685347074,0.045004295351,0.0207821504745,0.0271344107248,0.0131049540181,-0.215216095739,0.573744181532,0.819001702995,0.00587975761598,0.0,0.819010344583,-0.573681060049,-0.00963554399827,0.0,-0.00451850835719,0.0103441187724,-0.999936289115,0.0,0.272127469427,-0.251355842306,0.305827682465,1.0,-0.0365720000001,-0.048066057143,2.52
-0.61752488282,-0.524436709309,-0.127488200857,-2.64248653521,-0.0687370579017,2.11022379749,-0.86621695766,-0.176494060844,0.0178448237153,0.0428988329591,0.0132721090757,0.0202736134437,0.000209397031503,-0.146774238461,0.573883981503,0.81890356104,0.0059059623864,0.0,0.818912339805,-0.573820410161,-0.00966765221589,0.0,-0.00452800024556,0.0103847761612,-0.99993582476,0.0,0.271497368169,-0.252159941437,0.305827860887,1.0,-0.0246817142858,-0.0324388244899,2.538
-0.619851058381,-0.524212362278,-0.126776075831,-2.64232978262,-0.0683440072872,2.11025642981,-0.868183112765,-0.130654983396,0.0109585295731,0.0396811174591,0.0130200785674,0.0176000203257,-0.000253847243245,-0.11016188092,0.573850566695,0.818927140421,0.00588325488962,0.0,0.818935675607,-0.573787085701,-0.00966883657848,0.0,-0.0045424244686,0.0103666742582,-0.999935947171,0.0,0.271131476251,-0.252630735269,0.305837071843,1.0,-0.0198023529412,-0.0260259495798,2.554
-0.621753486348,-0.524015796981,-0.126226878304,-2.64217946167,-0.068053046775,2.11030616995,-0.869905197901,-0.0995978949619,0.0115126903506,0.0320620727211,0.00591947919515,0.0120440465568,0.000909389370682,-0.106340012497,0.573741358732,0.819003877544,0.00585224307596,0.0,0.819012216845,-0.573678321358,-0.00963945867856,0.0,-0.00453753641281,0.0103238134602,-0.999936412798,0.0,0.270830659684,-0.25303438503,0.305850940348,1.0,-0.0194623529412,-0.025579092437,2.571
-0.623519528648,-0.52382335483,-0.125833524207,-2.64198309836,-0.0678777982124,2.11035168242,-0.871535231379,-0.093785206824,0.0171729185997,0.0185977185522,0.0117258592891,0.0025812790358,0.00179727674163,-0.083510816179,0.57365902851,0.819061955118,0.00579478978926,0.0,0.819070000527,-0.573596938719,-0.00957251429416,0.0,-0.00451669554991,0.0102378948373,-0.999937390525,0.0,0.270531050134,-0.253458553755,0.305883047992,1.0,-0.0191023529412,-0.0251059495798,2.589
-0.624887277147,-0.523635187352,-0.12567328809,-2.64182415068,-0.0677621552337,2.11044802571,-0.872885299715,-0.0884740590641,0.0142235073542,0.00406158335098,0.0131372124567,0.00807518685963,0.00158598437252,-0.100258717783,0.573617557964,0.819090957891,0.00580058606144,0.0,0.819099419323,-0.573556262174,-0.00949222238086,0.0,-0.00444811670266,0.0101963584079,-0.999938122352,0.0,0.270276857977,-0.253830518499,0.305898415093,1.0,-0.0188023529412,-0.0247116638656,2.604
-0.626432687547,-0.523422183455,-0.125593500268,-2.64166669119,-0.0677211494125,2.11045549363,-0.87433670133,-0.0886596113935,0.0101482603049,0.00305608595081,0.00953550315194,-0.00030202044148,0.000453106257937,-0.0825641144883,0.573663898629,0.819058560774,0.00579243760891,0.0,0.819066769292,-0.573602243873,-0.00953101079225,0.0,-0.0044839871029,0.0102121865838,-0.999937800618,0.0,0.269938191813,-0.254262962334,0.305894351875,1.0,-0.0184623529412,-0.0242648067227,2.621
-0.627998709018,-0.523212315579,-0.12558038656,-2.64148110855,-0.0676876514423,2.11046207184,-0.875853928972,-0.0857102872905,0.0178309077426,0.0012364028033,0.0113188075598,0.00305736991058,-0.00117625732412,-0.0875815311678,0.573718497365,0.819020203636,0.00580850395291,0.0,0.819028543064,-0.573656685791,-0.00953936026288,0.0,-0.00448092792978,0.0102304349333,-0.999937627798,0.0,0.269585264846,-0.254723110157,0.305902559429,1.0,-0.0181023529412,-0.0237916638656,2.639
-0.629320301793,-0.522991060488,-0.125563415168,-2.64131028887,-0.0676635102805,2.11052636808,-0.877163946317,-0.0819168438642,0.0182063779406,-0.000476440422058,0.00895627986827,0.0029993708436,0.00740924426454,-0.0788277656015,0.57373524123,0.819008467019,0.00580954592549,0.0,0.819016913175,-0.573673641956,-0.00951815943614,0.0,-0.00446275572133,0.0102192166226,-0.999937823779,0.0,0.269299523522,-0.255121079502,0.305904886112,1.0,-0.0177823529412,-0.023371092437,2.655
-0.630607195768,-0.522777625907,-0.125552330421,-2.64117163815,-0.0676389342481,2.11056612462,-0.878378771848,-0.0791637858559,0.014076196493,-0.00071983021322,0.0101164162449,5.38871274465e-07,0.00123338484774,-0.0707596877725,0.573807964864,0.818957444062,0.00581989481922,0.0,0.818965895971,-0.573746078333,-0.00954178888615,0.0,-0.00447526337183,0.0102416470204,-0.999937538391,0.0,0.268991670426,-0.255523938048,0.305894292881,1.0,-0.0174423529412,-0.0229242352941,2.672
-0.632027628385,-0.522559282435,-0.125550481304,-2.64101764342,-0.0676177294864,2.11056902145,-0.879845474192,-0.0764504417494,0.0109505067018,-0.00115945822803,0.00897123629761,0.000699094720543,-0.000167854336335,-0.0832177641202,0.573782378387,0.818975265799,0.00583465192816,0.0,0.818983611347,-0.573719840901,-0.00959871877873,0.0,-0.00451374459078,0.0102862580398,-0.999936907512,0.0,0.268680208132,-0.255914273108,0.305883256387,1.0,-0.0171023529412,-0.0224773781513,2.689
-0.633330400421,-0.522366515451,-0.125530094429,-2.64085612527,-0.0675963889518,2.11061159736,-0.881104405507,-0.0738318313912,0.0151568565917,0.000555859399801,0.00823453049653,0.00214919544133,0.00205847321215,-0.0702543090488,0.573818350543,0.818950042025,0.00583747792506,0.0,0.818958483013,-0.573755945881,-0.00958460064928,0.0,-0.0045001080771,0.0102806697361,-0.999937026446,0.0,0.268407813519,-0.256278040298,0.305889063115,1.0,-0.0167823529412,-0.0220568067227,2.705
-0.63452668344,-0.522196122686,-0.125496364352,-2.64070961246,-0.0675798599255,2.11067027632,-0.882315520844,-0.0723840736947,0.00826370165699,0.00486492604996,0.00676461500696,0.00171220904052,0.00205863788101,-0.0742608729157,0.573799984509,0.818963023156,0.00582163056525,0.0,0.81897150282,-0.573738114351,-0.00953942407736,0.0,-0.00447243034675,0.0102416681045,-0.999937550851,0.0,0.268134639579,-0.256654897326,0.30589984108,1.0,-0.0164423529412,-0.0216099495798,2.722
-0.635828138122,-0.52199988558,-0.125444481646,-2.64054672314,-0.0675606325306,2.11069249387,-0.883658705991,-0.0690394374141,0.0130451920125,0.00463605101167,0.0108143102363,-7.32293077661e-05,0.000476449201957,-0.0702268100362,0.5737457627,0.819001122193,0.00580590485803,0.0,0.819009417983,-0.573683919459,-0.00954362140949,0.0,-0.0044855687503,0.0102309000797,-0.999937602232,0.0,0.267850308533,-0.257031255602,0.305904913171,1.0,-0.0160823529412,-0.0211368067227,2.74
-0.636945227065,-0.521832306729,-0.125394851033,-2.64041149376,-0.0675382680599,2.11071421824,-0.88474504832,-0.070969108534,0.0183494202431,0.00387888544504,0.00976966672646,0.000917935672926,0.00194109954211,-0.073101618615,0.573752389844,0.81899655988,0.00579456255819,0.0,0.819004719259,-0.573690550001,-0.00954827583183,0.0,-0.00449580583622,0.0102243170084,-0.99993762359,0.0,0.267606837282,-0.257351542934,0.305907838907,1.0,-0.0157623529412,-0.0207162352941,2.756
-0.638121702996,-0.52164337881,-0.125361437589,-2.64026757324,-0.0675187444063,2.11074584199,-0.885977319862,-0.0685328889945,0.00980447647148,0.0008195217503,0.00963633492292,0.000112780880722,0.00107189367458,-0.0699290595415,0.573698910448,0.819034063865,0.00578872015323,0.0,0.819042129045,-0.573637027253,-0.00955503607512,0.0,-0.00450536254887,0.010223116291,-0.999937592853,0.0,0.267347074418,-0.257694578323,0.305907312796,1.0,-0.0154223529412,-0.0202693781513,2.773
-0.639309270511,-0.52145215687,-0.125360899311,-2.64012915459,-0.0674990819939,2.11079713004,-0.887143256107,-0.0765927133686,0.0158313079601,-0.000701697823078,0.00698684415869,-0.000337007049731,0.00437911617871,-0.0688919379576,0.573731932367,0.819010869724,0.00579758200347,0.0,0.819019051116,-0.573670062094,-0.00954990409306,0.0,-0.00449566258455,0.0102276119537,-0.999937590538,0.0,0.267078754869,-0.258048852692,0.30590433307,1.0,-0.0150823529412,-0.0198225210084,2.79
-0.640403042724,-0.521257418455,-0.125368667913,-2.63998455673,-0.0674772803478,2.1108486052,-0.888213917649,-0.0676691772833,0.0123471979211,-0.00151450827406,0.00391279752072,0.000142394191261,0.00093564655479,-0.0626535414533,0.573773263392,0.818981821993,0.00581071103181,0.0,0.818990175258,-0.573711413071,-0.00954223473463,0.0,-0.00448133183137,0.01023419145,-0.999937587548,0.0,0.266833984824,-0.258380978114,0.305902679937,1.0,-0.0147623529412,-0.0194019495798,2.806
-0.641526208856,-0.521069272648,-0.125356308753,-2.63984648327,-0.0674574808671,2.110865017,-0.889364439708,-0.0690667909139,0.0145239955738,0.00153873621375,0.00770447699785,0.00138968816261,0.00243169224051,-0.0649304208485,0.573757829067,0.818992588791,0.00581721507326,0.0,0.819000886012,-0.57369567218,-0.00956929120071,0.0,-0.00449995409976,0.0102549574839,-0.999937291164,0.0,0.266578433759,-0.258710064949,0.305897940547,1.0,-0.0144223529412,-0.018955092437,2.823
-0.642588308651,-0.520897281148,-0.12534496581,-2.63973817276,-0.0674373747072,2.11088590026,-0.890465042608,-0.0635533978717,0.0066830984814,0.00353673781622,0.00139412011603,-4.40717758249e-05,0.00214849441188,-0.0687546780795,0.57373264504,0.819010159901,0.00582725463514,0.0,0.819018395318,-0.573670071633,-0.00960541227813,0.0,-0.00452409576472,0.0102837653278,-0.999936886372,0.0,0.266332308605,-0.259016149068,0.305885954652,1.0,-0.0140823529412,-0.0185082352941,2.84
-0.643659739064,-0.520718044724,-0.125302298294,-2.63961455368,-0.0674189893912,2.11091321686,-0.891470442242,-0.0663720952193,0.0122567618981,0.00501976054522,0.00450220535465,0.00129149741384,0.000347025515025,-0.0646629054925,0.573770886889,0.818983443509,0.00581683049165,0.0,0.818991470088,-0.573708124112,-0.00962845531135,0.0,-0.00454847014907,0.0102886599876,-0.999936725446,0.0,0.266094447336,-0.259322440754,0.305879554157,1.0,-0.0137423529412,-0.0180613781513,2.857
-0.644651710094,-0.520556391791,-0.125247354853,-2.63949776283,-0.067399026592,2.11095615349,-0.892498712611,-0.0593689492343,0.00922930956593,0.00286769369516,0.00511849813548,0.00025160261875,0.000534449339162,-0.0682127542262,0.573716874696,0.819021396093,0.00580063202099,0.0,0.819029267249,-0.573654219585,-0.00962510481956,0.0,-0.00455569746305,0.0102731702398,-0.999936851803,0.0,0.265880966521,-0.259605254592,0.30587814893,1.0,-0.0134223529412,-0.0176408067227,2.873
-0.645730536252,-0.520368789209,-0.125211244199,-2.63935583099,-0.0673767412675,2.11099658894,-0.893556042963,-0.0624001668293,0.0119881649088,0.00559507785072,0.00705330374441,0.00661911054325,0.00157101082608,-0.0515852000756,0.573725819486,0.819015179807,0.00579363455854,0.0,0.819022981707,-0.573663200697,-0.00962468196909,0.0,-0.00455925346874,0.0102672460774,-0.999936896442,0.0,0.265645551401,-0.259920506765,0.305877953903,1.0,-0.0130623529412,-0.0171676638656,2.891
-0.646666681746,-0.520200324275,-0.125186740996,-2.63923468241,-0.0673528850869,2.11102035312,-0.894476440164,-0.0592711896213,0.0134432701259,0.00229635456175,0.00510623702444,0.00184708808353,0.00179828166206,-0.0529423806643,0.573737898691,0.819006697494,0.00579654789665,0.0,0.819014447973,-0.573675081578,-0.00964270132216,0.0,-0.00457218990612,0.0102800375926,-0.99993670595,0.0,0.265437511125,-0.260192749131,0.305873637133,1.0,-0.0127423529412,-0.016747092437,2.907
-0.647647446765,-0.520039919398,-0.12517448581,-2.63910330406,-0.0673348350239,2.11105249978,-0.895461404458,-0.0559616772909,0.0096954003171,0.000628293546251,0.0076617438929,0.00460690309825,0.000371921251443,-0.0521454719255,0.573740286569,0.819005010216,0.00579859553271,0.0,0.819012820909,-0.573677547839,-0.00963416799489,0.0,-0.00456399566202,0.0102768322517,-0.999936776333,0.0,0.265218237487,-0.260483855202,0.305877364643,1.0,-0.0124023529412,-0.0163002352941,2.924
-0.648653780341,-0.519875074164,-0.125171386155,-2.63897215038,-0.06731905327,2.1110844496,-0.896465059515,-0.0609048458847,0.00580613008141,0.000791747220643,0.00886421532556,-0.00011496925754,0.000739095133824,-0.0605113579845,0.573753841543,0.818995478483,0.00580365745916,0.0,0.819003359322,-0.573691118344,-0.00963042333158,0.0,-0.00455785417904,0.0102789052384,-0.999936783038,0.0,0.264989604484,-0.260783636209,0.305879109311,1.0,-0.0120423529412,-0.015827092437,2.942
-0.649297983281,-0.519751503593,-0.125164569912,-2.63889001082,-0.0672997968621,2.1111060195,-0.897067955287,-0.0567959582564,0.0120044269397,0.00248553314665,0.00611572353402,0.000126221210896,0.00360586782977,-0.0527272715137,0.573795407192,0.818966293623,0.00581270126518,0.0,0.818974198647,-0.573732480665,-0.00964621589063,0.0,-0.0045650780511,0.0102956049578,-0.999936578279,0.0,0.264844314756,-0.260972846618,0.305872956517,1.0,-0.0118023529412,-0.0155116638656,2.954
-0.650351408253,-0.519594116722,-0.125148379424,-2.63877081933,-0.067276991287,2.11114931038,-0.898123473165,-0.045562188508,0.0066730028408,0.000452782359389,0.00660006378975,0.00213804560839,0.000703496159058,-0.0576454437611,0.573798156197,0.818964330485,0.0058179239948,0.0,0.818972341314,-0.573735322915,-0.00963484837839,0.0,-0.00455273630396,0.0102933752497,-0.999936657503,0.0,0.264605542767,-0.261279841073,0.305873281145,1.0,-0.0114023529412,-0.0149859495798,2.974
-0.651267181886,-0.519436901123,-0.125111344762,-2.63866353341,-0.0672537752836,2.11117951241,-0.899088270264,-0.0517120187837,0.0107625035056,0.000523134042118,0.00330726792332,-0.000120564285555,0.000804724139818,-0.0503298991311,0.573747311355,0.818999969155,0.00581550844454,0.0,0.819007886822,-0.5736843432,-0.00964896841908,0.0,-0.00456632661116,0.0102992152616,-0.999936535399,0.0,0.26440224094,-0.261540740866,0.305867613265,1.0,-0.0110423529412,-0.0145128067227,2.992
-0.652056378365,-0.51929660747,-0.125083413626,-2.63856600034,-0.0672333970309,2.11119510416,-0.899869144377,-0.0511344929919,0.0143079927585,-0.000597549923928,0.00192672960149,0.000203489545622,-0.000185399740118,-0.0519249112678,0.573748154142,0.818999376007,0.00581589370633,0.0,0.819007194675,-0.573684952153,-0.00967148619379,0.0,-0.00458453872171,0.0103124546872,-0.999936315614,0.0,0.264225406169,-0.261766044003,0.305862269346,1.0,-0.0107223529412,-0.0140922352941,3.008
-0.652874288286,-0.519167181426,-0.125068019124,-2.6384799937,-0.0672151887064,2.11121920948,-0.900670058471,-0.046634073773,0.00929498937391,0.00179671859635,0.00758212335957,0.00221780238165,-0.000275113810486,-0.0464270264994,0.573763476061,0.818988604462,0.00582118561689,0.0,0.818996412777,-0.573700101197,-0.00968589932881,0.0,-0.00459311482845,0.010325144197,-0.999936145308,0.0,0.264036863107,-0.262000188879,0.305856115081,1.0,-0.0103823529412,-0.0136453781513,3.025
-0.653660722417,-0.519019857353,-0.1250769301,-2.63838574391,-0.0671970830435,2.11123905284,-0.901459997456,-0.0414730075533,0.0173867981527,8.00187942751e-06,0.00957542946938,6.96287299163e-05,0.0001139445288,-0.0414406049112,0.573779672267,0.818977135212,0.00583837266948,0.0,0.818984993934,-0.573715929451,-0.00971385122589,0.0,-0.00460594332498,0.0103553493507,-0.99993577395,0.0,0.263851847094,-0.262232434888,0.305846163012,1.0,-0.0100423529412,-0.0131985210084,3.042
-0.654380248907,-0.518904677976,-0.125071895809,-2.63829763102,-0.0671786217996,2.11126138705,-0.902200258868,-0.0444754103729,0.00688744916554,-6.74046413751e-05,0.00964254049411,3.4894772561e-05,0.000839638700639,-0.0464889598505,0.573771581029,0.818982736953,0.00584775843918,0.0,0.818990692486,-0.573707795398,-0.00971380577443,0.0,-0.00460062321346,0.0103629649498,-0.999935719546,0.0,0.26368697183,-0.262443136508,0.30584581612,1.0,-0.00972235294118,-0.0127779495798,3.058
-0.655131037344,-0.518765038526,-0.125067266283,-2.63817885365,-0.0671633848385,2.11129657771,-0.902924187377,-0.04104893566,0.0122185283749,0.000634845134304,0.00535942473319,-0.000126348593351,0.0028461861952,-0.0357152824687,0.573802914112,0.818960772877,0.00584937145601,0.0,0.818968831294,-0.57373931025,-0.00969557347055,0.0,-0.00458436826166,0.0103540005631,-0.999935887065,0.0,0.263521818214,-0.26267168054,0.305851486513,1.0,-0.00938235294118,-0.012331092437,3.075
-0.655882514403,-0.518620669451,-0.125020538329,-2.638059531,-0.0671395589277,2.11134252659,-0.903628275217,-0.0427518001522,0.00890822978474,0.0028619149432,0.007948251163,-0.00029816746722,0.00361615721184,-0.0388786352168,0.573824883147,0.818945474917,0.0058360514582,0.0,0.818953509536,-0.573761594063,-0.00967105465271,0.0,-0.00457165227629,0.0103291454976,-0.999936202339,0.0,0.263368045118,-0.262891840757,0.305857578518,1.0,-0.00902235294118,-0.0118579495798,3.093
-0.656521772926,-0.518498935961,-0.124960922835,-2.63795900124,-0.0671187913379,2.11136613005,-0.904254442282,-0.0393244273536,0.00611570475536,0.00511997014919,0.00744907038677,0.00315823915759,0.00027524086405,-0.0391331756334,0.573807348475,0.81895789302,0.00581749070656,0.0,0.818965759172,-0.573744199271,-0.00966571298312,0.0,-0.00457814853553,0.0103107813454,-0.999936362147,0.0,0.263238885112,-0.26307225566,0.305861850465,1.0,-0.00870235294118,-0.0114373781513,3.109
-0.657159359996,-0.518381497454,-0.124916501105,-2.63787612893,-0.0671011651719,2.11137972909,-0.904933853474,-0.0390296791819,0.00754244862427,0.00083274624216,0.00397454011515,0.00161922755058,0.000174160803978,-0.0377856108569,0.5737534439,0.818995726105,0.00580802333674,0.0,0.819003410648,-0.573690158237,-0.00968310850162,0.0,-0.00459850718665,0.0103127063239,-0.999936248878,0.0,0.263100923037,-0.26324990515,0.305858446829,1.0,-0.00836235294118,-0.0109905210084,3.126
-0.657766112354,-0.518247548981,-0.12487288107,-2.63782932494,-0.0670818758712,2.11140247373,-0.905595033526,-0.0324714064651,0.00890648544027,0.00366689607082,0.0050044790494,0.000541484114667,0.000817702398164,-0.0366627841435,0.573688884938,0.819040967723,0.00580546213556,0.0,0.819048341888,-0.573624987564,-0.00974341795051,0.0,-0.00465018985237,0.0103448438858,-0.999935677901,0.0,0.262963830712,-0.263411107064,0.305833297166,1.0,-0.00802235294118,-0.0105436638656,3.143
-0.658328661162,-0.518157321811,-0.124851895329,-2.637793936,-0.0670642817943,2.11140695169,-0.906170576473,-0.0335844493502,0.00668925004915,0.00113253711675,0.000960011510433,-0.000104540993789,7.05377672253e-05,-0.0377405081076,0.573672881967,0.819052117358,0.00581381530103,0.0,0.819059361344,-0.573608467047,-0.00978958770075,0.0,-0.00468341902218,0.0103780806472,-0.999935178413,0.0,0.262828623453,-0.26356091576,0.305816985545,1.0,-0.00770235294118,-0.010123092437,3.159
-0.658932739335,-0.518063964485,-0.124844296915,-2.63774485733,-0.0670493249291,2.11142199682,-0.906738363315,-0.0292842260411,0.00545405527351,-0.00104841837302,0.00602253555012,0.0024362199464,0.00287903470859,-0.0312241867513,0.573706268104,0.819028665088,0.00582328125909,0.0,0.819035891375,-0.573641546223,-0.00981488599694,0.0,-0.00469828736709,0.0104005382165,-0.99993487533,0.0,0.262683879643,-0.263729716709,0.305806334773,1.0,-0.00736235294118,-0.00967623529412,3.176
-0.659571546359,-0.517973934484,-0.124846744135,-2.63767239509,-0.0670304896103,2.11143499795,-0.907332492374,-0.0382949644761,0.00264805491563,0.002451102747,0.00533269666332,0.00461754259455,-0.000229058014013,-0.0316970645014,0.573756370833,0.818993464461,0.00583772218552,0.0,0.819000844254,-0.573691579964,-0.00981504414247,0.0,-0.00468949522939,0.0104127439828,-0.999934789572,0.0,0.262533045176,-0.26391515237,0.305807140263,1.0,-0.00700235294118,-0.00920309243698,3.194
-0.660129777638,-0.517903985786,-0.124851345244,-2.63758929448,-0.0670110873085,2.11145830961,-0.907864051227,-0.0308997465616,0.00424193837936,1.6313270355e-05,0.00561077427238,0.000207683572473,0.0009008820674,-0.0256858862704,0.573793889589,0.818967097142,0.00584918548479,0.0,0.818974787719,-0.573729465689,-0.00977467048314,0.0,-0.00464937296303,0.0103991818532,-0.999935118069,0.0,0.262407392273,-0.26408431585,0.305821032695,1.0,-0.00666235294118,-0.00875623529412,3.211
-0.660626031897,-0.517842127578,-0.124844625442,-2.63749143533,-0.0669975236373,2.11148681517,-0.908346267979,-0.0298290768945,0.00367497900157,0.000257451447854,0.0017794902537,0.000538030258721,-9.14980889964e-05,-0.0270661925862,0.5738111826,0.818955001908,0.00584623580878,0.0,0.818962972965,-0.573747467933,-0.00970766988244,0.0,-0.00459597030155,0.0103584196258,-0.999935788038,0.0,0.262304315076,-0.264239975469,0.30584533678,1.0,-0.00634235294118,-0.00833566386555,3.227
-0.661118141668,-0.517805308395,-0.124838940539,-2.63739127049,-0.0669758909047,2.1115171557,-0.908843467523,-0.0289008810673,0.00357609325825,0.00466620296076,0.00334800186093,0.00544433531414,-0.000165097186458,-0.0268329227776,0.57381696725,0.818950930013,0.00584886549433,0.0,0.818959370756,-0.573754243267,-0.00961063399143,0.0,-0.0045149131757,0.010304926457,-0.999936710022,0.0,0.2622040904,-0.264395199357,0.305880074977,1.0,-0.00600235294118,-0.0078888067227,3.244
-0.661536443954,-0.517711282741,-0.124802136606,-2.63728671387,-0.0669646782988,2.11155229302,-0.909265507946,-0.0272946800481,0.00778758706922,0.0047187902257,0.00600964375615,-0.000149027094634,0.000958906156602,-0.0274210824426,0.57379779967,0.818964508028,0.00582808596776,0.0,0.818972943901,-0.573735649341,-0.00956392883782,0.0,-0.00448882401212,0.0102610036018,-0.999937279165,0.0,0.262129773815,-0.264526190234,0.305896825245,1.0,-0.00568235294118,-0.00746823529412,3.26
-0.661950220249,-0.517646246399,-0.124758126374,-2.63721330956,-0.0669395477501,2.11156845866,-0.909688594497,-0.0190939524936,0.00747338681108,0.00450668766147,0.00519354539011,0.000193525676311,0.000755355862569,-0.0225130660838,0.573773305776,0.818981717053,0.00582130683432,0.0,0.818990204233,-0.573711466209,-0.00953655137791,0.0,-0.00447059681592,0.0102396090272,-0.999937580137,0.0,0.262050063787,-0.264642750344,0.305908652815,1.0,-0.00534235294118,-0.00702137815127,3.277
-0.662348649212,-0.517546767868,-0.12472364957,-2.63717226122,-0.0669220505005,2.11157295815,-0.910086557805,-0.0214633030965,0.00853703388579,0.00148225420878,0.000493876331605,0.002723185255,0.00409335039882,-0.0245827153986,0.573759004102,0.818991739567,0.00582087918265,0.0,0.818999991392,-0.573696641515,-0.00958772740462,0.0,-0.00451293759588,0.010268542629,-0.999937093235,0.0,0.261961689238,-0.264747500263,0.305891799621,1.0,-0.00500235294118,-0.00657452100841,3.294
-0.662727928639,-0.517473601967,-0.124678641194,-2.63715763142,-0.0669051592477,2.1115828897,-0.910459632089,-0.0206050426892,0.00642608581988,0.00202746248589,0.001887646224,-7.8689854798e-05,-4.98797640145e-05,-0.0196408235603,0.573740321274,0.819004857441,0.00581671149627,0.0,0.819012856372,-0.573677504291,-0.00963374637806,0.0,-0.00455325620892,0.0102914283812,-0.999936675175,0.0,0.26187607021,-0.264839356513,0.305873355216,1.0,-0.00466235294118,-0.00612766386555,3.311
-0.66306031896,-0.517379649842,-0.124650873283,-2.63715668748,-0.0668907643643,2.11158748453,-0.910788681735,-0.0202795451396,-0.000511422448746,0.0047950005412,-0.000100920489572,0.000287104884507,-0.000329589751145,-0.0182410171733,0.573729936406,0.819012091214,0.00582249237416,0.0,0.819019756202,-0.573666209181,-0.00971937739284,0.0,-0.00462020942889,0.0103452332361,-0.999935812847,0.0,0.261794416989,-0.264918250559,0.30584013756,1.0,-0.00434235294118,-0.00570709243698,3.327
-0.663419326781,-0.517313796071,-0.124631342994,-2.63715517561,-0.0668783754376,2.11159148206,-0.911143996618,-0.0188922112334,0.00211423599945,0.000286231111369,-0.000858232182808,0.000714617492688,6.0540411413e-05,-0.0147035072365,0.573724733105,0.819015686496,0.00582947675593,0.0,0.819023156799,-0.573660377966,-0.00977682361893,0.0,-0.00466332185225,0.0103838818984,-0.999935212114,0.0,0.261704309697,-0.265006603205,0.30581731065,1.0,-0.00398235294118,-0.00523394957984,3.345
-0.663722061099,-0.517254987912,-0.124633083268,-2.63713726006,-0.0668627960052,2.11159698008,-0.911435135847,-0.0218696769247,0.00802491098676,-0.000219078198201,0.00146923293108,0.000977764723714,0.000400583955987,-0.0322108095339,0.573743188491,0.819002641117,0.00584588787442,0.0,0.819010132904,-0.573678421477,-0.00980906892784,0.0,-0.00468008373698,0.0104159284267,-0.9999348005,0.0,0.261628742702,-0.265089074467,0.305804179694,1.0,-0.00366235294118,-0.00481337815127,3.361
-0.663991282513,-0.517219647642,-0.12461777032,-2.63710224498,-0.0668470427343,2.11160760797,-0.911703526935,-0.0198653052482,0.00117539819332,0.000659163012178,0.00231783689805,-0.000145984012524,0.000252127309187,-0.0167420585355,0.573741470761,0.819003820864,0.00584919140418,0.0,0.819011405667,-0.573676819183,-0.00979650042783,0.0,-0.00466791563379,0.0104114134897,-0.999934904398,0.0,0.261571003918,-0.265164598011,0.305808339659,1.0,-0.00334235294118,-0.0043928067227,3.377
-0.664241977748,-0.517194173971,-0.124611448498,-2.63704845664,-0.0668320352592,2.11161526282,-0.911961450228,-0.0143440742847,0.000607357365148,-0.00703559891276,0.0009541390001,5.2572311232e-05,0.000978912556817,-0.019775345844,0.573740042488,0.819004793982,0.00585303178447,0.0,0.819012595668,-0.573675768979,-0.00975843862137,0.0,-0.00463455473241,0.0103927138355,-0.999935254105,0.0,0.261520074406,-0.265241893532,0.305824219255,1.0,-0.00302235294118,-0.00397223529412,3.393
-0.664510440554,-0.517163783871,-0.124581903601,-2.6369823395,-0.066818264896,2.11162827449,-0.912200577869,-0.0151874186895,0.00238939064629,0.00260992566575,-0.000314319425812,0.000236115060105,0.000285013775866,-0.013911905186,0.573752129881,0.818996406691,0.00584176217192,0.0,0.81900432217,-0.573688424738,-0.00970868113264,0.0,-0.00460011218965,0.010355004312,-0.999935804366,0.0,0.261472971291,-0.265322791846,0.305844898585,1.0,-0.00266235294118,-0.00349909243698,3.411
-0.664734961652,-0.517159960379,-0.124557148949,-2.63692662586,-0.0668023072001,2.11164625311,-0.912404174884,-0.0126215502373,-5.88551635067e-05,0.00244183253211,0.000622819974162,-4.80698938504e-05,-0.000380678701312,-0.0123487120096,0.573761055106,0.818990209594,0.0058339638971,0.0,0.818998370407,-0.573698120419,-0.00963757235364,0.0,-0.00454623080856,0.0103078690654,-0.999936537797,0.0,0.261435636434,-0.265391469674,0.30587097455,1.0,-0.00232235294118,-0.00305223529412,3.428
-0.664931461682,-0.517154537488,-0.124529095861,-2.63690310419,-0.0667830379902,2.1116547358,-0.912600300638,-0.0066148538429,-0.000402698385587,-0.000995214580169,0.00134981507271,0.00273179102783,-1.35069122514e-05,-0.0119814380964,0.573750927247,0.818997308504,0.00583344207217,0.0,0.819005616799,-0.573688343872,-0.00960367941851,0.0,-0.00451889687682,0.0102879398685,-0.999936866939,0.0,0.261394220608,-0.265448731611,0.305882906474,1.0,-0.00196235294118,-0.00257909243698,3.446
-0.66511794133,-0.51715306528,-0.124509108745,-2.63689239034,-0.0667692687272,2.11166094254,-0.912773434917,-0.0120782756294,-0.000499269136566,0.00134392568004,-0.0010577015373,-2.6643155313e-05,-0.000304949114111,-0.00928550923906,0.573753835714,0.818995261891,0.00583471551004,0.0,0.819003637135,-0.573691368822,-0.00959179860466,0.0,-0.00450839848323,0.0102821824291,-0.999936973548,0.0,0.261357530725,-0.265488721497,0.305886418726,1.0,-0.00164235294118,-0.00215852100841,3.462
-0.665275043251,-0.517141321344,-0.124489727406,-2.63688849531,-0.0667555850409,2.11166191542,-0.912896429819,-0.00695926906749,0.00118398573659,0.00107121478619,-0.000930200540432,0.000225230450558,-2.60881102969e-05,-0.00191306751872,0.573774060663,0.818981070947,0.00583777709291,0.0,0.81898945543,-0.573711525905,-0.00959707454389,0.0,-0.00451070922917,0.0102878283864,-0.999936905054,0.0,0.261322154887,-0.265525165396,0.305884399991,1.0,-0.00132235294118,-0.00173794957984,3.478
-0.6654474237,-0.517125205277,-0.124469954675,-2.63688535513,-0.06673856872,2.11166222239,-0.913012665428,-0.00943106238746,0.00302675219575,0.000235158060849,-0.000617275059803,0.00440934568438,0.000284265470228,-0.0132308621558,0.573813459186,0.818953423862,0.00584384314702,0.0,0.81896182532,-0.573750786881,-0.00960781571755,0.0,-0.00451553091167,0.0102991767137,-0.999936766471,0.0,0.261282739578,-0.265564815235,0.305880376243,1.0,-0.000962352941182,-0.0012648067227,3.496
-0.665563031113,-0.517112036408,-0.124459315004,-2.63687975992,-0.0667243204757,2.11166747585,-0.913067564408,-0.0104925372582,-0.000422842602152,0.000868867658556,-5.36962797863e-07,0.000490791525312,0.000265388919772,-0.00513035124545,0.57386199812,0.818919365968,0.00585030407511,0.0,0.81892783373,-0.573799288077,-0.00960869637004,0.0,-0.00451193409451,0.010305240949,-0.999936720228,0.0,0.261257499652,-0.265593272588,0.305878766617,1.0,-0.000642352941182,-0.000844235294125,3.512
-0.665614099954,-0.517073254471,-0.124451616624,-2.6368716783,-0.0667131587402,2.11167082937,-0.913113117697,-0.000738052541578,0.00300735212723,-0.000143592810075,0.00159283121275,0.00273225323328,0.000405409268694,0.0002296160227,0.573866346432,0.81891627277,0.00585675041174,0.0,0.818924688946,-0.573803337086,-0.00963488892862,0.0,-0.0045296316087,0.0103255748162,-0.999936430451,0.0,0.261248180926,-0.265605757269,0.305868590114,1.0,-0.000302352941182,-0.000397378151268,3.529
-0.665622696339,-0.51705265991,-0.124430623107,-2.63687665012,-0.066699134935,2.11166747632,-0.91313823321,-0.000333281260631,-0.000432346064818,0.00208375742862,0.000211960367063,0.00339399202282,7.44400647383e-05,-0.00110265817943,0.573844256905,0.818931733534,0.00585931135065,0.0,0.818940035834,-0.573780920193,-0.00966541415007,0.0,-0.00455344097461,0.0103450662227,-0.99993612085,0.0,0.261249777806,-0.265599357667,0.305857078825,1.0,-2.2352941182e-05,-2.93781512678e-05,3.545
