nelsonifechukwu/NELSON_IML_WORK/CNN-GradCAM/train2dof/data_sample_2022-02-22-16-25-14/robot_state.csv
position_joint1,position_joint2,position_joint3,position_joint4,position_joint5,position_joint6,position_joint7,velocity_joint1,velocity_joint2,velocity_joint3,velocity_joint4,velocity_joint5,velocity_joint6,velocity_joint7,ee_T_00,ee_T_10,ee_T_20,ee_T_30,ee_T_01,ee_T_11,ee_T_21,ee_T_31,ee_T_02,ee_T_12,ee_T_22,ee_T_32,ee_T_03,ee_T_13,ee_T_23,ee_T_33,v_x,v_y,time
0.465078620325,0.547757947361,-0.123954545368,-1.35583905615,0.0796125463605,1.89410087963,0.159160408729,0.00108238034562,0.00294566749083,0.00103497751867,0.00110189151282,-0.000199901187174,0.000360646005723,0.000879545375656,0.573809083771,0.818974822321,0.00203044005285,0.0,0.818931513581,-0.573748986414,-0.0120009813589,0.0,-0.00866370545694,0.00854922806272,-0.99992592271,0.0,0.661660965018,0.260931258034,0.303227073697,1.0,0.0,0.0,0.0
0.465073330612,0.547747367934,-0.123954674052,-1.35584613374,0.0796135903673,1.89410401009,0.159160018224,6.60804034326e-05,-0.00135699300898,0.00247692958293,-0.00713228123321,-3.98477087636e-05,0.000436291368561,0.00100077823487,0.573813852061,0.818971465117,0.00203700986941,0.0,0.818928231288,-0.573753715698,-0.0119988592668,0.0,-0.00865814806816,0.00855344122595,-0.999925934815,0.0,0.661661598865,0.260927365622,0.303231477813,1.0,-0.00014,-0.000184,0.008
0.465078360321,0.547751523078,-0.123957287893,-1.35583853155,0.0796137340627,1.89410232516,0.159148733651,0.00086126494722,0.000315814177094,0.000861587873323,0.000984368260935,-0.000276992078488,-0.000175398063348,-0.00127149398392,0.573801936274,0.818979811802,0.00203781517028,0.0,0.818936605089,-0.57374181442,-0.0119964216476,0.0,-0.0086558140212,0.00855257607066,-0.999925962422,0.0,0.661662175943,0.260929937984,0.303232092929,1.0,-0.00044,-0.000578285714286,0.023
0.465072438813,0.547740865917,-0.123955049545,-1.35585646296,0.0796131157448,1.89410379537,0.159155629649,-0.000662635092062,0.0018870479329,0.000298419867384,-0.000268985184437,-6.5932104992e-05,0.00192481816457,0.0004515213226,0.573811676037,0.818972997843,0.00203375247777,0.0,0.818929715916,-0.57375154817,-0.0120011775713,0.0,-0.00866193850962,0.00855208080951,-0.999925913623,0.0,0.66165970506,0.260925325218,0.303231160588,1.0,-0.00078,-0.00102514285714,0.04
0.465080038991,0.547664503139,-0.123957267114,-1.35592124113,0.0796138278737,1.89411005936,0.159150935655,0.00068550155844,-0.00896871981797,0.000441653790941,-0.00628269231182,1.99849848322e-05,0.000293634514071,0.000396720168631,0.573813265299,0.81897181811,0.0020602451619,0.0,0.818928836293,-0.573752980596,-0.0119927163409,0.0,-0.00863979124614,0.00856893887491,-0.999925960906,0.0,0.661647534227,0.260920907021,0.303259492681,1.0,-0.00114,-0.00149828571429,0.058
0.465073634986,0.547536388599,-0.123955835643,-1.35609388254,0.0796150319405,1.8941434721,0.159149295812,0.000956490372509,-0.00455504049195,-0.000178241237045,-0.012472321903,4.4637554835e-05,-0.000445215578812,-0.000843295037967,0.573819441844,0.818967512828,0.00205134012636,0.0,0.818924254955,-0.573759035532,-0.0120158517378,0.0,-0.00866378408447,0.00857498661718,-0.999925701465,0.0,0.661618354996,0.26090317139,0.303266485121,1.0,-0.00146,-0.00191885714286,0.074
0.465052794764,0.547381498748,-0.123954931082,-1.35630850914,0.0796104445639,1.89420467056,0.159142272702,-0.00050072842319,-0.0106584416556,0.00349314748276,-0.0145228171909,0.000120664074616,0.0112871289775,-0.00156556173341,0.573840778986,0.818952544769,0.00205832192727,0.0,0.818909274559,-0.573780237949,-0.0120243703347,0.0,-0.00866653109723,0.00858581825956,-0.999925584713,0.0,0.66159092806,0.260869876314,0.303279325952,1.0,-0.00182,-0.002392,0.092
0.465031907927,0.547206970556,-0.12395795234,-1.35651772806,0.0796066500712,1.89433707314,0.159133326532,-0.00222427897377,-0.00990510877603,0.00230872685627,-0.0168103958978,-0.000296425582441,0.000200285869643,-0.000135707210271,0.573863695329,0.81893626639,0.00214421910721,0.0,0.818894140592,-0.573802815062,-0.0119775971072,0.0,-0.00857869486192,0.00862956274595,-0.99992596558,0.0,0.661580334681,0.260840159732,0.30331496172,1.0,-0.00216,-0.00283885714286,0.109
0.465004412097,0.54703139568,-0.123955422581,-1.35672216147,0.0796067724185,1.89444481032,0.15912648557,-0.00104198951932,-0.0126124842692,-0.00173191223261,-0.0156079556629,-0.000236198824445,0.00140668411515,-0.00212599077218,0.573890463445,0.818917310305,0.00221850195203,0.0,0.818876085142,-0.573829206227,-0.0119476426666,0.0,-0.00851125405085,0.00867348337178,-0.999926161894,0.0,0.661566164595,0.26080882071,0.303351291984,1.0,-0.00246,-0.00323314285714,0.124
0.464972860126,0.546802801805,-0.123953645656,-1.3570503385,0.0796012576505,1.89458286177,0.159100991171,-0.00215805067032,-0.0181413133979,0.00130771909221,-0.0163590189928,2.97441051693e-05,0.000724362382862,-0.00315857267898,0.573911180006,0.818902681047,0.0022590571542,0.0,0.818861876264,-0.573849645157,-0.0119398180908,0.0,-0.00848135319177,0.00870241841794,-0.999926164555,0.0,0.661532586479,0.260761507602,0.303368914395,1.0,-0.0028,-0.00368,0.141
0.46494234476,0.546545580459,-0.123957642472,-1.3574459336,0.0795925452161,1.8947190504,0.159030711991,0.000561492982562,-0.0127473713372,2.67360194681e-05,-0.0219042984929,-0.00358927069054,0.00535376619955,-0.00275719467854,0.573901176449,0.818909674935,0.00226514232913,0.0,0.818868816329,-0.573839481609,-0.0119523174099,0.0,-0.00848820368914,0.00871447122127,-0.999926001457,0.0,0.661485133298,0.260703260383,0.303374731166,1.0,-0.00314,-0.00412685714286,0.158
0.464899457714,0.546273179067,-0.123958390296,-1.35786515607,0.079581062654,1.89487947845,0.158925079679,-0.00620191850954,-0.013141197305,0.000686867027478,-0.0222193561703,-0.00145054383693,0.0148464956933,-0.000694796455279,0.573870768891,0.818930930363,0.00228447116615,0.0,0.818890206762,-0.573808879375,-0.011956007743,0.0,-0.00848045797969,0.00873210254197,-0.999925913364,0.0,0.661440100729,0.260637305128,0.303382029978,1.0,-0.00346,-0.00454742857143,0.174
0.464851500259,0.54595332648,-0.123958364459,-1.35840747336,0.0795670370679,1.8950627363,0.15889608563,-0.00180430563847,-0.0187415758374,0.000162406458025,-0.031623134048,-0.00070107747738,0.0066807279795,-0.00485254849015,0.573912839683,0.818901513647,0.0022605961155,0.0,0.81886028043,-0.573850838473,-0.0119917979994,0.0,-0.00852302065127,0.00873352735929,-0.999925539037,0.0,0.661373857887,0.26055558704,0.303366272998,1.0,-0.00382,-0.00502057142857,0.192
0.46480196613,0.545617472256,-0.123961174833,-1.35899275045,0.079543844593,1.89525494568,0.158815220921,-0.00172398836048,-0.016943314123,-0.000889763085551,-0.0325181872699,-0.00174133463167,0.0130556133801,-0.0096916249159,0.573915634073,0.818899672911,0.00221756028424,0.0,0.81885773311,-0.573853662709,-0.0120305287605,0.0,-0.00857940615573,0.00872054282671,-0.999925170162,0.0,0.661301475056,0.26046541727,0.303342229759,1.0,-0.00416,-0.00546742857143,0.209
0.464748334804,0.545278873462,-0.123961970956,-1.35957855054,0.0794900769913,1.89544235894,0.158730610553,-0.00183502971619,-0.0198899679092,-0.000329671102057,-0.0380179016759,-0.000587885628346,0.0124701917043,-0.00151782216623,0.573909142203,0.818904386219,0.00215629985233,0.0,0.818861758292,-0.57384754193,-0.0120484990421,0.0,-0.0086293474847,0.00868062236746,-0.999925087773,0.0,0.661230342532,0.260368404666,0.303319315982,1.0,-0.00446,-0.00586171428571,0.224
0.464676873586,0.544822334802,-0.123961177759,-1.36032696908,0.0794427663559,1.89569382869,0.158672662485,-0.00355307574193,-0.019712272025,-0.000740189045478,-0.0459443259899,-0.000220790484703,0.0159705671566,-0.00129971613295,0.573948738759,0.818876727992,0.00212050240412,0.0,0.818833602994,-0.573887255887,-0.0120704200022,0.0,-0.00866742360587,0.00866430777506,-0.999924899949,0.0,0.661141563052,0.260248170331,0.303307977349,1.0,-0.00482,-0.00633485714286,0.242
0.464608804384,0.54439175081,-0.123961579576,-1.36105925288,0.0794140332885,1.89595250715,0.158568571213,-0.00468331027151,-0.0249099121651,-0.000852605269779,-0.0434770030304,-0.00203034106355,0.01422434961,-0.00345185569645,0.573952738324,0.818873999263,0.00209150714355,0.0,0.818830323053,-0.573891207817,-0.0121049799563,0.0,-0.00871232352625,0.00866044260365,-0.999924543229,0.0,0.66105550005,0.260134562721,0.303286608285,1.0,-0.00516,-0.00678171428571,0.259
0.464547021445,0.543919944019,-0.123966869304,-1.36180363096,0.0793873114065,1.89622385298,0.158458742089,-0.000766416314868,-0.0280984650192,-0.000981007236986,-0.0472593238487,-0.00530745833476,0.0172337967952,-0.00266019114436,0.57395148801,0.818874856235,0.00209908033861,0.0,0.818831126152,-0.573889772805,-0.0121186804299,0.0,-0.00871920982794,0.00867449399388,-0.999924361406,0.0,0.66096955413,0.260022580978,0.303289871416,1.0,-0.00548,-0.00720228571429,0.275
0.464461346346,0.543399438552,-0.123964508834,-1.36264637232,0.0793434359805,1.89651500214,0.158371476884,-0.00276274225858,-0.0342041707438,-0.000471711673524,-0.0473369201786,-0.00462635069867,0.0150698171381,-0.00814537150272,0.573983703107,0.818852332609,0.00207674027968,0.0,0.81880819414,-0.57392196583,-0.0121435269994,0.0,-0.00875203704952,0.00867080549385,-0.99992410661,0.0,0.660871501112,0.259886772985,0.303282159191,1.0,-0.00582,-0.00764914285714,0.292
0.464389716645,0.542848501796,-0.123967254546,-1.36352914232,0.0792917986358,1.89682922843,0.158242135839,-0.00369801184517,-0.0294170833329,0.00184710010895,-0.0511147638386,-0.000303701514045,0.0166595434913,-0.0126209710353,0.573973697979,0.818859383209,0.00206190667558,0.0,0.818815018143,-0.573911994966,-0.0121546287427,0.0,-0.00876974766657,0.00866492418562,-0.99992400242,0.0,0.660767459554,0.259753256081,0.303279017697,1.0,-0.00616,-0.008096,0.309
0.46430814563,0.542245749681,-0.123968059932,-1.36445330827,0.0792359241088,1.89717081548,0.158123944044,-0.00458996354479,-0.0389197184553,0.000482839139702,-0.0540467513817,-0.00442463645232,0.0217936696544,-0.00296508075009,0.573980757028,0.818854392544,0.00207876738328,0.0,0.81881024884,-0.57391897978,-0.0121461082158,0.0,-0.00875301853177,0.00867391542679,-0.999924071046,0.0,0.660662940147,0.259611244291,0.303295049346,1.0,-0.0065,-0.00854285714286,0.326
0.464218658151,0.54163605102,-0.123971172027,-1.36539848513,0.0791819406759,1.89751631589,0.157992999018,-0.00718821976719,-0.0356368786344,0.000373697777002,-0.0589631702203,0.000214990436321,0.0142148295902,-0.0141390190926,0.573987070661,0.818849942769,0.00208826318353,0.0,0.818805898141,-0.573925226056,-0.0121442565441,0.0,-0.00874598524376,0.00868069558094,-0.999924073751,0.0,0.660556860625,0.259460841488,0.30330633191,1.0,-0.00684,-0.00898971428571,0.343
0.464127453886,0.540976206453,-0.12397413453,-1.36641284345,0.0791238175618,1.89789455319,0.157871181319,-0.0019751878225,-0.0389341184787,0.000277951014982,-0.0607490879061,-0.00433979519851,0.0195025614102,-0.0117854738709,0.574004868927,0.81883741304,0.0021091124189,0.0,0.818793628526,-0.573942918436,-0.0121353683082,0.0,-0.00872655146793,0.00869285566999,-0.999924137902,0.0,0.660443143554,0.259303399348,0.303322882288,1.0,-0.00718,-0.00943657142857,0.36
0.464039648462,0.540300876484,-0.123975196555,-1.36742416823,0.0790629084835,1.89826391816,0.157753936538,-0.00587103576558,-0.0488293655843,0.000141621174287,-0.0629801165091,0.000291750846321,0.0248248242932,-0.00324851660623,0.574027247818,0.81882165758,0.00213512110149,0.0,0.818778230127,-0.573965198426,-0.0121205514119,0.0,-0.00869925227875,0.00870588506086,-0.999924262419,0.0,0.660320546984,0.259139766469,0.30334907393,1.0,-0.00752,-0.00988342857143,0.377
0.463936760352,0.539568740014,-0.123981323721,-1.36857893814,0.0789986583819,1.89870305109,0.157610790028,-0.00218231528221,-0.0437496061295,-0.000543341234024,-0.0748140276502,-0.00370075411448,0.027895788274,-0.0159342649919,0.574043547659,0.818810181956,0.00215365219416,0.0,0.818766971513,-0.573981390805,-0.0121143001945,0.0,-0.00868332324568,0.0087176429874,-0.999924298434,0.0,0.660191312747,0.258959256871,0.303359313535,1.0,-0.00786,-0.0103302857143,0.394
0.463845354338,0.538818239514,-0.123981470632,-1.36973948024,0.0789272663321,1.89914052207,0.157458221372,-0.00450789352876,-0.0373996056934,0.000186900611526,-0.0653638223053,-0.000441958931651,0.0304030841399,-0.0128031088074,0.57403458023,0.818816414373,0.00217420210389,0.0,0.818773484554,-0.573972348265,-0.0121025336052,0.0,-0.00866198805434,0.00872761986422,-0.999924396449,0.0,0.66006524987,0.258799071283,0.303372611072,1.0,-0.00818,-0.0107508571429,0.41
0.463742836893,0.538070076936,-0.12398768483,-1.37088285819,0.0788596583617,1.89958270903,0.157322238166,-0.00547265129554,-0.0469016638549,-0.00104382326368,-0.0761472268618,-0.00532943682274,0.0282041713963,-0.00872837931586,0.574056702164,0.818800802494,0.00221256358708,0.0,0.818758418394,-0.573994348759,-0.0120783609241,0.0,-0.00861993858275,0.0087453874786,-0.999924604586,0.0,0.659940159219,0.258620963186,0.303395354991,1.0,-0.0085,-0.0111714285714,0.426
0.463638013076,0.537225507109,-0.12399023703,-1.37222114963,0.0787884620097,1.9000795683,0.157157682016,-0.00199234516823,-0.0494345210523,0.000637671669355,-0.0756494794796,-0.00355985015972,0.0268833128694,-0.00278555452696,0.574064382453,0.818795400578,0.00221893951671,0.0,0.81875301316,-0.574001913095,-0.0120852847001,0.0,-0.00862186599713,0.00875466346786,-0.999924506798,0.0,0.659783049367,0.258424724147,0.303397906898,1.0,-0.00886,-0.0116445714286,0.444
0.463526512246,0.536426482269,-0.123992716541,-1.3734608347,0.0787171501065,1.90055198635,0.157007457972,-0.00614151509199,-0.0461384505417,0.000263279749161,-0.077253968612,-0.00276685806129,0.0367052150286,-0.006980605014,0.574083673643,0.818781800233,0.00224636707873,0.0,0.818739764685,-0.574021079203,-0.0120725000027,0.0,-0.00859544671971,0.00876998405442,-0.999924599995,0.0,0.659644153722,0.258233568161,0.303412950095,1.0,-0.00918,-0.0120651428571,0.46
0.463419404883,0.535563874347,-0.123993550062,-1.37482221086,0.0786334470472,1.90104732405,0.156834283072,-0.0090213014895,-0.047463275461,0.000299049646554,-0.0822046802226,-0.00682680112466,0.0311921830542,-0.0136513890381,0.574082538959,0.818782607634,0.00224205248381,0.0,0.818740503533,-0.574019950436,-0.0120760621032,0.0,-0.00860085235621,0.00876848439285,-0.999924566665,0.0,0.659482141989,0.258032227694,0.303416721109,1.0,-0.00952,-0.012512,0.477
0.46329048332,0.5346584585,-0.123992016476,-1.37626161129,0.0785568535623,1.90155876775,0.15666715796,-0.00633837613374,-0.048715761706,0.00078686227889,-0.0882004548631,-0.000263030157042,0.0340820420832,-0.0135121398104,0.574108557874,0.818764400478,0.00222871866933,0.0,0.818721970877,-0.57404586852,-0.0121005016043,0.0,-0.00862823931765,0.00877187135279,-0.999924301014,0.0,0.659310697283,0.257811435534,0.303414729719,1.0,-0.00986,-0.0129588571429,0.494
0.463164096576,0.533755238213,-0.123999522976,-1.37773928731,0.0784757691312,1.90210736872,0.156492179233,-0.00647038495444,-0.0540252000425,-0.000241531796748,-0.085250356229,-0.00793307230324,0.0396128232645,-0.0104509471581,0.574133393906,0.818747042677,0.00220748945021,0.0,0.818704274577,-0.574070730198,-0.0121183505953,0.0,-0.00865477526267,0.00876499955819,-0.999924131946,0.0,0.659138999683,0.257584299638,0.303396317857,1.0,-0.0102,-0.0134057142857,0.511
0.463031219812,0.532881350459,-0.123997002976,-1.37915304512,0.0783978079385,1.90264284192,0.156301735363,-0.0094723280856,-0.0551135114746,-0.000311616711528,-0.0952727695082,-0.00181635694559,0.0354151398608,-0.0099840116856,0.574141064997,0.818741665367,0.00220675737686,0.0,0.818698802572,-0.57407831725,-0.012128612101,0.0,-0.00866351530819,0.00877037274745,-0.999924009145,0.0,0.658977629651,0.257365547213,0.303385998729,1.0,-0.01052,-0.0138262857143,0.527
0.462899827342,0.531916138425,-0.124002718838,-1.38070310434,0.0783123748505,1.9032138327,0.1561142111,-0.00681449188477,-0.0591659253156,-0.000504281250228,-0.0941673119727,-0.00709926046076,0.0342824639385,-0.0142601282315,0.574160896835,0.818727784492,0.00219689503398,0.0,0.818684717737,-0.574098113239,-0.012142331788,0.0,-0.00868019823005,0.00877038535693,-0.999923864351,0.0,0.658795522421,0.257129237057,0.303378348205,1.0,-0.01086,-0.0142731428571,0.544
0.462762485839,0.530915922372,-0.124003048317,-1.38231687588,0.0782193537923,1.90379340492,0.155905769379,-0.00618799739463,-0.0551279278265,0.000252621269226,-0.0960326310077,-0.00478931416749,0.0382545630648,-0.0124446193224,0.574165834113,0.818724394321,0.00216978869617,0.0,0.818680875381,-0.574103069406,-0.0121670409582,0.0,-0.00871593869756,0.00876243243359,-0.999923623179,0.0,0.658601467712,0.256884424771,0.303365392562,1.0,-0.0112,-0.01472,0.561
0.462624859049,0.529941389701,-0.124005578064,-1.38386273631,0.0781178636318,1.90434609985,0.155696663022,-0.00287422216443,-0.0545787108598,0.000619175995309,-0.098693332963,-0.000209269628872,0.0442406327346,-0.00718834746192,0.574165765243,0.818724497412,0.00214901432611,0.0,0.818680736143,-0.574103121154,-0.012173966139,0.0,-0.00873353662428,0.00874939966778,-0.999923583752,0.0,0.658417833408,0.256642719163,0.303364153891,1.0,-0.01152,-0.0151405714286,0.577
0.462484151486,0.528815797846,-0.124007645121,-1.38563240827,0.0780065480257,1.90500431959,0.155459396168,-0.00882162544192,-0.0567206521232,-0.00169211501057,-0.0974062192068,-0.00944225373226,0.031863841882,-0.0181661451651,0.574154313806,0.818732505774,0.00215750492077,0.0,0.818688884717,-0.574091663183,-0.012166314421,0.0,-0.00872251943916,0.00875183570524,-0.999923658599,0.0,0.658207681002,0.256380256577,0.303371682918,1.0,-0.01188,-0.0156137142857,0.595
0.462348402965,0.527701435003,-0.124009171047,-1.3873536414,0.0778955781615,1.90567815303,0.155225523633,-0.00767947842406,-0.0699541691785,0.00114264835098,-0.10198307798,-0.010279536224,0.0358759271986,-0.0156619207724,0.574138626659,0.818743369628,0.0022088389321,0.0,0.818700530598,-0.574075866773,-0.0121279548226,0.0,-0.00866180824026,0.00877167381362,-0.999924012521,0.0,0.658009755618,0.256128103696,0.303395401844,1.0,-0.01222,-0.0160605714286,0.612
0.462214891683,0.526678428284,-0.124012739267,-1.38891460695,0.07780844567,1.90626694648,0.155007433377,-0.0108418857006,-0.0703707794666,-2.33212369937e-05,-0.110550303393,-0.0102544909145,0.0412811212522,-0.0112022661606,0.574132886767,0.818747267959,0.00225531469567,0.0,0.818704993809,-0.574069885203,-0.0121097859821,0.0,-0.00862031190772,0.00879923320052,-0.999924128981,0.0,0.657828108146,0.255892171869,0.303423548713,1.0,-0.01252,-0.0164548571429,0.627
0.46205856162,0.525440650344,-0.124018349981,-1.39086357216,0.077679613078,1.90697207202,0.154738626594,-0.00937600923668,-0.0697825985546,-0.000525405073616,-0.113240758195,-0.00439570910851,0.0372056266965,-0.0184125309082,0.574115035444,0.818759819412,0.00224301028219,0.0,0.818717451683,-0.574052157218,-0.0121079314304,0.0,-0.00862604893842,0.00878790633908,-0.999924179117,0.0,0.657592376653,0.2555980223,0.303427990382,1.0,-0.01288,-0.016928,0.645
0.461895719001,0.524256494338,-0.124021066466,-1.3927238372,0.0775621921278,1.90764300333,0.154493391841,-0.0106411681939,-0.0694566395219,-9.79571796691e-05,-0.106609661189,-0.0111580183396,0.0397761637952,-0.0133048386268,0.574117813434,0.818757891859,0.00223555777977,0.0,0.818715426793,-0.574054966725,-0.0121116477028,0.0,-0.00863334031173,0.00878396745657,-0.999924150799,0.0,0.657368985378,0.255310661799,0.303433555267,1.0,-0.01322,-0.0173748571429,0.662
0.461744363293,0.523135138218,-0.124024134462,-1.39452365007,0.0774556292622,1.90831476152,0.154240960849,-0.00938249298182,-0.0701927004334,0.000390025393972,-0.112235383028,-0.00828821153102,0.0451213241172,-0.0107738405215,0.574105233077,0.818766730304,0.00222926036023,0.0,0.818724147656,-0.574042379086,-0.012118744121,0.0,-0.00864290098115,0.0087827528017,-0.999924078876,0.0,0.657154292373,0.25503882283,0.303423561446,1.0,-0.01354,-0.0177954285714,0.678
0.461577571203,0.521829635575,-0.124021934521,-1.39660790127,0.0773337568659,1.90913107814,0.153959681352,-0.0095944725017,-0.0692435384605,0.00152559540951,-0.113700228835,-0.00842825123157,0.0464545332475,-0.0178821507984,0.574089071615,0.818777974681,0.00226117900747,0.0,0.818735791534,-0.574026065455,-0.0121048230254,0.0,-0.00861335262536,0.00880072423838,-0.99992417583,0.0,0.656909274577,0.254735902007,0.303419652801,1.0,-0.0139,-0.0182685714286,0.696
0.461413534862,0.520567069285,-0.124031048995,-1.39861234455,0.0772004216698,1.90988590746,0.153683051579,-0.0121324273688,-0.0736266147394,-0.00131975624878,-0.115916102254,-0.010719027862,0.0459147438102,-0.017742490286,0.574074473053,0.818788207497,0.00226220136641,0.0,0.818746170124,-0.574011599792,-0.0120888011384,0.0,-0.00859980356237,0.00879221012544,-0.99992436735,0.0,0.65667143124,0.254431177405,0.30341818415,1.0,-0.01424,-0.0187154285714,0.713
0.461251949941,0.519328413237,-0.124029010104,-1.40055465283,0.0770792932609,1.91057165806,0.153432950042,-0.0139227143902,-0.0765650627073,0.00147496610603,-0.121974692954,-0.0102831881354,0.0415176363697,-0.0143537242921,0.574071072398,0.818790634769,0.00224658688304,0.0,0.818748328659,-0.574008199804,-0.0121040396807,0.0,-0.00862128102738,0.00878813749442,-0.999924218205,0.0,0.656429324601,0.254138987828,0.30342279097,1.0,-0.01456,-0.019136,0.729
0.461079026411,0.517983350446,-0.124035385104,-1.40265633459,0.0769420953521,1.91132855395,0.153143911906,-0.0118532176734,-0.0786414268013,-4.87045904631e-05,-0.121883941612,-0.00366741097143,0.0463143394809,-0.0112428313136,0.574054916876,0.818801977521,0.00224074093207,0.0,0.818759643753,-0.57399212093,-0.0121011476276,0.0,-0.0086224419764,0.00878152061421,-0.999924266327,0.0,0.656171510892,0.25381921115,0.303432283653,1.0,-0.0149,-0.0195828571429,0.746
0.460896514763,0.516633237891,-0.124037296829,-1.40479106421,0.0768054443911,1.91210722528,0.152845201014,-0.00542138641686,-0.0783276325853,0.000331446020785,-0.130244078563,-0.0132221209059,0.0452848991127,-0.0163008915394,0.57403720869,0.818814418012,0.00223132155849,0.0,0.818771973457,-0.573974467706,-0.0121042473187,0.0,-0.00863057678526,0.00877540085363,-0.999924249873,0.0,0.655910966259,0.253493499252,0.303430949248,1.0,-0.01524,-0.0200297142857,0.763
0.460717986407,0.515339584417,-0.124041815699,-1.40683337486,0.0766796074685,1.91288837612,0.152565198504,-0.0135210756946,-0.0814951109853,0.000577595510317,-0.126575431938,-0.00343039495353,0.0541231330239,-0.0166641018861,0.574031420539,0.818818410128,0.0022552983938,0.0,0.818776319428,-0.573968619744,-0.0120875636009,0.0,-0.00860321474234,0.00878539536884,-0.999924397904,0.0,0.655669588548,0.253181030684,0.303433920538,1.0,-0.01556,-0.0204502857143,0.779
0.460522392392,0.513865723663,-0.124047138183,-1.40921554509,0.0765364597429,1.91372670144,0.152249826165,-0.0113441993857,-0.0780769608132,-0.000259514440841,-0.131553207802,-0.00912566385363,0.0474778325194,-0.0185858921949,0.574023745208,0.818823952867,0.00219568917081,0.0,0.818780964511,-0.573961079782,-0.0121308677223,0.0,-0.00867297191432,0.00876136330301,-0.999924006148,0.0,0.655368248514,0.252820152017,0.303406062801,1.0,-0.01592,-0.0209234285714,0.797
0.46033681807,0.512548784579,-0.124048173165,-1.41136474939,0.0764068029583,1.91447390291,0.15194194323,-0.0142425133909,-0.0834405258893,-0.000521072120101,-0.130781568699,-0.010920116677,0.0485472127401,-0.0174351419867,0.574001939074,0.81883942763,0.00212428786636,0.0,0.818795360231,-0.573939442573,-0.0121828249577,0.0,-0.00875673341564,0.00873249032538,-0.999923528692,0.0,0.655094841903,0.252490004002,0.303370661596,1.0,-0.01624,-0.021344,0.813
0.460146602678,0.511199270621,-0.124047872142,-1.41353238147,0.0762715770975,1.9152929474,0.151649440738,-0.0158638304938,-0.0804387407053,0.000403443982877,-0.135686393846,-0.00244520440816,0.046288919447,-0.0182705880346,0.573995064705,0.818844253979,0.00212139593724,0.0,0.818800153187,-0.573932586307,-0.0121836947054,0.0,-0.00875917878623,0.00873054803925,-0.999923524235,0.0,0.654832640402,0.252159807576,0.303355068125,1.0,-0.01656,-0.0217645714286,0.829
0.459932876706,0.509610767782,-0.124056384446,-1.4160252017,0.0761175736892,1.91622993347,0.151280934452,-0.00719085762297,-0.0866849700464,-0.00108955183845,-0.137156185906,-0.00347913622833,0.0535768632341,-0.0149904955608,0.57396296244,0.818866693637,0.0021453902104,0.0,0.81882294109,-0.573900416834,-0.0121675636136,0.0,-0.00873254037834,0.00874059386273,-0.999923669466,0.0,0.654530735266,0.251778664079,0.303361996334,1.0,-0.01692,-0.0222377142857,0.847
0.45972210201,0.508108171969,-0.124061676292,-1.41839463556,0.0759611822893,1.91707028439,0.150955523706,-0.00978628808084,-0.0937092516996,-0.00404031027036,-0.144424325923,-0.0153985083643,0.0552825196366,-0.0223472960877,0.573953462334,0.81887342833,0.00211621153824,0.0,0.818829317321,-0.573891069648,-0.0121793339038,0.0,-0.00875902664367,0.00872335486377,-0.999923588347,0.0,0.654234344558,0.251408080511,0.303358497206,1.0,-0.01726,-0.0226845714286,0.864
0.459525002215,0.506673074802,-0.124062402363,-1.420654401,0.075816735473,1.91789733127,0.150647464817,-0.0122759344601,-0.0950251490241,-6.69063795368e-05,-0.142680470094,-0.00727723591794,0.050532533019,-0.01683084533,0.573941096246,0.818882100218,0.00211444631228,0.0,0.818837967053,-0.573878713898,-0.012179997909,0.0,-0.00876071520895,0.00872215820051,-0.999923583993,0.0,0.65395372294,0.251062296887,0.303358206153,1.0,-0.01758,-0.0231051428571,0.88
0.459292397821,0.504975914356,-0.124070506347,-1.42326383705,0.0756564093489,1.91890111099,0.15028927327,-0.0149933379429,-0.0940248709842,-0.000246680300322,-0.146512143294,-0.00986002080906,0.0549117316969,-0.0187514758696,0.573935733181,0.818885663822,0.00218875902426,0.0,0.818842575135,-0.573873099309,-0.0121346584874,0.0,-0.0086809950819,0.00875693178974,-0.999923975345,0.0,0.653641948299,0.250660370584,0.303389643924,1.0,-0.01794,-0.0235782857143,0.898
0.459060192811,0.503316596051,-0.124076240549,-1.42574572746,0.0754989834363,1.91984110153,0.149947870513,-0.0122545693907,-0.0906193681713,-0.00102243757729,-0.143742134431,-0.0115243502636,0.0565233362261,-0.0186883549211,0.573935554027,0.818885526599,0.00228496215121,0.0,0.818843789724,-0.573872606014,-0.0120758850298,0.0,-0.00857765543386,0.00880197629753,-0.999924471668,0.0,0.653345125213,0.250270998918,0.303449007731,1.0,-0.01828,-0.0240251428571,0.915
0.458855282709,0.501813734231,-0.124081468513,-1.42795733272,0.0753559778236,1.92065423286,0.149627319413,-0.0102017597276,-0.0928734169284,0.000231299215569,-0.138487988087,-0.0113225418829,0.0512716691943,-0.0236226737512,0.573919081162,0.818896827279,0.00237096003107,0.0,0.818856287263,-0.573855854606,-0.012024385465,0.0,-0.0084863052001,0.00884267003472,-0.999924892085,0.0,0.653075122342,0.249923618557,0.303516123075,1.0,-0.01858,-0.0244194285714,0.93
0.458605665452,0.500006821404,-0.124079591574,-1.43070780985,0.0751829570052,1.92161145124,0.149247299677,-0.0101202565729,-0.0942564940459,-0.00148696534799,-0.152454887459,-0.00589277631319,0.0502508713013,-0.0198186377877,0.573904198309,0.818907218642,0.00238439112449,0.0,0.81886675161,-0.573840811879,-0.012029656279,0.0,-0.00848307475139,0.00885653937323,-0.999924796749,0.0,0.652722224428,0.249496406826,0.303550682627,1.0,-0.01894,-0.0248925714286,0.948
0.458358610216,0.498331405329,-0.124078091699,-1.43333340658,0.0750207995686,1.92260220017,0.148882646582,-0.0139728757533,-0.0952252246156,0.00126459204033,-0.152457151724,-0.0118653066466,0.0604790329042,-0.0161357745557,0.573896806152,0.818912302187,0.00241746071853,0.0,0.818872251584,-0.573833269692,-0.0120150356363,0.0,-0.00845220383639,0.00887515295335,-0.999924893135,0.0,0.6524003232,0.249087740701,0.303555289157,1.0,-0.01928,-0.0253394285714,0.965
0.458113842356,0.496753872531,-0.124080462255,-1.43584327454,0.0748685470632,1.92350135036,0.14849178229,-0.0158829522053,-0.093853913685,0.00160101697568,-0.155549761047,-0.0109458363922,0.0627190829584,-0.0296421083808,0.573864938661,0.81893471269,0.00239069625319,0.0,0.818894196589,-0.573801394244,-0.0120416634234,0.0,-0.008489714786,0.00886818646948,-0.999924637166,0.0,0.652084101197,0.248686325435,0.303538350945,1.0,-0.0196,-0.02576,0.981
0.457843019547,0.495079545442,-0.124088767686,-1.43857697474,0.0747039667174,1.92444076763,0.148096324051,-0.0142610973498,-0.100453066095,-0.00229945386295,-0.159669634384,-0.0146819108224,0.0558614945151,-0.0197301402831,0.573862251477,0.818936883171,0.00229011208439,0.0,0.81889485519,-0.573798923548,-0.0121143872982,0.0,-0.0086070204385,0.00882752053104,-0.999923994152,0.0,0.651731528804,0.24824013804,0.303485495188,1.0,-0.01994,-0.0262068571429,0.998
0.457531283359,0.493021201091,-0.124137622285,-1.44172654035,0.0745148955319,1.92556728617,0.147661996601,-0.0187981452257,-0.150407150466,-0.00648735369628,-0.222245967546,-0.00963373479885,0.0795794210587,-0.0310743739977,0.573904208979,0.818907412063,0.0023143651185,0.0,0.8188657752,-0.573840849062,-0.012094174409,0.0,-0.00857609693812,0.00883622210898,-0.999924182996,0.0,0.651344674391,0.247708096701,0.303518587687,1.0,-0.034092,-0.0448066285714,1.015
0.457181980811,0.489864920749,-0.124218701792,-1.44655120781,0.074255497581,1.92746276272,0.146926924656,-0.0299586411309,-0.215064213722,-0.00487609517027,-0.340333839788,-0.0214911876239,0.1359718185,-0.0480749012013,0.573819542018,0.818966173805,0.00250724200822,0.0,0.81892720002,-0.573755554019,-0.0119813271291,0.0,-0.00837391883245,0.00892854022563,-0.99992507652,0.0,0.650750900806,0.246989182375,0.303584586922,1.0,-0.05022,-0.0660034285714,1.031
0.456532753171,0.485154157916,-0.124264503278,-1.45394776984,0.0738768038615,1.93031881613,0.145792331049,-0.0432611460536,-0.306267386978,-0.00686204944998,-0.477615306118,-0.031213946955,0.188008234799,-0.0769439747821,0.573722472313,0.819033632334,0.00267969595783,0.0,0.818996481333,-0.573657358591,-0.0119476106061,0.0,-0.00824842641521,0.00904944848561,-0.999925032662,0.0,0.649829036675,0.245857714509,0.30358598617,1.0,-0.067356,-0.0885250285714,1.048
0.455539763823,0.478615905935,-0.124458088307,-1.46444755187,0.0732436456058,1.93393628552,0.144196588389,-0.0637955739651,-0.394106098218,-0.0104280523723,-0.630410464173,-0.0378267641295,0.216768327891,-0.0953132206244,0.57371177847,0.819042096692,0.00236347043031,0.0,0.819000728319,-0.573647850664,-0.0121118678259,0.0,-0.00856449477957,0.0088845762904,-0.999923853968,0.0,0.648463797886,0.244085747164,0.303442222966,1.0,-0.0855,-0.112371428571,1.066
0.454332643858,0.47088846646,-0.124621088511,-1.47661982099,0.0725127224744,1.93814262151,0.142439906192,-0.0780039001209,-0.485672644801,-0.0141977851655,-0.731555019504,-0.041914166989,0.265742862116,-0.106544583677,0.573768545165,0.819002908199,0.00215402913518,0.0,0.81895842791,-0.573705145652,-0.0122574919418,0.0,-0.0088033134399,0.00879719300627,-0.999922552535,0.0,0.646862996592,0.242037470133,0.303364040784,1.0,-0.102636,-0.134893028571,1.083
0.452889516614,0.461749198372,-0.124765704951,-1.49054890948,0.0716689249296,1.94331988836,0.140174028247,-0.0928885580463,-0.553977455733,-0.00765190099478,-0.852238382829,-0.0582625181127,0.318579492222,-0.142128195055,0.573631569012,0.819097940489,0.00247665494652,0.0,0.819057846719,-0.573566964826,-0.0120800450667,0.0,-0.00847437573251,0.00895819134583,-0.999923964991,0.0,0.645086046957,0.239708725507,0.303490905598,1.0,-0.119772,-0.157414628571,1.1
0.451096804761,0.451365875837,-0.124937844663,-1.50661177094,0.070646488065,1.94893819797,0.137670984548,-0.120690567365,-0.653236591861,-0.00879779217958,-0.970707444717,-0.0668401259307,0.359788646993,-0.149967465841,0.573639056351,0.819092908889,0.002405522445,0.0,0.819051727086,-0.573574582493,-0.012133160253,0.0,-0.00855860377325,0.00893047385052,-0.999923495543,0.0,0.642953774062,0.236911223283,0.303475688026,1.0,-0.136908,-0.179936228571,1.117
0.449027301925,0.439594351346,-0.125115009363,-1.52463079228,0.0694159361042,1.95528986791,0.134887328123,-0.125258327289,-0.706060345262,-0.00518203123643,-1.11842753538,-0.0722230326954,0.373315556238,-0.170950416239,0.573655714808,0.81908115311,0.00243564951368,0.0,0.819040870271,-0.573591641994,-0.012059351597,0.0,-0.00848068268734,0.00891298406039,-0.999924315504,0.0,0.640534648495,0.233746057025,0.303515722253,1.0,-0.154044,-0.202457828571,1.134
0.446604936432,0.426496273123,-0.125285788767,-1.54440944507,0.0680972633378,1.96213656651,0.131643860411,-0.148259255832,-0.801530904403,-0.0056320077592,-1.19663284636,-0.0859805303518,0.408889889521,-0.199445229069,0.573607271601,0.819114713169,0.00255568737202,0.0,0.819075883075,-0.573542595406,-0.0120139885729,0.0,-0.00837520048406,0.00898478608241,-0.999924561973,0.0,0.637820244741,0.230201445958,0.303629291458,1.0,-0.17118,-0.224979428571,1.151
0.44381355735,0.412224165319,-0.125488019425,-1.5657296624,0.0665527161076,1.9695935484,0.12806371925,-0.167726003576,-0.856096448842,-0.0094110699753,-1.28479046212,-0.0982910626555,0.463527661864,-0.224051021057,0.57357569139,0.819135973092,0.00281615586499,0.0,0.819101552354,-0.573511150662,-0.0117623934261,0.0,-0.00802005720539,0.00905351489071,-0.9999268536,0.0,0.634885779771,0.226259963704,0.303814615649,1.0,-0.188316,-0.247501028571,1.168
0.441232475994,0.399708602604,-0.125632930468,-1.58448209366,0.065306313463,1.97600390636,0.124895181645,-0.192062150859,-0.922153236159,-0.00988931786917,-1.34326290138,-0.0876782722097,0.464159326493,-0.233894684295,0.573622597707,0.819102400536,0.00301989033759,0.0,0.819070104827,-0.573556736251,-0.0117294748924,0.0,-0.00787571422743,0.00920197091935,-0.999926645738,0.0,0.632029242902,0.222491456219,0.303922976705,1.0,-0.203436,-0.267373028571,1.183
0.437311119426,0.381481812968,-0.125862391224,-1.61156338518,0.063339820266,1.9852024825,0.120128744047,-0.217586761863,-1.00737947961,-0.00936967073433,-1.4552216396,-0.107462268785,0.477075486752,-0.265666542552,0.573592372322,0.819122886248,0.00319914661518,0.0,0.819093214047,-0.573526271122,-0.0116047376705,0.0,-0.00767105927752,0.00927696690421,-0.999927543742,0.0,0.628307620504,0.217566469444,0.304044590905,1.0,-0.22158,-0.291219428571,1.201
0.433608286669,0.365165794536,-0.126068923728,-1.63575704456,0.0615039265315,1.99323668527,0.115776294871,-0.241799497832,-1.02351887713,-0.0149274266432,-1.50481493167,-0.110267599218,0.494502496117,-0.269019345902,0.573581340601,0.819130387242,0.00325596549988,0.0,0.819101802659,-0.573515489614,-0.0115311298308,0.0,-0.00757829810151,0.00928118680893,-0.999928211908,0.0,0.62470784255,0.212814768951,0.304110963468,1.0,-0.237708,-0.312416228571,1.217
0.429458579754,0.347973386118,-0.126308492226,-1.66121956774,0.059536669587,2.00150509815,0.111039326398,-0.269808917708,-1.08304269649,-0.0138055608784,-1.57316802253,-0.125928562697,0.504909818318,-0.310870928291,0.573602107604,0.819116144919,0.00317965182647,0.0,0.8190866909,-0.573536636188,-0.0115527764034,0.0,-0.00763956594317,0.00923128511726,-0.999928207627,0.0,0.620824106829,0.207665716439,0.304105654341,1.0,-0.253836,-0.333613028571,1.233
0.424620165331,0.328759563002,-0.126552199626,-1.68928426101,0.057395985988,2.01060162908,0.105650383233,-0.292104524998,-1.13336709969,-0.00692205056769,-1.66949040572,-0.12183542494,0.533197204581,-0.315811050555,0.573636986426,0.819091043067,0.00334930928306,0.0,0.819063503543,-0.573570640968,-0.0115084266471,0.0,-0.00750552821881,0.00934513609899,-0.999928165159,0.0,0.616455733458,0.201895817766,0.304180899034,1.0,-0.270972,-0.356134628571,1.25
0.419051327215,0.307412542991,-0.126766777852,-1.72024151535,0.0548525748322,2.02044553249,0.0994558662868,-0.323023296007,-1.19787915204,-0.0109737964015,-1.73177384049,-0.12865575819,0.579854672048,-0.352021301339,0.573477243752,0.819202473505,0.00345039172596,0.0,0.819176516275,-0.573410967624,-0.011421221129,0.0,-0.00737794218933,0.00937647081332,-0.999928821349,0.0,0.611474688192,0.195453253594,0.304232329895,1.0,-0.289116,-0.379981028571,1.268
0.413883310089,0.288791697274,-0.126998004574,-1.74697421263,0.0525583716994,2.02861201612,0.093904752121,-0.354828284665,-1.26262202963,-0.0215976314347,-1.77848213838,-0.148641951637,0.570009541899,-0.380990581459,0.573400754613,0.819256231956,0.0033982218493,0.0,0.819229858739,-0.573334965222,-0.0114106575225,0.0,-0.00740007535462,0.00932698401295,-0.999929120615,0.0,0.607047226382,0.189676497932,0.304270410232,1.0,-0.304236,-0.399853028571,1.283
0.407102671251,0.265580749057,-0.127312865839,-1.78000859058,0.0497868983611,2.03857215741,0.0868012514663,-0.394575182553,-1.32612644944,-0.020872433301,-1.85486748121,-0.159741875661,0.552295440976,-0.397187510478,0.573390299495,0.81926326877,0.00346522586542,0.0,0.819237205166,-0.573323613171,-0.0114535214332,0.0,-0.00739689600787,0.00940636113974,-0.999928400587,0.0,0.601442308495,0.182377464578,0.304304458492,1.0,-0.32238,-0.423699428571,1.301
0.399944376688,0.242909694085,-0.127698623481,-1.8119392184,0.0468823385444,2.04797292384,0.0796296661902,-0.432754182683,-1.35479787,-0.0200142101239,-1.91378923783,-0.182774347624,0.546238002277,-0.44305878216,0.573513577287,0.819177035674,0.00345076710443,0.0,0.819151337982,-0.573447619197,-0.0113868529646,0.0,-0.00734915577075,0.00935739542727,-0.999929212025,0.0,0.595914909462,0.174976530038,0.304325926024,1.0,-0.339516,-0.446221028571,1.318
0.393237690854,0.222217982998,-0.127962358404,-1.84067777456,0.0443137255185,2.05625868859,0.0728021547957,-0.456049454585,-1.36852747039,-0.0169278926553,-1.95720112375,-0.171960439702,0.534527271784,-0.466052601407,0.573407852501,0.81925034051,0.00361402354853,0.0,0.819226292502,-0.573340862019,-0.0113703348375,0.0,-0.00724322276514,0.0094807249274,-0.999928823256,0.0,0.590769318291,0.16830666487,0.304383560537,1.0,-0.354636,-0.466093028571,1.333
0.38439068934,0.196623648581,-0.128330406732,-1.87568976584,0.0409340229678,2.06594106502,0.0640607582561,-0.499719074509,-1.44552344913,-0.0147974135535,-1.94279899017,-0.183169384399,0.528338110824,-0.501195195481,0.573322952511,0.819309305073,0.00371505670055,0.0,0.819286875412,-0.573256120398,-0.0112775486873,0.0,-0.00711025848123,0.00950955779515,-0.999929503783,0.0,0.584333131391,0.159842066316,0.304489821052,1.0,-0.37278,-0.489939428571,1.351
0.375159981516,0.17153592963,-0.128841315791,-1.90965384165,0.0376386909503,2.07504537938,0.0551658006119,-0.5559064141,-1.4827312002,-0.0261856279656,-2.01038049358,-0.188822192961,0.540724121294,-0.525497862244,0.573439684396,0.819227074838,0.00383081114276,0.0,0.819205969652,-0.573372314707,-0.0112478849167,0.0,-0.00701822592888,0.00958839153976,-0.999929401134,0.0,0.577925466557,0.151312305067,0.304547234726,1.0,-0.389916,-0.512461028571,1.368
0.365824711165,0.147377709631,-0.129281668517,-1.94206246338,0.0342733173269,2.08329820952,0.0462456171056,-0.588218931606,-1.54499810634,-0.0271085592453,-2.06742315493,-0.215773712596,0.520147556571,-0.567095196465,0.573399618831,0.819255627478,0.0037203322697,0.0,0.819233117267,-0.573332563807,-0.0112968027545,0.0,-0.00712211871359,0.00952558519305,-0.999929266824,0.0,0.571582808576,0.143012058817,0.304523887601,1.0,-0.406044,-0.533657828571,1.384
0.355018912111,0.121023242252,-0.129791502989,-1.97669598457,0.0305617600368,2.0917978437,0.0360925070693,-0.66211322351,-1.58550016292,-0.0383815274717,-2.03412120836,-0.22370787942,0.492799594389,-0.612648680695,0.573399168721,0.819255621163,0.00379043593862,0.0,0.819234231126,-0.573332226382,-0.0112329712728,0.0,-0.00702963112413,0.00954641505997,-0.999929722653,0.0,0.564633387542,0.13381734363,0.304594596025,1.0,-0.42318,-0.556179428571,1.401
0.343216155278,0.0939189115535,-0.130456868403,-2.01176864502,0.0266115761701,2.10000029617,0.0251890028151,-0.713407509508,-1.6199388763,-0.0379685096251,-2.06764526171,-0.240290008786,0.49654391597,-0.657852066578,0.57351423788,0.819174850834,0.00383791764321,0.0,0.819154688501,-0.573448008942,-0.0111231402278,0.0,-0.00691108356569,0.00952331087533,-0.999930769341,0.0,0.557395022344,0.124126710646,0.304659497179,1.0,-0.43998,-0.578259428571,1.418
0.331497084951,0.0682384497694,-0.130914192207,-2.04470027541,0.0229414888909,2.10722437793,0.0143044836011,-0.743199836445,-1.61585833221,-0.0312795364368,-2.05643988769,-0.231708025213,0.447434013819,-0.688671455317,0.573380631869,0.819268509166,0.00380890892836,0.0,0.819246830015,-0.573312929256,-0.0112988299774,0.0,-0.00707321503725,0.00959915165064,-0.999928910431,0.0,0.550313214215,0.114983667732,0.304607647322,1.0,-0.43998,-0.578259428571,1.434
0.318086752414,0.0412192322061,-0.131542617392,-2.07880653341,0.0187925416511,2.11403013816,0.00247364069684,-0.797944201945,-1.58431408369,-0.0309035486962,-1.99416365364,-0.250659094014,0.384105293571,-0.702370299411,0.573687557315,0.819055079396,0.00347999989238,0.0,0.819028620506,-0.573620041104,-0.0115288393987,0.0,-0.00744670015977,0.00946435344265,-0.999927483706,0.0,0.542759728414,0.104919607581,0.304518691142,1.0,-0.43998,-0.578259428571,1.451
0.303400809916,0.0128363658652,-0.132036648361,-2.11333181023,0.0145158814131,2.12070955633,-0.0105621250479,-0.836767163561,-1.58469048309,-0.035875406187,-1.87597112593,-0.253413281107,0.382637921569,-0.725450456355,0.573764430811,0.818999613107,0.00384168803021,0.0,0.818978330126,-0.573696553911,-0.0112918428909,0.0,-0.00704418739718,0.00962530237383,-0.999928863959,0.0,0.534916347665,0.0944958918499,0.304740213583,1.0,-0.43998,-0.578259428571,1.469
0.290598534275,-0.0104655491971,-0.132513894532,-2.14125082714,0.0109470437135,2.12573394317,-0.0218694196879,-0.855488243525,-1.58102503016,-0.0282325495486,-1.83810878405,-0.237889061422,0.345019577344,-0.766184234505,0.573879649906,0.818917538237,0.00411823898752,0.0,0.818900201212,-0.573811632998,-0.0111093290773,0.0,-0.00673466064404,0.00974803229692,-0.999929807643,0.0,0.528386636309,0.0857442311427,0.304891026512,1.0,-0.43998,-0.578259428571,1.484
0.274787519419,-0.0380195194599,-0.132938406004,-2.17383409246,0.00656722839412,2.13103114008,-0.0358402232715,-0.895798617648,-1.54032697216,-0.0285451174815,-1.81020109656,-0.249871269235,0.278977356039,-0.786093561941,0.573781194008,0.818985898848,0.00424096583458,0.0,0.818970630354,-0.573713654053,-0.0109770976612,0.0,-0.00655711443391,0.00977186680436,-0.999930755037,0.0,0.52047395711,0.0753931275755,0.304991972796,1.0,-0.43998,-0.578259428571,1.502
0.259114881421,-0.0635716154733,-0.133464852501,-2.20365888593,0.00254722678781,2.13533132299,-0.0495964523226,-0.923085044786,-1.48227290376,-0.0253694308278,-1.73499108554,-0.24378224361,0.239589714074,-0.825119688547,0.573884894162,0.818913047829,0.0042772945322,0.0,0.818897557312,-0.573816237862,-0.0110662864497,0.0,-0.00660807253382,0.00985363038517,-0.999929617196,0.0,0.512982533434,0.06551062468,0.304998193155,1.0,-0.43998,-0.578259428571,1.519
0.243857794159,-0.0872683736123,-0.133987797941,-2.23086299198,-0.0012926216857,2.13878926277,-0.0630441756521,-0.974711890543,-1.47156294577,-0.0406218989847,-1.67903381556,-0.232121778632,0.19395277424,-0.84868339363,0.573899644716,0.81890293327,0.0042344513216,0.0,0.818886377186,-0.57383031935,-0.0111630083508,0.0,-0.00671169294934,0.009874171137,-0.999928724421,0.0,0.505918366137,0.0562271545216,0.304980824117,1.0,-0.43998,-0.578259428571,1.535
0.22710432093,-0.112013706053,-0.134427200102,-2.25884011078,-0.00537229628228,2.14185244969,-0.0777954013287,-0.9992148355,-1.4317469577,-0.0296366646334,-1.66858354172,-0.242297973351,0.163619504991,-0.877229130742,0.573802904883,0.818971390772,0.00410296809248,0.0,0.818952430993,-0.573732888176,-0.0113241201352,0.0,-0.00692025591897,0.00985813852215,-0.99992746095,0.0,0.498397174638,0.046465176415,0.304921676182,1.0,-0.43998,-0.578259428571,1.552
0.208570134662,-0.1377247184,-0.135003045075,-2.28743413991,-0.00967277386384,2.14450007817,-0.0940435276212,-1.03630181524,-1.40853229348,-0.0250939349567,-1.58545933697,-0.237526497175,0.122410921243,-0.916378063085,0.573850249646,0.81893900819,0.003941921688,0.0,0.818917007421,-0.573779329517,-0.0115309529729,0.0,-0.00718149227395,0.00984533650762,-0.999925745002,0.0,0.490452094583,0.0360404821145,0.304822102385,1.0,-0.43998,-0.578259428571,1.57
0.192647956582,-0.158919307358,-0.135518994434,-2.31051037045,-0.0132427007018,2.1462748488,-0.108189362253,-1.08749430994,-1.38529941534,-0.0433723270705,-1.52797440932,-0.241773299946,0.0918822086823,-0.942870452038,0.573757852829,0.819004010144,0.00388646190503,0.0,0.818980690241,-0.573686296441,-0.0116365454781,0.0,-0.00730090803933,0.00985968643094,-0.999924738831,0.0,0.483827334774,0.0273879617053,0.304769741105,1.0,-0.43998,-0.578259428571,1.585
0.17403549181,-0.182544840665,-0.136034794643,-2.335817584,-0.0171975752823,2.14766740165,-0.12471969335,-1.11042113966,-1.38749777315,-0.0336755569139,-1.4921665421,-0.237180634429,0.0694666391068,-0.98662175031,0.573633402215,0.819091762814,0.00376176223352,0.0,0.819065222874,-0.573560154571,-0.0119019606683,0.0,-0.00759134717359,0.00990868158622,-0.999922091704,0.0,0.476285934945,0.0176613688083,0.30467990283,1.0,-0.43998,-0.578259428571,1.602
0.15455610925,-0.205778401119,-0.136721034468,-2.36020098681,-0.0211709550099,2.14858742338,-0.14196493767,-1.15531121087,-1.36400843374,-0.042013342833,-1.42965686699,-0.221877459313,0.0362477141025,-1.0322946966,0.573704562091,0.819042302078,0.00367828009396,0.0,0.819013361315,-0.573629918765,-0.0121069065748,0.0,-0.00780624741499,0.00995853981111,-0.999919941788,0.0,0.468763783644,0.00777382174429,0.304603482311,1.0,-0.43998,-0.578259428571,1.619
0.134454482335,-0.228659532016,-0.137435790757,-2.38358147856,-0.0251411025826,2.14899094509,-0.159793637088,-1.19293523183,-1.33436221958,-0.0440130726172,-1.35901528612,-0.241504738681,-0.000626191333753,-1.06076635764,0.573781519081,0.818988413336,0.00367342946584,0.0,0.818958811809,-0.57370612254,-0.0121859108135,0.0,-0.00787280236279,0.0100006303917,-0.999918999907,0.0,0.461267390425,-0.00208457589244,0.304600252373,1.0,-0.43998,-0.578259428571,1.636
0.113589628042,-0.251191947796,-0.138208129897,-2.40600539634,-0.0289222987261,2.14908550517,-0.178384020324,-1.25124845493,-1.30873589184,-0.0627348549776,-1.29640986853,-0.202816773384,-0.0198423329038,-1.11176476109,0.573939711789,0.818876271472,0.00395046239236,0.0,0.818849958054,-0.573862776882,-0.0121246197851,0.0,-0.00766168763539,0.0101938330121,-0.99991868885,0.0,0.453373303812,-0.012539588162,0.304665981346,1.0,-0.43998,-0.578259428571,1.654
0.0920763787499,-0.273252155694,-0.138883548167,-2.42749747346,-0.0328648014578,2.14887906982,-0.197703735107,-1.28658763148,-1.31383100139,-0.0433335258685,-1.25146552817,-0.243362772888,-0.000970639371645,-1.1638643352,0.573861334902,0.818930052544,0.00418141672794,0.0,0.818909052808,-0.573786752873,-0.0117248606976,0.0,-0.00720273793547,0.0101528396972,-0.999922517204,0.0,0.446403972244,-0.0217939870852,0.304775510258,1.0,-0.43998,-0.578259428571,1.67
0.0712323508721,-0.293396011301,-0.139601788305,-2.44681774421,-0.0362849957557,2.14797109931,-0.216559110642,-1.31453945868,-1.23969534177,-0.0465883768253,-1.16666220914,-0.210649892959,-0.0593260017924,-1.17779257494,0.573887582093,0.818910988431,0.00431080594391,0.0,0.818890584648,-0.573811029011,-0.0118262530834,0.0,-0.00721119944534,0.0103172168253,-0.999920773681,0.0,0.439372030821,-0.0310154348466,0.304803392044,1.0,-0.43998,-0.578259428571,1.686
0.0482980311986,-0.314360407409,-0.140361079235,-2.46644141074,-0.040013429676,2.14686521495,-0.237305311677,-1.36424321623,-1.21348633162,-0.0426294377451,-1.13051319277,-0.212583021558,-0.0828162090161,-1.23429641527,0.573908814814,0.818894992328,0.00451782241265,0.0,0.818878516918,-0.573833422727,-0.0115725707551,0.0,-0.00688437528698,0.0103413471864,-0.99992282798,0.0,0.431946933685,-0.0408638277905,0.304897899696,1.0,-0.43998,-0.578259428571,1.703
0.0246925521996,-0.334571134704,-0.141110661141,-2.48507031493,-0.043594027742,2.14534480476,-0.258799892182,-1.39833963752,-1.17377159824,-0.033380789108,-1.10005389788,-0.213004260846,-0.0957701354745,-1.2809300813,0.573911531005,0.818892290882,0.00466019475714,0.0,0.818878032317,-0.573836299946,-0.0114636797789,0.0,-0.00671345933453,0.0103954692708,-0.99992342891,0.0,0.424524098447,-0.0506711377031,0.304946645201,1.0,-0.43998,-0.578259428571,1.72
0.00181317851268,-0.353034150068,-0.141899168321,-2.50175638657,-0.0469230368623,2.14347819552,-0.279789003297,-1.44303901132,-1.16068271063,-0.038848725844,-1.00485600013,-0.203772436485,-0.120902813041,-1.31953752225,0.573907301757,0.818894922811,0.0047181867683,0.0,0.818881197312,-0.573831571767,-0.0114742683221,0.0,-0.00668890432497,0.010449001978,-0.999923035497,0.0,0.417494016276,-0.0599283715579,0.30498346788,1.0,-0.43998,-0.578259428571,1.736
-0.0247083206473,-0.372967458662,-0.142798853187,-2.51971278378,-0.050608232767,2.14117603124,-0.304266775381,-1.48285095086,-1.09227980411,-0.0462794560836,-0.974165679921,-0.213002517656,-0.143093505518,-1.37066580496,0.573860732034,0.818927935764,0.0046522204753,0.0,0.818912305711,-0.57378358251,-0.0116525919326,0.0,-0.00687339766095,0.010496927631,-0.999921282359,0.0,0.409525890639,-0.0703378403955,0.304901566384,1.0,-0.43998,-0.578259428571,1.754
-0.0520554345344,-0.392163491789,-0.143683044858,-2.53644929796,-0.0540512298214,2.13862329974,-0.329519620074,-1.53429307192,-1.0433040095,-0.0409138434661,-0.920453428547,-0.199124094993,-0.152958613071,-1.40735607794,0.573959682065,0.818857769984,0.00479403819339,0.0,0.818843583009,-0.57388146291,-0.0116619035154,0.0,-0.00679836154421,0.0106192342985,-0.999920503912,0.0,0.401606124408,-0.0807349789148,0.304925271855,1.0,-0.43998,-0.578259428571,1.772
-0.0770399816942,-0.408401914119,-0.144512897605,-2.55049192271,-0.0570719770649,2.13606603357,-0.352807730955,-1.56684591953,-0.985461741642,-0.0370693110264,-0.854896287003,-0.199283000265,-0.163356478835,-1.46982759227,0.573968631638,0.81885165409,0.00476711553385,0.0,0.818835605907,-0.573888161956,-0.0118901205113,0.0,-0.00700058845949,0.0107282466885,-0.999917944876,0.0,0.39450153583,-0.0899855253197,0.304870015476,1.0,-0.43998,-0.578259428571,1.788
-0.10426579629,-0.424807252883,-0.14534314857,-2.56419469131,-0.0601127053484,2.13345151523,-0.378326863003,-1.61375471064,-0.920699639364,-0.0330597252972,-0.813709495932,-0.191041210674,-0.166375711781,-1.51409030392,0.573963383647,0.818854233187,0.0049523656273,0.0,0.818841506273,-0.57388372399,-0.0116964030365,0.0,-0.00673569679381,0.0107687169244,-0.999919329308,0.0,0.387087782251,-0.0998211209731,0.304946381037,1.0,-0.43998,-0.578259428571,1.805
-0.132102642326,-0.440220870558,-0.146140531241,-2.57711722671,-0.063032771035,2.13050103799,-0.404562144187,-1.65533932286,-0.889890066815,-0.0260356379674,-0.730946068676,-0.178443188493,-0.174150444785,-1.546303713,0.573913883776,0.818889208323,0.0049056500503,0.0,0.818873990947,-0.573831423478,-0.0119846268424,0.0,-0.00699920019187,0.010895462743,-0.999916146528,0.0,0.379552156996,-0.109583613902,0.304876384644,1.0,-0.43998,-0.578259428571,1.822
-0.157215313293,-0.453061654399,-0.146866705046,-2.58740757262,-0.0654577459565,2.12817563701,-0.428375008734,-1.66827888372,-0.835180830642,-0.0302388752071,-0.679976227284,-0.161889197542,-0.154885150446,-1.60517715129,0.573898040048,0.818898918656,0.00513298683402,0.0,0.818888383415,-0.573817568864,-0.0116601918184,0.0,-0.00660324757829,0.0108953142903,-0.999918841331,0.0,0.373052404527,-0.118250517887,0.304986489806,1.0,-0.437292,-0.574726628572,1.837
-0.185985216338,-0.466180657992,-0.147340294635,-2.59818717784,-0.0679027236878,2.12531215924,-0.455724358633,-1.70361244251,-0.745609124437,-0.0129510528248,-0.615250793757,-0.138940394798,-0.162090055747,-1.60285464723,0.573745143049,0.819006449822,0.00506881435766,0.0,0.818993030296,-0.573661593192,-0.0119808064778,0.0,-0.0069047065964,0.0110254654316,-0.999915378489,0.0,0.36567457473,-0.127817111204,0.304890446273,1.0,-0.420156,-0.552205028572,1.854
-0.216296950221,-0.478559851347,-0.147686583022,-2.60786512833,-0.0700473272102,2.12265439285,-0.48428836969,-1.67073185143,-0.657117039338,-0.0126151633974,-0.509838330267,-0.109199018962,-0.142674462373,-1.5762364231,0.573943490674,0.818866080479,0.00528759440336,0.0,0.818856446825,-0.57386066181,-0.011781647627,0.0,-0.00661337651822,0.0110919942856,-0.99991661198,0.0,0.358254812868,-0.137699164012,0.304981717727,1.0,-0.402012,-0.528358628572,1.872
-0.242733388781,-0.488193923201,-0.147748146225,-2.6154500312,-0.0715747093053,2.12040891022,-0.509353753514,-1.63962031971,-0.568568172228,-0.00247956487908,-0.4571886922,-0.0849173973063,-0.138817607459,-1.56099052473,0.574006871482,0.818820625168,0.00544446440621,0.0,0.818812459909,-0.573922516535,-0.0118257098166,0.0,-0.00655856066453,0.0112462505134,-0.999915249974,0.0,0.351873184282,-0.14606092478,0.304986800431,1.0,-0.385884,-0.507161828572,1.888
-0.271852607615,-0.497535285223,-0.147579629539,-2.62274948479,-0.0728692551698,2.11817001258,-0.536997148902,-1.58991019809,-0.49170613053,0.0120655787953,-0.371606189537,-0.0657636449688,-0.102823907804,-1.51529370004,0.574101823714,0.818752447116,0.00568095513428,0.0,0.818746786918,-0.574015599344,-0.0118548522457,0.0,-0.00644535651319,0.0114573766469,-0.999913589216,0.0,0.345014846654,-0.155057797051,0.304990902167,1.0,-0.36774,-0.483315428572,1.906
-0.298477582151,-0.504945208448,-0.147256754227,-2.62849673907,-0.073930948864,2.11630158011,-0.562332600049,-1.54416397633,-0.405412545055,0.0182651578113,-0.313267621474,-0.0512986315672,-0.102614069073,-1.47647582227,0.574123197676,0.818736787126,0.00577704049218,0.0,0.818732168935,-0.574036239258,-0.0118650103542,0.0,-0.00639821304386,0.0115420487974,-0.999912918198,0.0,0.338864531354,-0.163147648217,0.304992148354,1.0,-0.350604,-0.460793828572,1.923
-0.321321262583,-0.510554005053,-0.146930783709,-2.63267270142,-0.0746524363752,2.11495825328,-0.584084901292,-1.49707580575,-0.346914616029,0.0207881771894,-0.263788641323,-0.037585191001,-0.0848011418578,-1.41841173576,0.574219339375,0.818668127252,0.0059493369238,0.0,0.818667044279,-0.574134142591,-0.011619114626,0.0,-0.00609659873588,0.0115426686316,-0.999914795512,0.0,0.333712680189,-0.170031600703,0.305069755895,1.0,-0.335484,-0.440921828572,1.938
-0.34637234441,-0.515813430888,-0.146351097591,-2.6368120914,-0.0751878137232,2.11342084952,-0.607982651642,-1.44752594663,-0.281881726099,0.0315299244832,-0.223366556459,-0.0213253683094,-0.0699357260098,-1.38791151101,0.574268779859,0.818632739156,0.00604597072513,0.0,0.818631399061,-0.574180363735,-0.0118443773303,0.0,-0.00622483723483,0.0117515038439,-0.99991157287,0.0,0.328046785125,-0.177386434028,0.305016303709,1.0,-0.318348,-0.418400228572,1.955
-0.371746280871,-0.520273995069,-0.145556981155,-2.64033494139,-0.0756339478946,2.11216171867,-0.632243917544,-1.38042913336,-0.218118464554,0.0384549867965,-0.173153248965,-0.0180192117441,-0.0611403562299,-1.33492660397,0.574209517855,0.818674299317,0.00604715996596,0.0,0.818672342025,-0.574119919761,-0.0119440796612,0.0,-0.00630663747551,0.0118092742005,-0.999910379667,0.0,0.322409796568,-0.18474067214,0.304971124858,1.0,-0.300204,-0.394553828572,1.973
-0.393261406337,-0.523379124134,-0.144729970781,-2.64273349746,-0.075863062362,2.11122893959,-0.652876929912,-1.31676051835,-0.177114766729,0.0626681774634,-0.135232765436,-0.0148307280369,-0.0532952714972,-1.27219191114,0.574100712571,0.818750761029,0.00602578131292,0.0,0.818748336641,-0.574010871683,-0.0119761153528,0.0,-0.00634671176911,0.0118093221508,-0.999910125541,0.0,0.317710191054,-0.190909562684,0.304963391424,1.0,-0.284076,-0.373357028572,1.989
-0.416347926836,-0.525997720109,-0.143808498476,-2.64478978114,-0.0759347833659,2.11043576755,-0.675017681149,-1.25137262533,-0.131397718938,0.0645471258075,-0.102591241076,-0.00857734934555,-0.0402364403423,-1.20996012191,0.574066953892,0.818774230317,0.00605302561223,0.0,0.818771918388,-0.573976556168,-0.0120085606713,0.0,-0.00635812763918,0.0118499933869,-0.999909571846,0.0,0.31271784878,-0.197491375828,0.304945042762,1.0,-0.265932,-0.349510628572,2.007
-0.435810137292,-0.527675505133,-0.142990538464,-2.64616971653,-0.0759298312036,2.10989339686,-0.693702145731,-1.21384032816,-0.0925909527569,0.0397128934175,-0.0774910689708,-0.00223156883025,-0.0320228326484,-1.15407115362,0.57404434693,0.818790114169,0.00604843764389,0.0,0.818787259972,-0.573953077224,-0.0120844922443,0.0,-0.00642326705403,0.0118896470565,-0.999908684797,0.0,0.308521452868,-0.203004749041,0.304907104574,1.0,-0.249804,-0.328313828572,2.023
-0.454089819358,-0.528887678382,-0.142040335351,-2.64717371971,-0.0758643666271,2.10947339869,-0.711283946911,-1.11447501106,-0.0685543753411,0.0659209322258,-0.0601634387252,0.00382839456169,-0.0216813563401,-1.08034773415,0.573912392257,0.81888320481,0.00596739430601,0.0,0.818879092654,-0.573821130622,-0.0121280075147,0.0,-0.00650733000034,0.0118472163365,-0.999908644888,0.0,0.304613258438,-0.208118841358,0.304883287225,1.0,-0.233676,-0.307117028572,2.039
-0.472565263883,-0.529694410222,-0.141086526327,-2.64785643409,-0.0757531447726,2.1091137187,-0.72885462015,-1.06154845788,-0.0319743724821,0.0598814828069,-0.0293631914807,0.0186033114624,-0.0184145504773,-1.01732745853,0.573986908981,0.818831625544,0.00587743394224,0.0,0.818825976498,-0.573895370507,-0.0122012632252,0.0,-0.00661787548504,0.0118161884496,-0.999908286502,0.0,0.300668548456,-0.213283310698,0.304862362988,1.0,-0.21654,-0.284595428572,2.056
-0.490712125933,-0.530159173214,-0.140041717057,-2.64823269057,-0.0754982953002,2.10889699653,-0.746172427726,-0.982642098778,-0.018106904969,0.0556796174412,-0.0152370559727,0.0126632387902,-0.00974154793549,-0.92946275948,0.57401504113,0.818812254875,0.00582844101556,0.0,0.818806213607,-0.573924151273,-0.0121737441053,0.0,-0.00662305531237,0.0117605023686,-0.999908908712,0.0,0.29683222119,-0.218317900661,0.304870484003,1.0,-0.198396,-0.260749028572,2.074
-0.504600370409,-0.530276486974,-0.139007582362,-2.64834156434,-0.0751060084917,2.10879204227,-0.75957274199,-0.911327252346,-0.00702859444455,0.0655954887483,-0.0083023180201,0.0363762581454,-0.00542994560408,-0.871089728682,0.573846043132,0.818930786123,0.00581663329542,0.0,0.818924774286,-0.573755564407,-0.0121455042602,0.0,-0.00660912887848,0.0117332605717,-0.999909320895,0.0,0.293948473228,-0.222090232127,0.304882589977,1.0,-0.183276,-0.240877028572,2.089
-0.520171501764,-0.530204478279,-0.137869862979,-2.64832217641,-0.0746066723788,2.10876247477,-0.774319577354,-0.834660228332,0.0114518927049,0.0739287622903,0.00324467057878,0.023810300881,-0.000628976418752,-0.796735144156,0.573932765851,0.818869841779,0.0058403260474,0.0,0.818864455868,-0.573842733857,-0.0120940735948,0.0,-0.00655216961499,0.01172384624,-0.999909806184,0.0,0.290705337653,-0.22631311611,0.304892997697,1.0,-0.165132,-0.217030628572,2.107
-0.533334541635,-0.529938647798,-0.136640937018,-2.64819382025,-0.0740264796793,2.10877415584,-0.786954794527,-0.748571359132,0.018707292361,0.0686522235431,0.00971471525333,0.0343827344818,0.000262871692631,-0.713264982723,0.573753350164,0.818995550852,0.00584189703013,0.0,0.818990142922,-0.573663272011,-0.0120972328585,0.0,-0.00655642435519,0.0117255097163,-0.999909758789,0.0,0.288009512085,-0.229792947126,0.304887937052,1.0,-0.147996,-0.194509028572,2.124
-0.544777887181,-0.529571593919,-0.135614379726,-2.64797446614,-0.0734775879953,2.10879148223,-0.797680357769,-0.681144715141,0.0259795905216,0.0666695186557,0.0148608338885,0.0370909119086,0.000646599796803,-0.65089682881,0.573863903238,0.818917776719,0.00588578240741,0.0,0.818912711131,-0.573773203899,-0.0121255489127,0.0,-0.00655284949042,0.0117785836306,-0.99990915844,0.0,0.285652501107,-0.232821147432,0.304882210644,1.0,-0.131868,-0.173312228572,2.14
-0.555416732066,-0.529048603442,-0.134380327667,-2.64768554616,-0.0728234459544,2.10890323982,-0.807851298402,-0.609967076832,0.0321129307701,0.0621786522531,0.0149654325208,0.0338192736541,0.00281382053812,-0.567192655171,0.573672299143,0.819051946102,0.00589488616223,0.0,0.819046856214,-0.573581342961,-0.0121423735166,0.0,-0.006564164318,0.0117941583853,-0.999908900638,0.0,0.283532105794,-0.235563401327,0.304864365634,1.0,-0.114732,-0.150790628572,2.157
-0.565071750947,-0.528508680611,-0.133311960828,-2.64736833653,-0.0722215578575,2.10899999584,-0.816703645722,-0.546715234541,0.0365331465838,0.0618250751397,0.018334134688,0.0335122073259,0.00306742535786,-0.502267337121,0.57385070222,0.818926733433,0.00592652780223,0.0,0.818921807972,-0.57375912435,-0.0121772966376,0.0,-0.00657204088736,0.0118415410758,-0.999908288886,0.0,0.281586825721,-0.238057878552,0.304847271636,1.0,-0.0975960000001,-0.128269028572,2.174
-0.572865454085,-0.527980160051,-0.132248362933,-2.64700272754,-0.0716382683811,2.10911529014,-0.823893153192,-0.451875261362,0.0320551738006,0.0743598199297,0.0226974708919,0.0409217946582,0.00443385336609,-0.434582703357,0.573864027638,0.818917425576,0.00592239587524,0.0,0.818912662065,-0.573772854345,-0.0121453870796,0.0,-0.00654808520486,0.0118199532894,-0.999908701474,0.0,0.280079754698,-0.240032639583,0.304857458848,1.0,-0.0814680000001,-0.107072228572,2.19
-0.580177765662,-0.527408719222,-0.131045678237,-2.64666838083,-0.0709395611915,2.10919709549,-0.830533301762,-0.385388964121,0.0324769548537,0.060332966601,0.0155723098195,0.0367592039266,0.00371760615659,-0.337375996748,0.573882244334,0.818904507973,0.00594334594839,0.0,0.818899511931,-0.573790062671,-0.0122188477762,0.0,-0.00659596367472,0.0118794115969,-0.99990768216,0.0,0.278698741858,-0.241806863108,0.304838106411,1.0,-0.0633240000001,-0.0832258285716,2.208
-0.585918970738,-0.526989981352,-0.129885408524,-2.64637946465,-0.0702946620296,2.10928910084,-0.835510760378,-0.311160270045,0.02584923885,0.0669294022059,0.0186539132089,0.0434261138543,0.00812263279737,-0.263953207088,0.573979146807,0.81883669539,0.00592893032662,0.0,0.818831743311,-0.573887427222,-0.0121878596965,0.0,-0.00657745482286,0.0118506018261,-0.999908145944,0.0,0.277670165629,-0.243145175426,0.304853347484,1.0,-0.0461880000001,-0.0607042285716,2.225
-0.589792303554,-0.526627005316,-0.128870849073,-2.64616039671,-0.0696625415375,2.10941278668,-0.838825020096,-0.238681327941,0.0217296070682,0.0612724945055,0.0128318971004,0.0414396772542,0.00771133012806,-0.199067764073,0.573998339538,0.818823004168,0.00596162346077,0.0,0.818818759373,-0.573906980713,-0.0121393447123,0.0,-0.00651868289031,0.011849680977,-0.999908541735,0.0,0.27702034719,-0.244031456173,0.30486139782,1.0,-0.0300600000001,-0.0395074285716,2.241
-0.593126787919,-0.526315337443,-0.12765577363,-2.64599317968,-0.0689561390422,2.109436355,-0.841535619515,-0.161752300874,0.0186390712823,0.0592841126059,0.0049272911664,0.0350097935431,-0.000103456224236,-0.130236031612,0.573964870451,0.818846448506,0.0059639045962,0.0,0.818841736709,-0.57387260799,-0.0122142098876,0.0,-0.00657916757273,0.0118942503941,-0.999907616413,0.0,0.276579230519,-0.244594670242,0.304850075057,1.0,-0.01984,-0.0260754285714,2.258
-0.595397682154,-0.526158695802,-0.126840753955,-2.64588209788,-0.0684936654354,2.10944110497,-0.843391207606,-0.121458805215,0.0128218020801,0.0481638435856,0.00456948758474,0.0224356724187,0.000329365763365,-0.107369850492,0.573932168207,0.818869417111,0.00595742543517,0.0,0.81886460975,-0.573839921801,-0.0122164621361,0.0,-0.00658520546831,0.0118899743745,-0.999907627523,0.0,0.276252251118,-0.245013213889,0.304863630591,1.0,-0.0195,-0.0256285714286,2.275
-0.597118606424,-0.525996511007,-0.126262396236,-2.64570273411,-0.0682918291968,2.10949302693,-0.844940921976,-0.0979309585008,0.0112229949922,0.0276600471684,0.0124653508437,0.0126884858452,0.00219280853649,-0.0816387157129,0.573758963903,0.818991665841,0.00583519719772,0.0,0.818985993687,-0.573668597183,-0.0121255783916,0.0,-0.0065834050065,0.0117363300308,-0.999909454569,0.0,0.276013539126,-0.245383710259,0.304904231936,1.0,-0.01918,-0.025208,2.291
-0.598723425483,-0.525772269767,-0.125939887357,-2.64550496406,-0.0681243764957,2.10962086451,-0.846485561749,-0.0937027725268,0.0146499191396,0.00697661856713,0.00645587252003,0.0120520797751,0.00656296846181,-0.0896075193196,0.573667881559,0.819055625217,0.00581303440233,0.0,0.819050433476,-0.57357900003,-0.0120110386184,0.0,-0.00650359949988,0.0116517397587,-0.999910966114,0.0,0.275743164496,-0.24582193418,0.304928304984,1.0,-0.01882,-0.0247348571429,2.309
-0.600488135647,-0.525554092275,-0.125797303037,-2.64536728452,-0.0680114681109,2.10963534623,-0.848151350932,-0.0907872186751,0.0110201412394,0.0075734958828,0.0040362995195,0.00329366125488,-0.000511432718255,-0.0921405388312,0.573697895309,0.819034464029,0.00583254239251,0.0,0.819029202004,-0.573608346784,-0.0120572660931,0.0,-0.00652984719267,0.0116944758771,-0.999910296141,0.0,0.275398339342,-0.246271343454,0.304918122042,1.0,-0.01846,-0.0242617142857,2.327
-0.601836001218,-0.525429727803,-0.125744544332,-2.64528302392,-0.0679803964478,2.10964550722,-0.849385538024,-0.0920885583617,0.00833759134577,0.002158278,0.00655646761288,0.0049396108443,-0.000252885167079,-0.0886686338765,0.573771510009,0.818982862012,0.00583720259468,0.0,0.818977522185,-0.573681679177,-0.0120787430623,0.0,-0.00654371336325,0.0117112018403,-0.999910009734,0.0,0.275098712707,-0.246647126051,0.304913005011,1.0,-0.01816,-0.0238674285714,2.342
-0.603267603171,-0.525259527883,-0.125694561261,-2.6451427225,-0.0679457912092,2.10965108503,-0.85084465893,-0.0825005381224,0.0066245150825,0.00153502426194,0.00592959966688,0.00452606557035,-6.18594304014e-05,-0.0832935483344,0.573735807574,0.819007829802,0.00584334939991,0.0,0.819002461445,-0.573645763794,-0.0120934994724,0.0,-0.00655278428937,0.0117244169592,-0.999909795464,0.0,0.274789290616,-0.247058231912,0.304916104529,1.0,-0.01782,-0.0234205714286,2.359
-0.604631393442,-0.525103766114,-0.125696786306,-2.64500586474,-0.0679151533245,2.10967941012,-0.852145360946,-0.0759405445378,0.00940483169126,-0.00131395600638,0.0014707586804,0.00357661709653,-8.28206752456e-05,-0.0759193884075,0.573809281571,0.818956168401,0.00586937145609,0.0,0.818951228699,-0.573719274115,-0.0120758611519,0.0,-0.00652235502337,0.0117361961357,-0.99990985623,0.0,0.274488191209,-0.247464960827,0.304923615622,1.0,-0.01748,-0.0229737142857,2.376
-0.605992628274,-0.524986042707,-0.125705885887,-2.64487535727,-0.0678938831534,2.10969622517,-0.853522880751,-0.0821755812833,0.00594883831531,0.00023953120826,0.0102241936911,-0.0001507182808,0.00107346567181,-0.0744734672325,0.573818141815,0.81894978775,0.00589340058511,0.0,0.818945377068,-0.573728422343,-0.0120380096565,0.0,-0.00647743874393,0.0117342274168,-0.999910171313,0.0,0.274182374869,-0.24787067846,0.304941022581,1.0,-0.01714,-0.0225268571429,2.393
-0.607339204985,-0.524925086516,-0.125705542794,-2.64478237986,-0.0678728777921,2.10970690823,-0.854798295942,-0.0783530164385,0.00352777625774,-0.00062637067402,0.00366160890235,-1.88345646559e-05,-5.94800988889e-06,-0.0805854089233,0.573889786071,0.818899422721,0.00591572582948,0.0,0.81889560872,-0.573800516874,-0.0119873164797,0.0,-0.0064220836516,0.0117239861173,-0.999910648504,0.0,0.273872840019,-0.248260745385,0.304961876899,1.0,-0.0168,-0.02208,2.41
-0.608558702974,-0.524815642583,-0.125702815173,-2.64469864838,-0.0678527712975,2.10973046504,-0.856007043449,-0.0784459228767,0.00557609732835,-0.000177327673482,0.0032612069727,0.00162609597873,-7.84822625819e-05,-0.0698101130424,0.573909682264,0.818885338688,0.0059351147152,0.0,0.818881789379,-0.573820352753,-0.0119818483503,0.0,-0.00640619366402,0.0117368821092,-0.999910599144,0.0,0.27359354718,-0.248613880417,0.30496190738,1.0,-0.01648,-0.0216594285714,2.426
-0.609776430572,-0.524665861722,-0.125679401542,-2.6445875126,-0.0678252097837,2.10975173537,-0.857256068455,-0.0686824672915,0.0146582416862,0.00612846227372,0.0062153188268,0.000812193437087,0.00173650345893,-0.0711843650474,0.573885177957,0.818902417404,0.00594812506699,0.0,0.818898959059,-0.57379565672,-0.0119910835006,0.0,-0.0064066422846,0.0117526447892,-0.999910411124,0.0,0.273324419637,-0.24896660019,0.304959904733,1.0,-0.01614,-0.0212125714286,2.443
-0.610871684556,-0.524506109519,-0.125622288089,-2.64447759881,-0.0678052076098,2.10978364448,-0.858380085478,-0.0672068628363,0.00570893662059,0.00234279007254,0.00706680641933,0.00231481424033,0.00296842069927,-0.0664617061312,0.57383568209,0.81893719175,0.00593572493881,0.0,0.818933511806,-0.573746111534,-0.0120020682817,0.0,-0.00642346466267,0.0117484053014,-0.999910353019,0.0,0.273092947513,-0.249279765577,0.304955389207,1.0,-0.01582,-0.020792,2.459
-0.612090815643,-0.524308728236,-0.125503621456,-2.64437393344,-0.0677808405623,2.10981461298,-0.859674848431,-0.0715069729691,0.00978667069792,0.00932163594286,0.00362228686085,0.00123315747081,-0.000376830932474,-0.0665515596122,0.573706004695,0.819028306968,0.00589910702226,0.0,0.819023830332,-0.573616030345,-0.0120566156432,0.0,-0.00649101211743,0.0117486882184,-0.999909913486,0.0,0.272840871221,-0.24960994857,0.304935612927,1.0,-0.01546,-0.0203188571429,2.477
-0.613161566921,-0.5241301481,-0.125414812439,-2.64428594842,-0.067762178246,2.10983108893,-0.860802576241,-0.0641414534337,0.0142357000903,0.00468763347501,0.00298245406319,-3.07251792833e-05,-4.51414198463e-05,-0.0669728378149,0.573609448861,0.81909611689,0.00587353167555,0.0,0.81909089052,-0.57351885229,-0.012123779756,0.0,-0.00656208611523,0.0117654974369,-0.99990925193,0.0,0.272613104519,-0.249901196284,0.30491364121,1.0,-0.01514,-0.0198982857143,2.493
-0.6142649438,-0.523948362412,-0.125382586656,-2.64420016983,-0.0677422352125,2.10985246871,-0.861928473451,-0.0692984413295,0.0125329518794,0.00269666807143,0.00835557652373,9.62912036899e-06,-0.00061224459166,-0.0697522444698,0.573581588883,0.819115598693,0.00587739516136,0.0,0.81910996948,-0.573490170498,-0.0121913552428,0.0,-0.00661562826674,0.0118071972072,-0.999908407584,0.0,0.272365379715,-0.250213740702,0.304888556178,1.0,-0.0148,-0.0194514285714,2.51
-0.61539424753,-0.523790179034,-0.125376452228,-2.64411027855,-0.0677175940234,2.10986835259,-0.86308710764,-0.0697717531801,0.0143128647585,0.00031023377065,0.00794311624625,0.003396922945,-0.00114627013533,-0.0645346929608,0.573568693408,0.819124475238,0.00589872096882,0.0,0.819118799678,-0.573476603407,-0.0122361865186,0.0,-0.00664030924189,0.0118502749079,-0.999907734382,0.0,0.272106383136,-0.250539116197,0.304872903934,1.0,-0.01446,-0.0190045714286,2.527
-0.616469611368,-0.523680236731,-0.125393535849,-2.64404385386,-0.0677002127843,2.10988825065,-0.86407676225,-0.0695241200053,0.00542568511246,-0.00124901045692,0.00292643304304,-0.000479468968942,0.00120575038439,-0.0599807874419,0.57366202758,0.819058918573,0.00592561562298,0.0,0.819053458288,-0.573569553901,-0.0122534160398,0.0,-0.00663764477617,0.0118829442422,-0.999907364363,0.0,0.271851234719,-0.250851009814,0.304864064067,1.0,-0.01414,-0.018584,2.543
-0.617600163431,-0.52361413082,-0.125394259844,-2.6439378531,-0.0676797190229,2.10989335132,-0.86510501433,-0.063352572868,0.0002448816828,-2.68357202266e-05,0.0022739532398,0.000168819938672,0.000682918585807,-0.0569729727557,0.573760340929,0.818989919903,0.00594383502335,0.0,0.818985027591,-0.573668357927,-0.0122019095263,0.0,-0.00658357758226,0.0118691121776,-0.999907886099,0.0,0.271593553553,-0.25118221728,0.304888416466,1.0,-0.0138,-0.0181371428571,2.56
-0.618733206755,-0.523557417195,-0.12539110899,-2.64377518694,-0.0676592583632,2.10992330867,-0.866259380385,-0.0575667401182,0.00700580938912,0.00050228625044,0.00984167869267,0.000556165980576,0.00472731307033,-0.0548668709677,0.573757238365,0.818992027787,0.00595287713299,0.0,0.818988172308,-0.573666883744,-0.0120593124029,0.0,-0.00646163665093,0.0117946808282,-0.999909562288,0.0,0.271353342866,-0.251530611583,0.304944181783,1.0,-0.01344,-0.017664,2.578
-0.619644012316,-0.523474192358,-0.125368370233,-2.64362860805,-0.0676437148041,2.10999772784,-0.867191175865,-0.0546798563251,0.00748064560094,0.00530824601395,0.00934826611394,0.000560007030447,0.00735552397152,-0.0614097750223,0.573737802146,0.819005712208,0.00594345529521,0.0,0.819002658236,-0.57364918503,-0.0119165942105,0.0,-0.00635042270745,0.0117049316135,-0.999911329422,0.0,0.271175153905,-0.251816234793,0.304987168256,1.0,-0.01314,-0.0172697142857,2.593
-0.6206267008,-0.523348702088,-0.125324504635,-2.64344466697,-0.0676251883088,2.1100545099,-0.868174338394,-0.0540134241138,0.00946263711955,0.00135153925912,0.0106412166771,0.000297488847249,0.000361024451216,-0.0636404023889,0.573723444682,0.819015912116,0.0059238183391,0.0,0.819013386288,-0.573636354422,-0.0117963073409,0.0,-0.00626336644931,0.0116197283156,-0.999912872282,0.0,0.270988261598,-0.252122433946,0.30503062396,1.0,-0.0128,-0.0168228571429,2.61
-0.621650746531,-0.523210166011,-0.125267197418,-2.6432682271,-0.0676013560628,2.11007590683,-0.869217480406,-0.053182425087,0.00255665688438,0.00406319019861,0.0080183012607,0.000893822196966,0.00120715866767,-0.061432481853,0.573686303904,0.819042053602,0.00590644110412,0.0,0.81903972907,-0.573600077637,-0.011731156842,0.0,-0.0062204954789,0.0115678366476,-0.999913741575,0.0,0.270786077716,-0.252429260004,0.305063177625,1.0,-0.01244,-0.0163497142857,2.628
-0.622535514053,-0.523088854959,-0.125242423936,-2.64314823562,-0.0675880655681,2.11008811599,-0.870113440445,-0.0565035058864,0.00773263921373,0.000747257189151,0.0104204784033,-0.000264952870709,0.00146171135529,-0.0508275482766,0.573671448379,0.81905249173,0.00590186471582,0.0,0.819050211136,-0.573585433655,-0.0117153249176,0.0,-0.00621036200154,0.0115548934228,-0.999913954219,0.0,0.270596558623,-0.252691514689,0.305074824876,1.0,-0.01212,-0.0159291428571,2.644
-0.623547005747,-0.522968672562,-0.125218965395,-2.64298404024,-0.0675725775068,2.11011703993,-0.871094723838,-0.0524092812789,0.00429173641737,0.0025995583026,0.0165513413113,0.000230818440246,0.00293387538068,-0.0522739862719,0.573694415773,0.819036461228,0.00589401319385,0.0,0.819034574947,-0.573609349488,-0.0116372730212,0.0,-0.00615060825791,0.011503860623,-0.999914911984,0.0,0.270387803485,-0.253001310557,0.305108375826,1.0,-0.01174,-0.0154297142857,2.663
-0.624235038996,-0.522930334011,-0.125199607835,-2.64286379384,-0.0675630814173,2.11017079425,-0.871761123073,-0.0549604687054,0.00436911149837,0.00396227571412,0.00688524594408,0.000501329280917,0.00898222197056,-0.0555849363799,0.57370824969,0.819026861404,0.00588144861999,0.0,0.819025678973,-0.573624850699,-0.011498467087,0.0,-0.00604392468699,0.0114140426316,-0.999916591824,0.0,0.270254746965,-0.253218780771,0.30515402377,1.0,-0.01148,-0.015088,2.676
-0.625124779614,-0.52293429829,-0.12517206063,-2.64266972184,-0.067554184232,2.11025305143,-0.872667227395,-0.0558408765456,0.000409879358409,0.00121593160827,0.0112510150636,-0.000407339701642,0.00853990185629,-0.0489839600991,0.573688142218,0.819041137247,0.00585473110914,0.0,0.81904133553,-0.573608116297,-0.0112145670096,0.0,-0.00582698262178,0.0112291470962,-0.999919973062,0.0,0.270095009396,-0.253511962552,0.305251417935,1.0,-0.01114,-0.0146411428571,2.693
-0.626102227609,-0.52300823025,-0.125140894556,-2.64230055423,-0.0675449034438,2.11042456781,-0.873619595424,-0.0495134460978,-0.00449703631386,0.00325126694752,0.0241811339346,0.00254949767645,0.00767107266842,-0.0467654912713,0.573707395108,0.819028068693,0.0057960669746,0.0,0.819031068381,-0.57363449547,-0.0105981854788,0.0,-0.0053554905395,0.0108276247759,-0.99992703797,0.0,0.269970615426,-0.253885047362,0.305461924234,1.0,-0.01076,-0.0141417142857,2.712
-0.626874722219,-0.523087512096,-0.125131554743,-2.64195311424,-0.0675326807145,2.11052062328,-0.874379318673,-0.0474205157528,-0.00294367188528,-0.000847025975148,0.0153162432845,0.000501085895404,0.00468008768071,-0.041741436119,0.573732279164,0.819010912826,0.00575703200244,0.0,0.819016199368,-0.5736651701,-0.0100739609129,0.0,-0.00494817044773,0.0104950610875,-0.999932682385,0.0,0.269876252606,-0.254191646952,0.305657623457,1.0,-0.01044,-0.0137211428571,2.728
-0.627681008506,-0.523143935588,-0.125130739656,-2.64167303804,-0.0675134985421,2.11052566166,-0.875177780637,-0.0504919195516,-0.0035823708479,-0.000319731908282,0.0142526097658,0.000109595050345,4.5288745892e-05,-0.0510808910349,0.573759103498,0.818992207928,0.00574468527802,0.0,0.818999026875,-0.573695636826,-0.00972919143457,0.0,-0.00467252105593,0.0102873018701,-0.999936167446,0.0,0.269740748322,-0.254478809381,0.30580631487,1.0,-0.0101,-0.0132742857143,2.745
-0.628404940399,-0.523131752076,-0.125130411945,-2.64150569976,-0.0674994829654,2.11052646755,-0.875878966848,-0.0525880042497,0.0012114223833,0.000310643530728,0.011911751674,4.67606674305e-05,-0.00030054155211,-0.0437892722018,0.573791339767,0.818969639134,0.00574242852614,0.0,0.818977171841,-0.573729516014,-0.0095698149984,0.0,-0.00454287466119,0.0101941911129,-0.999937718439,0.0,0.269596775542,-0.254714382613,0.305878099338,1.0,-0.0098,-0.01288,2.76
-0.629217313429,-0.523050518393,-0.125116633677,-2.64128283442,-0.0674698839238,2.11047779632,-0.876672253695,-0.0421657524744,0.00327093115833,-7.01817331047e-05,0.0198780262616,0.00230783234658,-0.00386134983733,-0.042698032399,0.573820613677,0.818949102551,0.00574609881695,0.0,0.818957114241,-0.573759766298,-0.00947219677335,0.0,-0.00446045260992,0.010141345523,-0.999938626853,0.0,0.2694377779,-0.254975167331,0.30594585101,1.0,-0.00944,-0.0124068571429,2.778
-0.630032621243,-0.522843918819,-0.125023542105,-2.64129866027,-0.067464725258,2.11060139447,-0.877420392607,-0.0285474696385,0.00589248479386,0.0107014751922,-0.00508244833746,-0.0110123434069,0.0176009803094,-0.0384122474336,0.573812079965,0.818955364907,0.00570561798929,0.0,0.81896253488,-0.573750447217,-0.00956753266748,0.0,-0.00456186916407,0.010162848858,-0.999937951001,0.0,0.269261760019,-0.255183181882,0.305875467725,1.0,-0.00906,-0.0119074285714,2.797
-0.630644055006,-0.522745504933,-0.124994207081,-2.64121820983,-0.0673880276777,2.11059641736,-0.878023695939,-0.0422163518842,-0.00163847729349,-0.000945420887945,-0.00210725937273,0.000796989139929,0.00826762677102,-0.0355206822155,0.573834769127,0.818939128421,0.00575400584927,0.0,0.818946726124,-0.573772766515,-0.00958222717677,0.0,-0.00454585643962,0.0102110359661,-0.999937533016,0.0,0.269134483786,-0.25535130203,0.305876203481,1.0,-0.00876,-0.0115131428571,2.812
-0.631306328078,-0.522627283101,-0.12500696231,-2.64121871998,-0.0673519153864,2.11061989081,-0.878711139956,-0.0482186320653,0.00143186823318,0.00135584740784,0.00242218337719,0.00466723951066,0.0129570198125,-0.0330626177751,0.573839038582,0.818935827362,0.00579787579504,0.0,0.818943471017,-0.573775928359,-0.00967068845947,0.0,-0.00459308011893,0.0102977493597,-0.999936427966,0.0,0.268966816427,-0.255529795378,0.305834209492,1.0,-0.00842,-0.0110662857143,2.829
-0.631966248918,-0.522645498819,-0.124998342467,-2.64115466664,-0.0673508825786,2.1106213822,-0.879390114115,-0.0416240173099,-0.00444818345498,0.00141149176182,-0.000718578378305,0.00208129364412,-0.001002520709,-0.0475114912424,0.573820671584,0.818948736801,0.00579225835313,0.0,0.818956718105,-0.573758480554,-0.00958367174595,0.0,-0.00452526564398,0.0102431150605,-0.999937298317,0.0,0.268815638952,-0.25572183017,0.305870404486,1.0,-0.00808,-0.0106194285714,2.846
-0.632524783908,-0.522498379237,-0.124935153095,-2.64106209651,-0.0673490629152,2.11058996282,-0.879949350211,-0.0302514988015,0.00325520496384,0.0104987507395,0.0053620754838,-0.0024936224834,-0.00329603664652,-0.0300796641205,0.573781152182,0.818976640791,0.00576178268915,0.0,0.818983922579,-0.57371823818,-0.00966771111213,0.0,-0.00461207855436,0.010266155464,-0.999936665386,0.0,0.268699747406,-0.255874350658,0.305857212112,1.0,-0.00776,-0.0101988571429,2.862
-0.633101731618,-0.522456326961,-0.124906984846,-2.64099937762,-0.0673468577059,2.11063369434,-0.880535329744,-0.0351631945714,0.000130634907846,0.00121572698752,0.00110730480275,0.000326656919206,0.00961109609043,-0.0377065656413,0.573764482525,0.818988435355,0.00574528061546,0.0,0.818995932552,-0.573702505231,-0.00958357223061,0.0,-0.0045528406002,0.0102042712809,-0.999937570296,0.0,0.268570018925,-0.256058059238,0.305876989371,1.0,-0.0074,-0.00972571428572,2.88
-0.633671070126,-0.522334056604,-0.124863610957,-2.64093289892,-0.067330456823,2.11066537257,-0.881088545611,-0.0338895940561,0.000786756954051,-0.000737947352103,0.00148122214501,-0.000237088095222,0.0137373682353,-0.0266559796262,0.573750960297,0.818997997654,0.00573256466603,0.0,0.819005188945,-0.573688650141,-0.00962185437863,0.0,-0.00459166058842,0.0102157450818,-0.999937275636,0.0,0.26846179839,-0.256204698089,0.305863736457,1.0,-0.00708,-0.00930514285715,2.896
-0.634201102833,-0.522289474855,-0.124855617639,-2.64090203965,-0.0673230153715,2.110680439,-0.881641616328,-0.027353840197,0.00232569167768,0.00177407805234,0.000789185209221,1.28326779342e-07,0.00808421909247,-0.0329018433845,0.573731229325,0.819011797503,0.00573576055892,0.0,0.819019041196,-0.573668951642,-0.00961722320562,0.0,-0.00458627981802,0.0102155950878,-0.999937301862,0.0,0.268336953322,-0.256353554439,0.305862864219,1.0,-0.00674,-0.00885828571429,2.913
-0.634733914156,-0.522235817733,-0.124860111366,-2.6408402166,-0.0673167819719,2.11066925715,-0.882157955244,-0.0316815913259,-0.00117343274496,-0.000359948190854,0.00489585086929,5.0012718047e-05,-0.00413214285135,-0.0335036896547,0.573753684905,0.818996019419,0.00574248501615,0.0,0.81900333312,-0.573691375667,-0.009617313859,0.0,-0.00458221586123,0.0102212804254,-0.999937262394,0.0,0.268211329766,-0.256510035526,0.305870196171,1.0,-0.0064,-0.00841142857143,2.93
-0.635247204146,-0.522159430925,-0.124877629958,-2.64075081387,-0.0673065995597,2.11068442585,-0.882664327704,-0.0265321633897,0.00375209237023,-0.0040304211867,0.012913239389,0.00172526201067,-0.0032314153345,-0.0251938143626,0.573780596102,0.818977089923,0.00575331370995,0.0,0.818984658398,-0.573718555592,-0.00958619736511,0.0,-0.00455018079506,0.0102124463231,-0.999937498944,0.0,0.268098317236,-0.256673925191,0.305883672295,1.0,-0.00606,-0.00796457142858,2.947
-0.635708019874,-0.522024446886,-0.124848845345,-2.64071430219,-0.0672976113878,2.11069928613,-0.883084836646,-0.0305699354785,0.0107991127928,0.00119308200931,0.00389496712798,0.00129984177651,-0.000680187615823,-0.0253782852402,0.573799358989,0.818963983928,0.00574765641747,0.0,0.818971123445,-0.573736513193,-0.00966743472163,0.0,-0.00461972944611,0.0102545299112,-0.999936749358,0.0,0.267994893995,-0.25679923728,0.305852568182,1.0,-0.00574,-0.00754400000001,2.963
-0.636114586314,-0.522003105814,-0.124818144121,-2.64064878295,-0.0672869578673,2.11072167599,-0.88351294231,-0.0233123793983,-0.00405179413355,0.00133262496564,0.00161057116491,0.000455438249571,0.00121452661677,-0.0240882593931,0.573767643845,0.818986291399,0.00573517895331,0.0,0.818993616564,-0.573705557905,-0.00959873726732,0.0,-0.00457101820185,0.0102047162908,-0.999937482825,0.0,0.267916333241,-0.256919574432,0.305877194146,1.0,-0.0054,-0.00709714285715,2.98
-0.636506063863,-0.521859332456,-0.124760686887,-2.64060726974,-0.0672770019911,2.1107153303,-0.88390662959,-0.0242513738771,0.00247027424392,0.0048474127875,0.00266488503502,0.000393539710307,-5.50181121617e-05,-0.0204517515466,0.573731967993,0.819011407572,0.00571752310323,0.0,0.81901805675,-0.573668872619,-0.00970537002135,0.0,-0.00466893362083,0.0102512330719,-0.999936554627,0.0,0.267834438721,-0.257017994066,0.305843983652,1.0,-0.00506,-0.00665028571429,2.997
-0.636870133136,-0.521837790457,-0.124711363279,-2.64059388388,-0.0672644749181,2.11073146591,-0.884258356687,-0.0184555997425,0.00165472071285,0.00346865816527,-0.000357330812234,-0.000802532830517,0.000567808903754,-0.0212964361223,0.573713177185,0.819024663687,0.00570416500185,0.0,0.819031222033,-0.573650248113,-0.00969520899001,0.0,-0.00466850949711,0.0102343554283,-0.999936729492,0.0,0.267757768479,-0.257108552361,0.30584470659,1.0,-0.00474,-0.00622971428572,3.013
-0.637266042838,-0.521753311147,-0.124700887804,-2.6405697129,-0.0672550660493,2.11074877015,-0.884648697258,-0.0184941104979,0.00154690148597,-0.00229853643444,-0.000686609346072,0.000444939227928,0.00281749261428,-0.0225744520432,0.573715820599,0.819022785447,0.00570797813705,0.0,0.819029193547,-0.573652459042,-0.00973566915659,0.0,-0.00469942965492,0.0102607057,-0.999936314612,0.0,0.267665570141,-0.257218392544,0.305826345596,1.0,-0.00438,-0.00575657142858,3.031
-0.637635171139,-0.521708394396,-0.124706725289,-2.64056422649,-0.067239974355,2.11075644715,-0.884988050664,-0.0217821035027,0.000879317908507,0.000332869289427,-4.66652288154e-06,0.000417933465658,-0.000389068180983,-0.0227235990366,0.57375121273,0.818997861933,0.00572668676377,0.0,0.81900433057,-0.573687469721,-0.00976424570605,0.0,-0.00471165863128,0.0102926272396,-0.999935928996,0.0,0.267572200877,-0.257318642942,0.305812836096,1.0,-0.00404,-0.00530971428572,3.048
-0.637973242112,-0.521716955975,-0.124716771222,-2.64055220561,-0.0672295489476,2.11076646679,-0.885287320749,-0.0245418192242,-0.00198803148955,-0.000112879122341,0.00040996444874,0.000522844269972,0.00203999958757,-0.0162526106082,0.573795050834,0.818967051778,0.00574061334466,0.0,0.818973822604,-0.573731583643,-0.00973112128986,0.0,-0.00467598655518,0.0102852793137,-0.999936172053,0.0,0.267488529356,-0.257414802924,0.305822088928,1.0,-0.00372,-0.00488914285715,3.064
-0.638291284931,-0.521710638832,-0.124714269477,-2.64052060435,-0.0672205812168,2.11076227945,-0.885577872418,-0.0166364836782,-4.06994098698e-05,-0.00379373872726,0.00220216419682,-3.32891237638e-05,-0.000696960135723,-0.0162046595025,0.573821104877,0.81894875812,0.0057461354735,0.0,0.818955695716,-0.573757850128,-0.00970797465742,0.0,-0.00465353304867,0.0102766689761,-0.999936365328,0.0,0.267414496951,-0.257505706146,0.305833852926,1.0,-0.00338,-0.00444228571429,3.081
-0.638564476252,-0.521690760324,-0.12469157927,-2.64046482021,-0.0672043997678,2.11076052217,-0.885834089186,-0.0152106236608,0.00367482061604,0.00362062549943,0.00234429521346,0.001363986623,-0.00262695176174,-0.0169382830656,0.573828499333,0.818943590223,0.0057442395365,0.0,0.818950676182,-0.573765623542,-0.00967192454898,0.0,-0.0046250024807,0.0102544722325,-0.999936725574,0.0,0.267362667264,-0.25758563488,0.305852322567,1.0,-0.00304,-0.00399542857143,3.098
-0.638769844406,-0.521671256958,-0.124632687217,-2.64041337055,-0.0671842225011,2.11078010375,-0.886061202666,-0.0114382142183,-0.00655953658614,0.0056690938574,0.00204180899546,0.00468603518054,0.000631498401968,-0.0192692444003,0.573780024994,0.818977682625,0.00572583452569,0.0,0.818984821001,-0.573717776261,-0.00961889143585,0.0,-0.00459273279058,0.0102086958816,-0.999937342704,0.0,0.267338848898,-0.257640876315,0.305871648288,1.0,-0.00272,-0.00357485714286,3.114
-0.638964163154,-0.521608606336,-0.124596743587,-2.64039360337,-0.0671704337484,2.11077886803,-0.886284104503,-0.0107977188181,0.00597356471332,0.00318090091653,-0.000130233812947,0.00480956818007,-0.000408296234081,-0.0132057565418,0.573738221258,0.819007002964,0.00572096710851,0.0,0.819013892957,-0.573675561524,-0.00966127088582,0.0,-0.00463075865104,0.010228788852,-0.99993696199,0.0,0.267300756279,-0.257687287945,0.305858328674,1.0,-0.00238,-0.00312800000001,3.131
-0.63917379529,-0.521581403604,-0.124573301268,-2.64035665418,-0.0671598027905,2.11079823389,-0.886485598365,-0.00581947972208,-0.000146636664493,0.00062090084973,0.000650651113671,0.00047386168425,-0.000858864995726,-0.0150812353888,0.573738672526,0.819006719436,0.00571629845797,0.0,0.819013655077,-0.573676240702,-0.00964108672983,0.0,-0.00461689909392,0.010213387435,-0.999937183507,0.0,0.267260315098,-0.257752766398,0.305863949825,1.0,-0.002,-0.00262857142858,3.15
-0.639353697712,-0.521509688303,-0.124561261273,-2.64034821955,-0.0671476358659,2.11079544606,-0.886651734509,-0.0116877707139,0.00525934893083,0.000222548061625,0.000394446152784,-0.000418147634219,8.99486866226e-05,-0.0168707877535,0.57374327007,0.819003464851,0.00572114612649,0.0,0.81901019916,-0.573680261462,-0.00969526595801,0.0,-0.00465843749591,0.0102484679382,-0.999936631925,0.0,0.26722102128,-0.257793406586,0.305844836951,1.0,-0.0017,-0.00223428571429,3.165
-0.639520712937,-0.52147354643,-0.124535477634,-2.64036381023,-0.0671331290455,2.11080228949,-0.886794799578,-0.0104481979376,0.0082225389666,0.00195374145386,-0.000796871613099,0.00021729314118,0.000629576068494,-0.00276576724241,0.573750222542,0.818998571237,0.00572445161253,0.0,0.819005138671,-0.573686756589,-0.00973832867293,0.0,-0.00469172552078,0.0102759213733,-0.99993619454,0.0,0.267181493908,-0.257827268411,0.305825636647,1.0,-0.00136,-0.00178742857143,3.182
-0.639698539029,-0.521474504,-0.124519074503,-2.64036132914,-0.0671179981105,2.11079648074,-0.886905029438,-0.0105967935564,-0.00173548353783,0.0044397072475,0.00109942762151,0.00020771159846,0.000302060689961,-0.00228358795922,0.57380050694,0.818963300444,0.00573041552205,0.0,0.818969929795,-0.573737006221,-0.00973902899233,0.0,-0.00468824614393,0.0102814957213,-0.999936153559,0.0,0.26714018253,-0.257869446525,0.305827017112,1.0,-0.001,-0.00131428571429,3.2
-0.639810589585,-0.521472422829,-0.124505269759,-2.64035880963,-0.0671084090328,2.11080037615,-0.886953333543,-0.00510384790178,-0.000643091767,0.00168561646411,-9.48714096179e-05,0.000247598025188,-0.00701074496303,-0.000484276864816,0.573847133066,0.818930622856,0.00573146758279,0.0,0.818937290869,-0.573783680963,-0.00973385773829,0.0,-0.00468282177227,0.010279656807,-0.999936197883,0.0,0.267116269511,-0.257896493629,0.305828064032,1.0,-0.000700000000005,-0.000920000000006,3.215
-0.639867272157,-0.521482401659,-0.124509062055,-2.64033164389,-0.0670928632243,2.11080976353,-0.887027477062,-0.000667384902526,-0.00218078194267,-0.00106141873203,-8.44840466907e-06,0.00123810955562,0.000312902879407,-0.000947890025639,0.573843338918,0.818933205418,0.00574232918863,0.0,0.818940208192,-0.573780328732,-0.00968590049019,0.0,-0.00463735928979,0.0102610112952,-0.999936601263,0.0,0.26711021374,-0.257919224421,0.305844830469,1.0,-0.000340000000005,-0.000446857142864,3.233
-0.639888212389,-0.521468073804,-0.124497326035,-2.64033084969,-0.0670791842351,2.11080703787,-0.887047159513,-0.00135148033315,0.00240406307998,0.00293918610817,-0.000819607233899,0.000273830853484,6.29314017944e-05,-0.0030287127789,0.573841973308,0.81893411652,0.00574885821572,0.0,0.818941115895,-0.573778777209,-0.00970105266822,0.0,-0.00464603960946,0.0102750453951,-0.999936416858,0.0,0.267107989086,-0.257920419126,0.305839967392,1.0,-4.95090080044e-15,-6.50689819486e-15,3.25
-0.639877093617,-0.521472422332,-0.124466583604,-2.64032859126,-0.0670700564747,2.11081259571,-0.887053143274,0.00184977157,0.00167527358547,0.00244540178518,0.00130682533613,-3.19425788271e-05,0.000198728965549,-0.0012602198105,0.573810151404,0.818956473431,0.00574035480128,0.0,0.818963440946,-0.573747122569,-0.00968858292481,0.0,-0.00464110501053,0.0102607455064,-0.999936586612,0.0,0.267119795275,-0.257911141087,0.305843805644,1.0,0.0,0.0,3.267
-0.639887907499,-0.521464740221,-0.124449398453,-2.64033360257,-0.0670609722102,2.11081143312,-0.887060690291,-0.00224974852536,-4.50758226115e-05,0.00123788116067,0.000117296393353,-0.000149199809511,0.000211020968657,-0.000723316209979,0.573804317096,0.81896055957,0.00574059686695,0.0,0.818967467649,-0.573741151289,-0.00970181171971,0.0,-0.00465187406227,0.0102685012278,-0.999936456956,0.0,0.26712000054,-0.257907751636,0.305839007132,1.0,0.0,0.0,3.283
-0.639887337327,-0.52146920561,-0.124441310667,-2.64033109691,-0.0670550572527,2.11081096656,-0.887062365167,0.00082356038577,-0.000809145163625,-0.000354554911195,0.00127280592693,-0.000130634292512,9.42171207141e-05,0.000805238475003,0.573799359141,0.81896402924,0.00574118124099,0.0,0.818970974865,-0.573736261088,-0.00969494415987,0.0,-0.00464597612242,0.0102650111769,-0.999936520211,0.0,0.267123016997,-0.257905851257,0.305841946794,1.0,0.0,0.0,3.3
-0.639883460782,-0.521480208343,-0.124443760391,-2.64032554186,-0.0670489533499,2.11081341394,-0.887067136964,-0.00349953794973,-0.00123173185937,-0.00100768932764,0.00269043933148,0.000218707283177,0.000166336922828,0.000826716840434,0.573796812265,0.818965777747,0.00574630440752,0.0,0.818972866169,-0.573733890549,-0.00967544394152,0.0,-0.00462709697457,0.0102580037798,-0.999936679661,0.0,0.267125945042,-0.257906656557,0.305848683614,1.0,0.0,0.0,3.316
-0.639891777337,-0.521469917624,-0.124443645158,-2.64032248171,-0.0670439475515,2.11081341388,-0.887064859064,-0.00076630283934,0.00185379800324,-0.00213446332564,3.39964217786e-05,6.3726231306e-05,9.59087123129e-05,0.00159513078428,0.573807724227,0.818958103929,0.00575035022876,0.0,0.81896520298,-0.573744713537,-0.00968229810229,0.0,-0.0046302525975,0.0102653118207,-0.999936590057,0.0,0.267124752078,-0.257908948895,0.305846292674,1.0,0.0,0.0,3.334
-0.639891207514,-0.521468966837,-0.124430230917,-2.64032775909,-0.0670402290008,2.11081505755,-0.887066996936,0.000433873354919,0.00050520510655,0.00300040566975,-0.000640909436346,8.99489793968e-05,0.000660362969765,0.00102275590338,0.57379734311,0.818965397959,0.00574742431773,0.0,0.818972445787,-0.573734300713,-0.00968669850322,0.0,-0.0046356656737,0.0102653816555,-0.99993656426,0.0,0.267127138833,-0.257904330315,0.305844000383,1.0,0.0,0.0,3.351
-0.639886161656,-0.521464669578,-0.124429300069,-2.64033637893,-0.067042661058,2.11081097254,-0.887074726036,0.00076324485627,0.000893211727773,0.00213691426858,-0.000397820194188,-0.000572687003251,0.000411720992589,-0.000502706042432,0.573784809146,0.818974184769,0.00574668391732,0.0,0.818981144838,-0.573721594917,-0.00970375326128,0.0,-0.00465021628491,0.0102744898024,-0.999936403152,0.0,0.267125684157,-0.257900206978,0.305838163906,1.0,0.0,0.0,3.367
-0.639894747078,-0.521466864598,-0.124423850472,-2.64033258198,-0.0670341132955,2.11081178633,-0.887071372793,-0.00085139002066,0.00159477516084,0.00132986738454,-0.000129807678262,2.68289759329e-05,0.000237538471193,0.00127975025314,0.573794524948,0.818967350688,0.00575052587091,0.0,0.818974385264,-0.573731368767,-0.00969637432142,0.0,-0.00464184628017,0.0102734576834,-0.999936452646,0.0,0.267126457392,-0.257901532931,0.305840904536,1.0,0.0,0.0,3.384
-0.639893675991,-0.521469201737,-0.124429104757,-2.64031803279,-0.0670365556555,2.11081493982,-0.887071255058,-0.00027822003001,-0.000871330686339,-5.37786113695e-05,0.00223480513506,-8.4635864419e-05,0.000134770692145,0.000797211169364,0.573797091454,0.818965565309,0.00574870228716,0.0,0.818972672786,-0.5737341463,-0.00967664718953,0.0,-0.00462670311519,0.010260659639,-0.999936654235,0.0,0.267129308359,-0.257906816415,0.305848533063,1.0,0.0,0.0,3.399
-0.639888377283,-0.521468969697,-0.124420409676,-2.64032766486,-0.0670318045516,2.11081740666,-0.887069631978,0.000793748210229,-0.00061205019409,-0.000199240759921,-0.000996105673416,-2.21984596334e-05,0.000484525091295,0.00210224663367,0.573789493685,0.818970883253,0.00574945403102,0.0,0.818977965287,-0.573726472772,-0.00968368297841,0.0,-0.00463212960324,0.0102652693553,-0.999936581799,0.0,0.267131127372,-0.257900893486,0.305844483163,1.0,0.0,0.0,3.416
-0.639885930144,-0.521469204627,-0.124411405063,-2.64033555439,-0.0670317912197,2.1108157805,-0.887070441275,-5.84769144035e-05,-0.00354539327932,9.78279158036e-05,-0.0015203575958,0.00104082500637,0.000146104480772,0.00131622238921,0.573780086855,0.818977496498,0.00574622132604,0.0,0.818984501461,-0.573716985299,-0.00969298961353,0.0,-0.00464172495883,0.0102679083194,-0.999936510209,0.0,0.267131619149,-0.257896030737,0.305841051343,1.0,0.0,0.0,3.435
-0.6398936633,-0.521469201738,-0.124410338792,-2.64032584385,-0.0670313312024,2.11081284597,-0.887076680239,-0.000628475644009,1.83821060393e-05,0.000655100855737,0.00111950870065,-1.95434221694e-05,0.00699584255485,0.00143583127858,0.573781202859,0.818976722362,0.00574511755149,0.0,0.818983747342,-0.573718175606,-0.00968625158558,0.0,-0.00463682548851,0.0102631445845,-0.999936581845,0.0,0.26713167565,-0.25789986715,0.305845243978,1.0,0.0,0.0,3.451
-0.639889168747,-0.521469213457,-0.124413305946,-2.6403252534,-0.0670282943841,2.11081341394,-0.887076832702,0.00147617958051,8.3488843443e-05,-0.000134667125523,0.00100892776787,0.000317084771407,0.000191959268626,0.00147327407465,0.573780816882,0.818976965297,0.00574903406216,0.0,0.818984037213,-0.573717786452,-0.00968479225613,0.0,-0.00463338788215,0.0102655127813,-0.999936573471,0.0,0.26713269139,-0.257899239336,0.305845497744,1.0,0.0,0.0,3.467
-0.639895084326,-0.52147449434,-0.12440865372,-2.64032709624,-0.0670256912142,2.110812141,-0.88708151514,-0.00102988294646,-0.00131054192179,0.000592025656702,6.20880849239e-05,2.34933522175e-05,-0.000174394463635,-0.000141296982596,0.573779528195,0.818977866999,0.00574919909605,0.0,0.818984951486,-0.57371652131,-0.0096824230726,0.0,-0.00463136885788,0.0102642813044,-0.999936595466,0.0,0.267131883854,-0.257898968778,0.305846605897,1.0,0.0,0.0,3.485
-0.639894511788,-0.521468502618,-0.124410713246,-2.64032334604,-0.067025691266,2.11081341394,-0.88708385643,0.000347072155915,0.0042314094462,3.09094918134e-05,0.000585893948235,9.94578472249e-05,3.12800302492e-05,-0.00129616437065,0.573778801909,0.81897837176,0.00574978000202,0.0,0.818985457653,-0.573715782351,-0.00968339485378,0.0,-0.00463184059554,0.010265310543,-0.999936582715,0.0,0.267132528651,-0.257900299526,0.305846167023,1.0,0.0,0.0,3.501
-0.639889900973,-0.521466699082,-0.124411332235,-2.64032045613,-0.0670253363428,2.11081577905,-0.88707924655,0.00191046665444,0.000592435479178,0.000789801631377,0.000285795600315,0.000429652935616,-0.000152565357106,0.00122538263191,0.573779531886,0.818977860454,0.00574976317298,0.0,0.818984962065,-0.573716547513,-0.0096799753199,0.0,-0.00462904032349,0.0102633388829,-0.999936615922,0.0,0.267134623107,-0.257900198426,0.305847006945,1.0,0.0,0.0,3.517
-0.639897618721,-0.521467098489,-0.124414205,-2.64033004193,-0.0670256866679,2.11081026477,-0.887080255871,0.000723094630863,-0.000198236145582,0.000108133411803,0.000708422076423,-0.000107517988057,-0.000755879643976,-0.000237523605414,0.573786467919,0.818972979957,0.00575275891277,0.0,0.818980045453,-0.573723320343,-0.00969452144061,0.0,-0.00463914848689,0.0102741777812,-0.999936457767,0.0,0.267128891442,-0.257899745056,0.305842249277,1.0,0.0,0.0,3.535
-0.639897644834,-0.521469204623,-0.124408599598,-2.64032500125,-0.067024725991,2.1108132962,-0.887079952574,5.24911620659e-05,1.21565607293e-05,0.000927741534694,0.00101731605997,-3.84782560775e-05,-0.00334215053723,0.000775826797912,0.573783397916,0.818975152147,0.00574972552087,0.0,0.818982233092,-0.573720368142,-0.00968441840968,0.0,-0.00463265259089,0.0102658791987,-0.999936573116,0.0,0.267131874782,-0.257900146921,0.305845712504,1.0,0.0,0.0,3.552
-0.63989514785,-0.521475209596,-0.124413466895,-2.64031738553,-0.0670234861358,2.11081614534,-0.887077920345,0.000859337971114,-0.000865710622766,0.000518677373905,0.00107212931469,6.44929784341e-06,-0.000325895622677,0.000569561270389,0.573787316796,0.818972392775,0.00575168295891,0.0,0.818979570563,-0.573724447627,-0.00966788992511,0.0,-0.00461794272624,0.0102580209576,-0.999936721803,0.0,0.267133928275,-0.257902848499,0.305851521178,1.0,0.0,0.0,3.569
-0.639899864009,-0.521472706201,-0.124410248014,-2.64032239238,-0.0670228158685,2.11081434564,-0.887085387068,0.000143108246807,-0.00164875732338,0.000745510906477,-0.00036583322464,0.000394207104609,0.000273404072954,-0.00223843408848,0.573782848681,0.818975523385,0.00575165691582,0.0,0.818982658087,-0.573719885296,-0.00967707958843,0.0,-0.00462554043075,0.0102632471618,-0.999936633059,0.0,0.267131963921,-0.25790177116,0.305848242015,1.0,0.0,0.0,3.586
