nelsonifechukwu/NELSON_IML_WORK/CNN-GradCAM/train2dof/data_sample_2022-02-21-09-30-14/robot_state.csv
position_joint1,position_joint2,position_joint3,position_joint4,position_joint5,position_joint6,position_joint7,velocity_joint1,velocity_joint2,velocity_joint3,velocity_joint4,velocity_joint5,velocity_joint6,velocity_joint7,ee_T_00,ee_T_10,ee_T_20,ee_T_30,ee_T_01,ee_T_11,ee_T_21,ee_T_31,ee_T_02,ee_T_12,ee_T_22,ee_T_32,ee_T_03,ee_T_13,ee_T_23,ee_T_33,v_x,v_y,time
0.465087533479,0.547619056295,-0.123993806411,-1.35574284246,0.079453794116,1.89408880006,0.15916293024,0.00115161593801,0.000781614629703,-0.00137297587777,0.00102520776966,0.000396129891591,0.000952689082421,-0.00143090441524,0.573783622893,0.818992421449,0.00212476105091,0.0,0.818952074282,-0.573724877673,-0.0117478368134,0.0,-0.00840252281921,0.00848095712268,-0.999928732949,0.0,0.661699912029,0.260901169622,0.303371217042,1.0,0.0,0.0,0.0
0.465087533478,0.547618894877,-0.123993132891,-1.35574813217,0.0794524702241,1.89409121405,0.159168468216,0.00125476896046,0.000216101369256,-0.000359346942064,-0.00119850358612,-0.000247355691113,0.000106594141037,-0.000157700531112,0.573787642577,0.818989612739,0.00212187461531,0.0,0.818949234709,-0.573728914681,-0.0117486309845,0.0,-0.00840478773826,0.0084790901172,-0.999928729747,0.0,0.661699104703,0.260900882591,0.303368998517,1.0,-0.00014,-0.000184,0.008
0.465081508849,0.547613483624,-0.123991100515,-1.35574868547,0.0794530819841,1.89409068853,0.159173973515,-0.000831887878651,-0.00150054584178,-0.000661311564908,6.94422187355e-06,-6.40355359638e-05,-0.000189560464092,0.00176176228445,0.57379584358,0.818983854942,0.00212653134573,0.0,0.81894352149,-0.573737080685,-0.0117480959103,0.0,-0.00840159274724,0.00848268099002,-0.999928726141,0.0,0.66170008698,0.260898141779,0.303372456813,1.0,-0.00044,-0.000578285714286,0.023
0.465081918087,0.547603154858,-0.123988553722,-1.35575559358,0.0794532792676,1.89408999398,0.159167650514,-0.000151270173121,-0.00331421607378,0.000587743927501,0.000285585303017,0.000341617683965,0.00084578468029,-0.00238898999834,0.573788956604,0.818988670553,0.00213018480157,0.0,0.818948361676,-0.57373015737,-0.0117488013457,0.0,-0.0084001456621,0.00848600720074,-0.999928710076,0.0,0.661697935087,0.260899187177,0.303376341395,1.0,-0.00072,-0.000946285714286,0.037
0.465084254863,0.547524318114,-0.123984489506,-1.35582511422,0.0794491539425,1.89409939608,0.159170160995,0.00029958972006,-0.00516856893373,0.00104727414833,-0.00553845416479,-0.000209143623357,0.000772991362039,0.000533168702026,0.57378888425,0.818988672998,0.00214865360896,0.0,0.818948563169,-0.573729972724,-0.011743772054,0.0,-0.00838543075958,0.00849824626715,-0.999928729641,0.0,0.661684645315,0.260895840416,0.303399773566,1.0,-0.00108,-0.00141942857143,0.055
0.465086415801,0.547384524436,-0.123986757427,-1.3559856252,0.0794503183756,1.89413096824,0.159166788002,0.000169017496067,-0.0106426875393,-0.0010724074364,-0.00999290314161,7.44985813532e-05,0.00193339826404,-0.000143947730233,0.573794975776,0.818984361493,0.00216524950209,0.0,0.818944347072,-0.573735877939,-0.0117492835622,0.0,-0.00838035952006,0.00851506265805,-0.999928629094,0.0,0.661657728434,0.260881073194,0.303425219384,1.0,-0.00142,-0.00186628571429,0.072
0.465069552131,0.547249515732,-0.123986408944,-1.35617218292,0.0794468647594,1.89418805043,0.159161640027,-0.000745681545345,-0.0127935933414,0.0011279152199,-0.00736863709741,0.000471685553781,0.00811042471811,-0.00122857168008,0.573813749404,0.818971182261,0.00217497641938,0.0,0.818931208782,-0.573754525119,-0.0117544497653,0.0,-0.00837881437664,0.00852618511571,-0.999928547266,0.0,0.661634418727,0.260853061844,0.303436994744,1.0,-0.00174,-0.00228685714286,0.088
0.465049959852,0.547067973273,-0.123989151918,-1.35638390867,0.0794398354442,1.89430909981,0.159146446912,-0.00101485049142,-0.0104500558283,0.000675078046999,-0.0110429605489,0.000406898299805,0.0106313357681,-0.0014805787847,0.573829460551,0.818959959907,0.00225414599955,0.0,0.818921034384,-0.57376995487,-0.0117100483572,0.0,-0.00829685922495,0.00856570322179,-0.9999288929,0.0,0.661620945649,0.260822858319,0.303475402367,1.0,-0.00208,-0.00273371428571,0.105
0.465032538602,0.546852466668,-0.123988533144,-1.35663648891,0.0794362420455,1.8944513671,0.159134508707,-0.000288990718484,-0.0130803718072,-0.000170015113644,-0.0165636691152,-0.000135405908124,0.00974869074397,-0.000375897540336,0.573846922424,0.818947456553,0.00234945337744,0.0,0.818909728477,-0.57378702247,-0.0116643196028,0.0,-0.00820453697601,0.00861769005085,-0.99992920799,0.0,0.661601690602,0.260793631425,0.303520152248,1.0,-0.00244,-0.00320685714286,0.123
0.464997476929,0.546644725826,-0.123988868641,-1.35692329136,0.0794316411093,1.89456685017,0.159113266482,-0.00335647764836,-0.0138118785895,0.00111292815017,-0.0203318758214,-0.000407317902637,0.00343432558869,-0.00569245658638,0.573873318752,0.81892885002,0.00238736905759,0.0,0.818891518931,-0.573813178499,-0.0116560415873,0.0,-0.00817572231367,0.00864425397171,-0.999929214714,0.0,0.661573899341,0.260746024234,0.303540801765,1.0,-0.00276,-0.00362742857143,0.139
0.464963368378,0.54638188295,-0.123991749099,-1.35731355294,0.0794181497591,1.89470504519,0.159048607686,-0.00427931379773,-0.0156880489178,-0.00135102621917,-0.0211193660775,-0.000419289514949,0.00754327889848,-0.00759807948555,0.573868506974,0.818932179174,0.00240198220644,0.0,0.818894953678,-0.57380822584,-0.0116585462679,0.0,-0.00816943883982,0.00865761033376,-0.999929150516,0.0,0.661529171625,0.260686115847,0.303553255365,1.0,-0.0031,-0.00407428571429,0.156
0.46492926677,0.546097710066,-0.123989480196,-1.35774869242,0.0794013685268,1.89486366405,0.158928803502,-0.00321108169267,-0.0170915086247,-0.000314660461949,-0.0256109084249,0.000140440964665,0.00965436808563,-0.00582796851416,0.573816599226,0.818968512701,0.00241506901089,0.0,0.818931352523,-0.57375616662,-0.011663962531,0.0,-0.00816691454684,0.00867091798663,-0.999929055827,0.0,0.661477754262,0.260625000749,0.303561033476,1.0,-0.00344,-0.00452114285714,0.173
0.464880551518,0.545823029141,-0.123984216802,-1.35822286436,0.0793760255367,1.89502198092,0.158919413609,-0.00461550180239,-0.0194777330633,-0.00018304669858,-0.0291682199901,-0.000279312698797,0.0118668382253,-5.51314575421e-05,0.573864858519,0.818934793745,0.00238215293562,0.0,0.818897129388,-0.573804457704,-0.0116911377211,0.0,-0.0082075475056,0.00866003802755,-0.999928817419,0.0,0.661420632765,0.260549784979,0.303543350903,1.0,-0.00376,-0.00494171428571,0.189
0.464824558697,0.545493283085,-0.123990071087,-1.35880293099,0.0792749134872,1.8952144287,0.158847078534,-0.0019884512461,-0.0184298439981,-0.000327665907879,-0.035524356537,-0.0109912206812,0.0135959565201,-0.0065038731496,0.57386107423,0.81893769624,0.00229435440287,0.0,0.818899461555,-0.573801591116,-0.0116684531506,0.0,-0.00823939056866,0.00857508174162,-0.999929287708,0.0,0.661356099418,0.260441519723,0.303517422841,1.0,-0.0041,-0.00538857142857,0.206
0.464773128419,0.545159272676,-0.123994570562,-1.35937084167,0.0792522475068,1.89540122841,0.158736239343,7.81213809502e-06,-0.0256405136668,-0.00112482856502,-0.0396959496287,-0.000723535979136,0.00652963427518,-0.00890110485915,0.573841165607,0.8189517426,0.00225983367089,0.0,0.818912941382,-0.573781689416,-0.0117010353452,0.0,-0.00828609163767,0.00856530770849,-0.999928985573,0.0,0.661287388907,0.260350881768,0.303499886787,1.0,-0.0044,-0.00578285714286,0.221
0.464704524214,0.544750343865,-0.123989934079,-1.36006030779,0.0792394464046,1.89563329603,0.158693451542,-0.00268315059041,-0.0257727302562,0.000272440116165,-0.0406582244295,-0.000209974596692,0.0159730155358,-0.00296623085407,0.573894048635,0.818914753601,0.00223476579413,0.0,0.818875317645,-0.573834341528,-0.0117520013865,0.0,-0.00834166256462,0.00857456329168,-0.999928444205,0.0,0.661203503325,0.260245407026,0.303481144317,1.0,-0.00474,-0.00622971428571,0.238
0.464628227379,0.544272100541,-0.123999090943,-1.36087374384,0.0792064624201,1.89591003336,0.158571758381,-0.00378844988834,-0.0247216079815,-0.000545355989341,-0.0429514918936,-0.00324801195585,0.011616872671,-0.00914872050017,0.573899797958,0.818910842068,0.00219124361657,0.0,0.818870699969,-0.573840113341,-0.0117918596534,0.0,-0.00839921994404,0.00856185590899,-0.999928071277,0.0,0.661108049674,0.260112821017,0.303456710143,1.0,-0.00512,-0.00672914285714,0.257
0.464564357161,0.543780328387,-0.124004416165,-1.36167064075,0.0791673091841,1.89619741475,0.158461949063,-0.00533076154478,-0.0317777965719,-1.81737372405e-05,-0.0497907510677,-0.00141013410237,0.0156627196705,-0.00224670265895,0.573899883152,0.818910814317,0.00217926905815,0.0,0.818870444279,-0.573840171523,-0.0118067749025,0.0,-0.00841830559818,0.00856061057706,-0.999927921441,0.0,0.661015002404,0.259992543419,0.303450456559,1.0,-0.00546,-0.007176,0.274
0.464483811905,0.543293478912,-0.124000233264,-1.36245637498,0.0791139893568,1.8964682742,0.1583759921,-0.00626855149745,-0.0276249185721,-0.000254769318413,-0.0505407730113,-0.00954611859383,0.0172580377817,-0.00453657308728,0.573921966973,0.818895406789,0.00215301361457,0.0,0.818854694316,-0.57386235444,-0.0118209413402,0.0,-0.00844474369286,0.00854746777588,-0.999927810944,0.0,0.660923932488,0.259864604413,0.303444204871,1.0,-0.00578,-0.00759657142857,0.29
0.464427555344,0.542820220754,-0.124008440749,-1.36323086593,0.0790755237608,1.89674166911,0.158267752589,-0.000600493871461,-0.0330452152085,0.000132042811303,-0.0498205786022,-0.00422443899302,0.0201249097096,-0.00684184695847,0.573911981958,0.818902452377,0.00213479663586,0.0,0.818861448914,-0.57385238797,-0.0118368578711,0.0,-0.00846833683351,0.00854158167926,-0.99992766171,0.0,0.66082614206,0.259742500909,0.303436065093,1.0,-0.0061,-0.00801714285714,0.306
0.46435240943,0.542229409537,-0.12400866677,-1.36413814497,0.0790183679896,1.89707041884,0.158146812132,-0.00320444050078,-0.0325921933461,-8.02577787138e-05,-0.0535982579907,-0.000957421659404,0.0163759191813,-0.00853202677831,0.573912555822,0.818902041776,0.00213802387798,0.0,0.818861060668,-0.573852929173,-0.011837478756,0.0,-0.00846698727351,0.00854458669758,-0.999927647465,0.0,0.660719543404,0.25960640602,0.303445266375,1.0,-0.00644,-0.008464,0.323
0.464275976487,0.54161558954,-0.124012018621,-1.36508720858,0.0789656005694,1.8974230092,0.158035293477,-0.00842938618984,-0.0384565490809,0.000476494443691,-0.0556176632248,-0.00513756445385,0.0177967893295,-0.00730032675409,0.573927970541,0.818891188981,0.00215688254716,0.0,0.818850441543,-0.573868255692,-0.0118290488166,0.0,-0.00844910009622,0.00855535092385,-0.999927706726,0.0,0.660617185323,0.259470966276,0.303461741106,1.0,-0.00676,-0.00888457142857,0.339
0.464195394378,0.540968557236,-0.124006327849,-1.36609481637,0.0789104695944,1.89779665024,0.157894376339,-0.00412677295569,-0.0441238453202,0.00149604317549,-0.0626447813415,-0.00570495080194,0.0201023886783,-0.00913026056294,0.573915753047,0.818899710893,0.00217228101331,0.0,0.818859075028,-0.573855889104,-0.0118313433801,0.0,-0.00844226996104,0.00856915134953,-0.999927646244,0.0,0.660498913137,0.259326358617,0.303471762886,1.0,-0.0071,-0.00933142857143,0.356
0.464089590266,0.540188038299,-0.1240073041,-1.36727624863,0.0788379318817,1.89823631451,0.157730135724,-0.0035346569728,-0.0427471036938,0.00118282873351,-0.0613043841121,-0.00170486534739,0.0221904124421,-0.00947076405962,0.573914631996,0.818900410175,0.00220460796358,0.0,0.818860204137,-0.57385465111,-0.0118132291346,0.0,-0.00840889554732,0.00858521607056,-0.999927789663,0.0,0.660366028738,0.259144023535,0.303499215963,1.0,-0.00748,-0.00983085714286,0.375
0.464001072768,0.539500622233,-0.124017555689,-1.36834236509,0.0787764588994,1.89864244752,0.157616014913,-0.00415542485909,-0.0463752617937,0.00395697368728,-0.0666554434003,-0.00530574843019,0.0264010898505,-0.00132938044387,0.573943493031,0.818880124679,0.00222600869376,0.0,0.818840229586,-0.573883458917,-0.0117983428458,0.0,-0.00838412031209,0.00859449304536,-0.99992791801,0.0,0.660247451126,0.258979713576,0.303513051721,1.0,-0.0078,-0.0102514285714,0.391
0.463882968126,0.538756143821,-0.124015817181,-1.36951929296,0.0787073757278,1.89909048287,0.157461795559,-0.00545670694829,-0.0430283570164,0.00089366217347,-0.0714213463027,-0.00428374059666,0.0314770639225,-0.0103666040636,0.573959368118,0.818868960761,0.00223958781862,0.0,0.818829221071,-0.573899257919,-0.0117938704987,0.0,-0.00837249788798,0.00860320804654,-0.999927940449,0.0,0.660118230986,0.25879204212,0.303517585492,1.0,-0.00814,-0.0106982857143,0.408
0.463793632014,0.538072054417,-0.124028888167,-1.370571801,0.0786510590276,1.89949053354,0.157332209416,-0.00758428671233,-0.0437777979958,-0.000728826256142,-0.0677348288037,-0.00259376308962,0.0266167575237,-0.00803772776115,0.573978672163,0.81885535527,0.00226670426573,0.0,0.818815973386,-0.57391846098,-0.0117791670237,0.0,-0.00834469123548,0.00861717021442,-0.999928052665,0.0,0.660001652021,0.258627567146,0.303534900455,1.0,-0.00844,-0.0110925714286,0.423
0.463675651925,0.537267446898,-0.124030794184,-1.37183125944,0.0785713092099,1.8999606788,0.157176904846,-0.00458415348848,-0.0493834383482,-1.91878794642e-05,-0.069507456694,-0.00160458327585,0.0346918240996,-0.0101603699919,0.573997544158,0.81884209952,0.00227645678141,0.0,0.818802879334,-0.573937329574,-0.0117700219624,0.0,-0.00833140637444,0.00862009903201,-0.999928138198,0.0,0.659860221842,0.25842866371,0.303544389254,1.0,-0.00878,-0.0115394285714,0.44
0.463548610065,0.536348700774,-0.124042547962,-1.37327978842,0.0784978582222,1.90052056331,0.157000720918,-0.00733090840562,-0.047686093807,-9.76313641415e-05,-0.0849078483393,-0.00271354331384,0.0335943920458,-0.0103548696957,0.574025812489,0.818822202976,0.00230508360311,0.0,0.818783305576,-0.573965434808,-0.0117611672822,0.0,-0.00830742653479,0.00863874389978,-0.999928176805,0.0,0.659699802546,0.258204234354,0.303552444479,1.0,-0.00916,-0.0120388571429,0.459
0.463441595214,0.535537098772,-0.124045831835,-1.37455882429,0.0784092680916,1.9009834959,0.156840280457,-0.00508895157002,-0.0515865847191,-6.80683647199e-05,-0.0840229624665,-0.00536429251048,0.0308908762367,-0.00666722683302,0.574030833922,0.818818714029,0.00229394047959,0.0,0.818779757841,-0.573970587076,-0.0117567096994,0.0,-0.00831011954904,0.00862711200195,-0.999928254852,0.0,0.659549938525,0.258007655054,0.303556644322,1.0,-0.00948,-0.0124594285714,0.475
0.463322295685,0.53463159788,-0.124051339535,-1.37599365885,0.0783328617794,1.90149989965,0.156659208862,-0.00419568915319,-0.049850883526,-0.000176585710435,-0.0865330135745,-0.0071038048188,0.0303624117661,-0.0137770621231,0.574042303003,0.818810692945,0.00228700307061,0.0,0.818771545332,-0.573981975973,-0.0117726255884,0.0,-0.00832701349507,0.00863068431086,-0.999928083481,0.0,0.659379716313,0.257790027793,0.303557530541,1.0,-0.00982,-0.0129062857143,0.492
0.463189698515,0.53366760224,-0.124058415111,-1.37756318023,0.0782476779818,1.90207005834,0.156469842926,-0.00523497057017,-0.0546390187672,-0.000178139848351,-0.0883762492095,-0.00418992265265,0.0351632784981,-0.00897461343678,0.574062494048,0.818796608568,0.00226133281209,0.0,0.818757025909,-0.574002157918,-0.0117983952943,0.0,-0.00836263714625,0.00862466440772,-0.999927838128,0.0,0.659183159137,0.257540524038,0.303540197338,1.0,-0.0102,-0.0134057142857,0.511
0.463084499919,0.532859811462,-0.124053162938,-1.37886362939,0.0781719886433,1.90257168602,0.156307362715,-0.0090683852822,-0.0584436220238,0.000169216117142,-0.0872216923102,-0.00866450536461,0.0369882621845,-0.00927948735623,0.574064299655,0.818795325172,0.0022676505521,0.0,0.818755796081,-0.57400390951,-0.0117985232789,0.0,-0.00835909636087,0.00862992918894,-0.99992782231,0.0,0.659043017058,0.257361480241,0.30353405326,1.0,-0.01048,-0.0137737142857,0.525
0.462952426515,0.531886677425,-0.124052795983,-1.38041890168,0.0780801637692,1.90314854225,0.156111651307,-0.00794287726596,-0.0583485439705,0.000403196787265,-0.0884343970504,-0.00627641385388,0.0347454721765,-0.0062144928726,0.574072209492,0.818789791663,0.00226324065417,0.0,0.818750163876,-0.574011792673,-0.0118058429297,0.0,-0.00836753794867,0.00863060115786,-0.999927745906,0.0,0.658860280801,0.257127106802,0.303529787113,1.0,-0.01082,-0.0142205714286,0.542
0.46282303941,0.530820494674,-0.12405388201,-1.38212221151,0.0779825111283,1.90375518952,0.155886985587,-0.00696142042087,-0.0619370713339,-8.33199364133e-05,-0.0933817277456,-0.00573019586856,0.0304266216525,-0.0144636605528,0.574061398499,0.818797435613,0.00223988587932,0.0,0.818757402433,-0.574000969027,-0.0118300641743,0.0,-0.008400891287,0.00862527239175,-0.999927512224,0.0,0.658650919495,0.256878420283,0.303523040965,1.0,-0.01118,-0.0146937142857,0.56
0.462696957165,0.529913538696,-0.124053507965,-1.38358470203,0.0778811923216,1.90427102039,0.15570159925,-0.00624862739139,-0.0582343511041,-0.000501023614104,-0.0931583436349,-0.00635113588486,0.0337964026989,-0.00875923859492,0.574064673999,0.818795250239,0.00219889831841,0.0,0.818754736919,-0.574004459144,-0.0118451913357,0.0,-0.00843677139783,0.00860042990169,-0.999927424113,0.0,0.658474038136,0.256652543201,0.303510560783,1.0,-0.01148,-0.015088,0.575
0.462553630033,0.528864546429,-0.124056626835,-1.38524636154,0.0777715052202,1.90488785017,0.155478668346,-0.0100487826378,-0.0589664018399,-0.0010454428236,-0.100009346663,-0.00754571246988,0.0417342518167,-0.0171171881822,0.574062345922,0.818796890809,0.00219579063528,0.0,0.818756410569,-0.574002218518,-0.0118380821642,0.0,-0.00843275852988,0.00859378033421,-0.999927515135,0.0,0.658279773898,0.256397015382,0.303511988088,1.0,-0.01182,-0.0155348571429,0.592
0.462408068678,0.527696511858,-0.124053852717,-1.3870536881,0.0776866591653,1.90559259642,0.155223478238,-0.011631118642,-0.0636506298728,0.000129222705704,-0.0954590568219,-0.00525311314544,0.0333943870835,-0.0078567228201,0.57404595742,0.818808194121,0.00226426839623,0.0,0.818768399286,-0.57398535386,-0.0118266134865,0.0,-0.00838423255727,0.00864309747865,-0.999927498127,0.0,0.658069465042,0.256137678304,0.303535111863,1.0,-0.01218,-0.016008,0.61
0.462274594222,0.526675836051,-0.124061705072,-1.38861816213,0.0775753678284,1.90618768922,0.154999144577,-0.00981547747155,-0.064905496226,-0.00016212925654,-0.105561107639,-0.0137989354547,0.0393477661481,-0.0111727479177,0.574031660217,0.818818127361,0.00229657903379,0.0,0.818778937483,-0.573971125121,-0.0117875342146,0.0,-0.00833383709202,0.00864697485726,-0.999927885892,0.0,0.65789055005,0.255895368959,0.303560585023,1.0,-0.01248,-0.0164022857143,0.625
0.46211478955,0.52544005133,-0.124061764347,-1.39054681356,0.0774425701759,1.9068898527,0.154744611309,-0.00973055896899,-0.0678838147289,-0.00186403048815,-0.105590143734,-0.0059595203069,0.0299003825803,-0.0223319436782,0.574022160671,0.818824789236,0.00229575558542,0.0,0.818785684422,-0.57396172927,-0.011776384022,0.0,-0.00832527960637,0.00863980355243,-0.999928019166,0.0,0.657658873313,0.255603708274,0.303572828143,1.0,-0.01284,-0.0168754285714,0.643
0.461979103821,0.524399472948,-0.124070787589,-1.39218281113,0.0773475743318,1.90747747434,0.15451534197,-0.00835709004471,-0.0732779467226,-0.000492407970913,-0.117022916671,-0.00525564290804,0.0340888374865,-0.0133021939001,0.57401421988,0.818830373023,0.00228964886725,0.0,0.818791144025,-0.573953766266,-0.0117848867711,0.0,-0.00833583113064,0.00863960314088,-0.999927932992,0.0,0.657461152788,0.255353223735,0.303577171128,1.0,-0.01314,-0.0172697142857,0.658
0.46181891304,0.523220381854,-0.124080726191,-1.39409930846,0.0772357663619,1.90818587802,0.154262812477,-0.0117743320865,-0.0719795747296,-0.000427499305046,-0.119411774213,-0.00338249529781,0.0458849956558,-0.0152718751808,0.57401846675,0.818827469049,0.00226332962596,0.0,0.818787869357,-0.573958084062,-0.0118021029481,0.0,-0.0083649908027,0.00862797799609,-0.999927789855,0.0,0.657232094063,0.255060117315,0.30355565731,1.0,-0.01348,-0.0177165714286,0.675
0.461636591392,0.521834361228,-0.124083297971,-1.39627247309,0.0770929390188,1.90903308998,0.153973071777,-0.0135810586142,-0.0752881361109,-0.000447489351166,-0.115570922069,-0.00866414994619,0.0439269842642,-0.01492942237,0.574010348454,0.818833042962,0.00230532456603,0.0,0.818794122828,-0.573949944888,-0.0117640166082,0.0,-0.00830978459824,0.00864041983324,-0.999928142731,0.0,0.656980730449,0.254733442765,0.303568792676,1.0,-0.01386,-0.018216,0.694
0.461480574289,0.520673207049,-0.124084324697,-1.39817945468,0.0769784988196,1.90975442852,0.153704852729,-0.00701537134092,-0.0767067483683,0.000693653094398,-0.120045376121,-0.00731660886508,0.041413457258,-0.0150147883546,0.573990350773,0.81884712527,0.00228244549673,0.0,0.81880788252,-0.57393001036,-0.0117788637672,0.0,-0.0083352852472,0.00863000466392,-0.999928020429,0.0,0.656751725033,0.254449692744,0.303539378952,1.0,-0.01418,-0.0186365714286,0.71
0.461308293118,0.519359717245,-0.124092911846,-1.4002122879,0.0768475024761,1.91048572503,0.153438693392,-0.0146866627028,-0.0812182732324,-0.0007476639478,-0.118277146932,-0.0105230586307,0.0456975155676,-0.0181208255041,0.573992228438,0.818845795668,0.00228724983995,0.0,0.818806661671,-0.573931917475,-0.0117708032178,0.0,-0.00832590733964,0.00862933111669,-0.999928104371,0.0,0.656505091864,0.254136006809,0.303557717108,1.0,-0.01452,-0.0190834285714,0.727
0.461129966171,0.51801717561,-0.124095734341,-1.40231785834,0.0767056518312,1.91123276334,0.153155176966,-0.0140317737736,-0.0797608568883,-0.000436826056662,-0.127965645089,-0.00847618085153,0.0447999240198,-0.0184530477316,0.573981281471,0.818853527571,0.00226623175664,0.0,0.81881417435,-0.573921107711,-0.0117752667875,0.0,-0.00834174111132,0.00861457126226,-0.999928099674,0.0,0.656245241992,0.253812851813,0.303562612159,1.0,-0.01486,-0.0195302857143,0.744
0.460967933295,0.516743671631,-0.124099982924,-1.40432116081,0.0765842235813,1.91195665674,0.152874393683,-0.00727974510643,-0.0786420472158,0.000634129061357,-0.125457406807,-0.0036221671875,0.0387202194124,-0.0130554876313,0.573960245654,0.818868287473,0.00226077005087,0.0,0.818828818516,-0.573900049201,-0.0117833100774,0.0,-0.00835168369622,0.00861450107218,-0.999928017285,0.0,0.65599750826,0.253512535816,0.303565425841,1.0,-0.01518,-0.0199508571429,0.76
0.460777156916,0.515378456753,-0.124103190954,-1.40649731409,0.0764453569862,1.91278698155,0.152569652342,-0.0123541277753,-0.0801206800568,0.000139064942748,-0.136409886665,-0.00216313878635,0.0552452465116,-0.0234784467773,0.573946765501,0.818877707843,0.00227087428995,0.0,0.81883843439,-0.573886598396,-0.0117701932573,0.0,-0.00833528503385,0.00861510936519,-0.999928148876,0.0,0.655739725656,0.253179088349,0.303559112777,1.0,-0.01552,-0.0203977142857,0.777
0.460604854503,0.51407423365,-0.124105741823,-1.40860019999,0.0763216744138,1.91353784268,0.152287984625,-0.00820565705389,-0.0807072200025,-0.000838628775313,-0.13516662283,-0.00430529568759,0.0442559322206,-0.0204884350117,0.573936264666,0.818885175249,0.00223176168934,0.0,0.818845285328,-0.573876137787,-0.0118035619805,0.0,-0.00838516858269,0.00860212542769,-0.99992784359,0.0,0.655475399049,0.252863192061,0.303537626487,1.0,-0.01584,-0.0208182857143,0.793
0.460419655603,0.512742521077,-0.124111743524,-1.41072701687,0.0761906435042,1.91428208554,0.15199131624,-0.0139368537222,-0.0855947857016,-0.00125456616255,-0.132946124157,-0.00817811953408,0.0456071745443,-0.0126017901168,0.573925265845,0.818893004154,0.00218720687373,0.0,0.818852471462,-0.573865249521,-0.0118343683524,0.0,-0.00843608185475,0.00858320801028,-0.999927577909,0.0,0.655208445958,0.252532802376,0.303523132079,1.0,-0.01616,-0.0212388571429,0.809
0.460195017921,0.511137986015,-0.124109993312,-1.41329642042,0.0760357999697,1.91524064661,0.151621954645,-0.00780498584481,-0.0905023283301,0.00113583051547,-0.129192350987,-0.00218724088658,0.05323905832,-0.0150971953118,0.573898267555,0.818911939937,0.00218174855803,0.0,0.818871267531,-0.573838206244,-0.011845132652,0.0,-0.00844831253601,0.00858463759594,-0.999927462375,0.0,0.654894670359,0.252142869065,0.303506966543,1.0,-0.01654,-0.0217382857143,0.828
0.460004552144,0.509764709145,-0.124112867637,-1.41550144009,0.0758968409835,1.91607240468,0.151313006758,-0.00926981277173,-0.0858387829953,0.000335011442061,-0.136725468987,-0.0179890831219,0.0529683528073,-0.0200168612337,0.573880879845,0.818924138368,0.00217675157268,0.0,0.818883427878,-0.573820867793,-0.0118444135912,0.0,-0.00845077342184,0.00857995347314,-0.999927481784,0.0,0.654626943892,0.251806858973,0.303490963731,1.0,-0.01686,-0.0221588571429,0.844
0.459799801765,0.508257176217,-0.124124145757,-1.41787535512,0.0757501820026,1.9169113468,0.150981971043,-0.00910329619264,-0.0872354443145,-0.00178291576721,-0.142533724946,-0.00852942048882,0.0481575435177,-0.022482113057,0.573869043618,0.818932500465,0.0021511301437,0.0,0.818891419576,-0.573809097287,-0.0118621126257,0.0,-0.00848009477555,0.00856900622478,-0.999927327422,0.0,0.654328840524,0.251437695952,0.303488903094,1.0,-0.0172,-0.0226057142857,0.861
0.459571824581,0.506635999558,-0.124116337068,-1.42040744512,0.0755895671323,1.91783700171,0.150632744192,-0.0142645814215,-0.0864236887813,0.00130644312389,-0.142327549801,-0.00958606609223,0.052141546289,-0.0181811612018,0.57385179596,0.818944556464,0.00216254778304,0.0,0.818903573974,-0.5737917555,-0.0118619034624,0.0,-0.00847355232322,0.00857805786805,-0.999927305275,0.0,0.654014459391,0.25105091043,0.303497382912,1.0,-0.01756,-0.0230788571429,0.879
0.45936306908,0.505123596569,-0.124127925658,-1.42272625492,0.0754467497862,1.91872650167,0.150327380018,-0.0141405420209,-0.0874882322132,0.00135438862646,-0.14084922413,-0.00984986695267,0.0606762034627,-0.0219855648077,0.57386225143,0.818937051985,0.00222893940001,0.0,0.818897002467,-0.573802018693,-0.0118190353204,0.0,-0.00840023774597,0.00860793574151,-0.999927667108,0.0,0.653738680906,0.250689665114,0.303528221498,1.0,-0.01788,-0.0234994285714,0.895
0.459147128399,0.503470360065,-0.124129852745,-1.42520190385,0.0752872909097,1.91966850766,0.14996561651,-0.00810402756426,-0.0962313075259,0.00144626690759,-0.146834638219,-0.00831030674738,0.0486288835672,-0.0141715442927,0.573828432392,0.818960477952,0.00232650625093,0.0,0.818921773038,-0.573767908973,-0.0117585363994,0.0,-0.00829506166847,0.00865277572601,-0.999928158131,0.0,0.653438978448,0.250313598522,0.303586408517,1.0,-0.01822,-0.0239462857143,0.912
0.45891064269,0.501774758632,-0.12413594456,-1.42770769351,0.0751274060113,1.92058904465,0.149625395071,-0.0113789525113,-0.0947581569092,0.000498795250172,-0.147679570485,-0.00679238010814,0.0497968137479,-0.0231912643505,0.573832784589,0.818957163737,0.00241789058732,0.0,0.818919687073,-0.573771965018,-0.0117057756697,0.0,-0.00819936887156,0.00869738350304,-0.999928560383,0.0,0.653133864975,0.249917268221,0.303657413485,1.0,-0.01856,-0.0243931428571,0.929
0.458681271771,0.500156842622,-0.124140556336,-1.43014705372,0.0749672142314,1.92144953419,0.149276784686,-0.0145487363521,-0.100294640132,-0.000466052056799,-0.150289155032,-0.00905258901608,0.0593182638848,-0.0177855638897,0.573819329106,0.818966504336,0.00244728867546,0.0,0.818929400015,-0.573758394402,-0.011691430469,0.0,-0.00817089483585,0.00871309318871,-0.999928656697,0.0,0.6528443826,0.249558000772,0.303697083242,1.0,-0.01886,-0.0247874285714,0.944
0.458434640207,0.498482777411,-0.124133298633,-1.432762392,0.0747996801947,1.92242052181,0.148906763421,-0.0123425557211,-0.0893297388274,0.00185626617392,-0.14924452197,-0.00811618733305,0.0575042499869,-0.0238002632719,0.573800706325,0.818979483289,0.00247027788832,0.0,0.818942680521,-0.573739694412,-0.0116788688673,0.0,-0.00814761437639,0.00872452717479,-0.999928746964,0.0,0.652503214132,0.249123365347,0.303706635786,1.0,-0.01922,-0.0252605714286,0.962
0.458171869017,0.496806014437,-0.124136315534,-1.4354300304,0.0746346626835,1.92339299794,0.148514429396,-0.0118126292197,-0.0970614629191,0.000162235673718,-0.15933491999,-0.016595648136,0.0573792352911,-0.0207086072981,0.573787388863,0.818988865065,0.00245319822695,0.0,0.818951783295,-0.573726378963,-0.011694683497,0.0,-0.00817050833649,0.0087194808471,-0.999928604175,0.0,0.652171619642,0.248695308762,0.30369016554,1.0,-0.01956,-0.0257074285714,0.979
0.457923263725,0.495233921493,-0.124138047858,-1.43797703439,0.0744854017807,1.92425677558,0.148141512203,-0.0143945593379,-0.0914697795548,-9.36147827559e-05,-0.158377290023,-0.00795191098919,0.0585395908834,-0.0159123636048,0.573774886865,0.818997884704,0.00236451992844,0.0,0.818959417785,-0.573713959175,-0.0117691108597,0.0,-0.00828247827266,0.00868943341451,-0.999927944554,0.0,0.651838865666,0.248285572316,0.303648165278,1.0,-0.01988,-0.026128,0.995
0.457618091014,0.493442798954,-0.124142859095,-1.44091718626,0.0742956882451,1.92532529774,0.147733750483,-0.0221724190921,-0.0958916308853,-0.00186520407707,-0.158058899823,-0.00988667027578,0.0696599753423,-0.0211622736214,0.573790896847,0.81898688437,0.00228841138832,0.0,0.81894741901,-0.573730247689,-0.0118099400548,0.0,-0.00835941612213,0.0086506912485,-0.999927640234,0.0,0.651473067532,0.247800894551,0.303588853194,1.0,-0.0211388571429,-0.0277824979592,1.013
0.457336644181,0.491559277962,-0.12414485364,-1.44389885235,0.0741103717561,1.92642672664,0.147316323614,-0.0144890977705,-0.113600895516,-0.00015921573107,-0.184818191572,-0.00698642935129,0.0646221804907,-0.0212482416939,0.573780264701,0.81899433127,0.00228912395625,0.0,0.818954826827,-0.573719564088,-0.0118152571517,0.0,-0.00836347445422,0.00865421710968,-0.999927575788,0.0,0.651097919816,0.247332669174,0.303575973752,1.0,-0.0227805714286,-0.0299401795918,1.03
0.457037414482,0.489715217561,-0.124161849001,-1.44690775162,0.0739200264908,1.92747321755,0.146880528118,-0.0230307474357,-0.123565724376,-0.00176742735396,-0.197655537666,-0.00826757607815,0.0664387443885,-0.0240276193302,0.573778937516,0.818995550709,0.00218304458072,0.0,0.818954600872,-0.573718587027,-0.0118781947783,0.0,-0.00847589860895,0.00860343802566,-0.999927067339,0.0,0.650710539491,0.246836117677,0.303517703772,1.0,-0.0243257142857,-0.0319709387755,1.046
0.456689599585,0.487541520025,-0.124181586305,-1.45028511468,0.0737171569044,1.92873653491,0.146391521476,-0.025346205604,-0.137283768354,-0.000375091562797,-0.198980763861,-0.0106481652293,0.0794687848216,-0.0247860736125,0.573790598333,0.818987248765,0.0022321574546,0.0,0.818946925616,-0.573730038742,-0.011854221625,0.0,-0.00842796283637,0.00863002555862,-0.999927243404,0.0,0.650296853667,0.246279699484,0.303530995135,1.0,-0.0259674285714,-0.0341286204082,1.063
0.456311098376,0.485237363267,-0.124201478847,-1.45380688985,0.0734987009149,1.93008479069,0.145864687379,-0.0297587272358,-0.13924033376,-0.00389904645479,-0.21292452102,-0.00924854034336,0.0868550522483,-0.0333750389933,0.573798611585,0.818981340007,0.00233772616395,0.0,0.818942484689,-0.573737740295,-0.0117880886407,0.0,-0.00831314295813,0.00867861925883,-0.999927784003,0.0,0.649874609766,0.245691286933,0.303572289734,1.0,-0.0276091428571,-0.0362863020408,1.08
0.455909565665,0.482789507158,-0.124237649947,-1.45758901134,0.0732518302775,1.93137872989,0.145287689034,-0.0261618895744,-0.149346744017,-7.16205374645e-05,-0.234908287429,-0.0201343561301,0.0776591245929,-0.0318412857257,0.573799149959,0.818981085225,0.00229443908682,0.0,0.818941697259,-0.573738475533,-0.0118069930638,0.0,-0.0083534568387,0.00865402104033,-0.999927661223,0.0,0.649389842742,0.245041852019,0.303583903702,1.0,-0.0292508571429,-0.0384439836735,1.097
0.455462617838,0.480053387969,-0.124265750649,-1.46185869936,0.0729928156635,1.93291127245,0.144651881294,-0.0227263643876,-0.151812018192,0.000308166269156,-0.238536914805,-0.0226173024101,0.0930812297322,-0.0375239093738,0.573803187137,0.818978260277,0.00229314747027,0.0,0.818938758602,-0.573742416818,-0.0118192936966,0.0,-0.00836422965496,0.00866006246844,-0.999927518863,0.0,0.648847767213,0.244328133233,0.303582380838,1.0,-0.0309891428571,-0.0407285877551,1.115
0.455075677091,0.477796811461,-0.124282793162,-1.46527094156,0.0727867692004,1.93417022525,0.144152608532,-0.0274476039183,-0.166369413934,-0.000154108120712,-0.243813692605,-0.0129212978321,0.0919746999598,-0.0366015964479,0.573833536354,0.818956740513,0.00238256695785,0.0,0.818918359277,-0.573772376943,-0.0117782510425,0.0,-0.00827898637218,0.00871005096722,-0.999927794092,0.0,0.648426925889,0.243745217459,0.303630941655,1.0,-0.0323411428571,-0.0425055020408,1.129
0.454598571398,0.47497648675,-0.124302018735,-1.46960564922,0.0725166550748,1.93577130449,0.143547287908,-0.0242169705201,-0.171787959213,-0.00341951598667,-0.266422544051,-0.0120065246477,0.0935882808352,-0.035529730983,0.573878619648,0.818924941868,0.00245283484129,0.0,0.818887470681,-0.573817189411,-0.0117426742846,0.0,-0.00820904811078,0.00874763384767,-0.999928042627,0.0,0.647884817058,0.243014124124,0.303659083749,1.0,-0.0339828571429,-0.0446631836735,1.146
0.454095814185,0.472026998636,-0.124309813134,-1.47417222679,0.0722295524868,1.93734691764,0.142868375506,-0.0317273363498,-0.177698804404,2.36037072092e-05,-0.272215098457,-0.0181134975188,0.0887095573231,-0.0380670483583,0.573880483202,0.818923730627,0.00242101566457,0.0,0.818885625875,-0.573818937504,-0.0117858219454,0.0,-0.0082626237208,0.00874635651514,-0.999927612529,0.0,0.64728462325,0.242243798609,0.303661750132,1.0,-0.0356245714286,-0.0468208653061,1.163
0.453609673689,0.469108817964,-0.124309871035,-1.47857477496,0.0719509393571,1.9389977163,0.142170785795,-0.0368201229867,-0.185899201483,-0.000310772472006,-0.271481188392,-0.0193207137009,0.10727188724,-0.0399499096031,0.573841450895,0.818950651513,0.0025625225772,0.0,0.818914372401,-0.573779375441,-0.0117143456976,0.0,-0.00812330483595,0.00882083352782,-0.999928099822,0.0,0.646729676632,0.241514338003,0.303724912944,1.0,-0.0371697142857,-0.0488516244898,1.179
0.453047916122,0.465707571184,-0.124307733939,-1.48375939956,0.0716032531368,1.94088644714,0.141348583501,-0.034299358036,-0.189685525337,-0.00591506505699,-0.296598781009,-0.0192502688717,0.100194509845,-0.0446093019301,0.573776466581,0.818995923829,0.00264387038125,0.0,0.818960739342,-0.57371415273,-0.0116672736813,0.0,-0.00803877850283,0.0088598036883,-0.999928438399,0.0,0.646057640365,0.240657101983,0.30376757099,1.0,-0.038908,-0.0511362285714,1.197
0.452501294435,0.462584565493,-0.124316175396,-1.48865749683,0.0712717354299,1.94256535907,0.140627483317,-0.0357715406542,-0.19124069195,-0.00240177432317,-0.307506106995,-0.0255560204834,0.109703018901,-0.0478667328321,0.573778055001,0.818995098638,0.00255321519415,0.0,0.818958650603,-0.573715969054,-0.0117244341075,0.0,-0.00813759041289,0.00881837044926,-0.999928005391,0.0,0.645401121858,0.239823061173,0.303734641172,1.0,-0.0404531428571,-0.0531669877551,1.213
0.451861798326,0.458958239754,-0.124312408227,-1.49429878191,0.0708936141503,1.9445354141,0.139787301636,-0.0381257725057,-0.207290573191,0.000152750199859,-0.315474977336,-0.0124747825301,0.109236525714,-0.0473880435542,0.573769218182,0.819001425453,0.0025092375357,0.0,0.818964273672,-0.573707151258,-0.0117630755104,0.0,-0.00819456586305,0.00880443604757,-0.999927662882,0.0,0.644647004551,0.238868196238,0.303716832561,1.0,-0.0421914285714,-0.0554515918367,1.231
0.451280072463,0.455888170407,-0.124320911796,-1.49918633462,0.0705695743708,1.94627651864,0.139022349147,-0.0401958878301,-0.206012689459,-0.000183390493406,-0.334915566416,-0.0146653837566,0.116424819965,-0.0500155885559,0.573762030151,0.819006681913,0.00243611188449,0.0,0.818968503226,-0.573700156216,-0.0118096732616,0.0,-0.00827476285859,0.00877120988269,-0.999927294445,0.0,0.644003054176,0.238018767539,0.303653218302,1.0,-0.04364,-0.0573554285714,1.246
0.450608019939,0.452201623478,-0.124370774982,-1.50482459123,0.0701762055169,1.94826474037,0.138115926904,-0.0396612533195,-0.221101910601,-0.00449926188555,-0.335843737572,-0.0164599065225,0.127231332257,-0.0462135873898,0.573765191351,0.819004428741,0.00244904029369,0.0,0.818966674251,-0.573703540359,-0.0117720494265,0.0,-0.00823649610678,0.00876024323806,-0.999927706522,0.0,0.643222292828,0.236950498538,0.303675528381,1.0,-0.0453782857143,-0.0596400326531,1.264
0.449823989464,0.447872854536,-0.12442211392,-1.51132958086,0.0697391645248,1.95059938549,0.137155877111,-0.0425659917556,-0.229480846467,-2.68517488646e-05,-0.35137578703,-0.0218092208848,0.121702341927,-0.0482545288442,0.573823437427,0.818963278755,0.00256078352543,0.0,0.818927158768,-0.573761567838,-0.0116926816758,0.0,-0.00810675383234,0.00880679952683,-0.999928357846,0.0,0.642415509686,0.235858302297,0.303751716318,1.0,-0.0471165714286,-0.0619246367347,1.282
0.44912881738,0.444166385573,-0.12444301965,-1.5170475587,0.0693418198271,1.95251498167,0.136290394147,-0.046886942534,-0.228059972618,-0.00010063388063,-0.35770275277,-0.0210725357769,0.129711288345,-0.0578765051518,0.573845002319,0.818948454458,0.00246762140556,0.0,0.818911046671,-0.573783384463,-0.0117504151478,0.0,-0.00820726217811,0.00876384816699,-0.999927915308,0.0,0.641629585844,0.234842881026,0.303735482818,1.0,-0.0486617142857,-0.0639553959184,1.298
0.448386090329,0.440160870716,-0.12444717396,-1.52324311293,0.0689074148244,1.95471574207,0.135265568503,-0.0403296123174,-0.237835316229,-0.00149094158276,-0.367508550759,-0.0305055588558,0.131860234381,-0.0603158420212,0.573771570886,0.818999924824,0.00246058580078,0.0,0.818962473027,-0.573710038837,-0.0117475960443,0.0,-0.00820977556542,0.00875573264395,-0.999927965771,0.0,0.640789991679,0.233768834701,0.303717405824,1.0,-0.0503034285714,-0.066113077551,1.315
0.447573040067,0.436030355413,-0.124450420497,-1.52957479497,0.0684941935199,1.95697813334,0.134254846863,-0.0499502184254,-0.248519406193,0.000230153970377,-0.368291652657,-0.02203345736,0.139002036169,-0.0576604592848,0.573776511192,0.81899630249,0.00251368533278,0.0,0.818959355511,-0.573714585055,-0.0117429049924,0.0,-0.00817541523368,0.00879657853927,-0.999927888796,0.0,0.639939371704,0.232644658925,0.303721238407,1.0,-0.0519451428571,-0.0682707591837,1.332
0.446776803228,0.431987516163,-0.124477806061,-1.53563172408,0.068061243204,1.95918688017,0.133272634275,-0.0531123513895,-0.252329952927,-0.000692935979679,-0.383659335731,-0.0298490432695,0.139440201973,-0.0547077611114,0.573787202332,0.8189883684,0.00265438640376,0.0,0.818953569979,-0.573725126156,-0.011630852787,0.0,-0.00800279905141,0.008847624047,-0.999928834846,0.0,0.639141629074,0.231542675605,0.303787513618,1.0,-0.0534902857143,-0.0703015183673,1.348
0.445853256775,0.427376262191,-0.12451541358,-1.54284203125,0.0675287314137,1.9614939799,0.132118613246,-0.0493340329622,-0.253501411099,-0.00741605738198,-0.405901150759,-0.0276560617461,0.126430561644,-0.064154315421,0.573785469984,0.818990424132,0.00238044479184,0.0,0.818952011967,-0.573724321083,-0.0117793205898,0.0,-0.00828159114001,0.0087084407168,-0.999927786547,0.0,0.638109396155,0.230219886073,0.303697364899,1.0,-0.0552285714286,-0.072586122449,1.366
0.445115463777,0.423643984642,-0.124556615078,-1.54847158833,0.067119391975,1.96342511308,0.131183819959,-0.0495350166278,-0.268283909618,-0.000348186514612,-0.401375191866,-0.0207471959153,0.141668651487,-0.0691109367308,0.573778731293,0.818995126282,0.00238695250521,0.0,0.818956984423,-0.573717754312,-0.0117534230913,0.0,-0.00825671816534,0.00869884309497,-0.99992807578,0.0,0.637332586753,0.229181710856,0.30372402041,1.0,-0.0565805714286,-0.0743630367347,1.38
0.444174311246,0.419071105395,-0.124578319322,-1.55542756008,0.0666457795149,1.96584031678,0.130090758613,-0.0551955623914,-0.27139461984,-0.00120795029789,-0.405606321411,-0.0286227579119,0.14665378576,-0.063907585631,0.573830694961,0.818958656468,0.00240819817215,0.0,0.818920661058,-0.573769495419,-0.0117585679564,0.0,-0.00824818916865,0.00871971834286,-0.999927964349,0.0,0.636368563061,0.227905489696,0.303727965831,1.0,-0.0582222857143,-0.0765207183673,1.397
0.443073922315,0.413792752852,-0.124594224922,-1.56326174997,0.066114518466,1.96871849115,0.128757922542,-0.0566771131023,-0.275115686087,0.000362645119395,-0.420414924798,-0.026530339664,0.144445345144,-0.0766764321527,0.57382954006,0.818958641631,0.00267379015454,0.0,0.818924178535,-0.57376748476,-0.0116107770314,0.0,-0.00797476587315,0.00885240868586,-0.999929016466,0.0,0.635314772609,0.226461754389,0.303825825682,1.0,-0.0600571428571,-0.078932244898,1.416
0.442120292975,0.409267940277,-0.124612629469,-1.57019751938,0.0656171549266,1.97092508708,0.127612899171,-0.0607703664374,-0.285452363853,-0.00259581413745,-0.434304715127,-0.0228664266187,0.133105422206,-0.0718817703543,0.573829009717,0.818959580296,0.00249406287326,0.0,0.818922472321,-0.57376724978,-0.0117419890989,0.0,-0.00818536046228,0.00878050716301,-0.999927948688,0.0,0.634297301186,0.225169255471,0.303777882163,1.0,-0.0616022857143,-0.0809630040816,1.432
0.441093143789,0.404385828286,-0.1246485183,-1.57769829435,0.0650903436073,1.97344781298,0.126400272879,-0.0614396652207,-0.286524714383,-0.0020249864877,-0.442043481029,-0.0313603714331,0.144045292275,-0.075228950088,0.573858295611,0.818939335471,0.00240172398303,0.0,0.818900852786,-0.573796691406,-0.0118108907198,0.0,-0.00829446141632,0.00874471979892,-0.999927363255,0.0,0.633216200881,0.223777144634,0.30372519189,1.0,-0.063244,-0.0831206857143,1.449
0.440000103508,0.399318095717,-0.12466068652,-1.58513046456,0.0645755377724,1.9761377926,0.125103991863,-0.0654581875564,-0.309621241574,-0.000566444198248,-0.433997494465,-0.0221897541141,0.157610935023,-0.0702549074401,0.573852512445,0.818942553048,0.00267126739459,0.0,0.818907650562,-0.573790012034,-0.0116631403328,0.0,-0.00801884975795,0.00888061466848,-0.999928413804,0.0,0.632190919329,0.22238226357,0.30383671267,1.0,-0.0648857142857,-0.0852783673469,1.466
0.438935232898,0.394479139205,-0.124665612057,-1.59234559615,0.0640140564362,1.97860697041,0.123874845835,-0.0691332850609,-0.303154744612,-4.96082709894e-05,-0.464690796255,-0.0383859949064,0.150782300079,-0.073917949419,0.573843547917,0.818948682083,0.00271763310833,0.0,0.818914647484,-0.573781186019,-0.0116059298051,0.0,-0.00794548714544,0.0088856685718,-0.99992895454,0.0,0.631157319374,0.221013390445,0.30387248421,1.0,-0.0664308571429,-0.0873091265306,1.482
0.437722049715,0.388941337559,-0.124684762137,-1.60075958984,0.0633854829972,1.98128079981,0.122456525821,-0.0625181345937,-0.312900681433,-0.000920414123255,-0.468259008528,-0.0290376156865,0.153029277534,-0.0859640838204,0.573834312357,0.818955750238,0.00253140576869,0.0,0.818919029939,-0.573772310394,-0.011734782882,0.0,-0.00815797444883,0.00880700698439,-0.999927939444,0.0,0.629890918295,0.219420738326,0.303819601495,1.0,-0.0681691428571,-0.0895937306122,1.5
0.436534655975,0.383638793441,-0.124689030162,-1.6087374027,0.062797428476,1.9839487536,0.120993601359,-0.0718301597951,-0.316558854233,4.58483059024e-05,-0.468180515028,-0.0351075978245,0.160991038058,-0.0819026579659,0.573746734089,0.819017161569,0.00251417583505,0.0,0.818980061864,-0.57368463879,-0.0117618190159,0.0,-0.00819094527057,0.00880753470057,-0.999927665258,0.0,0.628711291176,0.217908909225,0.303807986424,1.0,-0.0698108571429,-0.0917514122449,1.517
0.435369611293,0.378522157994,-0.124697488923,-1.61622629328,0.0622686677004,1.98660277011,0.119680466239,-0.077151121456,-0.309276661864,-0.000854384003734,-0.475093365532,-0.0399568488376,0.162494173829,-0.0872071007779,0.573762172142,0.819005593484,0.00274855634787,0.0,0.818971537036,-0.573699241603,-0.0116425345588,0.0,-0.00795860946163,0.00893120728798,-0.999928444476,0.0,0.62763807654,0.216472808774,0.303895727416,1.0,-0.071356,-0.0937821714286,1.533
0.434064671775,0.37303394591,-0.124729464577,-1.62455618183,0.0616053121697,1.98926783185,0.118199458936,-0.0790710786206,-0.331740102043,-0.00115918202493,-0.49662765951,-0.0428135533389,0.157833627636,-0.0872773449485,0.573755314814,0.819010999319,0.00256293171418,0.0,0.818974594803,-0.573693106906,-0.0117294098797,0.0,-0.00813633609876,0.00882895720501,-0.999927922177,0.0,0.626378817245,0.214829089634,0.303827361568,1.0,-0.0729977142857,-0.0959398530612,1.55
0.432720881502,0.367413557543,-0.124793568502,-1.6329563385,0.0609537699893,1.99196479386,0.116771413243,-0.0804935533603,-0.334408173801,0.000426205196208,-0.487193895452,-0.038737315777,0.174080455673,-0.0836799953191,0.573849077053,0.818945615303,0.00246228408125,0.0,0.818907968992,-0.573787297993,-0.0117737795525,0.0,-0.00822941625194,0.00877292549168,-0.999927653626,0.0,0.625111708799,0.213143660061,0.303808895226,1.0,-0.0746394285714,-0.0980975346939,1.567
0.431429565193,0.36199723088,-0.124821160137,-1.64077628164,0.060336897661,1.99469303286,0.115305328427,-0.0886317125132,-0.343705637396,-0.000417594750085,-0.494415662451,-0.0348430152988,0.172412352744,-0.106216572707,0.573825246125,0.81896156023,0.00270123608479,0.0,0.818927489287,-0.573763138775,-0.0115920133941,0.0,-0.00794369662162,0.00886407708479,-0.999929160402,0.0,0.623971675468,0.211586034988,0.303923329814,1.0,-0.0761845714286,-0.100128293878,1.583
0.429906144964,0.355901881942,-0.124837848904,-1.64991364125,0.0596692781133,1.99759198753,0.113612759376,-0.0875557405013,-0.341131059144,-0.000380762365133,-0.513023514078,-0.0422771297141,0.157789729176,-0.0911532901939,0.573824771023,0.818962264549,0.00258617603465,0.0,0.818926131465,-0.573762437204,-0.0117219348876,0.0,-0.00811612793634,0.00884439402013,-0.999927949985,0.0,0.622558064933,0.20975903318,0.303869632814,1.0,-0.0779228571429,-0.102412897959,1.601
0.428427271587,0.350071707585,-0.124887371937,-1.65868848551,0.0590074819673,2.00037252604,0.111995146132,-0.0862219049593,-0.338521428528,-0.0002279373845,-0.517868060505,-0.037356670828,0.162868729621,-0.103809271933,0.573856015602,0.818940828286,0.00243721654412,0.0,0.818902424176,-0.573793871421,-0.0118389061928,0.0,-0.00829706347136,0.00878983930475,-0.999926946063,0.0,0.621195502763,0.207976432741,0.303794523156,1.0,-0.0795645714286,-0.104570579592,1.618
0.426988274156,0.344351248491,-0.124910758722,-1.66681121948,0.0584008320308,2.00317833167,0.110439441278,-0.0868828297004,-0.35381749256,0.000722722849727,-0.513310161574,-0.0444177727962,0.177135793898,-0.0875279171521,0.573874517496,0.818926809161,0.00276880967147,0.0,0.818892870876,-0.573811340669,-0.011651534188,0.0,-0.0079531324472,0.0089540494542,-0.99992828377,0.0,0.619986672302,0.20631918134,0.303947211464,1.0,-0.0811097142857,-0.106601338776,1.634
0.425427601311,0.338285026942,-0.124904185408,-1.67575747586,0.05767176857,2.00596134359,0.108764605955,-0.0933302823548,-0.352801474978,0.00102411958509,-0.535322837381,-0.0412327993693,0.162695583658,-0.104623796287,0.573852819053,0.818942360288,0.0026644872489,0.0,0.818906904727,-0.573789828365,-0.0117243829655,0.0,-0.00807289360566,0.00891020877121,-0.999927715672,0.0,0.618563714601,0.204503707772,0.303926301872,1.0,-0.0827514285714,-0.108759020408,1.651
0.423758666965,0.331793922434,-0.124902404276,-1.68540289619,0.0568625834052,2.00895478743,0.106921450545,-0.0898693898672,-0.361098242258,0.000408348487341,-0.52887618976,-0.0473617105757,0.166089889922,-0.106056459459,0.573775868235,0.818996817164,0.00249267097934,0.0,0.818959071007,-0.573713456035,-0.0118176681831,0.0,-0.00824871255925,0.00882225818767,-0.999927060591,0.0,0.617009347141,0.202553785701,0.303860936346,1.0,-0.0844897142857,-0.11104362449,1.669
0.422329230395,0.326191386574,-0.124899593683,-1.69328163023,0.0562531739183,2.01162975163,0.105324871539,-0.0964714529567,-0.366100922175,-0.000150644860027,-0.524889754641,-0.0385253282523,0.173877013745,-0.105020626245,0.573704614894,0.819045666526,0.00282097417676,0.0,0.819012316603,-0.57364118232,-0.0116346938268,0.0,-0.00791127091467,0.00898546313494,-0.999928334054,0.0,0.615792362028,0.200950470824,0.304013031967,1.0,-0.0859382857143,-0.112947461224,1.684
0.420606786829,0.319929097322,-0.12492417424,-1.70252656713,0.0554897302684,2.01451576831,0.103571560525,-0.104400069077,-0.365642943926,-0.000777344778059,-0.537522285453,-0.0409325041758,0.162438203665,-0.105645129809,0.573753342433,0.819011907677,0.00270998731539,0.0,0.818977052572,-0.573690213806,-0.0116992668712,0.0,-0.00802730022663,0.00893208286571,-0.999927887573,0.0,0.614306390545,0.199005625209,0.303959434422,1.0,-0.08758,-0.115105142857,1.701
0.418959223588,0.313895591377,-0.124972605027,-1.71138372265,0.0547655128354,2.01718085141,0.101789659656,-0.102655265569,-0.37921133655,-0.000667017042797,-0.546113511974,-0.0483588789761,0.16244149189,-0.113787303261,0.573728628537,0.819029707464,0.00255851342094,0.0,0.818992619539,-0.573665762224,-0.0118080182022,0.0,-0.00820354408576,0.00887017247595,-0.999927008288,0.0,0.612852108929,0.197131483569,0.303912165382,1.0,-0.0891251428571,-0.117135902041,1.717
0.417258954676,0.307724700276,-0.124986995961,-1.72009201745,0.0540086717517,2.0200682229,0.0999991861671,-0.113187415366,-0.384251130946,-0.00285871260871,-0.552823213476,-0.0489074030951,0.178682729373,-0.11333504194,0.573691243931,0.819055092693,0.00280333226781,0.0,0.819021832601,-0.573628234019,-0.0116031788852,0.0,-0.00789572423632,0.00895280482879,-0.999928749874,0.0,0.611479639008,0.195276905512,0.304031283164,1.0,-0.0906702857143,-0.119166661224,1.733
0.415363155268,0.301199838244,-0.125017153934,-1.7296219284,0.0532297937962,2.02295348233,0.0980218744421,-0.115704167585,-0.388528849614,-0.00597264327309,-0.565276282964,-0.0496003122776,0.166273491835,-0.11665043842,0.573684823467,0.819059967156,0.00269080406389,0.0,0.819024897708,-0.573621809864,-0.011703977262,0.0,-0.00804291018563,0.00891840135945,-0.999927884256,0.0,0.60990672703,0.193213879924,0.303981466331,1.0,-0.092312,-0.121324342857,1.75
0.413426841695,0.294591935527,-0.125117397027,-1.73925144645,0.0524594104634,2.02582703478,0.0961202410877,-0.115368957219,-0.394433161657,-0.00523683304355,-0.553048371752,-0.0442653359308,0.172851890657,-0.125858916278,0.57382678492,0.818960943021,0.00255765817772,0.0,0.818923733876,-0.573763790184,-0.0118227776078,0.0,-0.00821505961411,0.00887892439518,-0.999926836072,0.0,0.608307835235,0.191083981737,0.303927035972,1.0,-0.0939537142857,-0.12348202449,1.767
0.411197587929,0.28699091101,-0.125162082884,-1.74992523298,0.0515580315002,2.02927902297,0.0938235950335,-0.117227063603,-0.39544814739,-0.00315883911192,-0.573043432283,-0.0475061758343,0.171312018035,-0.117692811375,0.573818356702,0.818965869971,0.00285381090266,0.0,0.818932963112,-0.573754818566,-0.0116170995822,0.0,-0.00787677196149,0.00900335815313,-0.999928445443,0.0,0.606678915344,0.188860479799,0.304057543196,1.0,-0.095692,-0.125766628571,1.785
0.409267836726,0.280599906445,-0.125191117742,-1.75921784736,0.050731199791,2.03193024845,0.0918560784314,-0.119783950531,-0.400428277475,-0.00504652726771,-0.582602216571,-0.0563153476871,0.171695156698,-0.128335634048,0.573798382545,0.818980711643,0.00259943200996,0.0,0.818944232094,-0.573735438605,-0.011778714327,0.0,-0.00815531059239,0.00888756819379,-0.999927248374,0.0,0.604980219838,0.186679149877,0.303970270115,1.0,-0.0973337142857,-0.127924310204,1.802
0.407023914184,0.273256680126,-0.125235313673,-1.7695392231,0.04984561071,2.03515637992,0.0896371195493,-0.129335323549,-0.419548651706,-0.00469166695355,-0.565267479576,-0.0502598352649,0.185062569853,-0.126322191044,0.573842924023,0.818948921049,0.00277671816643,0.0,0.818914970551,-0.573779594771,-0.0116616694403,0.0,-0.007957240583,0.00896603519008,-0.999928143686,0.0,0.603265443085,0.18436301459,0.304047587628,1.0,-0.099072,-0.130208914286,1.82
0.404974803372,0.26671564216,-0.125299611375,-1.77884059156,0.0490351084594,2.0379781405,0.0875788013456,-0.134979760498,-0.413336047429,-0.00594379144975,-0.590630371815,-0.0439728952462,0.169180704018,-0.123040030894,0.573863541048,0.818934402207,0.00279786342158,0.0,0.818900816886,-0.573800239423,-0.0116397698948,0.0,-0.00792694591774,0.00897098492955,-0.999928339911,0.0,0.601692590809,0.182247041437,0.304050031322,1.0,-0.100617142857,-0.132239673469,1.836
0.402867793642,0.260093114339,-0.125369188105,-1.78834725082,0.0481753661859,2.04062203768,0.0855267370743,-0.135156476677,-0.416029054082,-0.00468371623239,-0.592568208351,-0.0530953052297,0.171636618655,-0.126725428551,0.573919549943,0.818895911756,0.00256569748784,0.0,0.818859078859,-0.573856807428,-0.0117864515079,0.0,-0.00817969146915,0.00886559031645,-0.999927244331,0.0,0.600020925414,0.180065780011,0.303980645614,1.0,-0.102162285714,-0.134270432653,1.852
0.400593070453,0.252886395289,-0.125380727839,-1.79824962218,0.0472982833977,2.04364716501,0.0833055459712,-0.129941646547,-0.417226423294,0.00069536627339,-0.582962747047,-0.0521353770742,0.176829004648,-0.128510389148,0.573926003301,0.818890568755,0.00281532257028,0.0,0.81885721791,-0.573862643563,-0.0116305588931,0.0,-0.00790869880118,0.00898060029346,-0.999928398087,0.0,0.598327221137,0.177812377852,0.304109732269,1.0,-0.103804,-0.136428114286,1.869
0.398133790248,0.245317633973,-0.125366541881,-1.80903868921,0.0463630454908,2.04674519642,0.0808218882285,-0.135153859904,-0.42315984565,0.000322731392211,-0.60684954644,-0.0511208412196,0.162457985089,-0.12900510982,0.573832534793,0.818956387057,0.00272121521741,0.0,0.81892123024,-0.573768858054,-0.0117500251523,0.0,-0.00806156480883,0.00897118035363,-0.999927261903,0.0,0.596509715622,0.175523603536,0.304048162326,1.0,-0.105445714286,-0.138585795918,1.886
0.396032459031,0.2389146266,-0.125379455333,-1.81804309744,0.0455503453325,2.04930283132,0.0787217041749,-0.142042548644,-0.429022973352,0.000460577562119,-0.590730091395,-0.047732300078,0.171598193577,-0.138735575519,0.573787448236,0.818988169436,0.00266260624785,0.0,0.818951931997,-0.573723638476,-0.0118180639076,0.0,-0.00815141132156,0.00896177580542,-0.999926617841,0.0,0.594790848636,0.173321792065,0.304023950586,1.0,-0.106990857143,-0.140616555102,1.902
0.393472334004,0.231042221322,-0.125360202094,-1.82875017579,0.044579947305,2.05253849412,0.0762397037223,-0.140934602063,-0.435549012056,-0.000140827469566,-0.603847284708,-0.0551742289201,0.169981575559,-0.141517388738,0.573748125155,0.819014655324,0.00297155643618,0.0,0.818982722659,-0.573683565995,-0.0116281122559,0.0,-0.00781901179864,0.00910543629438,-0.999927974448,0.0,0.592904396929,0.170875755941,0.304163304645,1.0,-0.108729142857,-0.142901159184,1.92
0.391242322854,0.224485552544,-0.12538346896,-1.83800095223,0.0436931301913,2.05501746497,0.0740049576225,-0.147970590952,-0.444221416221,-0.00395133443107,-0.621815687908,-0.0671018712955,0.162455940944,-0.145871756064,0.573658522457,0.819078151454,0.00276194212341,0.0,0.819043238644,-0.573594403855,-0.0117635028526,0.0,-0.00805114863495,0.0090105571682,-0.999926991767,0.0,0.591196687403,0.168713535236,0.304093309273,1.0,-0.110177714286,-0.144804995918,1.935
0.388787029199,0.217425226842,-0.125443853778,-1.84768757043,0.0428127818465,2.05781213483,0.0716476440074,-0.1486532799,-0.449235724231,-0.0055162038112,-0.599460942492,-0.0509445520504,0.182948739179,-0.149332974894,0.573688806742,0.819056522344,0.00288324924182,0.0,0.819023220024,-0.573624296169,-0.0116995217004,0.0,-0.00792882039433,0.00907350741503,-0.9999274,0.0,0.58946062826,0.166387860794,0.304143807831,1.0,-0.111722857143,-0.146835755102,1.951
0.385753598077,0.208969336224,-0.125480758212,-1.85928749284,0.0417402298438,2.06108020963,0.0688097032501,-0.162307206585,-0.447322529272,-0.00412313498513,-0.616412272888,-0.0643800079494,0.1655826628,-0.158371275621,0.573742137558,0.819018867492,0.00296667879143,0.0,0.818986549697,-0.57367722122,-0.0116715110231,0.0,-0.00785742297446,0.0091262834196,-0.999927483298,0.0,0.587350813746,0.163577861168,0.304179267719,1.0,-0.113557714286,-0.149247281633,1.97
0.383161444299,0.201837163179,-0.125563939023,-1.86928627649,0.0407485221368,2.06364342499,0.066333852227,-0.166780075271,-0.448402004482,0.000520345978713,-0.615715349073,-0.0521794889792,0.168959362392,-0.155421570663,0.573749349258,0.819014819715,0.00267511032661,0.0,0.818978434687,-0.573685156651,-0.0118495340269,0.0,-0.00817043019407,0.0089896931843,-0.999926212021,0.0,0.585460990895,0.161129851039,0.304077982526,1.0,-0.115102857143,-0.151278040816,1.986
0.380139456153,0.193611644037,-0.125627320562,-1.88031856007,0.0397201995696,2.06685122142,0.0635250725478,-0.176643505154,-0.449357706736,-0.00563832668081,-0.622737769019,-0.0585722304664,0.177185019644,-0.157548961645,0.57382071438,0.818963758661,0.00298272517923,0.0,0.818931728815,-0.573755826425,-0.0116542732578,0.0,-0.00783322229525,0.00913028748029,-0.999927636621,0.0,0.583458635853,0.158398190133,0.304196401782,1.0,-0.116841142857,-0.153562644898,2.004
0.37715182473,0.185875571993,-0.125765031229,-1.89101312756,0.0387169450627,2.06959697596,0.0607385539462,-0.178272490326,-0.460458535225,-0.0100752612575,-0.6368220496,-0.0585006170522,0.158505358017,-0.159366197154,0.573932148256,0.818886309634,0.00280142725344,0.0,0.818851296274,-0.573867161943,-0.0118229410525,0.0,-0.00807415291261,0.00907969310706,-0.999926180889,0.0,0.58143367455,0.155667631739,0.304120203015,1.0,-0.118482857143,-0.155720326531,2.021
0.37430231525,0.178433466634,-0.125861193457,-1.9009208805,0.0377341198778,2.07231096851,0.0581101127201,-0.177528966394,-0.469171104293,-0.00278530842042,-0.617493587651,-0.0580534100688,0.172257607052,-0.163763822242,0.574008477198,0.818832224197,0.00296708986536,0.0,0.818799795532,-0.57394338941,-0.0116887762992,0.0,-0.0078683565715,0.00913908521463,-0.999927280399,0.0,0.579587987096,0.153127537811,0.304212730028,1.0,-0.120028,-0.157751085714,2.037
0.371286657101,0.170549304746,-0.125839135868,-1.9116427151,0.0366316155985,2.07509860687,0.0552725204168,-0.178477091182,-0.467313739162,0.000737200993504,-0.634658142217,-0.0643535985376,0.154044746037,-0.172633074262,0.573913082434,0.818899377973,0.00288608158488,0.0,0.818865854246,-0.573848237181,-0.0117328741587,0.0,-0.00795202362166,0.00909713878477,-0.999927001029,0.0,0.577504103101,0.150492935771,0.304180071887,1.0,-0.121669714286,-0.159908767347,2.054
0.367976759458,0.162134707444,-0.125862558981,-1.92305216851,0.0355200273773,2.07798586235,0.0521030844527,-0.18678795844,-0.47444254983,-0.00134786360391,-0.618685721448,-0.0596259646361,0.16693555855,-0.184365630123,0.573821502831,0.818963857978,0.00279805557009,0.0,0.818928537578,-0.573756247928,-0.0118560197958,0.0,-0.00810440588176,0.00909482175639,-0.999925798658,0.0,0.575265371901,0.147628480608,0.304134425342,1.0,-0.123408,-0.162193371429,2.072
0.365164624409,0.154937068809,-0.125850536657,-1.93239163574,0.0345379746363,2.080567161,0.0495184582027,-0.189032404432,-0.479429139388,0.00105167079172,-0.62741626002,-0.0693199289069,0.166756440332,-0.17598659879,0.573775749762,0.818994797041,0.00310778158333,0.0,0.818964350528,-0.573710410852,-0.0115975835609,0.0,-0.00771554249372,0.0091997516528,-0.999927914889,0.0,0.573478750416,0.145261031723,0.304282494279,1.0,-0.124856571429,-0.164097208163,2.087
0.361855144116,0.146845163529,-0.125864609447,-1.943361312,0.0334212915518,2.08309966556,0.0464850491367,-0.200938579515,-0.471348305953,-0.0053084276444,-0.652663124359,-0.0633950791472,0.155359188358,-0.178372630893,0.573761412306,0.819005929019,0.00280657845052,0.0,0.818970557231,-0.573695951495,-0.0118713322122,0.0,-0.00811272496763,0.00910999284916,-0.999925593094,0.0,0.571116509088,0.142287668785,0.304174409887,1.0,-0.126594857143,-0.166381812245,2.105
0.358457375749,0.138623050571,-0.125938924029,-1.95407943079,0.0323583312599,2.08588096016,0.0433881826578,-0.20541507541,-0.491205467961,-0.0106380695081,-0.619460306851,-0.0616726786002,0.17016353137,-0.183429995933,0.573809588014,0.818971309818,0.00304914723965,0.0,0.81893924398,-0.573743424723,-0.011736445684,0.0,-0.00786253549286,0.0092317291373,-0.999926475153,0.0,0.569147477509,0.1396296283,0.304277942752,1.0,-0.12814,-0.168412571429,2.121
0.355191732266,0.130879533808,-0.125982846834,-1.96431106849,0.0312696330935,2.0884028125,0.0403347955022,-0.209632787327,-0.491671239207,-0.00162447064498,-0.638230141269,-0.066475120801,0.152500355641,-0.18464415892,0.573738179842,0.819021360952,0.00304272840138,0.0,0.818989274769,-0.573672122215,-0.0117307675495,0.0,-0.00786237211907,0.00922252871102,-0.999926561338,0.0,0.567090104669,0.136934857554,0.30427762424,1.0,-0.129685142857,-0.170443330612,2.137
0.351369922347,0.122083372567,-0.126126955046,-1.97595286992,0.0300114970713,2.09112476126,0.0369616856997,-0.210201935209,-0.504549195986,-0.00903131988521,-0.641343395149,-0.066713431518,0.167263444085,-0.183682006402,0.573882128463,0.818921021984,0.00289987663434,0.0,0.818886962536,-0.573816420724,-0.0118154474239,0.0,-0.00801207570596,0.00915552155733,-0.999925988795,0.0,0.564718629906,0.133769074141,0.304235648698,1.0,-0.131423428571,-0.172727934694,2.155
0.348106256055,0.114652508517,-0.126197238723,-1.98548802032,0.0290032014297,2.09359087307,0.0339833749496,-0.222604581358,-0.486736318932,-0.0021063452656,-0.643080093793,-0.0709602709379,0.159122625744,-0.204158963581,0.573894206652,0.818911580106,0.00316392810043,0.0,0.818881519602,-0.573828261048,-0.0116159622576,0.0,-0.00769704283877,0.0092573939286,-0.999927525468,0.0,0.562819695446,0.131162115622,0.304334541613,1.0,-0.132872,-0.174631771429,2.17
0.34436075419,0.10625167649,-0.126210730689,-1.99656418707,0.0277784240865,2.09602752781,0.0306022670563,-0.220022959742,-0.491571985384,0.000595918361983,-0.651996908694,-0.0608628381621,0.147206897031,-0.195888880928,0.573844818853,0.818947008745,0.00294408633122,0.0,0.818913596416,-0.573779040597,-0.0117847816109,0.0,-0.00796200991173,0.00917376481777,-0.999926221497,0.0,0.560480832749,0.128191776059,0.3042594025,1.0,-0.134513714286,-0.176789453061,2.187
0.340572352124,0.0976983494068,-0.126222292749,-2.00741310945,0.026592122607,2.09863793803,0.027103499504,-0.221362386156,-0.505744656815,0.00138932240518,-0.633605632944,-0.0665491298689,0.161260422904,-0.212404012369,0.573734289221,0.819023603103,0.0031701472659,0.0,0.818993554239,-0.573668261831,-0.0116202575065,0.0,-0.00769880052593,0.0092634487079,-0.999927455863,0.0,0.558233943504,0.125253567295,0.304369780749,1.0,-0.136155428571,-0.178947134694,2.204
0.336649926443,0.0891650200588,-0.126231445184,-2.01850425096,0.0254651809335,2.10107390473,0.0235902846419,-0.238264983408,-0.510086097245,-0.00259921908396,-0.658238902645,-0.0696038355761,0.134045648691,-0.212817561807,0.573735164373,0.81902320786,0.00311336616281,0.0,0.818991301831,-0.573667992295,-0.0117910577035,0.0,-0.00787126293468,0.00931494357793,-0.999925634758,0.0,0.555860074333,0.122247738143,0.304320932356,1.0,-0.137797142857,-0.181104816327,2.221
0.332323008516,0.0800277525603,-0.126358187938,-2.0301470528,0.024122862586,2.10363190612,0.019653011144,-0.24776752906,-0.518967275844,-0.00935683499789,-0.63273240979,-0.077268797976,0.156812297552,-0.218493138758,0.573718905948,0.81903461916,0.00310748711032,0.0,0.819002900018,-0.573652068228,-0.011760156474,0.0,-0.00784950999851,0.00929224396565,-0.999926016961,0.0,0.55338773842,0.118918874032,0.304347926293,1.0,-0.139535428571,-0.183389420408,2.239
0.328192918277,0.0713456089288,-0.126439735401,-2.04116428938,0.0229026578506,2.10611588035,0.0160019580065,-0.248172735023,-0.513448872958,-0.00299885514338,-0.649211574316,-0.0680526360702,0.136621170286,-0.213727441503,0.573771637536,0.818997280453,0.00321083640249,0.0,0.818966970374,-0.573704519955,-0.0117035089303,0.0,-0.00774321970971,0.00934489036286,-0.999926355075,0.0,0.551032123126,0.115806994178,0.304375896632,1.0,-0.141177142857,-0.185547102041,2.256
0.324117483739,0.0631207061207,-0.126570084798,-2.05174305641,0.0216901589722,2.1081580082,0.0123747807304,-0.25356686748,-0.521076142612,-0.00914567702067,-0.644072650212,-0.073816571084,0.12856759469,-0.232491025518,0.573825179667,0.818960737717,0.00295299173262,0.0,0.818926246864,-0.573757998332,-0.0119293104974,0.0,-0.00807548977801,0.00926379953294,-0.99992448139,0.0,0.548689647893,0.112735528863,0.30428982019,1.0,-0.142722285714,-0.187577861224,2.272
0.319975665185,0.0547997912316,-0.126670011516,-2.06197473965,0.0204846598672,2.11050593694,0.00874101978523,-0.252120711243,-0.51851614358,-0.00547933145145,-0.643559981996,-0.0708517983623,0.138901825217,-0.225654314212,0.573893250392,0.818911907884,0.00325133543024,0.0,0.818882365027,-0.573826275159,-0.0116544019846,0.0,-0.00767837469777,0.00935102391914,-0.999926797778,0.0,0.546506556528,0.109707426155,0.304421898727,1.0,-0.144267428571,-0.189608620408,2.288
0.315825960818,0.0464882100061,-0.126666553468,-2.07250233144,0.0192981617295,2.11258724319,0.00504022509067,-0.264571778355,-0.525952498849,0.000149187835158,-0.664469089333,-0.0714120414203,0.123901719594,-0.224822166778,0.573828498444,0.818957760874,0.00312844683436,0.0,0.818925727474,-0.57376087732,-0.0118260491891,0.0,-0.00789020627444,0.00934826963153,-0.99992517445,0.0,0.543977669202,0.106544337629,0.304352783787,1.0,-0.145909142857,-0.191766302041,2.305
0.311269502136,0.0375162298354,-0.126690579502,-2.08356695832,0.0180145105262,2.11479912447,0.000997398266718,-0.270183022889,-0.5383653393,-0.0042710149401,-0.636368395093,-0.0770616123229,0.139582545125,-0.240677712975,0.573785999057,0.818987079095,0.00324629989935,0.0,0.818956649025,-0.573718057442,-0.011761993185,0.0,-0.00777060917906,0.00940762702381,-0.999925554322,0.0,0.541648193565,0.103503993509,0.304422636972,1.0,-0.147454285714,-0.193797061224,2.321
0.306580785301,0.0285911923565,-0.126796612793,-2.09461974177,0.0166625439977,2.1170308529,-0.00312675097211,-0.276501365478,-0.534723630952,-0.0115157201828,-0.662344188193,-0.0737567612068,0.121212133088,-0.24066057977,0.57381257969,0.818968312586,0.00328226612644,0.0,0.818938753321,-0.573745004033,-0.011693398017,0.0,-0.00769348677386,0.00939797475125,-0.999926241446,0.0,0.539164564692,0.100185378848,0.304433497353,1.0,-0.149096,-0.195954742857,2.338
0.301193733256,0.0184876831256,-0.126911026341,-2.10706595245,0.0151852706497,2.11926971814,-0.00792544313514,-0.287423098217,-0.536414246396,-0.00630619591561,-0.633884686768,-0.078931513624,0.131409802781,-0.252650691873,0.573802711723,0.81897552951,0.00320577352168,0.0,0.818944348821,-0.573734638588,-0.0118095266151,0.0,-0.00783260080186,0.00940186952023,-0.999925124804,0.0,0.536286116622,0.0964280926371,0.304421768872,1.0,-0.14998,-0.197116571429,2.357
0.296523901072,0.0100101403705,-0.127028175804,-2.11734725049,0.013897515818,2.12123773756,-0.011963053247,-0.291110256754,-0.521926096449,-0.00566034193838,-0.652888654069,-0.0726429382115,0.116680235659,-0.259456976288,0.573899212614,0.818907652408,0.00327070166668,0.0,0.81887774008,-0.573831416254,-0.011726014732,0.0,-0.00772584057309,0.00940803654492,-0.999925897372,0.0,0.53377500088,0.0930180663189,0.304457346378,1.0,-0.14998,-0.197116571429,2.374
0.291240693425,0.000540442652054,-0.127056276816,-2.12901025175,0.0125327249396,2.12320805537,-0.0166114603214,-0.293977313257,-0.524906560221,0.00235935868965,-0.651977967638,-0.0845494671467,0.109155163661,-0.264657048203,0.573868137979,0.818929871966,0.00315783389832,0.0,0.818897366492,-0.573799392099,-0.011920892615,0.0,-0.00795056496471,0.00942714381288,-0.999923955847,0.0,0.531159634747,0.0896869277996,0.304395535023,1.0,-0.14998,-0.197116571429,2.391
0.285946757103,-0.00896387156893,-0.127046697922,-2.14023431519,0.0111092369833,2.12532939209,-0.0212970769547,-0.29566387563,-0.523946315229,0.00157600346501,-0.625599100729,-0.0875681384974,0.118625460027,-0.258626167262,0.573752084205,0.819010094012,0.00342909294781,0.0,0.818982158106,-0.5736836872,-0.0116618457813,0.0,-0.00758410074106,0.00949955716134,-0.999926117186,0.0,0.528535059065,0.0862249171175,0.304525681867,1.0,-0.14998,-0.197116571429,2.409
0.281439493575,-0.0167857177849,-0.127062233061,-2.14972385259,0.00991320604384,2.1268279159,-0.0252492933966,-0.305288625957,-0.525572581663,0.00151790593768,-0.633127953741,-0.0850378376102,0.0954718961039,-0.270152729266,0.573699005202,0.819047831911,0.00329353501339,0.0,0.819017588293,-0.57363039374,-0.0117944200798,0.0,-0.00777107202573,0.00946409238346,-0.999925017886,0.0,0.526229065882,0.0832871725387,0.304475407758,1.0,-0.14998,-0.197116571429,2.424
0.275902329515,-0.0261723754096,-0.127180065227,-2.1608234304,0.00850283481484,2.12860761531,-0.0300519744845,-0.308756740854,-0.5235786441,-0.00797668437562,-0.606187143119,-0.0772387709814,0.114944533431,-0.26102197245,0.573771089612,0.81899715356,0.0033385755627,0.0,0.818967473986,-0.573702286713,-0.0117775071204,0.0,-0.00773054520993,0.00949196063835,-0.99992506787,0.0,0.523545357215,0.0796949576711,0.304519794664,1.0,-0.14998,-0.197116571429,2.442
0.271516688457,-0.0334024864258,-0.127307137674,-2.1693724068,0.00737745627133,2.13008126997,-0.0338040687234,-0.310412814667,-0.514081932025,-0.00347852805587,-0.617321262265,-0.0879331330084,0.0937496813147,-0.267892198227,0.573886649665,0.818915830567,0.00342384059916,0.0,0.818887803526,-0.573818222213,-0.011668761475,0.0,-0.00759121752371,0.00950047065,-0.999926054503,0.0,0.521490772418,0.0768704266025,0.304544308995,1.0,-0.14998,-0.197116571429,2.456
0.266183901002,-0.0421487534416,-0.127342164676,-2.17983660475,0.00612701853783,2.13153364814,-0.0385065967814,-0.313464834089,-0.505229030192,-0.000234874001332,-0.625770344213,-0.0743604533672,0.0898621541932,-0.286084728526,0.573854680179,0.818938788092,0.00328850966918,0.0,0.818907442794,-0.573784806838,-0.0119307367755,0.0,-0.00788379801818,0.00953967784875,-0.999923417205,0.0,0.518859215924,0.0735319777404,0.304468285612,1.0,-0.14998,-0.197116571429,2.473
0.261120663927,-0.0503900759575,-0.127353385504,-2.18926990388,0.00488542989175,2.1330888034,-0.0428672426539,-0.317190549591,-0.516953716845,0.00156169380909,-0.579315461329,-0.0814126392083,0.102676701835,-0.262750666915,0.57385951103,0.818934352317,0.00354049389121,0.0,0.818907262226,-0.573789980273,-0.0116919336689,0.0,-0.00754357144361,0.00960904850157,-0.999925377574,0.0,0.516542983606,0.0704254065379,0.304585132081,1.0,-0.14998,-0.197116571429,2.489
0.255670410879,-0.0590272704419,-0.127362285473,-2.19940571058,0.00353627578146,2.13447826565,-0.0476747935665,-0.317753457116,-0.510275145423,0.000352524265757,-0.601150126006,-0.0718009251777,0.0764283664207,-0.274565621224,0.573752585598,0.819009666344,0.00344729703038,0.0,0.81898105149,-0.573682983045,-0.0117736641335,0.0,-0.00766523666934,0.00957862560351,-0.999924744207,0.0,0.51396375833,0.067106143517,0.30455057347,1.0,-0.14998,-0.197116571429,2.506
0.249478904062,-0.068635525009,-0.127449085385,-2.2106784829,0.00208395518179,2.13591966777,-0.0530876181526,-0.332554362232,-0.505438335039,-0.0123352716768,-0.576212230895,-0.0737473845026,0.0788558256242,-0.282582637887,0.573757175822,0.819007003392,0.00331338037683,0.0,0.818975549911,-0.57368670094,-0.0119735004635,0.0,-0.00790569068644,0.00958364384166,-0.999922823935,0.0,0.51105429993,0.0633539353496,0.304476680875,1.0,-0.14998,-0.197116571429,2.525
0.244108851661,-0.0767562735265,-0.127613516488,-2.21979650425,0.000842177990382,2.13726066728,-0.0576981123792,-0.332171441993,-0.498443000896,-0.0107078659913,-0.575156009679,-0.0664461586485,0.0727620626365,-0.292347353294,0.573904452085,0.818902796358,0.003554841113,0.0,0.818875447967,-0.573834301484,-0.0117448736996,0.0,-0.00757816605172,0.00965159323734,-0.999924706239,0.0,0.50875090866,0.0601180686722,0.304587781484,1.0,-0.14998,-0.197116571429,2.541
0.238455055985,-0.0852884756332,-0.127627623273,-2.22969358673,-0.000424715512204,2.13838966959,-0.0626364389699,-0.329816882229,-0.504970148444,0.000583609284666,-0.588930507642,-0.0761080643058,0.0710881528578,-0.287004167113,0.573866303901,0.818930060345,0.0034305118804,0.0,0.818899827129,-0.573795004898,-0.0119629588599,0.0,-0.00782856676402,0.00967457083595,-0.999922555112,0.0,0.506126234922,0.0568138078249,0.304514759602,1.0,-0.14998,-0.197116571429,2.558
0.23306684804,-0.0933210598918,-0.127636833812,-2.23875168948,-0.00163806964945,2.13945883104,-0.0673850115433,-0.341434922938,-0.506419391011,-0.00154823378709,-0.549321953298,-0.0811811066524,0.0793224044045,-0.297483497588,0.573782573228,0.818988520894,0.00347968465501,0.0,0.818958799512,-0.573710945851,-0.0119575170119,0.0,-0.00779688611069,0.00971092021357,-0.999922450291,0.0,0.503726914237,0.0537109258109,0.304543387169,1.0,-0.14998,-0.197116571429,2.574
0.22754574484,-0.101304794193,-0.127685899854,-2.24764598214,-0.00292952452555,2.14054727936,-0.0721549368375,-0.350496297363,-0.497904789664,-0.00408545006078,-0.562626712304,-0.0850184596247,0.0651425956155,-0.293021730909,0.573780731434,0.81898943535,0.00356706055376,0.0,0.818961733402,-0.573709905222,-0.0118055399876,0.0,-0.00762230130919,0.00969526412722,-0.999923948296,0.0,0.501374595643,0.0505479312495,0.30460285578,1.0,-0.14998,-0.197116571429,2.59
0.220922121,-0.110715635465,-0.127823665046,-2.2583622896,-0.0043855379253,2.1415709633,-0.0779052749426,-0.358374959238,-0.496376826178,-0.00983624378197,-0.568327336003,-0.0803504293244,0.0551573634037,-0.312582583092,0.573849423877,0.818942013128,0.0034006986312,0.0,0.818910865455,-0.573777591905,-0.0120422742459,0.0,-0.00791083195018,0.00969550786597,-0.999921704867,0.0,0.498444321134,0.0467606791788,0.304518898457,1.0,-0.14998,-0.197116571429,2.609
0.21557945373,-0.118166110725,-0.127917646937,-2.26644942531,-0.00555442811223,2.14250066235,-0.0824844898018,-0.352533903432,-0.502987802782,-0.00832936904504,-0.530179088591,-0.07888633921,0.0705130790287,-0.316093309274,0.573922596986,0.818889739328,0.00363240873174,0.0,0.81886281832,-0.573851440603,-0.0117879511441,0.0,-0.00756871497727,0.00974000351038,-0.999923920549,0.0,0.496130562648,0.0435695515283,0.30464132222,1.0,-0.14998,-0.197116571429,2.625
0.209246750771,-0.126944544634,-0.127927169437,-2.27620313921,-0.00684960986886,2.14343535614,-0.0881189068465,-0.352704202015,-0.48707627763,-0.00179230839427,-0.547892818956,-0.0706615603376,0.0469873102391,-0.311093425835,0.573822073936,0.818960225945,0.00362252463948,0.0,0.818932316212,-0.573749863708,-0.0119038758854,0.0,-0.00767052554795,0.00979749787419,-0.99992258304,0.0,0.493563467491,0.0403035203841,0.304607473234,1.0,-0.14998,-0.197116571429,2.642
0.203077069224,-0.135229926657,-0.127968250416,-2.28540517301,-0.00819021519854,2.14417793508,-0.0934905336813,-0.369159379733,-0.484055902682,-0.000870416100808,-0.541815280854,-0.0768435832403,0.0426126395544,-0.31921233354,0.57378899977,0.818983966975,0.00349177332163,0.0,0.818953881442,-0.573716677108,-0.012019208805,0.0,-0.00784040167173,0.0097562789517,-0.999921668493,0.0,0.490965961879,0.0369470284528,0.304559878793,1.0,-0.14998,-0.197116571429,2.659
0.197243045412,-0.143105091198,-0.12805905694,-2.29373907125,-0.00937467092809,2.14501551256,-0.0986280499482,-0.365930705138,-0.48970049661,-0.00735884050538,-0.508301382299,-0.0788653574119,0.0523127161051,-0.314941056338,0.573786159173,0.818984693304,0.00377658266931,0.0,0.818959372187,-0.573714184087,-0.0117613173524,0.0,-0.00746580357983,0.00984153836245,-0.999923700039,0.0,0.488646212723,0.0338022025369,0.30469226198,1.0,-0.14998,-0.197116571429,2.675
0.190503401078,-0.151742063463,-0.128232921614,-2.30319670402,-0.0107457944253,2.14570164291,-0.104436497389,-0.376466028112,-0.479936076233,-0.00397807387621,-0.529004826819,-0.0785898731426,0.0343640582523,-0.330855327852,0.57393428143,0.818881220618,0.00370594375062,0.0,0.818854375652,-0.573861733584,-0.0118730410622,0.0,-0.00759605729985,0.00984916317348,-0.999922643957,0.0,0.485928463301,0.0301722380903,0.30464999454,1.0,-0.14998,-0.197116571429,2.693
0.184178850928,-0.159919427869,-0.128242862766,-2.31207315263,-0.0120734801675,2.14622523358,-0.110032378942,-0.37680121536,-0.475658569388,0.00265410992773,-0.516601099564,-0.0858070989139,0.0274114314399,-0.334301695308,0.573802357854,0.81897423921,0.00357722419847,0.0,0.818945259756,-0.573729705354,-0.0119847244056,0.0,-0.00776297022808,0.00980660273007,-0.999921780359,0.0,0.483323800802,0.026871689707,0.304613822151,1.0,-0.14998,-0.197116571429,2.71
0.178155582971,-0.167612722535,-0.12826065176,-2.32007316201,-0.013172192234,2.14686166798,-0.115339534772,-0.380358622131,-0.480382319989,0.000536566470515,-0.500932862535,-0.0777744521741,0.0437058715152,-0.342035742863,0.573775928659,0.818991460027,0.00386251161119,0.0,0.8189668422,-0.573703121411,-0.0117807793283,0.0,-0.0074325657944,0.00992298758483,-0.999923142688,0.0,0.481006151187,0.0237860800031,0.304731694428,1.0,-0.14998,-0.197116571429,2.726
0.171614807088,-0.175641179368,-0.128314420983,-2.32872301822,-0.0144105127968,2.14731658863,-0.121058948001,-0.393576836269,-0.473302267029,-0.00846335765975,-0.518186388915,-0.0784914019789,0.0177568775153,-0.330916371154,0.573783535132,0.818986461288,0.00379182537221,0.0,0.818960071363,-0.573709842656,-0.0119232904248,0.0,-0.00758975202052,0.00994693281706,-0.999921724032,0.0,0.478420640934,0.0204460959726,0.304679638568,1.0,-0.14998,-0.197116571429,2.743
0.164911710973,-0.183660731941,-0.128487322096,-2.33727541723,-0.0157505339233,2.1476981328,-0.126875389755,-0.391588939237,-0.46823497807,-0.00392012788339,-0.499700631821,-0.0822027425914,0.0187071936944,-0.343158107207,0.573887921258,0.818913821455,0.0036815438228,0.0,0.818885637727,-0.573814151787,-0.0120157577473,0.0,-0.00772749692687,0.00991065240788,-0.999921029262,0.0,0.47583436146,0.016999116829,0.304639056855,1.0,-0.14998,-0.197116571429,2.76
0.158664733741,-0.191221975008,-0.128526221503,-2.34502190993,-0.0168607711547,2.14815346355,-0.132443851674,-0.3847850555,-0.476864065104,-0.000483348814777,-0.481026986406,-0.0775847713611,0.0358530996969,-0.35094493081,0.573825027304,0.818956815417,0.00391400349488,0.0,0.818932295699,-0.573751274305,-0.0118371109664,0.0,-0.00744856161587,0.00999792688202,-0.999922277174,0.0,0.473500965421,0.0138982182822,0.304735156936,1.0,-0.14998,-0.197116571429,2.776
0.151910178636,-0.199136447314,-0.128564173063,-2.35328460422,-0.0181486610472,2.14847536238,-0.138429264408,-0.405976837369,-0.459432510403,-0.00566797547059,-0.50203138018,-0.0758049379786,0.0166644922295,-0.345545573022,0.573738276304,0.819017714012,0.00388861671305,0.0,0.818992991382,-0.573664793335,-0.0118292796165,0.0,-0.00745777063204,0.00997185232029,-0.999922468904,0.0,0.470951321704,0.010570623434,0.3047328572,1.0,-0.14998,-0.197116571429,2.793
0.145883806489,-0.206078598784,-0.128661228829,-2.36062583956,-0.0192108766406,2.14862997689,-0.14372638943,-0.4075820885,-0.47413602577,-0.00826948968901,-0.490195407385,-0.0794770371054,0.0179903315048,-0.350748168575,0.573780386148,0.818988676868,0.00378979350653,0.0,0.818961353525,-0.5737055167,-0.0120427755237,0.0,-0.00768881938372,0.0100137956066,-0.999920299801,0.0,0.468635626588,0.0076154641669,0.304660271368,1.0,-0.14998,-0.197116571429,2.808
0.138878895381,-0.213944548147,-0.128837113909,-2.36858887631,-0.0203775002484,2.14887001477,-0.149854704324,-0.414835753661,-0.464022108529,-0.00649001143479,-0.457039771862,-0.0738121755145,0.0164219795875,-0.36055811575,0.573938630767,0.818876962886,0.00396417330447,0.0,0.818851937427,-0.573863127763,-0.011973390014,0.0,-0.00752998533417,0.0101182568687,-0.999920456936,0.0,0.466129060048,0.00419539346458,0.304724618076,1.0,-0.14998,-0.197116571429,2.825
0.131126922114,-0.222631513718,-0.128870135284,-2.37738435976,-0.0217833729105,2.14910183519,-0.15673675003,-0.407283775424,-0.451915794855,8.17410830039e-05,-0.469245842583,-0.0832069806813,0.00792062307997,-0.368373308104,0.573842668503,0.818943873869,0.00403362852014,0.0,0.818920534906,-0.573767996936,-0.0118401901482,0.0,-0.00738222636169,0.0100978219499,-0.999921765303,0.0,0.463324030688,0.000513861441997,0.304771031457,1.0,-0.14998,-0.197116571429,2.844
0.124442102722,-0.229858770897,-0.128912441896,-2.38489281909,-0.0229512692739,2.14914100621,-0.162654583413,-0.427321958184,-0.457699506241,-0.00561964347933,-0.460846405695,-0.0668992402301,0.0010261577485,-0.374526806947,0.573800180289,0.818974306297,0.00389687407366,0.0,0.818948301473,-0.573724807856,-0.0120112974774,0.0,-0.00760135703978,0.0100836172026,-0.999920266839,0.0,0.460867010255,-0.00262525936728,0.304691480358,1.0,-0.14998,-0.197116571429,2.86
0.116810063122,-0.238031783446,-0.129036742205,-2.39308550521,-0.0242181040344,2.1491640643,-0.169398574224,-0.432119503721,-0.457857433531,-0.0118602405982,-0.451361961074,-0.0687629574457,0.00101125483625,-0.378112441005,0.573853340726,0.818936792418,0.00395224775821,0.0,0.818911318951,-0.57377750217,-0.0120156813415,0.0,-0.00757251848428,0.0101319743753,-0.999919996829,0.0,0.458162924922,-0.00619690601664,0.304713291575,1.0,-0.14998,-0.197116571429,2.878
0.109486075049,-0.245682368025,-0.129163286209,-2.40054472672,-0.0254186787573,2.14924730775,-0.175860027129,-0.431307176669,-0.444199441657,-0.00375036816119,-0.444172384185,-0.066440869289,0.00212246573402,-0.378921592488,0.573928293166,0.818883280496,0.00415140084173,0.0,0.818861519849,-0.573853277964,-0.0117887056822,0.0,-0.00727141899806,0.0101654898508,-0.99992189159,0.0,0.455692119249,-0.00959183582046,0.304814170844,1.0,-0.14998,-0.197116571429,2.895
0.102648653505,-0.252769226871,-0.129181717996,-2.4077397866,-0.0264814508531,2.14919523179,-0.182011366092,-0.427445860363,-0.43893046914,-0.00159947650714,-0.449894049061,-0.0616954620542,-0.00279326229455,-0.385326750049,0.573836909892,0.818947484226,0.00411895949461,0.0,0.818924375539,-0.573760733866,-0.0119262032302,0.0,-0.00740377945503,0.0102170086494,-0.999920395224,0.0,0.453253305332,-0.0126699017005,0.304752228357,1.0,-0.14998,-0.197116571429,2.911
0.095634952016,-0.259824029576,-0.129258022543,-2.41479337304,-0.0276189879166,2.14910322928,-0.188247520786,-0.432881984491,-0.437396649904,-0.00278728896533,-0.433741938335,-0.0696191452611,-0.0116479547463,-0.393344407743,0.57383023676,0.818952338161,0.00408339349772,0.0,0.818928492604,-0.573753812941,-0.0119763533151,0.0,-0.00746534369202,0.0102165976413,-0.999919941683,0.0,0.450830875948,-0.0158299788793,0.304719355892,1.0,-0.14998,-0.197116571429,2.927
0.0885491088236,-0.266900674899,-0.129421227996,-2.42154945545,-0.0287123180437,2.14902528707,-0.194533828949,-0.450843707902,-0.449069283214,-0.0132433451072,-0.409796896328,-0.0654691962936,-0.00203776907703,-0.396258426651,0.573931930175,0.818880065255,0.00428078901624,0.0,0.81885966237,-0.573856029129,-0.0117838057151,0.0,-0.00719310549609,0.010268665511,-0.999921403782,0.0,0.448492782311,-0.0190260483442,0.304814531993,1.0,-0.14998,-0.197116571429,2.943
0.0814247086046,-0.273852964893,-0.129492012413,-2.42823725926,-0.0297797838068,2.14889907949,-0.200903528568,-0.439068839095,-0.431581999009,0.00165000588882,-0.415884460918,-0.0703413335341,-0.0142512362515,-0.400906096428,0.573932539597,0.818878969913,0.00440675917028,0.0,0.818860722449,-0.573856987245,-0.0116628607873,0.0,-0.00702175707736,0.0103024156619,-0.999922274559,0.0,0.446144256879,-0.02216372744,0.304866689389,1.0,-0.14998,-0.197116571429,2.959
0.0728885939421,-0.281988780286,-0.129525011148,-2.43631867794,-0.0311117347812,2.14857771002,-0.208632458585,-0.454500093281,-0.430987106192,-0.00495744459565,-0.411662516398,-0.0648134358104,-0.0169257348749,-0.409000885488,0.573781230922,0.818985791202,0.00425673007926,0.0,0.818964779371,-0.573705012627,-0.0118319710097,0.0,-0.00724824830627,0.0102752727313,-0.999920937708,0.0,0.44323789056,-0.0258589772201,0.304778501013,1.0,-0.14998,-0.197116571429,2.978
0.065101268094,-0.289267614634,-0.129626884183,-2.44333919363,-0.0322318132276,2.14831806484,-0.215603075447,-0.458012840275,-0.428316187446,-0.0107691917009,-0.413132734609,-0.0561512010436,-0.0140878206016,-0.411806333481,0.573812259357,0.818963742451,0.00431583864563,0.0,0.818943374855,-0.573735659401,-0.0118274602211,0.0,-0.00721024937476,0.010321367856,-0.999920737694,0.0,0.440686463615,-0.0292169877508,0.304777662164,1.0,-0.14998,-0.197116571429,2.995
0.0576531221537,-0.296072334235,-0.129769704977,-2.44964475247,-0.0332318992736,2.14808318752,-0.22223344096,-0.461290033701,-0.426064186154,-0.00568206962513,-0.397003885774,-0.0666560884302,-0.00966318852844,-0.411715433584,0.573941014172,0.818872136364,0.00456984007359,0.0,0.818855965215,-0.57386490428,-0.0116071860414,0.0,-0.00688246290326,0.0104040812434,-0.999922190372,0.0,0.43821884088,-0.0326154356802,0.304885714943,1.0,-0.14998,-0.197116571429,3.012
0.0502692249021,-0.302801364433,-0.129791063922,-2.45602100561,-0.0343247519233,2.14772193654,-0.228961099861,-0.464376110329,-0.422041133865,0.0002427706286,-0.396365691697,-0.0696961193297,-0.0275287266702,-0.420702941272,0.573804532514,0.818967904149,0.00454723444443,0.0,0.818951661598,-0.573728846661,-0.0115815964537,0.0,-0.00687620858944,0.0103697373924,-0.999922590155,0.0,0.43597332129,-0.0355113656594,0.304889454017,1.0,-0.14998,-0.197116571429,3.027
0.0422367940542,-0.309815117116,-0.129867968041,-2.46283724648,-0.0354809891417,2.14720025034,-0.236145040759,-0.468403741849,-0.415215823053,-0.00368994410822,-0.401494590685,-0.0693241169101,-0.0325353753673,-0.429390267367,0.573816723093,0.818960274184,0.00438001243821,0.0,0.818940708886,-0.573739860904,-0.0118082276572,0.0,-0.00715761943907,0.0103629285094,-0.999920685953,0.0,0.433352787658,-0.0388591075168,0.30479577613,1.0,-0.14998,-0.197116571429,3.044
0.0326479251309,-0.31808725491,-0.130062639249,-2.47053780602,-0.0367158343001,2.14668338431,-0.244776151128,-0.482776463482,-0.420238692556,-0.0016236759319,-0.377430147142,-0.0616698508595,-0.0326574973548,-0.434422983412,0.57393868737,0.818874015046,0.00452520974823,0.0,0.818856212626,-0.57386114226,-0.0117745211554,0.0,-0.00704514301949,0.0104635507879,-0.999920436867,0.0,0.430362408944,-0.0428466720254,0.304824869784,1.0,-0.14998,-0.197116571429,3.064
0.0259868017349,-0.323799257411,-0.130087606024,-2.47567227146,-0.0376143284345,2.14635631683,-0.25089384848,-0.481945578248,-0.411678868889,1.47168013161e-05,-0.366827004375,-0.068865935076,-0.0226341512801,-0.441358818605,0.573822181607,0.818954838781,0.00467149162265,0.0,0.818940285152,-0.573746250425,-0.0115237311249,0.0,-0.00675729466203,0.0104384461883,-0.999922685916,0.0,0.42835008702,-0.0455562898945,0.304919274543,1.0,-0.14998,-0.197116571429,3.078
0.0172032061609,-0.331018418369,-0.130135774772,-2.48242602005,-0.038745991429,2.14574450624,-0.258824276395,-0.490167006647,-0.3896340324,-0.00079814389093,-0.381891496318,-0.0650608536307,-0.0454071418497,-0.441726550622,0.573813351744,0.818961247593,0.00463240782616,0.0,0.818945700143,-0.573736788887,-0.0116096596264,0.0,-0.00685021042858,0.0104556694774,-0.999921873745,0.0,0.425630969719,-0.0490864155696,0.304886771468,1.0,-0.14998,-0.197116571429,3.096
0.00879551479788,-0.337801169852,-0.130302006659,-2.48872867981,-0.0397695203568,2.1451018914,-0.266431784393,-0.500043759475,-0.401713455965,-0.0134733910317,-0.360432101688,-0.0573307785427,-0.0398591897446,-0.441572897695,0.573912035575,0.818892018311,0.00464593041733,0.0,0.818875650376,-0.573833899012,-0.011750424144,0.0,-0.00695647011102,0.0105483522199,-0.999920166708,0.0,0.42303844964,-0.0524699157426,0.304852404544,1.0,-0.14998,-0.197116571429,3.113
0.000911003371872,-0.34411736633,-0.130369664714,-2.49447590933,-0.0407248239671,2.14454161356,-0.273650463235,-0.488255605079,-0.394976153567,-0.0029092992512,-0.355513873223,-0.0633259495265,-0.03882064,-0.454288642905,0.573870663101,0.818920631194,0.00471261469098,0.0,0.818905160528,-0.573792365322,-0.0117220501711,0.0,-0.00689549915433,0.0105863290142,-0.99992018768,0.0,0.420653598243,-0.0555807139284,0.304867202003,1.0,-0.14998,-0.197116571429,3.129
-0.00764915404823,-0.350728652049,-0.130440166065,-2.5003666693,-0.0418039568491,2.14390410822,-0.28144450094,-0.500212315449,-0.390871167058,-0.00356210892994,-0.339805054846,-0.0615392683855,-0.0293569415772,-0.460982282005,0.573848263392,0.81893605808,0.00475923092959,0.0,0.818921972585,-0.573771032219,-0.011591044162,0.0,-0.00676174535656,0.0105491424478,-0.999921494115,0.0,0.418148067074,-0.0589440232594,0.304921088243,1.0,-0.14998,-0.197116571429,3.146
-0.0162758511133,-0.357273609962,-0.13060033338,-2.50619109597,-0.0428169074365,2.14325178849,-0.289354662859,-0.51041930436,-0.380114230088,-0.0130316005988,-0.35093944864,-0.0605542015368,-0.0444757982768,-0.465912082703,0.573882567385,0.818911400531,0.00486454860878,0.0,0.818898966924,-0.573805475055,-0.0115111107044,0.0,-0.00663540291532,0.0105898034813,-0.999921910696,0.0,0.415627078981,-0.0623243961658,0.304960524974,1.0,-0.14998,-0.197116571429,3.163
-0.0244125212922,-0.363326133634,-0.13069312008,-2.51176659324,-0.0437915727093,2.14249645812,-0.296866617739,-0.505143356818,-0.373279809928,-0.00568610587883,-0.339211802445,-0.0639966436903,-0.0458458322376,-0.474635838729,0.573813675853,0.818960273394,0.00476265749281,0.0,0.818945397537,-0.573735142284,-0.0117119282395,0.0,-0.00685923204021,0.0106210255159,-0.999920069182,0.0,0.413168196205,-0.065445902348,0.304887192043,1.0,-0.14998,-0.197116571429,3.179
-0.0337262231777,-0.370093938549,-0.130744273868,-2.51781079325,-0.0448803212112,2.14171135193,-0.305380748609,-0.523936767221,-0.373420515656,-0.00116509623974,-0.329895568105,-0.0640653177914,-0.0403104787994,-0.468751071242,0.573782401503,0.818982264057,0.00474908269438,0.0,0.818967296157,-0.573704046763,-0.0117039076422,0.0,-0.00686085691169,0.0106050438273,-0.999920227662,0.0,0.410459710839,-0.0689769214211,0.304883601607,1.0,-0.14998,-0.197116571429,3.197
-0.0426597172226,-0.376343621021,-0.130892321149,-2.52332951187,-0.0457953051557,2.14090067692,-0.313483469954,-0.528838443533,-0.363523377133,-0.00922438167575,-0.315107047365,-0.0597258267089,-0.047285567331,-0.478937948727,0.573945035571,0.818867856305,0.00482461966758,0.0,0.818853260018,-0.573865462449,-0.0117693018648,0.0,-0.00686895264019,0.0107057940403,-0.999919098459,0.0,0.407908326173,-0.0723604447294,0.304886487466,1.0,-0.14998,-0.197116571429,3.214
-0.0504878685258,-0.381838592299,-0.130996552151,-2.52796416704,-0.0466272498925,2.14028338859,-0.320766414709,-0.516144367027,-0.361923796324,-0.00355951379864,-0.315728567525,-0.0582533537969,-0.0507070033314,-0.49714456682,0.573877814241,0.818913870143,0.00500744561289,0.0,0.818902941904,-0.573799753748,-0.0115135242606,0.0,-0.00655543986415,0.0107081742462,-0.9999211775,0.0,0.405596676066,-0.0754925425858,0.304992142147,1.0,-0.14998,-0.197116571429,3.23
-0.0600677298835,-0.388269537945,-0.131073690336,-2.53370247398,-0.0477262511171,2.1393829823,-0.329603717893,-0.535727133551,-0.357935930915,-0.00792936556068,-0.320488430718,-0.0664315072651,-0.0494923829638,-0.489975730709,0.573848522334,0.818935127867,0.0048863751603,0.0,0.818922142693,-0.573770042151,-0.0116279765817,0.0,-0.0067190321693,0.0106744635119,-0.999920452054,0.0,0.403003904444,-0.0788480996576,0.304933544515,1.0,-0.14998,-0.197116571429,3.247
-0.0692392155296,-0.39431021546,-0.131200962344,-2.53900462361,-0.0486723681061,2.13847001642,-0.338025223116,-0.545441345695,-0.354789084687,-0.00910757118815,-0.305319551789,-0.0589707884091,-0.0606916932669,-0.503991451571,0.57391415172,0.81888922496,0.0048714065834,0.0,0.818875284539,-0.573834505193,-0.0117463153182,0.0,-0.00682368123771,0.0107306576422,-0.999919141911,0.0,0.400405921544,-0.0822169193309,0.304905375308,1.0,-0.14998,-0.197116571429,3.264
-0.0777757601526,-0.399865679944,-0.131272792572,-2.54375846464,-0.0494903796591,2.13770551074,-0.346062398276,-0.529324188188,-0.341583392871,0.00228848670827,-0.297399828377,-0.0553741265802,-0.0543827364117,-0.49918661098,0.573809680039,0.818961854733,0.00496774471532,0.0,0.818949364248,-0.573730056549,-0.0116836599861,0.0,-0.00671845674695,0.0107727359832,-0.999919402001,0.0,0.398046927474,-0.0853095686571,0.30493218702,1.0,-0.14998,-0.197116571429,3.28
-0.0870887901615,-0.405624489726,-0.13134243374,-2.54873793474,-0.0504669391644,2.13678591374,-0.354673500886,-0.556193732579,-0.335932422772,-0.000909241306823,-0.287527758009,-0.060926236,-0.0547225080827,-0.509618068616,0.57378669673,0.818978388743,0.00489615449867,0.0,0.818964801927,-0.573707041862,-0.0117315908315,0.0,-0.00679909194623,0.0107414157553,-0.999919193903,0.0,0.395490779927,-0.0886668790459,0.304915368845,1.0,-0.14998,-0.197116571429,3.297
-0.0965571986088,-0.411344145213,-0.131480347761,-2.55350920347,-0.0513802828142,2.13596109654,-0.363356255961,-0.554904532815,-0.336638086468,-0.00861449765837,-0.278795150489,-0.0546122928223,-0.0427229003162,-0.513093816886,0.573917494329,0.818886127419,0.00499669141746,0.0,0.818874708269,-0.573838886096,-0.0115711651357,0.0,-0.00660829800075,0.0107327649669,-0.999920565922,0.0,0.392978794932,-0.0920842863297,0.3049734966,1.0,-0.14998,-0.197116571429,3.314
-0.105300896992,-0.416643483042,-0.131552190002,-2.55800017501,-0.052120797847,2.13511172742,-0.371665666578,-0.550650837868,-0.322277150361,-0.00452742992455,-0.281138134201,-0.0516846630511,-0.0534588555281,-0.526089487254,0.573797955313,0.818969314897,0.0050906421175,0.0,0.818958786598,-0.573718549699,-0.0115878594362,0.0,-0.00656963197666,0.0108183244288,-0.999919898688,0.0,0.390595950409,-0.0951593280393,0.304980356354,1.0,-0.14998,-0.197116571429,3.33
-0.115440694646,-0.422529088842,-0.131670976424,-2.56302419725,-0.0530404487428,2.134030066,-0.38109797587,-0.564833892089,-0.326653371886,-0.0101583745913,-0.273195331686,-0.0538738752869,-0.058383819459,-0.519748221542,0.573831352128,0.818946053911,0.00506823436536,0.0,0.818934281741,-0.573750453359,-0.0117390953678,0.0,-0.00670591317272,0.0108870214463,-0.999918248405,0.0,0.387834543867,-0.0987154183633,0.304948386118,1.0,-0.14998,-0.197116571429,3.348
-0.125116632273,-0.427884906396,-0.131806145281,-2.56751741619,-0.0539132499146,2.13310821917,-0.390034099422,-0.559823680192,-0.311057198401,-0.0121132493849,-0.261361787896,-0.0482705079831,-0.0491312051943,-0.530602938043,0.573945549479,0.818865900455,0.00508824193877,0.0,0.818854366062,-0.573864528863,-0.0117378274992,0.0,-0.00669187396088,0.0109036129092,-0.999918161675,0.0,0.385285572226,-0.102108618658,0.304950189617,1.0,-0.14998,-0.197116571429,3.365
-0.134056006264,-0.43277706542,-0.131835879095,-2.57163856366,-0.0546568551661,2.13227081058,-0.398574243429,-0.567497863851,-0.302325820654,-0.0111725112777,-0.263901579992,-0.0498305204302,-0.052343960224,-0.530828599619,0.573774779263,0.818985411464,0.00511325660934,0.0,0.818974083256,-0.573693512201,-0.0117452932685,0.0,-0.00668591042178,0.010926988075,-0.9999179464,0.0,0.382928273718,-0.105171011258,0.3049388865,1.0,-0.14998,-0.197116571429,3.381
-0.14390575973,-0.43792006094,-0.131955959807,-2.57594285837,-0.0554761008823,2.13126541168,-0.40774387151,-0.582274765558,-0.302818827006,-0.00748649813439,-0.249395883208,-0.0481137736056,-0.0547554904298,-0.539507682807,0.573856918087,0.818927888051,0.00510868259054,0.0,0.818915836993,-0.573774571933,-0.0118464942278,0.0,-0.00677032268198,0.0109819851845,-0.999916775903,0.0,0.380350746727,-0.108556824973,0.30491892598,1.0,-0.14998,-0.197116571429,3.398
-0.152650307006,-0.442451077765,-0.132071520854,-2.57953742292,-0.0562149650078,2.13044998519,-0.415889546835,-0.578719469664,-0.305815988029,-0.00581601348767,-0.234505709676,-0.0431627016285,-0.04745843473,-0.549185611094,0.573928394459,0.818877234332,0.00519807918488,0.0,0.818867434752,-0.573847530486,-0.0116568845938,0.0,-0.00656277886738,0.0109469655901,-0.999918543621,0.0,0.377986504902,-0.111758439674,0.305000187703,1.0,-0.14998,-0.197116571429,3.414
-0.162408627457,-0.447490053046,-0.132127575053,-2.58359425374,-0.0569862386306,2.12952800801,-0.425206785217,-0.58615694764,-0.294729884017,-0.00799372427905,-0.237153011762,-0.0483485515445,-0.0600409307046,-0.542810446909,0.573802857666,0.818964793202,0.00526259730193,0.0,0.818956284904,-0.573722580068,-0.0115650956149,0.0,-0.0064522594627,0.0109461327953,-0.999919272004,0.0,0.375611246298,-0.114844775321,0.305034747042,1.0,-0.14998,-0.197116571429,3.43
-0.172486847416,-0.452300087716,-0.132277505748,-2.58762991255,-0.0577847896784,2.12852006614,-0.434644734924,-0.597114886103,-0.28463120595,-0.0105617770175,-0.229274579786,-0.0412293599126,-0.0514175183272,-0.547660019839,0.573890911871,0.818903295002,0.00523083249076,0.0,0.818893403215,-0.573809085189,-0.0117249659524,0.0,-0.006600241121,0.0110125576479,-0.999917576799,0.0,0.373003248107,-0.118237502396,0.304983049509,1.0,-0.14998,-0.197116571429,3.447
-0.18245455826,-0.456946930836,-0.132319033074,-2.59144401094,-0.0584989597,2.12756578138,-0.444151025264,-0.574425259351,-0.269180240857,0.00154960960877,-0.220765037692,-0.047778130306,-0.055344665788,-0.563925704642,0.573798387473,0.818968045141,0.00524389860682,0.0,0.818957943408,-0.573715900648,-0.0117770613419,0.0,-0.00663665666879,0.0110524040187,-0.999916896124,0.0,0.370472994239,-0.121533034535,0.304968770454,1.0,-0.14998,-0.197116571429,3.464
-0.193138191004,-0.461715661112,-0.132395288252,-2.59530893389,-0.0592442971014,2.12659338808,-0.454323419726,-0.595524187928,-0.26330410439,-0.0038475079229,-0.214882896375,-0.0419494731535,-0.0552794223436,-0.564726558327,0.573752341785,0.81900001494,0.00528892481891,0.0,0.818990388344,-0.573669525879,-0.0117798887585,0.0,-0.00661376141132,0.0110905308796,-0.999916625667,0.0,0.367653751117,-0.125257777737,0.304968651784,1.0,-0.14998,-0.197116571429,3.483
-0.203488743527,-0.466148760272,-0.132557110532,-2.59895445113,-0.0599671511177,2.1256175528,-0.463990779783,-0.607336435943,-0.25220077589,-0.00416203950293,-0.213093742209,-0.0458043486354,-0.0602550111047,-0.56811510657,0.573933054813,0.818873333997,0.00529701448607,0.0,0.81886299651,-0.573848813663,-0.0119028948254,0.0,-0.00670740682945,0.0111692089848,-0.99991512613,0.0,0.365198956292,-0.128475557063,0.304931294871,1.0,-0.14998,-0.197116571429,3.499
-0.21298795219,-0.470244844057,-0.132598265101,-2.60216323238,-0.0605909607823,2.12476570567,-0.473124565696,-0.594175588481,-0.259080663183,-0.00565859933924,-0.197337056903,-0.0436835119635,-0.0494604434904,-0.573126342336,0.573813311693,0.81895675785,0.00537205710403,0.0,0.818947944485,-0.573729747156,-0.0117978113749,0.0,-0.00657991507304,0.0111693913841,-0.999915971176,0.0,0.362700858666,-0.131751700197,0.304975070995,1.0,-0.14998,-0.197116571429,3.516
-0.224011174849,-0.474786069721,-0.132741909782,-2.60560907183,-0.0613449095341,2.12380201234,-0.483575503589,-0.617756047146,-0.244338012205,-0.0141047947579,-0.189028948149,-0.033612487848,-0.0544556718739,-0.578688880748,0.573893150227,0.818900264857,0.00545483642875,0.0,0.818893557085,-0.57381106893,-0.0116166363422,0.0,-0.00638294394685,0.0111338527931,-0.999917644283,0.0,0.360165581152,-0.135163688887,0.305053585454,1.0,-0.14998,-0.197116571429,3.533
-0.233789074739,-0.478576447014,-0.132808889295,-2.60861878747,-0.0619707103712,2.12296221389,-0.492917042421,-0.599093347781,-0.236959224879,0.00197276134823,-0.191334363766,-0.0339968412981,-0.0543667216484,-0.586841337338,0.573871000486,0.818915685438,0.00547008651033,0.0,0.818909216405,-0.573788946409,-0.0116054800201,0.0,-0.00636535700278,0.0111397671631,-0.999917690521,0.0,0.357777470134,-0.138309242845,0.305056065257,1.0,-0.14998,-0.197116571429,3.549
-0.244155958277,-0.482437020714,-0.132850617669,-2.61179438418,-0.0626053716537,2.1220529279,-0.502919435798,-0.622509776445,-0.222718364464,-0.000107887154288,-0.182322375856,-0.0296201677534,-0.0637461276196,-0.591592201073,0.573758966349,0.818994388887,0.00543933885325,0.0,0.818986659437,-0.573675538686,-0.0117462708571,0.0,-0.00649983941762,0.011194489711,-0.999916214234,0.0,0.35521868124,-0.141594755822,0.305000071158,1.0,-0.14998,-0.197116571429,3.566
-0.255458427467,-0.486410954472,-0.132992739779,-2.61495817972,-0.0633151784414,2.12106903366,-0.51358457977,-0.627466328088,-0.2106584915,-0.0101966148852,-0.169539738279,-0.0439608874908,-0.0499608088006,-0.592587178092,0.573909298415,0.818889153388,0.0054238877331,0.0,0.818880667346,-0.573824943769,-0.0118377977985,0.0,-0.00658160886009,0.0112355553551,-0.999915218766,0.0,0.352471724526,-0.145208746288,0.304978779559,1.0,-0.14998,-0.197116571429,3.584
