nelsonifechukwu/NELSON_IML_WORK/CNN-GradCAM/train2dof/data_sample_2022-02-21-09-56-56/robot_state.csv
position_joint1,position_joint2,position_joint3,position_joint4,position_joint5,position_joint6,position_joint7,velocity_joint1,velocity_joint2,velocity_joint3,velocity_joint4,velocity_joint5,velocity_joint6,velocity_joint7,ee_T_00,ee_T_10,ee_T_20,ee_T_30,ee_T_01,ee_T_11,ee_T_21,ee_T_31,ee_T_02,ee_T_12,ee_T_22,ee_T_32,ee_T_03,ee_T_13,ee_T_23,ee_T_33,v_x,v_y,time
0.465067378675,0.547667386825,-0.123957662681,-1.35575822271,0.079429231842,1.89409161964,0.159178765916,-5.07843193151e-05,-0.00144513675205,-0.000401075117813,0.000744364455928,-3.10561117433e-05,5.76818126002e-05,-0.00157471978275,0.57378228892,0.818993503754,0.00206703444684,0.0,0.81895243452,-0.573723796171,-0.0117755085858,0.0,-0.0084583210344,0.00844954384194,-0.999928528453,0.0,0.661694003168,0.260902490316,0.30332866062,1.0,0.0,0.0,0.0
0.465064828158,0.547667552408,-0.123961924413,-1.35576044894,0.0794279082247,1.894088322,0.159172507358,-0.00242459040722,-0.000479157216638,-0.000181907162814,0.000730641462465,-0.000440893154037,-0.000153659961051,-0.00132159327503,0.573781978882,0.818993736993,0.00206067399534,0.0,0.818952611615,-0.573723537571,-0.0117757916129,0.0,-0.00846220532839,0.00844449394741,-0.999928538248,0.0,0.661694548721,0.260897630216,0.303327335736,1.0,-0.0003,-0.000394285714286,0.016
0.465061641456,0.547667222669,-0.123959762063,-1.35576668327,0.0794236004692,1.89409162012,0.159179931377,-0.000331112522829,0.00135546771296,0.00161889193286,-0.000137485376869,-0.00050709772227,7.74547616578e-05,0.00640129432164,0.573788379474,0.818989263049,0.00205657307654,0.0,0.818948110949,-0.573729979973,-0.0117749120718,0.0,-0.00846377188399,0.00844069686176,-0.999928557049,0.0,0.661694362483,0.260895562702,0.303324808934,1.0,-0.00062,-0.000814857142857,0.032
0.465060640038,0.54763397097,-0.123957952231,-1.3557924428,0.0794255066103,1.89409870056,0.159178760042,-0.000259235580288,-0.00155544093462,0.000623612671982,0.000299854176077,0.000325104180726,-0.000168474887517,-0.00254095909246,0.573788875694,0.81898887681,0.00207188158446,0.0,0.818947880382,-0.573730372987,-0.0117717981267,0.0,-0.00845243306709,0.00845145256064,-0.999928562111,0.0,0.661690488224,0.260894118928,0.303336662779,1.0,-0.00094,-0.00123542857143,0.048
0.465065181737,0.54750010519,-0.12395797594,-1.3559421289,0.0794257565929,1.89412522242,0.159169638657,0.000968408144844,-0.00746746678561,0.000528496027148,-0.00314521157315,0.0001600390645,0.0108657407982,-0.00095285296996,0.573785883585,0.818990931658,0.00208819583196,0.0,0.818950026635,-0.573727196722,-0.0117772882177,0.0,-0.00844760015144,0.0084679327924,-0.999928463524,0.0,0.661663806369,0.260882943588,0.303362550624,1.0,-0.0013,-0.00170857142857,0.066
0.465051467987,0.547368487206,-0.123962536137,-1.35611654829,0.0794210000801,1.89415735162,0.1591675807,-0.00497680558963,-0.00372329457656,-0.000641473775533,-0.00690941470477,-2.01354925243e-05,0.00312424401912,-0.00113192215962,0.573806863866,0.81897624633,0.0020827454476,0.0,0.818935201056,-0.57374812626,-0.0117885955286,0.0,-0.00845977129431,0.00847017366863,-0.999928341646,0.0,0.661638592068,0.260853663975,0.303375697357,1.0,-0.00162,-0.00212914285714,0.082
0.465039337345,0.547199473048,-0.12396119578,-1.3563305484,0.0794182042052,1.89426105955,0.159165199061,0.00076956966887,-0.00782523848492,-5.86330619142e-05,-0.00896937891524,4.50520756342e-05,0.00915887843681,-0.0001293151891,0.573825258895,0.818963214944,0.00213815890014,0.0,0.818922825665,-0.573766238492,-0.0117667358196,0.0,-0.00840988232308,0.00850320106923,-0.999928482168,0.0,0.661617688212,0.260829831991,0.30340251724,1.0,-0.00196,-0.002576,0.099
0.465011652467,0.547015634957,-0.12395519448,-1.3565258518,0.0794154459769,1.89438158078,0.159142474023,-0.00143154163173,-0.0132559961909,8.69466344953e-05,-0.0115723115677,-0.000259171139537,0.00879591661284,-0.000365370918047,0.573835540491,0.818955746669,0.00223704445925,0.0,0.818916596159,-0.573776095113,-0.0117195611141,0.0,-0.00831439936636,0.00855721827322,-0.999928819856,0.0,0.661607795681,0.260801975896,0.303450038466,1.0,-0.00228,-0.00299657142857,0.115
0.464985632594,0.546804124783,-0.123960799768,-1.3568000766,0.0794071992239,1.89451559084,0.159126344313,0.00094538864954,-0.00942695680762,-0.000726090505944,-0.0209580879809,2.05694861527e-05,0.00640507441675,-0.00181085786546,0.573860864529,0.818937826599,0.00230026706683,0.0,0.818899495196,-0.573801179188,-0.0116863352398,0.0,-0.00825064487726,0.00859018337138,-0.999929065289,0.0,0.661585749347,0.260759518818,0.303481130633,1.0,-0.00262,-0.00344342857143,0.132
0.46494748151,0.546557367396,-0.123957979513,-1.35716061235,0.0793957164515,1.89464692783,0.159068400288,-0.005505153287,-0.0176445049566,-0.00117499693245,-0.0255060488747,-4.61026170856e-05,0.00631821072592,1.55018887705e-05,0.573859765778,0.818938534995,0.00232207304321,0.0,0.818900378174,-0.573799887279,-0.0116878948893,0.0,-0.00823942090179,0.00860892486534,-0.999928996657,0.0,0.661545690326,0.260703416945,0.303495571885,1.0,-0.00296,-0.00389028571429,0.149
0.464907157427,0.546268730847,-0.123957361724,-1.35760116362,0.0793752283023,1.89481238105,0.158942364148,-0.000314934851884,-0.0171303638403,0.000721396004731,-0.0253200753878,-0.000208043778022,0.00402840293317,-0.00627136591193,0.573808351475,0.818974515737,0.00233778776343,0.0,0.818936501028,-0.57374835694,-0.0116866202946,0.0,-0.00822990075931,0.0086205460289,-0.999928974938,0.0,0.661496731405,0.260636513947,0.303504588691,1.0,-0.00332,-0.00436342857143,0.167
0.464861239183,0.545973949004,-0.123957653207,-1.35808280752,0.0793493040148,1.89497712128,0.158934178826,-0.00273988256548,-0.0132236007628,-0.000578654155075,-0.0298098335048,4.11324841363e-06,0.00879401082491,-0.000185392794606,0.573859441669,0.818938768249,0.00231990661109,0.0,0.818900478807,-0.573799462048,-0.0117017120293,0.0,-0.0082519833465,0.00861507643324,-0.999928840083,0.0,0.661440293922,0.260559655888,0.303498335105,1.0,-0.00366,-0.00481028571429,0.184
0.464807159917,0.545648770487,-0.123960464224,-1.35862719236,0.0792507655545,1.89516453698,0.158872841875,-0.00396148154681,-0.0171584623286,-0.00109914266388,-0.0337608497093,-0.00309791895437,0.0111692070267,-0.00179817243672,0.573859670374,0.818938788123,0.00225542164251,0.0,0.818900228781,-0.573800517523,-0.0116674030847,0.0,-0.00826088588465,0.00854258185852,-0.999929388537,0.0,0.661381502114,0.26045867439,0.303485637814,1.0,-0.004,-0.00525714285714,0.201
0.464746937079,0.545335668879,-0.123964389124,-1.35917610204,0.0792276657997,1.89534015959,0.158760494824,-0.00342606701885,-0.0205346922168,-0.00198549405988,-0.0433226762492,1.66145334778e-05,0.0122212420103,-0.0116820204304,0.573844134288,0.818949801122,0.00220900113852,0.0,0.818910527258,-0.573785040425,-0.0117056666299,0.0,-0.00831902171797,0.00852636657955,-0.999929044958,0.0,0.661316571694,0.260363707927,0.303461366496,1.0,-0.0043,-0.00565142857143,0.216
0.464683667762,0.544936039116,-0.123963654067,-1.35986531815,0.0792203854528,1.89556251314,0.158718302626,-0.00430334232648,-0.0252384687776,-0.00122591880806,-0.0400830954698,0.000125664530123,0.0104489326585,-0.00162799569585,0.573897267583,0.818912671509,0.00217016214394,0.0,0.818872540508,-0.573837954988,-0.0117690576999,0.0,-0.00839267066045,0.00853148050158,-0.999928385896,0.0,0.661229775108,0.260259645684,0.303435473869,1.0,-0.00464,-0.00609828571429,0.233
0.464616175051,0.544515962049,-0.123970055769,-1.360585869,0.0791922626947,1.89581542979,0.158601904971,-0.00805261443216,-0.0220830992071,-0.00055050596266,-0.0464693884474,-0.0017598957843,0.0176194095326,-0.00964574506493,0.573894394196,0.81891477526,0.00213590081241,0.0,0.818874065491,-0.573835079933,-0.0118030846158,0.0,-0.00844022807267,0.00852292196965,-0.999928058588,0.0,0.661146228075,0.260143913364,0.303411956939,1.0,-0.00498,-0.00654514285714,0.25
0.464551220289,0.544048750645,-0.12396764202,-1.36134979562,0.079156521474,1.89608529938,0.158513645626,-0.00731894717838,-0.0348667064522,-0.000842073525304,-0.0485232323581,0.000222305835514,0.0160209680422,-0.00419674835876,0.57390663885,0.818906238537,0.00211878976189,0.0,0.818865177306,-0.573847260484,-0.0118275074261,0.0,-0.00846992098942,0.00852305228211,-0.999927806403,0.0,0.661054977717,0.260030360493,0.303402275556,1.0,-0.00532,-0.006992,0.267
0.464476605628,0.543567569275,-0.123971474023,-1.36212825913,0.0791137272618,1.89635834527,0.158433061805,-0.00844626246635,-0.0322170320477,-0.000328076653111,-0.0496474475414,0.000257649112417,0.0161733574435,-0.00923576318077,0.573936319338,0.818885487814,0.00209906971014,0.0,0.818844125829,-0.573876971249,-0.0118434102436,0.0,-0.00849395254194,0.00851633815138,-0.999927659761,0.0,0.660965617639,0.259904342265,0.303395979294,1.0,-0.00564,-0.00741257142857,0.283
0.464399655754,0.54303917891,-0.12397330684,-1.36297754465,0.0790538766569,1.89665221751,0.158298792753,-0.0064892210997,-0.0328886317755,0.00192428536489,-0.0509936050781,-0.0029981943829,0.0276457202996,-0.00470877404751,0.573921858395,0.81889569391,0.00207119617573,0.0,0.818854017491,-0.573862671857,-0.0118523747949,0.0,-0.00851744049796,0.00849850790082,-0.999927611665,0.0,0.660866333291,0.259768813725,0.303391029393,1.0,-0.00598,-0.00785942857143,0.3
0.464321784689,0.542394910394,-0.12397760367,-1.36398623801,0.0789895041363,1.89701151502,0.158190085798,-0.00464059055711,-0.0338587620448,0.000858631637994,-0.052565842628,-0.000107159620912,0.0158332800505,-0.00467031737812,0.573938424838,0.818884102027,0.00206369652877,0.0,0.81884235441,-0.573879292699,-0.0118533934652,0.0,-0.0085224068422,0.00849312361776,-0.999927615097,0.0,0.660747338553,0.259617568299,0.303397853353,1.0,-0.00636,-0.00835885714286,0.319
0.464250138989,0.54181900752,-0.123983537143,-1.36486103163,0.0789519053267,1.89734756656,0.158052462101,-0.00764862951649,-0.0394239017663,-0.000369928334953,-0.0547434713911,7.48794456465e-05,0.0194656466988,-0.00562660584659,0.573927163537,0.818891896958,0.00210213049424,0.0,0.818850549428,-0.573867778928,-0.0118446996681,0.0,-0.00849334714561,0.00851948962021,-0.999927638057,0.0,0.660649887484,0.259487244631,0.303418056409,1.0,-0.00668,-0.00877942857143,0.335
0.464175225143,0.541175988156,-0.123991639475,-1.36584126905,0.0788860581683,1.8977128888,0.1579087931,0.000771362225516,-0.0421346478515,-0.0012899929529,-0.0630214466128,-0.00164086347661,0.0224481077418,-0.00890389018286,0.573913326956,0.818901546874,0.00212051216561,0.0,0.81886053192,-0.573853964983,-0.0118238334779,0.0,-0.00846585420496,0.00852242341163,-0.999927846203,0.0,0.660538490474,0.259339292756,0.303438007938,1.0,-0.00702,-0.00922628571429,0.352
0.464093646153,0.540571129082,-0.123986737739,-1.36676843364,0.0788329552373,1.89805690254,0.157805157046,-0.00647488777635,-0.0373832305431,-0.000998351410294,-0.0587612301874,-0.00278036118389,0.019124498072,-0.0120754085622,0.573929005936,0.81889050371,0.002141489997,0.0,0.818849706212,-0.573869503445,-0.011819414238,0.0,-0.00845003296699,0.00853722748732,-0.999927853742,0.0,0.660431966353,0.259200897667,0.303453901028,1.0,-0.00732,-0.00962057142857,0.367
0.46401113348,0.539846202325,-0.123987080095,-1.36786822526,0.0787621319632,1.89846318296,0.157668920948,-0.00488672414341,-0.0474558700057,-0.000546989161583,-0.0652906640827,-0.00195851279865,0.0293358483811,-0.0104920772759,0.573927148294,0.818891741674,0.00216581857543,0.0,0.818851291366,-0.573867581903,-0.0118028797231,0.0,-0.00842254982465,0.00854764100705,-0.999927996652,0.0,0.660303406299,0.259041301024,0.303477942572,1.0,-0.00766,-0.0100674285714,0.384
0.463896967022,0.539012881014,-0.123989855194,-1.36914958902,0.0786972960332,1.89895091317,0.157509113338,-0.00406257984714,-0.0460604519488,-0.000376194291466,-0.0659677574789,-0.000804187264081,0.0247001604438,-0.00380530891808,0.573945288676,0.818878922766,0.0022050755257,0.0,0.818838892412,-0.573885475409,-0.0117930610825,0.0,-0.0083917899069,0.00857433853108,-0.9999280267,0.0,0.660160157727,0.258845764747,0.303499192084,1.0,-0.00804,-0.0105668571429,0.403
0.463791087098,0.538289400261,-0.123995557056,-1.37026977294,0.0786373970124,1.89939141341,0.157355400945,-0.0057170282249,-0.0455267372047,-0.00076330454605,-0.0677228144823,-0.00426587006029,0.0320264670897,-0.0109961794854,0.573956104653,0.818871236073,0.00224400643548,0.0,0.818831695124,-0.573896123184,-0.0117746233663,0.0,-0.00835423464146,0.00859574604928,-0.999928157376,0.0,0.660039878274,0.258669296302,0.303515426322,1.0,-0.00836,-0.0109874285714,0.419
0.463685935282,0.537504634986,-0.12399670346,-1.37150272519,0.0785498956717,1.89986557964,0.157215213276,-0.00987666508526,-0.0481149234961,-0.000173580156311,-0.0717641094704,-0.00770177145626,0.0258620457798,-0.01014077988,0.573972871423,0.818859447905,0.00225706642874,0.0,0.818820209344,-0.573912974867,-0.0117519764336,0.0,-0.00832801756574,0.00859361271782,-0.999928394408,0.0,0.659901875838,0.258481210383,0.303523872342,1.0,-0.0087,-0.0114342857143,0.436
0.463568071591,0.536619543373,-0.124002028301,-1.37288049384,0.0784744949227,1.90037796784,0.15704520952,-0.00322767217093,-0.0513742165967,-0.00090245864288,-0.077630823734,-0.000834931488737,0.0346606870671,-0.00597540066961,0.573989575067,0.818847686274,0.00227624662116,0.0,0.818808643585,-0.573929548797,-0.0117484088309,0.0,-0.00831391226093,0.0086074403208,-0.999928392853,0.0,0.659743851103,0.258271000768,0.303537554743,1.0,-0.00906,-0.0119074285714,0.454
0.463468292324,0.53586792822,-0.124010465084,-1.37405671614,0.0784131127961,1.90081976212,0.156903792758,-0.00448914442823,-0.0528136846526,-0.00300406448033,-0.0796549601198,-0.00912999413316,0.0297286786057,-0.0140400868483,0.574009670367,0.818833552048,0.00229330911629,0.0,0.818794683658,-0.573949528195,-0.011745296911,0.0,-0.00830135933112,0.00861982927911,-0.999928390424,0.0,0.659609951699,0.258090575589,0.303546785956,1.0,-0.00936,-0.0123017142857,0.469
0.463346498085,0.534971168053,-0.124011718647,-1.37547173946,0.0783199133626,1.90132888443,0.156728796373,-0.00822438255783,-0.0511695129455,-0.00415551987075,-0.0837273640787,-0.00247608900992,0.0326294785721,-0.010783590057,0.574019551188,0.818826660512,0.00228074322432,0.0,0.818787666584,-0.573959494245,-0.011747464251,0.0,-0.0083102426925,0.00861088436587,-0.999928393705,0.0,0.659443374353,0.257872811666,0.303550198749,1.0,-0.0097,-0.0127485714286,0.486
0.463222695874,0.534129571943,-0.124013373435,-1.37685895271,0.0782483018837,1.90182667854,0.156565598294,-0.00703047799867,-0.049727961455,-0.000818476554823,-0.0880955164164,-0.00494812566153,0.0297094618707,-0.00576288796403,0.574045256589,0.818808738296,0.00224507873603,0.0,0.818769140998,-0.573985187656,-0.0117832508951,0.0,-0.00835974780993,0.00860248609624,-0.999928053337,0.0,0.659278614519,0.257658800568,0.303526842859,1.0,-0.01002,-0.0131691428571,0.502
0.463092577344,0.533205741977,-0.124012308027,-1.37834716615,0.0781644255328,1.90237852111,0.156377203191,-0.0047211091156,-0.0551856886825,0.000412544517675,-0.0864164646922,-0.00175005703008,0.032502348847,-0.00770494043508,0.574055744095,0.818801408813,0.00223662663632,0.0,0.818761623659,-0.573995626211,-0.0117971019524,0.0,-0.00837583105249,0.00860362384212,-0.999927908957,0.0,0.65910463778,0.257433001628,0.303517825452,1.0,-0.01036,-0.013616,0.519
0.462957329944,0.532215068006,-0.124020132208,-1.37997723911,0.0780674471255,1.9030008243,0.156172842937,-0.00908573188768,-0.0537372032222,-0.00347910843224,-0.0967952253525,-0.00269202959891,0.0407880062231,-0.0147442133164,0.574067843516,0.818792976094,0.00221816162904,0.0,0.818752975016,-0.574007820324,-0.0118040251552,0.0,-0.00839197233634,0.00859260313272,-0.999927868384,0.0,0.658917103177,0.257185377233,0.303494621158,1.0,-0.01072,-0.0140891428571,0.537
0.462836967403,0.531292576475,-0.124015498036,-1.38145750503,0.0779780820364,1.90353692276,0.155979548076,-0.00599692354678,-0.0557859138212,-0.000364283831545,-0.0942749100061,-0.00209940700822,0.0327170732622,-0.0106132865188,0.574061466743,0.818797495151,0.00220028113055,0.0,0.818757199058,-0.574001450061,-0.0118207960559,0.0,-0.00841603567653,0.00858752487397,-0.999927709767,0.0,0.658737970185,0.256967107822,0.303486555582,1.0,-0.01104,-0.0145097142857,0.553
0.462690363238,0.530200124211,-0.12401373996,-1.38320325407,0.0778771097931,1.90414594285,0.15574943212,-0.00126198867928,-0.0660802027517,0.000839238796938,-0.0947432473787,-0.00174840848782,0.0354741129246,-0.011230056138,0.574059440212,0.81879900736,0.00216599899541,0.0,0.818758137432,-0.573999428762,-0.0118539053339,0.0,-0.00846284667071,0.00857844072504,-0.999927392655,0.0,0.658523497635,0.256703707852,0.303478088296,1.0,-0.0114,-0.0149828571429,0.571
0.462546508872,0.529151241777,-0.124021909613,-1.3848487457,0.077775355702,1.90475001255,0.155533193467,-0.0120235228469,-0.0662075859517,-0.000907617282661,-0.0963927990935,-0.00739906490806,0.0394479011022,-0.00166805990689,0.574067826671,0.818793120054,0.00216883237776,0.0,0.818752316599,-0.574007832967,-0.0118489939151,0.0,-0.00845711074962,0.00857802787231,-0.999927444726,0.0,0.658331418455,0.256447235728,0.303486267238,1.0,-0.01174,-0.0154297142857,0.588
0.462408649076,0.52807382325,-0.124018053997,-1.3865563622,0.077659118811,1.90540604526,0.155294994552,-0.00754858237024,-0.0603900846113,-7.82431505971e-05,-0.102617733924,-0.00647596551241,0.0374033600405,-0.013969952614,0.574044269152,0.818809598722,0.00218288721031,0.0,0.818769079648,-0.573984326067,-0.0118293932243,0.0,-0.00843324004082,0.00857804109398,-0.999927646219,0.0,0.658131964089,0.256195913345,0.303488826392,1.0,-0.01208,-0.0158765714286,0.605
0.462267490519,0.526999366578,-0.124021897068,-1.38820228863,0.0775671316879,1.90603817254,0.155061530365,-0.0111728495026,-0.0677382411804,0.000534010862606,-0.10600054555,-0.00988530397002,0.0420892598614,-0.0123837150058,0.574035725264,0.818815441905,0.00223721259134,0.0,0.818775589931,-0.573975531144,-0.0118055022141,0.0,-0.00838258361764,0.00860872082939,-0.999927808503,0.0,0.657942887541,0.255947533401,0.303516593663,1.0,-0.0124,-0.0162971428571,0.621
0.462130743487,0.525827307449,-0.12403010467,-1.39002243102,0.0774397555327,1.90670880334,0.154817073713,-0.00454761435494,-0.0747398538874,-0.000355426851926,-0.106863033317,-0.00336032306129,0.0373849615668,-0.0212506158075,0.574017043577,0.818828517422,0.00224491458974,0.0,0.818788924609,-0.573956985578,-0.0117822979688,0.0,-0.00835935811036,0.00860151665522,-0.999928064934,0.0,0.657724503677,0.255677080549,0.303533276029,1.0,-0.01274,-0.016744,0.638
0.461982691173,0.524742832536,-0.124033982711,-1.39175393837,0.0773297321844,1.90733429061,0.154581055107,-0.0133025806046,-0.0671286907331,0.000320493013818,-0.115349420081,-0.00754308879257,0.0485407806236,-0.00734851836882,0.574011172001,0.818832694561,0.00222252931616,0.0,0.818792823692,-0.573951214144,-0.0117924787005,0.0,-0.00838060506305,0.0085889709385,-0.999927994926,0.0,0.657516007541,0.255410852829,0.303526235949,1.0,-0.01306,-0.0171645714286,0.654
0.46183072587,0.523540523892,-0.124040285666,-1.39364500181,0.0772089439713,1.90800525641,0.154313329231,-0.0104802212389,-0.0681601544345,0.000256040612273,-0.1157910909,-0.00768802334337,0.0332589803447,-0.0144085573443,0.573989562751,0.818847894379,0.00220332155333,0.0,0.818807786096,-0.573929694497,-0.0118009365773,0.0,-0.00839878210458,0.00857787641987,-0.999927937651,0.0,0.657283763848,0.255124644374,0.303529823889,1.0,-0.0134,-0.0176114285714,0.671
0.461675567387,0.5223974529,-0.124041066421,-1.39546613853,0.0771014149174,1.90871255882,0.154081051023,-0.0129226263823,-0.0710352479833,0.000148262939688,-0.109398775265,-0.0142846189744,0.0432327786609,-0.0111679463953,0.573995762356,0.818843484359,0.00222706569009,0.0,0.8188036784,-0.573935794998,-0.0117892476228,0.0,-0.00837551713875,0.00859067315303,-0.999928022933,0.0,0.657071918929,0.254851663821,0.303527759103,1.0,-0.01372,-0.018032,0.687
0.461518690651,0.5212314718,-0.124045943655,-1.39734338154,0.0769857963403,1.90944892891,0.153820969544,-0.0140934477802,-0.0769295277655,-0.00075852085483,-0.121331271747,-0.0118370060261,0.0436057718009,-0.0116766369946,0.573984133698,0.818851591505,0.00224326845697,0.0,0.818812056502,-0.573924167573,-0.0117733981496,0.0,-0.00835336065853,0.00859472447122,-0.999928173459,0.0,0.656854481453,0.254569510062,0.303517446503,1.0,-0.01404,-0.0184525714286,0.703
0.461349927314,0.519940816563,-0.124052131586,-1.399357088,0.0768603130754,1.91018678569,0.153550117906,-0.0108723777308,-0.0746829186047,-0.000825380459987,-0.117760024271,-0.00250459812433,0.0442608078949,-0.0117717414106,0.57397827886,0.818855669791,0.00225263162672,0.0,0.818816271089,-0.573918292765,-0.0117666618655,0.0,-0.00834253190522,0.00859846530129,-0.999928231703,0.0,0.656611626111,0.254262818067,0.303529537932,1.0,-0.01438,-0.0188994285714,0.72
0.461173116593,0.518586360983,-0.124051392901,-1.40144268145,0.0767262667832,1.91092862761,0.153269444007,-0.00931873775003,-0.0845668284507,2.72436165291e-05,-0.121319599096,-0.00697025244567,0.0471676699039,-0.0177843669052,0.573967038257,0.81886353027,0.00225935608455,0.0,0.818824206125,-0.573907014715,-0.0117645580635,0.0,-0.0083370677567,0.00860264962808,-0.999928241286,0.0,0.65635446793,0.253946152326,0.303551905751,1.0,-0.01472,-0.0193462857143,0.737
0.460998043384,0.51723807809,-0.124065963718,-1.40356059589,0.076588729623,1.91169679471,0.152968272319,-0.0113625400822,-0.0867752479982,-0.00044723670607,-0.124934027345,-0.00984275979157,0.0505715206048,-0.0194761632214,0.573949059688,0.818876157127,0.0022501274355,0.0,0.818836798605,-0.573889161678,-0.0117590076528,0.0,-0.00833800778324,0.00859172394825,-0.999928327384,0.0,0.656097216765,0.253619049906,0.303556944358,1.0,-0.01506,-0.0197931428571,0.754
0.460822325913,0.515961912798,-0.124069734454,-1.40558058843,0.0764664406542,1.91244674009,0.152689951881,-0.00999968927113,-0.0767328811878,0.00124574794072,-0.125251412648,-0.00963936360609,0.04953597537,-0.0175780115269,0.573941487249,0.818881454078,0.0022539483581,0.0,0.818842123827,-0.573881553613,-0.0117594884978,0.0,-0.00833628815418,0.00859505165965,-0.999928313124,0.0,0.655853768938,0.253309745541,0.303555715358,1.0,-0.01538,-0.0202137142857,0.77
0.460633235003,0.514574497254,-0.124081651944,-1.40779703332,0.0763318978736,1.91327447974,0.152392387315,-0.0130002215875,-0.0857850537728,0.000104494485448,-0.135445536997,-0.00477099983958,0.0487749541845,-0.0209885368424,0.573941705818,0.818881315318,0.00224869896172,0.0,0.818841937252,-0.573881813135,-0.0117598151038,0.0,-0.00833956598527,0.00859094275718,-0.999928321102,0.0,0.655587303007,0.252968414997,0.303545614392,1.0,-0.01572,-0.0206605714286,0.787
0.460449228518,0.513184050046,-0.1240872776,-1.4100610191,0.0761922512709,1.91406343487,0.152078649275,-0.00984606672333,-0.0856354318214,1.75768408674e-05,-0.135919577162,-0.00590329512856,0.0457842558028,-0.0223696082158,0.573920453795,0.818896409732,0.00217479773633,0.0,0.818855995275,-0.573860771025,-0.0118076831789,0.0,-0.00842140039473,0.00855768181511,-0.999927920451,0.0,0.655298551434,0.252625164265,0.303511032452,1.0,-0.01606,-0.0211074285714,0.804
0.460247548141,0.511761685588,-0.124093877713,-1.41234170028,0.0760651762843,1.91488129451,0.151755201826,-0.0120641943147,-0.0867764921212,0.00035606454219,-0.128609610239,-0.00696472514494,0.0498030686339,-0.0168256846685,0.573910575776,0.818903409996,0.00214546256247,0.0,0.818862454268,-0.573850847806,-0.0118419746546,0.0,-0.00846642092017,0.00855323790813,-0.999927578297,0.0,0.655015559916,0.252272209618,0.303492961657,1.0,-0.0164,-0.0215542857143,0.821
0.460046856264,0.510302359401,-0.124094423201,-1.41466764161,0.0759170290139,1.91576860904,0.151426948259,-0.0116168374358,-0.0860647434811,-0.000640476348506,-0.132182341732,-0.0100976681834,0.056728175798,-0.0261103262009,0.573888073114,0.818919148831,0.00215734012074,0.0,0.818878394423,-0.573828348308,-0.0118299926889,0.0,-0.00845002731444,0.0085558556502,-0.999927694572,0.0,0.654735241112,0.251919907576,0.303484559178,1.0,-0.01674,-0.0220011428571,0.838
0.45985050319,0.508795692567,-0.12410636814,-1.41704290663,0.0757583912011,1.9166337724,0.151091543561,-0.0121627568892,-0.0871759536459,-0.00342585335921,-0.139719469486,-0.00885112435789,0.0527505157694,-0.0113502528913,0.573863237805,0.818936587052,0.00214419784908,0.0,0.818895770093,-0.573803677509,-0.0118238869065,0.0,-0.00845282772096,0.00854133301961,-0.99992779506,0.0,0.654441053524,0.251555501461,0.303483715906,1.0,-0.01708,-0.022448,0.855
0.45965344138,0.507378939764,-0.124107481366,-1.41928283243,0.0756228603889,1.91743169386,0.150785898709,-0.0103925023441,-0.0918017846017,0.000559066414105,-0.14367409268,-0.0112268831612,0.0556920356072,-0.0137416701919,0.573854504401,0.818942759774,0.0021238864109,0.0,0.818901582163,-0.573794928389,-0.0118459185845,0.0,-0.0084826173233,0.00853725204928,-0.999927577643,0.0,0.654158974977,0.251211074685,0.303477756433,1.0,-0.0174,-0.0228685714286,0.871
0.459441102762,0.505820945706,-0.124115587378,-1.4217226234,0.075470506398,1.91834206904,0.150452163701,-0.0104362986273,-0.0927746182528,-0.000326316276429,-0.145236873596,-0.00947235931534,0.044283047141,-0.0216289590361,0.573845866297,0.818948760612,0.00214385793536,0.0,0.818907870876,-0.573786240427,-0.0118319996169,0.0,-0.00845984811539,0.00854553073546,-0.999927699823,0.0,0.65386061594,0.250835661305,0.303484879273,1.0,-0.01774,-0.0233154285714,0.888
0.459223566767,0.504177487161,-0.124122352659,-1.42419668963,0.0753131113606,1.91929439619,0.15010948897,-0.0110412304523,-0.0968288191644,-0.0018853891021,-0.149468956801,-0.00992285241352,0.0560270577292,-0.0203606438986,0.57383320461,0.818957369244,0.00224221976792,0.0,0.818917853649,-0.573773295126,-0.0117686735355,0.0,-0.00835167688916,0.00858961482534,-0.99992823143,0.0,0.653564909861,0.250456768768,0.303538324644,1.0,-0.01808,-0.0237622857143,0.905
0.458992776678,0.50251552533,-0.124122705807,-1.42667694633,0.0751493683996,1.92022716732,0.149753929115,-0.0137198544669,-0.099693999533,-0.000904054463753,-0.152940639275,-0.00658211067559,0.0544425793589,-0.0184465470332,0.573814127213,0.818970479275,0.00233417815905,0.0,0.818932244248,-0.57375396368,-0.0117096282375,0.0,-0.00825075473169,0.00863085003595,-0.999928714196,0.0,0.653265429306,0.250070262814,0.303599181633,1.0,-0.01842,-0.0242091428571,0.922
0.458773149933,0.500896410977,-0.124125935108,-1.42909082387,0.0749910601882,1.92107950459,0.149427163307,-0.0140202347861,-0.098694259193,0.00163174768442,-0.149930720855,-0.00946387091527,0.0563250347047,-0.0221771933647,0.573806702875,0.818975540613,0.00238296321217,0.0,0.818937913373,-0.573746334371,-0.0116869473152,0.0,-0.00820426554517,0.00865771431405,-0.999928864475,0.0,0.652940235812,0.249669380763,0.303658545236,1.0,-0.01876,-0.024656,0.939
0.458481700789,0.498884394598,-0.124120971721,-1.43216540269,0.0748002092784,1.92220114026,0.148986288186,-0.016611865483,-0.0986742528953,0.000749978378157,-0.159577875106,-0.00628563053668,0.0638965281828,-0.0212887866982,0.573787703564,0.818988707257,0.00243218553088,0.0,0.818951673369,-0.573727111147,-0.0116664271139,0.0,-0.00815941837597,0.00868606206652,-0.999928985587,0.0,0.652578444479,0.249212107486,0.303691307937,1.0,-0.01914,-0.0251554285714,0.958
0.458254960257,0.497407972671,-0.124129167555,-1.43449356472,0.0746579862203,1.92306648394,0.148636423735,-0.0182963240471,-0.0972985278631,-0.000910506691614,-0.15261853221,-0.0124973672087,0.0496515662107,-0.0231295967896,0.573772547083,0.818999296992,0.00244185227854,0.0,0.818962373585,-0.573711905928,-0.0116630420432,0.0,-0.00815126044644,0.00869188582355,-0.999929001517,0.0,0.652293538371,0.248838481648,0.303687790833,1.0,-0.01944,-0.0255497142857,0.973
0.457996061814,0.49574448324,-0.124118866574,-1.43718612396,0.0744957514498,1.9240018894,0.148248134154,-0.012764837748,-0.101628629403,0.00217403213717,-0.157080834847,-0.0113487501317,0.0540144543006,-0.0230752780587,0.573751257517,0.819014429693,0.0023675627418,0.0,0.818976315854,-0.573690650644,-0.0117293791598,0.0,-0.00824844098149,0.00866889075768,-0.999928404214,0.0,0.651943208414,0.24841573622,0.303646231409,1.0,-0.01978,-0.0259965714286,0.99
0.457744255408,0.494177404922,-0.124129088674,-1.43976990506,0.0743327688097,1.92491194849,0.147884108323,-0.010704168708,-0.100134703142,0.000632791067292,-0.166769466972,-0.0114200534196,0.0593090479878,-0.0223118712863,0.573752619289,0.819013746271,0.00227204278118,0.0,0.818974336332,-0.573692315099,-0.0117860479698,0.0,-0.00834964257483,0.00862318664564,-0.999927959466,0.0,0.651613294971,0.247995512868,0.303587186683,1.0,-0.02054,-0.0269954285714,1.006
0.457453010209,0.492351289406,-0.12413306108,-1.44266204959,0.0741443696457,1.92597616988,0.147478935621,-0.0161994665375,-0.113152315582,-0.00177245552279,-0.175098081528,-0.00989976111405,0.0680396041404,-0.0276418900857,0.57375618019,0.819011275766,0.00226335205891,0.0,0.818971786437,-0.573695943526,-0.011786615416,0.0,-0.00835505589454,0.00861643081045,-0.999927972487,0.0,0.651254596964,0.247526551194,0.303574109412,1.0,-0.022444,-0.0294978285714,1.023
0.457108444203,0.490180329033,-0.124142619944,-1.44622139391,0.073928731868,1.92723211284,0.146963979777,-0.0225439243374,-0.115053480562,-0.00102718109898,-0.190623055247,-0.00937571432639,0.0580616176621,-0.0258285884951,0.573742859097,0.819020911043,0.00215077007151,0.0,0.818979778102,-0.57368288202,-0.0118667956214,0.0,-0.00848545715915,0.00857009144487,-0.99992727263,0.0,0.650795091536,0.246953960968,0.303499505887,1.0,-0.024572,-0.0322946285714,1.042
0.456800932756,0.488265827834,-0.124157752709,-1.44924675048,0.0737395334874,1.92832699125,0.14653463889,-0.0207162246684,-0.127899257174,-0.00311792726916,-0.203060934419,-0.0062925709571,0.0795898707692,-0.0237181766801,0.573753048883,0.819013819427,0.00213292894829,0.0,0.818972436389,-0.573693124029,-0.0118783323127,0.0,-0.00850503539248,0.00856220424645,-0.999927173864,0.0,0.650415574999,0.246455603931,0.303485786941,1.0,-0.026252,-0.0345026285714,1.057
0.456421108196,0.485901727403,-0.124183453976,-1.45283839346,0.0735190485056,1.92972292199,0.145992422624,-0.0192111513421,-0.142741153324,-0.00112268428313,-0.214185035767,-0.0117038918593,0.0811664525976,-0.0369273100931,0.573757028995,0.819010662961,0.00226991999239,0.0,0.818971194005,-0.573696699953,-0.0117909606932,0.0,-0.00835483778199,0.0086243117075,-0.999927906368,0.0,0.649989737345,0.245858217033,0.303540123945,1.0,-0.028156,-0.0370050285714,1.074
0.456036324898,0.48355745452,-0.124213555363,-1.45644357828,0.0732972159961,1.9309961149,0.145445887169,-0.0265630027974,-0.154493188015,-0.00161940789867,-0.230657886842,-0.0105828508643,0.0734064431584,-0.0423184270051,0.573763298885,0.81900624675,0.00227849476391,0.0,0.818966845665,-0.573702891126,-0.0117917478473,0.0,-0.00835049688654,0.00863185000404,-0.999927877583,0.0,0.64953541698,0.245245199781,0.303562496514,1.0,-0.029948,-0.0393602285714,1.09
0.455619672505,0.481046625292,-0.124241305353,-1.46034929684,0.0730550311637,1.93235258181,0.144861436748,-0.0273800147493,-0.168033022989,0.000799898498837,-0.252684792633,-0.0191575034908,0.0895774101134,-0.0363936501333,0.573770994134,0.819000949839,0.00224440517303,0.0,0.818961007515,-0.573710616166,-0.0118213353339,0.0,-0.00839420740661,0.00862098562899,-0.999927605324,0.0,0.649034215839,0.244582251301,0.303563217827,1.0,-0.03174,-0.0417154285714,1.106
0.455095542593,0.477918459311,-0.124265064791,-1.46516358927,0.072764626995,1.93413283212,0.144158189347,-0.0257984764121,-0.174792145227,-0.00170600182787,-0.259366462897,-0.00875433040891,0.0871777104236,-0.0361044890317,0.573797165192,0.818982388925,0.00232524210406,0.0,0.818943424855,-0.57373639742,-0.0117881323137,0.0,-0.00832035692797,0.00866840553048,-0.999927812598,0.0,0.648435088169,0.243773641579,0.30359412062,1.0,-0.033868,-0.0445122285714,1.125
0.454620693098,0.475135518952,-0.124277556506,-1.46942157178,0.0724974339524,1.93570325404,0.143547709701,-0.0331512038743,-0.17468494098,-0.000819578465901,-0.274275541248,-0.018502148042,0.0993804846035,-0.0415719292451,0.573828270316,0.818960367909,0.00240393037196,0.0,0.818922408924,-0.573767184085,-0.0117496183062,0.0,-0.00824333408029,0.00871106331556,-0.999928079823,0.0,0.647902740028,0.243054951068,0.303630104505,1.0,-0.03566,-0.0468674285714,1.141
0.454098699249,0.472032019736,-0.124286080711,-1.47422948936,0.0722061487111,1.93737056926,0.142851315936,-0.0326066009254,-0.184690947796,-0.000680428905484,-0.289363138422,-0.0177405257031,0.0995821998411,-0.0334794543403,0.573842814782,0.818950242724,0.00238133712237,0.0,0.818911679357,-0.573781484139,-0.011799015802,0.0,-0.00829659944191,0.00872105312879,-0.999927552211,0.0,0.647270257618,0.242250723874,0.303632458353,1.0,-0.037564,-0.0493698285714,1.158
0.453525925913,0.46856866979,-0.124289679007,-1.47945824252,0.0718659420831,1.93935275401,0.142013731498,-0.0278161508405,-0.192760730939,-0.00050081706277,-0.291693442263,-0.0271067863679,0.113554986251,-0.0525335688418,0.573784949284,0.818990251512,0.00255867259566,0.0,0.81895409914,-0.573723086683,-0.0116940245108,0.0,-0.00810947866847,0.00880546020381,-0.999928347546,0.0,0.646615161968,0.241385245193,0.303707532367,1.0,-0.03958,-0.0520194285714,1.176
0.452919899932,0.464934713679,-0.124287478366,-1.48500940173,0.0714934432516,1.94131652791,0.141147532695,-0.036428679484,-0.202899584672,0.000368123917498,-0.314787240836,-0.024568284711,0.105447121617,-0.0506785560728,0.573729783556,0.819028793218,0.0025919570552,0.0,0.818993023786,-0.573667755941,-0.0116824520195,0.0,-0.00808149798587,0.0088255353336,-0.999928397095,0.0,0.645883770829,0.240460664608,0.303742252778,1.0,-0.041596,-0.0546690285714,1.194
0.45238159255,0.461814367058,-0.124297242622,-1.4899147971,0.0711654806592,1.94301994367,0.140419466194,-0.0353757319853,-0.206914251025,0.000276974337437,-0.329193709661,-0.022167140094,0.114439969964,-0.0529727575668,0.573720883181,0.819035269382,0.00251448056061,0.0,0.818998408427,-0.573659042626,-0.0117327195948,0.0,-0.00816721388697,0.00879083107594,-0.999928006362,0.0,0.645227312508,0.239632638297,0.303705666394,1.0,-0.043276,-0.0568770285714,1.209
0.451733377353,0.458150886851,-0.124303871676,-1.49558406183,0.0707782605381,1.94501751336,0.139571145005,-0.038826473726,-0.21691032509,0.000515887437591,-0.339084393384,-0.0193616786184,0.119952115385,-0.0553039856215,0.573718199129,0.819037208841,0.00249507994729,0.0,0.819000098511,-0.573656432746,-0.0117423468067,0.0,-0.00818625790261,0.00878043783672,-0.99992794195,0.0,0.644476246301,0.238663791261,0.303702063337,1.0,-0.04518,-0.0593794285714,1.226
0.451077754619,0.454631164806,-0.124321490369,-1.50116966558,0.0704091102781,1.94697725865,0.138691023599,-0.0442792272251,-0.229134485437,-0.00145471069609,-0.349878026728,-0.0230428528109,0.118803903078,-0.0605191567806,0.573702805511,0.819048285997,0.00239646725213,0.0,0.819009783121,-0.573641291673,-0.0118063771514,0.0,-0.00829544011267,0.008736250019,-0.999927429171,0.0,0.643732460388,0.237692978063,0.303633787269,1.0,-0.046972,-0.0617346285714,1.242
0.450352046681,0.450627820097,-0.124386735953,-1.50718945529,0.0699921619396,1.94920095769,0.137731829707,-0.0469144053002,-0.237698161168,-0.00109858590793,-0.360317268495,-0.0196806062506,0.135993335869,-0.0603275036793,0.573719008224,0.819036495084,0.00254287703238,0.0,0.81900035194,-0.573657442643,-0.0116751412621,0.0,-0.00810378246653,0.00878103671241,-0.999928608504,0.0,0.642968167099,0.236615061658,0.303711188404,1.0,-0.048876,-0.0642370285714,1.259
0.449678698257,0.446975860057,-0.124415666135,-1.51274819221,0.0696319314036,1.9510935451,0.136923936788,-0.0523276055611,-0.24718066069,-0.00133305049319,-0.372507256077,-0.0211379854365,0.127214510719,-0.0606206417317,0.573781581633,0.818992697413,0.00253082286203,0.0,0.818956215367,-0.573719853932,-0.0117044187181,0.0,-0.00813400673971,0.00878858220448,-0.999928296808,0.0,0.642215771666,0.235630172488,0.303733920257,1.0,-0.050556,-0.0664450285714,1.274
0.448892511725,0.442753226893,-0.124437345292,-1.51928384113,0.0691756010394,1.95329963244,0.135915266306,-0.0454381407284,-0.245411895406,-0.00152582435516,-0.385462847322,-0.0280828825541,0.134507042471,-0.0631414614505,0.573780324063,0.818993898227,0.00242513651269,0.0,0.81895597914,-0.573718915446,-0.0117667834213,0.0,-0.00824573588988,0.0087377970816,-0.999927826766,0.0,0.641315966846,0.234477183345,0.303706156875,1.0,-0.05246,-0.0689474285714,1.291
0.44807311373,0.438446139709,-0.124440897647,-1.52594310235,0.068726043998,1.95564947113,0.134820921712,-0.0463816656799,-0.252919476812,0.00134742604114,-0.392660814835,-0.0225208156197,0.146666686208,-0.0687593150782,0.573727858939,0.819030677264,0.00241670838075,0.0,0.818992521412,-0.573666353861,-0.0117860603941,0.0,-0.00826691990555,0.00874142558504,-0.999927620138,0.0,0.640411407253,0.233312054007,0.303684991031,1.0,-0.054364,-0.0714498285714,1.308
0.447198753624,0.433928035433,-0.124457954039,-1.53269079036,0.0682653574068,1.95812112043,0.133730179465,-0.048373557015,-0.273234966274,-0.00135027383951,-0.403831603306,-0.0221602979411,0.156484660371,-0.0621907496305,0.573730772739,0.819028045867,0.00260909900163,0.0,0.8189925453,-0.573668735214,-0.0116678996925,0.0,-0.00805973373502,0.00883123576773,-0.999928522429,0.0,0.639522429087,0.232103808991,0.303771429663,1.0,-0.056268,-0.0739522285714,1.325
0.446279028041,0.4293510721,-0.124494367106,-1.53976856076,0.0677404056653,1.96054789594,0.132604476012,-0.0554484123536,-0.276068472034,-0.00276219272747,-0.426932169877,-0.0268781406559,0.133887294218,-0.0711609268505,0.573747165435,0.819016868364,0.00251125314941,0.0,0.81898034462,-0.573685741542,-0.0116881126837,0.0,-0.00813224789302,0.00876285720344,-0.999928536885,0.0,0.638550085359,0.230806816512,0.303733261967,1.0,-0.058172,-0.0764546285714,1.342
0.445380847721,0.424866591074,-0.124547029586,-1.54667254531,0.0672405071597,1.96280423008,0.131449201459,-0.0567799811562,-0.284125767479,-0.001103779152,-0.437920003195,-0.0284264905048,0.143528490788,-0.0679622936448,0.573729219051,0.819029918403,0.00235007846965,0.0,0.818991314816,-0.573668404947,-0.0117700604216,0.0,-0.00829202550667,0.00867768850203,-0.999927967423,0.0,0.637574357432,0.229527997957,0.303695481426,1.0,-0.059964,-0.0788098285714,1.358
0.444388857455,0.420003758289,-0.124578563869,-1.55408168047,0.0667184988924,1.96534508549,0.130271759947,-0.0582619976975,-0.28634100377,-0.00171296669432,-0.438100771835,-0.0341535272948,0.151205436311,-0.066032356971,0.573766583786,0.819003802999,0.00232914243186,0.0,0.818964917013,-0.573705833536,-0.0117825366306,0.0,-0.00831385977672,0.00866807861667,-0.999927869473,0.0,0.636543338777,0.228165043648,0.303693055917,1.0,-0.061868,-0.0813122285714,1.375
0.443347683999,0.414956971897,-0.124598817937,-1.56151762937,0.0662202331658,1.96810601425,0.129044330457,-0.0619214197525,-0.294476063061,-0.000375950270853,-0.439061417072,-0.0322107345855,0.161357268887,-0.0853518424317,0.573800398424,0.818979175992,0.00263798413738,0.0,0.818944409573,-0.573738647188,-0.011608861022,0.0,-0.00799405589409,0.00882170128662,-0.999929133817,0.0,0.635552136493,0.226796392131,0.303814605189,1.0,-0.063772,-0.0838146285714,1.392
0.442072148584,0.408941245424,-0.124635306021,-1.57072507746,0.0655635923127,1.9711321826,0.127500725305,-0.0697674519012,-0.305984506718,-0.00549632194926,-0.471634977925,-0.03685772384,0.145652273226,-0.0725698913023,0.573799477544,0.81898030382,0.00248363180343,0.0,0.818943299946,-0.573738016333,-0.0117178065007,0.0,-0.00817185607739,0.00875779348767,-0.999928258337,0.0,0.63422675738,0.225073712579,0.303766288895,1.0,-0.066012,-0.0867586285714,1.412
0.441027453569,0.404031049798,-0.124690478511,-1.57830127351,0.0650390098309,1.97363070693,0.126280288327,-0.0651321304561,-0.301370529242,-0.00507120245468,-0.473558848092,-0.0341069651457,0.154791211944,-0.0861707358606,0.573854640029,0.818942094237,0.00233351788136,0.0,0.818902878556,-0.573793459044,-0.0118274575372,0.0,-0.00834720625769,0.00869833336753,-0.999927328932,0.0,0.633128710787,0.223649821059,0.303694827524,1.0,-0.067804,-0.0891138285714,1.428
0.439919923699,0.398889429488,-0.124706158717,-1.58579386368,0.0645081613011,1.97635539566,0.124960604786,-0.0705240595439,-0.325682885814,-0.00157633189816,-0.473921614258,-0.0371551404645,0.174097028545,-0.0804073693097,0.573841249642,0.81895055671,0.00263681127999,0.0,0.818915493829,-0.573779187156,-0.0116449668948,0.0,-0.00802385917257,0.00884185819958,-0.999928717073,0.0,0.632100186039,0.222237646812,0.303829752807,1.0,-0.069596,-0.0914690285714,1.444
0.43885290828,0.394024492658,-0.124704411009,-1.59303139687,0.0639581152197,1.97885178698,0.123741396094,-0.0695258670339,-0.330432273288,-0.000196897619863,-0.49112184184,-0.0395731416605,0.16748023697,-0.0825742295744,0.573841587436,0.818950058229,0.00271690213002,0.0,0.818916204388,-0.573779441074,-0.0115823181496,0.0,-0.00792659014885,0.00887150181706,-0.999929230308,0.0,0.631064427089,0.220872779827,0.303873938305,1.0,-0.071276,-0.0936770285714,1.459
0.437619164212,0.38846384386,-0.124724119548,-1.60154205843,0.0633235867545,1.98155943336,0.122290690392,-0.0741761342592,-0.335827281258,-0.00121278942978,-0.508189705722,-0.035027179238,0.157658289515,-0.0854853055883,0.573824834968,0.818962497517,0.00249666486361,0.0,0.818925491773,-0.573763139465,-0.0117322468581,0.0,-0.00817593333008,0.00877700610291,-0.999928056551,0.0,0.62978333495,0.219257634948,0.303792995715,1.0,-0.07318,-0.0961794285714,1.476
0.4362063431,0.382013973172,-0.124727509232,-1.61107902075,0.0626352403904,1.98476999134,0.12055525658,-0.0757086314036,-0.350779088545,2.18054407262e-05,-0.500638830845,-0.0300822133379,0.168323961908,-0.0855873444886,0.573728007314,0.819030019499,0.00259763055036,0.0,0.818994094451,-0.573665709338,-0.0117078642967,0.0,-0.0080990766833,0.00884474402191,-0.999928085144,0.0,0.62837517694,0.217461157109,0.303852802745,1.0,-0.075308,-0.0989762285714,1.495
0.434946443914,0.376568004515,-0.12473131721,-1.61920986449,0.0620412799343,1.98757602228,0.119129087624,-0.0800892631598,-0.33882702958,-0.000951638732862,-0.514303841228,-0.0261636958419,0.169262110716,-0.0928775278262,0.573727633097,0.819029988791,0.0026883792846,0.0,0.818995191984,-0.573664959935,-0.0116677397271,0.0,-0.00801415404061,0.00889604568199,-0.999928314284,0.0,0.627186574975,0.215900577564,0.303866652983,1.0,-0.0771,-0.101331428571,1.511
0.433540272265,0.370624015968,-0.124779437978,-1.62817340099,0.0613332534585,1.99044562597,0.11755437394,-0.0854160765221,-0.356735150497,-0.00152824888665,-0.523976288566,-0.0382769882955,0.168505418663,-0.0935105526943,0.573747334766,0.81901670916,0.0025244538753,0.0,0.818979860939,-0.573685328611,-0.0117421469422,0.0,-0.0081689296733,0.00880467191349,-0.999927870569,0.0,0.625830421865,0.214125609811,0.303815615627,1.0,-0.079004,-0.103833828571,1.528
0.432264522263,0.365258528808,-0.124840314805,-1.63607668617,0.0607261284071,1.9930643552,0.116188595764,-0.085300146965,-0.367734284282,-0.00275822520414,-0.520440356916,-0.042407462487,0.183488959928,-0.100427702811,0.5738274319,0.818960467756,0.00256467398598,0.0,0.818924325789,-0.573765469132,-0.011699656558,0.0,-0.00811019098093,0.00881402748899,-0.999928266288,0.0,0.624654130409,0.212540622841,0.30385322973,1.0,-0.080684,-0.106041828571,1.543
0.430671773614,0.358741953515,-0.124857079227,-1.64567543773,0.0599875788594,1.99631010819,0.114351504667,-0.0952027383447,-0.354772434031,-0.000536535211823,-0.544465270933,-0.0400271385979,0.174899438624,-0.0985054228645,0.573763615408,0.819004816272,0.00267795778978,0.0,0.818970258485,-0.57370138909,-0.0116266406851,0.0,-0.00798608037108,0.00886428184276,-0.999928820981,0.0,0.623220661323,0.210631406425,0.303893410865,1.0,-0.0827,-0.108691428571,1.561
0.429195420936,0.352863934255,-0.124897036847,-1.65450088349,0.0593211545086,1.99906748485,0.112756535451,-0.0931773802152,-0.37148221357,-0.00527316919117,-0.567898128016,-0.0450721076797,0.174693739785,-0.0955849257233,0.573807117665,0.818974871303,0.00250973951131,0.0,0.818937731107,-0.573745049522,-0.0117625515736,0.0,-0.0081934412901,0.00880492571798,-0.999927667785,0.0,0.621845463021,0.208846399548,0.303827667,1.0,-0.084492,-0.111046628571,1.577
0.427676033079,0.346874053853,-0.124947872304,-1.6632817712,0.0586733070274,2.00196590434,0.111068873737,-0.0924318172162,-0.387117694215,-0.000843361043021,-0.542016261166,-0.0364176482071,0.188779441211,-0.108388266105,0.57381745776,0.818967360027,0.00259524199072,0.0,0.818931161619,-0.57375489253,-0.0117397925683,0.0,-0.00812563058101,0.00886199308512,-0.999927716991,0.0,0.620509913229,0.207050750859,0.303859425659,1.0,-0.086284,-0.113401828571,1.593
0.426022418549,0.340358079114,-0.124943315829,-1.67270531921,0.057922305933,2.00506543899,0.109329813764,-0.0978008691299,-0.382603533362,0.00222150367064,-0.55741385487,-0.0469224906773,0.183630154433,-0.107180272926,0.57383428538,0.81895511951,0.00273350545925,0.0,0.818920809937,-0.573771332524,-0.0116581270994,0.0,-0.00797922942704,0.00892852943948,-0.99992830406,0.0,0.619056034056,0.205142530261,0.303937749965,1.0,-0.088188,-0.115904228571,1.61
0.424325225416,0.333824914029,-0.124955769031,-1.68248874955,0.0571208058626,2.00805372624,0.107444835206,-0.0985217956109,-0.387320460228,7.41559012841e-05,-0.578994199692,-0.0456393613607,0.178834601193,-0.102603059109,0.57376737553,0.819002786657,0.00248618732407,0.0,0.818964984934,-0.573705019638,-0.0118173937734,0.0,-0.00825229916622,0.00881670512428,-0.999927079976,0.0,0.61747670719,0.203150779539,0.303838175857,1.0,-0.090092,-0.118406628571,1.627
0.422393426737,0.326258210746,-0.124948674739,-1.69324216969,0.0562571861719,2.01161307159,0.10531452834,-0.105710938277,-0.398656847679,-0.000189604365806,-0.565529284888,-0.0418819544051,0.195712381447,-0.113103054025,0.573681717279,0.819061857844,0.00277618212049,0.0,0.819028025561,-0.573618551616,-0.0116446334455,0.0,-0.00794535850957,0.00895425667003,-0.999928343716,0.0,0.61579481947,0.200964067329,0.303988127621,1.0,-0.09222,-0.121203428571,1.646
0.420768319064,0.320301841192,-0.124962052112,-1.70198299888,0.0555568294069,2.0143557752,0.103643328743,-0.107872899922,-0.401275567792,0.000150646508875,-0.593290466988,-0.0536990721485,0.180640833258,-0.117496374019,0.573714209358,0.819039265483,0.00272662419525,0.0,0.819004578283,-0.573650973696,-0.0116964965189,0.0,-0.00801591362426,0.00894373614642,-0.999927874755,0.0,0.614390708399,0.199137300384,0.303961682365,1.0,-0.0939,-0.123411428571,1.661
0.41878231828,0.313036922651,-0.125018097926,-1.71263802356,0.0546895538113,2.01761579612,0.101488666722,-0.11034777736,-0.408308274524,-0.00728573399161,-0.596291969833,-0.0510518018021,0.177669440146,-0.128359164059,0.573678531279,0.819064683644,0.00259492933151,0.0,0.819028034408,-0.57361549829,-0.0117934675671,0.0,-0.00817127842287,0.00889115020461,-0.99992708617,0.0,0.612651930639,0.196885509637,0.303913282691,1.0,-0.095916,-0.126061028571,1.679
0.416948935567,0.306385666995,-0.125034965603,-1.7220135612,0.0538695837934,2.02068941105,0.0995609192376,-0.115394513086,-0.419002922627,6.59771527087e-05,-0.590287877797,-0.0515448406368,0.183862097932,-0.119047010556,0.573638344585,0.819092033183,0.00283508358998,0.0,0.819059174975,-0.573575224659,-0.0115877714491,0.0,-0.00786546900391,0.00896946394767,-0.999928839025,0.0,0.611165648022,0.194884797239,0.304041390109,1.0,-0.097708,-0.128416228571,1.695
0.414789575139,0.298938685197,-0.125079454272,-1.73294257539,0.05297706599,2.02392734783,0.0973566199092,-0.116497891781,-0.409403747176,-0.00510069734321,-0.612095942187,-0.0535830977737,0.187845950417,-0.11631991698,0.573676086165,0.819066317671,0.00261960311879,0.0,0.819030108773,-0.573613093278,-0.0117663522122,0.0,-0.00813494075352,0.00889577998415,-0.999927341279,0.0,0.609340024419,0.192520172068,0.303951972131,1.0,-0.099724,-0.131065828571,1.713
0.412935285643,0.292606333173,-0.125167016951,-1.74194992731,0.0522686874785,2.02674059902,0.0955120998514,-0.124488703426,-0.440971770527,-0.00101918399401,-0.598978042333,-0.0504931676071,0.20056608847,-0.128032373032,0.573788190365,0.818987425401,0.00273066547886,0.0,0.818952508905,-0.573724616573,-0.0117302769391,0.0,-0.00804045410843,0.00896715236774,-0.999927468008,0.0,0.607875410957,0.190518170276,0.304004366422,1.0,-0.101404,-0.133273828571,1.728
0.410906553927,0.285781270474,-0.125196819801,-1.75167580813,0.0514288986239,2.02983578498,0.0934228707436,-0.121436356161,-0.417894793057,-0.00284145848227,-0.614427834565,-0.0555697229738,0.176623269769,-0.121055968796,0.573772045746,0.818998442493,0.00281737743211,0.0,0.818964951899,-0.573708509973,-0.0116490363472,0.0,-0.00792434178446,0.00899139790136,-0.999928177206,0.0,0.606173734855,0.188242960707,0.304026753724,1.0,-0.103308,-0.135776228571,1.745
0.4085627937,0.27805683162,-0.125252435914,-1.76296224574,0.0504164920752,2.03301269773,0.0910065192972,-0.127242866118,-0.433995144168,0.000730351312923,-0.619334619537,-0.0522227538709,0.178995945695,-0.131847563533,0.573727650871,0.819030601367,0.00249069293755,0.0,0.818992572576,-0.573664977792,-0.011849313115,0.0,-0.00827628608179,0.00883830775913,-0.999926691015,0.0,0.604327127194,0.185871679902,0.303917250276,1.0,-0.105212,-0.138278628571,1.762
0.406402729137,0.270994691523,-0.125319525948,-1.77277732963,0.0495763610935,2.03615693049,0.0888755964114,-0.137982391146,-0.430209454324,-0.00434355285992,-0.610714339158,-0.0564255678445,0.188212757485,-0.142588855467,0.573792366703,0.818984319633,0.0027840635444,0.0,0.818950566513,-0.573729133899,-0.0116446307283,0.0,-0.00793962447074,0.00896178318398,-0.999928321834,0.0,0.602716830472,0.183647238824,0.304043004134,1.0,-0.107004,-0.140633828571,1.778
0.404020698261,0.263475306036,-0.125407401287,-1.78346361573,0.0486614185836,2.03930593765,0.0865577126994,-0.136978525526,-0.443297570878,-0.00738121690672,-0.628079780973,-0.0558475768737,0.181435718411,-0.138643841963,0.57389032262,0.81891579993,0.00274902326819,0.0,0.81888140321,-0.573826985635,-0.0116869557447,0.0,-0.00799332287326,0.00895832730967,-0.999927924983,0.0,0.600889703702,0.181192876702,0.30403520237,1.0,-0.108908,-0.143136228571,1.795
0.401582185507,0.255846873378,-0.125474645265,-1.79423027507,0.047690894436,2.0424123575,0.0841759617366,-0.142300701187,-0.463446788556,-0.00148379160828,-0.626597742089,-0.0465508729124,0.19108035512,-0.14040304594,0.573936957469,0.818883323774,0.00268659589063,0.0,0.818848103531,-0.573873819864,-0.0117204573116,0.0,-0.00805607509768,0.00892688942983,-0.999927702536,0.0,0.599018855537,0.178711823073,0.304038316004,1.0,-0.110812,-0.145638628571,1.812
0.398815237586,0.247231223097,-0.12545569142,-1.806333549,0.04660648303,2.04601056924,0.0814029895684,-0.148678071087,-0.451036626002,0.00338418727422,-0.632402353156,-0.0470855445687,0.177973203742,-0.152666808923,0.573848017518,0.818945434067,0.00275240137233,0.0,0.818910981064,-0.573784561954,-0.0116973696592,0.0,-0.00800037608925,0.00896665673311,-0.999927793918,0.0,0.59689906177,0.175984865069,0.304055451475,1.0,-0.11294,-0.148435428571,1.831
0.396420839714,0.239923645097,-0.125478737803,-1.81670386468,0.045696894029,2.0489164689,0.0790140508138,-0.153161359175,-0.452462613335,-0.000721602564205,-0.642129154529,-0.0575121987031,0.176562502163,-0.149621483565,0.57380780124,0.818974047913,0.00261972930752,0.0,0.818937244571,-0.573744139817,-0.0118405397363,0.0,-0.00819419818293,0.0089397600903,-0.999926465199,0.0,0.595032162588,0.173616862927,0.303993559123,1.0,-0.114732,-0.150790628571,1.847
0.393832068641,0.231959950772,-0.125464950346,-1.82752628931,0.044728357924,2.05220751197,0.0765183343926,-0.150218184743,-0.462160118941,0.000638960800896,-0.649309597003,-0.0652956863614,0.188690852667,-0.151327830118,0.573790416621,0.818985070914,0.0029594451973,0.0,0.818952943107,-0.573725847993,-0.0116393824148,0.0,-0.00783472106966,0.00910238768847,-0.999927879241,0.0,0.593133139997,0.17114175152,0.304142357533,1.0,-0.116636,-0.153293028571,1.864
0.391454660749,0.224918596805,-0.125467404968,-1.83741454706,0.0437911646166,2.05487892113,0.0741188659132,-0.157217463487,-0.470335899107,-0.000836279060439,-0.665699399515,-0.0553155675951,0.170414421989,-0.158276616634,0.573668038775,0.819071396226,0.00278856113315,0.0,0.819036720246,-0.57360370109,-0.0117640080909,0.0,-0.00803618826707,0.00903274332264,-0.999926911942,0.0,0.59130957084,0.168849160011,0.304090456053,1.0,-0.118316,-0.155501028571,1.879
0.388641602508,0.216824973766,-0.125544830708,-1.84850001443,0.0427672826961,2.05806169971,0.0714128201148,-0.167887299603,-0.478316906387,-0.00688856323181,-0.641512372077,-0.0604066436873,0.200649777011,-0.168774521016,0.573698777511,0.819049417863,0.00291730716104,0.0,0.819016568434,-0.573634160981,-0.0116814762315,0.0,-0.00789439125304,0.00909114656638,-0.999927512193,0.0,0.589322217506,0.166178076848,0.304155126214,1.0,-0.12022,-0.158003428571,1.896
0.385233681834,0.207250555579,-0.125580691273,-1.86167823981,0.0415561551568,2.0617071831,0.0681990677385,-0.176197866774,-0.479283884511,-0.002933313323,-0.66203036465,-0.0639899520718,0.168950035648,-0.163500893231,0.573732535489,0.819025689207,0.00294024513499,0.0,0.818992759154,-0.573667399331,-0.011718459795,0.0,-0.00791114914417,0.00913147693511,-0.99992701226,0.0,0.586898890879,0.163011764475,0.304166921412,1.0,-0.12246,-0.160947428571,1.916
0.382959291358,0.201010185207,-0.125631930822,-1.87039703219,0.0406713412703,2.06395756168,0.0660018695419,-0.176563807325,-0.483073334219,-0.00799432369545,-0.668690523689,-0.0656322064945,0.178918477906,-0.170307519709,0.573692844332,0.819054294557,0.00270736610955,0.0,0.819018246444,-0.573628447329,-0.0118432811196,0.0,-0.00814742490808,0.00901196138345,-0.999926199286,0.0,0.585251205925,0.160881385917,0.304090182695,1.0,-0.123916,-0.162861028571,1.929
0.379538902346,0.191704151472,-0.125722982085,-1.88298405463,0.0394812611217,2.0675716042,0.0628103168518,-0.183250861581,-0.488445843461,-0.00359490235193,-0.674693048432,-0.0686937447018,0.185683772123,-0.171152114418,0.573768821709,0.819000244651,0.00294709962691,0.0,0.81896767771,-0.573703974078,-0.0116807489023,0.0,-0.00787592507668,0.00911580437926,-0.999927433324,0.0,0.582949574029,0.157767697893,0.304170564519,1.0,-0.126044,-0.165657828571,1.948
0.376501081061,0.183837069239,-0.125846534967,-1.8938082886,0.0384863155577,2.07030752149,0.0599924443637,-0.190214341184,-0.491853941284,-0.00601779084698,-0.677259951654,-0.0713284091786,0.172523766956,-0.174156011989,0.573887538868,0.818917655687,0.00277719938621,0.0,0.818881977645,-0.573822256383,-0.0118773595261,0.0,-0.00813311718837,0.00909064217542,-0.999925603547,0.0,0.580885240196,0.155010349485,0.304107424161,1.0,-0.127836,-0.168013028571,1.964
0.373055307366,0.174848877402,-0.125937752766,-1.90576804419,0.0372746801988,2.07364345866,0.0568182289153,-0.189297774491,-0.49829839218,-0.000736757390625,-0.667631913239,-0.0705599690571,0.184223412875,-0.181802046073,0.573954324385,0.818869981608,0.00302219153786,0.0,0.818838221771,-0.57388900335,-0.0116672748287,0.0,-0.00781972918882,0.00917134536325,-0.999927366492,0.0,0.578786295515,0.152129440889,0.304224480473,1.0,-0.12974,-0.170515428571,1.981
0.369751918113,0.166338468286,-0.125929808817,-1.91742279065,0.0361093309901,2.07654403073,0.0536730341987,-0.197719534628,-0.502339921904,-0.000555719280695,-0.68660676165,-0.0688216695955,0.171128038732,-0.181645321018,0.573836966077,0.818953012396,0.00280120539999,0.0,0.81891776236,-0.573771730438,-0.0118510228836,0.0,-0.00809833433886,0.0090946869754,-0.999925849076,0.0,0.576357596557,0.149080278085,0.304128158605,1.0,-0.131756,-0.173165028571,1.999
0.366731475896,0.158667487211,-0.125965765252,-1.92748761357,0.0351039466397,2.07924360893,0.0508594326227,-0.202699338575,-0.522461689573,-0.000652068508421,-0.662951763359,-0.0756386490074,0.188302045559,-0.181867132441,0.573812478821,0.818969283869,0.00304928339706,0.0,0.81893765658,-0.573746828134,-0.01168069962,0.0,-0.00781676802278,0.00919988132901,-0.999927127505,0.0,0.574298720673,0.146334891189,0.304249530161,1.0,-0.133548,-0.175520228571,2.015
0.363024394563,0.149490485326,-0.125978618022,-1.93979385589,0.0338085176604,2.08231665798,0.0474602721689,-0.210564085085,-0.514375063275,-6.44203656763e-05,-0.686515691846,-0.076179050074,0.16022247893,-0.19373088963,0.573783277749,0.818990149678,0.00293799362711,0.0,0.818956936158,-0.573717849526,-0.011752138351,0.0,-0.00793945902065,0.0091494468781,-0.999926623614,0.0,0.571987415618,0.143357349824,0.304213850864,1.0,-0.135452,-0.178022628571,2.032
0.359400900899,0.140688570061,-0.126043740848,-1.9514647791,0.0326642050022,2.08516325292,0.044150295228,-0.209615295463,-0.532095184377,-0.00835708877827,-0.675999508154,-0.0648769656379,0.179765588358,-0.194807382656,0.573827246937,0.818959361771,0.00293280433432,0.0,0.818925393844,-0.573761041476,-0.0118411782684,0.0,-0.00801486923905,0.00919671573605,-0.999925588377,0.0,0.569652346284,0.140317038983,0.30421953227,1.0,-0.137356,-0.180525028571,2.049
0.355709190517,0.131845201937,-0.126121419053,-1.96309346207,0.0314474057601,2.08814143301,0.0406890447317,-0.218223648322,-0.521687482291,0.00141071794454,-0.687787790538,-0.0727502394583,0.165232500777,-0.20323168642,0.573771053661,0.818998293223,0.00305296249185,0.0,0.818966189033,-0.573704779121,-0.0117454049153,0.0,-0.00786811889245,0.00923962430253,-0.999926358312,0.0,0.567343551024,0.137254116252,0.304257713458,1.0,-0.13926,-0.183027428571,2.066
0.352076116249,0.123452554599,-0.126222493764,-1.97422385607,0.0302453264413,2.0907066271,0.0374676896192,-0.232932485313,-0.523465314916,-0.00913053227671,-0.698159759858,-0.072637438235,0.166598505771,-0.204242225072,0.573866644206,0.818931949291,0.00287819390626,0.0,0.818897284376,-0.573800649239,-0.0118658955006,0.0,-0.00806600669597,0.00916656328992,-0.999925454048,0.0,0.565063914702,0.134255150231,0.304206952074,1.0,-0.141052,-0.185382628571,2.082
0.347873966611,0.113861228224,-0.126340482012,-1.98654170883,0.0289264329023,2.09383493506,0.0336496540927,-0.23662065318,-0.526644295324,-0.00582897609498,-0.702048359961,-0.0735726411575,0.164912542003,-0.21065194265,0.573922045878,0.818892046629,0.00316987764763,0.0,0.818861949665,-0.573855940573,-0.0116281452333,0.0,-0.00770329084183,0.00926951955977,-0.999927365021,0.0,0.56274955,0.131055779049,0.304333447006,1.0,-0.142956,-0.187885028571,2.099
0.344326721403,0.10587612046,-0.126359678237,-1.99704723513,0.0277419854594,2.09613634854,0.0304416456741,-0.236344221633,-0.530940650326,-0.000232444946128,-0.698358094298,-0.0826854292486,0.158281479611,-0.202739202175,0.573853551339,0.818940886355,0.00294502502796,0.0,0.818907496896,-0.573787780876,-0.0117830788132,0.0,-0.00795997888612,0.00917364131763,-0.9999262388,0.0,0.560381015519,0.128054629297,0.304262220437,1.0,-0.144748,-0.190240228571,2.115
0.339997624671,0.0961276901055,-0.126353972608,-2.00941801047,0.0264145755732,2.09909955064,0.026434844755,-0.240663966496,-0.537745347466,0.00133010543746,-0.692899229217,-0.0668958258586,0.163331108702,-0.228920636534,0.573714744216,0.81903715295,0.00320644000581,0.0,0.819007394381,-0.573648384204,-0.0116260977965,0.0,-0.00768298483202,0.0092963407813,-0.999927272251,0.0,0.557810762307,0.124715435803,0.304381234195,1.0,-0.146764,-0.192889828571,2.133
0.336260525028,0.0880434742236,-0.126392436888,-2.01996053081,0.0253325613805,2.10139821541,0.0231002881699,-0.252885920372,-0.541669382861,-0.00384150963737,-0.702021699728,-0.0774330476933,0.146095559391,-0.232004779342,0.573744824167,0.819016447945,0.00311153309409,0.0,0.818984391447,-0.573677507444,-0.0118080870509,0.0,-0.00788615279656,0.00932330536879,-0.999925439506,0.0,0.555551166958,0.121838147321,0.30431492218,1.0,-0.148444,-0.195097828571,2.148
0.331889557755,0.0786901178358,-0.126510645687,-2.03176467498,0.0239557173856,2.10403203495,0.0190980031767,-0.261490799015,-0.561878565078,-0.00764850472396,-0.681466258062,-0.0785477322234,0.168182168869,-0.232612255563,0.573689983114,0.819054523366,0.0031996765556,0.0,0.819024217497,-0.573623093729,-0.0116886438213,0.0,-0.00773837721686,0.00932645002674,-0.999926564728,0.0,0.553048526061,0.118481816576,0.304392585067,1.0,-0.150348,-0.197600228571,2.165
0.327668544748,0.0699555377968,-0.126600202483,-2.04296274448,0.0227218833154,2.1064934977,0.0153778279471,-0.262900732221,-0.55593903751,-0.00608897167389,-0.712218167615,-0.0730046606092,0.143338343862,-0.238203575911,0.573761305195,0.819004595592,0.00319123197099,0.0,0.818973872495,-0.573694064455,-0.0117330081618,0.0,-0.00777874652958,0.00934566161506,-0.999926072123,0.0,0.550637746513,0.115304033883,0.304361437919,1.0,-0.15214,-0.199955428571,2.181
0.322989564904,0.0605294240324,-0.126757532604,-2.05493280753,0.021315436609,2.10886173713,0.0112519538965,-0.279986291404,-0.564174167549,-0.00667153133244,-0.679551016578,-0.0884742072753,0.14701719441,-0.239475945419,0.573850053709,0.818943070326,0.00301833143645,0.0,0.818909759772,-0.573783008007,-0.011857991981,0.0,-0.00797930669646,0.00927662901059,-0.999925134607,0.0,0.548005065164,0.111791663443,0.304329894322,1.0,-0.154044,-0.202457828571,2.198
0.317696273043,0.0499008381386,-0.126840924364,-2.06818412114,0.0197954464847,2.11175506311,0.00654985678087,-0.282274710616,-0.564289236388,-9.70301658589e-05,-0.704389120709,-0.0845299367725,0.140353753878,-0.249091277037,0.573856961771,0.818937504746,0.00320899498907,0.0,0.818907030095,-0.573789669103,-0.0117234206937,0.0,-0.00775961011362,0.00935561526153,-0.999926127728,0.0,0.545114564309,0.107947022806,0.304393812464,1.0,-0.156172,-0.205254628571,2.217
0.31316341285,0.0409311627514,-0.126854545698,-2.07951231395,0.0185093799448,2.11392397204,0.00251984385824,-0.281997608819,-0.570562091648,-0.00194132033723,-0.68896980271,-0.0828973163843,0.135596535974,-0.262454957107,0.573804190546,0.818974991869,0.00307579362634,0.0,0.81894183409,-0.573736246239,-0.0119054201894,0.0,-0.00798570086293,0.00935045609379,-0.999924395918,0.0,0.542539425657,0.104709905511,0.304331000371,1.0,-0.157964,-0.207609828571,2.233
0.308158448666,0.0312668406958,-0.126933480219,-2.09130712433,0.0170725889047,2.11642502549,-0.00192206177282,-0.301513676482,-0.565499554973,-0.00742451543086,-0.714260693077,-0.0915094460344,0.142436691662,-0.263811986658,0.573779497311,0.818991358607,0.00331510088885,0.0,0.818962300052,-0.573711909406,-0.0116680332902,0.0,-0.00765425294388,0.00941000209639,-0.99992642943,0.0,0.539924652102,0.101181519772,0.304438216223,1.0,-0.159868,-0.210112228571,2.25
0.303346413747,0.0222074181146,-0.127028837577,-2.10261886557,0.015723445818,2.1184380055,-0.00619152899983,-0.304859422267,-0.567588366229,-0.00719889212135,-0.706881304068,-0.0800560480178,0.121279483094,-0.274702931913,0.573771767783,0.818997513463,0.00312703331898,0.0,0.818965189813,-0.573703837704,-0.0118604965549,0.0,-0.00791987865337,0.00936632984159,-0.999924770864,0.0,0.537302324971,0.0978023085547,0.304367575309,1.0,-0.15998,-0.210259428571,2.266
0.298398784752,0.0130590613849,-0.127164737075,-2.11358262052,0.0143535015145,2.12055305156,-0.0104814250887,-0.309731766047,-0.566583691379,-0.0088651633796,-0.682512893556,-0.0827206816865,0.122922326829,-0.270325460114,0.573868449699,0.818929016121,0.00331902042279,0.0,0.818899980355,-0.573800802259,-0.0116708355381,0.0,-0.00765327663253,0.00941565133645,-0.999926383724,0.0,0.534808237807,0.0943844414618,0.304487582419,1.0,-0.15998,-0.210259428571,2.282
0.293076524145,0.00352400839437,-0.127244429255,-2.12533869766,0.0130084025531,2.12260241464,-0.0151467966237,-0.319162712384,-0.556815945234,-0.0030846931343,-0.681140438514,-0.07880216064,0.11842413538,-0.276214834651,0.57391826521,0.818894439081,0.00323564537541,0.0,0.818863077538,-0.573849385638,-0.0118696988301,0.0,-0.00786340864974,0.00946196966333,-0.999924316103,0.0,0.532040368417,0.090789278398,0.304421812906,1.0,-0.15998,-0.210259428571,2.299
0.287758428495,-0.00606950321697,-0.127243010962,-2.13676228135,0.0115834671198,2.12468309268,-0.0198795310447,-0.314216237804,-0.573416891532,-0.00189568101036,-0.652110026466,-0.0839784213566,0.130808820121,-0.281134197941,0.573793715572,0.818981009804,0.00340946512467,0.0,0.818952391639,-0.573724843432,-0.0117273679479,0.0,-0.00764854405766,0.00952146296444,-0.999925417977,0.0,0.529354555926,0.0872869833539,0.304513543332,1.0,-0.15998,-0.210259428571,2.316
0.281707673047,-0.0166201728929,-0.127242985326,-2.14954958288,0.00994687265088,2.12682151544,-0.0251767919813,-0.322754666635,-0.559462551103,-0.00379671697829,-0.686763587068,-0.0881626189298,0.102079781855,-0.292776460247,0.573701699612,0.819045908471,0.00330251128684,0.0,0.819015709724,-0.573632969121,-0.0117996128593,0.0,-0.00777014487829,0.00947444899011,-0.999924927014,0.0,0.526274801873,0.0833452783071,0.304466568566,1.0,-0.15998,-0.210259428571,2.335
0.276804851708,-0.0249508173634,-0.127316539184,-2.15945638701,0.00868442114112,2.12833821295,-0.0294575119418,-0.331342552671,-0.569367299817,-0.0056930697966,-0.639101873256,-0.0846075042406,0.109543273226,-0.286348311179,0.573711693348,0.819039099412,0.00325475820934,0.0,0.819007939535,-0.573642717395,-0.0118648497244,0.0,-0.00785085864263,0.00947285822331,-0.999924311623,0.0,0.523859588994,0.0801709125847,0.304476785857,1.0,-0.15998,-0.210259428571,2.35
0.2707830298,-0.0348814868719,-0.127497731082,-2.17118617625,0.00716740871407,2.1303336007,-0.034582768333,-0.331728680814,-0.546704041686,-0.0107336784933,-0.654008476779,-0.0814189687462,0.0872881942913,-0.294318841822,0.573909639026,0.818899903043,0.00337963461325,0.0,0.818870867712,-0.573840813814,-0.0117460339862,0.0,-0.00767960167172,0.00950882952776,-0.99992530015,0.0,0.521035110211,0.0762932976329,0.304513134415,1.0,-0.15998,-0.210259428571,2.368
0.265779085147,-0.0431097339035,-0.127523592039,-2.1810090024,0.00600034653063,2.13171211224,-0.0390361583105,-0.33394795656,-0.538903548069,-0.000446503075064,-0.65276294091,-0.0745184956564,0.0950492396673,-0.299848402102,0.573841717643,0.818947893396,0.00328297070773,0.0,0.818916148747,-0.573771471287,-0.0119744294106,0.0,-0.00792291134785,0.00956008893053,-0.999922913117,0.0,0.518563996577,0.073170336673,0.304449330814,1.0,-0.15998,-0.210259428571,2.383
0.260034577989,-0.0524530987825,-0.127545883112,-2.19164826742,0.00456727705563,2.13345897713,-0.0440036747711,-0.332410152869,-0.543266998963,-0.00163988465045,-0.628524840742,-0.0817029996175,0.10385804951,-0.300644727309,0.573825773859,0.818957813945,0.0035814989367,0.0,0.818931342535,-0.573756226415,-0.0116617222132,0.0,-0.00749569553105,0.00962498381678,-0.999925584349,0.0,0.515950209446,0.0696462912793,0.304601034571,1.0,-0.15998,-0.210259428571,2.4
0.254521468467,-0.0610948954317,-0.127575043553,-2.20188091464,0.0032316960285,2.1348090207,-0.0488431523999,-0.345666195908,-0.537657877819,-0.00435041222427,-0.65185458125,-0.0748810768828,0.0825695816812,-0.297087996887,0.57376368437,0.819002042034,0.00341123791686,0.0,0.818972484902,-0.573693616124,-0.0118511895058,0.0,-0.00774929218768,0.00959367685638,-0.999923952026,0.0,0.51332823224,0.0662894868415,0.304515692406,1.0,-0.15998,-0.210259428571,2.416
0.248605788606,-0.0703016323427,-0.12765103125,-2.21252246554,0.00182090843271,2.13620611271,-0.0540022854822,-0.359740986933,-0.539005929932,-0.0140824879725,-0.606255419698,-0.0825063179605,0.0910855984769,-0.303496589162,0.573760381015,0.819004442477,0.00339046908983,0.0,0.818974285286,-0.573689980113,-0.0119026745181,0.0,-0.0078034154029,0.00960617501487,-0.999923411122,0.0,0.510591643172,0.0627191000081,0.304513520307,1.0,-0.15998,-0.210259428571,2.433
0.242152715545,-0.0799969973814,-0.127816478773,-2.2235634071,0.000352813507859,2.13771705167,-0.0595890204593,-0.357998460615,-0.533897621267,-0.00368044076715,-0.618554708503,-0.08290039857,0.0751865600006,-0.303970531196,0.573879807837,0.818920192787,0.00352574885069,0.0,0.81889198933,-0.573809154374,-0.0118199437069,0.0,-0.00765663102653,0.00967062070281,-0.999923924655,0.0,0.50776053356,0.0588556447386,0.304560561702,1.0,-0.15998,-0.210259428571,2.451
0.23648952357,-0.0885132800809,-0.127820733097,-2.2334701094,-0.000945011308943,2.13880602291,-0.0645490250343,-0.351666574333,-0.529008721788,0.0041852758107,-0.615051624117,-0.0895227148756,0.0662816277737,-0.311378363647,0.573805626269,0.818972952608,0.00333961984415,0.0,0.818940992112,-0.573734015412,-0.0120697099424,0.0,-0.00796886591086,0.00966080506125,-0.999921579936,0.0,0.505114051221,0.0555601312846,0.304462938622,1.0,-0.15998,-0.210259428571,2.467
0.230334416773,-0.0976290024931,-0.127859527171,-2.24355591097,-0.00237701261691,2.14010585832,-0.0699575465325,-0.357887414898,-0.533594584714,-0.00190640197038,-0.597456393671,-0.086976254923,0.0719603956275,-0.308062562949,0.573723045937,0.819029925108,0.00354897734912,0.0,0.819001893136,-0.573652169679,-0.0118251495796,0.0,-0.00764942009312,0.00969116658807,-0.999923780927,0.0,0.502469120622,0.0520223122589,0.304579624488,1.0,-0.15998,-0.210259428571,2.484
0.224061106616,-0.106645973368,-0.12795430152,-2.25371984305,-0.00377762510138,2.14113949755,-0.0753570715539,-0.366541571127,-0.533141374027,-0.00804063755603,-0.590901897219,-0.0764434973652,0.0554011034537,-0.322786150893,0.573791965233,0.818981923805,0.00348367845487,0.0,0.818952472456,-0.573720593749,-0.0119279112838,0.0,-0.00777023525977,0.00969729344349,-0.999922789991,0.0,0.499716891176,0.0484335744138,0.304562032315,1.0,-0.15998,-0.210259428571,2.501
0.217244715191,-0.116152722084,-0.128133445985,-2.26432898743,-0.00527424928772,2.14222187893,-0.0812281900644,-0.377241968514,-0.535688420709,-0.0130481056083,-0.567831811827,-0.078577225996,0.0683220019646,-0.324000939674,0.573928947847,0.818885955593,0.00347871498692,0.0,0.818856237132,-0.57385732214,-0.0119575765251,0.0,-0.00779575550488,0.00971155375558,-0.999922452953,0.0,0.496831424333,0.044556237383,0.304562780322,1.0,-0.15998,-0.210259428571,2.519
0.210860079624,-0.125041247442,-0.128162960486,-2.27409194237,-0.00659280140416,2.14325917382,-0.0868874547812,-0.374119313314,-0.516539250667,-0.000742488194957,-0.577422894946,-0.0763409581724,0.048466036043,-0.329998419732,0.573842097592,0.818946136347,0.00363588987665,0.0,0.818918552865,-0.57377003201,-0.011878595958,0.0,-0.00764191274463,0.00979412466439,-0.999922835169,0.0,0.494156688754,0.0410506538885,0.304611634595,1.0,-0.15998,-0.210259428571,2.536
0.204331880575,-0.133923687417,-0.12818740577,-2.28393184508,-0.0080163294412,2.14407197564,-0.0925979318848,-0.393550360155,-0.517716283402,-0.0051814945042,-0.580641461139,-0.0942512796038,0.0497366896112,-0.338580337559,0.573767819693,0.818998642665,0.00352977334004,0.0,0.818969257047,-0.573695614322,-0.0119768535849,0.0,-0.0077841612139,0.00976289698403,-0.9999220433,0.0,0.491385508166,0.0374990788095,0.304578065083,1.0,-0.15998,-0.210259428571,2.553
0.197715392918,-0.14279784171,-0.128288387446,-2.29343624178,-0.00937871034727,2.14498498343,-0.0983987807135,-0.389934430896,-0.526009654377,-0.00146096055982,-0.557289182442,-0.0796181260599,0.0565714617708,-0.335302686155,0.573775554564,0.818992276851,0.00374303954976,0.0,0.818966452806,-0.573703604742,-0.0117843110248,0.0,-0.00750400891034,0.0098271626195,-0.999923555441,0.0,0.488729550166,0.0339253713238,0.304675405376,1.0,-0.15998,-0.210259428571,2.57
0.191769795033,-0.150484984887,-0.128454536488,-2.30182100189,-0.0105867367385,2.14564236752,-0.103545850683,-0.396484989427,-0.509279196919,-0.0118195064786,-0.570063151162,-0.0915865775668,0.0364056034176,-0.354068094669,0.573898507507,0.81890613738,0.00374007277141,0.0,0.818879943302,-0.573826116135,-0.0118310524094,0.0,-0.00754251521405,0.0098526835937,-0.999923014582,0.0,0.486333032406,0.0307143346657,0.304658404687,1.0,-0.15998,-0.210259428571,2.585
0.18459524584,-0.159716355418,-0.128506751366,-2.31185422734,-0.0120881296473,2.14622489769,-0.109850461337,-0.392451701782,-0.514313892886,-0.000375527177436,-0.546408963336,-0.0838149483413,0.031123359122,-0.356649259431,0.573820693333,0.818961356661,0.00358540082702,0.0,0.818932508708,-0.573748039555,-0.0119783216022,0.0,-0.00775281508003,0.00980979896975,-0.999921827796,0.0,0.48339113216,0.0269477022442,0.304612716722,1.0,-0.15998,-0.210259428571,2.603
0.177739456931,-0.168441544334,-0.128533941,-2.32092461232,-0.0133578541217,2.14691901259,-0.115869483833,-0.406292530749,-0.518414289764,-0.000627391862912,-0.528403773026,-0.075635957761,0.0352783191175,-0.363277273035,0.573805151032,0.818970902183,0.00388032577738,0.0,0.818946644233,-0.573732452263,-0.0117564459475,0.0,-0.00740206083287,0.00992388008187,-0.999923360113,0.0,0.480757593747,0.0234314559026,0.304744102216,1.0,-0.15998,-0.210259428571,2.62
0.171602867043,-0.175960634315,-0.12858755447,-2.32908616964,-0.0145335628263,2.1473505878,-0.121253009122,-0.417483969771,-0.498053324724,-0.00753953393191,-0.540903291602,-0.0892798648016,0.0173133952107,-0.350768608913,0.573792787518,0.818980069084,0.0037723118769,0.0,0.818953459472,-0.573719208246,-0.0119267853798,0.0,-0.00760369812581,0.00993304253288,-0.999921756159,0.0,0.478314528989,0.0202970718711,0.304666916634,1.0,-0.15998,-0.210259428571,2.635
0.164450763475,-0.184539237877,-0.128780513228,-2.33818189794,-0.0159445161242,2.14775565805,-0.127480683619,-0.421237012508,-0.507445888096,-0.00871075472238,-0.528361938596,-0.0847216485202,0.028571618469,-0.362707844044,0.573901150164,0.818904457389,0.00370221685477,0.0,0.818876597947,-0.573827372535,-0.0120004485788,0.0,-0.00770293576691,0.00991892095471,-0.999921136784,0.0,0.475563509181,0.0166213309849,0.304645307404,1.0,-0.15998,-0.210259428571,2.652
0.156958696385,-0.193598719827,-0.128805841792,-2.34743444236,-0.0173137107704,2.14829853837,-0.134135261486,-0.419544706761,-0.502815224832,0.000118047260728,-0.518501042752,-0.0891226096971,0.0278191463001,-0.373383124466,0.573809564704,0.818967384639,0.00396903673923,0.0,0.818944104176,-0.573736338586,-0.0117437184548,0.0,-0.00734068311327,0.00998926953579,-0.999923161481,0.0,0.472771819463,0.0129161574442,0.304768620197,1.0,-0.15998,-0.210259428571,2.67
0.149731738646,-0.201990403978,-0.128864078828,-2.35631846104,-0.0186658912071,2.14853130587,-0.140559185883,-0.427129222401,-0.498254014812,-0.00144806634812,-0.522632121896,-0.0772281192186,0.00963600475405,-0.373287412518,0.573722394052,0.819029174418,0.00381744895656,0.0,0.819002974472,-0.573648430762,-0.0119311604815,0.0,-0.00758224089721,0.00997186799495,-0.999921532657,0.0,0.469994174255,0.00936391866171,0.30469379348,1.0,-0.15998,-0.210259428571,2.687
0.142366204203,-0.210373664311,-0.129036691299,-2.36506241982,-0.0199282353659,2.14875094902,-0.147035697963,-0.435267775729,-0.494130545247,-0.0188796542218,-0.50660219781,-0.0732696528888,0.0149930199772,-0.389367042682,0.57383207147,0.818952344195,0.00381557224829,0.0,0.818924962274,-0.573756581953,-0.0120846072421,0.0,-0.00770765613448,0.0100593962407,-0.999919697068,0.0,0.467236496598,0.00575085539228,0.304653375515,1.0,-0.15998,-0.210259428571,2.704
0.13490281026,-0.218749106808,-0.129150823303,-2.37339133311,-0.0212170261154,2.14904185414,-0.153522581639,-0.429398801939,-0.494255557753,-0.00467342182463,-0.492385654964,-0.0791720643025,0.0110510242059,-0.38287787671,0.573954472524,0.818865347006,0.00406864140113,0.0,0.818842465406,-0.573879667789,-0.0118275376686,0.0,-0.00735039167942,0.0101202393456,-0.999921773189,0.0,0.464612464572,0.00215742683942,0.304781174047,1.0,-0.15998,-0.210259428571,2.721
0.127461727276,-0.226948722493,-0.129174225857,-2.38193407705,-0.0225672305572,2.14914486258,-0.160207518664,-0.440247035286,-0.475678885804,-0.00457293107981,-0.507695661756,-0.0824616513177,0.00313331354556,-0.392711840281,0.573784307761,0.8189853466,0.00391370960639,0.0,0.818959753653,-0.573709131999,-0.0119791760384,0.0,-0.00756558435954,0.0100788279345,-0.999920586427,0.0,0.461840200144,-0.00134800495841,0.304694187903,1.0,-0.15998,-0.210259428571,2.738
0.120260414262,-0.234664541832,-0.129254590623,-2.38978764122,-0.0237766862972,2.14915868702,-0.166576149956,-0.451284224919,-0.476032569313,-0.00293320762058,-0.481517377404,-0.0800636454338,-3.92971057612e-05,-0.401893828587,0.573794008187,0.818978714162,0.00387928081632,0.0,0.818952029786,-0.573718107181,-0.012076974087,0.0,-0.00766531864273,0.0101068348547,-0.999919544153,0.0,0.459253857816,-0.00471785945662,0.304668422896,1.0,-0.15998,-0.210259428571,2.754
0.11248214878,-0.242895476876,-0.129445270674,-2.3978007133,-0.0250926041523,2.14922378446,-0.173418813203,-0.46027146973,-0.478851861458,-0.00978875877047,-0.465071010468,-0.0737401089305,0.00108231485055,-0.401814915204,0.573915667975,0.818892484284,0.00408070303838,0.0,0.818869608907,-0.573840620785,-0.0118428225852,0.0,-0.00735646687771,0.0101385403341,-0.99992154312,0.0,0.456605879918,-0.00836780856134,0.30478747176,1.0,-0.15998,-0.210259428571,2.771
0.104733877051,-0.250981082666,-0.129486390812,-2.40591446983,-0.0262987655464,2.14922149246,-0.180362772446,-0.458464663022,-0.469012296901,-0.00139797456909,-0.48020123344,-0.0779578827265,-0.000428848120986,-0.400678171702,0.573851654379,0.818937054125,0.00413848394668,0.0,0.818914468892,-0.573775780368,-0.0118824830809,0.0,-0.00735658547102,0.0102080434938,-0.999920835116,0.0,0.453877311897,-0.0118782036657,0.304770307688,1.0,-0.15998,-0.210259428571,2.788
0.0972737153466,-0.25848677155,-0.129572493836,-2.41348465657,-0.0275155224631,2.1491301688,-0.186998736227,-0.463933176554,-0.469061115222,-0.00564114512252,-0.469041745627,-0.0750648428201,-0.00389671903055,-0.414688562617,0.573842307129,0.818943966806,0.0040660401176,0.0,0.818919884749,-0.573765930106,-0.0119844362806,0.0,-0.00748177054488,0.0102071341883,-0.999919915554,0.0,0.451283161104,-0.0152490010165,0.304709747793,1.0,-0.15998,-0.210259428571,2.804
0.0887985700058,-0.266962936267,-0.129726961649,-2.42161619872,-0.0288256256648,2.14901820399,-0.194526592265,-0.473788310057,-0.474774122412,-0.0147581730918,-0.441510459182,-0.0770136242708,-0.00570237477555,-0.426210073884,0.573921951855,0.818887145207,0.00426421081742,0.0,0.818866476878,-0.573846036049,-0.0117969003374,0.0,-0.00721346844673,0.0102625169414,-0.999921320214,0.0,0.44846805467,-0.0190565959891,0.304806601485,1.0,-0.15998,-0.210259428571,2.822
0.0821447636254,-0.273480362287,-0.129820502125,-2.4278637956,-0.029841670307,2.14889388993,-0.20046293092,-0.469722160351,-0.455040584296,-0.00312947116243,-0.448082729077,-0.0716333243958,-0.0133774030213,-0.434754214461,0.573917561635,0.818889662205,0.00437040992602,0.0,0.81887087176,-0.573842020891,-0.0116866309372,0.0,-0.00706227236703,0.0102861621578,-0.999922156559,0.0,0.446111400244,-0.0222042023657,0.304854383791,1.0,-0.15998,-0.210259428571,2.837
0.0735189129749,-0.281709005138,-0.129857304413,-2.43605114462,-0.0311852764758,2.14857629574,-0.20826061698,-0.488387800088,-0.456109835485,-0.00357719029967,-0.442341515359,-0.0697956408857,-0.0195356925586,-0.436549325267,0.573805624929,0.818968802001,0.00423710386526,0.0,0.818947462808,-0.573729367397,-0.0118496011491,0.0,-0.00727364277723,0.0102695309729,-0.999920812292,0.0,0.443331747608,-0.0257376598625,0.304770579942,1.0,-0.15998,-0.210259428571,2.854
0.0657157991585,-0.28901002496,-0.12996227415,-2.4430897246,-0.0323257078063,2.14831482238,-0.215247684807,-0.49145815015,-0.460740299682,-0.00653138508296,-0.435275240513,-0.0574511911119,-0.0146616062111,-0.443766271661,0.573828426376,0.818952559359,0.0042882985063,0.0,0.818931836638,-0.573751921241,-0.0118375130229,0.0,-0.00723408135822,0.0103047240398,-0.999920737223,0.0,0.440774441216,-0.0291069798978,0.304771602684,1.0,-0.15998,-0.210259428571,2.87
0.0573033766169,-0.29674780791,-0.130131085906,-2.45026037851,-0.0334493009515,2.14804919883,-0.222786399926,-0.492028786719,-0.448095126384,-0.00432535933116,-0.414011817611,-0.0609743233049,-0.0126523751439,-0.451586966823,0.573945196377,0.818869190012,0.00457253818889,0.0,0.818852996379,-0.573868990801,-0.0116145864617,0.0,-0.00688692172694,0.0104105731404,-0.999922092103,0.0,0.438135648106,-0.0327200913788,0.30488469951,1.0,-0.15998,-0.210259428571,2.887
0.0489190398423,-0.304307908318,-0.130174875441,-2.45749420488,-0.0347169387954,2.14760758347,-0.230394035515,-0.497504531166,-0.435969890508,-0.00371100106894,-0.426499297549,-0.0786240314281,-0.0290368991562,-0.448183518504,0.573812336689,0.818962755555,0.00448934050777,0.0,0.818945482175,-0.573736404775,-0.0116439667569,0.0,-0.00696041102753,0.0103581763269,-0.999922127399,0.0,0.43540854751,-0.0362381286536,0.304859855379,1.0,-0.15998,-0.210259428571,2.904
0.0403193945474,-0.311806851962,-0.130280691723,-2.4646935785,-0.0358930416326,2.14708239473,-0.238079231514,-0.50828624212,-0.444255897401,-0.0128737249934,-0.416094240514,-0.0640861570824,-0.0220607350629,-0.457889589649,0.573877467406,0.818917476003,0.00442343772077,0.0,0.818898318992,-0.573800223193,-0.0118149869713,0.0,-0.00713746717643,0.0104029008023,-0.999920414942,0.0,0.432637250979,-0.0398173202811,0.304797793076,1.0,-0.15998,-0.210259428571,2.921
0.0311315578436,-0.319714252038,-0.130450792634,-2.47200578456,-0.0371284204167,2.14658633667,-0.246402254481,-0.50578415278,-0.436540759721,-0.0097400698351,-0.391528841329,-0.0718732293905,-0.0281738099756,-0.463443215935,0.573914588242,0.818890793827,0.00454533709323,0.0,0.818873610953,-0.573837515506,-0.0117158859881,0.0,-0.00698588073229,0.0104461756025,-0.999921034325,0.0,0.429787420655,-0.0436292225456,0.304842987482,1.0,-0.15998,-0.210259428571,2.939
0.0229732314495,-0.326655721212,-0.130490490843,-2.4782695016,-0.0382073262326,2.14616214354,-0.253872839279,-0.518331751565,-0.430273148296,-0.00221799904267,-0.40027705104,-0.0727073796945,-0.03146873907,-0.471228645587,0.573805790643,0.818966101644,0.00471018940391,0.0,0.818952361217,-0.573730237568,-0.0114626112746,0.0,-0.0066852406961,0.0104349343642,-0.999923206902,0.0,0.427316902767,-0.0469366462451,0.304939303468,1.0,-0.15998,-0.210259428571,2.955
0.0140601415948,-0.333868216389,-0.130592264446,-2.48513310781,-0.0393489064054,2.14545968027,-0.261908833955,-0.531683803106,-0.424210755785,-0.010830519068,-0.394659665663,-0.0549129096704,-0.0466631095794,-0.477878119504,0.573840864045,0.818942232156,0.00458585261897,0.0,0.818925282747,-0.573763234363,-0.0117421919879,0.0,-0.00698511777118,0.0104938222873,-0.999920540755,0.0,0.424357391394,-0.0507288090081,0.304839172628,1.0,-0.15998,-0.210259428571,2.973
0.00560223013535,-0.340685241784,-0.130752713273,-2.49134156093,-0.0403782025887,2.14485530765,-0.269563035632,-0.528390812472,-0.429712083159,-0.00737452736769,-0.388695961717,-0.0662262891009,-0.0362649690528,-0.48314308269,0.573942249454,0.81887068216,0.00467408715794,0.0,0.818854758567,-0.57386413632,-0.0117296342155,0.0,-0.0069228958688,0.0105597344658,-0.999920279583,0.0,0.421956542313,-0.0539091271189,0.304858582582,1.0,-0.15998,-0.210259428571,2.988
-0.00282782303404,-0.347365485922,-0.130824567186,-2.49742800308,-0.04142998691,2.14421269827,-0.277357678851,-0.535392253479,-0.41031390306,-0.00501732668342,-0.365666381791,-0.0725766070538,-0.0368054787207,-0.482917315773,0.573839147728,0.818942821933,0.00469402177071,0.0,0.818927206809,-0.573761063439,-0.0117140484289,0.0,-0.0069000218005,0.0105662451373,-0.999920368911,0.0,0.419251237284,-0.0574375211555,0.304867310333,1.0,-0.15998,-0.210259428571,3.005
-0.0125675150434,-0.35483285931,-0.13094865789,-2.50394929663,-0.0426266059636,2.14351995116,-0.286182406195,-0.546208187106,-0.409244073762,-0.00867280565732,-0.369466122074,-0.0556579602823,-0.0414938020482,-0.499367954622,0.573881612978,0.818912175286,0.00484668494128,0.0,0.818899875434,-0.573805153972,-0.0114623815551,0.0,-0.00660575819559,0.0105472027764,-0.999922557237,0.0,0.416603603077,-0.0610487573968,0.30497295985,1.0,-0.15998,-0.210259428571,3.022
-0.021818693382,-0.361685269921,-0.131098765299,-2.5102604845,-0.0437200614131,2.1426765708,-0.294660659514,-0.540350168232,-0.392158188592,-0.00404574363732,-0.369286853724,-0.0663132723531,-0.0457817957634,-0.507759307073,0.573897040819,0.818901877697,0.00475900670458,0.0,0.818887103347,-0.573818735669,-0.0116926245335,0.0,-0.00684443675207,0.0106076560646,-0.999920312484,0.0,0.413826052079,-0.0646289484965,0.304894936911,1.0,-0.15998,-0.210259428571,3.039
-0.0304886500847,-0.368159612619,-0.1311611632,-2.51604711175,-0.0447466438145,2.14194679627,-0.30271906118,-0.55166096041,-0.409581952211,-0.00796128867449,-0.354161080482,-0.0667002736288,-0.0490972056151,-0.507072079495,0.573758694986,0.818998749265,0.00477027591369,0.0,0.81898416375,-0.573680443281,-0.011680557575,0.0,-0.00682987954026,0.0106088061534,-0.999920399821,0.0,0.411260447614,-0.067922690884,0.304894610641,1.0,-0.15998,-0.210259428571,3.055
-0.0400317022834,-0.374823001942,-0.131284808579,-2.52202149532,-0.0457635852056,2.14111047009,-0.311344439111,-0.558100604412,-0.388806911357,-0.0109154437379,-0.349484664843,-0.0605511869545,-0.0486271675956,-0.502506041047,0.573910858722,0.818892041818,0.00478507981503,0.0,0.818876908649,-0.57383138664,-0.0117853760989,0.0,-0.00690525465933,0.0106823523522,-0.999919099131,0.0,0.408522942369,-0.0715360487467,0.304863421573,1.0,-0.15998,-0.210259428571,3.072
-0.0506382340548,-0.382248286407,-0.131427062973,-2.52832656427,-0.0469029496235,2.14023448697,-0.321168555911,-0.551619640431,-0.380779759811,-0.00638548955196,-0.340121550511,-0.0615371197949,-0.0429300090413,-0.523801566675,0.573892292772,0.818903909061,0.0049770395675,0.0,0.818892547066,-0.573814253136,-0.0115302280552,0.0,-0.00658637939272,0.010692975496,-0.999921136831,0.0,0.405572078438,-0.0755282618595,0.304976213595,1.0,-0.15998,-0.210259428571,3.091
-0.0596818028654,-0.388332124922,-0.131516957601,-2.53375206161,-0.0479404037862,2.13938311605,-0.329542976072,-0.573502866983,-0.385167840521,-0.00650871719272,-0.340227194313,-0.0683910980098,-0.0647986683507,-0.517651170984,0.573820551636,0.818954763994,0.00488015909632,0.0,0.818941711226,-0.573742115937,-0.011627764893,0.0,-0.00672279008224,0.0106690217183,-0.999920484873,0.0,0.402982793502,-0.0788765585112,0.304927168057,1.0,-0.15998,-0.210259428571,3.107
-0.069516799806,-0.394774983521,-0.131668196429,-2.53940022312,-0.0489762328184,2.13839959778,-0.338527430503,-0.580744862182,-0.38215180805,-0.00511220653495,-0.319736911032,-0.0633228306831,-0.0605314935648,-0.526149440666,0.573931120531,0.818877458789,0.00485007980915,0.0,0.818863259827,-0.573851569985,-0.0117509247554,0.0,-0.00683947317016,0.0107159798909,-0.999919191426,0.0,0.400205021486,-0.0824978575855,0.304898445788,1.0,-0.15998,-0.210259428571,3.124
-0.0780239716732,-0.400315426229,-0.131707326915,-2.54417372186,-0.0498206671782,2.13761728176,-0.346533926015,-0.56095249442,-0.356036614658,-0.00015716201166,-0.322826417718,-0.0611748799501,-0.0533012862844,-0.530103762158,0.573789716075,0.818976286541,0.00489394647167,0.0,0.818962751042,-0.573710194249,-0.0117205939513,0.0,-0.00679131228321,0.0107333227912,-0.999919333676,0.0,0.397837762744,-0.0855647112628,0.304908523557,1.0,-0.15998,-0.210259428571,3.139
-0.0879159811733,-0.406507061614,-0.131809566056,-2.54945745877,-0.0508255447229,2.13665447525,-0.355764071363,-0.588503583111,-0.362885079822,-0.00721172730495,-0.302222441033,-0.0554820972491,-0.0513950144968,-0.538767853275,0.573731277129,0.819017185765,0.00490081292839,0.0,0.819003806797,-0.573651849687,-0.0117075490315,0.0,-0.00677745394563,0.0107309781072,-0.99991945287,0.0,0.39512507753,-0.0891326481586,0.304922424984,1.0,-0.15998,-0.210259428571,3.156
-0.0986772816336,-0.412913744568,-0.131981513181,-2.55480651969,-0.0518213236887,2.13571976043,-0.365604109036,-0.593659727764,-0.357512606038,-0.00630322044971,-0.296360791397,-0.0456997842404,-0.053125398451,-0.554851081982,0.573937885259,0.818871547773,0.00504371028294,0.0,0.8188607711,-0.5738591877,-0.0115506340245,0.0,-0.00656423245722,0.0107596501135,-0.999920567236,0.0,0.392129221625,-0.0932209239518,0.304984058581,1.0,-0.15998,-0.210259428571,3.175
-0.10919213701,-0.419228719496,-0.132048519659,-2.5602073494,-0.052749839775,2.134644681,-0.375596378804,-0.590901642923,-0.351882056026,-0.00731445633955,-0.301416388252,-0.0546358764909,-0.0673103199038,-0.562928958654,0.573758609182,0.818997030153,0.00506654624143,0.0,0.818985768321,-0.573678594841,-0.0116588168341,0.0,-0.0066420951147,0.0108389844818,-0.999919196229,0.0,0.389398107242,-0.0966901188596,0.304958208074,1.0,-0.15998,-0.210259428571,3.192
-0.118852745129,-0.424737172668,-0.132202355156,-2.56489787725,-0.0536669767035,2.13362195101,-0.384540756115,-0.607878435061,-0.344623438647,-0.0120997041677,-0.288810579967,-0.0592414809451,-0.0602222599621,-0.567876741456,0.57383970855,0.818940484595,0.00502180077896,0.0,0.818927869608,-0.57375857635,-0.0117892894085,0.0,-0.00677355552752,0.0108778644443,-0.999917892134,0.0,0.386781897432,-0.100088879762,0.304927395245,1.0,-0.15998,-0.210259428571,3.208
-0.129724934422,-0.430710428413,-0.132296386584,-2.56989986922,-0.0546117151531,2.13263443914,-0.394675445883,-0.588731738475,-0.325142477696,-0.00141556190413,-0.273514842413,-0.045283353671,-0.0538834720863,-0.563270203541,0.573864300693,0.818922963587,0.00506862916145,0.0,0.818911188439,-0.573783381706,-0.0117406656526,0.0,-0.00670653465145,0.0108885156525,-0.999918227967,0.0,0.383934115976,-0.103862715445,0.304933571368,1.0,-0.15998,-0.210259428571,3.226
-0.139399676709,-0.43587505667,-0.132355070447,-2.57424508596,-0.0554302455597,2.13166933904,-0.403850336406,-0.608717747183,-0.317704284542,-0.00859894115549,-0.268144581609,-0.0530267002906,-0.0672718285629,-0.571076789746,0.573751967823,0.819001759715,0.00505409777923,0.0,0.818989326003,-0.5736703576,-0.0118131962309,0.0,-0.00677577287526,0.0109173069095,-0.999917447248,0.0,0.381387451224,-0.107174290075,0.304911641028,1.0,-0.15998,-0.210259428571,3.242
-0.149370148508,-0.441018427888,-0.132533847548,-2.57838884018,-0.0562729234448,2.13070610658,-0.413095179932,-0.620954493942,-0.327309842207,-0.0110303151447,-0.25432148615,-0.0510451444091,-0.0562318384461,-0.57281302875,0.573909359247,0.818891026679,0.00512647003052,0.0,0.818879966711,-0.573828183054,-0.0117287405217,0.0,-0.00666297566733,0.0109294079905,-0.999918073042,0.0,0.378835288946,-0.110624435294,0.30496178754,1.0,-0.15998,-0.210259428571,3.258
-0.159151082037,-0.446121849349,-0.132579551274,-2.58245771387,-0.0570540413448,2.12977990019,-0.422458493551,-0.607508866115,-0.316902268352,-0.00318991691192,-0.251778065181,-0.0489482945005,-0.0637658073417,-0.583790193687,0.573744647244,0.819005876567,0.00521543946592,0.0,0.818996834834,-0.573664654261,-0.0115670171162,0.0,-0.00648166650668,0.0109081525856,-0.999919496863,0.0,0.376322031164,-0.113921568651,0.305028369404,1.0,-0.15998,-0.210259428571,3.274
-0.169170212279,-0.451032989022,-0.132708568739,-2.58656291793,-0.057853778991,2.1287816645,-0.431863105754,-0.627886652619,-0.296157409476,-0.00993198248658,-0.247929945538,-0.0478908868347,-0.0681706496281,-0.600925757914,0.57379209158,0.818972735073,0.00520016815712,0.0,0.818962732543,-0.57371086173,-0.0116891719279,0.0,-0.00658984702496,0.0109661094646,-0.99991815583,0.0,0.373713053868,-0.117288979612,0.304987673546,1.0,-0.15998,-0.210259428571,3.29
-0.181179247866,-0.456625940682,-0.132851308502,-2.59114122678,-0.0587417899325,2.12762787147,-0.44316110535,-0.620992881238,-0.29573780721,-0.00154943386425,-0.230242084707,-0.0466535331939,-0.0555098235391,-0.602082525444,0.573864005589,0.818922139974,0.00523246130014,0.0,0.818912059997,-0.573781829351,-0.0117557305295,0.0,-0.0066248643345,0.0110313286597,-0.999917207053,0.0,0.370664477808,-0.12130270343,0.30497475561,1.0,-0.15998,-0.210259428571,3.309
-0.19186233275,-0.461437037663,-0.132908527573,-2.59504760563,-0.0594676358493,2.12666561111,-0.453406960801,-0.639925926827,-0.277902869432,-0.00226603936954,-0.233808155902,-0.0466364912366,-0.0569051843409,-0.609760879941,0.573751193745,0.819000810465,0.0052902774554,0.0,0.818991397251,-0.573668702194,-0.0117498192927,0.0,-0.00658837176798,0.0110743777866,-0.99991697231,0.0,0.367990818837,-0.124820012808,0.30497453395,1.0,-0.15998,-0.210259428571,3.326
-0.202888157078,-0.466150966973,-0.133082470711,-2.59893978842,-0.0602712187064,2.12563877582,-0.463712868344,-0.646406272968,-0.272879581635,-0.00693406631877,-0.224498526013,-0.051363989983,-0.0610483208685,-0.619960032103,0.573920736274,0.818882084584,0.00527891308541,0.0,0.818871701734,-0.573836879272,-0.0118793513213,0.0,-0.00669868193303,0.0111407730928,-0.999915501848,0.0,0.365214706178,-0.128463019058,0.304927952629,1.0,-0.15998,-0.210259428571,3.343
-0.213661547991,-0.470795296883,-0.133135963917,-2.60258124803,-0.0610122962566,2.12466110438,-0.474068477164,-0.641014012227,-0.271794959382,-0.00130545432478,-0.2113017316,-0.0450355449949,-0.0532603233394,-0.617305362047,0.573792026713,0.818971960202,0.00532779364441,0.0,0.818962757542,-0.573708933807,-0.0117816776906,0.0,-0.00659238778538,0.0111237114607,-0.999916398239,0.0,0.362542380177,-0.131960155457,0.30496874618,1.0,-0.15998,-0.210259428571,3.36
-0.224126202813,-0.475075169125,-0.1332866606,-2.60582120165,-0.0616993459308,2.12375104994,-0.483981286636,-0.653094468627,-0.265912385806,-0.00995946906364,-0.199178266734,-0.044505237092,-0.0611164478874,-0.618767848209,0.573886113817,0.818905280116,0.00544219328888,0.0,0.818898518279,-0.573804265451,-0.0116029570011,0.0,-0.00637909184789,0.0111155939322,-0.999917872007,0.0,0.360002052654,-0.135385887417,0.30504980541,1.0,-0.15998,-0.210259428571,3.376
-0.235183454013,-0.47934080127,-0.13333624526,-2.60922422364,-0.0624324821529,2.12278648513,-0.494573807489,-0.638958604854,-0.246074864099,0.0019663023486,-0.199259639914,-0.0381695008647,-0.053326826559,-0.635754603775,0.573806769869,0.818961040213,0.0054177825534,0.0,0.818953933468,-0.573724963799,-0.011613254157,0.0,-0.00640260887543,0.0111008919149,-0.999917885028,0.0,0.357296277016,-0.138931781167,0.305043516387,1.0,-0.15998,-0.210259428571,3.393
-0.244940982863,-0.482960980186,-0.133385999617,-2.61218251311,-0.0630206829875,2.12194366213,-0.503980096489,-0.652466851408,-0.232301793135,-0.00590201324817,-0.192921071692,-0.0402516663189,-0.058968969355,-0.612590798079,0.573720365706,0.819021633103,0.0054086398124,0.0,0.819013719406,-0.573637417746,-0.0117212323507,0.0,-0.00649746978281,0.0111546746825,-0.999916674588,0.0,0.354894635224,-0.14202564971,0.30499972033,1.0,-0.15998,-0.210259428571,3.408
-0.256352184765,-0.486940137758,-0.133547549681,-2.61537498583,-0.0637500577674,2.12094262679,-0.514743973462,-0.666827050763,-0.230264385987,-0.00226151300237,-0.18055021873,-0.0437822913359,-0.0595164603644,-0.636794442937,0.573882338516,0.818908344154,0.00537887680591,0.0,0.818899261496,-0.573798130354,-0.0118512456828,0.0,-0.00661882195647,0.0112061945848,-0.999915302613,0.0,0.352112271876,-0.145675167493,0.304964715078,1.0,-0.15998,-0.210259428571,3.425
-0.267494420401,-0.490691058685,-0.133596330922,-2.61837862491,-0.064338059732,2.12004196772,-0.525614106235,-0.663436139775,-0.216924538638,-0.00583874668736,-0.172425893763,-0.0310777026172,-0.0491176288675,-0.629736410462,0.573725806252,0.819017812127,0.0054101348949,0.0,0.819008541372,-0.573640506733,-0.0119300082301,0.0,-0.00666754508755,0.0112757173718,-0.999914197339,0.0,0.349427404502,-0.149169611609,0.304936171765,1.0,-0.15998,-0.210259428571,3.442
-0.278970090216,-0.494380012953,-0.133760665655,-2.62123945565,-0.0649557364546,2.11916938475,-0.53654047653,-0.680415771765,-0.214271030402,-0.0110201829401,-0.170269871013,-0.0396943335984,-0.0496136923701,-0.636602089901,0.573872870775,0.818914254763,0.00548802662661,0.0,0.818905996876,-0.57378725207,-0.0119123693817,0.0,-0.0066063765705,0.0113305816791,-0.999913983154,0.0,0.346689792474,-0.152799954771,0.304944467539,1.0,-0.15998,-0.210259428571,3.459
-0.290952052412,-0.498140277079,-0.133782242663,-2.62410444239,-0.0655414283314,2.11821892278,-0.548181507312,-0.6640463635,-0.209092144683,-0.00191618293094,-0.156399663843,-0.0309264704925,-0.0584348357063,-0.639634023267,0.573758753586,0.818993867476,0.00553937019267,0.0,0.818986344987,-0.573673082161,-0.0118873222206,0.0,-0.00655798268921,0.0113573423924,-0.99991399812,0.0,0.343842831659,-0.156509509276,0.304970249437,1.0,-0.15998,-0.210259428571,3.477
-0.301794122202,-0.501288519827,-0.133868515053,-2.6264971225,-0.0660934175458,2.11744082922,-0.558631766363,-0.688159897704,-0.197422248596,-0.0133937711265,-0.143090449953,-0.0331236713122,-0.0447411716592,-0.659140021081,0.573772488309,0.818984001036,0.00557535712356,0.0,0.818977215816,-0.573687151034,-0.0118372131086,0.0,-0.00649610247871,0.0113581763543,-0.999914392577,0.0,0.341293371222,-0.159886092494,0.304991038761,1.0,-0.15998,-0.210259428571,3.493
-0.314045704799,-0.50461937404,-0.133952121894,-2.62904220467,-0.0666815850586,2.11663013505,-0.570455731607,-0.664808492027,-0.18116393062,0.00126433966054,-0.13492521401,-0.0223661841074,-0.0375521144516,-0.657698522796,0.573789199608,0.818972024286,0.00561469071863,0.0,0.818966060736,-0.573704264053,-0.0117794597162,0.0,-0.00642599968256,0.0113573865673,-0.999914854524,0.0,0.338432723861,-0.163679655728,0.305004831826,1.0,-0.15886,-0.208787428571,3.511
-0.324189890433,-0.507220568867,-0.133980772797,-2.63100824848,-0.0671601514505,2.11601933399,-0.580298483123,-0.678616800102,-0.171294797454,-0.0017565151997,-0.124758763501,-0.0274002275568,-0.0446133166532,-0.646355415323,0.573741784085,0.819005159305,0.00562682223873,0.0,0.818999964579,-0.57365790125,-0.0116797797116,0.0,-0.00633805083427,0.0113097626116,-0.999915955659,0.0,0.336089128504,-0.16680164526,0.305025837405,1.0,-0.15718,-0.206579428571,3.526
-0.335134447976,-0.509882803165,-0.134035843276,-2.63301482389,-0.067606171091,2.11533065821,-0.590762416434,-0.67811254796,-0.162694541126,-0.00185672702989,-0.124052127951,-0.0259248525835,-0.043916887006,-0.655974966468,0.573871307851,0.818914048871,0.00567886328429,0.0,0.818909683022,-0.573787502396,-0.0116438845752,0.0,-0.00627700073347,0.011332785593,-0.999916080095,0.0,0.333553984518,-0.170150119111,0.305041718981,1.0,-0.155388,-0.204224228571,3.542
-0.347057102141,-0.512576348759,-0.133995258824,-2.63511728789,-0.0680053213878,2.11456176993,-0.602496003029,-0.671504844539,-0.143932061433,0.000518215101977,-0.110759667109,-0.026096594504,-0.0455848740204,-0.647812126897,0.57370869567,0.819027703028,0.00571848645358,0.0,0.819023170216,-0.573623557111,-0.0117391770492,0.0,-0.00633457463341,0.0114186607018,-0.999914740041,0.0,0.330790450696,-0.173730634088,0.305019024783,1.0,-0.153372,-0.201574628571,3.56
-0.358565178473,-0.514921867332,-0.134026385609,-2.63695913204,-0.0684288293285,2.11387033885,-0.613480156525,-0.675255529229,-0.130933534962,-0.00321919379949,-0.100326381565,-0.0272371679989,-0.0372310643761,-0.649131141948,0.573875342638,0.818910888255,0.00572670149652,0.0,0.818905777239,-0.573788911534,-0.0118473586359,0.0,-0.00641613669611,0.0114887571307,-0.999913417076,0.0,0.328132503516,-0.177207765605,0.304988853123,1.0,-0.151468,-0.199072228571,3.577
-0.370349134024,-0.517146973619,-0.133967764986,-2.63870931891,-0.068742927928,2.11323322664,-0.62499793098,-0.660939096126,-0.125184230971,0.000641616214233,-0.091324114935,-0.0184753836743,-0.0336801696091,-0.634124165584,0.573818910381,0.81895002947,0.00578396245943,0.0,0.81894503602,-0.573731148366,-0.0119308119334,0.0,-0.00645242358965,0.0115830958587,-0.999912095196,0.0,0.32544271665,-0.180720113425,0.304961292387,1.0,-0.149452,-0.196422628571,3.595
-0.380916475162,-0.519018955617,-0.133971153771,-2.64015223379,-0.0690707327858,2.11267430297,-0.635186494856,-0.6699666342,-0.120482640055,-0.00129678490453,-0.0891467336764,-0.0228237654191,-0.0394377781287,-0.642199419874,0.57390979065,0.818886148522,0.00581161400644,0.0,0.818881108418,-0.573821171448,-0.0119891774216,0.0,-0.0064830689847,0.0116399513285,-0.999911236735,0.0,0.323023330048,-0.183881604706,0.304947019214,1.0,-0.14766,-0.194067428571,3.611
