nelsonifechukwu/NELSON_IML_WORK/CNN-GradCAM/train2dof/data_sample_2022-02-21-15-58-47/robot_state.csv
position_joint1,position_joint2,position_joint3,position_joint4,position_joint5,position_joint6,position_joint7,velocity_joint1,velocity_joint2,velocity_joint3,velocity_joint4,velocity_joint5,velocity_joint6,velocity_joint7,ee_T_00,ee_T_10,ee_T_20,ee_T_30,ee_T_01,ee_T_11,ee_T_21,ee_T_31,ee_T_02,ee_T_12,ee_T_22,ee_T_32,ee_T_03,ee_T_13,ee_T_23,ee_T_33,v_x,v_y,time
0.46506626972,0.547872709349,-0.123910453702,-1.35586154697,0.0795150571658,1.89409231476,0.159168395191,0.00716136671889,0.00126122596338,-0.00131942210834,0.0005398206477,4.73378182884e-05,-0.000222401048499,-3.79399058504e-05,0.573770461999,0.819002283633,0.0018609787528,0.0,0.818957382122,-0.573711696347,-0.0120184293434,0.0,-0.00877562475878,0.0084200441564,-0.999926042898,0.0,0.66164960383,0.260928007902,0.30313268734,1.0,0.0,0.0,0.0
0.465063764066,0.547875812692,-0.123905442433,-1.35586154697,0.0795147046317,1.89409233156,0.159159467402,0.00253247232332,0.00172448113137,0.000654773560976,0.000438352842198,0.000296596188058,-0.000156319060666,-0.00677865743238,0.573761613121,0.8190084864,0.00185941283122,0.0,0.818963540582,-0.573702832455,-0.0120219021501,0.0,-0.00877945850743,0.00842065940989,-0.999926004064,0.0,0.661649046761,0.260929152549,0.303130323934,1.0,-4e-05,-5.25714285714e-05,0.003
0.465057818752,0.547872287646,-0.123907951328,-1.35586681052,0.0795150571605,1.8940923322,0.159166469642,-0.00182507483389,0.00110117049961,-0.0003046522906,-0.00022899431932,-0.000161920944801,-8.76683978426e-05,-0.000699000655659,0.573771321429,0.819001681682,0.00186091626356,0.0,0.818956757609,-0.573712535078,-0.0120209468141,0.0,-0.00877771366723,0.0084214466267,-0.999926012753,0.0,0.6616493471,0.26092727641,0.30313211755,1.0,-0.00036,-0.000473142857143,0.019
0.465060496486,0.547860834856,-0.123913272796,-1.3558734701,0.0795156509472,1.89409267976,0.15915891206,-0.0016979572936,-0.00205439717243,-0.00153493365727,-0.000161732009991,-7.61445290007e-05,8.53319562142e-05,-0.000645894403003,0.573770183302,0.819002477347,0.00186165389066,0.0,0.818957581329,-0.573711411577,-0.0120184487914,0.0,-0.00877525620338,0.00842060525633,-0.999926041408,0.0,0.661649378336,0.260921418626,0.303135550923,1.0,-0.0007,-0.00092,0.036
0.465065191937,0.547817410978,-0.123908196016,-1.35591310374,0.0795147044692,1.89409596927,0.159159259097,0.00144062207725,-0.00327326220846,-0.00079638202395,-0.00204860280634,8.52522959061e-06,-0.000457091857678,-0.000841018019739,0.57376493347,0.81900613474,0.00187063602256,0.0,0.818961301655,-0.573706071359,-0.0120198576925,0.0,-0.00877131082031,0.00842871364006,-0.999926007709,0.0,0.661639760989,0.260923401618,0.303147565838,1.0,-0.00106,-0.00139314285714,0.054
0.465064862103,0.547705966396,-0.123905810679,-1.35606288138,0.0795126681548,1.89412903426,0.159158073457,0.000591803087391,-0.00346960170678,0.000316878021569,-0.0125031606277,-9.02341534957e-05,0.00415933311697,-0.00226782834295,0.573770231988,0.819002420391,0.00187167824035,0.0,0.818957493738,-0.57371126172,-0.0120315637665,0.0,-0.00878024600798,0.00843634047998,-0.999925864972,0.0,0.66161461559,0.260910164419,0.30315801772,1.0,-0.00138,-0.00181371428571,0.07
0.465050413927,0.547542068314,-0.12390830467,-1.35627789004,0.0795097081228,1.89417487375,0.159152450974,-0.000918767646932,-0.0152100457369,-1.55007474141e-05,-0.012330218231,-0.00020670028309,0.00355636272151,-0.000597152097022,0.573790177833,0.818988441517,0.00187386928364,0.0,0.818943419256,-0.573731076202,-0.0120447149697,0.0,-0.00878955452694,0.00844589467243,-0.999925702537,0.0,0.661583299755,0.260878426823,0.303175845828,1.0,-0.00174,-0.00228685714286,0.088
0.465030254416,0.547387588886,-0.123905416996,-1.35646901365,0.0795060812767,1.89429087191,0.159140228194,-0.00229501140045,-0.0115369243058,0.000576839475567,-0.0108344306864,-3.95951340225e-05,0.0112268430308,-0.00227863173143,0.573812882042,0.818972345039,0.00195483138493,0.0,0.81892837045,-0.573753419674,-0.0120035155349,0.0,-0.00870912375195,0.00848880216002,-0.999926042966,0.0,0.661570871653,0.260853227776,0.303210140953,1.0,-0.00208,-0.00273371428571,0.105
0.465002312528,0.547169282934,-0.123900844704,-1.35671696708,0.0795063047244,1.89442110812,0.159121885189,-0.005095734043,-0.00893434876251,0.00108424044176,-0.0171138685452,0.000234163520183,0.00926740544624,-0.00218419875116,0.573823441858,0.81896473773,0.00204030166322,0.0,0.818921766769,-0.573763507879,-0.0119717935119,0.0,-0.00863399232533,0.00854070763609,-0.999926252525,0.0,0.661552615123,0.260819908814,0.303252051031,1.0,-0.00242,-0.00318057142857,0.122
0.46497258999,0.546979022282,-0.123906134527,-1.3569839833,0.0794985760076,1.89454232965,0.159110043669,-0.00420263494288,-0.0109765440456,-0.000276628376309,-0.0197537615757,0.000472059342131,0.0130048418635,-0.000598228738682,0.573854801276,0.818942662601,0.00208070319824,0.0,0.818900204583,-0.573794681557,-0.0119526253,0.0,-0.00859478383539,0.00856312455763,-0.999926398586,0.0,0.661529971937,0.260774976508,0.303270408476,1.0,-0.00272,-0.00357485714286,0.137
0.464931202108,0.546726840801,-0.123905556507,-1.35736574015,0.0794892451322,1.89468327154,0.159050108665,-0.00281618989656,-0.012992709133,-0.0079209935398,-0.0232310460076,7.82597654351e-05,0.00968608654889,-0.00797322565896,0.573858082409,0.818940318629,0.00209825628695,0.0,0.818897960244,-0.573797760743,-0.0119585691181,0.0,-0.00858954502035,0.00858094454569,-0.999926290837,0.0,0.661488333854,0.260713991311,0.303279514631,1.0,-0.00306,-0.00402171428571,0.154
0.464885181647,0.546414266419,-0.123906445429,-1.35781777757,0.0794801946335,1.89484908429,0.158940978978,-0.00165684258741,-0.0201845037245,0.000394980579233,-0.0270470686216,-0.00365303259188,0.00860591864601,-0.00131603592435,0.573829857935,0.818960009511,0.00213163444601,0.0,0.818917920695,-0.573769236049,-0.0119603440515,0.0,-0.00857214225089,0.00860900192613,-0.999926199008,0.0,0.661438623084,0.260643282062,0.303300130917,1.0,-0.00342,-0.00449485714286,0.172
0.464840215188,0.546121065668,-0.123911834996,-1.35831991508,0.0794603874783,1.89502471669,0.15891947485,-0.000312644585346,-0.0208977872831,-0.00161473947534,-0.0281776225601,0.000416016226124,0.00737765159359,-0.00129757730835,0.573875645349,0.818927990052,0.00210658168478,0.0,0.818885488544,-0.57381503539,-0.0119836852822,0.0,-0.00860515273339,0.00860235991915,-0.999925972635,0.0,0.661380171217,0.260563378273,0.303284145425,1.0,-0.00376,-0.00494171428571,0.189
0.464782916734,0.545785738131,-0.123910039667,-1.35889144261,0.0794220497747,1.89521054375,0.158822920629,-0.00319040090902,-0.01838733779,0.000291278820004,-0.0315141988724,-0.00976105176043,0.0116019511299,-0.00676642352464,0.573863881272,0.818936346759,0.00206219055808,0.0,0.8188932438,-0.573803436697,-0.0120090880175,0.0,-0.0086515532088,0.00858046097615,-0.999925760402,0.0,0.66131147839,0.260469486352,0.303265554102,1.0,-0.0041,-0.00538857142857,0.206
0.464725470155,0.545455668232,-0.123912516566,-1.35945783507,0.0793355869584,1.89540315916,0.158753440537,-0.00413034715011,-0.0236047432555,-0.000656259211556,-0.0413348612182,-0.00810318544681,0.0155921462664,-0.00551390160439,0.573864347629,0.818936186486,0.00199496502663,0.0,0.818892663422,-0.573804637882,-0.0119912568483,0.0,-0.00867552100048,0.0085151809562,-0.999926110785,0.0,0.661248835529,0.260366236669,0.303246302188,1.0,-0.0044,-0.00578285714286,0.221
0.464665506649,0.545051270237,-0.123915031331,-1.36014936772,0.0793209917679,1.89562742392,0.158697047366,-0.00527999297128,-0.0224391299852,-0.000831807634771,-0.0381055825878,-0.00321006239674,0.00887398845319,-0.00322191180341,0.573903595599,0.818908778017,0.00195528709745,0.0,0.818864448252,-0.573843768102,-0.0120454182873,0.0,-0.00874223776983,0.00851418788032,-0.999925538169,0.0,0.661162272901,0.260261211535,0.303222963486,1.0,-0.00474,-0.00622971428571,0.238
0.464590591048,0.544554966854,-0.123908028134,-1.36095639199,0.0792960051121,1.89591764574,0.158564025509,-0.00495130799394,-0.0324308792183,0.0010089807676,-0.0422861383229,-0.000728387550698,0.0111933717275,-0.00825477479613,0.573889457901,0.818918692665,0.00195238717606,0.0,0.818874046182,-0.573829373383,-0.0120786436749,0.0,-0.00877125885146,0.0085307297003,-0.999925143033,0.0,0.661066935561,0.260142118427,0.303215057583,1.0,-0.00512,-0.00672914285714,0.257
0.464539496362,0.544108089723,-0.123915067435,-1.36170219129,0.0792608947801,1.89618671504,0.15849225094,-0.00489420883103,-0.025161722293,-0.0020680694602,-0.0473803190131,-0.00231044861129,0.0209751053094,-0.00248886996007,0.573909676985,0.818904577269,0.00192947957467,0.0,0.818859556672,-0.573849617686,-0.0120991582146,0.0,-0.00880099437317,0.00852396088449,-0.999924939477,0.0,0.660977643583,0.26003418408,0.303199872188,1.0,-0.00544,-0.00714971428571,0.273
0.464465010805,0.543598497764,-0.123912937885,-1.3625436065,0.0792232586903,1.89646735701,0.158387383591,-0.00364201221859,-0.0317165018283,0.000205595807968,-0.0518546180025,-0.00158105296774,0.0146151680771,-0.00515205980401,0.573919974842,0.818897443662,0.00189371140731,0.0,0.818851765058,-0.57385988904,-0.0121392550852,0.0,-0.00885425041094,0.00851779389542,-0.99992452187,0.0,0.660874313927,0.259905954329,0.303184205061,1.0,-0.00578,-0.00759657142857,0.29
0.464401633653,0.543112614407,-0.123915961663,-1.36330808821,0.0791789354809,1.89673958373,0.158272121698,-0.00133299178901,-0.0291625589758,7.12806546747e-06,-0.053688757931,-0.00323092133168,0.0146309771245,-0.00396689709256,0.573910261511,0.818904262551,0.00188875855381,0.0,0.818858493287,-0.5738501742,-0.0121446466896,0.0,-0.00886160912957,0.00851672731452,-0.999924465767,0.0,0.660784963047,0.259789260744,0.303187746587,1.0,-0.00608,-0.00799085714286,0.305
0.464329317706,0.542524431243,-0.123916463094,-1.36422306032,0.0791220213656,1.89706873892,0.158150541315,-0.00474303453405,-0.0348698856173,-0.000829216419699,-0.0551587816618,-0.00758222144245,0.0210763369401,-0.00661006398764,0.573905886476,0.818907326202,0.00188983132995,0.0,0.818861567188,-0.57384579128,-0.0121444849104,0.0,-0.00886090651106,0.00851746561046,-0.999924465705,0.0,0.660677315085,0.259653436219,0.303196799615,1.0,-0.00642,-0.00843771428571,0.322
0.464246155094,0.541846189739,-0.123913663701,-1.36528439489,0.079059261046,1.89746949497,0.158018215921,-0.00382702128366,-0.0360927584,0.000811931762245,-0.0536983923625,-0.00242170246341,0.0276684617631,-0.00718902379581,0.573905915687,0.818907269647,0.00190540268397,0.0,0.818861690382,-0.573845727894,-0.0121391722589,0.0,-0.00884761956428,0.00852716820798,-0.999924500665,0.0,0.660554796894,0.259500088559,0.303205895812,1.0,-0.0068,-0.00893714285714,0.341
0.464157841991,0.541231756952,-0.123916079288,-1.36623075415,0.0790046016783,1.8978197508,0.157895541619,-0.00713654237453,-0.039877384708,0.000529355071352,-0.063353317309,9.36881962803e-05,0.0289815957979,-0.00438989232458,0.57391735922,0.818899211748,0.00192163624396,0.0,0.818853828289,-0.57385708177,-0.0121327861831,0.0,-0.00883295453618,0.00853692016328,-0.999924547108,0.0,0.660448954671,0.259351019859,0.303220299532,1.0,-0.00712,-0.00935771428571,0.357
0.464078613588,0.540580310854,-0.123919556875,-1.36723545845,0.0789456659819,1.89819203755,0.157768967429,-0.0114338758475,-0.0406993046207,-0.00312847780837,-0.0643032010767,-0.00507567645808,0.023585769619,-0.00362733228461,0.573920943892,0.818896661593,0.00193770342698,0.0,0.818851483577,-0.573860590204,-0.0121250878687,0.0,-0.00881739210709,0.00854569773147,-0.999924609481,0.0,0.660332970131,0.25920170723,0.303234951852,1.0,-0.00744,-0.00977828571429,0.373
0.463966713512,0.539802285072,-0.123927427723,-1.36841937777,0.078879497411,1.89864355287,0.157621053117,-0.00273941354708,-0.0398458412291,-0.00121836280358,-0.0617987050846,-0.00416607592858,0.0222664471132,-0.00757686449325,0.573944875342,0.818879794792,0.00197703061075,0.0,0.81883513703,-0.57388435136,-0.0121044012702,0.0,-0.00877763169515,0.00856628613672,-0.999924783133,0.0,0.660204391515,0.259012878875,0.303260668656,1.0,-0.0078,-0.0102514285714,0.391
0.463856429548,0.539046466004,-0.1239253005,-1.36959601406,0.0788133326246,1.89908343634,0.157480489019,-0.00498695858593,-0.0474742025907,-0.00543533070095,-0.0687858004217,-0.00768316068896,0.0242673558903,-0.0120512214698,0.57396595234,0.818864976267,0.0019957700673,0.0,0.818820505626,-0.573905287187,-0.0121015621246,0.0,-0.00876433112884,0.00858022728121,-0.999924780271,0.0,0.660071628317,0.258830712369,0.303272695481,1.0,-0.00814,-0.0106982857143,0.408
0.463738489365,0.538268614935,-0.123927759067,-1.37078726417,0.0787381559934,1.89955064818,0.157330660822,-0.00570704484708,-0.0449640994737,0.000225864515445,-0.0715491795578,-0.00459506132455,0.032667686475,-0.01079043199,0.573987349763,0.818849873735,0.00203801298089,0.0,0.818806030367,-0.573926572581,-0.0120714879574,0.0,-0.00871523437995,0.00859778423306,-0.99992505859,0.0,0.659944805282,0.258639800672,0.303295702677,1.0,-0.00848,-0.0111451428571,0.425
0.463629211623,0.537525890215,-0.123928988126,-1.37198430388,0.0786653997629,1.90000123471,0.157181094702,-0.0104439321921,-0.0485090512218,-0.000871428446012,-0.0729432578028,-0.0106538391586,0.0283748871551,-0.0123171680273,0.574001810373,0.818839750104,0.00203279110575,0.0,0.818795844425,-0.5739410597,-0.0120736094193,0.0,-0.00871981692183,0.00859488005243,-0.999925043606,0.0,0.659809475565,0.258453445705,0.303289550524,1.0,-0.0088,-0.0115657142857,0.441
0.463527261858,0.53673313423,-0.123939872504,-1.3732166212,0.0785989482553,1.90046254833,0.157030010088,-0.00907028502459,-0.0533232077476,-0.00215684177484,-0.0759898572153,-0.00599239632484,0.0307913596713,-0.0078315622816,0.574019293298,0.818827445454,0.00205241160989,0.0,0.818783775242,-0.573958435362,-0.0120661003901,0.0,-0.00870222274746,0.00860682145309,-0.999925094166,0.0,0.659669138162,0.25826455384,0.3033030539,1.0,-0.00912,-0.0119862857143,0.457
0.463406528815,0.535817018535,-0.123943790086,-1.37465568116,0.0785229709741,1.90097849427,0.156849103408,-0.00353958811901,-0.0510311208403,-0.000760152897622,-0.0825505188391,-0.0106474023439,0.0340248852258,-0.010330160366,0.574031406919,0.818818955516,0.00205155036202,0.0,0.818775153,-0.573970431457,-0.0120805440401,0.0,-0.00871441698604,0.00861453600974,-0.999924921535,0.0,0.659498451101,0.258046578357,0.303309584767,1.0,-0.00948,-0.0124594285714,0.475
0.463293874435,0.534916475737,-0.123947585401,-1.37609582229,0.0784359765381,1.90150383356,0.156687836893,-0.00487547267985,-0.0507322484588,0.000285236032581,-0.0854526857779,-0.00706393235704,0.0215795342125,-0.00105151647658,0.574049932813,0.8188060029,0.00203743821528,0.0,0.818762004643,-0.573989004808,-0.0120892105807,0.0,-0.00872941912866,0.00860815325274,-0.999924845646,0.0,0.659327112422,0.25783254339,0.30330522536,1.0,-0.00982,-0.0129062857143,0.492
0.463180640814,0.534071523128,-0.123945127296,-1.37748796562,0.0783642467926,1.90201171057,0.156506760858,-0.00288540391879,-0.0586218601632,7.82393879686e-05,-0.0931114095588,-0.00419860103307,0.0303929791779,-0.0137380280417,0.574049713858,0.818806224251,0.00200998730244,0.0,0.818761703167,-0.573988744254,-0.0121219552246,0.0,-0.00877199118828,0.00860447121789,-0.999924504773,0.0,0.659159505221,0.257628017049,0.30328264088,1.0,-0.01014,-0.0133268571429,0.508
0.463050348501,0.533149427559,-0.123944755757,-1.37896307022,0.078275910485,1.90257665764,0.156326892094,-0.00672508382672,-0.0540373275495,-0.000697506590057,-0.0912807495258,-0.00954734024066,0.0347363171362,-0.00479255459716,0.574065970455,0.818794805475,0.00201866157079,0.0,0.818750396907,-0.574004959888,-0.0121177757848,0.0,-0.00876341883554,0.00860934843463,-0.999924537958,0.0,0.658991456427,0.257403408412,0.303279792883,1.0,-0.01048,-0.0137737142857,0.525
0.462914394606,0.53213724787,-0.123940284255,-1.38061375213,0.0781882498846,1.90318347683,0.156117216361,-0.00612490549248,-0.0611798583151,0.00571484674845,-0.0871384752697,-0.00860423266228,0.0360345455213,-0.00762515410088,0.57406907797,0.818792677797,0.0019978503215,0.0,0.818747826463,-0.574007991343,-0.0121478161269,0.0,-0.00879993027179,0.00860958697286,-0.999924215248,0.0,0.65879328452,0.257160766247,0.303260214321,1.0,-0.01084,-0.0142468571429,0.543
0.462796811387,0.531254282933,-0.123942396903,-1.38204485103,0.0780929222865,1.90369761962,0.155938412649,-0.010721076774,-0.0598106077205,0.000280393977355,-0.0943482643106,-0.00581909431126,0.0375065623586,-0.0117687585281,0.574072688959,0.818790230858,0.00196278979052,0.0,0.818744962706,-0.574011798446,-0.0121609288004,0.0,-0.00883075522169,0.00858844670472,-0.999924125294,0.0,0.658621206914,0.256943286297,0.303246002254,1.0,-0.01114,-0.0146411428571,0.558
0.462641406597,0.530143012898,-0.123942332649,-1.38378596079,0.0779982198739,1.90430705144,0.155699114925,-0.0116209938499,-0.0582404661954,0.00127958821852,-0.0950148821457,-0.00360596716224,0.0349696159336,-0.00921593046013,0.574072937658,0.818790081365,0.00195238496147,0.0,0.818744500349,-0.574011922049,-0.0121861969049,0.0,-0.00885741544367,0.00859443577536,-0.999923838032,0.0,0.658410540284,0.25667495598,0.303253099426,1.0,-0.0115,-0.0151142857143,0.576
0.462497079718,0.529018086425,-0.123953787085,-1.38553163088,0.0778771531227,1.90497424085,0.155462356849,-0.00834227665699,-0.0607957876408,0.000209303406005,-0.0924868599553,-0.00185794100934,0.0309833816966,-0.0150928882775,0.574067544227,0.818793797494,0.00197958357884,0.0,0.818748784102,-0.574006613836,-0.012148362257,0.0,-0.00881087923556,0.00859492761444,-0.999924244944,0.0,0.658211414756,0.256406544515,0.303272696878,1.0,-0.01186,-0.0155874285714,0.594
0.462362299669,0.527995268956,-0.123948771974,-1.38714150336,0.077783667188,1.90559657936,0.155237177323,-0.00640264954226,-0.0656704853742,0.00149468074557,-0.0986687287805,-0.00699623953176,0.0385072892449,-0.00759666465325,0.574052185671,0.818804487789,0.00201141828369,0.0,0.818759846072,-0.573991072788,-0.0121371216024,0.0,-0.00878356260923,0.0086143755614,-0.999924317917,0.0,0.658024209812,0.256170195682,0.303280392171,1.0,-0.01218,-0.016008,0.61
0.462220937024,0.526814488331,-0.123954225462,-1.38891631225,0.0776721178961,1.90627474951,0.15499799555,-0.00370638956889,-0.0653165352674,0.000651995189577,-0.10088687653,-0.00337300481533,0.0355209926891,-0.00603239736485,0.574041828014,0.818811579389,0.00207943506355,0.0,0.818767911573,-0.573980503368,-0.0120927925619,0.0,-0.00870833105473,0.00864450988588,-0.999924715876,0.0,0.657818251932,0.25590683389,0.303325630716,1.0,-0.01252,-0.0164548571429,0.627
0.462069246618,0.525644653777,-0.123958314673,-1.39075070659,0.0775493130254,1.90694298985,0.15474807562,-0.00695861176532,-0.0651383215294,-0.000807956027014,-0.102135378082,-0.0048489514113,0.0378627845592,-0.018957070481,0.574029938788,0.81881992528,0.00207514810673,0.0,0.818776283792,-0.573968715874,-0.0120854126396,0.0,-0.00870487417625,0.0086366370149,-0.999924814007,0.0,0.657598411589,0.255627818834,0.30333360789,1.0,-0.01286,-0.0169017142857,0.644
0.461918487474,0.52453205352,-0.123966163217,-1.3925108739,0.0774450160329,1.90757107994,0.154503347025,-0.00591677337206,-0.0701783381319,-0.00183806795105,-0.110833509546,-0.0111645897642,0.0393607972452,-0.0153101975645,0.574024962535,0.818823456125,0.00205839445923,0.0,0.818779546998,-0.573963764437,-0.0120994806806,0.0,-0.00872606275941,0.0086309413996,-0.999924678503,0.0,0.657385514572,0.25535558314,0.303333034626,1.0,-0.01318,-0.0173222857143,0.66
0.461751949535,0.523269329201,-0.123967092057,-1.39452695486,0.077320162158,1.9083274997,0.154229656389,-0.00645678934463,-0.0689212414649,0.000125599933212,-0.116261955552,-0.00771248934167,0.0452021266463,-0.0159742515506,0.574012471005,0.81883221455,0.00205777719159,0.0,0.81878830435,-0.573951284093,-0.0120988863014,0.0,-0.00872606200604,0.00862996167324,-0.999924686966,0.0,0.657144983102,0.255054005547,0.303326810952,1.0,-0.01354,-0.0177954285714,0.678
0.46162751232,0.522259915708,-0.123964161973,-1.39612486297,0.0772248942205,1.90895162656,0.15402274872,-0.00776084061326,-0.07418244223,0.000207941897226,-0.115273515792,-0.00950550350133,0.0449226977109,-0.011195702227,0.574002947792,0.818838815063,0.00208752789328,0.0,0.818795288132,-0.57394162813,-0.0120843094238,0.0,-0.00869714989866,0.0086458536936,-0.999924801571,0.0,0.656956028785,0.25482446825,0.303329686283,1.0,-0.01382,-0.0181634285714,0.692
0.461451543021,0.520930244266,-0.123970996451,-1.39825808239,0.0770931087831,1.90975884775,0.15372568811,-0.00954442085863,-0.0743777961311,0.00102034053604,-0.118288890251,-0.00827171548415,0.0475780235183,-0.0180100020828,0.573987146595,0.818849896011,0.00208572445551,0.0,0.818806384694,-0.573925875647,-0.0120805855797,0.0,-0.00869530242272,0.00864207173364,-0.999924850332,0.0,0.656702618289,0.254502629865,0.303318691867,1.0,-0.01418,-0.0186365714286,0.71
0.461250719642,0.519386923735,-0.123970456508,-1.40067229687,0.0769394908258,1.91061848427,0.153397695578,-0.0094065325702,-0.0791828987712,0.000218892084671,-0.124819009629,-0.00604158648478,0.0344994229147,-0.0147847730618,0.573969384139,0.818862377763,0.00207346468308,0.0,0.818818675402,-0.573908137648,-0.0120902132421,0.0,-0.00871041021076,0.00863737015013,-0.999924759465,0.0,0.656403906688,0.254138367404,0.303327801869,1.0,-0.01458,-0.0191622857143,0.73
0.461080334283,0.51812582982,-0.123968986354,-1.40264274857,0.0768125674421,1.91133125561,0.153131529058,-0.0101656168771,-0.0779041925012,0.000863008777737,-0.12514440732,-0.00331639797158,0.0434413783803,-0.0195013333389,0.573960041226,0.818868927241,0.00207315618537,0.0,0.818825221643,-0.573898798045,-0.012090198731,0.0,-0.00871067392947,0.00863700982424,-0.99992476028,0.0,0.656163114341,0.253837986386,0.303336790343,1.0,-0.0149,-0.0195828571429,0.746
0.460916738247,0.516836777933,-0.123977147047,-1.4046608887,0.076681366981,1.91205605336,0.152850572065,-0.0135468139116,-0.077227535365,-0.00198356108384,-0.12602918589,-0.00963672825247,0.0478966291661,-0.0162616974281,0.573940906742,0.818882362815,0.0020635746656,0.0,0.818838579286,-0.573879754229,-0.0120894854963,0.0,-0.00871579053249,0.00862855094158,-0.999924788724,0.0,0.655914172293,0.25353133502,0.303343682232,1.0,-0.01522,-0.0200034285714,0.762
0.46070880899,0.51538471011,-0.123982927921,-1.40696674287,0.0765377211249,1.91293449305,0.15254583809,-0.012174472956,-0.0832390926573,-0.000411470747243,-0.127818905033,-0.00716962614259,0.0436381401013,-0.019220825041,0.573948832695,0.818876768224,0.00207913746574,0.0,0.818833242729,-0.57388766634,-0.0120753437356,0.0,-0.00869519451459,0.00863326253161,-0.999924927367,0.0,0.655642566722,0.253173404362,0.303340837446,1.0,-0.01558,-0.0204765714286,0.78
0.46056308297,0.514251781731,-0.1239808362,-1.40883155576,0.0764279008487,1.91358755795,0.152296247529,-0.00530667739376,-0.079776310351,0.000947083996111,-0.133111873105,-0.0109904343452,0.0425572269949,-0.0186947860603,0.573930648047,0.818889675504,0.00201432012799,0.0,0.818845151723,-0.573869616376,-0.0121255021144,0.0,-0.00877366029285,0.00860877930293,-0.999924453048,0.0,0.655402105331,0.252899282133,0.303304043495,1.0,-0.01586,-0.0208445714286,0.794
0.460336983632,0.512589917396,-0.1239881681,-1.4114955891,0.0762658349428,1.91452013772,0.151904472473,-0.00938025319889,-0.0843794079173,-0.000407356816147,-0.128474540197,-0.00818597206772,0.0415784225377,-0.0178910685445,0.573895890735,0.818914178919,0.00195475421564,0.0,0.818868762833,-0.573835017098,-0.0121683732881,0.0,-0.00884331726251,0.00858423186623,-0.999924050467,0.0,0.655065773313,0.252489709867,0.303281604413,1.0,-0.01626,-0.0213702857143,0.814
0.460173886454,0.511413000305,-0.12399161589,-1.41339328998,0.0761509871708,1.91524320424,0.151651859579,-0.0164165266558,-0.0882764916597,-0.000765949447798,-0.135350191487,-0.00614378787524,0.0529551883107,-0.0196383150966,0.573893493117,0.818915860714,0.00195410607039,0.0,0.818870434632,-0.573832621216,-0.0121688543375,0.0,-0.00884410829167,0.0085839512778,-0.99992404588,0.0,0.654837090433,0.252201634893,0.303265467407,1.0,-0.01654,-0.0217382857143,0.828
0.459962273828,0.509861352559,-0.123995949916,-1.41587964766,0.0759934662752,1.91617227213,0.151309086211,-0.0100143436792,-0.0787200100442,-0.0010008359318,-0.141194034325,-0.0165408881622,0.0477046561781,-0.0178690496994,0.573876330306,0.818927913676,0.00194335254575,0.0,0.818882378956,-0.573815539866,-0.0121705605419,0.0,-0.0088518562883,0.00857593889075,-0.999924046072,0.0,0.654532938589,0.251823525521,0.30324899162,1.0,-0.0169,-0.0222114285714,0.846
0.459777956927,0.508517037014,-0.123995671307,-1.41797548101,0.0758641052015,1.91691193172,0.151006521921,-0.0133327602612,-0.0872363640282,0.00302860507384,-0.135798739463,-0.0137111548561,0.050276286529,-0.0155592037316,0.57385299805,0.818944285203,0.00193423462448,0.0,0.818898545013,-0.573792168187,-0.0121847282921,0.0,-0.00886893567708,0.00857634990184,-0.999923891205,0.0,0.654268416147,0.251501415278,0.303256181165,1.0,-0.0172,-0.0226057142857,0.861
0.459590618004,0.507158871769,-0.123999195322,-1.42010014275,0.0757246725162,1.9176879773,0.150710461349,-0.0125014083039,-0.0907734594271,0.00155010233817,-0.140893847943,-0.010273071781,0.0565578865511,-0.01985389461,0.573838717109,0.818954286692,0.00193648045047,0.0,0.81890862413,-0.573777925616,-0.0121780253832,0.0,-0.00886230698206,0.00857418808388,-0.999923968516,0.0,0.654006025547,0.251172761406,0.303262192295,1.0,-0.0175,-0.023,0.876
0.459362678204,0.505476714287,-0.12401085833,-1.42270249263,0.0755641583353,1.91867573638,0.150365452259,-0.0127331742098,-0.0978696934488,-0.000635221186137,-0.147079816901,-0.0169622124943,0.0589106388545,-0.0235574376078,0.573842356994,0.81895160939,0.00198939665111,0.0,0.818906704905,-0.573781392859,-0.0121436720733,0.0,-0.0088037705068,0.00859784919667,-0.99992428244,0.0,0.653692249726,0.25077135641,0.303285456426,1.0,-0.01786,-0.0234731428571,0.894
0.459115850124,0.503634286965,-0.124008811988,-1.42544996564,0.0753875993559,1.91972922353,0.149970342398,-0.0124022273451,-0.0998317798244,0.000950028040271,-0.142860921547,-0.00505880845589,0.0554751937408,-0.0146393920551,0.573813097494,0.818971803862,0.00211199547886,0.0,0.818928598229,-0.57375169874,-0.0120700496079,0.0,-0.00867343629691,0.00865569269831,-0.999924922425,0.0,0.653362283428,0.250352486573,0.303356075468,1.0,-0.01824,-0.0239725714286,0.913
0.45891418576,0.502123613473,-0.124015502475,-1.42767374915,0.075242289354,1.92055161718,0.149673030264,-0.0132814932877,-0.10131265357,-0.0022419112433,-0.151152601168,-0.0166748949973,0.0565796322409,-0.0296787280394,0.573813999901,0.818970938844,0.0022003974229,0.0,0.81892898435,-0.573752325568,-0.0120139251859,0.0,-0.00857673757887,0.00869589511503,-0.999925407708,0.0,0.653091179146,0.25000529229,0.30342381336,1.0,-0.01854,-0.0243668571429,0.928
0.458679922232,0.500405205629,-0.124020149539,-1.43026142358,0.0750766750922,1.92146243384,0.149293834981,-0.0125866856342,-0.102746633022,-0.00145373177342,-0.154543934213,-0.0101663138369,0.0614576096555,-0.0219675232911,0.57378554145,0.818990784901,0.00223462995258,0.0,0.818949253961,-0.573723705342,-0.0119990110362,0.0,-0.00854518381142,0.00871507536904,-0.999925510873,0.0,0.652763342738,0.249600463366,0.303470405313,1.0,-0.01888,-0.0248137142857,0.945
0.458454472078,0.498900306244,-0.124020827443,-1.43256994147,0.0749369768596,1.92230884797,0.148975307238,-0.0198160748735,-0.101182551669,-0.000746900448364,-0.160943607396,-0.00970971621916,0.0489248705946,-0.01830231184,0.573789501813,0.818987905167,0.00227281769388,0.0,0.818946811545,-0.57372744594,-0.0119868484903,0.0,-0.00851326995086,0.00873941288797,-0.999925570679,0.0,0.652478815027,0.249233842393,0.303494681037,1.0,-0.01918,-0.025208,0.96
0.458203415796,0.497220879069,-0.124025812934,-1.43521693071,0.0747714260691,1.92329317512,0.148581543814,-0.0127276911284,-0.101033367915,-0.000645269156525,-0.154224969802,-0.00988339166856,0.0572487408919,-0.0206846685267,0.573765769276,0.819004501463,0.00228374517452,0.0,0.818963550117,-0.5737036715,-0.0119811430039,0.0,-0.00850258076248,0.00874484215342,-0.999925614161,0.0,0.652152341335,0.248815441453,0.303491146017,1.0,-0.01952,-0.0256548571429,0.977
0.457904574271,0.495361999203,-0.124024136664,-1.43824581616,0.074589412975,1.92433136865,0.148135868431,-0.00977867300921,-0.0974789356296,0.000100356574637,-0.158355678668,-0.0114213536638,0.0522116617731,-0.0271687347428,0.573747812222,0.819017374181,0.00217615752947,0.0,0.818974753671,-0.573685894811,-0.012066227452,0.0,-0.00863418527932,0.00870535728414,-0.999924830974,0.0,0.651758760394,0.248328162071,0.303434796002,1.0,-0.0199,-0.0261542857143,0.996
0.457636200313,0.493720185703,-0.124040313592,-1.44089883222,0.0744204628085,1.92528021556,0.147769551095,-0.0208228212513,-0.114009677316,-0.00342760403747,-0.174386929875,-0.011864829339,0.0618215541744,-0.0239950176047,0.573766856453,0.819004190063,0.00211612780783,0.0,0.818960786968,-0.573705194959,-0.0120965113709,0.0,-0.00869322735294,0.0086737699951,-0.999924593913,0.0,0.651427067046,0.247888125333,0.303398207338,1.0,-0.0236005714286,-0.0310178938776,1.012
0.457339238223,0.491522474671,-0.124093458596,-1.44432012332,0.0742216000464,1.92657506178,0.147269949488,-0.0218431149162,-0.135697314008,-0.00224868815472,-0.218637877669,-0.00573014947906,0.0795049334669,-0.0378916318632,0.573757307242,0.819010738477,0.00217014896015,0.0,0.818968157003,-0.573695532511,-0.0120557327732,0.0,-0.00862893597188,0.00869451506344,-0.999924970621,0.0,0.651007967432,0.247342660839,0.303413118561,1.0,-0.029196,-0.0383718857143,1.029
0.456997333583,0.489240412562,-0.124091972355,-1.44801660132,0.0740133259404,1.92789227744,0.146735624653,-0.0224315659914,-0.160539283378,0.000385758577116,-0.256520507505,-0.0145211740883,0.0949808193356,-0.0405759526447,0.573726832687,0.819032271921,0.00209902558057,0.0,0.818988384778,-0.573664991126,-0.0121346798919,0.0,-0.00873472512034,0.00868123617057,-0.999924167483,0.0,0.650525689662,0.246768833902,0.303355048592,1.0,-0.0341331428571,-0.0448607020408,1.044
0.456508033284,0.486131774388,-0.124141887594,-1.45286483176,0.0737206660182,1.92972419206,0.146028018042,-0.0322741761699,-0.194947526524,-0.00667137881486,-0.295688995839,-0.0208922769952,0.112380473159,-0.0434024956936,0.573745639561,0.819018916366,0.00216855271693,0.0,0.81897606682,-0.573683624154,-0.0120850425894,0.0,-0.00865398191995,0.00870990095698,-0.99992462027,0.0,0.649936203246,0.24596487301,0.303367635126,1.0,-0.0397285714286,-0.0522146938775,1.061
0.455959587268,0.482557698324,-0.124212842475,-1.45841392828,0.0733834111437,1.93169564546,0.145163857696,-0.0338211998967,-0.225859577963,-0.00531698587817,-0.348300815165,-0.0196624673181,0.115845302212,-0.0572539564941,0.573719723755,0.819037097196,0.00215844667497,0.0,0.818994124704,-0.573657764034,-0.0120888529455,0.0,-0.00866317612451,0.00870353608771,-0.999924596077,0.0,0.649232066518,0.245036317644,0.303379916126,1.0,-0.045324,-0.0595686857143,1.078
0.455346029279,0.478774316116,-0.124285938044,-1.46436347533,0.0730305460514,1.93380048978,0.144283177047,-0.0396981646573,-0.244353966996,-0.00249092100124,-0.382323273595,-0.021466522661,0.140482239978,-0.0615623318533,0.573748550816,0.819017046415,0.00210357291426,0.0,0.818973232357,-0.573686700167,-0.0121310195265,0.0,-0.00872888803699,0.00868309195878,-0.999924202341,0.0,0.648473109616,0.244026808082,0.303355396593,1.0,-0.0505902857143,-0.0664900897959,1.094
0.454468984141,0.473417861492,-0.124360959119,-1.47260427126,0.0725310760099,1.93679494034,0.143097359522,-0.0479303220189,-0.270078017578,-0.00388676917174,-0.433855827262,-0.0336145613074,0.155456564436,-0.0670964600046,0.573812760393,0.818971827061,0.00219303259609,0.0,0.818929145053,-0.57375047825,-0.0120909467161,0.0,-0.00864405764703,0.00873404597735,-0.999924495504,0.0,0.647431752199,0.242632611487,0.303401849777,1.0,-0.0571731428571,-0.075141844898,1.114
0.453729961826,0.468971202784,-0.124396486778,-1.47932933783,0.0721311429684,1.93924258843,0.142057147465,-0.0473069093804,-0.309249507061,-0.00583326261745,-0.450547511406,-0.0277795620512,0.179746808643,-0.0758562527212,0.573804797705,0.818976979923,0.0023467825474,0.0,0.818936111945,-0.573741672616,-0.0120368001878,0.0,-0.00851157919597,0.00882880865362,-0.999924799751,0.0,0.646575332663,0.241498550843,0.303486166659,1.0,-0.0621102857143,-0.0816306612245,1.129
0.452763635059,0.463193129952,-0.124433901226,-1.4881459948,0.0715593207771,1.94241704304,0.140647394948,-0.0564784036711,-0.328902002806,-0.000882472847462,-0.505728710711,-0.0337861243399,0.181291740996,-0.0773114876022,0.573728568718,0.819030072675,0.00245283348498,0.0,0.818990605886,-0.573665040129,-0.0119814900822,0.0,-0.00840625771967,0.00888314176596,-0.999925209515,0.0,0.645431880756,0.240010294636,0.303550934896,1.0,-0.0680348571429,-0.0894172408163,1.147
0.451867231073,0.458006830892,-0.124470363055,-1.49615161737,0.0710243363867,1.9451360637,0.13946917633,-0.0575272793709,-0.358285786158,-0.00311737654848,-0.543190355679,-0.0417644827534,0.194434135992,-0.0908482896479,0.573749391233,0.819015769164,0.00235644244982,0.0,0.818974882234,-0.573686082854,-0.0120485480358,0.0,-0.00851625656267,0.00884288453155,-0.999924635544,0.0,0.644353122301,0.238633388096,0.303547547381,1.0,-0.072972,-0.0959060571428,1.162
0.45076899497,0.451740498143,-0.124541436497,-1.5056931746,0.0703809142533,1.94855324456,0.137939700341,-0.0650903600614,-0.397960825218,-0.00467706227915,-0.564582614495,-0.0407313611533,0.206272080379,-0.0980818878198,0.573709420846,0.819043492159,0.00245056851033,0.0,0.819004111562,-0.57364602611,-0.0119686621628,0.0,-0.00839725763986,0.00887373077017,-0.999925368698,0.0,0.643103611685,0.236970835792,0.303609327723,1.0,-0.0785674285714,-0.10326004898,1.179
0.449430924704,0.444196131466,-0.124584402475,-1.51698797828,0.0696336231371,1.95270014841,0.136222376541,-0.0709953209386,-0.402274688194,6.02917736904e-05,-0.617433932528,-0.0340616576247,0.212303848296,-0.0957135589704,0.573735254615,0.819024374522,0.0027710018152,0.0,0.818989407628,-0.573670900963,-0.0117811070325,0.0,-0.00805952588142,0.00902883141108,-0.999926759441,0.0,0.641626538716,0.235016645827,0.303764128976,1.0,-0.0848211428571,-0.111479216327,1.198
0.448216687697,0.437582716845,-0.124623019321,-1.52733141835,0.0689104829178,1.95614158785,0.134563801586,-0.0767297939498,-0.421530945441,-0.0039800599105,-0.652834844899,-0.0428614106921,0.218237534972,-0.107739370044,0.573656752105,0.819080219502,0.0025043334164,0.0,0.819041518861,-0.573593128615,-0.0119440399315,0.0,-0.00834681911159,0.00890310361157,-0.999925529906,0.0,0.640173649476,0.233206018064,0.303662474266,1.0,-0.0900874285714,-0.118400620408,1.214
0.446808760067,0.430035810404,-0.124642230756,-1.53862549912,0.0681630424146,1.9602109068,0.132711722882,-0.0811659393469,-0.442168637919,0.0012322540882,-0.674131054751,-0.0424296357008,0.234833159588,-0.108712848558,0.573592692754,0.819124206009,0.00277576132691,0.0,0.819088979208,-0.573527980153,-0.0118172341613,0.0,-0.00808796148068,0.00905204895524,-0.99992631993,0.0,0.638648764599,0.231224728446,0.303786253646,1.0,-0.0956828571428,-0.125754612245,1.231
0.445267972092,0.422203619944,-0.124698634,-1.55067973271,0.0672846549521,1.96430110804,0.130730256126,-0.0919153711866,-0.473943402957,-0.0048758845579,-0.73041836271,-0.052962200065,0.240744894355,-0.113484957047,0.573540919418,0.819160969238,0.00262052098454,0.0,0.819123853126,-0.573476937565,-0.0118769618272,0.0,-0.00822649359842,0.00895862733366,-0.999926031164,0.0,0.636959616013,0.229038855209,0.303732020677,1.0,-0.101278285714,-0.133108604082,1.248
0.443700305315,0.414407978329,-0.1248273289,-1.56237256759,0.0664251417192,1.96840483346,0.128859039082,-0.0986642245817,-0.501850054736,-0.00453624670404,-0.73061566378,-0.0533816543352,0.269087664737,-0.117772023633,0.573634737117,0.81909490486,0.00273351549467,0.0,0.819060018798,-0.573571165676,-0.0117281888597,0.0,-0.00803878884112,0.00896678242416,-0.999927484714,0.0,0.635361421355,0.226843816124,0.303812216011,1.0,-0.106544571429,-0.140030008163,1.264
0.441906503921,0.405846123702,-0.124876636817,-1.57544972433,0.0655591177568,1.97281638873,0.126657604752,-0.106911229489,-0.517560204822,-0.00359326561796,-0.782325805306,-0.0568542452759,0.257192163865,-0.127815936831,0.573630530475,0.819098096093,0.00265901961837,0.0,0.819061501742,-0.573566413849,-0.0118563134568,0.0,-0.00818651704806,0.00897921685722,-0.999926174577,0.0,0.633488984274,0.224427859094,0.303761572295,1.0,-0.11214,-0.147384,1.281
0.439953057804,0.39682328669,-0.125010875609,-1.58887498223,0.064629822312,1.97741753635,0.124363052286,-0.118597702896,-0.544544885355,-0.0132941118388,-0.811255726637,-0.0638103011185,0.278234328521,-0.139688880044,0.573725922098,0.819030788389,0.00280729139284,0.0,0.81899618498,-0.573661317335,-0.0117766244474,0.0,-0.00803513822844,0.00905589001507,-0.999926711019,0.0,0.631599444588,0.221836837448,0.303854612128,1.0,-0.117735428571,-0.154737991837,1.298
0.437900138157,0.387564045761,-0.125085380374,-1.60290581602,0.063550645418,1.98216578379,0.12196391622,-0.124429895339,-0.552979110942,-0.00102969985006,-0.84184906474,-0.0647803269701,0.271357179534,-0.149079238002,0.573733947963,0.8190254521,0.00272262159107,0.0,0.818990169917,-0.573670119142,-0.0117661754533,0.0,-0.00807506598766,0.00898062751967,-0.99992706816,0.0,0.629566193882,0.219148371493,0.303809935075,1.0,-0.123330857143,-0.162091983673,1.315
0.435594800932,0.377276705208,-0.12515525556,-1.61814551719,0.0624095528087,1.98724625875,0.119225876348,-0.127150817162,-0.575700935066,-0.0020101485332,-0.844158067934,-0.0569047767929,0.284491245985,-0.148111157659,0.573679195504,0.81906355961,0.00279515053304,0.0,0.819029287107,-0.57361519075,-0.0117212074191,0.0,-0.0079972270368,0.00901369653252,-0.999927396182,0.0,0.627320086578,0.21620217351,0.303882507982,1.0,-0.129255428571,-0.169878563265,1.333
0.433510200908,0.368532333675,-0.125230861195,-1.63130921921,0.0614121605084,1.99158932127,0.116905399105,-0.141936542109,-0.586654029399,-0.0086266860037,-0.885403391135,-0.0692261296707,0.283631574134,-0.150835879287,0.573737557302,0.819023020001,0.00269350154521,0.0,0.818987406209,-0.573673885452,-0.0117749107392,0.0,-0.0080988873856,0.00896182491197,-0.999927044197,0.0,0.625356275061,0.213594281965,0.303827175972,1.0,-0.134192571429,-0.176367379592,1.348
0.43118812244,0.358790907267,-0.125356758543,-1.64561727686,0.0602794869802,1.99633240645,0.114303602825,-0.154342357993,-0.607442492186,-0.00356974670282,-0.920830908464,-0.0713576117754,0.28561933973,-0.173076818415,0.573782502915,0.818991259275,0.00277551439174,0.0,0.818957311175,-0.573719205868,-0.0116594250438,0.0,-0.00795675447849,0.00896317445643,-0.999928173201,0.0,0.623218908275,0.210707619935,0.303903230094,1.0,-0.139458857143,-0.183288783673,1.364
0.428213299289,0.346970015479,-0.125474384012,-1.66320508937,0.0589959661951,2.00192634254,0.110964357356,-0.15979987797,-0.651491589793,-0.00617679351078,-0.905776095968,-0.0699202329236,0.304796403803,-0.181762464339,0.57380621504,0.81897511174,0.00263454597903,0.0,0.818938432591,-0.573742423336,-0.0118415451253,0.0,-0.00818653756396,0.00895245550572,-0.999926414364,0.0,0.620500102345,0.207124899903,0.303842465261,1.0,-0.145712571429,-0.19150795102,1.383
0.425594222876,0.336662327735,-0.125571002334,-1.67826122448,0.0578141109925,2.00685897661,0.108126653447,-0.163986732078,-0.630323496324,-0.00732005018526,-0.960962750214,-0.0752251812968,0.299196689267,-0.183358315773,0.573851713996,0.818942858303,0.00274810479189,0.0,0.818907835077,-0.573787697579,-0.0117636158274,0.0,-0.00805705557168,0.00900118895179,-0.999927028564,0.0,0.61817838469,0.204030711971,0.303896387854,1.0,-0.150978857143,-0.198429355102,1.399
0.422879531308,0.326041430579,-0.125580014641,-1.69374201693,0.0565027942471,2.01177892768,0.105118397368,-0.171970260435,-0.669317216868,-0.00102950315021,-0.98502407231,-0.0862682621563,0.317146342186,-0.192054974858,0.573703754923,0.819046473233,0.00276100952542,0.0,0.819011977605,-0.573640114695,-0.0117109458793,0.0,-0.0080081372813,0.00898008639075,-0.999927611273,0.0,0.615554475692,0.200685771369,0.303939730898,1.0,-0.156574285714,-0.205783346939,1.416
0.420173378561,0.315864057279,-0.125598904494,-1.70857261833,0.0553062523761,2.01643259012,0.102229158955,-0.180967758699,-0.683968387866,-0.00243320764581,-1.01299306846,-0.0929116959259,0.309041133977,-0.191374757424,0.573679058724,0.819063939526,0.00271061808156,0.0,0.819028387297,-0.57361515392,-0.0117857072724,0.0,-0.0080985521428,0.00898145953128,-0.999926870745,0.0,0.613307065713,0.19782052055,0.303916707817,1.0,-0.161182285714,-0.21183957551,1.43
0.416958131722,0.304019236906,-0.125684285772,-1.72553925967,0.0538651800576,2.02179053844,0.0986899160988,-0.196845063852,-0.701921983152,-0.000900626465113,-1.01022297995,-0.0965853194125,0.314298856748,-0.216533968143,0.573541506752,0.819159819308,0.00284207054843,0.0,0.819126429562,-0.573477667034,-0.0116621055892,0.0,-0.00792341686986,0.00901689031551,-0.999927954982,0.0,0.610561024552,0.194220776048,0.30400980434,1.0,-0.166777714286,-0.219193567347,1.447
0.413500429937,0.291948053216,-0.125768011688,-1.74292565691,0.0524897681072,2.0270534746,0.0951655630991,-0.20892388311,-0.735851802726,-0.00964175372011,-1.01368328579,-0.0791034113263,0.322331908732,-0.213503664858,0.573625108282,0.819101398463,0.00280732724275,0.0,0.819066627974,-0.573560327896,-0.0117964445519,0.0,-0.00805246773043,0.00906629939611,-0.999926477287,0.0,0.607668811637,0.190461694019,0.304004920138,1.0,-0.172373142857,-0.226547559184,1.464
0.409897184524,0.279617685161,-0.125886234511,-1.76063932039,0.0510012392048,2.03242903043,0.0913694953842,-0.213343739035,-0.735221089991,-0.00261263790259,-1.0648778774,-0.0878815355423,0.307968515337,-0.230458884076,0.57357571161,0.819136130223,0.00276588433733,0.0,0.819100542942,-0.57351077841,-0.0118505063855,0.0,-0.00812106981828,0.00906287448385,-0.999925953524,0.0,0.604690969529,0.186580508157,0.303982087669,1.0,-0.177968571429,-0.23390155102,1.481
0.406064750309,0.266917949911,-0.126037425154,-1.7785581169,0.049395367043,2.03785391764,0.0874703788293,-0.232539549421,-0.74258344581,-0.0092056258474,-1.06325003902,-0.0936371394189,0.318460786492,-0.234011748348,0.573590602593,0.819125398467,0.00285466377869,0.0,0.819091580997,-0.573526040228,-0.0117307297987,0.0,-0.00797186819067,0.00906704201045,-0.999927116377,0.0,0.601664692561,0.182540949632,0.304058638345,1.0,-0.183564,-0.241255542857,1.498
0.40192388844,0.254020636564,-0.12623525035,-1.7967534497,0.0477949061345,2.04319986417,0.0834696390984,-0.248266820084,-0.772241379137,-0.014344186268,-1.07066002775,-0.102430834886,0.319874971233,-0.241568264204,0.573792756152,0.818983848036,0.00284192621799,0.0,0.818949882805,-0.573728232225,-0.0117367756498,0.0,-0.00798189005615,0.00906204646407,-0.999927081714,0.0,0.598545693193,0.178293084032,0.30407943381,1.0,-0.189159428571,-0.248609534694,1.515
0.397393939398,0.240132098628,-0.12636271996,-1.81642868062,0.0460163429727,2.04881851806,0.0789423475762,-0.253179917108,-0.778647016133,-0.0108465405054,-1.09492745042,-0.103491684028,0.303994049828,-0.257106722368,0.573769462771,0.819000801034,0.00265299800205,0.0,0.818963973386,-0.573705180936,-0.0118795018753,0.0,-0.00820744087164,0.00898897825982,-0.999925915348,0.0,0.595060110026,0.173744463169,0.303999780564,1.0,-0.195084,-0.256396114286,1.533
0.393230563417,0.227480859436,-0.126446690008,-1.83392692693,0.0444555601859,2.05398316088,0.0748396736701,-0.264981862697,-0.776786508611,-0.00785988950583,-1.11138593969,-0.107170839804,0.303886563546,-0.256606657033,0.573752616369,0.819011797239,0.00289103694383,0.0,0.818978015074,-0.573687405691,-0.0117693788343,0.0,-0.0079808622837,0.00912058319644,-0.999926557703,0.0,0.59195578788,0.169688688857,0.304082111017,1.0,-0.200350285714,-0.263317518367,1.549
0.388523196228,0.213730939932,-0.126553900231,-1.85282124015,0.0426306793068,2.05932121647,0.0702273075171,-0.276759485407,-0.806677093681,-0.00985205746034,-1.10590762703,-0.0998485987527,0.31469747958,-0.271656683413,0.573694725105,0.819052106505,0.00295907380864,0.0,0.81901952577,-0.57362965037,-0.0116956198843,0.0,-0.00788206138298,0.00913343050878,-0.99992722413,0.0,0.58831836265,0.164925996423,0.304145757712,1.0,-0.206274857143,-0.271104097959,1.567
0.383269074398,0.199032697882,-0.126710529494,-1.87308744986,0.0407156743184,2.06480571016,0.0651796993553,-0.294478232764,-0.82422685751,-0.00484677213454,-1.11110810521,-0.113236250454,0.306674363381,-0.2868292479,0.573711126781,0.819040953722,0.00286461770057,0.0,0.81900678785,-0.573645969936,-0.0117868372842,0.0,-0.00801078028363,0.0091085564088,-0.999926428093,0.0,0.584768861677,0.160255176779,0.304124042805,1.0,-0.211870285714,-0.278458089796,1.584
0.378304798945,0.185707905313,-0.126901822983,-1.89130912039,0.038980695204,2.06976611909,0.0604795189522,-0.319331731079,-0.806544901156,-0.0134787375457,-1.14524476273,-0.108489434775,0.292378704122,-0.302584317033,0.573802135448,0.818977134348,0.00288265006035,0.0,0.818942968795,-0.573736635136,-0.0118082286834,0.0,-0.00801694169393,0.00913648873854,-0.999926123881,0.0,0.581368708844,0.155702134301,0.304113203924,1.0,-0.217136571429,-0.285379493878,1.6
0.371769000045,0.168733445597,-0.127091810701,-1.91419264265,0.0367040157516,2.07579053431,0.0543806953802,-0.322919226568,-0.837061657651,-0.00456434955098,-1.138016789,-0.116614007874,0.294774637756,-0.319935977384,0.573878510677,0.818923491265,0.00291844810755,0.0,0.818889728651,-0.573812799936,-0.0117995694982,0.0,-0.00798845557138,0.00916158293802,-0.999926122259,0.0,0.577006993427,0.149886699644,0.304152397129,1.0,-0.223719428571,-0.29403124898,1.62
0.367763770139,0.15828557104,-0.127179499488,-1.92804291105,0.035314855865,2.07936058066,0.050551024848,-0.337225110065,-0.889369493885,-0.00790627416257,-1.13111086425,-0.109311148918,0.31813944623,-0.316716448622,0.573800807206,0.818977520906,0.00303328211766,0.0,0.818945174473,-0.573734612759,-0.0117533922603,0.0,-0.00788561693699,0.00922837539428,-0.999926324353,0.0,0.574306648256,0.146389975216,0.304231705192,1.0,-0.227669142857,-0.299222302041,1.632
0.361866483592,0.143528517782,-0.127300053119,-1.94789203553,0.033231811098,2.08429297369,0.0450429925085,-0.353568450004,-0.884314835492,-0.00992924783582,-1.16575830455,-0.115878081694,0.27442128142,-0.329400132542,0.573728711699,0.819028722895,0.00283960336584,0.0,0.818993550272,-0.573662872364,-0.0118836183763,0.0,-0.00810420578999,0.00914376594915,-0.99992535391,0.0,0.57034861727,0.141321797412,0.30414837145,1.0,-0.233264571429,-0.306576293878,1.649
0.35560665011,0.128386996499,-0.127462551897,-1.96769672141,0.0312021440978,2.08923092001,0.0391747645434,-0.376763957789,-0.878106271548,-0.0111677617461,-1.17426823346,-0.136135892563,0.283234757577,-0.35045535885,0.573675178576,0.819065481744,0.00304516051716,0.0,0.819032818538,-0.573608408029,-0.0118060703771,0.0,-0.00792336759383,0.00926711435378,-0.999925667656,0.0,0.566388671084,0.136105019438,0.304246181556,1.0,-0.23886,-0.313930285714,1.666
0.349351246872,0.113914617739,-0.127683156405,-1.98649131563,0.0291462284801,2.09380692946,0.0335592829852,-0.392243704461,-0.9164980079,-0.0126668405789,-1.18565973523,-0.123562973366,0.283293741629,-0.362305994502,0.573809224819,0.818971086558,0.00317486928876,0.0,0.818940703578,-0.573742696468,-0.0116700116948,0.0,-0.007735993033,0.00929656904109,-0.999926861433,0.0,0.562587455632,0.130982917733,0.304326980755,1.0,-0.244126285714,-0.320851689796,1.682
0.341683205877,0.0965360998639,-0.127833057078,-2.00890012393,0.0266493006259,2.09906619981,0.0264858690314,-0.401533021053,-0.931350785479,-0.00215153816509,-1.17643285623,-0.131955234019,0.279420316281,-0.37551403937,0.57367384989,0.819065485166,0.00328509726484,0.0,0.819036910733,-0.573607445529,-0.0115665116379,0.0,-0.00758952033777,0.00932620073463,-0.999927707967,0.0,0.55793018758,0.124896699298,0.30439459372,1.0,-0.25038,-0.329070857143,1.701
0.334960476198,0.0817929384554,-0.127990517292,-2.02799271076,0.0246267831131,2.10318076249,0.0202918649502,-0.425487437549,-0.944853564512,-0.0155114259034,-1.17500209765,-0.127820498108,0.256335641653,-0.405314409815,0.573604283772,0.819114786636,0.00313669465833,0.0,0.819082677158,-0.573536446705,-0.0118431068917,0.0,-0.00790200740412,0.00936264936445,-0.999924946721,0.0,0.553822344732,0.119666730006,0.304314505302,1.0,-0.255646285714,-0.335992261224,1.717
0.327408390408,0.0658227738716,-0.128189995393,-2.04824598294,0.0222549572654,2.10765851806,0.0134790045961,-0.460170078069,-0.925867380013,-0.0203405231798,-1.20990636332,-0.137623886596,0.240418625866,-0.406143800821,0.573566858536,0.819140827988,0.00317956181458,0.0,0.819109692198,-0.57349937133,-0.0117698824437,0.0,-0.00781786506665,0.00935540451839,-0.999925675934,0.0,0.549200051126,0.113584962893,0.304336094932,1.0,-0.25998,-0.341688,1.735
0.319935342421,0.0507584584236,-0.128440266443,-2.06708536676,0.0200661294398,2.11158454148,0.00683584621889,-0.468373554341,-0.936734414978,-0.0136446291355,-1.17205130874,-0.137593065774,0.24518370634,-0.410469207982,0.5736733393,0.819065782456,0.0033001041242,0.0,0.819036371349,-0.573605621567,-0.011694452317,0.0,-0.0076857154339,0.00941188202686,-0.999926170402,0.0,0.54534681391,0.108390913153,0.304414653131,1.0,-0.25998,-0.341688,1.75
0.311869219625,0.0349100221727,-0.128598573049,-2.08687130523,0.0177919229101,2.11550271519,-0.000293239070483,-0.483360855288,-0.931893608648,-0.0157292611956,-1.14932056877,-0.136138231264,0.234660253201,-0.426750920211,0.573722794507,0.819031130669,0.00330287146599,0.0,0.819000851247,-0.573653955764,-0.0118106559417,0.0,-0.00777873937286,0.00948127961805,-0.999924795447,0.0,0.540898048545,0.102599918789,0.304402389165,1.0,-0.25998,-0.341688,1.767
0.302589225195,0.0173170328943,-0.128788950727,-2.10849412175,0.0151219486107,2.11960811897,-0.0084849871137,-0.494007184832,-0.933796409967,-0.0110347259118,-1.12382619164,-0.135802691235,0.218548637302,-0.432670204455,0.573717409517,0.819034883092,0.00330774794138,0.0,0.819004761318,-0.573648669531,-0.0117962614716,0.0,-0.00776421391479,0.00947696434764,-0.999924949248,0.0,0.535954320383,0.0960954741184,0.30443393035,1.0,-0.25998,-0.341688,1.786
0.294474404042,0.00262448642084,-0.129025930922,-2.12638321416,0.0129215765774,2.12280642917,-0.0155495525647,-0.508782784582,-0.909676495406,-0.010937181089,-1.12029647668,-0.131863164173,0.187174017165,-0.437705419974,0.573866903957,0.81893016944,0.00330167005909,0.0,0.818899543145,-0.573797645911,-0.0118552387291,0.0,-0.00781427260265,0.00950724829213,-0.999924271819,0.0,0.531789449991,0.0905282514958,0.304444902607,1.0,-0.25998,-0.341688,1.802
0.285826507664,-0.0129146417643,-0.129123605667,-2.14489838486,0.0106064919236,2.12615372859,-0.0232065569502,-0.511694112915,-0.892918682845,-0.00116598848599,-1.08451590117,-0.133345854503,0.18491471078,-0.44236362405,0.573770206264,0.818996779929,0.00357376151828,0.0,0.818970184497,-0.573700661125,-0.0116677003431,0.0,-0.00750568417215,0.00962156820749,-0.999925542293,0.0,0.527421569887,0.084806829531,0.30456564998,1.0,-0.25998,-0.341688,1.819
0.277972686434,-0.026440945095,-0.129285730457,-2.1610291949,0.00846845320411,2.12869319214,-0.0301285458641,-0.535946386493,-0.926850096351,-0.00859899331473,-1.06002614776,-0.144028257715,0.185496878476,-0.456869676797,0.573721378848,0.819031394432,0.00347869056157,0.0,0.819003505762,-0.573652074881,-0.0117175694642,0.0,-0.00760164555432,0.00957186416317,-0.99992529441,0.0,0.523503002555,0.0796682336912,0.304570889775,1.0,-0.25998,-0.341688,1.834
0.269322058795,-0.0407359191978,-0.129531179015,-2.17799248501,0.00624475179457,2.13136221767,-0.0375954619777,-0.545147998191,-0.876779844793,-0.0183970784963,-1.06221048135,-0.135647924244,0.154056951455,-0.471330872558,0.573891422038,0.818912465188,0.00342884410891,0.0,0.818883559638,-0.573821799352,-0.0117900485405,0.0,-0.00768762022925,0.0095742161255,-0.999924614599,0.0,0.519073537338,0.0737665254882,0.304529278168,1.0,-0.25998,-0.341688,1.851
0.258377526544,-0.0585234422669,-0.129667877904,-2.19862292336,0.00354280471227,2.13446866966,-0.0472314750141,-0.554387894929,-0.891745069302,-0.000805598484371,-1.03655502095,-0.145880814952,0.147485268672,-0.487460730002,0.573790302493,0.818982272993,0.00367044821059,0.0,0.818956842572,-0.573720332325,-0.0116368888624,0.0,-0.00742473787318,0.00968325909057,-0.999925551109,0.0,0.514190588495,0.0673476689245,0.304637519193,1.0,-0.25998,-0.341688,1.87
0.24996309727,-0.071660458613,-0.129823018076,-2.21389600339,0.00148807493981,2.13647136069,-0.0546072910958,-0.572075674751,-0.902201143254,-0.0164612472957,-0.996833434252,-0.133208939842,0.13246394431,-0.497773496767,0.573771377006,0.818995931304,0.00358027071034,0.0,0.818968648342,-0.573700822548,-0.0117671636879,0.0,-0.00758340093588,0.00968397762358,-0.999924353443,0.0,0.510262166151,0.062230945528,0.304595267289,1.0,-0.25998,-0.341688,1.885
0.240132316153,-0.0864695796806,-0.130032362726,-2.23095098058,-0.000809011474291,2.1386172497,-0.0631654073792,-0.582168640237,-0.870624271075,0.000964441865677,-1.00611757171,-0.130183187276,0.117181798078,-0.505991522053,0.573840873354,0.818947416782,0.00353942308901,0.0,0.818918766837,-0.573769389556,-0.0118948657376,0.0,-0.00771060539664,0.0097244473604,-0.999922987879,0.0,0.5058129646,0.0563768146212,0.304546387012,1.0,-0.25998,-0.341688,1.902
0.229671902693,-0.102109182622,-0.130184878308,-2.24850495384,-0.00328483306267,2.14065131799,-0.0723916952173,-0.588725876967,-0.872399432569,-0.0180845196959,-0.979830886324,-0.149129760296,0.108190796538,-0.524355416822,0.573714690144,0.819035461308,0.00362137173623,0.0,0.8190080806,-0.573643195564,-0.0118319481116,0.0,-0.00761355640922,0.00975428295966,-0.999923440931,0.0,0.501139324834,0.0503108772267,0.304607398658,1.0,-0.25998,-0.341688,1.92
0.220606553586,-0.114912471539,-0.13038485198,-2.26297940918,-0.00536405030138,2.14209387056,-0.0802234060482,-0.61440396976,-0.872850819746,-0.0151246297132,-0.950091836198,-0.136795324311,0.0873953254084,-0.540270343444,0.573841427278,0.818947264617,0.00348439633385,0.0,0.818917381278,-0.573769495839,-0.0119847898118,0.0,-0.0078158209844,0.00973098896399,-0.999922107364,0.0,0.496944085375,0.0447761526868,0.304546456787,1.0,-0.25998,-0.341688,1.936
0.209550300432,-0.130274511901,-0.13057136092,-2.27985392898,-0.00773221744098,2.14371175085,-0.0899031981727,-0.61123415149,-0.837073838487,-0.00405986471259,-0.92808641218,-0.130024259124,0.0780864050932,-0.536059614962,0.573817315818,0.818963681884,0.00359481914701,0.0,0.818934794342,-0.573744422318,-0.0119953064372,0.0,-0.0077613623206,0.00982722622564,-0.999921590366,0.0,0.492529535088,0.03900340459,0.304588415799,1.0,-0.25998,-0.341688,1.953
0.198897349153,-0.144669047824,-0.130774065268,-2.2954555274,-0.0100606421239,2.14511413074,-0.099292205008,-0.62766560534,-0.865979269046,-0.0121500857321,-0.895191443282,-0.142685367007,0.0879281791722,-0.559777926035,0.573748189723,0.819011460397,0.00374024450884,0.0,0.818985164982,-0.573675684711,-0.0118429392973,0.0,-0.00755396111682,0.009858259551,-0.999922873221,0.0,0.487885955862,0.0328673997934,0.304660713613,1.0,-0.25998,-0.341688,1.971
0.188552270451,-0.158015969156,-0.131030139886,-2.30996100277,-0.0122752071557,2.14615146407,-0.108288898889,-0.64936129808,-0.818067934269,-0.0149547953527,-0.911661859816,-0.151254305809,0.0566593672887,-0.571597900654,0.573845941752,0.818943441911,0.00363606751563,0.0,0.81891545386,-0.573773354161,-0.0119316547669,0.0,-0.00768521973242,0.00982475270314,-0.99992220279,0.0,0.483956621286,0.0276552650646,0.30462083127,1.0,-0.25998,-0.341688,1.986
0.176921426983,-0.172907729292,-0.131184813189,-2.32574550212,-0.0145233605631,2.14713942664,-0.118644239257,-0.649570800001,-0.796308193598,-0.0134650338388,-0.86911291959,-0.133905209173,0.0453076173782,-0.587007424198,0.573732434556,0.819022136281,0.00381847107944,0.0,0.818995865839,-0.573658355893,-0.011941915845,0.0,-0.00759034172279,0.00997896860496,-0.99992140036,0.0,0.479306843384,0.0216363872377,0.304680742035,1.0,-0.25998,-0.341688,2.004
0.165448519955,-0.186762975439,-0.131471488214,-2.3404856583,-0.0168424157351,2.1478354182,-0.128628829917,-0.686890300228,-0.785071571985,-0.0206370352325,-0.834594823031,-0.128200361726,0.029235725957,-0.589536823659,0.57385986323,0.818933415456,0.0036966639222,0.0,0.818904971376,-0.573785454431,-0.0120684315389,0.0,-0.00776229931918,0.00995299656173,-0.999920339111,0.0,0.474856099547,0.0157432624415,0.304626963646,1.0,-0.25998,-0.341688,2.021
0.15459384108,-0.199761027359,-0.131594420641,-2.353905372,-0.0189215406577,2.1484774398,-0.138312476288,-0.676814907267,-0.768625131396,-0.00560916041105,-0.865714490935,-0.117217108579,0.0321054841264,-0.597033754424,0.573706364482,0.819040139305,0.00387355935511,0.0,0.819014736057,-0.573632292284,-0.0118996752609,0.0,-0.0075244578203,0.0099996141488,-0.99992169206,0.0,0.470753146368,0.0103577465317,0.304706109591,1.0,-0.25998,-0.341688,2.037
0.142012455084,-0.214196720277,-0.131901411295,-2.36883967789,-0.0211971624742,2.14880125306,-0.149414441024,-0.716891150904,-0.816392128533,-0.0213110326845,-0.814771931207,-0.130535864451,0.0134679591686,-0.615793857569,0.573808597532,0.818968525212,0.00387233938408,0.0,0.818941712346,-0.57373267065,-0.012084755249,0.0,-0.00767549434434,0.0101057512739,-0.999919477047,0.0,0.466032081003,0.00417620122843,0.304681013437,1.0,-0.25998,-0.341688,2.055
0.132048685841,-0.225299978411,-0.132078506828,-2.38015367395,-0.0231027217327,2.1490562795,-0.158152833541,-0.70232484631,-0.755740258762,-0.00669564637295,-0.827640631118,-0.133854090786,0.00927124102996,-0.630323765325,0.573827855884,0.818955044058,0.00386969307567,0.0,0.818928884562,-0.573752843447,-0.0119959813142,0.0,-0.00760406840216,0.0100528252188,-0.999920556269,0.0,0.462407104019,-0.000614747801782,0.304695284211,1.0,-0.25998,-0.341688,2.069
0.119839533606,-0.238682739302,-0.132287460284,-2.39365884201,-0.0252754772747,2.14913679665,-0.169130183818,-0.730772623922,-0.801899298571,-0.0151326940608,-0.753285292427,-0.125681842353,0.00358394516672,-0.649502721403,0.573685718814,0.819054479734,0.00389899451113,0.0,0.819028393657,-0.573610211751,-0.0120234046476,0.0,-0.00761146691543,0.0100912370367,-0.999920113062,0.0,0.457969451269,-0.00635809923914,0.304699914819,1.0,-0.25998,-0.341688,2.086
0.107162599222,-0.25185719407,-0.132574543347,-2.40668003948,-0.0273630866634,2.14917707261,-0.180314900453,-0.74107706902,-0.769995182466,-0.00187975863184,-0.752842973345,-0.129631650047,-0.00870623852664,-0.65626789265,0.573848825155,0.81893915173,0.00411564480348,0.0,0.818916276276,-0.573773040571,-0.011890217223,0.0,-0.00737606038568,0.0101937519625,-0.999920837444,0.0,0.453611353472,-0.012228429465,0.304767394941,1.0,-0.25998,-0.341688,2.103
0.0944610173164,-0.264872687447,-0.132772291798,-2.41957966225,-0.0295146238154,2.14902665363,-0.191735505998,-0.755898953634,-0.76777126102,-0.00797425865353,-0.731945714748,-0.129435014744,-0.00487119744762,-0.668890617527,0.573722734725,0.819027419101,0.00413005101965,0.0,0.81900472977,-0.573646917884,-0.011883312561,0.0,-0.00736370955333,0.0102004542898,-0.999920860125,0.0,0.449178567123,-0.0179620707391,0.304747968061,1.0,-0.25998,-0.341688,2.12
0.0821127874399,-0.276945722822,-0.133088467332,-2.4312006596,-0.0314916479748,2.14878475973,-0.202749063231,-0.769514231336,-0.72548512346,-0.0135904178334,-0.72167537129,-0.13089937263,-0.0152626305878,-0.686263442055,0.573830536635,0.818950922492,0.00431841136642,0.0,0.818931493656,-0.573755226479,-0.0117002430644,0.0,-0.0071043505402,0.0102506371835,-0.999922223296,0.0,0.445087742589,-0.0234887741492,0.304825970444,1.0,-0.25998,-0.341688,2.136
0.0689339453952,-0.28956659976,-0.13326523308,-2.44347681918,-0.0334904201536,2.14826613738,-0.21472909506,-0.775491163714,-0.743332911753,-0.0115017643649,-0.69955082611,-0.118464728968,-0.0365745025356,-0.708300121494,0.573671001083,0.819062664915,0.00432207814286,0.0,0.819042270158,-0.573594247447,-0.0118383229664,0.0,-0.00721734815354,0.010331466194,-0.999920582192,0.0,0.440636904598,-0.029190437215,0.30477937318,1.0,-0.25998,-0.341688,2.153
0.0552921083682,-0.302063749878,-0.13357324549,-2.45514567899,-0.0356059653364,2.14775016021,-0.226964413938,-0.798134664501,-0.724095352411,-0.00889487137702,-0.683734392907,-0.118272603619,-0.031135513672,-0.719351359794,0.573732258231,0.819018705378,0.00451696885528,0.0,0.819002569555,-0.573657423952,-0.0115194578458,0.0,-0.00684359049428,0.0103086921368,-0.999923445137,0.0,0.436306015933,-0.0350674380287,0.304900199319,1.0,-0.25998,-0.341688,2.17
0.0423855383296,-0.313545816361,-0.133772318925,-2.4661377014,-0.0374592763667,2.14696141138,-0.238651805744,-0.818058847705,-0.723196137522,-0.0159464993576,-0.680244576214,-0.122659359471,-0.0513499577429,-0.743060250849,0.573659819192,0.819069895154,0.00443459111576,0.0,0.819051333287,-0.573583231069,-0.0117446744951,0.0,-0.00707623844616,0.0103698052641,-0.999921193889,0.0,0.431828804705,-0.0407949669131,0.304820793821,1.0,-0.25998,-0.341688,2.187
0.0274452905567,-0.32631883156,-0.134094287916,-2.47785399001,-0.0395523040413,2.14611482293,-0.252170365374,-0.829385989629,-0.719099554459,-0.00751234800962,-0.638193749084,-0.114234567238,-0.0393067840575,-0.750799958827,0.573741178914,0.819011795621,0.00463520801599,0.0,0.818996808631,-0.573665421621,-0.0115307584484,0.0,-0.00678489925125,0.0104120919834,-0.999922773759,0.0,0.427478040964,-0.0466462498708,0.304911206268,1.0,-0.25998,-0.341688,2.204
0.0140796019507,-0.337378348254,-0.134305002847,-2.48815547563,-0.0413024839426,2.14516743371,-0.264473868547,-0.854825420215,-0.700161479858,-0.0287010342378,-0.629198823304,-0.124059250126,-0.0633231866403,-0.773057636437,0.573619698047,0.819096790587,0.00465151208372,0.0,0.819081029003,-0.573542403345,-0.0116673216269,0.0,-0.00688895891342,0.0105027730235,-0.99992111389,0.0,0.423040445589,-0.0523762872751,0.304863284089,1.0,-0.25998,-0.341688,2.221
-0.00225331845258,-0.350280725685,-0.13461963992,-2.49987729846,-0.0434809061251,2.14384726471,-0.279300265084,-0.853421855427,-0.688694898123,-0.00952673761289,-0.593307526266,-0.105801005213,-0.0721397096584,-0.782778490971,0.573664698609,0.819065368173,0.00463498990097,0.0,0.819049091952,-0.573586992435,-0.0117172515147,0.0,-0.00693875860124,0.0105182603374,-0.999920606763,0.0,0.418357254398,-0.0585347718012,0.3048664536,1.0,-0.25998,-0.341688,2.239
-0.0171151244811,-0.361596256761,-0.134955505508,-2.50997209889,-0.0453864557309,2.14274094239,-0.292929243111,-0.886524853326,-0.664275538507,-0.0270785854529,-0.595368251554,-0.113475234257,-0.080566078754,-0.80818788408,0.573680370895,0.819053690406,0.00475722444718,0.0,0.819039803823,-0.573603524371,-0.0115561016248,0.0,-0.00673643667068,0.0105260675036,-0.999921908113,0.0,0.41398258548,-0.0643730391555,0.30491482471,1.0,-0.25998,-0.341688,2.256
-0.031232750052,-0.371997891139,-0.135153442815,-2.51934169367,-0.0470857339569,2.14144192548,-0.306030267557,-0.882904193799,-0.640306685965,-0.0151271311984,-0.59099755025,-0.103948920687,-0.0889567121044,-0.824623799138,0.573523221083,0.819164020817,0.00470837327877,0.0,0.819148406593,-0.573444858835,-0.0117315282011,0.0,-0.00691018640385,0.0105853641121,-0.999920096503,0.0,0.409781176809,-0.0697548203236,0.304860644159,1.0,-0.25998,-0.341688,2.272
-0.0457423398604,-0.382189938444,-0.135468373931,-2.52816242655,-0.0488114592896,2.14015730702,-0.319251625991,-0.917065337609,-0.63456464727,-0.0239379178784,-0.543834065263,-0.109296011476,-0.07545289092,-0.826736119653,0.573676829995,0.819055868508,0.00480893858162,0.0,0.819042314003,-0.573599300563,-0.0115878025126,0.0,-0.00673278347114,0.0105865818203,-0.999921293859,0.0,0.405663049436,-0.0752771356505,0.30493350226,1.0,-0.25998,-0.341688,2.288
-0.0603120032852,-0.392058116146,-0.135685499969,-2.53682322063,-0.0504655039717,2.13884753611,-0.33283967226,-0.907226062921,-0.605898790062,-0.0206564421189,-0.535058985512,-0.111091778622,-0.0809656115587,-0.856578126475,0.573535323119,0.81915491366,0.004817412528,0.0,0.819141356032,-0.57345761396,-0.0115996004909,0.0,-0.0067394175995,0.0105991265124,-0.999921116272,0.0,0.401520533118,-0.0806822203046,0.304914499652,1.0,-0.25998,-0.341688,2.304
-0.0780274244208,-0.403500904226,-0.136033221211,-2.54678960642,-0.0524035857752,2.13703402795,-0.34925073635,-0.925551612688,-0.593745558619,-0.00628100939086,-0.515502179092,-0.0909177713566,-0.0940784421525,-0.866649363169,0.573562029598,0.819136569179,0.00475669402777,0.0,0.819120873331,-0.573482412982,-0.0118179429108,0.0,-0.00695276270407,0.0106748362115,-0.999918850189,0.0,0.39651990561,-0.0871723632539,0.30486102329,1.0,-0.25998,-0.341688,2.323
-0.0931379492576,-0.412904455672,-0.136335980433,-2.55461259355,-0.0538778456197,2.13567031846,-0.363384006969,-0.960322488617,-0.586670185124,-0.0251412578851,-0.480219478665,-0.10107350672,-0.0821888672463,-0.886947690682,0.573577832878,0.819124002429,0.00500851036917,0.0,0.819112578231,-0.573498989872,-0.0115861857746,0.0,-0.0066182746494,0.010748320108,-0.999920332854,0.0,0.39243904071,-0.0926374962564,0.30496308021,1.0,-0.25998,-0.341688,2.339
-0.110443816641,-0.42307502678,-0.136621935523,-2.56320155489,-0.0556249497006,2.13393455586,-0.379576405459,-0.959316933694,-0.560131921735,-0.0197014898441,-0.476095183489,-0.0874512120591,-0.103629462666,-0.910124544418,0.573528106344,0.819158865751,0.00500107948658,0.0,0.819147119701,-0.573448928981,-0.0116219205937,0.0,-0.0066524636966,0.0107623251751,-0.999919955338,0.0,0.387755524105,-0.0987819057886,0.304962627166,1.0,-0.25998,-0.341688,2.357
-0.124115922303,-0.430699803458,-0.13692480223,-2.56972454737,-0.0569703108708,2.13251433186,-0.392315565072,-0.982208078139,-0.548122967101,-0.0251008834553,-0.455507800962,-0.0977064707225,-0.0934571485676,-0.913335900559,0.573611919597,0.819100594386,0.0049324308447,0.0,0.819086641958,-0.57353085213,-0.0118398277991,0.0,-0.00686924097645,0.0108317631139,-0.999917739835,0.0,0.38405251428,-0.103585811987,0.304890717384,1.0,-0.25998,-0.341688,2.371
-0.14176635308,-0.440164903171,-0.137181326941,-2.57756779364,-0.0585534484741,2.13080291031,-0.409011081964,-0.988661479485,-0.519610543034,-0.0107557913582,-0.414463722027,-0.0920959431308,-0.0960610842922,-0.94551636856,0.573502888527,0.819176565968,0.00499374824157,0.0,0.819163355888,-0.573421541967,-0.011827023275,0.0,-0.00682502889813,0.0108737369321,-0.999917587017,0.0,0.379414301808,-0.109669640275,0.304898559322,1.0,-0.25998,-0.341688,2.389
-0.157903858219,-0.448333109663,-0.137470801197,-2.58407607869,-0.0599348333732,2.12932856248,-0.424109586922,-1.00171570387,-0.498797422906,-0.00649309429738,-0.411163499588,-0.0861066154353,-0.0940445292641,-0.935475605928,0.573610636283,0.819100125606,0.00515451997193,0.0,0.819090385351,-0.573531003395,-0.0115704654542,0.0,-0.00652121824899,0.010859168874,-0.999919772864,0.0,0.375058322472,-0.115540892571,0.305000564426,1.0,-0.25998,-0.341688,2.406
-0.175097357854,-0.456564494664,-0.137809327829,-2.59095066763,-0.06140261741,2.12752224631,-0.440402413624,-1.02770721856,-0.479921343155,-0.0249957564215,-0.392850089555,-0.0851222230746,-0.109494274044,-0.966518674872,0.573627429171,0.819088887288,0.00507090966847,0.0,0.819076083284,-0.57354483478,-0.0118928209655,0.0,-0.00683301500006,0.0109757204626,-0.99991641824,0.0,0.370818745392,-0.120994612939,0.304908174701,1.0,-0.25998,-0.341688,2.422
-0.192445211406,-0.464420507571,-0.138039328213,-2.59736122489,-0.0627505692076,2.12593286402,-0.457012067229,-1.02920552393,-0.450863285022,-0.0152413148877,-0.371908493022,-0.0789659763794,-0.0808902265328,-0.983715825682,0.573478233635,0.819193127014,0.00510716175865,0.0,0.819180487981,-0.573395041879,-0.0119248043947,0.0,-0.00684042827009,0.01102251524,-0.999915852809,0.0,0.366420454904,-0.12673852148,0.304883563693,1.0,-0.25998,-0.341688,2.439
-0.210213644772,-0.47195988301,-0.138329454256,-2.60329975048,-0.0641224907049,2.12432554059,-0.473765209657,-1.04588111864,-0.445657452275,-0.0063100814273,-0.330639764478,-0.0665921567118,-0.101954384051,-0.994375299519,0.573608118793,0.819101907677,0.00515148482575,0.0,0.819090506394,-0.573525820277,-0.0118162054564,0.0,-0.00672429633407,0.0109976154359,-0.999916914695,0.0,0.36201384597,-0.132602265763,0.304930061209,1.0,-0.25998,-0.341688,2.456
-0.229055816517,-0.479435910101,-0.138620851297,-2.60909611514,-0.0653413388898,2.12266640431,-0.491784457153,-1.05080455118,-0.394128428852,-0.0129903966132,-0.317479350573,-0.0661863445816,-0.0907582690013,-0.999863433033,0.573650612402,0.819071012299,0.00532903410928,0.0,0.819062272579,-0.573568296839,-0.0117110802178,0.0,-0.00653576714504,0.0110830925109,-0.999917220978,0.0,0.357409304628,-0.138730012936,0.304995201326,1.0,-0.255152571429,-0.335343379592,2.474
-0.246742456884,-0.485927295874,-0.138702454737,-2.61434574512,-0.0664092171086,2.12109557006,-0.508737835423,-1.04845047512,-0.369166869439,-0.00661453376926,-0.303940935846,-0.0637878445756,-0.0912950136857,-0.987462266694,0.573560483591,0.819134149566,0.00532574670487,0.0,0.819124021094,-0.573475931167,-0.0119139137045,0.0,-0.00670503511232,0.01119601272,-0.999914842276,0.0,0.353068036635,-0.144323446343,0.30493262202,1.0,-0.249557142857,-0.327989387755,2.491
-0.263465783413,-0.491518988772,-0.138804071782,-2.618834457,-0.0673715868952,2.11971351596,-0.524618855574,-1.04420085744,-0.34198322938,-0.000220735248636,-0.268032450302,-0.0584923257228,-0.0733383515995,-0.986842652929,0.573659028279,0.819065163673,0.00532201395228,0.0,0.81905391664,-0.573572695501,-0.0120744156992,0.0,-0.00683730302208,0.0112858312363,-0.99991293686,0.0,0.349038575142,-0.149590794083,0.304880203409,1.0,-0.244290857143,-0.321067983674,2.507
-0.279982175873,-0.496697584221,-0.138847510255,-2.62281314083,-0.0681362888061,2.11852697529,-0.540334919038,-1.03554272524,-0.312477634721,-0.00524795333848,-0.240966608743,-0.0522452099345,-0.0724623213145,-0.975546875103,0.573792236147,0.818970837553,0.00547575348628,0.0,0.818962026637,-0.573706006809,-0.0119734531192,0.0,-0.00666456457606,0.0113549272297,-0.999913320847,0.0,0.345166832515,-0.154745559986,0.304913581264,1.0,-0.239024571429,-0.314146579592,2.523
-0.297124325412,-0.501716169643,-0.138763922746,-2.62663705477,-0.0688868403612,2.11726853268,-0.556827322224,-1.00493906684,-0.284262643955,0.00444048367688,-0.222491103264,-0.0439877463254,-0.0693050697888,-0.967885231382,0.573723940643,0.819018168763,0.00555212302499,0.0,0.819010574059,-0.573637815961,-0.0119198397613,0.0,-0.00657778424995,0.0113861641246,-0.999913540273,0.0,0.341168512423,-0.160007882133,0.304946515107,1.0,-0.233429142857,-0.306792587755,2.54
-0.31519150107,-0.506475888696,-0.138737536267,-2.63022757464,-0.0695982658476,2.11609623566,-0.574074848498,-0.986938208785,-0.260147934446,0.00749415667612,-0.191779638805,-0.0396089958235,-0.0538226602546,-0.960035698163,0.57386479781,0.81891862994,0.00567611423819,0.0,0.818913172434,-0.573779109668,-0.0118108519607,0.0,-0.00641541444873,0.0114262968819,-0.999914137412,0.0,0.337013627622,-0.165547870005,0.304987633658,1.0,-0.227504571429,-0.299006008163,2.558
-0.332916461583,-0.510743423685,-0.13867095299,-2.633474766,-0.0702378733176,2.11497074306,-0.591072421227,-0.980463509034,-0.231548409614,0.00354072519262,-0.171652870058,-0.0345215021727,-0.0652264604506,-0.932316993789,0.573951243701,0.818857452172,0.00576105699323,0.0,0.818853063063,-0.573865167092,-0.0117973730705,0.0,-0.00635441926304,0.0114887973066,-0.999913810732,0.0,0.332937283666,-0.170917571245,0.305000726897,1.0,-0.22158,-0.291219428572,2.576
-0.347322726728,-0.513858088844,-0.138518065244,-2.63593634694,-0.0706725761192,2.11405888328,-0.605039166349,-0.957861813926,-0.194610725916,0.0078181470532,-0.15922398123,-0.0302647015957,-0.0607570032036,-0.922751174658,0.57387390379,0.818911459266,0.00578889744058,0.0,0.818906409232,-0.573785894761,-0.0119493428308,0.0,-0.00646399052903,0.0115982045359,-0.999911845353,0.0,0.329625439435,-0.175206217541,0.304960179868,1.0,-0.216642857143,-0.284730612245,2.591
-0.364512699006,-0.517104641657,-0.138384432264,-2.63856027736,-0.0711410498257,2.11313776218,-0.62153391621,-0.944850064264,-0.168651228446,0.0171193057426,-0.136376552999,-0.0240162929482,-0.0366842632168,-0.910263216522,0.573996108514,0.818825428841,0.00584220806651,0.0,0.818819855825,-0.573905677338,-0.01212699992,0.0,-0.00657714616293,0.0117447928524,-0.99990939639,0.0,0.325708805328,-0.180322471175,0.304890257181,1.0,-0.210718285714,-0.276944032653,2.609
-0.379304470673,-0.519638396128,-0.138207803895,-2.64054706563,-0.071457811424,2.11244099111,-0.63588130355,-0.930695545082,-0.151891198147,0.00628623170468,-0.119209924274,-0.0207064189695,-0.0387596103684,-0.8899773686,0.573983617958,0.818833610527,0.00592211857572,0.0,0.818828673443,-0.573892114607,-0.0121733824762,0.0,-0.00656944405513,0.011836750508,-0.999908362672,0.0,0.322379990626,-0.184690741034,0.304865050985,1.0,-0.205452,-0.270022628572,2.625
-0.394786055644,-0.521963641964,-0.137980265485,-2.6423224636,-0.0717745735091,2.11174241537,-0.650851999018,-0.896227226952,-0.129789329214,0.0165169069892,-0.100498708245,-0.00912702077319,-0.0406704643903,-0.870239526528,0.574001438301,0.818820833692,0.00596137916346,0.0,0.818816150208,-0.57390929029,-0.0122059648998,0.0,-0.00657333402746,0.0118877438208,-0.999907732157,0.0,0.318925283664,-0.189246174961,0.304858605279,1.0,-0.199856571429,-0.262668636735,2.642
-0.410839693037,-0.524165926198,-0.137813458844,-2.64389929932,-0.0720313482598,2.11110297186,-0.666362528864,-0.887899778031,-0.115856934834,0.00686056130233,-0.0800883177767,-0.0233529923241,-0.0356132250788,-0.861820027451,0.574125263065,0.818733091463,0.00608721243893,0.0,0.818730523358,-0.574033400977,-0.0121132813444,0.0,-0.00642340469452,0.0119385573186,-0.999908101138,0.0,0.315353487354,-0.193972961735,0.30489927692,1.0,-0.193932,-0.254882057143,2.66
-0.424686234809,-0.525748529622,-0.137544263156,-2.64506600959,-0.0722045507394,2.11062591686,-0.679877048092,-0.854461197946,-0.0931664091548,0.0121762759177,-0.0732217623079,-0.00468246009964,-0.0314548527466,-0.842800167457,0.574064107889,0.818775604869,0.00613643272198,0.0,0.818773899144,-0.573972456952,-0.0120692850483,0.0,-0.00636001524938,0.0119531244354,-0.99990833231,0.0,0.312300068696,-0.198002900459,0.304914753338,1.0,-0.188665714286,-0.247960653061,2.676
-0.438337391155,-0.527080947795,-0.137382307467,-2.64602740849,-0.072372512122,2.11021502933,-0.693038828533,-0.854891589389,-0.0845686050845,0.011757193178,-0.0568953097181,-0.00890513524383,-0.0222128543309,-0.806810218769,0.574221913214,0.818664370397,0.0062120792654,0.0,0.818663936892,-0.574130446137,-0.0120139981719,0.0,-0.00626900910712,0.0119845370228,-0.999908531015,0.0,0.309279258287,-0.201998808876,0.304934206007,1.0,-0.183399428571,-0.24103924898,2.692
-0.451442016554,-0.528117246737,-0.137044761363,-2.64682275882,-0.0724682201559,2.10987157997,-0.705895793908,-0.811856305995,-0.0551101657632,0.0156959381662,-0.0439465627842,-0.00496142950258,-0.0193471050936,-0.793988466568,0.574098940507,0.818750534747,0.00622215891679,0.0,0.818750225235,-0.574007442656,-0.0120113011409,0.0,-0.00626281428311,0.0119903001241,-0.999908500744,0.0,0.306405014147,-0.205768063411,0.304930811801,1.0,-0.178133142857,-0.234117844898,2.708
-0.465258741304,-0.528969341469,-0.13679912674,-2.64749195916,-0.0725419089684,2.10954797509,-0.719219681609,-0.813533756453,-0.0451858163173,0.0175918733291,-0.0325711951927,-0.00319516587461,-0.014763923465,-0.772241245635,0.574258616655,0.818638101141,0.00628072123118,0.0,0.818638258444,-0.574166261434,-0.0120520929063,0.0,-0.0062602447523,0.0120628891386,-0.999907643756,0.0,0.303354024992,-0.209760377289,0.304916509697,1.0,-0.172537714286,-0.226763853061,2.725
-0.48144915191,-0.529628830084,-0.136321963137,-2.64800382222,-0.07258136347,2.10927143071,-0.735163636061,-0.770456525859,-0.0263865834116,0.0191736073102,-0.0159468457887,-0.00349875883871,-0.00891407965895,-0.754723172052,0.574077170407,0.818765471378,0.00626515750287,0.0,0.81876543243,-0.573984935464,-0.0120502041274,0.0,-0.00627030576041,0.0120476734354,-0.999907764162,0.0,0.29983211234,-0.214396334426,0.304913267519,1.0,-0.165625714286,-0.217679510204,2.746
-0.492093991254,-0.529883279138,-0.136121266167,-2.64822006714,-0.0725796034423,2.10910123471,-0.745459017619,-0.743104976436,-0.0163452905481,0.0170467369953,-0.0149172596672,-0.000208339832378,-0.0121048082608,-0.747161942091,0.574210036546,0.818671929803,0.00631285861303,0.0,0.818672130842,-0.574116825614,-0.0121061814748,0.0,-0.00628679364334,0.0121198856649,-0.999906787954,0.0,0.297488712943,-0.217462472374,0.304898465287,1.0,-0.161017714286,-0.211623281633,2.76
-0.505106980003,-0.530043903871,-0.13568369803,-2.64836995935,-0.0725801044571,2.10896881992,-0.758332185252,-0.723608369073,-0.00648836022669,0.0234342062829,-0.00925358873973,-0.000980496466665,-0.00411621581395,-0.705670079953,0.574007303375,0.818814471109,0.00626294461695,0.0,0.818813941484,-0.573914208987,-0.0121225762363,0.0,-0.00633186985175,0.0120868663721,-0.999906903209,0.0,0.294655950806,-0.221162385755,0.304888906238,1.0,-0.155093142857,-0.203836702041,2.778
-0.516594256726,-0.530064940782,-0.135436986002,-2.64840522474,-0.0725813552167,2.10888760202,-0.769393469718,-0.708511899731,-0.0016388876368,0.0137385190264,0.00245380621886,-0.00150315154523,-0.00432310530145,-0.690278700011,0.574179743455,0.818693483507,0.00627289176399,0.0,0.818693007979,-0.574086421992,-0.0121361308125,0.0,-0.00633471118564,0.0121041261454,-0.999906676428,0.0,0.292119220981,-0.224456113915,0.304879959872,1.0,-0.149826857143,-0.196915297959,2.794
-0.528716480835,-0.529931093092,-0.135004508221,-2.64833260844,-0.0725470328991,2.10887552276,-0.781404927189,-0.664806077807,0.00880637852411,0.0187109601518,0.00882878988365,0.00011418064015,0.00179691896162,-0.649103273798,0.573984609643,0.81883073715,0.00621600302975,0.0,0.818829685836,-0.57389190296,-0.0121151232819,0.0,-0.00635304383579,0.0120439739995,-0.999907286464,0.0,0.289474674398,-0.227887551596,0.304874238069,1.0,-0.143902285714,-0.189128718367,2.812
-0.53669155733,-0.529784304151,-0.13479492199,-2.64821874567,-0.0725333263709,2.10887222086,-0.789131652908,-0.66355049207,0.00542155627461,0.0176600772615,0.00845446186358,0.000170207474619,2.16607672161e-05,-0.643118455339,0.574052610923,0.818783188354,0.00619977923813,0.0,0.818782077312,-0.573960249347,-0.0120949965879,0.0,-0.00634487519045,0.0120196639096,-0.999907630853,0.0,0.28771392747,-0.230161848525,0.304877531944,1.0,-0.139952571429,-0.183937665306,2.824
-0.551824631636,-0.529249835984,-0.134228232223,-2.64782260394,-0.0724353709247,2.10889580411,-0.804037616229,-0.602550334777,0.0252063984144,0.0268352626497,0.0221858865489,0.00918285650514,-0.000646369174632,-0.598366284916,0.573903544358,0.818888261078,0.00612246222585,0.0,0.818886185429,-0.573811636253,-0.0120982773704,0.0,-0.00639412035677,0.0119570742118,-0.999908067575,0.0,0.284406419647,-0.234435062308,0.304879092523,1.0,-0.132053142857,-0.173555559184,2.848
-0.55909145643,-0.528871411037,-0.133969573584,-2.64756965266,-0.0723903880191,2.10894411281,-0.811163404684,-0.601369051892,0.0282957147942,0.0189469829785,0.0204566419564,0.00635616063503,0.00691370511921,-0.595202360623,0.573870552407,0.818911710921,0.00607829729787,0.0,0.81890901399,-0.573778759832,-0.0121123272809,0.0,-0.00643145259675,0.0119287100592,-0.99990816693,0.0,0.282680271007,-0.23666425097,0.304870691094,1.0,-0.127774285714,-0.167931918367,2.861
-0.570886867836,-0.528142388879,-0.133576445476,-2.64701995697,-0.0722195957081,2.10907472676,-0.822615735395,-0.57029421041,0.0429285900375,0.0221625386507,0.0326219871389,0.0159376150271,0.013020531843,-0.561057715921,0.573978122083,0.818836234022,0.00608967361409,0.0,0.818833814913,-0.573886497842,-0.0120920655958,0.0,-0.00640676334069,0.0119272414162,-0.999908342947,0.0,0.280234588697,-0.239839766875,0.304871462798,1.0,-0.121520571429,-0.15971275102,2.88
-0.578528129747,-0.527508546458,-0.133222802091,-2.64658509865,-0.0720391677506,2.10917348128,-0.830272732526,-0.544986034175,0.0461877235629,0.0191376827264,0.0317028177929,0.00749833524685,0.00772958550137,-0.539118049617,0.573817440479,0.818948791068,0.00609668037422,0.0,0.818946159655,-0.573725255001,-0.0121353311033,0.0,-0.00644051923384,0.0119565478128,-0.999907776086,0.0,0.27858742084,-0.241982292785,0.304854974877,1.0,-0.116912571429,-0.153656522449,2.894
-0.587698613927,-0.526712043023,-0.132875907808,-2.64599844382,-0.0718407195658,2.1093152902,-0.839204568703,-0.529901994111,0.0495223084822,0.022225988163,0.037739516454,0.0107704100504,0.010839107411,-0.515759160584,0.573885733905,0.818900766546,0.00611930318334,0.0,0.818898386556,-0.573793352384,-0.0121395287067,0.0,-0.00642997767256,0.0119780204588,-0.999907586936,0.0,0.276590514893,-0.244576521956,0.304851341985,1.0,-0.111317142857,-0.146302530612,2.911
-0.59596420953,-0.525887642943,-0.132559929186,-2.64535605056,-0.071648458928,2.10945062879,-0.847221295193,-0.505139382211,0.0524556114849,0.0247611014843,0.0420724922663,0.0118637545329,0.00647493172789,-0.495971877197,0.573984289066,0.818831561699,0.00613647887034,0.0,0.81882946323,-0.573891917538,-0.0121294695701,0.0,-0.00641044030564,0.011987085456,-0.99990760375,0.0,0.274797913234,-0.24692581817,0.304861268615,1.0,-0.106050857143,-0.139381126531,2.927
-0.604017481145,-0.52491931071,-0.132108660723,-2.64466601878,-0.0713775532565,2.109607868,-0.855307679888,-0.472336058221,0.0510025620487,0.0265072536548,0.0412837484349,0.00947102855087,0.0113609334237,-0.468357564996,0.573796585842,0.81896304032,0.00614520683373,0.0,0.818960645744,-0.573703450136,-0.0121884751041,0.0,-0.00645650857359,0.0120266195078,-0.99990683262,0.0,0.27318697698,-0.249044165283,0.304844567863,1.0,-0.100784571429,-0.132459722449,2.943
-0.611899921059,-0.524008923615,-0.131732245184,-2.6439834383,-0.0711554567015,2.10977258883,-0.862942955629,-0.454268753143,0.0578150144668,0.0250142704399,0.040953133563,0.0095827183707,0.0142351412318,-0.439389345994,0.573861654771,0.818917416765,0.00614919544046,0.0,0.818915018055,-0.573768382222,-0.0121976910846,0.0,-0.00646081214432,0.0120356874096,-0.999906695715,0.0,0.271377411336,-0.251393533202,0.304845396239,1.0,-0.0948600000001,-0.124673142857,2.961
-0.618961781009,-0.523113787398,-0.13140085922,-2.64327274447,-0.0709043347724,2.10993473216,-0.869773362116,-0.432807581742,0.055095371059,0.0247747167688,0.0440487457832,0.0131115194968,0.00741778121846,-0.417298636888,0.573963054091,0.818846067285,0.00618688388211,0.0,0.818844319142,-0.573869884963,-0.0121689376521,0.0,-0.00641414388989,0.012050847356,-0.999906813576,0.0,0.269859754818,-0.253390190519,0.304862343755,1.0,-0.0895937142858,-0.117751738776,2.977
-0.625440390496,-0.522172048396,-0.131005632483,-2.64256463921,-0.0706353309288,2.11012151746,-0.876216577601,-0.39294980107,0.0593323687401,0.0291574175537,0.0418557259141,0.0185480026193,0.0118957331265,-0.401337724028,0.573866165069,0.818913855895,0.00620226675291,0.0,0.818912298645,-0.573772928491,-0.0121663700648,0.0,-0.00640463957306,0.012061212871,-0.99990674952,0.0,0.268493996761,-0.255207186709,0.304864429918,1.0,-0.0843274285715,-0.110830334694,2.993
-0.631996970679,-0.52126846216,-0.130598507465,-2.64187280898,-0.0703758250835,2.11029891419,-0.88265906279,-0.378641688755,0.0522689621044,0.0256556118957,0.0374656158928,0.017939094131,0.00801667600164,-0.372721759542,0.573819972187,0.818946190648,0.00620670962685,0.0,0.81894477187,-0.573726877181,-0.0121522807718,0.0,-0.00639123096497,0.0120564059371,-0.999906893287,0.0,0.267093507494,-0.257031264785,0.304872311196,1.0,-0.0787320000001,-0.103476342857,3.01
-0.638228626235,-0.520363630261,-0.130219631838,-2.64114299331,-0.0701197076831,2.11049927321,-0.888646115587,-0.355927163556,0.0550525461072,0.0159345890779,0.0411542310146,0.0182961099334,0.0136251474867,-0.349894946229,0.573900759545,0.818889555288,0.00620977730652,0.0,0.818888628161,-0.573808488131,-0.012082239811,0.0,-0.00633091894766,0.0120193540341,-0.999907723039,0.0,0.265770942368,-0.258780791042,0.30489795875,1.0,-0.0731365714286,-0.0961223510205,3.027
-0.64364041755,-0.519471263763,-0.129897789714,-2.64046118078,-0.0698395439898,2.11067603736,-0.893935786789,-0.334168363256,0.0584139835205,0.0211714512764,0.041588586313,0.0191459531518,0.00835761925168,-0.323383895338,0.573929279836,0.818869168389,0.00626208511872,0.0,0.818868937399,-0.573836798798,-0.0120722247052,0.0,-0.00629227887252,0.0120566623463,-0.999907517783,0.0,0.26462593369,-0.260301302367,0.304902698638,1.0,-0.0678702857144,-0.0892009469389,3.043
-0.649261767072,-0.518549920531,-0.129506980816,-2.63978096139,-0.0695556737805,2.1108630946,-0.899377717691,-0.293611933044,0.0496066641263,0.0270747651429,0.0398057592468,0.0198744330731,0.0117373338912,-0.296005878712,0.573957213252,0.818849407771,0.00628582935086,0.0,0.818849403421,-0.573864461759,-0.0120822575686,0.0,-0.00628645641123,0.0120820791153,-0.999907247614,0.0,0.263433619147,-0.261857188594,0.304898340261,1.0,-0.0619457142858,-0.081414367347,3.061
-0.654090925598,-0.517742038658,-0.129054096548,-2.63919397562,-0.0692888812577,2.11103453052,-0.904168315166,-0.275857533709,0.0389656395188,0.0262441679975,0.0314770333822,0.0220479024494,0.0133275195106,-0.275214845035,0.57381318901,0.818950470981,0.00626873980389,0.0,0.818950172769,-0.573720408725,-0.0120935534457,0.0,-0.00630763876933,0.0120734584661,-0.999907218343,0.0,0.262431998326,-0.263163688155,0.304893298657,1.0,-0.0563502857144,-0.0740603755103,3.078
-0.658339424638,-0.517009271485,-0.128674404502,-2.63864527353,-0.0690518197986,2.11119957103,-0.908174548965,-0.253995720126,0.0450194049826,0.0243968019728,0.0317206141971,0.0127431431937,0.00956634098218,-0.242691980415,0.57387280477,0.81890878462,0.00625726124903,0.0,0.81890843668,-0.573780253797,-0.0120805458349,0.0,-0.00630269350605,0.0120570528844,-0.999907447482,0.0,0.26155073537,-0.264323794131,0.304895966181,1.0,-0.0510840000001,-0.0671389714287,3.094
-0.662419355893,-0.516216772714,-0.128293624954,-2.63808220182,-0.0687895551344,2.1113607165,-0.912081434053,-0.229209458826,0.0483768589894,0.0185424850475,0.0293245941896,0.0163807451756,0.000738668417885,-0.210522310375,0.573886481942,0.818899125708,0.00626694983576,0.0,0.81889867761,-0.573793451747,-0.0121151740513,0.0,-0.00632529244172,0.0120849642206,-0.99990696783,0.0,0.260713101506,-0.265436437992,0.30488263812,1.0,-0.0454885714286,-0.0597849795919,3.111
-0.666051774075,-0.51554855701,-0.127923191196,-2.6376205495,-0.068547052888,2.11150708684,-0.91558377934,-0.206172393969,0.0348932031919,0.020376102487,0.023905343465,0.0190447465529,0.00953445092776,-0.194135320322,0.573858295159,0.818918833619,0.00627279226021,0.0,0.818918266112,-0.57376487121,-0.0121446652608,0.0,-0.00634650945673,0.01210645415,-0.999906573429,0.0,0.259963709436,-0.266407872442,0.30486736299,1.0,-0.0398931428572,-0.0524309877552,3.128
-0.669174072131,-0.51502998356,-0.12760010065,-2.63722272753,-0.0683180992676,2.11160965808,-0.918417846613,-0.189173038679,0.0331896093437,0.0252379637377,0.0266939645905,0.0165594234542,0.00890026871875,-0.170573008298,0.573983624355,0.818830856116,0.00629086204502,0.0,0.818830580376,-0.573890197847,-0.0121354174485,0.0,-0.00632671200387,0.0121169143977,-0.999906572186,0.0,0.259317537754,-0.267236062247,0.3048732947,1.0,-0.0346268571429,-0.0455095836736,3.144
-0.67201520771,-0.51450521341,-0.127210578277,-2.63683256236,-0.0680773338719,2.11173969311,-0.921134176179,-0.152898790265,0.0286298163675,0.0286458578127,0.0243294266891,0.0142026569468,0.0127122849746,-0.151284392551,0.573932472875,0.818866769917,0.00628304124007,0.0,0.818866528658,-0.57383935442,-0.0121140605889,0.0,-0.00631446690909,0.0120978578413,-0.999906880336,0.0,0.258762595874,-0.267976380327,0.30487729079,1.0,-0.0290314285715,-0.0381555918368,3.161
-0.674557483771,-0.514046394828,-0.126796563539,-2.63647911088,-0.0678180311667,2.11183074827,-0.923493619042,-0.136541705487,0.0206972781209,0.0223168766956,0.0137581470302,0.0201943067866,0.00562893784417,-0.112909019522,0.573917194236,0.818877484138,0.0062822792578,0.0,0.818877304322,-0.573824219347,-0.0121025889088,0.0,-0.00630573497131,0.0120905325534,-0.999907024042,0.0,0.258280395903,-0.268617174919,0.304886131334,1.0,-0.0231068571429,-0.030369012245,3.179
-0.676424870034,-0.513737919397,-0.126410264666,-2.63623057603,-0.0676061182553,2.11188747608,-0.925162595293,-0.108685905188,0.0199272110792,0.0257852630532,0.0171832213345,0.0129135374325,0.00119026983523,-0.103868968091,0.573908443062,0.818883785188,0.00626037055538,0.0,0.81888343666,-0.573815791897,-0.0120872260682,0.0,-0.00630585535456,0.0120637071126,-0.999907347287,0.0,0.257942365148,-0.269063726122,0.304899172028,1.0,-0.01985,-0.0260885714286,3.195
-0.678156303143,-0.513429659772,-0.126148157955,-2.63599439284,-0.0674131151175,2.11198953282,-0.926774538457,-0.094904785698,0.0176162354794,0.0112408955025,0.0117769891378,0.0130173294105,0.00646596468565,-0.0901897513073,0.573914634555,0.818879306073,0.00627863288513,0.0,0.818879490573,-0.57382246793,-0.012037529629,0.0,-0.00625458371221,0.01205019012,-0.999907832303,0.0,0.257614673063,-0.269506532601,0.304907533102,1.0,-0.01951,-0.0256417142857,3.212
-0.679733103258,-0.513116790326,-0.125964949577,-2.63574811921,-0.0672828498694,2.11203584481,-0.928311923159,-0.0877247803463,0.0200115362159,0.0132335253394,0.015568274448,0.00929115542792,0.00086753995053,-0.0941123746301,0.573885068251,0.818899953077,0.00628825805092,0.0,0.818900216465,-0.573792776217,-0.0120429371834,0.0,-0.00625392405719,0.0120609499172,-0.999907706701,0.0,0.257297892907,-0.269926664178,0.30491206738,1.0,-0.01917,-0.0251948571429,3.229
-0.681157590476,-0.512815409348,-0.125827481198,-2.63552056441,-0.0672251416665,2.11209307423,-0.929724643888,-0.0865264486271,0.0190955723546,0.0111131615464,0.0150220016719,0.00154940219981,0.00580981480632,-0.0785391578758,0.573833438423,0.818936358737,0.00625876887184,0.0,0.818936201719,-0.573741217369,-0.0120523817564,0.0,-0.00627934085469,0.0120418239142,-0.999907777925,0.0,0.257002321739,-0.270321012499,0.304912117996,1.0,-0.01885,-0.0247742857143,3.245
-0.682611601991,-0.512505789732,-0.125737823476,-2.63530350966,-0.0671768400539,2.11217364,-0.931117376014,-0.083400383634,0.0170328260804,0.00497186537716,0.0155070750736,-4.78590924899e-05,0.00408872631766,-0.0803783805134,0.573851866704,0.818923560691,0.00624369501297,0.0,0.818923195523,-0.573759685294,-0.0120569592864,0.0,-0.00629146867445,0.0120322469232,-0.999907816979,0.0,0.256687523813,-0.270734201216,0.304905175909,1.0,-0.01851,-0.0243274285714,3.262
-0.684008195896,-0.512208475722,-0.125696985196,-2.63506771371,-0.0671280940456,2.11220754692,-0.932572381202,-0.0826228159289,0.0231560492572,0.00310578324736,0.0148993104015,0.00570967348024,0.00269741695866,-0.0827833846002,0.573808041048,0.818954173701,0.00625622147549,0.0,0.818953841503,-0.573715564747,-0.0120748977764,0.0,-0.00629961758118,0.0120524620968,-0.999907522212,0.0,0.256373842278,-0.271141035147,0.304906135912,1.0,-0.01817,-0.0238805714286,3.279
-0.685355282884,-0.511912342058,-0.12567624736,-2.63482073318,-0.0670764899239,2.11226533674,-0.933898479734,-0.077013817216,0.0114032519613,0.00164542954721,0.0145765247139,0.000571618742509,0.00542073643645,-0.0726875458665,0.573845244627,0.818927970699,0.00627382867545,0.0,0.818927968878,-0.573752876054,-0.0120567786409,0.0,-0.00627412681552,0.0120567709931,-0.999907630537,0.0,0.256074814655,-0.271545303072,0.304914148743,1.0,-0.01783,-0.0234337142857,3.296
-0.686753586014,-0.511603000198,-0.125671238667,-2.63458631925,-0.0670391376289,2.11235729536,-0.935332937716,-0.0793128119685,0.0151796304184,1.12809943038e-05,0.0108878765438,0.00172312382455,0.00350482316377,-0.0677858697263,0.573840207151,0.818931402615,0.00628660232314,0.0,0.818931716467,-0.573748071059,-0.0120308612335,0.0,-0.00624564435621,0.0120523219782,-0.999907862486,0.0,0.255758491902,-0.271968514559,0.304914072899,1.0,-0.01747,-0.0229605714286,3.314
-0.687991875299,-0.511340529626,-0.125671171308,-2.63439105754,-0.0670040400202,2.11236658178,-0.936544792401,-0.0773816549321,0.0169539455874,-0.00149789662316,0.00955993799032,0.00281881193152,-0.0047802060184,-0.0741136772067,0.573887029696,0.818898386205,0.00631324952285,0.0,0.818898720783,-0.573794135491,-0.0120798210522,0.0,-0.00626976112555,0.0121025975937,-0.999907104299,0.0,0.2554635089,-0.272330104043,0.304906376638,1.0,-0.01715,-0.02254,3.33
-0.689341914648,-0.511068623103,-0.125650269664,-2.63416386427,-0.0669749269136,2.11242696752,-0.937895522292,-0.077547283208,0.0148111423454,0.00274535614363,0.0176974312689,0.000624412006128,0.000942942265722,-0.0713590426912,0.573895697717,0.818892309339,0.00631353686771,0.0,0.818892791223,-0.573803077729,-0.0120570051318,0.0,-0.00625078223694,0.0120898059668,-0.999907377867,0.0,0.255156373523,-0.272731873718,0.304914509965,1.0,-0.01679,-0.0220668571429,3.348
-0.690510371277,-0.510823857167,-0.125619042375,-2.63397305388,-0.0669473371559,2.1124905801,-0.939128912854,-0.0701658080945,0.0138624264296,0.00115640329047,0.0098274629719,0.00181892854686,0.00164266693236,-0.0778632495205,0.573841938971,0.81893000735,0.00631023298019,0.0,0.818930543407,-0.573749533394,-0.0120409678135,0.0,-0.00624033677782,0.0120774873697,-0.999907591978,0.0,0.254893539528,-0.273076266693,0.304916670892,1.0,-0.01647,-0.0216462857143,3.364
-0.691665841856,-0.510572864139,-0.125581485136,-2.63377598543,-0.0669044078631,2.11253690281,-0.940276052258,-0.0713898523558,0.018357979693,0.0027776248814,0.0097231127708,0.00255880804853,0.00491001061845,-0.0738658134691,0.573850549877,0.818923916151,0.00631766277244,0.0,0.818924543204,-0.573758098468,-0.012040925307,0.0,-0.00623591158806,0.0120836133555,-0.999907545574,0.0,0.254635303577,-0.2734132931,0.304918031148,1.0,-0.01615,-0.0212257142857,3.38
-0.692927862431,-0.510308877439,-0.125548470401,-2.63356155449,-0.066874608394,2.11258999651,-0.941578723876,-0.0707279809434,0.0183700286564,0.00489040620907,0.0104990062632,0.0027197715725,0.00291095677612,-0.0748088951663,0.573817510856,0.818947088328,0.00631487566895,0.0,0.818947741907,-0.573725200674,-0.0120306707518,0.0,-0.00622959941151,0.0120751951992,-0.999907686615,0.0,0.254349743641,-0.273784813583,0.304922903079,1.0,-0.01579,-0.0207525714286,3.398
-0.694080858739,-0.510041396593,-0.125525791,-2.63335108519,-0.0668360560342,2.11265755169,-0.942742570321,-0.0692134766058,0.0175316942184,0.000614122408567,0.0148646882866,0.00456970432115,0.00601128120443,-0.0674355770202,0.573830357661,0.818938032181,0.00632194396141,0.0,0.81893892857,-0.5737383065,-0.0120055748952,0.0,-0.00620479991932,0.0120666816713,-0.999907943589,0.0,0.254078745016,-0.274152201976,0.304928504531,1.0,-0.01543,-0.0202794285714,3.416
-0.695211925495,-0.509774945761,-0.125510392627,-2.63313862022,-0.0667976392636,2.11271316633,-0.943857783909,-0.0700714818784,0.0148693478425,0.000222526281324,0.0131395305214,0.00216279231368,0.00631233027779,-0.0675300571518,0.573849172813,0.818924766518,0.00633249927266,0.0,0.81892580323,-0.573757077229,-0.0120038342255,0.0,-0.00619704017841,0.0120744698652,-0.999907897694,0.0,0.253839262037,-0.274471109711,0.30492848256,1.0,-0.01511,-0.0198588571429,3.432
-0.69622256201,-0.509531381055,-0.125493331074,-2.63297272549,-0.0667744609362,2.11275210722,-0.944911602675,-0.0670413623615,0.0131094480314,0.000145904141913,0.0111735983124,0.000848438301949,0.0031151002491,-0.0683007543095,0.573820273859,0.818944967717,0.00633877428318,0.0,0.818945873779,-0.573727743649,-0.0120365646358,0.0,-0.00622067313735,0.012098170787,-0.999907464463,0.0,0.253604698904,-0.274767387935,0.304917237683,1.0,-0.01481,-0.0194645714286,3.447
-0.697344846723,-0.509279571984,-0.125464871692,-2.63277788991,-0.0667436706422,2.11278327517,-0.946043371996,-0.0592525317202,0.010723807096,0.000724700943588,0.00409674347601,0.000358351938084,0.000487364672261,-0.0622720789352,0.573815461649,0.818948304854,0.00634325235563,0.0,0.818949144703,-0.573722670508,-0.0120558133779,0.0,-0.00623394027098,0.0121128464201,-0.999907204165,0.0,0.253347393738,-0.275095069069,0.304915667238,1.0,-0.01447,-0.0190177142857,3.464
-0.698507194576,-0.508996358366,-0.125437263556,-2.63256953272,-0.0667103297437,2.11285567594,-0.947183498557,-0.0631082087132,0.0146909653814,0.00368464154125,0.0100304697198,0.00090468475372,0.000303749701022,-0.07084062248,0.573839031426,0.818931784616,0.00634389927013,0.0,0.818932658797,-0.573746282582,-0.0120519907501,0.0,-0.00623008961836,0.0121113621765,-0.999907246143,0.0,0.253087188192,-0.275441744692,0.304912064762,1.0,-0.01411,-0.0185445714286,3.482
-0.699442113848,-0.508782083437,-0.125408945899,-2.6323923432,-0.066693687092,2.11291184957,-0.948135608335,-0.0612056976371,0.00854651073046,0.00166590105225,0.0108884668491,-0.000420333859215,0.000603675921466,-0.0610189067443,0.573820929273,0.818944571692,0.0063306023464,0.0,0.818945422869,-0.573728535184,-0.0120295128064,0.0,-0.00621957674796,0.0120874367535,-0.9999076011,0.0,0.252880090275,-0.2757226263,0.3049184874,1.0,-0.01381,-0.0181502857143,3.497
-0.700586840403,-0.508510735626,-0.125369471911,-2.6321754868,-0.0666504226761,2.11294667146,-0.949288096251,-0.0548564113028,0.0165975956087,0.00249997610018,0.00741497091469,0.000599390705589,0.000467220284713,-0.0577406654856,0.573816074636,0.818947921028,0.00633735242077,0.0,0.818948777129,-0.573723490509,-0.0120417514889,0.0,-0.00622579926185,0.0120999505479,-0.999907411024,0.0,0.252624051013,-0.276057901121,0.304920182991,1.0,-0.01343,-0.0176508571429,3.516
-0.701568245756,-0.508259027164,-0.125341394824,-2.63199241755,-0.0666302735753,2.11298729906,-0.950232157188,-0.0596337302342,0.0132418959423,0.000285377777098,0.0103954392789,0.00278124639997,0.000921104414962,-0.0626893227743,0.573844751258,0.818927870627,0.00633175055591,0.0,0.818928512485,-0.573751911606,-0.0120657477644,0.0,-0.00624824343703,0.0121093502313,-0.999907157236,0.0,0.252401859201,-0.27634848886,0.304914019587,1.0,-0.01309,-0.017204,3.533
-0.702531021916,-0.50800509883,-0.125323959365,-2.63180322634,-0.0666048184499,2.11304844121,-0.951245675886,-0.0579678499619,0.0104387908764,0.000165504950168,0.0109866299014,-0.000105373844767,0.00819920300206,-0.0537976845974,0.573811412597,0.818951227075,0.00633224653984,0.0,0.818951881385,-0.573718589637,-0.0120641113377,0.0,-0.00624711150577,0.012108563113,-0.99990717384,0.0,0.25218689195,-0.276640582649,0.304911294979,1.0,-0.01275,-0.0167571428572,3.55
-0.70338643207,-0.50780920283,-0.125314012098,-2.63162894112,-0.066580288079,2.11309136058,-0.952105761183,-0.0570736999256,0.0132460310389,-0.00132641090215,0.00824469536933,0.00130814616875,0.00423497137275,-0.0522217124448,0.573819803192,0.818945331272,0.00633441024401,0.0,0.818946175479,-0.573727282626,-0.0120380123277,0.0,-0.00622436985568,0.0120954237824,-0.999907474691,0.0,0.251994776285,-0.276901458685,0.30492160037,1.0,-0.01245,-0.0163628571429,3.565
-0.704345066067,-0.507577515126,-0.125296982586,-2.6314401444,-0.0665609511758,2.11312828828,-0.953006636109,-0.0608771855919,0.0148688542614,0.00143363556497,0.0131986061928,0.000356699701638,-0.000268471891649,-0.0518121936919,0.573872879162,0.81890816841,0.00633065360271,0.0,0.818908960435,-0.573780357287,-0.0120400586479,0.0,-0.00622741758596,0.0120939249277,-0.999907473844,0.0,0.251776424022,-0.277189576074,0.304924842918,1.0,-0.01211,-0.015916,3.582
