nelsonifechukwu/NELSON_IML_WORK/CNN-GradCAM/train2dof/data_sample_2022-02-21-15-21-02/robot_state.csv
position_joint1,position_joint2,position_joint3,position_joint4,position_joint5,position_joint6,position_joint7,velocity_joint1,velocity_joint2,velocity_joint3,velocity_joint4,velocity_joint5,velocity_joint6,velocity_joint7,ee_T_00,ee_T_10,ee_T_20,ee_T_30,ee_T_01,ee_T_11,ee_T_21,ee_T_31,ee_T_02,ee_T_12,ee_T_22,ee_T_32,ee_T_03,ee_T_13,ee_T_23,ee_T_33,v_x,v_y,time
0.46507333393,0.547863038279,-0.123931754952,-1.35585437244,0.0794731107585,1.89408809365,0.159174492859,0.000133299420865,-0.000460473407537,0.000685696563253,-0.000628177550214,-0.000292502706538,-0.000234616441343,0.00109242142995,0.573772998906,0.819000545895,0.0018434887474,0.0,0.818955919655,-0.573714790909,-0.0119702654898,0.0,-0.00874618560057,0.00837811245491,-0.999926653045,0.0,0.661656070608,0.260914250987,0.303143213397,1.0,0.0,0.0,0.0
0.465073331718,0.547863943891,-0.123933118434,-1.35585597956,0.0794693043596,1.89409091935,0.159170318604,8.88662805768e-05,0.000621037647899,-0.000470888748971,-0.000418785033476,-0.0006933249538,-0.000156410968447,-0.00161140003628,0.573769635049,0.819002907517,0.00184127002486,0.0,0.818958296378,-0.573711479131,-0.0119663865921,0.0,-0.00874431601717,0.00837403385665,-0.999926703561,0.0,0.661656769083,0.260912832749,0.303142090465,1.0,-0.0,-0.0,0.001
0.465075810265,0.547865076781,-0.123931991715,-1.35585427461,0.0794728122068,1.89409162013,0.159171662166,0.00141383580303,0.00097632810671,0.000115142276259,0.000738619542498,5.06658057612e-05,-0.000419093514843,0.000451835950618,0.573768761886,0.81900351209,0.0018444427701,0.0,0.818958906638,-0.573710558323,-0.0119687680031,0.0,-0.00874445509634,0.00837798933504,-0.999926669211,0.0,0.661656167482,0.260915928682,0.303142129379,1.0,-0.00036,-0.000473142857143,0.019
0.465071879655,0.547856346043,-0.123932820259,-1.35586140121,0.0794716697095,1.89409186596,0.159174080347,0.000417736864853,-0.000468790225542,0.000117413048752,0.00124206900948,9.09214658941e-05,-0.000177818388331,0.0014019541241,0.573774612985,0.818999410364,0.00184559457557,0.0,0.818954828298,-0.573716411796,-0.0119672447034,0.0,-0.00874248677823,0.00837812109174,-0.999926685318,0.0,0.661656094289,0.260911949315,0.303144969217,1.0,-0.0007,-0.00092,0.036
0.465066383833,0.547822028204,-0.123930314719,-1.35589431446,0.0794723779385,1.894098293,0.159169282506,-0.000619013572905,-0.00257166819545,0.000449552877744,-0.00383936547573,-0.000139794031964,-0.000140954227866,-0.000368792182318,0.57377540309,0.818998835636,0.00185497641489,0.0,0.818954330625,-0.573717118287,-0.0119674323369,0.0,-0.00873724964535,0.00838592073618,-0.999926665712,0.0,0.661651559013,0.260906860505,0.303154092309,1.0,-0.001,-0.00131428571429,0.051
0.465073556087,0.547706947216,-0.123927098789,-1.35605095805,0.0794707072319,1.89412416796,0.1591652008,0.000840515079802,-0.000844224656689,0.00094687898784,-0.00936757681354,0.000411158874909,0.0062413226452,-0.000988756713636,0.57377201893,0.81900122186,0.00184818440678,0.0,0.818956495845,-0.573713636645,-0.0119861562711,0.0,-0.00875651662434,0.00839106526236,-0.999926454016,0.0,0.661621331766,0.260897868919,0.303163201238,1.0,-0.00136,-0.00178742857143,0.069
0.465059816518,0.547555898908,-0.123927809077,-1.35624891614,0.0794659134702,1.8941739623,0.159169875286,-0.000129517746135,-0.00955948698142,0.00415022351759,-0.0111726613446,-0.000188391679306,0.00975335801543,-0.000550810690215,0.573797205482,0.818983559405,0.00185561470632,0.0,0.81893883848,-0.573738700094,-0.0119929039156,0.0,-0.00875752177632,0.00840129145552,-0.999926359346,0.0,0.661593884287,0.260869460161,0.303180322889,1.0,-0.0017,-0.00223428571429,0.086
0.465046691155,0.547411505428,-0.12392530346,-1.35644266929,0.0794631944054,1.89428830431,0.159157957305,0.00694363276478,-0.00388198043602,0.00200747863484,-0.0105424223639,-2.42223988702e-05,0.00515924818848,-0.00393369858418,0.573806839657,0.818976672512,0.00191508329871,0.0,0.818932690805,-0.573748044063,-0.0119656494309,0.0,-0.00870097997938,0.0084344581928,-0.999926573735,0.0,0.66157908446,0.260848463497,0.303200229578,1.0,-0.00202,-0.00265485714286,0.102
0.465017223812,0.547211918168,-0.123927809115,-1.35667749795,0.0794581635679,1.894407846,0.159142765841,-0.0030500470498,-0.00834993395109,7.39077168426e-05,-0.0155636454802,-0.00250893713228,0.00671215613969,-0.000643384786701,0.573832293992,0.81895863114,0.00200143824543,0.0,0.818915742812,-0.573773102059,-0.0119239435164,0.0,-0.00861701093344,0.00848151644435,-0.999926902829,0.0,0.661562743241,0.260808239414,0.303245131716,1.0,-0.00238,-0.003128,0.12
0.464984328519,0.546978140108,-0.123927809041,-1.35699523072,0.0794540826477,1.8945360883,0.159124829167,-0.0026351242404,-0.012058474316,0.000367313848742,-0.0199385344854,0.000644228241025,0.0018999947697,0.00145439112442,0.573861211382,0.818938280499,0.00203708245389,0.0,0.818895747213,-0.573801760768,-0.0119181138464,0.0,-0.00859148357393,0.00850766520639,-0.99992690035,0.0,0.661530580219,0.260761236188,0.303265771297,1.0,-0.00272,-0.00357485714286,0.137
0.464952988698,0.54674041254,-0.123925312529,-1.35734977305,0.0794444938006,1.89467098029,0.159059258064,-0.00329258439375,-0.0176236793439,0.00114582484522,-0.0203819243787,-8.26656719494e-05,0.00372539546122,-0.00768828019151,0.573848736061,0.818946965422,0.00205981754553,0.0,0.818904610458,-0.573789076593,-0.0119197925755,0.0,-0.00857994234125,0.00852711616171,-0.999926833763,0.0,0.661490552901,0.260710596962,0.303277004449,1.0,-0.00304,-0.00399542857143,0.153
0.4649025288,0.54646168853,-0.123930764245,-1.35777361591,0.079428277286,1.89482396413,0.158938119777,-0.000837542889205,-0.0151570629634,0.000316734004034,-0.0325919738912,-0.00459768386645,0.00541360103416,-0.00159330800357,0.573814034302,0.818971251462,0.00207128430135,0.0,0.818928975897,-0.573754262446,-0.0119216468105,0.0,-0.00857524291124,0.00853720735125,-0.99992678797,0.0,0.661446466475,0.260635175596,0.303286093777,1.0,-0.00338,-0.00444228571429,0.17
0.464859593661,0.546174540486,-0.123928499721,-1.35826279409,0.0794059883743,1.89500014791,0.15892357289,-0.000235829503313,-0.0196629948588,0.0015315325296,-0.0289367297194,-0.00260449387133,0.00936574715181,-0.00113273741169,0.573857148274,0.818941089268,0.00205245826765,0.0,0.818898482695,-0.573797363487,-0.0119418422426,0.0,-0.00860213576917,0.00853383079836,-0.999926585801,0.0,0.661388796959,0.260562141204,0.303271784283,1.0,-0.00372,-0.00488914285714,0.187
0.464804634803,0.545864655776,-0.123931715665,-1.35879156061,0.0793549617585,1.89518049798,0.158866698367,-0.00371573326209,-0.0232470087742,0.000516765141523,-0.0315462842589,-0.00531668140305,0.0163219199218,-0.00334435271985,0.573873768201,0.818929553814,0.00200772569723,0.0,0.818886527629,-0.573814328626,-0.0119464652783,0.0,-0.00863141788854,0.00850002622243,-0.999926621398,0.0,0.661329420978,0.260469210174,0.303255202102,1.0,-0.00404,-0.00530971428571,0.203
0.4647404341,0.545487129405,-0.123931956438,-1.35946366704,0.0792684290496,1.89539972412,0.158747443369,-0.000622527533222,-0.0198747278877,0.000400795421575,-0.036881069345,-0.000718041761355,0.0146863290713,-0.00524891920852,0.573839417019,0.818953820286,0.00192629601074,0.0,0.818910129239,-0.573780710325,-0.0119433492009,0.0,-0.0086759470006,0.00843119018434,-0.99992681881,0.0,0.661255800454,0.260357326369,0.303227915814,1.0,-0.00438,-0.00575657142857,0.22
0.464683793732,0.545095033448,-0.123934200701,-1.36011993725,0.0792552988818,1.89561530265,0.158712817487,-0.0053484907884,-0.0259273066308,0.000333699301777,-0.0404738529828,-0.0016472008046,0.0108170135537,-0.00342589332828,0.573907300405,0.81890633861,0.00188839271382,0.0,0.818861825947,-0.573848429502,-0.0120015359537,0.0,-0.0087446510341,0.0084342641914,-0.999926194409,0.0,0.661165316735,0.260241957776,0.303205351164,1.0,-0.00474,-0.00622971428571,0.238
0.464619442799,0.54468875901,-0.123932407966,-1.36079131643,0.079238411988,1.89585968418,0.158591274652,-0.000472016303445,-0.0276706894409,0.000716208117514,-0.0406597938573,-0.000178803861239,0.0195236889191,-0.0172730722854,0.57388073097,0.818924965166,0.00188545756295,0.0,0.818880196423,-0.573821666101,-0.0120277313089,0.0,-0.00876806185537,0.00844660971835,-0.999925885191,0.0,0.661091119314,0.260151643888,0.303194604103,1.0,-0.00504,-0.006624,0.253
0.464546532214,0.544183461864,-0.123939912039,-1.36161389312,0.079203692053,1.89615553132,0.158489797092,-0.00538005256615,-0.0334396811462,-0.00158774899475,-0.0478315004064,-0.00288738542905,0.0175000948019,-0.00542121382044,0.573899170732,0.818912071541,0.00187291739912,0.0,0.818867018749,-0.573840042303,-0.012048168168,0.0,-0.00879180462267,0.00844826666275,-0.999925662718,0.0,0.660996819801,0.260022554686,0.303186570086,1.0,-0.0054,-0.00709714285714,0.271
0.464472736659,0.543669988803,-0.12394050677,-1.36244570052,0.079163415493,1.89644051458,0.158398066997,-0.00485455542151,-0.030679342726,0.000307984195388,-0.0458239038002,-0.00314167780814,0.0238994810392,-0.00645404096552,0.573920364157,0.818897271397,0.00184970417115,0.0,0.818851785681,-0.573861210491,-0.0120752259634,0.0,-0.00882706606664,0.00844501423843,-0.999925379535,0.0,0.660897277791,0.259894263376,0.30317868967,1.0,-0.00574,-0.007544,0.288
0.464398555479,0.543147074151,-0.123943818985,-1.36325945087,0.0791107461477,1.89672558141,0.158298755599,-0.00858110317752,-0.0362704923835,-0.000379614334202,-0.0483544631624,-0.00460769649041,0.0164590345071,-0.000171875660974,0.573933222617,0.8188882761,0.00184232016087,0.0,0.818842714948,-0.573874120028,-0.0120768141652,0.0,-0.00883247172382,0.00844001781159,-0.999925373987,0.0,0.660803462388,0.259764422908,0.303186093277,1.0,-0.00606,-0.00796457142857,0.304
0.464329542892,0.542568766444,-0.123945921439,-1.36416602115,0.0790539262344,1.89705404637,0.158166976547,-0.00370413866752,-0.034802755361,-6.27792515523e-05,-0.0577956428549,-0.00205344674212,0.0193469927846,-0.0112760863758,0.573918488356,0.818898606006,0.001840843532,0.0,0.818853035393,-0.573859403513,-0.0120763541616,0.0,-0.00883309428178,0.00843838570422,-0.999925382262,0.0,0.660696859757,0.259630688757,0.3031921586,1.0,-0.0064,-0.00841142857143,0.321
0.464248387352,0.54196445903,-0.12394382577,-1.36510502987,0.0790100745099,1.89740941597,0.158037032707,-0.00344774723175,-0.0419683099913,-0.000577210148384,-0.0509229326664,-0.00115692048164,0.0226780175456,-0.00744542069685,0.573917567927,0.818899195261,0.00186550989639,0.0,0.81885381888,-0.573858251906,-0.0120779520647,0.0,-0.00882025679542,0.00845949164877,-0.999925317247,0.0,0.660590153406,0.259491787222,0.303203316517,1.0,-0.00674,-0.00885828571429,0.338
0.464179497715,0.541349986667,-0.123944481217,-1.3660412929,0.0789503660379,1.8977590041,0.157925262627,-0.00656208918025,-0.0432290676776,0.000917449148268,-0.0563329097073,-0.00126394725067,0.0225561295865,-0.00521678482791,0.573918901977,0.81889821093,0.00188705870732,0.0,0.818853146985,-0.573859520951,-0.0120631997236,0.0,-0.00879579541225,0.00846868534916,-0.999925454897,0.0,0.660481376793,0.259356905794,0.303222441993,1.0,-0.00706,-0.00927885714286,0.354
0.464088611107,0.540657963158,-0.123949493501,-1.36710156353,0.0788867256422,1.898145587,0.157782475845,-0.00681140830569,-0.0429603801909,-0.000726908408239,-0.0632658939138,-0.0070712017464,0.026454902311,-0.00868520845428,0.573921602581,0.818896283868,0.00190190946241,0.0,0.818851418924,-0.573862161255,-0.0120548955919,0.0,-0.0087804443788,0.00847610945039,-0.999925526909,0.0,0.660360142467,0.259193149817,0.303240627915,1.0,-0.0074,-0.00972571428571,0.371
0.463994091297,0.539921045837,-0.123946888302,-1.36821659168,0.0788133332388,1.89856658,0.157641941028,-0.00999567121285,-0.0434130271771,0.00111967105086,-0.0687514261055,-0.0108670793664,0.0247858477607,-0.00720520501779,0.573924194139,0.818894388811,0.0019355251643,0.0,0.818850009954,-0.573864652502,-0.0120319868875,0.0,-0.00874236539021,0.00849051664711,-0.99992573833,0.0,0.660233842187,0.259026272168,0.303267086962,1.0,-0.00774,-0.0101725714286,0.388
0.463900352591,0.539208706575,-0.123953479333,-1.36931953418,0.078758642119,1.89898397815,0.157503126238,-0.0085945405573,-0.0462092444729,-0.000955232378861,-0.0747813896726,-0.00664933115712,0.0244095914052,-0.0127031854429,0.573938310413,0.818884430714,0.00196261960681,0.0,0.81884033319,-0.573878580086,-0.0120262612916,0.0,-0.00872198070337,0.00850956801461,-0.999925754396,0.0,0.660109614739,0.258858472781,0.303281841454,1.0,-0.00806,-0.0105931428571,0.404
0.463785998744,0.538445937917,-0.123953379434,-1.37051652381,0.0786925338975,1.89944211826,0.157353291167,-0.00677272094138,-0.049843420246,-0.000693076889361,-0.0686822681629,-0.00196644242817,0.0215163623324,-0.0182642821065,0.573957689073,0.818870793937,0.0019851681976,0.0,0.818826943916,-0.573897814063,-0.0120200595838,0.0,-0.00870375961972,0.0085246789561,-0.999925784455,0.0,0.6599772883,0.258671374196,0.303290642971,1.0,-0.0084,-0.01104,0.421
0.463666942552,0.537612534627,-0.123958965696,-1.37184322714,0.0786071270294,1.89994870093,0.157193618405,-0.00291515802497,-0.0468444388496,0.000213758427404,-0.0749118158938,-0.00940946794375,0.0247479948203,-0.00840944566999,0.57397874131,0.818856024889,0.00199045920881,0.0,0.818812328125,-0.573918923649,-0.012007801176,0.0,-0.00869046545038,0.00852219922247,-0.999925921222,0.0,0.659829753791,0.258463586911,0.303291820112,1.0,-0.00876,-0.0115131428571,0.439
0.463553092705,0.536828568437,-0.123964670693,-1.37306876399,0.0785481657854,1.90040251908,0.157043279367,-0.00268143745405,-0.0474410825746,-0.00135132260321,-0.0754735760439,-0.0061868707567,0.0277677692274,-0.0120556438838,0.57400455613,0.818837888339,0.00200725289386,0.0,0.818794290342,-0.573944545645,-0.0120131398527,0.0,-0.00868492943094,0.00853928862539,-0.999925823524,0.0,0.659690763465,0.258271235918,0.303301555164,1.0,-0.00908,-0.0119337142857,0.455
0.463437724575,0.535978337619,-0.123968350251,-1.37442261063,0.078468965495,1.90091068034,0.156885227546,-0.00686415641449,-0.0468702991531,0.000177090485139,-0.0826242578861,-0.000549496963797,0.0386151208353,-0.0114047985037,0.574025449379,0.818823234525,0.00201021617738,0.0,0.818779664425,-0.573965413089,-0.0120130180778,0.0,-0.00868291093313,0.00854186668502,-0.999925819034,0.0,0.65953535147,0.258065129859,0.3033014766,1.0,-0.00942,-0.0123805714286,0.472
0.463312009857,0.53502465425,-0.123969360588,-1.37592516617,0.0783831176478,1.90144543369,0.156688856118,-0.00457902221844,-0.0490344772172,0.000538875825729,-0.0844212264325,-0.00267787325612,0.0320278719534,-0.00927271953553,0.574027591489,0.8188217557,0.00200087551091,0.0,0.818777973557,-0.57396750614,-0.0120282506769,0.0,-0.00870072332607,0.00854298504099,-0.999925654646,0.0,0.659355506571,0.257838212609,0.303305660811,1.0,-0.00978,-0.0128537142857,0.49
0.463198051293,0.534242373049,-0.123970334328,-1.37722634388,0.0783087492161,1.90190890824,0.156540809705,-0.0113350646586,-0.0486573574864,0.00102374760395,-0.0813983623502,-0.000989310125258,0.0273840270352,-0.00398432853853,0.574051649227,0.81880500174,0.00195449398976,0.0,0.818760531019,-0.573991679408,-0.0120619947636,0.0,-0.00875472691148,0.0085246346496,-0.999925339893,0.0,0.65919970245,0.257637755597,0.303278435529,1.0,-0.01008,-0.013248,0.505
0.463073477142,0.533329799183,-0.123977568458,-1.37871372306,0.0782166987454,1.90247345084,0.156342148203,-0.00556021660295,-0.0567097353487,0.00029655939643,-0.0821505050219,-0.00327012717974,0.0316805594962,-0.0100815789812,0.57405017376,0.818806036468,0.00195436710616,0.0,0.818761563185,-0.573990203797,-0.0120621514322,0.0,-0.0087549433917,0.00852460491751,-0.999925338251,0.0,0.659017461502,0.257401791796,0.303272147307,1.0,-0.01044,-0.0137211428571,0.523
0.462930415402,0.532321099785,-0.123974718518,-1.38035716506,0.0781282300353,1.90309147778,0.156146810217,-0.0102466423393,-0.0569091395185,-0.000733582476013,-0.089928608463,-0.00829469577822,0.039760709611,-0.00938294390641,0.574074159311,0.818789275896,0.00193085228652,0.0,0.818744421026,-0.574014216495,-0.0120830129589,0.0,-0.00878527391262,0.00851758403365,-0.99992513206,0.0,0.658836959626,0.25716345332,0.303245759033,1.0,-0.01078,-0.014168,0.54
0.462813880995,0.53144099934,-0.123973503081,-1.38176614318,0.0780475939111,1.90360417193,0.155963807267,-0.011579246376,-0.0531065701796,-5.34638524566e-05,-0.093227778067,-0.00297333810089,0.0310379835351,-0.00927934120238,0.574073955454,0.818789446094,0.00191925361997,0.0,0.818744355731,-0.574013982287,-0.0120985535801,0.0,-0.00880465908794,0.00851700655634,-0.999924966474,0.0,0.658667902252,0.256953449791,0.303239877926,1.0,-0.01108,-0.0145622857143,0.555
0.46266688204,0.530342776871,-0.123977927908,-1.38350851723,0.0779296304129,1.90421316214,0.155736273459,-0.00758159799335,-0.0683785324524,-0.000757198546357,-0.0911417739346,-0.0108369365654,0.0378561522615,-0.0145770977337,0.574073879176,0.818789586258,0.00188190983218,0.0,0.818744065873,-0.574014127038,-0.012111294729,0.0,-0.00883652930132,0.00849374398543,-0.99992488321,0.0,0.658456726628,0.256683944387,0.303237300876,1.0,-0.01144,-0.0150354285714,0.573
0.46252602471,0.529282964082,-0.123980754504,-1.38515572773,0.0778399541867,1.90482645762,0.15550624306,-0.00946638171428,-0.0679593255646,-0.00143027243375,-0.0959095832447,-0.00423853754296,0.0353509865382,-0.0116897064737,0.574068167994,0.818793528832,0.00190854370791,0.0,0.818748260952,-0.574008206517,-0.0121083004708,0.0,-0.00881884810996,0.00851377062707,-0.999924868992,0.0,0.65826365098,0.256435066853,0.303253051183,1.0,-0.01178,-0.0154822857143,0.59
0.462400274101,0.528262848951,-0.123978939484,-1.38675541954,0.0777345944694,1.90544568104,0.155293169871,-0.00628092078218,-0.0633045075404,0.000214032361714,-0.101778883392,-0.00386121377302,0.0438171554472,-0.00328817396583,0.574053811447,0.818803528882,0.0019363764843,0.0,0.818758711107,-0.573993812993,-0.0120839783479,0.0,-0.00878310509454,0.00852244302597,-0.999925109711,0.0,0.658077304835,0.256201847741,0.303263557715,1.0,-0.0121,-0.0159028571429,0.606
0.462250801904,0.527111829644,-0.123979179175,-1.38850314978,0.0776269171418,1.90612184573,0.155041766174,-0.00913689445345,-0.0724179070469,0.000543039044544,-0.102885729879,-0.00137572823775,0.0345456484026,-0.0106849108985,0.574036101651,0.818815785948,0.00200239481687,0.0,0.818771872102,-0.57397585995,-0.012044938768,0.0,-0.00871342747752,0.00855389893695,-0.999925450718,0.0,0.657877299352,0.255939483676,0.303300483366,1.0,-0.01244,-0.0163497142857,0.623
0.462091777289,0.525867612724,-0.123982138561,-1.39041278169,0.0774939358921,1.90682514843,0.154785082759,-0.00902576964655,-0.0725476617034,0.000649465470474,-0.109126142894,-0.00152779739616,0.0380314136285,-0.0105870928538,0.574025193716,0.818823377952,0.00202474672571,0.0,0.818779898897,-0.573964998652,-0.0120168375496,0.0,-0.0086777008356,0.00855595415027,-0.999925743821,0.0,0.657651059808,0.255649082078,0.303328027832,1.0,-0.0128,-0.0168228571429,0.641
0.461965580269,0.524840194357,-0.123985679118,-1.39204031918,0.0774065773655,1.90740534894,0.154565071414,-0.0105146437656,-0.0689577321208,-0.000995218004033,-0.107241405631,-0.00636455989901,0.042226693972,-0.0143957831821,0.574020076554,0.818826996009,0.00201226745228,0.0,0.818783218652,-0.573959802004,-0.0120388304629,0.0,-0.00870292631324,0.00855830597924,-0.999925504461,0.0,0.657439140373,0.255384588333,0.303326633943,1.0,-0.01312,-0.0172434285714,0.657
0.461790608413,0.523564086306,-0.123990727867,-1.3940638522,0.0772718770227,1.90814585359,0.154288570192,-0.0100320997861,-0.0682035343132,0.0037855708578,-0.112809821947,-0.0103312425009,0.0380967718292,-0.0116915629147,0.574007420734,0.818835899888,0.00199922430096,0.0,0.818792028198,-0.573947278242,-0.0120367462171,0.0,-0.00870883824642,0.00854629511299,-0.999925555717,0.0,0.657208120701,0.255096716478,0.303324910049,1.0,-0.01346,-0.0176902857143,0.674
0.461629980373,0.522344085233,-0.123994154188,-1.39599902385,0.0771601180128,1.90890250823,0.154020397129,-0.00324097447837,-0.0726986595922,-0.000704317306,-0.114551354776,-0.0125318522998,0.0420393332416,-0.0158599996766,0.573995575897,0.818844116694,0.002034283052,0.0,0.818800694009,-0.573935276885,-0.0120194982263,0.0,-0.00867471561666,0.00856497608351,-0.999925692486,0.0,0.656983386931,0.254808744325,0.303327013344,1.0,-0.0138,-0.0181371428571,0.691
0.46147081747,0.521160906414,-0.123992516962,-1.39789493079,0.0770456846105,1.9096249725,0.153765218652,-0.00938643953957,-0.0757447343079,0.000731663546341,-0.121048405712,-0.011450916264,0.0436144330116,-0.0115016261442,0.573986347798,0.818850568081,0.00204122413443,0.0,0.818807217091,-0.573926001832,-0.0120180098955,0.0,-0.00866960954066,0.00856970765411,-0.99992569623,0.0,0.656758088395,0.254526170618,0.303318479913,1.0,-0.01412,-0.0185577142857,0.707
0.461298287814,0.519852146602,-0.124004926137,-1.39994898484,0.076914338915,1.91037022543,0.15348996307,-0.0125473619408,-0.0784189766894,-0.0018674159259,-0.122476064637,-0.0106592207749,0.0489208893666,-0.0199758113321,0.573984835186,0.818851644572,0.00203471361502,0.0,0.818808272503,-0.573924580131,-0.0120139961412,0.0,-0.00867007526677,0.00856205678134,-0.999925757733,0.0,0.65651016052,0.254208413003,0.303324916841,1.0,-0.01446,-0.0190045714286,0.724
0.461131668519,0.518512961247,-0.124003791456,-1.40203155404,0.0767704366917,1.9111008945,0.153215624512,-0.00962387123157,-0.0744658984207,-0.000182927075059,-0.121903662683,-0.0133155251989,0.0457200551912,-0.0184854356387,0.573967142392,0.818864092348,0.00201609011509,0.0,0.818820535625,-0.573907026177,-0.0120167651737,0.0,-0.00868321640329,0.00854820893496,-0.999925762183,0.0,0.656248739129,0.253896521549,0.303337011674,1.0,-0.0148,-0.0194514285714,0.741
0.460964915931,0.517228823892,-0.124004236581,-1.40405335037,0.0766425031442,1.91182869811,0.152934744755,-0.00794279219819,-0.0853466705335,0.000633169411656,-0.123267906124,-0.00920772553785,0.0455755516806,-0.0207495935903,0.573946361673,0.818878684436,0.00200524308436,0.0,0.818834965693,-0.573886274149,-0.0120245666511,0.0,-0.00869604726355,0.00854358392272,-0.999925690207,0.0,0.655998475865,0.25359251188,0.303338856094,1.0,-0.01512,-0.019872,0.757
0.460742467059,0.515627784941,-0.124009144361,-1.40659685759,0.0764882140995,1.91280247123,0.152583540842,-0.0107042425337,-0.0867334554982,1.30951618678e-05,-0.129697385738,-0.00797391037044,0.0541940199523,-0.0176032907815,0.573937315695,0.818884967338,0.00202850212014,0.0,0.818841570984,-0.573877148963,-0.0120102634424,0.0,-0.00867108011858,0.008554324921,-0.999925815196,0.0,0.655697712938,0.253204043766,0.303335728601,1.0,-0.01552,-0.0203977142857,0.777
0.460574565649,0.514407452891,-0.124010522991,-1.40856867672,0.0763726755413,1.91350553185,0.152324677485,-0.0109596362513,-0.0835057173499,0.00040618538676,-0.13933461154,-0.00194186689993,0.036182342789,-0.0154650607809,0.573936319738,0.818885761938,0.00198914096956,0.0,0.818841734669,-0.573876205996,-0.0120441129324,0.0,-0.00872139983666,0.00854150994346,-0.99992548712,0.0,0.65545092978,0.252904259628,0.303313748066,1.0,-0.01582,-0.020792,0.792
0.460387524156,0.512998447627,-0.124013403492,-1.41083792487,0.0762288052979,1.91428815758,0.152005484483,-0.00969242252972,-0.080984693621,0.000140218662014,-0.137842252202,-0.01100775784,0.0473139159309,-0.0158608966888,0.573910002848,0.818904369933,0.00192053011662,0.0,0.818859372921,-0.573850118865,-0.0120878186305,0.0,-0.00879684043019,0.00851012795795,-0.999925093855,0.0,0.655160229414,0.25255917444,0.30328897751,1.0,-0.01616,-0.0212388571429,0.809
0.46021047922,0.511655261888,-0.124018738221,-1.41299800084,0.076104944798,1.9150897083,0.151696838495,-0.0117534136719,-0.0800960778521,0.000271278901397,-0.138764666854,-0.00224726821139,0.0506786134499,-0.0151924611778,0.573885771803,0.818921377397,0.00190931009752,0.0,0.818876140836,-0.573825850471,-0.0121039746879,0.0,-0.00881676188282,0.00850995118287,-0.999924919902,0.0,0.654893689082,0.25223577983,0.303271378377,1.0,-0.01648,-0.0216594285714,0.825
0.459993956826,0.510098927929,-0.124021935459,-1.41545158773,0.0759522364412,1.91602342197,0.151348087799,-0.0135597096088,-0.083785462405,-0.000307299717044,-0.138567727296,-0.0154493865845,0.0529520263468,-0.0217225500789,0.573866663439,0.81893470459,0.00193626234649,0.0,0.81888985292,-0.5738066576,-0.012086164779,0.0,-0.00878690873289,0.0085215967108,-0.999925083506,0.0,0.654599308639,0.251860125576,0.303274197089,1.0,-0.01684,-0.0221325714286,0.843
0.459810060611,0.508758499324,-0.124025030506,-1.41755141219,0.0758112841735,1.91677301559,0.151053305861,-0.0121786857441,-0.0845645123607,-0.000732306598833,-0.14099690448,-0.0148335640688,0.0494122956904,-0.0268187706054,0.573848817469,0.818947245393,0.00192115963293,0.0,0.818902244268,-0.573788926478,-0.0120883863419,0.0,-0.00879757995327,0.0085103119923,-0.999925085782,0.0,0.654337139765,0.251534598979,0.303277795152,1.0,-0.01714,-0.0225268571429,0.858
0.459599150907,0.507223971363,-0.12402926668,-1.4199394138,0.0756657549698,1.91764241432,0.150714968496,-0.0128170607649,-0.0926316522207,0.000561870916725,-0.146812767332,-0.00635635235936,0.0568095394901,-0.0217085940992,0.573831831023,0.81895911607,0.00193463488785,0.0,0.81891424,-0.573771833657,-0.0120870727896,0.0,-0.00878894865506,0.00852041121373,-0.99992507568,0.0,0.654041532361,0.251166510233,0.303289984197,1.0,-0.01748,-0.0229737142857,0.875
0.459366958189,0.505545038235,-0.1240356593,-1.42254392655,0.0755002420443,1.91862860148,0.1503720924,-0.014112870199,-0.0974957212571,-5.2470042436e-05,-0.144813627347,-0.0149134775538,0.0549840214954,-0.00936278536572,0.573835609106,0.818956360102,0.00198011893729,0.0,0.818912153894,-0.573775487091,-0.01205493753,0.0,-0.00873649225765,0.0085392602914,-0.999925374584,0.0,0.653727038062,0.250764206266,0.303309682874,1.0,-0.01784,-0.0234468571429,0.893
0.459142484466,0.503887964915,-0.12403681042,-1.42502263155,0.0753467847077,1.91957413364,0.150013529321,-0.0172157105291,-0.0950718151835,0.00164200684314,-0.150652121862,-0.00283891872523,0.0559507690658,-0.0287543965933,0.573812756234,0.818972112537,0.0020848430089,0.0,0.81892930425,-0.573752221911,-0.0119970577285,0.0,-0.00862923854304,0.00859156921098,-0.999925857842,0.0,0.653429156547,0.250383916248,0.303369563203,1.0,-0.01818,-0.0238937142857,0.91
0.45892841362,0.502304320959,-0.124048444136,-1.42736562729,0.0751953260627,1.9204463588,0.149698329949,-0.0150008640068,-0.101425722684,0.000981527909878,-0.147170789031,-0.00368163596344,0.053739811191,-0.0234683680027,0.573817267358,0.818968716136,0.00217544784594,0.0,0.818927197746,-0.573756466743,-0.0119376950589,0.0,-0.00852858572807,0.00863175515363,-0.999926375304,0.0,0.653145935239,0.25001491126,0.303436074152,1.0,-0.0185,-0.0243142857143,0.926
0.45867100473,0.500386357593,-0.124052423479,-1.43026315424,0.0750040101496,1.92146240074,0.149298575669,-0.0139855165936,-0.097119386977,0.000628515618972,-0.158892121322,-0.00662010187429,0.0568281996846,-0.0236225298448,0.573799164973,0.8189813285,0.00220198670877,0.0,0.818940167814,-0.573738270974,-0.0119224520253,0.0,-0.00850106522348,0.0086445548158,-0.99992649908,0.0,0.652776779025,0.24956425785,0.303483572505,1.0,-0.01888,-0.0248137142857,0.945
0.45846930176,0.498985406738,-0.124060542313,-1.43241877241,0.074872968652,1.92225600618,0.148986289924,-0.010725863639,-0.106650830984,-0.00127084802633,-0.161600210897,-0.00371310529561,0.0534623927027,-0.0201680920987,0.573788703711,0.818988569367,0.00223464565314,0.0,0.818947816152,-0.573727661213,-0.0119076479716,0.0,-0.0084703126323,0.00866269885516,-0.999926603033,0.0,0.652511167819,0.249223352974,0.303503790064,1.0,-0.01916,-0.0251817142857,0.959
0.458197725146,0.497219884366,-0.124060661336,-1.43521955581,0.0747025643553,1.92329136444,0.148572855815,-0.0152511863863,-0.106574726168,-0.00139185137854,-0.155236412395,-0.0132960258667,0.0586042505147,-0.023357181488,0.573768705017,0.819002579292,0.00223498485232,0.0,0.818961751313,-0.573707582708,-0.0119166409294,0.0,-0.00847769512253,0.00866792962751,-0.999926495139,0.0,0.652164272625,0.248779988864,0.303491394091,1.0,-0.01952,-0.0256548571429,0.977
0.457943197927,0.495652523537,-0.12406096548,-1.43776278587,0.0745440826472,1.92416419771,0.148202817717,-0.0181534832374,-0.103086191803,0.00102728160025,-0.161056726863,-0.0122000027613,0.0625777157769,-0.0232458647524,0.573759613561,0.819009181965,0.00214769745529,0.0,0.818967063263,-0.573698693529,-0.011979367033,0.0,-0.00857924554704,0.00863233667654,-0.999925936912,0.0,0.651835864169,0.248366743177,0.303448806971,1.0,-0.01984,-0.0260754285714,0.993
0.457675935094,0.494063616405,-0.124061968697,-1.44036429332,0.0743796536947,1.92509082809,0.14784886466,-0.0237929382518,-0.100927181581,-0.00199005643537,-0.165360834982,-0.0133912776465,0.0636341900645,-0.0116902879928,0.573775674428,0.818998126872,0.00207135629617,0.0,0.818954927217,-0.573714987574,-0.0120285959977,0.0,-0.00866319623265,0.00859822876831,-0.999925506972,0.0,0.651507122727,0.247940938641,0.303397653332,1.0,-0.021996,-0.0289090285714,1.009
0.457387602593,0.491918354879,-0.124123124215,-1.44374172431,0.0741740562226,1.92635344102,0.147363183043,-0.0200715700842,-0.124977797575,-0.00152256713809,-0.207548910061,-0.0192362806097,0.0734002726864,-0.0276642527394,0.573772046211,0.819000637616,0.00208361993849,0.0,0.818957800973,-0.5737115098,-0.0119987770084,0.0,-0.00863177546814,0.00859112504481,-0.999925839761,0.0,0.65109116914,0.247397676719,0.303394612604,1.0,-0.026532,-0.0348706285714,1.027
0.457024992483,0.489559512978,-0.124130654337,-1.44755959861,0.07395592223,1.92771714744,0.146801709539,-0.0182916707258,-0.146197301911,-0.00183187543353,-0.234645729919,-0.0174317944211,0.0904830542386,-0.0348249093964,0.573746234845,0.819018901976,0.00201074845594,0.0,0.818974806137,-0.57368570795,-0.0120715495051,0.0,-0.00873345771545,0.00857292345951,-0.999925113046,0.0,0.650598594282,0.246793252599,0.30333665497,1.0,-0.030816,-0.0405010285714,1.044
0.456602801424,0.486943164563,-0.124151930194,-1.45163965708,0.0737071092273,1.9292437286,0.146209646395,-0.0279702911017,-0.170229234634,-0.000922171265433,-0.262861168797,-0.0163377479569,0.10265331905,-0.0352161220218,0.573757742545,0.819010716464,0.00206060381232,0.0,0.818967278122,-0.573697006246,-0.0120453016259,0.0,-0.0086832360557,0.00859881771852,-0.999925328085,0.0,0.650098118935,0.246120636097,0.303345813218,1.0,-0.034848,-0.0458002285714,1.06
0.456108683349,0.483797295852,-0.124204626754,-1.45646503525,0.073407837857,1.93100771441,0.145463147049,-0.0246122708235,-0.192358598074,-0.00343141923462,-0.291339282489,-0.0185263080182,0.104194435299,-0.0403452162834,0.573745767971,0.819018944783,0.00212337549041,0.0,0.818976440467,-0.573684882284,-0.0119996958155,0.0,-0.00860999555536,0.00862393522948,-0.999925745102,0.0,0.649500606421,0.24530997653,0.303387487112,1.0,-0.039132,-0.0514306285714,1.077
0.45554603428,0.480303661811,-0.124269160906,-1.46196526731,0.0730840379387,1.93291714395,0.144641793139,-0.0351593309081,-0.205733728066,-0.00456214303953,-0.336210843878,-0.0151975901966,0.11591770725,-0.0453574110438,0.573761725714,0.819007973237,0.00204175918457,0.0,0.818964201263,-0.573700983144,-0.012065069041,0.0,-0.00871019618897,0.0085947679895,-0.99992512842,0.0,0.648791679393,0.244379200755,0.303359908563,1.0,-0.043416,-0.0570610285714,1.094
0.454961742448,0.476653111338,-0.124321224051,-1.46753034201,0.0727336251535,1.93494312465,0.143831040874,-0.0347999063125,-0.230296499401,-0.0012480356294,-0.354322427168,-0.0186765387134,0.123800062875,-0.0495763304629,0.573788783673,0.818988801185,0.00212653865755,0.0,0.818946250719,-0.573727791729,-0.0120085941069,0.0,-0.00861501562921,0.00863208366117,-0.999925631553,0.0,0.648092761325,0.243440237951,0.303416600377,1.0,-0.047448,-0.0623602285714,1.11
0.454258556429,0.472476832712,-0.124352071591,-1.47397662546,0.0723623648048,1.93728172834,0.142899224097,-0.0439157539693,-0.251578126103,0.000151936043545,-0.387280788435,-0.020329609545,0.141766479071,-0.0688817983818,0.573837823754,0.818954266143,0.00219291978249,0.0,0.818912236845,-0.573776200609,-0.0120152762099,0.0,-0.00858188175777,0.00869079612115,-0.999925407902,0.0,0.647219220087,0.242291710699,0.303438110605,1.0,-0.051984,-0.0683218285714,1.128
0.453504547496,0.46791437865,-0.124383058948,-1.48084179464,0.0719294150282,1.93983812089,0.141813127752,-0.052954446293,-0.281299682788,-0.000947963331341,-0.407390991921,-0.0325079230136,0.159530827151,-0.0637701661364,0.57379379426,0.818984505995,0.00240987744755,0.0,0.818945388124,-0.57373138589,-0.0118951677815,0.0,-0.00835949672771,0.00879910088631,-0.999926344606,0.0,0.646407427337,0.241204170384,0.303546549024,1.0,-0.056016,-0.0736210285714,1.144
0.452733360306,0.463333416712,-0.124391300378,-1.4878711549,0.0714622213919,1.9423089216,0.140716941922,-0.0515068660786,-0.289926892989,0.00123961259946,-0.457536782186,-0.0255609348055,0.153833055802,-0.0673199834283,0.57373627101,0.819024769405,0.00242184438321,0.0,0.818985712857,-0.573673723581,-0.0118999121717,0.0,-0.00835713523785,0.00881103682311,-0.999926259242,0.0,0.645478153186,0.240024078356,0.303574101754,1.0,-0.060048,-0.0789202285714,1.16
0.451795487031,0.457818280774,-0.12443372684,-1.49635323477,0.0708880439759,1.94521236982,0.139459872036,-0.0555067018261,-0.312620540339,-0.00207044008879,-0.479126597597,-0.0341782956784,0.166512248577,-0.0734378772027,0.573741792422,0.819021109517,0.0023504671786,0.0,0.818981084562,-0.573679486498,-0.0119405528747,0.0,-0.00843131238854,0.00877595133226,-0.999925945083,0.0,0.644338596443,0.23857133146,0.303586351655,1.0,-0.064584,-0.0848818285714,1.178
0.450818932779,0.452332858936,-0.124468657001,-1.50476455072,0.0703178564635,1.94826445499,0.138093343293,-0.0632772953626,-0.336688786168,-0.00145960457928,-0.496093503682,-0.0338875226893,0.184118512314,-0.0841295123195,0.573677410922,0.819065957553,0.00243562667518,0.0,0.819027240684,-0.573614986518,-0.011873211905,0.0,-0.00832799205544,0.00880640761076,-0.999926543169,0.0,0.643240587685,0.237118266632,0.303617324172,1.0,-0.068868,-0.0905122285714,1.195
0.449839519009,0.446785773445,-0.124506895186,-1.51303621375,0.0697772590717,1.95134038529,0.136840708625,-0.0593261665299,-0.354333527229,0.000506327023245,-0.534776596816,-0.0338079928398,0.187153272652,-0.0694396925457,0.573708399956,0.819043349031,0.00272233873069,0.0,0.819008568918,-0.573645138539,-0.0117032461574,0.0,-0.00802396403516,0.00894404157571,-0.999927807455,0.0,0.642171840313,0.235686737336,0.303751422259,1.0,-0.0729,-0.0958114285714,1.211
0.448863814844,0.441447526141,-0.124533516519,-1.5213791422,0.069211852218,1.95412135819,0.13557216192,-0.0644312948754,-0.360252567168,0.000135699828537,-0.570778618795,-0.041138002939,0.19300274617,-0.0908626852495,0.57370377728,0.819047222693,0.00252385324718,0.0,0.819009537408,-0.573640886794,-0.0118430373583,0.0,-0.00825238032557,0.00886162576112,-0.999926682216,0.0,0.641005661014,0.234233163999,0.303676550772,1.0,-0.07668,-0.100779428571,1.226
0.447525111339,0.434241433536,-0.124564524729,-1.53232698895,0.0684771598953,1.95791871061,0.133774473929,-0.070415460217,-0.390328405888,-0.000712028207587,-0.569041661939,-0.0376699570771,0.212847115955,-0.0938044700603,0.57362832939,0.819099937195,0.00256505538679,0.0,0.819062564637,-0.573565051725,-0.0118487784755,0.0,-0.00823426611465,0.00889790715804,-0.999926509354,0.0,0.639504024989,0.232307465488,0.30371699468,1.0,-0.081468,-0.107072228571,1.245
0.446294184556,0.427964154688,-0.124590354844,-1.54191185839,0.0677801797498,1.96136165282,0.132216484857,-0.0787267305192,-0.401399317534,0.000968254546747,-0.61558081176,-0.0430458423348,0.20645849218,-0.102130518932,0.573601875697,0.819118290791,0.00261931083871,0.0,0.819082026021,-0.573538836473,-0.0117721964127,0.0,-0.00814070164733,0.008898155689,-0.999927273256,0.0,0.638121006756,0.230475159899,0.303726299246,1.0,-0.085752,-0.112702628571,1.262
0.444896184144,0.42100314775,-0.124700734917,-1.55267359656,0.0670067552034,1.96488064976,0.130435294986,-0.0856632989133,-0.406998342902,-0.0100105451037,-0.636065061766,-0.0486558667086,0.208312103019,-0.110437698006,0.573620727654,0.819105844782,0.00237123405292,0.0,0.819066384441,-0.573558661621,-0.0118939674043,0.0,-0.00838253777853,0.00876499309279,-0.999926451274,0.0,0.636597717941,0.228460620327,0.303660570388,1.0,-0.090036,-0.118333028571,1.279
0.443405427574,0.413624659928,-0.124795175173,-1.56361573907,0.0662492156123,1.96883415944,0.128680223423,-0.0888322895506,-0.432421458143,-0.00318920539315,-0.663243825335,-0.0331920596275,0.237974442414,-0.112477118771,0.573704082041,0.819046571077,0.00266224678526,0.0,0.819011331672,-0.573641389071,-0.0116936837679,0.0,-0.00805065164942,0.00888929554308,-0.99992808113,0.0,0.635210763393,0.226542596628,0.30378732617,1.0,-0.094068,-0.123632228571,1.295
0.441905183939,0.4065413995,-0.124819046571,-1.5744378081,0.0655201771261,1.97243686302,0.126847906276,-0.0945626232134,-0.452076357111,-0.00586700761234,-0.693161417054,-0.048280275624,0.222889819427,-0.110268389698,0.573687416276,0.81905857935,0.00255712746554,0.0,0.819021319683,-0.573624394327,-0.0118270469039,0.0,-0.008220371809,0.00887954085057,-0.999926786941,0.0,0.63365153837,0.224538722139,0.30373927297,1.0,-0.0981,-0.128931428571,1.311
0.440096483681,0.398203854148,-0.124934523551,-1.58689083407,0.0646331576001,1.97674630887,0.124739710791,-0.0982905792255,-0.471356049114,-0.00794463409723,-0.684613568928,-0.0591496584555,0.255610968572,-0.119652689405,0.573775991855,0.81899611687,0.00268674963435,0.0,0.818960826964,-0.573712795004,-0.011727729912,0.0,-0.00806369786665,0.00892960448744,-0.999927616851,0.0,0.631908026572,0.222140554737,0.30380981099,1.0,-0.102636,-0.134893028571,1.329
0.438199750699,0.389645953207,-0.124983800472,-1.59978408194,0.0636498851668,1.98113786928,0.122557291223,-0.107834211159,-0.471866210584,-0.00325726673092,-0.731774034154,-0.0504026781654,0.233153713367,-0.122794010678,0.573800252367,0.818979137822,0.00268124929961,0.0,0.818944125823,-0.573737458858,-0.0116873428842,0.0,-0.00803351150897,0.00890216505448,-0.999928104491,0.0,0.630050240012,0.219677229557,0.303807256752,1.0,-0.107172,-0.140854628571,1.347
0.436537219273,0.382232394944,-0.125030472139,-1.61092657698,0.0628093424873,1.98470885254,0.120525019955,-0.11045254217,-0.508638253233,-0.0035706297963,-0.739334015668,-0.0499159093376,0.248006642971,-0.134058480286,0.57371446244,0.819039737873,0.00252394007568,0.0,0.819002477687,-0.573652025944,-0.011791589145,0.0,-0.00821007481407,0.0088322884521,-0.999927290033,0.0,0.628380820309,0.217526419832,0.303782811783,1.0,-0.110952,-0.145822628571,1.362
0.434427682037,0.37309380595,-0.12508601412,-1.62455260551,0.0618209883669,1.98935737144,0.118107749555,-0.120686178497,-0.518543513314,-0.00537508017801,-0.755480976511,-0.0700012089586,0.248997612645,-0.131732828771,0.573728032239,0.819029862894,0.00264113836493,0.0,0.818994029021,-0.573665058822,-0.0117442588262,0.0,-0.00810392592642,0.00890125843398,-0.999927544367,0.0,0.626381516732,0.214882400015,0.303806680979,1.0,-0.115488,-0.151784228571,1.38
0.432411206681,0.364717882588,-0.125196702942,-1.63700474006,0.06085311602,1.99337808263,0.115956746495,-0.129142813965,-0.538907485719,-0.00959769412089,-0.763245579986,-0.0547040198925,0.261484978156,-0.129818940657,0.573869990131,0.818930703171,0.0025465136308,0.0,0.818893829977,-0.573807551062,-0.0117701516879,0.0,-0.00817788729767,0.00884003133121,-0.999927485374,0.0,0.624513134958,0.212361734465,0.303807959404,1.0,-0.11952,-0.157083428571,1.396
0.429793848334,0.353948358349,-0.125284879065,-1.65298625025,0.059643615634,1.99860081815,0.112953685611,-0.137201245897,-0.541332536691,-0.00123548947566,-0.830681126312,-0.0602260132725,0.259715687076,-0.149591500621,0.573829747848,0.818958962146,0.00252699553897,0.0,0.818921641837,-0.573767177793,-0.0118032673535,0.0,-0.00821664267887,0.00884264751327,-0.99992714453,0.0,0.622079632313,0.209163461522,0.303800556764,1.0,-0.12456,-0.163707428571,1.416
0.427955803207,0.346745728713,-0.125339427758,-1.66358270879,0.0588501969571,2.0019820395,0.110958118405,-0.141752969742,-0.567264748649,-0.00327248156171,-0.819990156895,-0.0647594350163,0.270290625809,-0.160544502414,0.573871429082,0.818929800503,0.00251229636097,0.0,0.818891908592,-0.573808500719,-0.0118572107242,0.0,-0.00826880540473,0.00886198424584,-0.999926543348,0.0,0.620445140329,0.206987909217,0.303812549773,1.0,-0.127836,-0.168013028571,1.429
0.425388165253,0.336577269626,-0.125402899503,-1.6784494102,0.0576635917128,2.00687389679,0.108146480679,-0.152203336744,-0.561445178068,-0.000527252062433,-0.864763483367,-0.0701527881061,0.268766196382,-0.166161508516,0.573860804771,0.818936886047,0.00262684597519,0.0,0.818900754626,-0.573797743515,-0.0117664995708,0.0,-0.00812889873154,0.00890363048687,-0.999927320544,0.0,0.618146347301,0.203962027046,0.303860390919,1.0,-0.132372,-0.173974628571,1.447
0.423180709213,0.327846627885,-0.125395794262,-1.69115577709,0.0566061456224,2.01086137717,0.10566831545,-0.147760344173,-0.594153904339,0.000386200847163,-0.841263813398,-0.0713555533066,0.281822658106,-0.153548653056,0.573722043507,0.819034194512,0.00259844488372,0.0,0.818997671296,-0.573659079397,-0.0117822721559,0.0,-0.00815961938283,0.00888804068953,-0.999927209023,0.0,0.616103210415,0.201399690151,0.303887586002,1.0,-0.136152,-0.178942628571,1.462
0.420358986167,0.317178754706,-0.125403989732,-1.70664314069,0.0553458548775,2.0158228868,0.102666882261,-0.162233745967,-0.600668736085,0.000926694433947,-0.850597338821,-0.0782363924894,0.285330660765,-0.167869728294,0.573680917744,0.819062729741,0.00268258579295,0.0,0.8190272436,-0.573617590767,-0.0117465188582,0.0,-0.00808251301483,0.008936036613,-0.999927407482,0.0,0.613621945646,0.198212623901,0.303920251171,1.0,-0.140688,-0.184904228571,1.48
0.417378883776,0.306219239966,-0.125464740893,-1.72238762049,0.0540207373694,2.02078033089,0.0994121091824,-0.166710835168,-0.61328229879,-0.00368213663028,-0.894964627362,-0.0836962292689,0.278277139969,-0.176950157245,0.573566983867,0.819142216087,0.00277339904903,0.0,0.81910816262,-0.573503634094,-0.0116681837347,0.0,-0.00796750084781,0.0089643713431,-0.999928076902,0.0,0.611072628342,0.194882928041,0.30398969599,1.0,-0.145224,-0.190865828571,1.498
0.414747290749,0.297023628273,-0.125524431755,-1.73587938022,0.0529150685576,2.02482352119,0.0966783659072,-0.173802265303,-0.614669108499,-0.00424428113157,-0.912497176328,-0.0704762762821,0.264673978633,-0.181535840282,0.573577588787,0.819135532551,0.00254477032445,0.0,0.81909789708,-0.573514395889,-0.011858313857,0.0,-0.00825426274122,0.00888625017832,-0.999926448147,0.0,0.608819094437,0.191984854821,0.303882222527,1.0,-0.149004,-0.195833828571,1.513
0.411415343399,0.285589334082,-0.125660610161,-1.75204735249,0.0516099057851,2.02988013857,0.0932776062208,-0.185287916238,-0.623623451303,-0.00447925589325,-0.919201163244,-0.0744502580804,0.28427809267,-0.191749731935,0.573672285757,0.819068391217,0.00279749236479,0.0,0.819033965334,-0.573608066517,-0.0117429364705,0.0,-0.00801375818628,0.00902801228827,-0.999927134682,0.0,0.606171835933,0.188406321952,0.304005582917,1.0,-0.15354,-0.201795428571,1.531
0.408135653314,0.274705772221,-0.12576771272,-1.76770151507,0.0502567463782,2.03449117459,0.0899239052606,-0.205648942,-0.661620147016,-0.00611128534899,-0.907677905734,-0.0769443089891,0.286429827032,-0.196633368435,0.573683225363,0.819061306318,0.00262303850743,0.0,0.819024330225,-0.57361933228,-0.0118640227303,0.0,-0.00821289448218,0.00895469558805,-0.999926178171,0.0,0.603506315404,0.184916577845,0.303948750561,1.0,-0.157824,-0.207425828571,1.548
0.404854879298,0.26419466609,-0.125901936072,-1.78253429853,0.0489602063413,2.03900079341,0.0866613143475,-0.212386219803,-0.653225416121,-0.00805122240289,-0.923040212387,-0.0767859393197,0.274797574575,-0.201293914995,0.57376730599,0.819002062062,0.00272906871428,0.0,0.818966760508,-0.57370333475,-0.0117760681497,0.0,-0.0080791038232,0.00899191258371,-0.999926934125,0.0,0.601008675643,0.181516789181,0.304002426628,1.0,-0.161856,-0.212725028571,1.564
0.400990873769,0.252142279713,-0.126068429002,-1.79949783582,0.04742734689,2.04397929265,0.0829349910387,-0.213740954785,-0.671355598856,-0.00415790639567,-0.957094834216,-0.0855950534429,0.278606319472,-0.202908892726,0.573926130765,0.818890811993,0.00271686593491,0.0,0.818855642345,-0.573862506102,-0.0117476802152,0.0,-0.00806111509777,0.00896719429796,-0.999927301282,0.0,0.598087357177,0.177566130729,0.30403117948,1.0,-0.166392,-0.218686628571,1.582
0.397243172737,0.240666953686,-0.126127829999,-1.81580551206,0.0459685943026,2.04867079283,0.0791523949648,-0.226137501392,-0.675738103775,-0.00151264538964,-0.965913362107,-0.0807583421227,0.267575192139,-0.226803739587,0.573843457359,0.818949220317,0.00257058146579,0.0,0.81891163956,-0.573779828049,-0.0118820208302,0.0,-0.00825598285653,0.00892367080472,-0.999926100693,0.0,0.59519069488,0.173833398749,0.303943207276,1.0,-0.170676,-0.224317028571,1.599
0.393592393712,0.229547121042,-0.126171088574,-1.83106026991,0.0445925295602,2.0532164697,0.0755896166518,-0.232866075903,-0.692752511988,-0.00170890337542,-0.966039371194,-0.0938940739245,0.274760724507,-0.231129938181,0.573829295739,0.818958112647,0.00288027458058,0.0,0.818924772569,-0.573764778058,-0.011702274753,0.0,-0.00793122544058,0.00907401098872,-0.999927376357,0.0,0.592499628535,0.170300979926,0.304078061173,1.0,-0.174708,-0.229616228571,1.615
0.389775856662,0.218328954766,-0.12620873577,-1.84664671522,0.043073381236,2.05755446994,0.07179484213,-0.247085055505,-0.720465980716,-0.00452548399976,-0.967774411786,-0.0874043657572,0.280809569767,-0.235476985708,0.573686862683,0.819058219196,0.00278640523255,0.0,0.8190238224,-0.573622875696,-0.0117269655249,0.0,-0.00800687587422,0.00900991179381,-0.999927353075,0.0,0.589653585284,0.166640047347,0.30406632871,1.0,-0.17874,-0.234915428571,1.631
0.38551578827,0.20618356306,-0.126321723876,-1.86332870592,0.041570160673,2.06220826226,0.0677182568439,-0.253209177558,-0.708290413352,-0.00745002291548,-1.00545844145,-0.0932399021166,0.277549274146,-0.245287239304,0.5737483778,0.819014886001,0.00285698834611,0.0,0.81898084516,-0.573683498176,-0.011762911286,0.0,-0.00799514630864,0.00908894498921,-0.999926731673,0.0,0.586406101617,0.162388170828,0.30409033343,1.0,-0.183276,-0.240877028571,1.649
0.381357531217,0.194545429068,-0.126441709684,-1.87914124636,0.0400429397618,2.06651069082,0.0637033784838,-0.262571029603,-0.737909954749,-0.0100283049013,-0.992063435387,-0.0977460855817,0.279681002568,-0.248614593066,0.573724475653,0.819031330816,0.00294144172256,0.0,0.818998460784,-0.573659387777,-0.0117121709981,0.0,-0.00790540154501,0.00912877116502,-0.999927082423,0.0,0.583652622149,0.158766259441,0.304162566009,1.0,-0.187056,-0.245845028571,1.664
0.376363978101,0.181331475587,-0.126630494099,-1.89714199356,0.038375065865,2.07127679631,0.0589806606646,-0.282704700507,-0.746445477665,-0.0093207843156,-0.98918571758,-0.101453938197,0.260463299658,-0.26852823502,0.573829077478,0.818958090371,0.00292966861949,0.0,0.81892422324,-0.573763045629,-0.0118250142597,0.0,-0.00800340959736,0.00918489045998,-0.999925788857,0.0,0.580257725286,0.154232630864,0.304154407055,1.0,-0.191592,-0.251806628571,1.682
0.371482499159,0.168667677539,-0.126733062058,-1.91420544515,0.0366354714424,2.07576574092,0.0544314399544,-0.289970436351,-0.725082556248,-0.00269525781248,-0.997238858321,-0.108284047677,0.253801060778,-0.281236398151,0.573837590988,0.818952094518,0.00293818913828,0.0,0.818918557859,-0.573771779817,-0.0117935228253,0.0,-0.00797263370614,0.00917388096483,-0.999926135782,0.0,0.576991139625,0.149915999892,0.304178955593,1.0,-0.195876,-0.257437028571,1.699
0.367084755473,0.157251320911,-0.126781354005,-1.92937353581,0.0351089145086,2.0797249711,0.0502368586519,-0.294169669729,-0.765079787493,-0.0040317260327,-1.00755919968,-0.104388297737,0.269916688284,-0.276439155537,0.573719371354,0.819034402032,0.00307865593299,0.0,0.819002700876,-0.573653096857,-0.0117237931587,0.0,-0.00783626028146,0.00924777281336,-0.999926533163,0.0,0.574036292793,0.146110293132,0.304252919946,1.0,-0.199656,-0.262405028571,1.714
0.361555612235,0.143565105917,-0.126865157815,-1.94780107134,0.0331678116099,2.08428101781,0.0451250629261,-0.308746232386,-0.774962598014,-0.00364642508605,-1.01566921935,-0.102012451968,0.252418610039,-0.287304226588,0.573670444165,0.819069445913,0.00286551305308,0.0,0.819034676825,-0.573604591365,-0.0118624544307,0.0,-0.00807265795751,0.00915227026906,-0.999925531298,0.0,0.570358579481,0.141389756355,0.304163493815,1.0,-0.204192,-0.268366628571,1.732
0.35573547746,0.129555389787,-0.127035455619,-1.96613947092,0.0312767876643,2.08888959048,0.0396809061326,-0.332943435946,-0.781412020225,-0.00865776543699,-1.02216258431,-0.10544693497,0.248002229467,-0.302151422218,0.573643899577,0.819087327314,0.0030616357023,0.0,0.819055200378,-0.573577452936,-0.0117571731151,0.0,-0.00787421789879,0.00925225741203,-0.999926193489,0.0,0.566708859754,0.136531782808,0.304253982196,1.0,-0.208728,-0.274328228571,1.75
0.350277575814,0.116905594561,-0.12723078356,-1.9825992502,0.0294522356084,2.09290307497,0.0347907167163,-0.341246070662,-0.779008438226,-0.011559328627,-1.02558919008,-0.107496165274,0.253651340946,-0.304523118622,0.573762700522,0.819003814879,0.00314031937872,0.0,0.81897344094,-0.573696840427,-0.0116269179109,0.0,-0.00772104747292,0.00924310794503,-0.999927472561,0.0,0.563388608868,0.132044781646,0.304319097859,1.0,-0.21276,-0.279627428571,1.766
0.344283225554,0.103414057496,-0.127358626227,-2.00023273057,0.0275409598962,2.09695423792,0.0293195680889,-0.355222961755,-0.831586661617,-0.00383694033472,-1.038226717,-0.100719301213,0.222647815398,-0.318172125455,0.573741782328,0.819018859295,0.00303681265996,0.0,0.818986669898,-0.573675713715,-0.0117369895631,0.0,-0.0078708216711,0.00922128793695,-0.999926506307,0.0,0.559719778308,0.127252589909,0.30428017334,1.0,-0.217044,-0.285257828571,1.783
0.338144028332,0.0897372455447,-0.12746921827,-2.01785609345,0.025643458987,2.10101998633,0.0236792736929,-0.371152678761,-0.780531911883,-0.00535503659083,-1.04208578348,-0.0969706090046,0.22730459646,-0.326948817418,0.57366201546,0.819074404998,0.0031237791073,0.0,0.819042969466,-0.573595214483,-0.0117426995164,0.0,-0.00782651055699,0.00929502894562,-0.999926171359,0.0,0.556010007819,0.122455244405,0.304298255761,1.0,-0.221328,-0.290888228571,1.8
0.332062656374,0.0765914856682,-0.127621111716,-2.03449273311,0.0237594408451,2.10467563911,0.0181257910614,-0.384477703674,-0.806120236897,-0.00708511118788,-1.02966873484,-0.129035267342,0.241701018691,-0.346683054425,0.573603721039,0.81911486258,0.00321869711081,0.0,0.819084770677,-0.5735367403,-0.0116830164027,0.0,-0.00772384003415,0.00933798725165,-0.999926569449,0.0,0.552456565389,0.117782341611,0.304380344784,1.0,-0.22536,-0.296187428571,1.816
0.325275503981,0.0626476932789,-0.127841921657,-2.05235667814,0.021736328522,2.10840126193,0.0120965000994,-0.405477839956,-0.794086682234,-0.0140435362156,-1.04672644729,-0.121377313755,0.210956236998,-0.366024419632,0.573713801845,0.819038420732,0.00304726759603,0.0,0.819005306202,-0.573646459119,-0.0118657176206,0.0,-0.00797057781272,0.00930343341824,-0.999924955192,0.0,0.548561613784,0.11264901877,0.304298329378,1.0,-0.229644,-0.301817828571,1.833
0.318218373376,0.0485513490348,-0.128031276385,-2.06995329263,0.0196648100988,2.11212539332,0.005866199924,-0.407953052028,-0.806164906967,-0.00181498032075,-1.0375101342,-0.121388516788,0.210511505563,-0.369245415649,0.573799971509,0.818977560592,0.00317723847331,0.0,0.818946525092,-0.573732616705,-0.0117567202094,0.0,-0.00780575497947,0.00934817410964,-0.999925838165,0.0,0.544713658941,0.107471443355,0.304364065551,1.0,-0.22998,-0.302259428571,1.85
0.311523584948,0.0353228770574,-0.128129525085,-2.08641687629,0.0178077854121,2.11538812702,-0.000105113573258,-0.425255265245,-0.82215232895,-0.00476507905322,-1.02018691226,-0.117865502374,0.207612188339,-0.382281691457,0.57378036637,0.818991073401,0.00323415500793,0.0,0.818959873385,-0.573711729073,-0.0118458689506,0.0,-0.00784633933192,0.00944575206227,-0.999924603521,0.0,0.54100226131,0.102690590239,0.304373520866,1.0,-0.22998,-0.302259428571,1.866
0.30422123,0.0214292256096,-0.128278429315,-2.10369221384,0.0156335214855,2.11862589784,-0.00655458463146,-0.431806024024,-0.811374855451,-0.0104218687321,-1.0156739487,-0.12440164089,0.185536096544,-0.385480148573,0.573746786737,0.81901530832,0.00304899116787,0.0,0.818981674981,-0.573678802132,-0.0119329347252,0.0,-0.00802426910429,0.00934373074438,-0.999924150024,0.0,0.53703952821,0.0975358473643,0.30431704141,1.0,-0.22998,-0.302259428571,1.883
0.29619376246,0.00674724958279,-0.128506113995,-2.12145821247,0.0134353143098,2.12193517845,-0.0135536167427,-0.452717749731,-0.789468784304,-0.0140460685476,-0.982016436782,-0.117542140901,0.174917002282,-0.3960413245,0.573880425731,0.818921125087,0.00319292198865,0.0,0.818889693252,-0.573812286457,-0.0118269648666,0.0,-0.00785336470976,0.00940209556011,-0.999924959815,0.0,0.532951351568,0.0920075615396,0.304407231558,1.0,-0.22998,-0.302259428571,1.901
0.289452483511,-0.00540843871252,-0.128581746402,-2.13601892927,0.0117056203785,2.12453923458,-0.019540844474,-0.447385753695,-0.796567810222,0.00026618348242,-0.952378004057,-0.124286514599,0.185048004435,-0.412761494184,0.573832600957,0.818953864269,0.00338543626372,0.0,0.818924548509,-0.573763326498,-0.0117888047095,0.0,-0.00771219648331,0.00953740095692,-0.999924777175,0.0,0.529526043331,0.0875222209951,0.304487661113,1.0,-0.22998,-0.302259428571,1.916
0.281696038047,-0.0189958197532,-0.12866165832,-2.15242673199,0.00955973524965,2.12729332982,-0.0263489335108,-0.454141977677,-0.811576186688,-0.00626698939487,-0.964597787511,-0.130153965938,0.152821115291,-0.406790897132,0.573742770337,0.819017232769,0.00327914846499,0.0,0.818986564211,-0.573673913934,-0.0118319489037,0.0,-0.0078095584733,0.00947425608617,-0.999924621793,0.0,0.52558027193,0.0824268787214,0.304449577829,1.0,-0.22998,-0.302259428571,1.933
0.27368834813,-0.0326042397693,-0.128847513662,-2.16839613173,0.00747275984187,2.12991169459,-0.0332953599118,-0.476207728355,-0.773247167741,-0.0133318713738,-0.951830605078,-0.127687098116,0.160960697095,-0.404916932359,0.573829278524,0.818955943174,0.00344516335567,0.0,0.818927992252,-0.573760538351,-0.0116848208579,0.0,-0.00759280088976,0.00952661644928,-0.999925793724,0.0,0.521718090625,0.077249943821,0.304553166786,1.0,-0.22998,-0.302259428571,1.95
0.265940869685,-0.0451844305955,-0.129004457163,-2.18336310117,0.00564024432319,2.13209052056,-0.0400512275196,-0.480797773938,-0.806644632144,-0.00768389598671,-0.908148743013,-0.0972949092893,0.130676906505,-0.426198730672,0.573936862877,0.818880756338,0.00339576663916,0.0,0.818850500511,-0.573866211221,-0.0119237717414,0.0,-0.00781558196078,0.00962430265667,-0.999923141785,0.0,0.51776683507,0.0720675782557,0.304495871642,1.0,-0.22998,-0.302259428571,1.967
0.257186431516,-0.0592949848753,-0.129121166751,-2.19967424518,0.00343236632591,2.1345430619,-0.0476992174885,-0.495141185251,-0.761983363117,-0.00393092168985,-0.913502095787,-0.119502982362,0.120894263208,-0.424248660857,0.573881779976,0.818918847087,0.00351729984587,0.0,0.818890936617,-0.573811664078,-0.0117709385849,0.0,-0.00762132251154,0.00963559766736,-0.999924532503,0.0,0.513908734122,0.0669648073419,0.304564838878,1.0,-0.22998,-0.302259428571,1.984
0.24872228867,-0.0725287593375,-0.12928271407,-2.21498465308,0.00135823675005,2.13659145243,-0.0551107341939,-0.504121955128,-0.780214822196,-0.0118299586395,-0.890863142311,-0.13028572137,0.126774788856,-0.430026828202,0.573869434172,0.818927609176,0.00349146874174,0.0,0.818899095389,-0.573799071014,-0.0118171305938,0.0,-0.00767412073458,0.00964083625754,-0.999924078192,0.0,0.509978771112,0.0618229699561,0.304556184204,1.0,-0.22998,-0.302259428571,2.001
0.240512888745,-0.0848374064806,-0.129448160892,-2.22915063265,-0.000518622981251,2.13838873972,-0.0622593635561,-0.512420789831,-0.762908029987,0.000728684391132,-0.890663760708,-0.116604824527,0.11108638748,-0.449085018669,0.573938179005,0.81887944366,0.00348860050332,0.0,0.818850122688,-0.573866851369,-0.0119189083059,0.0,-0.00775830618749,0.00969754418675,-0.999922880187,0.0,0.506289325851,0.0569448102547,0.304523007247,1.0,-0.22998,-0.302259428571,2.017
0.231796548034,-0.0979228722891,-0.129523626947,-2.24388235322,-0.00256302546921,2.14012372646,-0.069957260932,-0.520419433187,-0.766085764761,-0.0021264445418,-0.837165525559,-0.12740789013,0.101502990843,-0.45460803138,0.573780567038,0.8189896229,0.00355040447861,0.0,0.818961180224,-0.573709134262,-0.0118811384933,0.0,-0.00769377778361,0.00972499706014,-0.999923112152,0.0,0.50214882103,0.0516004373053,0.304570800991,1.0,-0.22998,-0.302259428571,2.035
0.222793513184,-0.1107990454,-0.129678879234,-2.25848001804,-0.00464139249552,2.14165218404,-0.0777643836156,-0.541016750531,-0.769675677402,-0.0124236308897,-0.878818081439,-0.125062128671,0.0849913535743,-0.47094154474,0.573836393267,0.81895119139,0.00338921593017,0.0,0.818919856567,-0.573764561269,-0.0120517074666,0.0,-0.00792530078343,0.00969139115807,-0.999921630202,0.0,0.498186961455,0.0464349496546,0.304489852711,1.0,-0.22998,-0.302259428571,2.052
0.213022369455,-0.124451168153,-0.129876416127,-2.27345203708,-0.00673938122972,2.14318291951,-0.0862709592962,-0.542682439454,-0.756067833953,-0.00599376044593,-0.80729434783,-0.0993688768389,0.0825742325417,-0.480291062469,0.573910691369,0.818898190488,0.00360816420947,0.0,0.818869979256,-0.573838373413,-0.011925819619,0.0,-0.00769567719077,0.00979916139828,-0.999922373481,0.0,0.494330573047,0.0412755223053,0.304590915265,1.0,-0.22998,-0.302259428571,2.069
0.203694643855,-0.137152707093,-0.12998854005,-2.28752383679,-0.00877885751331,2.14434730109,-0.0944772006017,-0.56084595452,-0.750182206503,-0.0096086350054,-0.810593924768,-0.122567088522,0.0599977921391,-0.488418695484,0.573821440482,0.818961294578,0.00347840873201,0.0,0.81893054658,-0.573748558084,-0.0120871367816,0.0,-0.00790331735537,0.00978462178777,-0.999920896247,0.0,0.490363969208,0.0361739476287,0.304535325206,1.0,-0.22998,-0.302259428571,2.086
0.194131805819,-0.149829158042,-0.130194892544,-2.30111001515,-0.0107788315284,2.14559009848,-0.102859505172,-0.569256055636,-0.73013292026,-0.0180237297319,-0.787984894429,-0.119701029656,0.0628224775285,-0.488019452385,0.573859883544,0.818933257994,0.00372825837378,0.0,0.818906723652,-0.573787295301,-0.0118602111907,0.0,-0.00757363991844,0.0098593850862,-0.999922713265,0.0,0.486535228425,0.0310146564682,0.304642059626,1.0,-0.22998,-0.302259428571,2.103
0.185016312703,-0.161593445921,-0.130306320291,-2.31387599752,-0.0126824724234,2.14634869903,-0.11087900508,-0.561480949083,-0.741418640592,-0.00586724519176,-0.807073980368,-0.110039406722,0.0340604623238,-0.503881855318,0.573787649978,0.818984531573,0.00358003888605,0.0,0.818955114337,-0.573714390476,-0.012044324951,0.0,-0.00781034637406,0.00984296557203,-0.999921054143,0.0,0.482794485617,0.0262141687976,0.304590474942,1.0,-0.22998,-0.302259428571,2.119
0.17516340069,-0.174017704958,-0.13045396686,-2.32699371429,-0.0145804087771,2.14723455082,-0.119598016992,-0.586910804767,-0.713364870632,-0.00614576518924,-0.789059866509,-0.120098498088,0.0444526179801,-0.520838922735,0.573753741677,0.819007364319,0.0037852348904,0.0,0.818980717228,-0.573679852998,-0.0119481368368,0.0,-0.00761424566161,0.00995551427613,-0.999921452414,0.0,0.47893941,0.0211265626781,0.304660024324,1.0,-0.22998,-0.302259428571,2.136
0.164386205084,-0.187034836574,-0.130694160959,-2.34081739757,-0.0167125676189,2.14785659185,-0.128973821465,-0.609028736478,-0.727538677594,-0.00614873110139,-0.764653184485,-0.111446188068,0.0403358395102,-0.528871926068,0.573874148423,0.818923451023,0.00368646669434,0.0,0.81889476674,-0.573799639098,-0.0120864419142,0.0,-0.0077827273058,0.00995511651156,-0.999920159218,0.0,0.474755240428,0.0156149746719,0.30461605022,1.0,-0.22998,-0.302259428571,2.154
0.156007498145,-0.197192617677,-0.130784955695,-2.35117119697,-0.0183344317314,2.14840657831,-0.136452060703,-0.597161331922,-0.705078241802,-0.00462113657419,-0.739247101011,-0.105484037359,0.0412379110962,-0.536919575025,0.573744348454,0.819013271824,0.00392811572872,0.0,0.818989122962,-0.573670811767,-0.0118052148292,0.0,-0.00741532505103,0.00999045169326,-0.999922598919,0.0,0.471609403674,0.0114507291715,0.304746667391,1.0,-0.22998,-0.302259428571,2.168
0.144913198759,-0.20991649863,-0.131011956613,-2.36454709383,-0.0203171065298,2.14871423046,-0.146225270281,-0.627830709614,-0.702059260381,-0.0125228409817,-0.739042278217,-0.102846404571,0.0131893820981,-0.54677546815,0.573827185253,0.818955773501,0.00381436965324,0.0,0.818928101748,-0.573751343672,-0.0121205075719,0.0,-0.00773780891672,0.0100789652946,-0.999919267127,0.0,0.467394784177,0.00599475600281,0.304645549009,1.0,-0.22998,-0.302259428571,2.186
0.134195648039,-0.221958713275,-0.131207028499,-2.37662476392,-0.0222752291335,2.14906197899,-0.155605527795,-0.624784049201,-0.695067865707,-0.00249891173141,-0.714860104831,-0.110413571702,0.0176263077837,-0.554854616377,0.573917517371,0.818891440098,0.0040298250598,0.0,0.818867936788,-0.573842690308,-0.0118581525653,0.0,-0.00739819641553,0.0101056905791,-0.999921567778,0.0,0.4635648457,0.000820216691926,0.304769804442,1.0,-0.22998,-0.302259428571,2.203
0.124141722746,-0.233082125548,-0.13135512305,-2.38803734913,-0.0240435096495,2.14915323864,-0.164691001339,-0.637918697152,-0.69641268463,-0.00572901847786,-0.706928007397,-0.118148320373,0.0018013257077,-0.56841567371,0.573754437961,0.819005987077,0.00397302822324,0.0,0.818980663571,-0.573678375993,-0.0120225004047,0.0,-0.00756740512818,0.0101519917105,-0.999919832509,0.0,0.459835572933,-0.00392586223267,0.304707934533,1.0,-0.22998,-0.302259428571,2.219
0.112317895573,-0.245533207128,-0.131611123412,-2.40030864392,-0.0260684846161,2.14922380989,-0.175090557542,-0.665499384364,-0.695007842763,-0.0109145484842,-0.67223662409,-0.0961390116703,0.000997212513386,-0.582308082076,0.573895558304,0.818906140589,0.00416748924,0.0,0.818884400011,-0.573820230135,-0.0118080399482,0.0,-0.00727842691936,0.0101894697832,-0.99992159653,0.0,0.455769034582,-0.0094550204129,0.304814889029,1.0,-0.22998,-0.302259428571,2.237
0.101896694603,-0.256391496104,-0.131705981405,-2.41122874977,-0.0277699719004,2.14917329228,-0.184525224359,-0.653421587344,-0.677433954234,-0.0125779876098,-0.687782602726,-0.113288477373,-0.0101536725524,-0.603019186022,0.573717346259,0.81903096492,0.00417516524844,0.0,0.819008613513,-0.573641026958,-0.0119000035069,0.0,-0.00735156681444,0.010246932019,-0.999920474263,0.0,0.452068187302,-0.0141713796277,0.304761042971,1.0,-0.22998,-0.302259428571,2.253
0.091135630542,-0.267167272593,-0.131934359322,-2.42178412381,-0.0295509567395,2.14903712101,-0.194079298016,-0.683927123698,-0.670537010512,-0.0254911118643,-0.644928624041,-0.10263132535,-0.00926944659707,-0.604959972404,0.573785110507,0.818983079564,0.00425549639464,0.0,0.818962262099,-0.573709194237,-0.0118034150223,0.0,-0.00722551889029,0.0102579122432,-0.999921280458,0.0,0.44841897508,-0.0190346937314,0.304787841061,1.0,-0.22998,-0.302259428571,2.269
0.0794976577022,-0.278450820584,-0.132087371476,-2.43274706507,-0.0313977099201,2.14877433758,-0.204479336922,-0.669285297981,-0.651561008952,-1.41485242473e-05,-0.650149048077,-0.111608908567,-0.0196413490924,-0.606260782422,0.573763433625,0.818997926087,0.00432043988061,0.0,0.818978395371,-0.573687942605,-0.0117166260565,0.0,-0.00711744520763,0.0102611160757,-0.999922022695,0.0,0.44454288638,-0.0241650282781,0.304807493336,1.0,-0.22998,-0.302259428571,2.286
0.0663946736203,-0.290935154796,-0.132333871625,-2.44484019909,-0.0333450791135,2.14823972285,-0.216381253888,-0.702022891075,-0.653361294218,-0.0205287350702,-0.63164943499,-0.0946080404327,-0.0260814825855,-0.628269970447,0.573689901551,0.819049188833,0.00436692468409,0.0,0.819029195321,-0.573612731091,-0.0118473138085,0.0,-0.0071987477684,0.0103735228249,-0.99992028085,0.0,0.440141463743,-0.0298496009187,0.304775894823,1.0,-0.22998,-0.302259428571,2.305
0.0563642485021,-0.30004619367,-0.132533707847,-2.45329770626,-0.0348714899036,2.1478906478,-0.225294603308,-0.713109184853,-0.644142885234,-0.0113465317494,-0.600145342506,-0.11359789116,-0.0285143866,-0.651527204762,0.573801107646,0.818970298411,0.00454819586966,0.0,0.818954303274,-0.573725774258,-0.0115469477993,0.0,-0.00684732192032,0.0103506152982,-0.999922986507,0.0,0.437006465608,-0.0341645471725,0.30489057611,1.0,-0.22998,-0.302259428571,2.319
0.045744446443,-0.309595092688,-0.132679922103,-2.46244163359,-0.0364001762557,2.14727004293,-0.234962158555,-0.712829757873,-0.630256695997,-0.0130813769697,-0.599911840871,-0.106471832616,-0.0388210526249,-0.658667210088,0.573703755809,0.819038781675,0.004496841549,0.0,0.819021152897,-0.573627145023,-0.0117045504925,0.0,-0.00700710530454,0.0103981531241,-0.999921386353,0.0,0.43352421025,-0.0386129753961,0.304834934015,1.0,-0.22998,-0.302259428571,2.334
0.031047670336,-0.322193402528,-0.133006144893,-2.47418366914,-0.0384782644497,2.14638628165,-0.248160890982,-0.73212691109,-0.628933888232,-0.0126877010965,-0.572271950581,-0.0976283264597,-0.0405904880476,-0.662444423782,0.573844412274,0.818939921346,0.00455440764034,0.0,0.818923040614,-0.573767598319,-0.0116851859874,0.0,-0.00695642769268,0.0104353889519,-0.999921352293,0.0,0.428927280195,-0.0447383923775,0.304854233597,1.0,-0.22998,-0.302259428571,2.354
0.0193387036277,-0.332087774209,-0.133130406711,-2.48328774887,-0.040014534109,2.14570571004,-0.258965971706,-0.73214637009,-0.617295406597,-0.0114934392518,-0.578174491956,-0.0992313189538,-0.0558372483284,-0.680990832317,0.573664954468,0.819064799716,0.00470327371947,0.0,0.819050270135,-0.573588356619,-0.0115671537005,0.0,-0.0067766358567,0.0104880902396,-0.999922035546,0.0,0.425303026724,-0.0494677032886,0.304890755698,1.0,-0.22998,-0.302259428571,2.37
0.006433320103,-0.34245517938,-0.133403876937,-2.49283173274,-0.0417630040203,2.14468630915,-0.270577036669,-0.768236441963,-0.609681064893,-0.0169666276294,-0.557750538768,-0.112976558219,-0.054163199709,-0.683296654713,0.573798471385,0.818971607306,0.00464408911066,0.0,0.818955713616,-0.573721116212,-0.0116776217236,0.0,-0.00689936147826,0.0105041070428,-0.999921028155,0.0,0.421343708843,-0.0546690200699,0.304864081563,1.0,-0.22998,-0.302259428571,2.387
-0.00649949247622,-0.352663314681,-0.133578530692,-2.50192245422,-0.0433624115433,2.14369015763,-0.282485243706,-0.765161833147,-0.606316525216,-0.0136637307952,-0.519401571802,-0.0861839764615,-0.0502979294075,-0.70442550308,0.573707238321,0.819034611357,0.00480177039304,0.0,0.81902131907,-0.57363028406,-0.0115378949591,0.0,-0.00669562331066,0.0105523293393,-0.999921905438,0.0,0.417489121727,-0.0597562462286,0.304945565397,1.0,-0.22998,-0.302259428571,2.404
-0.0197877719387,-0.362565118044,-0.133851300015,-2.51086135273,-0.0450812959858,2.14260441045,-0.294591850273,-0.789626972636,-0.578800591891,-0.00946860871052,-0.52550275458,-0.095566288355,-0.0768032573187,-0.728983188603,0.573763300749,0.818995621806,0.00475321769745,0.0,0.818981663909,-0.573686422153,-0.011561579473,0.0,-0.00674215632242,0.010526610809,-0.999921863844,0.0,0.413572018431,-0.0649564301542,0.304925691417,1.0,-0.22998,-0.302259428571,2.421
-0.0330419115125,-0.372301002695,-0.134005829529,-2.51966732338,-0.0466092896849,2.14139217643,-0.306922299643,-0.78323780976,-0.563578039643,-0.0116389433253,-0.513632201681,-0.0965431935804,-0.0697305770709,-0.726410275873,0.573599029285,0.819110857022,0.00472275481344,0.0,0.819095150976,-0.573520180652,-0.0117678772396,0.0,-0.00693073425538,0.0106186329699,-0.999919601546,0.0,0.409623139456,-0.0699823449733,0.304858174883,1.0,-0.22998,-0.302259428571,2.438
-0.0467832723567,-0.381881335054,-0.134289264846,-2.5279392886,-0.0482340891126,2.14021180919,-0.319397825803,-0.811896381656,-0.556920612966,-0.0134168544076,-0.476004221918,-0.091331171319,-0.0588217686741,-0.746941482532,0.573781247869,0.818982633042,0.00482423780801,0.0,0.818969288349,-0.573703673473,-0.0115821710453,0.0,-0.00671804333002,0.0105967391799,-0.999921285408,0.0,0.405756535357,-0.0752134543703,0.3049384846,1.0,-0.22998,-0.302259428571,2.455
-0.0596686176153,-0.390614879438,-0.134453389408,-2.53560105425,-0.0496462505368,2.13906258373,-0.331423084004,-0.807631820864,-0.538878429103,-0.013637925326,-0.478484090883,-0.0810490357062,-0.0848826738694,-0.75731079192,0.573654311397,0.819071343652,0.00485921029844,0.0,0.819058306273,-0.573576422393,-0.0115898878657,0.0,-0.00670594567852,0.0106287703364,-0.999921026648,0.0,0.402101039164,-0.079985876973,0.304927457786,1.0,-0.22998,-0.302259428571,2.471
-0.0737352462432,-0.399720434126,-0.134737157703,-2.54358476892,-0.0512591074176,2.13764140245,-0.344387560285,-0.837222076466,-0.530892233359,-0.0121478969867,-0.460517535382,-0.0960974542847,-0.0856919344796,-0.760535373819,0.573705194311,0.819036417736,0.00473744066907,0.0,0.819020909931,-0.573626291058,-0.0117632565421,0.0,-0.00691714815556,0.0106289089872,-0.999919586444,0.0,0.398124606867,-0.0851739976447,0.304870509718,1.0,-0.22998,-0.302259428571,2.488
-0.0886099426522,-0.409131197942,-0.134896594702,-2.55162004518,-0.0526878526634,2.136210441,-0.358344866136,-0.82565776509,-0.516099093149,-0.0118235210961,-0.43385941247,-0.0840756186515,-0.0735831666024,-0.785787648356,0.573582095245,0.819121925094,0.00485785394767,0.0,0.819107663338,-0.573502321806,-0.0117673125711,0.0,-0.00685300515003,0.0107288317591,-0.999918960961,0.0,0.394017505381,-0.0905091528523,0.304888414136,1.0,-0.22998,-0.302259428571,2.506
-0.101415343861,-0.416743992098,-0.135168370454,-2.55795182962,-0.0539726522305,2.13507157877,-0.370160097128,-0.848081804514,-0.497333314398,-0.00609524617825,-0.417200649562,-0.0882984529292,-0.0744385271926,-0.790165909666,0.573736903454,0.819012752539,0.00498233830489,0.0,0.819001129746,-0.573658340286,-0.0115760526865,0.0,-0.00662290236295,0.0107223557616,-0.999920580972,0.0,0.390618696475,-0.0951333663884,0.304957045418,1.0,-0.22998,-0.302259428571,2.521
-0.116723497699,-0.425640726486,-0.13536315541,-2.56555318692,-0.055462778857,2.13342960388,-0.384603105174,-0.861175717934,-0.485542907551,-0.0181479472849,-0.417880524635,-0.0772074293168,-0.0956663335336,-0.804045482976,0.573576718798,0.819125443476,0.00489922481742,0.0,0.819111403093,-0.573496311867,-0.0117998516374,0.0,-0.00685600334093,0.0107813386729,-0.999918375646,0.0,0.386428589611,-0.100496623569,0.3048988841,1.0,-0.22998,-0.302259428571,2.539
-0.130596542363,-0.43330629068,-0.135581246966,-2.57201492597,-0.0567539026155,2.13206294824,-0.397564757794,-0.861900652535,-0.468566544631,-0.0026392363282,-0.40048149175,-0.0908769006323,-0.0838320850902,-0.810832977717,0.573608358136,0.81910332554,0.00489289969492,0.0,0.819088753996,-0.57352726341,-0.011867523104,0.0,-0.00691464939664,0.0108152377842,-0.999917605733,0.0,0.382499029229,-0.105623160789,0.304870614518,1.0,-0.22998,-0.302259428571,2.556
-0.145511298005,-0.441157404936,-0.135836067875,-2.57841461301,-0.0580388244601,2.13064015228,-0.411603545149,-0.903519536666,-0.45887646413,-0.02185352746,-0.360698904584,-0.0724300464622,-0.078397236805,-0.83026166573,0.573635833883,0.819083332484,0.00501711395745,0.0,0.819070722701,-0.573554859119,-0.0117780175316,0.0,-0.00676971809884,0.010865873265,-0.9999180485,0.0,0.378864637901,-0.110474620282,0.304920980849,1.0,-0.22998,-0.302259428571,2.572
-0.160623008561,-0.448813121633,-0.136026614328,-2.58454676132,-0.0592875647774,2.12923700511,-0.42581969279,-0.878998866525,-0.441771247226,-0.012919459039,-0.365789088043,-0.0633942066937,-0.0897320027497,-0.832345273342,0.5736563679,0.819068160301,0.00514463322196,0.0,0.8190582343,-0.573576661249,-0.0115831514435,0.0,-0.00653667484779,0.0108587118527,-0.999919676904,0.0,0.375009710526,-0.115614458475,0.304999708444,1.0,-0.22998,-0.302259428571,2.589
-0.175904969157,-0.456111117014,-0.136320837269,-2.59064873309,-0.0605386845212,2.12761266955,-0.440269157796,-0.911396942837,-0.416117327433,-0.0231337503785,-0.349162436511,-0.0799023523534,-0.102295704294,-0.852610029913,0.573698777596,0.819038789283,0.00509128040991,0.0,0.819026123493,-0.573615893599,-0.0119064078164,0.0,-0.00683150200833,0.011000795067,-0.999916153029,0.0,0.371013251573,-0.120748238842,0.304914240078,1.0,-0.22998,-0.302259428571,2.606
-0.190321340181,-0.462693785865,-0.136482073073,-2.59597809087,-0.0616900144233,2.12629516081,-0.454097476556,-0.911447217839,-0.399191226434,-0.00989512113599,-0.3257326933,-0.0662169600547,-0.0857990625109,-0.874067746748,0.573521479806,0.819162895637,0.00509995226807,0.0,0.81915058988,-0.573438995355,-0.01186493182,0.0,-0.0067949312247,0.0109826336137,-0.999916601857,0.0,0.367370200983,-0.125529914512,0.304917231083,1.0,-0.22998,-0.302259428571,2.622
-0.206057882795,-0.469397447403,-0.136739839144,-2.60139562106,-0.0628503173129,2.1248989992,-0.468909113267,-0.925521507235,-0.39109222756,-0.0127065259437,-0.313581287135,-0.0671129700232,-0.0800109038556,-0.873909673322,0.573678811533,0.819052408159,0.00514983388347,0.0,0.819040552085,-0.573595799104,-0.0118819271194,0.0,-0.00677812843907,0.0110345450648,-0.999916144379,0.0,0.363445342442,-0.130725822632,0.304904033565,1.0,-0.22998,-0.302259428571,2.639
-0.222663690681,-0.476245041892,-0.136945028717,-2.60661865927,-0.0640076479361,2.12343837691,-0.484820468468,-0.93118736662,-0.368153338252,-0.0230783548881,-0.288104498736,-0.0622733076163,-0.0779716619357,-0.888355687964,0.573614944243,0.81909630853,0.00528015102975,0.0,0.819087580036,-0.57353388686,-0.0116259948427,0.0,-0.00649458895629,0.0109939621805,-0.999918473232,0.0,0.359392340211,-0.136148725969,0.305015702189,1.0,-0.22998,-0.302259428571,2.657
-0.23670026859,-0.481634698045,-0.13712548424,-2.61093359302,-0.0649646617362,2.122197656,-0.498259791006,-0.924357979,-0.359914317002,-0.00450652913945,-0.285257283801,-0.0574581115827,-0.0783729451837,-0.906170722578,0.573586051063,0.81911643471,0.00529672679616,0.0,0.819107481036,-0.573504201165,-0.0116881418157,0.0,-0.00653637982799,0.0110429562632,-0.999917661038,0.0,0.355697848524,-0.14096248472,0.304997230857,1.0,-0.228636,-0.300493028571,2.673
-0.25363263473,-0.487664694368,-0.13732881085,-2.61578915417,-0.0659492949692,2.1206964489,-0.514424654919,-0.949913944703,-0.321518053955,-0.0141467313808,-0.259876030504,-0.0596744998657,-0.0864341231074,-0.900127936041,0.573673443379,0.819055003858,0.00533178388523,0.0,0.81904489775,-0.573588753976,-0.0119224025508,0.0,-0.00670698132223,0.0112067518765,-0.99991470892,0.0,0.351778059306,-0.146046448451,0.304933841913,1.0,-0.224352,-0.294862628571,2.69
-0.270397497186,-0.493168868003,-0.137372377867,-2.62016429879,-0.0668114067615,2.11941192414,-0.530527212019,-0.925282314177,-0.300965823548,-0.00257208963736,-0.23628701986,-0.0508513896646,-0.0703653349484,-0.888176328,0.573633995577,0.819082173821,0.00540171712596,0.0,0.819072525967,-0.573548293569,-0.011970758224,0.0,-0.00670701815938,0.0112914493564,-0.99991375582,0.0,0.34778136671,-0.151293913522,0.304907307203,1.0,-0.219816,-0.288901028571,2.708
-0.284396926434,-0.497457789549,-0.137439467939,-2.62349405158,-0.0675460334814,2.11837609887,-0.54382993872,-0.932007208106,-0.278948691005,-0.00125199848574,-0.215629390998,-0.0473689353323,-0.0638404615759,-0.889721664038,0.573750451707,0.819000370334,0.00543686130625,0.0,0.818991254133,-0.5736647199,-0.0119524765718,0.0,-0.00667027564381,0.0113106984578,-0.999913784045,0.0,0.344479663297,-0.155668906977,0.304912391709,1.0,-0.216036,-0.283933028571,2.723
-0.299912917446,-0.501975555896,-0.137404780015,-2.62694104036,-0.0681742930479,2.11720827125,-0.558736805476,-0.915683106794,-0.255955168696,0.00145432588785,-0.195989129896,-0.0371486889682,-0.0611600460339,-0.878742677034,0.573759879685,0.81899300732,0.00554989421602,0.0,0.818985143791,-0.573673342079,-0.0119573299165,0.0,-0.00660927047367,0.0114061366902,-0.999913105019,0.0,0.340846224942,-0.160427740194,0.304935386078,1.0,-0.211752,-0.278302628571,2.74
-0.315411194716,-0.506028625574,-0.137371065683,-2.63000855748,-0.0688312411506,2.11619050737,-0.573559364054,-0.898710403054,-0.224998587754,0.00699006351735,-0.173086159705,-0.030836054071,-0.0513731449628,-0.868437040963,0.573832678751,0.818941660727,0.0056000022226,0.0,0.8189348774,-0.573746682274,-0.0118809956745,0.0,-0.00651698510495,0.0114039602693,-0.999913735577,0.0,0.337281138995,-0.16518363447,0.304964629286,1.0,-0.207468,-0.272672228571,2.757
-0.329740926208,-0.509573470305,-0.137358334982,-2.63266266454,-0.0693273323142,2.11531753023,-0.587333603094,-0.900764641932,-0.215149975886,-0.00257743820707,-0.162457730918,-0.0311281260695,-0.052934637431,-0.859336425546,0.573913934655,0.818883803833,0.00573221863841,0.0,0.818879186558,-0.573828233948,-0.011780604752,0.0,-0.00635775993946,0.011455268311,-0.999914174175,0.0,0.333992690419,-0.169545039083,0.30500035272,1.0,-0.203436,-0.267373028571,2.773
-0.345563959399,-0.513112293387,-0.137249782013,-2.63540083027,-0.0698820025516,2.11430851102,-0.602685131622,-0.868650695472,-0.185586828402,0.00760811482734,-0.145734321834,-0.0211003372358,-0.0537891959289,-0.844375802816,0.573828127883,0.818943830672,0.00574706503585,0.0,0.818938803374,-0.573741305538,-0.0118700273595,0.0,-0.00642368075505,0.0115180718996,-0.999913031391,0.0,0.330349355012,-0.174293516294,0.304982596576,1.0,-0.1989,-0.261411428571,2.791
-0.363047062583,-0.516533400232,-0.137147232901,-2.63812118207,-0.0704113757585,2.11334609714,-0.619450819127,-0.861241818946,-0.162980748344,0.00972099632068,-0.126605889828,-0.0210982656017,-0.0407302265466,-0.826429558432,0.573960151326,0.818851031184,0.00578621806246,0.0,0.818845579215,-0.573871478686,-0.0120079245416,0.0,-0.00651228125938,0.0116303131874,-0.999911159058,0.0,0.32635418735,-0.179516853473,0.304929635117,1.0,-0.19386,-0.254787428571,2.811
-0.373193222268,-0.51832340692,-0.137012891238,-2.63956685054,-0.0706519289628,2.11285453871,-0.629324471336,-0.847419288315,-0.140503761796,0.0106642417644,-0.11436348534,-0.0250972184664,-0.0372494867493,-0.81890927801,0.5739020639,0.818891555258,0.00581280313422,0.0,0.818885935607,-0.573812376671,-0.0120800556688,0.0,-0.00655692343379,0.0116930167402,-0.99991013602,0.0,0.324059799067,-0.182510263376,0.304893522873,1.0,-0.190836,-0.250813028571,2.823
-0.388427496669,-0.520792172111,-0.136896354202,-2.64145519676,-0.0710176491742,2.11213475508,-0.644002816436,-0.835182640372,-0.132656564619,0.00809899247001,-0.0963979798316,-0.0168805951388,-0.0404788238464,-0.803886443867,0.574008980259,0.818816175828,0.00587432421156,0.0,0.818811065905,-0.573918488951,-0.0121141773251,0.0,-0.00654802714537,0.0117638347325,-0.999909363659,0.0,0.32062872707,-0.187029817387,0.304884711016,1.0,-0.1863,-0.244851428571,2.841
-0.40233745648,-0.522851984798,-0.136674216764,-2.64295587534,-0.0712609535075,2.11153013898,-0.657665077619,-0.815835761276,-0.114430146609,0.0159172884927,-0.0828201635745,-0.0127984303646,-0.0386243895977,-0.799157112547,0.573862898548,0.818918081068,0.00594113384486,0.0,0.818914105236,-0.573772631105,-0.0120583141915,0.0,-0.00646603601193,0.0117853243442,-0.999909644172,0.0,0.317533677504,-0.191108657762,0.304912922261,1.0,-0.182016,-0.239221028571,2.858
-0.415450531825,-0.524542641453,-0.136538677956,-2.6441727876,-0.0715277467354,2.11102377244,-0.670259431246,-0.804615130066,-0.100027084548,0.0194226304079,-0.0712010111657,-0.0214704596556,-0.0350029292864,-0.781929744919,0.574006632639,0.818817074276,0.00597757989445,0.0,0.818813935447,-0.573916848133,-0.0119973933836,0.0,-0.00639315982493,0.0117813359216,-0.99991015978,0.0,0.314615045818,-0.194975573074,0.304939741651,1.0,-0.177984,-0.233921828571,2.874
-0.428877728619,-0.526026031796,-0.136339381109,-2.64525036036,-0.0717062584621,2.11057698616,-0.683398021337,-0.791714770941,-0.0835566902898,0.00882946748407,-0.0604227632238,-0.0165120112663,-0.0258187402257,-0.765122339214,0.573962843546,0.818847311907,0.00603994306297,0.0,0.818845255012,-0.57387331513,-0.0119420863657,0.0,-0.00631270470952,0.0118003197587,-0.999910447097,0.0,0.311647861966,-0.198902483077,0.30496001428,1.0,-0.1737,-0.228291428571,2.891
-0.442960934161,-0.527325686643,-0.136139500672,-2.64625268041,-0.0718905300127,2.11014422359,-0.697054634033,-0.770629675479,-0.0660406867592,0.0228204225328,-0.0507562569291,-0.00364290102248,-0.0260216637015,-0.757887766584,0.574034154991,0.818797052586,0.00607638724696,0.0,0.818795222622,-0.573943999526,-0.0119756303022,0.0,-0.00631822644058,0.0118499658182,-0.999909825097,0.0,0.308517071551,-0.203003103725,0.304947863008,1.0,-0.169164,-0.222329828571,2.909
-0.454988710291,-0.528242603209,-0.135911581499,-2.64696353471,-0.0719953639003,2.10984872658,-0.708894759748,-0.751882356073,-0.0543315269424,0.0111478435136,-0.0402802385241,-0.0092655211327,-0.0123384206295,-0.724131955687,0.57394096674,0.818862139922,0.00610814211439,0.0,0.818860678345,-0.573850614754,-0.0119753207764,0.0,-0.0063010970055,0.0118750732106,-0.999909635323,0.0,0.305862080926,-0.20648279442,0.304940405824,1.0,-0.165132,-0.217030628571,2.925
-0.467784912598,-0.528955023838,-0.13571015866,-2.64754367076,-0.0721063790472,2.10954495298,-0.721244229795,-0.738177446813,-0.0328081009653,0.022073161565,-0.0299722550912,-0.00328586285417,-0.0189824413541,-0.718013296559,0.574083875465,0.818761807991,0.00612801831575,0.0,0.818760097289,-0.573992453376,-0.0120546030678,0.0,-0.00635253464096,0.0119379599614,-0.999908561027,0.0,0.303029932484,-0.21019300782,0.304916042989,1.0,-0.160848,-0.211400228571,2.942
-0.480708309433,-0.529465329655,-0.135447442159,-2.64797050971,-0.0721454583325,2.10932299421,-0.73402779604,-0.71915727955,-0.0196321453276,0.0147062452732,-0.0234666304801,-0.00665829483094,-0.01192653962,-0.702482544264,0.573971900655,0.818840022038,0.0061662361779,0.0,0.818838482282,-0.573879720561,-0.0120976511613,0.0,-0.00636748564265,0.011993094208,-0.999907806159,0.0,0.300192042805,-0.213919601707,0.304896077448,1.0,-0.156312,-0.205438628571,2.96
-0.490737192896,-0.529757077844,-0.13532643836,-2.64820025952,-0.0721600105708,2.10915868103,-0.743713980747,-0.706379260636,-0.0167623994038,0.0108452170467,-0.00995247546817,-0.0026948327827,-0.0213297053996,-0.691477091485,0.574147687095,0.818716235257,0.00623750199187,0.0,0.818715347017,-0.574054625948,-0.0121331730383,0.0,-0.00635308119538,0.0120732042915,-0.999906933718,0.0,0.297969942939,-0.216825719171,0.304887176343,1.0,-0.152784,-0.200801828571,2.974
-0.503696659248,-0.529951205086,-0.134979978308,-2.64836633567,-0.0721654221893,2.10900953092,-0.756605935806,-0.679843307659,-0.00632341794416,0.021270091381,-0.0103622486554,-0.00023918267945,-0.0059999223525,-0.67255690835,0.573946904422,0.818857038877,0.0062327912646,0.0,0.818855934925,-0.573853615503,-0.0121545347335,0.0,-0.00637623928132,0.0120800482815,-0.999906703651,0.0,0.295133474759,-0.220533598359,0.304878659122,1.0,-0.147996,-0.194509028572,2.993
-0.515943559865,-0.530024431541,-0.134778905792,-2.64842577274,-0.0721749569436,2.10892920399,-0.76843013007,-0.677870939833,-0.00138171675813,0.0160968283059,0.000299942583341,-0.000870526551954,-0.00237374735569,-0.648682491313,0.574143808107,0.818718679398,0.00627363669374,0.0,0.818718204454,-0.574050473658,-0.0121368154918,0.0,-0.00633537541157,0.01210485109,-0.999906663443,0.0,0.292419730451,-0.224062219979,0.304876636708,1.0,-0.14346,-0.188547428572,3.011
-0.525585225657,-0.529951739101,-0.134488707015,-2.64837794975,-0.0721647932969,2.10890783152,-0.778033394896,-0.63116020159,0.00180071447533,0.0128408422874,0.00185918777535,-0.000488121410438,-0.000750908311084,-0.640473419422,0.573977831237,0.818835271369,0.0062445586548,0.0,0.818834598337,-0.573885009616,-0.0121096327675,0.0,-0.00633225774528,0.0120641537032,-0.999907175045,0.0,0.290308091775,-0.226808309365,0.304877453542,1.0,-0.13968,-0.183579428572,3.026
-0.537031206511,-0.529758851035,-0.134260700531,-2.6482362894,-0.0721570732906,2.1088975776,-0.789186801994,-0.635044606054,0.0118814859119,0.0102117389129,0.0119969185359,0.00685545007349,-0.000532863848294,-0.612416355308,0.574068139486,0.818771913852,0.00625069718916,0.0,0.818771436279,-0.573975491099,-0.0120920491496,0.0,-0.00631300478069,0.0120597846614,-0.99990734949,0.0,0.287766723999,-0.230090463617,0.304876406778,1.0,-0.135144,-0.177617828572,3.044
-0.546882901302,-0.529459580977,-0.133991424057,-2.64799560248,-0.0721391598351,2.10891765162,-0.79887524466,-0.595311380315,0.0176493131471,0.0179357537508,0.0131938659117,0.00538742164803,0.00445293691751,-0.608675002545,0.574033316512,0.8187965988,0.00621516117006,0.0,0.818795887141,-0.573941269248,-0.0120607444356,0.0,-0.0063082804863,0.0120124488088,-0.999907949099,0.0,0.285596195663,-0.232903828702,0.304885170715,1.0,-0.131112,-0.172318628572,3.06
-0.556284770469,-0.529012161056,-0.133686063024,-2.64768920118,-0.0721028956896,2.10893797972,-0.80827295299,-0.590633910387,0.0316816269116,0.0172048987776,0.0177198814548,0.000253189081573,0.0059647307363,-0.575462774569,0.57385458575,0.818922277232,0.00616158815615,0.0,0.818920564197,-0.573762239308,-0.0121140076124,0.0,-0.00638526701838,0.0119977610635,-0.999907636782,0.0,0.2835255846,-0.235572201928,0.304870619675,1.0,-0.12708,-0.167019428572,3.076
-0.566806649481,-0.528453835032,-0.133453238512,-2.64726480878,-0.0720311525736,2.10900616652,-0.818479430249,-0.576391730714,0.0318667213736,0.0105105990915,0.026182489135,0.00870054828601,0.00432914883247,-0.55454979755,0.574003360426,0.818817929186,0.00617154476536,0.0,0.818816373571,-0.573910989928,-0.0121106941938,0.0,-0.00637465890706,0.0120051722052,-0.999907615515,0.0,0.281186128121,-0.238582784724,0.304871381638,1.0,-0.122544,-0.161057828572,3.094
-0.575614374879,-0.527778571589,-0.133137386208,-2.6467554758,-0.0719349747092,2.10914560053,-0.827303711183,-0.538347799109,0.0449601559438,0.0270246232245,0.0345446414914,0.0086277665857,0.00753076279341,-0.539471170907,0.57383681866,0.818934959178,0.00613066780565,0.0,0.818933117035,-0.573745125936,-0.0120758928829,0.0,-0.00637205275462,0.0119504289328,-0.99990828789,0.0,0.279277069713,-0.241098087891,0.304876105208,1.0,-0.118512,-0.155758628572,3.11
-0.584232396793,-0.527043999464,-0.132885606424,-2.64622534572,-0.0717887802768,2.10926767,-0.835768673443,-0.540491248396,0.0508350327356,0.0126960316105,0.0319465106109,0.013729441205,0.00999746476482,-0.518185120672,0.573876844074,0.818906707142,0.00615790012592,0.0,0.818905043175,-0.573784691763,-0.0120997794388,0.0,-0.00637540445803,0.0119867494889,-0.99990783178,0.0,0.277383777356,-0.24355664548,0.304865366357,1.0,-0.11448,-0.150459428572,3.126
-0.594222485935,-0.526083377044,-0.132619253399,-2.64548349403,-0.0716050847886,2.1094109033,-0.845502011679,-0.515969733579,0.0487585453525,0.0173233200224,0.0456526350325,0.0129750584813,0.00415477783973,-0.508107973554,0.574018958278,0.818806776393,0.00620043317667,0.0,0.818805581001,-0.573926425201,-0.0121089173513,0.0,-0.00635639351452,0.0120279289885,-0.999907458311,0.0,0.275186422183,-0.246422136549,0.304870141422,1.0,-0.109692,-0.144166628572,3.145
-0.602023376059,-0.5251453529,-0.132269226095,-2.64482502467,-0.0714077072361,2.10956801129,-0.853366772041,-0.483484545154,0.0573030864945,0.0237870364969,0.0413367200254,0.0178150968626,0.0105941425704,-0.48751188526,0.573840727925,0.818931704535,0.00619912767945,0.0,0.81893005019,-0.573747405503,-0.0121751581593,0.0,-0.00641401309156,0.0120634858219,-0.999906662017,0.0,0.273506116594,-0.248630988015,0.30484829624,1.0,-0.10566,-0.138867428572,3.161
-0.610197971421,-0.524198530937,-0.131965318151,-2.6441326401,-0.0712245856383,2.10973103386,-0.86140260534,-0.479892801436,0.0513611330746,0.0188868429157,0.0401753137855,0.0108534298959,0.0165745397275,-0.463570075872,0.573856423766,0.818920635003,0.00620849184366,0.0,0.81891886338,-0.57376260476,-0.012211284946,0.0,-0.00643799672168,0.0120920082012,-0.999906163365,0.0,0.271712442838,-0.250950907764,0.30483768078,1.0,-0.101376,-0.133237028572,3.178
-0.617646480384,-0.523276252376,-0.131705167213,-2.64340548567,-0.0710375395955,2.10991501846,-0.868676927911,-0.461600624672,0.0594905520194,0.0150553225185,0.0419834451723,0.0152514326906,0.0150519911805,-0.458228157374,0.573935084185,0.818865352308,0.00622903142727,0.0,0.818864086932,-0.573841602323,-0.0121724885451,0.0,-0.00639327483612,0.0120871810857,-0.999906508675,0.0,0.270086353628,-0.253083217773,0.304852266536,1.0,-0.0973440000001,-0.127937828572,3.194
-0.62591434938,-0.522075334166,-0.131354311288,-2.64247608404,-0.0707784143597,2.11012768373,-0.876940533136,-0.414818948503,0.0646317396388,0.0232224332074,0.0490452330862,0.0121316629795,0.0118681836315,-0.429301333467,0.573852151352,0.818923289314,0.00625311998483,0.0,0.818922302725,-0.573758509779,-0.0121729806448,0.0,-0.00638107940196,0.012106543637,-0.999906352328,0.0,0.268305622107,-0.255447989084,0.30486093124,1.0,-0.0925560000001,-0.121645028572,3.213
-0.631766137784,-0.521239000749,-0.131093315146,-2.64181999882,-0.0706054365131,2.11029967492,-0.882776996756,-0.426149911372,0.0609275237891,0.018583142152,0.0452936390421,0.0104114438164,0.00954133996458,-0.415411530054,0.573789718868,0.818967032973,0.00625334509859,0.0,0.818966243728,-0.573696459155,-0.0121413050176,0.0,-0.0063559289771,0.0120880672716,-0.999906736049,0.0,0.267038120429,-0.257115263761,0.304873145345,1.0,-0.0890280000001,-0.117008228572,3.227
-0.639125155588,-0.520154358793,-0.130783235586,-2.64094879744,-0.0703751153217,2.11051696152,-0.889911035735,-0.398190201998,0.0612583328902,0.0139948146481,0.0432192390734,0.0132880528878,0.0103715465452,-0.39705231088,0.573900095734,0.818889595954,0.00626551318375,0.0,0.818889301867,-0.573807399384,-0.01208828359,0.0,-0.00630389320846,0.0120684611817,-0.999907302291,0.0,0.265436964126,-0.259217205959,0.304896680187,1.0,-0.0844920000001,-0.111046628572,3.245
-0.645673372511,-0.519077261894,-0.130554593011,-2.64011471587,-0.0701412187052,2.11073487802,-0.896347808837,-0.382861534879,0.0623751592465,0.0178285580291,0.0484118394014,0.012252717653,0.0158988182036,-0.37076546234,0.573974619785,0.818836960382,0.00631783638033,0.0,0.818837441966,-0.573881854513,-0.0120667972425,0.0,-0.00625516834853,0.0120995492936,-0.999907232585,0.0,0.264005691027,-0.261103369447,0.304903789592,1.0,-0.0802080000001,-0.105416228572,3.262
-0.651061586641,-0.51812642076,-0.130268601709,-2.63941463827,-0.069921485754,2.11091695709,-0.901782535137,-0.351294726525,0.0629351326151,0.0248567291428,0.0459664952274,0.00975818960539,0.015373919627,-0.356093037673,0.573865780172,0.818913089821,0.00633755218561,0.0,0.818913617711,-0.573772542704,-0.0120955722358,0.0,-0.00626902969896,0.0121313763521,-0.99990676014,0.0,0.262844196912,-0.262628425245,0.304894497273,1.0,-0.0764280000001,-0.100448228572,3.277
-0.657278577337,-0.517039603981,-0.129905286721,-2.63861216959,-0.069680193851,2.1111269259,-0.907896940157,-0.338964684948,0.0570172174493,0.0185615854932,0.0433364922353,0.0185032536784,0.00846475229096,-0.340499237883,0.573838680301,0.818932114604,0.00633305312485,0.0,0.818932387471,-0.573745089908,-0.0121269723363,0.0,-0.00629773021544,0.0121455019556,-0.999906408308,0.0,0.261498668241,-0.264374531313,0.304885587184,1.0,-0.0718920000001,-0.0944866285715,3.295
-0.662865455402,-0.516013722808,-0.129597944897,-2.63782670083,-0.0694618686762,2.1113565077,-0.913350068028,-0.314624414688,0.0636080152831,0.0162755512735,0.04451174672,0.0102077553174,0.011085158028,-0.315553592265,0.573865605157,0.818913294048,0.00632700164191,0.0,0.818913663234,-0.57377237451,-0.01210046774,0.0,-0.00627909603293,0.0121255437885,-0.999906767724,0.0,0.260295505615,-0.265963627405,0.304891327698,1.0,-0.0676080000001,-0.0888562285715,3.312
-0.667774199196,-0.515039891918,-0.129360646446,-2.63709328549,-0.0692339671585,2.11155580131,-0.918166705481,-0.299314186375,0.0558937480675,0.0102837428145,0.0436683487966,0.00961924461641,0.00514261123288,-0.295900869078,0.573909312769,0.818882361843,0.00636593121712,0.0,0.818883182687,-0.5738157876,-0.0121046236567,0.0,-0.00625951148902,0.0121601443804,-0.999906470328,0.0,0.259234326841,-0.267368594607,0.304888010605,1.0,-0.0635760000001,-0.0835570285715,3.328
-0.673596828081,-0.513898874544,-0.129061693573,-2.63625114295,-0.0689775982842,2.11178462756,-0.92387258105,-0.282722676285,0.0570603338219,0.0179037395078,0.0398787429263,0.0136309249264,0.0112797567639,-0.276397380378,0.573947271264,0.818855513156,0.00639728715254,0.0,0.818856546868,-0.573853212372,-0.012132320549,0.0,-0.00626363438039,0.0122020076667,-0.999905934522,0.0,0.257961671226,-0.269019242961,0.304876030907,1.0,-0.0585360000001,-0.0769330285715,3.348
-0.677294068535,-0.513154600755,-0.128763071062,-2.63568349705,-0.068785150316,2.11193328787,-0.927495433926,-0.259134172899,0.055549860499,0.016102400611,0.0410413551093,0.020809942355,0.0076881048438,-0.256480969665,0.573908348976,0.818882893707,0.00638437705756,0.0,0.818883754999,-0.573814350577,-0.0121339924142,0.0,-0.00627299241981,0.0121920969468,-0.999905996751,0.0,0.257183043352,-0.270047001918,0.304878780718,1.0,-0.0550080000001,-0.0722962285715,3.362
-0.682259092743,-0.512116201668,-0.128349995312,-2.63490317847,-0.0685380522227,2.11216012531,-0.932416466706,-0.240097232666,0.0554185004393,0.0231149612939,0.0375081877108,0.0150031447017,0.011249651146,-0.247369962328,0.573797595597,0.818960782639,0.00634843980207,0.0,0.818961204477,-0.573703843962,-0.0121322663019,0.0,-0.00629384716421,0.0121608252736,-0.999906246513,0.0,0.256140242175,-0.27143029596,0.304878559979,1.0,-0.0499680000001,-0.0656722285715,3.382
-0.685529977029,-0.51141880079,-0.12811729494,-2.63437281815,-0.0683766934611,2.11231037723,-0.935541582616,-0.233501518716,0.0532127785595,0.0148073411661,0.0371409158312,0.00815891877583,0.0146008060932,-0.218410484271,0.573848378676,0.81892526759,0.00633966043044,0.0,0.818925618941,-0.573754741097,-0.0121274322152,0.0,-0.00629417162541,0.0121512516053,-0.99990636086,0.0,0.255443637342,-0.272352147903,0.304879799777,1.0,-0.0464400000001,-0.0610354285715,3.396
-0.689174011518,-0.510644874111,-0.127858965005,-2.63380810043,-0.0681484518188,2.11247621884,-0.939029151826,-0.208217365377,0.046582076747,0.0180026186384,0.0292138433564,0.0177927653693,0.0112498279831,-0.205184005409,0.573920079,0.818874735154,0.00637635849504,0.0,0.818875461759,-0.573826056622,-0.0121400894933,0.0,-0.00628241287367,0.0121891193063,-0.999905973909,0.0,0.254662244192,-0.273365441659,0.304870114721,1.0,-0.0421560000001,-0.0554050285715,3.413
-0.692319304262,-0.510001098351,-0.127599082403,-2.63332077792,-0.0679670805667,2.11261766232,-0.942099553372,-0.19126988668,0.0434834549614,0.0161309462789,0.0347509094331,0.0116363499324,0.00400907526065,-0.189690089875,0.57389946988,0.818889179061,0.00637634613237,0.0,0.818889956119,-0.573805550364,-0.0121316545059,0.0,-0.00627581862614,0.0121841104761,-0.999906076365,0.0,0.253991980647,-0.274232174245,0.304871250776,1.0,-0.0381240000001,-0.0501058285715,3.429
-0.695184389005,-0.509412868461,-0.127356090448,-2.63286170729,-0.0677666724349,2.11275995185,-0.944763302476,-0.173173047539,0.0361976568055,0.0191132833094,0.0300338570906,0.0109923407608,0.00754942257609,-0.157555055993,0.574006906396,0.818813708788,0.00639754731355,0.0,0.818814998381,-0.573913325792,-0.0120929651567,0.0,-0.00623036794845,0.0121800877164,-0.99990640961,0.0,0.253353656984,-0.275069619766,0.304879848967,1.0,-0.0338400000001,-0.0444754285715,3.446
-0.698053585811,-0.508795024353,-0.127045569479,-2.63236823061,-0.0675455931777,2.11290789499,-0.947546204448,-0.146253147033,0.0274964838593,0.0145377666506,0.025970061594,0.0150495590879,0.00918868562074,-0.145864623746,0.573970370937,0.818839318894,0.00639765739447,0.0,0.818840896215,-0.573877358697,-0.0120461928648,0.0,-0.00619254485898,0.0121530552855,-0.999906973491,0.0,0.252807903241,-0.275804071009,0.304894740117,1.0,-0.0295560000001,-0.0388450285715,3.463
-0.700289955697,-0.508297524803,-0.126736415646,-2.63200581777,-0.0673606702976,2.11301006324,-0.94967667819,-0.138260808417,0.0291695603585,0.0195382671588,0.0209672026243,0.0129818984521,0.00722044681222,-0.118094171599,0.573934710464,0.818864419772,0.00638412536317,0.0,0.818865737755,-0.573841604133,-0.0120608373829,0.0,-0.00621283348245,0.012150108664,-0.999906883444,0.0,0.252363037388,-0.276389628257,0.304890851182,1.0,-0.0255240000001,-0.0335458285715,3.479
-0.702442047304,-0.507819016484,-0.126398264556,-2.63164390746,-0.067154939667,2.1130973248,-0.951698325535,-0.113764732788,0.0220701786197,0.0200508173435,0.0199724452698,0.00889524015703,0.00963841567563,-0.11120213855,0.573907153479,0.818883813628,0.00637384234462,0.0,0.818884940572,-0.573813988077,-0.0120709607009,0.0,-0.0062274343352,0.0121472880782,-0.999906826886,0.0,0.251947026903,-0.276943154702,0.304893110979,1.0,-0.0209880000001,-0.0275842285715,3.497
-0.704225832339,-0.507422581824,-0.126125897725,-2.63135599821,-0.0669709987794,2.11320024453,-0.953314535756,-0.100809176422,0.0206339992869,0.0156434845063,0.0170785413878,0.00969381629041,0.00648507467544,-0.0936720919661,0.573935060882,0.818864263567,0.00637264806664,0.0,0.818865489674,-0.573842118627,-0.0120531992694,0.0,-0.00621315989809,0.012136328898,-0.999907048763,0.0,0.251623137703,-0.277376879124,0.304894302876,1.0,-0.01974,-0.025944,3.513
-0.705651985904,-0.507093057504,-0.125957538667,-2.63111915167,-0.0668403007429,2.11323445507,-0.95470496411,-0.0892504441754,0.0158953377264,0.00980345028875,0.0145707924545,0.00889023246605,0.00170018532112,-0.0922767925624,0.573908230957,0.818882863622,0.00639882851559,0.0,0.818884148818,-0.573814625158,-0.0120943652466,0.0,-0.00623224705076,0.0121811895313,-0.999906384477,0.0,0.2512913511,-0.277801198518,0.304887281812,1.0,-0.0194,-0.0254971428572,3.53
-0.707254344894,-0.506717672116,-0.12580654436,-2.63081609067,-0.0667488788211,2.11330934059,-0.956259456938,-0.0841386224166,0.0211239488585,0.00501455776252,0.0152019502504,-0.000161770444524,0.00688873712061,-0.0807634106694,0.57390719327,0.818883714154,0.00638303274631,0.0,0.81888483351,-0.573813737852,-0.0120901034432,0.0,-0.00623783703075,0.0121658002705,-0.999906536979,0.0,0.250974899556,-0.278225128674,0.304892127431,1.0,-0.01906,-0.0250502857143,3.547
-0.708703343807,-0.506368540331,-0.12571935678,-2.63054362368,-0.0667000276879,2.11338458435,-0.957702642305,-0.0818205283589,0.0166461657485,0.00342137279893,0.0117403215972,0.000298661277648,-1.06315029835e-07,-0.0907622151572,0.57388461144,0.818899685692,0.00636430885648,0.0,0.818900605402,-0.573791332385,-0.0120852080192,0.0,-0.00624490802381,0.0121474851605,-0.999906715513,0.0,0.250658967874,-0.278644146964,0.304894562339,1.0,-0.01872,-0.0246034285714,3.564
-0.709996899344,-0.506045755365,-0.125688569205,-2.63028827221,-0.0666438455937,2.11341877609,-0.959066856104,-0.0856499749145,0.019986387616,0.000431663838379,0.0199142215252,0.00118552890574,0.00123455314053,-0.0795900561327,0.573841939012,0.818929419618,0.00638604849916,0.0,0.818930456122,-0.573748246167,-0.0121080533964,0.0,-0.00625177738036,0.0121780729145,-0.99990630052,0.0,0.250363938257,-0.279024675239,0.304894163989,1.0,-0.0184,-0.0241828571429,3.58
-0.711422204196,-0.505687416925,-0.125652932739,-2.63001003171,-0.0666039103288,2.11351766268,-0.960490105314,-0.080288089402,0.0211041048731,-0.00029387914911,0.015100615556,0.00370318991687,0.00482976080125,-0.077172568109,0.573849520914,0.818924152572,0.0063801709966,0.0,0.818925278478,-0.573756176752,-0.0120824173837,0.0,-0.00623404092351,0.0121586068281,-0.99990664815,0.0,0.250044935153,-0.279453633283,0.304896522647,1.0,-0.01804,-0.0237097142857,3.598
