nelsonifechukwu/NELSON_IML_WORK/CNN-GradCAM/train2dof/data_sample_2022-02-22-09-13-04/robot_state.csv
position_joint1,position_joint2,position_joint3,position_joint4,position_joint5,position_joint6,position_joint7,velocity_joint1,velocity_joint2,velocity_joint3,velocity_joint4,velocity_joint5,velocity_joint6,velocity_joint7,ee_T_00,ee_T_10,ee_T_20,ee_T_30,ee_T_01,ee_T_11,ee_T_21,ee_T_31,ee_T_02,ee_T_12,ee_T_22,ee_T_32,ee_T_03,ee_T_13,ee_T_23,ee_T_33,v_x,v_y,time
0.46507905066,0.547808348654,-0.123991339663,-1.35583913562,0.0795444127291,1.89410512469,0.159151762674,-0.000517295589749,0.000138838998386,-0.00149078589144,0.000885382138179,-0.000169703244717,0.000218725406741,-0.00168730454314,0.573809426787,0.818974794443,0.001942858593,0.0,0.818931155614,-0.573750494888,-0.0119531954752,0.0,-0.0086748167451,0.00845008636699,-0.999926669109,0.0,0.661672615678,0.260898811937,0.303192790686,1.0,0.0,0.0,0.0
0.465076549256,0.547803723692,-0.123988544043,-1.35584370757,0.0795450274636,1.89411067132,0.159154089101,-0.00106967317565,-0.00154062140195,0.00251635401473,-0.00672961854299,-2.32709510108e-05,0.000357030564472,-0.000695393900163,0.573811870635,0.818973068384,0.00194866147999,0.0,0.818929488397,-0.573752897653,-0.0119520863776,0.0,-0.00867055361859,0.00845422816128,-0.999926671075,0.0,0.661672772934,0.260898770274,0.303194281398,1.0,-0.0001,-0.000131428571429,0.006
0.465076790269,0.547806692643,-0.12398886858,-1.35584470287,0.0795432318962,1.89410764974,0.159150935606,0.000419316717673,0.000732023674797,0.000513545751794,-0.00103208714253,-0.000276068405765,0.000151688607901,-0.00181425579839,0.573808879916,0.818975180239,0.00194174739213,0.0,0.818931522466,-0.573749948418,-0.0119542922574,0.0,-0.00867635823685,0.00844979988332,-0.999926658155,0.0,0.661671974914,0.260898087011,0.30319144946,1.0,-0.00042,-0.000552,0.022
0.465075729379,0.547797048838,-0.123986875763,-1.3558542387,0.0795444944202,1.89410768319,0.159157242079,-0.00144273719586,-0.00632572711511,0.00111330605944,-0.00153070917378,3.99312376497e-05,-0.000189079320308,-0.000444229703449,0.573814359349,0.81897133687,0.00194352579494,0.0,0.818927671293,-0.573755389504,-0.0119569690124,0.0,-0.00867747356579,0.00845285031053,-0.999926622695,0.0,0.661669798957,0.26089774011,0.303193682005,1.0,-0.00076,-0.000998857142857,0.039
0.465075461284,0.547737413544,-0.123990951108,-1.35591210832,0.079540946321,1.89411832259,0.159155614962,-0.000411065942697,-0.0049562883713,0.000704105426895,-0.00547874953122,0.000135141187244,0.000728704094407,-0.000424481000607,0.573818282237,0.818968563244,0.00195404442654,0.0,0.81892504331,-0.57375927598,-0.0119504631125,0.0,-0.00866606933867,0.00845777297015,-0.999926679971,0.0,0.661661438966,0.26088926866,0.303209437563,1.0,-0.0011,-0.00144571428571,0.056
0.465070118051,0.54762039739,-0.123991749071,-1.35607068844,0.0795380030401,1.89415056521,0.159151566126,-0.000556357824203,-0.0101724425102,0.000279570140471,-0.0116425744147,-0.000166159457943,0.00405010987791,-0.00110950163294,0.573827795081,0.818961905563,0.00195082828666,0.0,0.818918251974,-0.573768711695,-0.0119628159187,0.0,-0.008677933365,0.00846232809802,-0.99992653854,0.0,0.661636347488,0.260869695126,0.303219676234,1.0,-0.00142,-0.00186628571429,0.072
0.465058896812,0.547475602061,-0.123991749087,-1.35628722681,0.079534541467,1.89420829492,0.159145681831,0.000735247781837,-0.000970361442897,0.000240845947844,-0.0110123637864,-0.00454800305069,0.00353118543934,-0.00154989833949,0.573843214454,0.81895111538,0.0019449278766,0.0,0.818907266331,-0.573784038613,-0.0119796947152,0.0,-0.00869498318247,0.00846734511684,-0.999926347955,0.0,0.661605156928,0.260841824826,0.303224190567,1.0,-0.00178,-0.00233942857143,0.09
0.465036527527,0.547291205575,-0.12399704757,-1.35649813674,0.0795355835408,1.89434854665,0.15914293625,0.000189550352829,-0.0120245110401,-0.00204210422046,-0.0171976299678,0.000322378876325,0.00510559281985,0.000732923302193,0.573862334973,0.818937483237,0.00204106599297,0.0,0.818894866699,-0.57380273394,-0.0119317525303,0.0,-0.00860035572433,0.00851876584422,-0.999926729571,0.0,0.661595181059,0.260817470145,0.303264449399,1.0,-0.0021,-0.00276,0.106
0.465019728318,0.547113019399,-0.123989234772,-1.3567048598,0.0795332756462,1.89445381322,0.159130430087,-0.00187935137814,-0.00915896012113,0.00164890476814,-0.0147774658615,-0.000175498683377,0.0135151352169,-0.00162685917612,0.573889376387,0.818918345558,0.00211515492783,0.0,0.818876609222,-0.573829383893,-0.0119031067831,0.0,-0.00853409877256,0.0085632822938,-0.999926917007,0.0,0.661576412323,0.260785144714,0.303298323463,1.0,-0.00244,-0.00320685714286,0.123
0.464984708322,0.546873338363,-0.123992462624,-1.35706332706,0.079525686118,1.89459451542,0.159112901945,-0.00056999805433,-0.00543149059371,-0.000377242187999,-0.0235103368385,0.000146770412018,0.00826718515345,0.00112192141322,0.573919246694,0.818897336165,0.00214429421038,0.0,0.818855895764,-0.573859048473,-0.0118979560982,0.0,-0.00851284581809,0.00858449923572,-0.999926916244,0.0,0.661540123483,0.260732942843,0.303314930605,1.0,-0.0028,-0.00368,0.141
0.464958249869,0.546628914655,-0.123991778642,-1.35742652911,0.0795174124413,1.8947253301,0.159042661725,7.48013935224e-06,-0.0175982113525,-0.00107851047126,-0.0241196929123,3.56990439126e-05,0.0106819196692,-0.0122306769391,0.573901010208,0.81891006805,0.00216282909882,0.0,0.818868734956,-0.573840604042,-0.0119039054407,0.0,-0.00850727264939,0.00860290211845,-0.999926805515,0.0,0.661496537345,0.26068347413,0.30332648591,1.0,-0.00312,-0.00410057142857,0.157
0.464914330336,0.54635761855,-0.123989269853,-1.3578288966,0.0795085428169,1.89488149696,0.158933577785,0.000296312738863,-0.0150380418033,0.000394644289927,-0.0265005766613,2.38765502319e-05,0.0105261170538,-0.00179386396871,0.573866086016,0.818934459553,0.0021938955894,0.0,0.818893385464,-0.573805411418,-0.0119046197617,0.0,-0.00849039765595,0.00862839025799,-0.99992672933,0.0,0.661453871521,0.260620842782,0.303340556429,1.0,-0.00344,-0.00452114285714,0.173
0.464866186233,0.546020837206,-0.123987092473,-1.35840189074,0.0794941241829,1.8950831374,0.158915430774,-0.00118296589377,-0.0219308352353,0.000410929135787,-0.0289605007714,0.000519132859872,0.00556859626351,-0.00463140686464,0.573917345217,0.818898588495,0.00217474630056,0.0,0.818857055085,-0.573856528917,-0.0119396171828,0.0,-0.00852950751428,0.00863332596596,-0.99992635388,0.0,0.661384276167,0.260538010896,0.303323716582,1.0,-0.00382,-0.00502057142857,0.192
0.464806854834,0.545701350819,-0.123991965267,-1.35895468555,0.0794434035483,1.89525181822,0.158845936613,-0.00286844497499,-0.0222580580042,0.000353598859019,-0.0335694706772,-0.0080959595393,0.0159127907583,-0.00142161049514,0.573929683875,0.818890112501,0.00210915043968,0.0,0.818847844642,-0.573869256675,-0.0119595346922,0.0,-0.00858333337028,0.0085911706634,-0.999926256368,0.0,0.661318794115,0.260437750734,0.303301524164,1.0,-0.00414,-0.00544114285714,0.208
0.464745382091,0.545342067186,-0.12399307792,-1.35958373263,0.0793492737071,1.89545017788,0.158726938864,-0.0015841513847,-0.0239666675364,0.00432315095749,-0.0409353157873,-0.00170750400319,0.00691907262309,-0.00505825484475,0.573893319344,0.818915828964,0.00201742041165,0.0,0.818872817637,-0.57383372703,-0.0119544618691,0.0,-0.00863220037414,0.00851276043687,-0.999926506313,0.0,0.661244822925,0.260324712588,0.303273563767,1.0,-0.00446,-0.00586171428571,0.224
0.464677552945,0.544927432946,-0.123995635983,-1.36028560774,0.0793370419013,1.8956806703,0.15868374012,-0.00479621694342,-0.0240139869193,0.000804940992246,-0.0403000175885,0.000308137048682,0.0188274343969,0.00177638941954,0.573951073909,0.818875432341,0.00198443163525,0.0,0.818831682269,-0.573891310184,-0.0120077937059,0.0,-0.00869420658164,0.00851696556498,-0.999925933292,0.0,0.661159306585,0.260214167429,0.303253081612,1.0,-0.0048,-0.00630857142857,0.241
0.464614129031,0.544493924701,-0.12399822079,-1.36100642942,0.0793163483159,1.89594715545,0.158564128757,-8.42778982262e-05,-0.0257358113252,-0.000701034769889,-0.0452480792525,0.000120359968409,0.0128900389081,-0.00458792325444,0.573941641011,0.818882059697,0.00197785750131,0.0,0.818838015164,-0.573881702348,-0.0120350958868,0.0,-0.00872043577396,0.00852715176773,-0.999925618075,0.0,0.661076360791,0.260105599622,0.303240012337,1.0,-0.00514,-0.00675542857143,0.258
0.464547418128,0.544027234069,-0.124000965662,-1.36174843694,0.0792888943588,1.8962100222,0.158480382291,-0.00198988160455,-0.0360318535297,0.000620397826236,-0.0497694323095,-0.00175237514532,0.0156700931328,-0.0131210442189,0.573963615339,0.818866662461,0.00197592462389,0.0,0.818822424584,-0.573903517926,-0.0120555386382,0.0,-0.00873805683069,0.00853753630699,-0.999925375634,0.0,0.660989873264,0.259991353933,0.303239973701,1.0,-0.00546,-0.007176,0.274
0.464471725817,0.543514084671,-0.124001788385,-1.36259239999,0.0792428097342,1.89649607424,0.158367685283,-0.00252339548164,-0.0298051238372,-0.000146790108993,-0.0495648333654,-0.00252824031201,0.0236467922304,-0.00477756452359,0.573968499458,0.818863324249,0.00194029146263,0.0,0.81881852995,-0.573908467754,-0.0120843928905,0.0,-0.00878208551588,0.00852497158944,-0.999925097111,0.0,0.660888586298,0.259859352326,0.303226149125,1.0,-0.0058,-0.00762285714286,0.291
0.464384669031,0.542932380381,-0.12400448407,-1.3635151506,0.0791847993331,1.89682878386,0.158245788455,-0.00704734520839,-0.0295196255079,-6.82120231027e-05,-0.0516869487742,-0.00284109517302,0.0202356764928,-0.00878677944896,0.573977776662,0.818856812531,0.00194406027105,0.0,0.818812062959,-0.573917722927,-0.012083036218,0.0,-0.00877871489667,0.00852737844327,-0.999925106186,0.0,0.66079034853,0.259722010414,0.303235417744,1.0,-0.00614,-0.00806971428571,0.308
0.464315418614,0.54237232839,-0.124005260006,-1.36439008811,0.0791411783202,1.89714604073,0.158131133086,-0.0072616371183,-0.0315191229529,0.000637333766178,-0.0556271726869,-0.00106490942494,0.0230468554695,-0.00514648746389,0.573978056137,0.818856631374,0.00193784133386,0.0,0.818811719302,-0.573917950747,-0.0120954969306,0.0,-0.00879248522674,0.00852944122871,-0.999924967603,0.0,0.660681143385,0.259583311549,0.303234535403,1.0,-0.00648,-0.00851657142857,0.325
0.464228484054,0.541744857042,-0.124003095133,-1.36534943836,0.0790853100603,1.89749779123,0.158015291579,-0.00410772109247,-0.0374324519469,0.000993947736604,-0.0543770811775,-0.00470345023257,0.0252532092666,-0.00665723769129,0.573991209656,0.818847366999,0.00195645029006,0.0,0.818802658185,-0.573930982279,-0.0120905513209,0.0,-0.00877761767425,0.00854198133579,-0.999924991178,0.0,0.660571750223,0.259436326334,0.303252020552,1.0,-0.00682,-0.00896342857143,0.342
0.464143431247,0.541094722868,-0.124013057742,-1.36634991461,0.079018888402,1.89787400573,0.15788085214,-0.00566850348926,-0.0388270121021,-9.3330043998e-05,-0.0618703487035,-0.000280564511902,0.0229425262612,-0.00603086782875,0.573995561251,0.81884427835,0.0019724044548,0.0,0.818799885437,-0.573935368552,-0.01207009674,0.0,-0.00875166547364,0.00854335098022,-0.999925206956,0.0,0.66046105512,0.259278930807,0.303268369308,1.0,-0.00716,-0.00941028571429,0.359
0.464050386254,0.540432959748,-0.124008319305,-1.36736081569,0.0789635159764,1.89823996878,0.157748705205,-0.00794147118211,-0.0410862083866,0.00048733485824,-0.0632319914262,-0.00352813001729,0.0262951831272,-0.00829979742142,0.574001381205,0.818840152661,0.00199139814559,0.0,0.818795913005,-0.573941012674,-0.0120711937339,0.0,-0.00874160135449,0.00855959533758,-0.999925156066,0.0,0.660344122423,0.259124797074,0.303286526693,1.0,-0.00748,-0.00983085714286,0.375
0.463954517997,0.539687103034,-0.124015099558,-1.36850623278,0.0788957150523,1.89867033327,0.157615110881,-0.00613765430294,-0.0457865538312,-0.000727973719213,-0.0644782902826,-0.00316858435554,0.0208389954895,-0.00142782962074,0.574020561155,0.81882664663,0.00201619476047,0.0,0.818782755298,-0.57396010717,-0.0120557830816,0.0,-0.00871454885452,0.00857125789415,-0.999925292298,0.0,0.660215030589,0.258949625183,0.303305934839,1.0,-0.00782,-0.0102777142857,0.392
0.463865510808,0.538942141632,-0.124023183031,-1.36967038243,0.0788330301836,1.89911304386,0.157469197721,-0.00382281719753,-0.0422546124321,0.000110765382932,-0.0726990230974,-0.00158755407732,0.0243516247311,-0.0101587569676,0.574027335006,0.818821845296,0.00203745766787,0.0,0.818778209115,-0.573966766769,-0.0120474820788,0.0,-0.00869547593176,0.00858397523981,-0.999925349247,0.0,0.660082049691,0.25877766137,0.303316798722,1.0,-0.00816,-0.0107245714286,0.409
0.463759224666,0.538204378356,-0.124029689342,-1.37080122767,0.0787676914921,1.89955444086,0.157314548201,-0.00529812902646,-0.042502785772,-0.00107261762747,-0.0745376817712,-0.00198555395202,0.0327425353038,-0.0144749305461,0.574037403992,0.818814685168,0.00207775655752,0.0,0.818771606266,-0.573976693938,-0.0120232478903,0.0,-0.00865239468169,0.00860316771815,-0.999925558015,0.0,0.659960356351,0.25859855874,0.303338129913,1.0,-0.00848,-0.0111451428571,0.425
0.463640171713,0.537345852407,-0.124028309275,-1.37213894424,0.0786872598834,1.90004775397,0.157157743102,-0.00685743902892,-0.0523739538034,0.000327765417591,-0.075402286833,-0.00673052308261,0.0201484518698,-0.00507564881936,0.574057731822,0.81880040316,0.00208978964745,0.0,0.818757456947,-0.573996944121,-0.0120200555257,0.0,-0.00864265983694,0.00861140246493,-0.999925571319,0.0,0.659806344231,0.258393734987,0.303350376881,1.0,-0.00884,-0.0116182857143,0.443
0.463525131215,0.53651456118,-0.124030479312,-1.37345307495,0.0786160104396,1.90055051753,0.156995195346,-0.0115884377181,-0.0485869739194,0.000735213520563,-0.0797781652113,-0.00713820763388,0.0344723784067,-0.00732743044063,0.574073767112,0.818789110876,0.00210920022902,0.0,0.818746364739,-0.574012842482,-0.0120163968504,0.0,-0.0086283529968,0.00862536429204,-0.999925574538,0.0,0.659657926621,0.258194076275,0.303355419019,1.0,-0.00918,-0.0120651428571,0.46
0.463422193013,0.535699185921,-0.124039264685,-1.37473759425,0.0785481529791,1.90101361733,0.156832700841,-0.00523170585308,-0.0492052436209,-0.000515654202648,-0.0783604591014,-0.00512968872948,0.033074511252,-0.012664778172,0.574083554614,0.818782253774,0.00210716113601,0.0,0.818739403105,-0.574022559465,-0.0120265509974,0.0,-0.00863773480545,0.00862962714414,-0.999925456758,0.0,0.6595059466,0.25799974474,0.303359944289,1.0,-0.0095,-0.0124857142857,0.476
0.46329006401,0.534789905141,-0.124034594914,-1.37617660372,0.0784607211717,1.90153104511,0.156660960146,-0.0119969529327,-0.0531695787713,0.000945062958906,-0.0847736077051,-0.000309921543024,0.0349252000581,-0.00570842782163,0.574103280741,0.818768448069,0.00209723386989,0.0,0.818725409317,-0.574042266691,-0.0120385668737,0.0,-0.00865306443005,0.00862860552359,-0.999925333034,0.0,0.659336611367,0.257777413039,0.303361289949,1.0,-0.00984,-0.0129325714286,0.493
0.463161924062,0.533827811796,-0.124043262315,-1.37775077005,0.0783745641053,1.90210378361,0.156472246656,-0.00760331148953,-0.0547042867816,0.000123253477843,-0.0866907346364,-0.015760320733,0.0368441862627,-0.00946422095388,0.574122950103,0.818754737701,0.0020650805583,0.0,0.818711198796,-0.574061990806,-0.0120644344926,0.0,-0.00869249599954,0.00861733921221,-0.999925088183,0.0,0.659149828305,0.257538586721,0.303340632783,1.0,-0.0102,-0.0134057142857,0.511
0.463042933991,0.533016748858,-0.124037871443,-1.37905953123,0.0783010913792,1.90260546663,0.156305424939,-0.00698268597337,-0.0573393700512,0.00027766795563,-0.088931106845,-0.00549136498257,0.0363552880302,-0.0104563361645,0.57413203073,0.818748355248,0.00207098295792,0.0,0.818704820593,-0.574070972716,-0.0120698767152,0.0,-0.00869346788367,0.00862539262571,-0.999925010297,0.0,0.659000031361,0.257340726877,0.303332980861,1.0,-0.0105,-0.0138,0.526
0.462906177071,0.531988118516,-0.124045286113,-1.38071274287,0.0782128339932,1.90320936171,0.156098615135,-0.00477466098818,-0.0617682526166,0.000602037611903,-0.0976155991877,-0.00346599781034,0.029291357922,-0.0128936668532,0.574146489533,0.818738251363,0.00205699158561,0.0,0.818694425844,-0.574085382864,-0.0120895481764,0.0,-0.00871745456973,0.00862538525604,-0.99992480153,0.0,0.658804042094,0.257090257207,0.303323879696,1.0,-0.01086,-0.0142731428571,0.544
0.46278961232,0.531053361789,-0.124048547084,-1.38223090449,0.0781192770116,1.90375660445,0.155904392184,-0.00511590116918,-0.0614348600145,0.00167306732311,-0.0964753808278,-0.00517353271989,0.0374553308176,-0.0105840096493,0.574145387583,0.818739110185,0.00202244235253,0.0,0.818694757297,-0.574084356496,-0.0121158120508,0.0,-0.00875880529524,0.0086121663676,-0.999924554114,0.0,0.658606369988,0.256850644499,0.303307738787,1.0,-0.0112,-0.01472,0.561
0.462650668648,0.530077884264,-0.124046105028,-1.38378028711,0.0780164500664,1.90430649655,0.155696463558,-0.00509647959415,-0.0559460228942,-0.000495143024424,-0.0957700755254,-0.00670989389537,0.032197279206,-0.00686939375958,0.57414099651,0.818742247097,0.00199896115893,0.0,0.818697654445,-0.57408013482,-0.012120078865,0.0,-0.00877582567516,0.0085953444565,-0.999924549622,0.0,0.65843378289,0.256625142344,0.303304985786,1.0,-0.0115,-0.0151142857143,0.576
0.462523857174,0.529153366828,-0.124054202603,-1.38524847106,0.0779273621046,1.9048537562,0.155502121433,-0.00994426578449,-0.0601257771113,-0.00626082613436,-0.103519916773,-0.00819873955878,0.0334531153961,-0.014385650453,0.574147216133,0.818737885433,0.00199901596319,0.0,0.818693318979,-0.574086378371,-0.0121171996907,0.0,-0.0087733715321,0.00859380294068,-0.999924584408,0.0,0.65826333433,0.25639752553,0.303305045196,1.0,-0.0118,-0.0155085714286,0.591
0.462364436802,0.527868531656,-0.124044683076,-1.38724412341,0.0778031552625,1.90562885469,0.155215536585,-0.00855279209676,-0.0657312679255,0.000171158275191,-0.101802518927,-0.000571241116715,0.040179833247,-0.0160960592988,0.574111278149,0.818762953487,0.00205260802522,0.0,0.818719098953,-0.574050222871,-0.0120882393964,0.0,-0.00871927036927,0.00862066993795,-0.999924826361,0.0,0.658030209087,0.256110606851,0.303326668637,1.0,-0.0122,-0.0160342857143,0.611
0.462229212665,0.52676118545,-0.124050236004,-1.38892172644,0.0777027163871,1.90626281706,0.154989398741,-0.00871415370049,-0.0693828671459,0.000114199347164,-0.104977524315,-0.00803450726433,0.0416047351211,-0.0156003967804,0.574104421288,0.818767625336,0.00210619576332,0.0,0.818724492384,-0.57404315829,-0.0120583950956,0.0,-0.00866414306143,0.00864733848326,-0.999925075274,0.0,0.657834091186,0.25586057573,0.303362648982,1.0,-0.01252,-0.0164548571429,0.627
0.462069091324,0.525531179,-0.124060954399,-1.39087304646,0.0775767754026,1.90697099271,0.154728545437,-0.0054956505218,-0.0655686278823,-0.00199222973052,-0.112713847833,-0.0104134453481,0.0398035078635,-0.0136581339179,0.574100715426,0.818770270691,0.00208788903481,0.0,0.818726966721,-0.574039598823,-0.0120598444857,0.0,-0.00867587818767,0.00863314261824,-0.999925096188,0.0,0.657600173389,0.255561246742,0.303360972879,1.0,-0.01288,-0.016928,0.645
0.461920890295,0.524404634916,-0.124063778793,-1.39263709929,0.0774701034215,1.90759916072,0.154477174992,-0.0083267730528,-0.0709921634229,-0.000735967173452,-0.113128128117,-0.00827784677028,0.040091865071,-0.0139617330133,0.574084223446,0.818781853578,0.00208027501997,0.0,0.818738395423,-0.574023087099,-0.0120698897458,0.0,-0.00868864809293,0.00863250051604,-0.999924990851,0.0,0.657385037005,0.255292948249,0.303368150818,1.0,-0.0132,-0.0173485714286,0.661
0.461765673748,0.523280572805,-0.12406596373,-1.39442495544,0.0773612426428,1.90826945616,0.154237755102,-0.00853501828176,-0.0700699270026,-0.00239352580939,-0.1181797018,-0.00665182861605,0.043231356945,-0.024902066655,0.574083531976,0.818782329455,0.00208379165558,0.0,0.81873891357,-0.574022377003,-0.0120685130571,0.0,-0.00868550941758,0.00863458216016,-0.999925000146,0.0,0.657173869468,0.255020068997,0.303365620441,1.0,-0.01352,-0.0177691428571,0.677
0.461598256437,0.521973175287,-0.12406836987,-1.39649637197,0.0772290293264,1.90908067231,0.1539600961,-0.00617043782106,-0.070126233291,-0.00361470929334,-0.119225609152,-0.0131494326453,0.047404601795,-0.0176538241179,0.574070518608,0.818791368459,0.00211695614871,0.0,0.818748488601,-0.574009326729,-0.0120396072243,0.0,-0.00864294030463,0.00864500465341,-0.999925278947,0.0,0.656932707012,0.254713598634,0.303368872127,1.0,-0.01388,-0.0182422857143,0.695
0.461432686754,0.520726488146,-0.124074421352,-1.39849858028,0.0771082187608,1.90983720406,0.153691473841,-0.0112870748157,-0.0761242433754,-0.00114678430284,-0.119633025501,-0.0128702110793,0.0428935434809,-0.016710549928,0.574064929221,0.818795292805,0.002114809785,0.0,0.818752391598,-0.574003753808,-0.0120398823762,0.0,-0.00864445669293,0.00864334620455,-0.999925280176,0.0,0.65669435067,0.254411825233,0.303357445522,1.0,-0.01422,-0.0186891428571,0.712
0.461272613459,0.519480457136,-0.124074562821,-1.40043540295,0.076986562206,1.91053485462,0.153423771596,-0.00961378925554,-0.0796888225127,0.000506868292259,-0.120889752567,-0.00335863893327,0.0411737173412,-0.0101880593208,0.574047047786,0.818807818005,0.00211919870877,0.0,0.818764951148,-0.573985833117,-0.0120401434257,0.0,-0.00864233992229,0.00864690089534,-0.99992526774,0.0,0.656456286305,0.25412081266,0.303370978722,1.0,-0.01454,-0.0191097142857,0.728
0.461089408026,0.518137813066,-0.124078034243,-1.40253004834,0.0768534578689,1.91128627055,0.153142111306,-0.0160908055416,-0.0810896662706,0.00101731701108,-0.123407493846,-0.00413550076053,0.04468163674,-0.014881541909,0.57404401029,0.818809957184,0.00211545947351,0.0,0.81876704062,-0.573982810951,-0.012042127231,0.0,-0.00864614277242,0.00864494594279,-0.999925251769,0.0,0.656200741578,0.253797068219,0.303381607671,1.0,-0.01488,-0.0195565714286,0.745
0.460913229364,0.516778083826,-0.124081237631,-1.40466992259,0.0767152931859,1.91206073053,0.152843768793,-0.0101696036604,-0.0743983900681,0.000136074868607,-0.123989937437,-0.00385931941413,0.0509021028891,-0.015862319531,0.574022119271,0.818825328956,0.00210574167551,0.0,0.818782306933,-0.573960985313,-0.0120444216403,0.0,-0.00865383055785,0.00863807477193,-0.999925244646,0.0,0.655937191697,0.25347374927,0.30338428497,1.0,-0.01522,-0.0200034285714,0.762
0.460739257847,0.515488691829,-0.124087218327,-1.4067180821,0.0765851215997,1.91284464344,0.152558826991,-0.00990414275084,-0.0824093148249,-0.000341916822627,-0.131119082582,-0.0143757797843,0.0424326471997,-0.0165224243747,0.57400870103,0.818834696684,0.00212074252638,0.0,0.818791948509,-0.573947583319,-0.012027616587,0.0,-0.00863160091707,0.0086405698368,-0.999925415228,0.0,0.655694307351,0.253162156241,0.30338181718,1.0,-0.01554,-0.020424,0.778
0.460556657147,0.514108398132,-0.124087859879,-1.40895400937,0.0764578106369,1.9136300814,0.152260363845,-0.0123601917886,-0.0769168248089,0.000623394856762,-0.133470687474,-0.00975234238453,0.0429694845714,-0.00986875466772,0.573997536751,0.818842662985,0.00206590906782,0.0,0.818799004725,-0.573936460818,-0.0120779015552,0.0,-0.00870436812001,0.00862441607711,-0.999924923893,0.0,0.655409543631,0.252827602518,0.303353326167,1.0,-0.01588,-0.0208708571429,0.795
0.460344827095,0.512605189444,-0.124094550564,-1.41136792623,0.0763179423445,1.9144681624,0.15192134035,-0.00982429364353,-0.0879673866488,-0.00107684169378,-0.133442159669,-0.00946772301928,0.0498363829614,-0.0170176602574,0.573986863303,0.81885028951,0.00200774169019,0.0,0.818805695513,-0.573925868866,-0.0121275283161,0.0,-0.0087785041921,0.00860515794479,-0.999924441706,0.0,0.655104711669,0.252452488678,0.303330533256,1.0,-0.01624,-0.021344,0.813
0.460171951875,0.511336203787,-0.124094614314,-1.41340064962,0.0761841998817,1.91524272893,0.151644214709,-0.0175101441779,-0.0892629856323,0.00133845511906,-0.135263154446,-0.0131382983827,0.0498834744003,-0.0130696922451,0.573971912588,0.818860765085,0.00200944420963,0.0,0.818816272544,-0.573910990234,-0.0121175083212,0.0,-0.00876947885832,0.00860064063354,-0.999924559765,0.0,0.654859297005,0.252145613361,0.303318921354,1.0,-0.01654,-0.0217382857143,0.828
0.459975328499,0.509874519483,-0.12410038156,-1.41574006539,0.0760392239673,1.91612348393,0.151310929624,-0.0126087201636,-0.0872261600441,-3.97079068259e-05,-0.141019595572,-0.00262395236949,0.0576444438083,-0.019032948183,0.573949594587,0.818876381825,0.00202016447856,0.0,0.818832075254,-0.57388867318,-0.0121066193603,0.0,-0.00875464369967,0.00860293037904,-0.999924670064,0.0,0.654559239965,0.251767973287,0.303313486668,1.0,-0.0169,-0.0222114285714,0.846
0.459756434928,0.508284470181,-0.124106141691,-1.41825467935,0.0758713819015,1.91701345615,0.15095623782,-0.0105493334486,-0.0841925721877,-0.00116632866112,-0.14048555424,-0.0143626889603,0.0464126249328,-0.0184417701642,0.573925079719,0.81889368526,0.00197028204465,0.0,0.818848737994,-0.573864391694,-0.0121305866631,0.0,-0.00880315559794,0.00857557598984,-0.999924479122,0.0,0.654258046402,0.251400710244,0.30329823201,1.0,-0.01724,-0.0226582857143,0.863
0.459543905518,0.506831165036,-0.124109466355,-1.42051647786,0.0757357523852,1.91784267307,0.150644928253,-0.0131225231193,-0.084728765944,-0.000518866909131,-0.143480402943,-0.00773562683008,0.051479390532,-0.0154256349569,0.573927117829,0.818892211793,0.00198891606574,0.0,0.818847446804,-0.573866287429,-0.012128063222,0.0,-0.00879037387994,0.00858940858494,-0.999924472841,0.0,0.653981891264,0.251044855408,0.303310022835,1.0,-0.01756,-0.0230788571429,0.879
0.459318357019,0.505227932361,-0.124110703276,-1.42297671153,0.0755848996348,1.91878655083,0.150309672648,-0.014107838424,-0.091078256449,-0.000968526934923,-0.141880193908,-0.0037178206524,0.060139606671,-0.0193115660634,0.573924672983,0.818893746168,0.00206134153733,0.0,0.818849951922,-0.573863550465,-0.0120883657342,0.0,-0.00871632614411,0.0086259068451,-0.999924806868,0.0,0.653687705759,0.250665490934,0.303341489831,1.0,-0.0179,-0.0235257142857,0.896
0.459070638744,0.503471388366,-0.124119160756,-1.4256043044,0.0754215507574,1.91977938754,0.149942796772,-0.0157548650929,-0.0973014350271,0.000145590578591,-0.145530501447,-0.0140778252045,0.0550381206071,-0.0227167284339,0.573924229575,0.818893795995,0.00216251905252,0.0,0.818851389486,-0.573862742347,-0.0120292054531,0.0,-0.0086098183681,0.0086748012198,-0.999925306636,0.0,0.653373901078,0.250251001766,0.303404168792,1.0,-0.01826,-0.0239988571429,0.914
0.45884675434,0.501773735158,-0.12412869168,-1.4281168148,0.0752572865244,1.92070469804,0.149587908811,-0.0140425259393,-0.100235351376,0.000791832118256,-0.151594798686,-0.00905074541515,0.0504761593539,-0.0267878058504,0.573907887633,0.818905010466,0.00225105477445,0.0,0.818863864994,-0.573846143449,-0.0119716814824,0.0,-0.00851207473246,0.00871411761768,-0.999925801616,0.0,0.653065878283,0.249859766791,0.3034739374,1.0,-0.0186,-0.0244457142857,0.931
0.458635087038,0.500249295786,-0.124131188944,-1.43041560984,0.0751054461858,1.92150926154,0.149261711971,-0.0140436635448,-0.0958416044465,-0.00241413103886,-0.15271691919,-0.0122991068509,0.056045061554,-0.0159254811778,0.573891288489,0.818916567049,0.0022786203533,0.0,0.818875770392,-0.573829423374,-0.0119587807121,0.0,-0.00848586762267,0.00872911513137,-0.999925893554,0.0,0.652755579387,0.249474402534,0.303517862377,1.0,-0.01892,-0.0248662857143,0.947
0.458382746365,0.498564035154,-0.124126661833,-1.4330289938,0.0749467613236,1.92248000668,0.148893230521,-0.0168546570545,-0.0983364909612,0.000808749731096,-0.150152480693,-0.00984181026514,0.0528091077767,-0.0229671556208,0.573883615873,0.818921850589,0.00231191741039,0.0,0.818881427342,-0.573821554626,-0.0119489875222,0.0,-0.00845882179029,0.00875068287194,-0.999925934199,0.0,0.6524521659,0.249088127255,0.303528803824,1.0,-0.01924,-0.0252868571429,0.963
0.458144349444,0.496973909803,-0.124134802368,-1.43553871336,0.0747894016808,1.92338823061,0.148515353842,-0.0140070527496,-0.100339310684,-0.000515563597069,-0.154453354133,-0.0108618062787,0.0482853068373,-0.0176785820956,0.573860014157,0.818938456001,0.00228830406309,0.0,0.818897641801,-0.573797965709,-0.0119705347452,0.0,-0.00849027048941,0.00874346637815,-0.999925730793,0.0,0.652116039048,0.248663446318,0.303513015371,1.0,-0.01958,-0.0257337142857,0.98
0.457861021468,0.49521402071,-0.124134115196,-1.43841939082,0.074612292647,1.92437598484,0.148102610909,-0.0197185072291,-0.0976592111545,-0.00109205526112,-0.163260716266,-0.0120110071516,0.0577094204024,-0.0209123708534,0.573850775739,0.818945204367,0.002187768014,0.0,0.818902924864,-0.573788987352,-0.0120392916793,0.0,-0.00860436865223,0.0087004940066,-0.999925130319,0.0,0.651763802143,0.248223345206,0.303462516986,1.0,-0.01992,-0.0261805714286,0.997
0.457568282503,0.493338941335,-0.124162024914,-1.44135593161,0.074433358288,1.92543992325,0.147686846683,-0.0207138895623,-0.126582938927,-0.000874160653482,-0.193881901824,-0.0123382276395,0.0722202272079,-0.0306424052201,0.573869455778,0.818932120902,0.00218540187951,0.0,0.818889825296,-0.573807689893,-0.0120389346501,0.0,-0.00860523555989,0.00869854771311,-0.999925139792,0.0,0.651401488826,0.247736162955,0.303463531287,1.0,-0.0280697142857,-0.0368916244898,1.014
0.457244428846,0.490614935964,-0.124240966013,-1.44555295053,0.0742072618541,1.9270443109,0.147052227121,-0.0205196833462,-0.174292778064,-0.0004881797829,-0.278068662032,-0.0176728066614,0.102132818867,-0.0367861078091,0.573821912243,0.818965131909,0.00229622464482,0.0,0.818924354821,-0.573759768274,-0.0119739839803,0.0,-0.00848895748851,0.00875153716472,-0.999925671337,0.0,0.650882787282,0.247089534793,0.303502655808,1.0,-0.0386485714286,-0.0507952653061,1.031
0.456757893141,0.487300505273,-0.124257050597,-1.4508368221,0.07391140309,1.92902808049,0.146267197852,-0.033271651542,-0.223577667563,-0.000955327580089,-0.354920195949,-0.0214089597591,0.138901963884,-0.0493555753697,0.573772981484,0.818999350005,0.00231890315169,0.0,0.818958582081,-0.573710455412,-0.0119958779536,0.0,-0.00849440080709,0.00878216537995,-0.999925356577,0.0,0.650216580422,0.246267738396,0.303464144972,1.0,-0.0486051428571,-0.063881044898,1.047
0.456048889496,0.482574432665,-0.124392374302,-1.45826269405,0.0734657412657,1.93172355433,0.145133618995,-0.0457573110072,-0.27683291449,-0.00841989450181,-0.452667585414,-0.0245762648175,0.161541708785,-0.0686705010119,0.573768973855,0.819002223876,0.00229539274936,0.0,0.818961366666,-0.573706768657,-0.0119820869147,0.0,-0.00849663705936,0.00875495625676,-0.99992557618,0.0,0.649288298314,0.245021186239,0.303448127908,1.0,-0.0598062857143,-0.0786025469388,1.065
0.455259008387,0.477509589354,-0.124531295766,-1.46625505618,0.0729915855361,1.93449770521,0.143953281428,-0.0521861595449,-0.334090708739,-0.00589682476891,-0.522235059322,-0.0244376855844,0.186560637377,-0.076599584114,0.573811100405,0.818973091719,0.00215476042368,0.0,0.81893031337,-0.573749388156,-0.012063512587,0.0,-0.00864356614107,0.00868694331186,-0.999924910071,0.0,0.648257036775,0.243659587946,0.303398857228,1.0,-0.0697628571429,-0.0916883265306,1.081
0.454259971108,0.471286389936,-0.124649281368,-1.47593173356,0.0724173923839,1.93796162563,0.142554339355,-0.0607172988719,-0.385450020967,-0.00521777841044,-0.589098926337,-0.0330135596509,0.206759966075,-0.0860699192152,0.573880156407,0.818924687049,0.00216100106216,0.0,0.818881832481,-0.57381825016,-0.0120792017859,0.0,-0.008652101274,0.0087017862563,-0.999924707195,0.0,0.647016032692,0.242022772935,0.303401389386,1.0,-0.0803417142857,-0.105591967347,1.098
0.453093816282,0.464165991449,-0.124728116231,-1.48671465691,0.0717631835517,1.9419846791,0.140782525116,-0.0763858845158,-0.435164247138,-0.006595047861,-0.671556037902,-0.045316954868,0.230942884835,-0.11374139989,0.573776540307,0.818996418024,0.00246899955983,0.0,0.818957593512,-0.573713398431,-0.0119223903245,0.0,-0.00834805756784,0.00886296445002,-0.999925876151,0.0,0.645653151322,0.240208952439,0.303533442603,1.0,-0.0909205714286,-0.119495608163,1.115
0.451890044636,0.457265430367,-0.12479347645,-1.49751061451,0.071066106148,1.94566797448,0.139178506769,-0.0799955640723,-0.469581466682,-0.0101721167664,-0.75693772029,-0.0563080229046,0.253117073071,-0.109174980264,0.573808810609,0.818974352346,0.0022816593617,0.0,0.818932699284,-0.57374602314,-0.0120615867653,0.0,-0.00856920220814,0.00878973944549,-0.999924651788,0.0,0.644200495458,0.238349012603,0.303467010836,1.0,-0.100254857143,-0.131763526531,1.13
0.450281829193,0.447972486935,-0.124950442529,-1.51150319132,0.0700886861716,1.95068953281,0.136977614578,-0.0940613592804,-0.538412558252,-0.00723384329398,-0.794030840372,-0.0580977220015,0.297503646892,-0.120019976899,0.573808865954,0.818973707436,0.00248973521674,0.0,0.818935697703,-0.573746219788,-0.0118467382747,0.0,-0.00827385029424,0.00883686663854,-0.99992672391,0.0,0.642376675062,0.235878896861,0.303625529177,1.0,-0.111456,-0.146485028571,1.148
0.448580420901,0.438540666092,-0.125028838579,-1.5259943424,0.0691607768893,1.95570360873,0.134700935352,-0.101301664179,-0.561625358699,-0.00731439950593,-0.879975274332,-0.0524461178808,0.299945615872,-0.135310574768,0.573788415047,0.818988134131,0.00245719591503,0.0,0.81894912179,-0.573725281991,-0.0119324609596,0.0,-0.00836294953035,0.00885919686532,-0.999925785099,0.0,0.640394242731,0.233352789965,0.303618930405,1.0,-0.122034857143,-0.160388669388,1.165
0.446802127732,0.42883036292,-0.125120953805,-1.54047322481,0.0681826420957,1.96086132807,0.132322958824,-0.116831997175,-0.621406683755,-0.00796111706401,-0.9200899511,-0.0617135782235,0.323183355064,-0.153864844341,0.573726640591,0.819030426589,0.00276570030739,0.0,0.818995643006,-0.573662589686,-0.0117523118418,0.0,-0.00803907695775,0.0090078843235,-0.999927112975,0.0,0.638437059747,0.230782978646,0.303797729921,1.0,-0.131991428571,-0.17347444898,1.181
0.444677936887,0.417963030586,-0.125219142944,-1.55696191408,0.0670216654994,1.96652462629,0.129583602525,-0.127923603168,-0.65660633587,-0.00483821246089,-0.976328538313,-0.0631976549339,0.341629024737,-0.160728172493,0.573671616156,0.819068975546,0.00276351530267,0.0,0.819034226863,-0.573607651112,-0.0117449867368,0.0,-0.00803493543014,0.00900135244631,-0.999927205084,0.0,0.636138503671,0.227784227157,0.303826496946,1.0,-0.142570285714,-0.187378089796,1.198
0.442066189779,0.404932425489,-0.125357011752,-1.57662444146,0.0656426787293,1.97336857059,0.126310390307,-0.145336664533,-0.68957440775,-0.00261582272503,-1.0759423089,-0.0760895849721,0.360767883385,-0.177387966319,0.573655529407,0.819079768996,0.00290043151046,0.0,0.819046969639,-0.573591285501,-0.0116552830685,0.0,-0.00788309609874,0.00906188168762,-0.999927866947,0.0,0.633375394759,0.224168331971,0.303879417462,1.0,-0.154393714286,-0.202917453061,1.217
0.439898675446,0.394707290222,-0.125464014632,-1.59180852691,0.0646068500827,1.9785537292,0.123726248002,-0.153916963411,-0.745467246771,-0.00923754165687,-1.09306364455,-0.0715756596509,0.380980365885,-0.182122961963,0.573708905084,0.81904169059,0.00309001671962,0.0,0.819011081569,-0.573643713105,-0.0115967918964,0.0,-0.00772583612191,0.00918411753968,-0.999927979127,0.0,0.631210111337,0.22129275345,0.303991188719,1.0,-0.163105714286,-0.214367510204,1.231
0.436728212743,0.380257158222,-0.125631624992,-1.613510197,0.0629229236108,1.9858006378,0.119867193601,-0.177425942763,-0.777117796317,-0.0162473886213,-1.15584078626,-0.0947882325859,0.396296783046,-0.201097155868,0.573621087205,0.819103594377,0.00298276601985,0.0,0.819072302543,-0.573557086305,-0.0115576319766,0.0,-0.00775626063913,0.00907297713471,-0.999928758216,0.0,0.628033013342,0.217106138174,0.303983075902,1.0,-0.174929142857,-0.229906873469,1.25
0.433582659576,0.366659160224,-0.125765527515,-1.63390808972,0.0614238681113,1.99248654821,0.11626542463,-0.194572587083,-0.838202573055,-0.0077674933986,-1.20116503581,-0.0879237908932,0.389675748924,-0.215524017387,0.573669993213,0.819069789511,0.00285756852596,0.0,0.819036441158,-0.573605901775,-0.0116758042598,0.0,-0.00792433293421,0.00903868532906,-0.999927750948,0.0,0.624969888185,0.21311032502,0.303927069222,1.0,-0.185508,-0.243810514286,1.267
0.430314634367,0.353262017354,-0.125969759975,-1.6537590235,0.059868932742,1.99902623774,0.112611368134,-0.21271855496,-0.830595284696,-0.0116795959535,-1.26599965983,-0.0952901234328,0.411119213137,-0.232296959692,0.573756882542,0.819008962531,0.00284709146262,0.0,0.818976028893,-0.573693443738,-0.011612218232,0.0,-0.00787730476354,0.0089944629634,-0.999928521298,0.0,0.621988735432,0.209062777978,0.303939314056,1.0,-0.195464571429,-0.256896293878,1.283
0.426783474123,0.339219776128,-0.126132807992,-1.67418780927,0.0583492272637,2.00565420185,0.108742827387,-0.228089742153,-0.882287305942,-0.00780803257534,-1.29382924473,-0.0991026767614,0.419356332522,-0.244978920411,0.573852740297,0.818941104598,0.00304081474498,0.0,0.818910273247,-0.573788180042,-0.0115687387495,0.0,-0.0077294809484,0.00912908263,-0.999928454928,0.0,0.618851360633,0.204857531631,0.304059645095,1.0,-0.205421142857,-0.269982073469,1.299
0.422381329899,0.322027910848,-0.126271776508,-1.69932957072,0.0563076029211,2.01373315576,0.103817703847,-0.233948353118,-0.925239337692,-0.000715183769978,-1.33294192714,-0.108116175417,0.424579234761,-0.259677249473,0.573727827289,0.819028513311,0.00306944279842,0.0,0.818998259521,-0.573663437433,-0.011526419833,0.0,-0.00767978725256,0.00912707184121,-0.999928856183,0.0,0.614870943691,0.199694205791,0.304071498858,1.0,-0.217244571429,-0.285521436735,1.318
0.418621857665,0.307927848032,-0.126410712661,-1.71970059289,0.0546276305289,2.02021350981,0.0997107264139,-0.253936805473,-0.953287435313,-0.0125679176779,-1.37435963548,-0.121740577513,0.460361936832,-0.281203158679,0.573660515514,0.819075235233,0.00318101709806,0.0,0.819046673119,-0.573596091587,-0.0114375640342,0.0,-0.00754375171767,0.00916685684178,-0.99992952779,0.0,0.611594445436,0.195406893885,0.304128474231,1.0,-0.226578857143,-0.297789355102,1.333
0.414296063888,0.292462805904,-0.126527061301,-1.74201975304,0.0527553434366,2.02696318652,0.0951317161024,-0.276993766308,-0.99115743263,-0.00836640491275,-1.3818517173,-0.101558638939,0.428174732643,-0.285084655916,0.57360923501,0.819111659975,0.00304645779509,0.0,0.819080939925,-0.573544733628,-0.0115585155225,0.0,-0.00772058365704,0.00912554245592,-0.999928555979,0.0,0.607878216368,0.190620398316,0.304110145554,1.0,-0.236535428571,-0.310875134694,1.349
0.409033928312,0.274491272789,-0.126710287341,-1.76773577302,0.0506184848359,2.03472803609,0.0896232887701,-0.300254082362,-1.00228249502,-0.00912681216031,-1.42213021389,-0.121214453253,0.416716699199,-0.313721578081,0.573580231689,0.819132009,0.00303587700586,0.0,0.81910046835,-0.573514963201,-0.0116514649035,0.0,-0.00780311719909,0.00916991476549,-0.999927509385,0.0,0.603540777968,0.184968075823,0.304106399942,1.0,-0.247736571429,-0.325596636735,1.367
0.404241653667,0.2590114848,-0.126917459441,-1.78969440283,0.0486411342053,2.04130190572,0.0848042287059,-0.329958237101,-1.01031377439,-0.0110177549846,-1.46446010639,-0.130136578458,0.422614189871,-0.317616571485,0.573643324589,0.819087886901,0.00301936881795,0.0,0.819056596128,-0.573578647392,-0.0116006248339,0.0,-0.00777023540049,0.00912783068255,-0.999928150493,0.0,0.59979758788,0.179959873439,0.304113993841,1.0,-0.257070857143,-0.337864555102,1.382
0.398111411653,0.239952021909,-0.127146488953,-1.81648216718,0.0462376065113,2.04907527237,0.0787223135272,-0.347961479977,-1.04068775019,-0.0115434364017,-1.48430754586,-0.136463995105,0.428377994951,-0.345009247447,0.573711910491,0.819039960715,0.00298888166941,0.0,0.819008073672,-0.573647089645,-0.0116421090863,0.0,-0.00782093987506,0.00912731059355,-0.999927759941,0.0,0.595102904925,0.173754790483,0.304121573262,1.0,-0.268272,-0.352586057143,1.4
0.392023602652,0.221435036144,-0.127312361668,-1.84220979992,0.0439020278965,2.05645361233,0.07261988398,-0.36772490294,-1.07927374618,-0.00727255406425,-1.54409400051,-0.153685196396,0.429560751645,-0.368224011483,0.573613465597,0.819108550712,0.00308563391478,0.0,0.819077535536,-0.573547885937,-0.0116430330774,0.0,-0.00776729868593,0.00920615122304,-0.999927455294,0.0,0.59047462638,0.167779850323,0.304155910715,1.0,-0.278850857143,-0.366489697959,1.417
0.385858264649,0.203510440271,-0.127521725794,-1.86679806757,0.0415227529606,2.06326292102,0.0665564441758,-0.395103396685,-1.12931690249,-0.0230123197966,-1.57969159137,-0.160391086683,0.414865065385,-0.389300628592,0.573540057183,0.819159836558,0.00311638855356,0.0,0.819129479151,-0.573474694891,-0.0115938607491,0.0,-0.00771020354671,0.00920244646533,-0.999927931273,0.0,0.585956404686,0.161881428299,0.304216993506,1.0,-0.288807428571,-0.379575477551,1.433
0.378778098233,0.184035371481,-0.127796387565,-1.89328302423,0.0389805129352,2.07037133721,0.0597435707851,-0.432959088516,-1.15357999614,-0.0225920559247,-1.56446283354,-0.154651874334,0.411526153748,-0.409587350918,0.573574057547,0.819135899367,0.003150520255,0.0,0.819105583439,-0.573508100364,-0.0116296559563,0.0,-0.0077195684301,0.00925125580168,-0.99992740863,0.0,0.580988212756,0.155327534573,0.304263277113,1.0,-0.299386285714,-0.393479118367,1.45
0.371179641821,0.164188291613,-0.12812310684,-1.92009280224,0.0363277541924,2.07737901214,0.0525890937858,-0.462877860125,-1.17356623958,-0.0092722249478,-1.62620356905,-0.167774032644,0.401673468697,-0.43188183502,0.573691374986,0.819053810337,0.00313192275184,0.0,0.819022892683,-0.5736250328,-0.011686312858,0.0,-0.00777531948285,0.00926963179302,-0.999926806488,0.0,0.575852580901,0.148501356064,0.304263371754,1.0,-0.309965142857,-0.407382759184,1.467
0.363217299068,0.143872239748,-0.128358360583,-1.94716536112,0.0334665052578,2.08424424687,0.0450356163736,-0.487901708732,-1.19781130628,-0.0207015174205,-1.6327279872,-0.171879776847,0.389785353681,-0.454787663137,0.57355720448,0.819147835043,0.00311519406314,0.0,0.81911699837,-0.573491291056,-0.0116545684406,0.0,-0.00776042725363,0.00923644793483,-0.999927229251,0.0,0.570512366776,0.141579155116,0.304289583733,1.0,-0.320544,-0.4212864,1.484
0.354632213199,0.123115599888,-0.128686429901,-1.97444479005,0.0306134307947,2.09093083428,0.0369994146309,-0.52547444762,-1.21585646829,-0.0269187626144,-1.57592259258,-0.171624198067,0.382682743177,-0.484056240054,0.573547340497,0.819154402294,0.00320317223604,0.0,0.819124389317,-0.573480757407,-0.0116534377084,0.0,-0.00770915558583,0.00930777391054,-0.999926964465,0.0,0.565025495565,0.134354616252,0.304340619231,1.0,-0.331122857143,-0.435190040816,1.501
0.345392415164,0.101916367732,-0.12911813855,-2.00191729915,0.0275597897842,2.09742309959,0.028544603442,-0.55085102116,-1.25008909747,-0.0208692056741,-1.6154329064,-0.18689742564,0.368572555972,-0.503991446344,0.573661232952,0.819074357905,0.00327611525497,0.0,0.819045807244,-0.573595030434,-0.0115522118806,0.0,-0.00758310309733,0.00931052383081,-0.999927902748,0.0,0.559391561674,0.12679420021,0.304412323369,1.0,-0.341701714286,-0.449093681633,1.518
0.33627113476,0.0815938551639,-0.129449615223,-2.02803478545,0.0247309704788,2.10324284433,0.0201053211763,-0.579508272718,-1.27019682669,-0.0264614283672,-1.64620982705,-0.178939457737,0.341395330568,-0.537426142559,0.573613005216,0.819108011552,0.00330644222857,0.0,0.819078764468,-0.573545375005,-0.0116802101349,0.0,-0.00767110674277,0.00940833819206,-0.999926315932,0.0,0.553842301027,0.119599196777,0.304420961993,1.0,-0.34998,-0.459973714286,1.534
0.325936182734,0.0600715121683,-0.129841485314,-2.05547027358,0.0214837554911,2.1091651933,0.0108163481232,-0.624971177882,-1.26361938204,-0.022576649611,-1.54618545447,-0.191078799185,0.320596558733,-0.544385589926,0.573677852798,0.819062977768,0.00321038297321,0.0,0.81903269626,-0.57361079106,-0.0116982792758,0.0,-0.00774026616561,0.00934063219504,-0.999926417728,0.0,0.547914279207,0.111715130277,0.304377225242,1.0,-0.34998,-0.459973714286,1.551
0.315147931961,0.0386086665533,-0.130231473615,-2.08231821411,0.0183276171752,2.1145268176,0.00131912087691,-0.625735850287,-1.25207215429,-0.0137588545809,-1.52852573901,-0.170428985589,0.291936367191,-0.563822385918,0.5738978657,0.818908968394,0.00317618167926,0.0,0.818877416415,-0.573829899922,-0.0118224253809,0.0,-0.00785905346857,0.00938594884966,-0.999925066814,0.0,0.541938823085,0.103787714467,0.304381687823,1.0,-0.34998,-0.459973714286,1.568
0.304680428188,0.01863913831,-0.13053516222,-2.10691167234,0.0152844720929,2.11929472703,-0.00793645592579,-0.665565820468,-1.21789080679,-0.0108184794596,-1.49163387761,-0.190055699517,0.291934312273,-0.585477908497,0.573948310612,0.818873398504,0.0032312334572,0.0,0.818842689871,-0.573880298493,-0.0117813049979,0.0,-0.00779320608493,0.00940791312754,-0.99992537577,0.0,0.536350849131,0.096374853458,0.30441721094,1.0,-0.34998,-0.459973714286,1.584
0.292505296039,-0.00359823493664,-0.130925871593,-2.13377993534,0.0119250008793,2.12413363533,-0.0186384544647,-0.675266265825,-1.22284439205,-0.0158662014775,-1.43439873983,-0.181517251339,0.257349615107,-0.597003880245,0.574083946329,0.818777733162,0.00337537366513,0.0,0.818748712739,-0.574015198136,-0.0117407238956,0.0,-0.00767567529427,0.00950392693011,-0.999925376907,0.0,0.530087484092,0.0880224837734,0.30450860273,1.0,-0.34998,-0.459973714286,1.602
0.280761180992,-0.0243845840375,-0.131144652913,-2.15859531481,0.00870492235565,2.12831445156,-0.0290848191451,-0.700628595418,-1.20033922127,-0.0102169743765,-1.41575208756,-0.183574886032,0.217222816589,-0.607225693994,0.573921099346,0.818891536757,0.00345971880768,0.0,0.818863605958,-0.573852086719,-0.0117014659827,0.0,-0.00759701086962,0.00954893988589,-0.999925548815,0.0,0.524122748011,0.0802820507347,0.304562763138,1.0,-0.34998,-0.459973714286,1.619
0.269943112488,-0.0425105146534,-0.131484963245,-2.18002569145,0.00583253462133,2.13170090815,-0.0384768048283,-0.727699144729,-1.19123218416,-0.0247049114159,-1.43176675148,-0.192276076646,0.21880094683,-0.637947056685,0.574060116682,0.818793993331,0.00348221506498,0.0,0.818766445134,-0.573991125332,-0.0116808930675,0.0,-0.00756563019845,0.00955683968602,-0.999925711268,0.0,0.518870753731,0.0733000781834,0.304572719124,1.0,-0.34998,-0.459973714286,1.634
0.256740902036,-0.0640755178309,-0.13170371354,-2.20500110621,0.00251027339192,2.13530387456,-0.0501479058693,-0.743618039798,-1.19499352657,-0.0138367461508,-1.39642217348,-0.191838342594,0.189823790069,-0.65645159728,0.573915597072,0.818894554948,0.00365269977967,0.0,0.818868893148,-0.573845663395,-0.0116463443808,0.0,-0.00744118533612,0.00967528719386,-0.999925506015,0.0,0.512567113857,0.065136072242,0.304651493848,1.0,-0.34998,-0.459973714286,1.652
0.242962962518,-0.0852696265861,-0.132103784326,-2.22923485809,-0.000858699815576,2.13845867754,-0.062209994854,-0.782911318682,-1.16674921367,-0.0292667694352,-1.34914018332,-0.189638612969,0.163798484172,-0.68241987819,0.573986287534,0.818844614674,0.00373973834237,0.0,0.818819961055,-0.573915913181,-0.0116250968669,0.0,-0.0073729945717,0.00973500602574,-0.999925431524,0.0,0.506301095742,0.0568095189049,0.30469384364,1.0,-0.34998,-0.459973714286,1.67
0.231325374874,-0.102792389036,-0.1322839698,-2.24895609892,-0.00366232165951,2.14072462556,-0.0725296840083,-0.772747433268,-1.16065616112,-0.0109247410264,-1.3055952885,-0.185861464483,0.1304024864,-0.694531104312,0.573783825258,0.818986261758,0.00379101901732,0.0,0.818962172216,-0.573713187701,-0.0116140276464,0.0,-0.00733691273934,0.00976883045921,-0.999925367046,0.0,0.501041090358,0.0500431752363,0.304735668589,1.0,-0.34998,-0.459973714286,1.685
0.217559497702,-0.122324315915,-0.132679696908,-2.2707866087,-0.00685910845069,2.14300277293,-0.0845134746426,-0.82732065408,-1.1596462503,-0.0310432639851,-1.27166374278,-0.181606411051,0.14600657153,-0.7063658197,0.57389130105,0.818911033646,0.00377365243552,0.0,0.818886483631,-0.573820389558,-0.0116547996623,0.0,-0.00737898739613,0.00977896939049,-0.999924958336,0.0,0.495096452012,0.0421821585157,0.304713583212,1.0,-0.34998,-0.459973714286,1.702
0.20261468156,-0.142744566953,-0.133007834148,-2.29330105469,-0.0101865967453,2.14491008883,-0.0977261932648,-0.840246451455,-1.16306296165,-0.0245306767543,-1.22940863363,-0.189268821321,0.115849920252,-0.746340688898,0.57377834691,0.818990617813,0.00367742467944,0.0,0.81896379519,-0.573706430114,-0.0118313614972,0.0,-0.00758015781884,0.00980044540251,-0.999923243293,0.0,0.488756372414,0.0339523857995,0.304660252078,1.0,-0.34998,-0.459973714286,1.72
0.189708484141,-0.159538002483,-0.133407071781,-2.31165967315,-0.0130100364173,2.14624089519,-0.109019243276,-0.870034604155,-1.12024097855,-0.0246851438866,-1.21836500479,-0.184631902587,0.0732634430336,-0.753961025207,0.573864287047,0.818931073974,0.00352463226372,0.0,0.818901365936,-0.573791766629,-0.0120128397002,0.0,-0.00781543321513,0.00978025416534,-0.999921629745,0.0,0.483454409407,0.0269855768447,0.304565870043,1.0,-0.34998,-0.459973714286,1.735
0.17391664879,-0.179557143142,-0.133745681514,-2.33290585382,-0.0162252555603,2.14747066878,-0.122967601418,-0.884054047382,-1.10969482026,-0.0126630914719,-1.17091761319,-0.18349921529,0.0548272809817,-0.783202995393,0.573817388844,0.818963519031,0.0036201737331,0.0,0.818934259637,-0.573743510419,-0.0120751623475,0.0,-0.00781221667239,0.00989381291054,-0.999920537711,0.0,0.477148963795,0.0187853457454,0.304595131012,1.0,-0.34998,-0.459973714286,1.753
0.158415557099,-0.19825698703,-0.134222392443,-2.35235195923,-0.0193510259216,2.14837378556,-0.136623169636,-0.91111964655,-1.08529406338,-0.0150845694253,-1.14280602071,-0.181424818727,0.048978870377,-0.819138645636,0.573908370748,0.818899132896,0.0037601900933,0.0,0.818872116548,-0.573834493252,-0.011965700792,0.0,-0.00764112234159,0.00994652216807,-0.999921336879,0.0,0.471226382948,0.0108925908945,0.304663808275,1.0,-0.34998,-0.459973714286,1.77
0.143525864399,-0.215545803213,-0.134616464904,-2.37010642737,-0.0221330127475,2.14882082323,-0.149889480221,-0.947969555736,-1.09091212683,-0.033004703118,-1.07379703957,-0.177547848315,0.0346960954556,-0.838774022019,0.573899724777,0.818904675209,0.00387113976349,0.0,0.818878198286,-0.573824251784,-0.0120404043461,0.0,-0.00763873660143,0.0100801707698,-0.999920016732,0.0,0.465629743591,0.00355797459801,0.304695750307,1.0,-0.34998,-0.459973714286,1.786
0.127281260804,-0.233608248057,-0.135033037467,-2.38851446773,-0.0252647107488,2.14907434477,-0.164280297626,-0.954406329929,-1.056577272,-0.0195127414055,-1.08105934786,-0.185812100266,0.004105287528,-0.856561303681,0.57388493684,0.818915326327,0.0038097869232,0.0,0.818888048275,-0.573809695242,-0.0120642007929,0.0,-0.00769361438175,0.0100434454554,-0.999919965548,0.0,0.459661189165,-0.00425100814332,0.304671243033,1.0,-0.34998,-0.459973714286,1.803
0.110533312911,-0.251468484097,-0.135512862911,-2.40613564245,-0.0281882260684,2.14912372376,-0.179220083228,-0.993786830681,-1.02282913992,-0.0273756739327,-1.03800361594,-0.172487436742,-0.00680376160064,-0.886589375783,0.573956206314,0.818863944665,0.00410612514836,0.0,0.818841160205,-0.57388073492,-0.0118660584221,0.0,-0.00736040299991,0.0101730580192,-0.999921163572,0.0,0.453785616846,-0.0120887317035,0.304787901801,1.0,-0.34998,-0.459973714286,1.82
0.0944779107409,-0.267867754782,-0.135862120017,-2.4222929831,-0.0309717486729,2.14896605778,-0.193651694205,-1.01949350505,-1.02160518442,-0.0258766416687,-0.970784001898,-0.175929891926,-0.00903192071966,-0.908182956448,0.573841938807,0.818943545033,0.00420073997259,0.0,0.818922470195,-0.573766837313,-0.0117622749454,0.0,-0.00722253290909,0.0101899632028,-0.999921996792,0.0,0.448228745966,-0.0193704864532,0.304798486605,1.0,-0.34998,-0.459973714286,1.836
0.0758379899551,-0.285998218351,-0.13638392144,-2.43994268322,-0.0340204619231,2.14838099565,-0.21044590339,-1.0338684822,-1.0067908371,-0.0230155540613,-0.981377137618,-0.158858817882,-0.0439901523582,-0.946497235145,0.573845194284,0.818940983024,0.00425514069394,0.0,0.81891989553,-0.57376889335,-0.0118409725298,0.0,-0.00725573001181,0.0102797024706,-0.999920837916,0.0,0.441914925716,-0.0276469238473,0.304768195349,1.0,-0.34998,-0.459973714286,1.854
0.0577130930101,-0.302877114852,-0.136896857046,-2.45586191138,-0.036928176382,2.14761118188,-0.226792085211,-1.0779664341,-0.98713680943,-0.0218490852887,-0.925362151748,-0.169795144879,-0.0596443255596,-0.969619719695,0.57386769715,0.81892431994,0.00442394380044,0.0,0.818906430592,-0.573792300863,-0.0116361637048,0.0,-0.00699084715199,0.0103006128144,-0.999922509714,0.0,0.436010446421,-0.0355026454179,0.304856263867,1.0,-0.34998,-0.459973714286,1.871
0.0403316644167,-0.318301797987,-0.13732309034,-2.47050823703,-0.039542180409,2.14656498995,-0.242536002984,-1.10244295519,-0.954424446944,-0.027803080692,-0.901757439014,-0.160925392545,-0.0741512330003,-0.995947383452,0.57385315185,0.818934746617,0.00438038772441,0.0,0.818915028793,-0.57377605481,-0.0118305301726,0.0,-0.00717520878718,0.010376352144,-0.999920420681,0.0,0.430360060481,-0.0428055361928,0.304783465044,1.0,-0.34998,-0.459973714286,1.887
0.0213690485663,-0.334344317273,-0.137860734293,-2.48522616007,-0.0422542818273,2.14539659185,-0.259845758392,-1.12359937782,-0.926530038441,-0.0280725787196,-0.862917480468,-0.166941872636,-0.0781311341323,-1.02678516548,0.573861690629,0.818927594585,0.00459366481275,0.0,0.818911237063,-0.57378477175,-0.0116691225022,0.0,-0.00692052474708,0.0104584674596,-0.999921360306,0.0,0.424476717327,-0.0506288161328,0.304850848815,1.0,-0.34998,-0.459973714286,1.904
0.00187465473666,-0.34999166666,-0.138365250021,-2.49946951174,-0.045033686265,2.1438529083,-0.277584442745,-1.14935573947,-0.908299451027,-0.0275720268356,-0.836313044583,-0.169383375464,-0.0926283945704,-1.06215089756,0.573888277408,0.818909136858,0.00456262269654,0.0,0.818892272136,-0.573811294496,-0.0116958046159,0.0,-0.00695985082579,0.0104485827984,-0.999921190692,0.0,0.418506842375,-0.0584699777396,0.304853260464,1.0,-0.34998,-0.459973714286,1.921
-0.0179985944514,-0.365272652379,-0.138908091008,-2.5129781333,-0.0475515810186,2.14225852688,-0.295884741432,-1.18057447297,-0.904433462177,-0.0470586986671,-0.781330374687,-0.149695365154,-0.0952913421644,-1.08755378546,0.573938089482,0.818872644051,0.00483830216221,0.0,0.818859716839,-0.573860819568,-0.0115442974671,0.0,-0.00667692589799,0.0105878066193,-0.999921655437,0.0,0.412960826539,-0.0658151863097,0.304945458637,1.0,-0.34998,-0.459973714286,1.937
-0.0382606127497,-0.379947737967,-0.139329812651,-2.52600132725,-0.0501807792803,2.14034520249,-0.314650603013,-1.20796077775,-0.881233072856,-0.0281074897858,-0.72111965951,-0.153753135304,-0.114607211508,-1.10672185308,0.573732497522,0.819017256064,0.0047436755298,0.0,0.819002737332,-0.573654972236,-0.0116291002296,0.0,-0.00680333169139,0.0105572792229,-0.999921126156,0.0,0.406647974034,-0.0740105078456,0.304925811547,1.0,-0.34998,-0.459973714286,1.955
-0.059075089747,-0.394166608078,-0.13989557502,-2.53830190403,-0.0526422134294,2.13852930515,-0.333906640791,-1.22439112875,-0.810402434424,-0.0387283610376,-0.718223427422,-0.130714588565,-0.111772465419,-1.15973224404,0.573795400904,0.818972120817,0.00492444183697,0.0,0.818960599093,-0.573718372359,-0.0114679227602,0.0,-0.00656679269994,0.010613369515,-0.999922113777,0.0,0.400751695531,-0.0818417288517,0.304977738834,1.0,-0.34998,-0.459973714286,1.972
-0.0790466159993,-0.407007828033,-0.140342916587,-2.54944686826,-0.0549012420726,2.1364585016,-0.352521385921,-1.24508191823,-0.807577775382,-0.0180141802918,-0.680931260426,-0.152737230455,-0.123461967196,-1.18390080402,0.573727068577,0.819020410421,0.00485437914829,0.0,0.819006519493,-0.573647934318,-0.0117096277433,0.0,-0.0068058505831,0.0106941044645,-0.999919655036,0.0,0.395106823778,-0.0891480052838,0.304917595753,1.0,-0.34998,-0.459973714286,1.988
-0.100736334765,-0.420172112607,-0.140917211749,-2.56040185867,-0.0572165995165,2.13447402123,-0.37281047096,-1.28813237809,-0.764667292519,-0.0266711234418,-0.631705578665,-0.143321501356,-0.124916943578,-1.20388388829,0.573755534125,0.818999107324,0.0050789925007,0.0,0.818989572584,-0.573678063756,-0.0114151682299,0.0,-0.00643542990853,0.0107093640306,-0.999921944336,0.0,0.389253038894,-0.0969984178786,0.305024209346,1.0,-0.34998,-0.459973714286,2.005
-0.122878925774,-0.432651807673,-0.141453762423,-2.57107803332,-0.0594257195156,2.13214023542,-0.393561979899,-1.31754174241,-0.709820585277,-0.042912466665,-0.618677045339,-0.120309078844,-0.142088017727,-1.22173609822,0.57379346891,0.818972951528,0.00501064897251,0.0,0.818960104133,-0.573712242277,-0.0118049905296,0.0,-0.00679342807406,0.0108773574936,-0.999917762833,0.0,0.383217444363,-0.104788813215,0.304904523619,1.0,-0.34998,-0.459973714286,2.022
-0.143967134364,-0.443945432441,-0.141891418104,-2.58027745931,-0.0614470041028,2.13005128789,-0.41353291459,-1.32890787406,-0.708769656466,-0.0359700333195,-0.551682809504,-0.126423099963,-0.119236286616,-1.26037322348,0.573674286912,0.8190558568,0.0051051814465,0.0,0.819044844093,-0.573593751755,-0.0116832449665,0.0,-0.0066410578979,0.0108839593168,-0.999918714586,0.0,0.377676210103,-0.112083943343,0.304966615808,1.0,-0.34998,-0.459973714286,2.038
-0.166906551639,-0.455222067144,-0.142401750105,-2.58953941899,-0.0635377516457,2.12782730368,-0.43525933979,-1.35184123289,-0.65347557059,-0.0254900840829,-0.53874517278,-0.110945670831,-0.144355564501,-1.27576323168,0.573642473801,0.819078070643,0.00511598909538,0.0,0.819066761182,-0.573561193591,-0.0117449918983,0.0,-0.00668586121542,0.0109279732233,-0.999917935963,0.0,0.371727861669,-0.119892794537,0.304940645785,1.0,-0.34998,-0.459973714286,2.055
-0.190146468457,-0.465895789457,-0.142878259095,-2.59820963415,-0.0654482778625,2.12553699335,-0.457450786307,-1.36027670332,-0.608173800666,-0.0316151077528,-0.495879004246,-0.0887405967656,-0.135126309422,-1.31054291406,0.573549462149,0.819142868174,0.00516941872007,0.0,0.819131106078,-0.573466140807,-0.0118980378636,0.0,-0.00678183682895,0.0110587578066,-0.999915851742,0.0,0.365762745972,-0.127632926245,0.304907760472,1.0,-0.343512,-0.451472914286,2.072
-0.212179140535,-0.475007783058,-0.143120102599,-2.60539150817,-0.0670566576285,2.12361751096,-0.478214326438,-1.37861859784,-0.554480544195,-0.0132905104431,-0.429679403122,-0.10422132092,-0.117442042471,-1.27973461356,0.573668939176,0.819058612514,0.00526159600166,0.0,0.819048865278,-0.57358662367,-0.0117510993024,0.0,-0.00660698520939,0.0110509576709,-0.999917108605,0.0,0.360354543676,-0.134840318452,0.304958780106,1.0,-0.333555428572,-0.438387134694,2.088
-0.236649682509,-0.484349333079,-0.143294889048,-2.61265411338,-0.0686061626499,2.12147751806,-0.501447036279,-1.35066786284,-0.501774754286,0.00990874331319,-0.39421907662,-0.0939743495798,-0.125157982163,-1.27617087632,0.573728267921,0.819016181755,0.00539587927776,0.0,0.819008468905,-0.573645990499,-0.0116684337977,0.0,-0.00646143598584,0.0111139951167,-0.999917361064,0.0,0.354414022551,-0.142681584885,0.305017355739,1.0,-0.322354285714,-0.423665632653,2.106
-0.259482467907,-0.49212656716,-0.143310086496,-2.61884268846,-0.0698079607697,2.11952304795,-0.523118798467,-1.33555052406,-0.439592493315,0.0113485002039,-0.346235393591,-0.0706606889494,-0.11090026369,-1.28217941288,0.573816932703,0.818953587575,0.00546772732305,0.0,0.818945254205,-0.573731722876,-0.0118881319954,0.0,-0.00659894678009,0.0112995983319,-0.999914382824,0.0,0.34892042883,-0.149824098203,0.304969979561,1.0,-0.311775428572,-0.409761991837,2.123
-0.281928335483,-0.499018728138,-0.143248900625,-2.62415997957,-0.0708440370567,2.1179408574,-0.544438962574,-1.31103375709,-0.39029584869,0.00433614644159,-0.302153278462,-0.0663112612034,-0.0934107275139,-1.23265875764,0.573939426066,0.818866700878,0.00562212604562,0.0,0.818860984078,-0.573854701578,-0.0117565782596,0.0,-0.00640091022623,0.0113515219971,-0.999915082043,0.0,0.343683720245,-0.156781529205,0.305003337754,1.0,-0.301196571429,-0.395858351021,2.14
-0.303753512306,-0.50498220793,-0.143020689534,-2.62876196775,-0.0716158845603,2.116385392,-0.565265934865,-1.28805362085,-0.337095956308,0.00140716785689,-0.251107405854,-0.0364311280938,-0.0785653143543,-1.19153564657,0.573991248899,0.818829430669,0.00575817326316,0.0,0.818824948663,-0.573905074824,-0.0118074315093,0.0,-0.00636375008488,0.0114925195515,-0.999913708617,0.0,0.338647287991,-0.163407940864,0.305008873085,1.0,-0.290617714286,-0.381954710204,2.157
-0.325122962583,-0.510203696102,-0.142722677809,-2.63270135044,-0.0723445623246,2.11511596746,-0.585699508173,-1.24688620373,-0.293326771756,0.0247241971689,-0.226279000335,-0.0377424697959,-0.0774566985384,-1.20650377347,0.573998448939,0.818823765951,0.0058453255977,0.0,0.818821365968,-0.573913707858,-0.0116350104768,0.0,-0.00617242944646,0.0114649761938,-0.999915224124,0.0,0.333809089901,-0.169850187307,0.305056349176,1.0,-0.280038857143,-0.368051069388,2.174
-0.343509244045,-0.514137021889,-0.14244085253,-2.63581096815,-0.0728898195484,2.11396341081,-0.603366617231,-1.20946888067,-0.248184475967,0.0146985828847,-0.20234763931,-0.0273360564431,-0.0763963377161,-1.15731191484,0.57396850434,0.818844718438,0.00585064206849,0.0,0.818841233385,-0.5738816218,-0.011818018904,0.0,-0.00631966807634,0.0115741404401,-0.999913046754,0.0,0.329614656074,-0.175312738239,0.305006869968,1.0,-0.270704571429,-0.355783151021,2.189
-0.363761856123,-0.517945918006,-0.142021976267,-2.63889476771,-0.0733859898575,2.11286417879,-0.622816264842,-1.17552880041,-0.212235021262,0.0309449648728,-0.169701995048,-0.0342717169443,-0.0574069477096,-1.12093218697,0.57393295071,0.81886972118,0.00583906880371,0.0,0.818864765756,-0.573843725483,-0.0120258482968,0.0,-0.00649701513376,0.0116836632527,-0.999910636411,0.0,0.325033370652,-0.181252482235,0.304926967152,1.0,-0.260125714286,-0.341879510204,2.206
-0.384535991572,-0.52125679202,-0.141588463617,-2.64153106508,-0.0737297710659,2.11190804755,-0.642749681141,-1.14925315309,-0.172232946556,0.0178474882948,-0.132155902212,-0.0151398309869,-0.0594993377701,-1.09543531655,0.574009820493,0.818815289785,0.00591558049093,0.0,0.818810419601,-0.573918614594,-0.0121518507157,0.0,-0.00655518561296,0.0118192481491,-0.999908663286,0.0,0.320402403047,-0.187320934546,0.3048760169,1.0,-0.248924571429,-0.327158008163,2.224
-0.402268118888,-0.523731599973,-0.141034632067,-2.64341402343,-0.0739652700062,2.11117440423,-0.659933298495,-1.09964274616,-0.145963413227,0.0368674171325,-0.111724450596,-0.01770517653,-0.0397107845345,-1.05809596301,0.57385322785,0.818925052621,0.00591421809989,0.0,0.818920204954,-0.573762132861,-0.0121432991432,0.0,-0.00655122363004,0.0118119715257,-0.999908775238,0.0,0.316503871115,-0.192434514671,0.304880133972,1.0,-0.238968,-0.314072228572,2.24
-0.42064926795,-0.525842245197,-0.140568007548,-2.64499551547,-0.074142587931,2.11053011124,-0.67758152631,-1.06698982936,-0.114465496089,0.0236662066963,-0.0858507175552,-0.00988759489743,-0.0341685423746,-1.02319665557,0.57395273126,0.818854908079,0.00597065290216,0.0,0.818850905169,-0.573861568756,-0.0121178343551,0.0,-0.00649654497468,0.0118443666992,-0.999908748777,0.0,0.312476335569,-0.197754971697,0.304891574582,1.0,-0.228389142857,-0.300168587755,2.257
-0.438264811478,-0.527496614279,-0.140102185517,-2.64622484319,-0.0742143139327,2.11002342607,-0.694528749434,-1.02702253351,-0.0965551250384,0.0236535449726,-0.0688033190172,-0.00803258190084,-0.0339139684241,-0.985343065284,0.574066446899,0.818774537309,0.00605957927534,0.0,0.818771921509,-0.573975297464,-0.0120683615871,0.0,-0.00640334164162,0.0118896837362,-0.999908812161,0.0,0.308632105887,-0.202827693893,0.304906868534,1.0,-0.217810285714,-0.286264946939,2.274
-0.454046368554,-0.528652257181,-0.139524222933,-2.64709372854,-0.0742373484698,2.10964144663,-0.709855717732,-0.970261812058,-0.0699815731903,0.0364439835398,-0.0479689149754,-0.00318053250749,-0.0208747163698,-0.946029235603,0.573968838449,0.818842980362,0.00605746675297,0.0,0.818840557627,-0.573878128492,-0.0120325277755,0.0,-0.00637662599119,0.011866623914,-0.999909256822,0.0,0.305216640944,-0.207318233416,0.304916764741,1.0,-0.207853714286,-0.273179167347,2.29
-0.470282539903,-0.529494294802,-0.138962522177,-2.64772773437,-0.0742292186417,2.10930992146,-0.72541990474,-0.927179079522,-0.042669702675,0.0364585854307,-0.0331387639395,0.000365784234391,-0.01389704629,-0.898778176995,0.574088407839,0.818759167505,0.00605578345933,0.0,0.818756774095,-0.573997775379,-0.0120268713328,0.0,-0.00637122759215,0.0118629295427,-0.999909335071,0.0,0.301702866305,-0.211942227042,0.304922476022,1.0,-0.197274857143,-0.259275526531,2.307
-0.486526640094,-0.530015268121,-0.138294586888,-2.64812336814,-0.0742016719464,2.10907325763,-0.741146586269,-0.897106081224,-0.0324797910434,0.0239008670339,-0.0206316865254,0.00551709662336,-0.0126574914423,-0.856787901926,0.574029304642,0.818801124497,0.00598521809585,0.0,0.818798040146,-0.573939401088,-0.0120033425549,0.0,-0.00639332098363,0.0117911822437,-0.999910042688,0.0,0.298209605828,-0.216540620953,0.304930106169,1.0,-0.186073714286,-0.24455402449,2.325
-0.499338598871,-0.530177715474,-0.137693887477,-2.64826993998,-0.0741148592188,2.10893537152,-0.753657473996,-0.834772842045,-0.0123732728398,0.0379800132522,-0.00782936320612,0.00689874342542,-0.000238461314901,-0.817426458215,0.573880755848,0.818905706342,0.00592191595999,0.0,0.818901761581,-0.573791077614,-0.0120187783053,0.0,-0.00644442767243,0.0117470391567,-0.999910234183,0.0,0.295468896825,-0.220141204859,0.304926782127,1.0,-0.176739428572,-0.232286106123,2.34
-0.513239680117,-0.530236717157,-0.137058395739,-2.64833070224,-0.0739587031336,2.10884470926,-0.767037664197,-0.819817697078,0.00311092552516,0.0331326733325,5.41717187949e-07,0.0133821984477,-0.00294660226676,-0.769168032832,0.573924035152,0.818875535016,0.00589973967365,0.0,0.818871499282,-0.573834799093,-0.0119932445554,0.0,-0.00643562252726,0.0117145655234,-0.999910671869,0.0,0.292305819693,-0.224261721735,0.304932922529,1.0,-0.165538285714,-0.217564604082,2.358
-0.527742284517,-0.530061637662,-0.136256631571,-2.64824239456,-0.073667990148,2.10882484176,-0.781134414901,-0.73933121969,0.0134889907944,0.0379302275068,0.00645996265136,0.0210032578105,-0.00161377570795,-0.709987225015,0.573818481411,0.818949534471,0.00589553062303,0.0,0.818945443264,-0.573729282662,-0.011992417391,0.0,-0.00643887005245,0.0117098141253,-0.999910706616,0.0,0.289390089902,-0.228044249288,0.304925326871,1.0,-0.154337142857,-0.202843102041,2.376
-0.53860295502,-0.529798256546,-0.135707399655,-2.64808830998,-0.0734153351745,2.10883310595,-0.791529172844,-0.712598336096,0.0205410398152,0.0320163245035,0.0135953087482,0.0131613968247,-0.00179913120463,-0.679453068672,0.57392950157,0.818871468602,0.00593228773679,0.0,0.818867703817,-0.573839852649,-0.0120105810544,0.0,-0.00643106284389,0.0117512118828,-0.999910271199,0.0,0.287055634744,-0.231049674354,0.304914385521,1.0,-0.145002857143,-0.190575183674,2.391
-0.550697360665,-0.529317651754,-0.134938592883,-2.64779248445,-0.073051284952,2.1088773309,-0.803232976592,-0.644105873986,0.0270510760596,0.0490918615304,0.0142159703936,0.0276259878541,0.0049426437938,-0.632356726764,0.573879619182,0.818906309882,0.00594854812072,0.0,0.818902456757,-0.573789364801,-0.0120531348173,0.0,-0.0064572988311,0.0117885560553,-0.999909662539,0.0,0.284489038632,-0.234353531704,0.304897296769,1.0,-0.133801714286,-0.175853681633,2.409
-0.560720176596,-0.528791809205,-0.134268819386,-2.64745875979,-0.0727004653494,2.10895984563,-0.812917385862,-0.613738001082,0.0320286047417,0.0395967930673,0.01989003945,0.019920110058,0.00406689159732,-0.595645459873,0.573853142014,0.818924667509,0.00597555415373,0.0,0.818920949672,-0.573762383082,-0.0120810947083,0.0,-0.00646508274853,0.0118265083367,-0.999909164077,0.0,0.282370369371,-0.237081940157,0.304881450042,1.0,-0.123845142857,-0.162767902041,2.425
-0.570726356055,-0.528143550061,-0.133609303122,-2.64698367564,-0.0723433685752,2.1090901354,-0.822382160851,-0.560203428372,0.0432308251,0.0462119892386,0.0300319581881,0.0244214709518,0.0107855347952,-0.549198026637,0.574010308254,0.818814372116,0.0059947423754,0.0,0.818811130825,-0.573919851205,-0.0120450542494,0.0,-0.00642228552913,0.0118227747111,-0.999909484027,0.0,0.280267923864,-0.239826436691,0.304888765285,1.0,-0.113266285714,-0.148864261225,2.442
-0.579611536062,-0.527380104245,-0.132830884869,-2.6464751102,-0.0719170811209,2.10921859196,-0.831083710415,-0.514498823691,0.0467792228133,0.0432712377679,0.0310899496328,0.0191031057169,0.00429785065289,-0.49668445252,0.573821943173,0.818946364629,0.00599802422244,0.0,0.81894282792,-0.573730889949,-0.0120936933351,0.0,-0.00646295884862,0.011851893714,-0.999908877237,0.0,0.278445507455,-0.242211788234,0.304871851941,1.0,-0.102687428572,-0.134960620408,2.459
-0.587962141634,-0.526678034839,-0.132122540202,-2.64598194315,-0.0715375240384,2.10932528016,-0.838981043314,-0.476045956792,0.0398245854967,0.0410553220445,0.0260802550896,0.0280093002256,0.00657428467158,-0.449803586742,0.573882537736,0.818903939272,0.00599316502608,0.0,0.818900138255,-0.573791124947,-0.012126640112,0.0,-0.00649185344382,0.0118672991524,-0.999908507339,0.0,0.276709613324,-0.244450604872,0.304866429918,1.0,-0.0921085714287,-0.121056979592,2.476
-0.595066631716,-0.525975339089,-0.131493363109,-2.6454779974,-0.0711349760015,2.1094483308,-0.845690221885,-0.424570664022,0.0432890260682,0.0440134863861,0.0284483380895,0.0252357904663,0.00492148634946,-0.401830228487,0.573961567983,0.818848259006,0.00603275245942,0.0,0.818844845985,-0.573869730413,-0.0121407421883,0.0,-0.00647953632756,0.0119084369557,-0.999908098146,0.0,0.275254043532,-0.246354393488,0.304864850414,1.0,-0.0821520000001,-0.1079712,2.492
-0.601611945244,-0.525263293161,-0.130720108373,-2.64500198918,-0.0706885190657,2.10958006589,-0.852006723197,-0.37252058483,0.0414026087016,0.0422105622522,0.0287054359463,0.0209481167839,0.00227187972051,-0.35582941869,0.573819487907,0.818947806088,0.00603598394261,0.0,0.818944143263,-0.57372713021,-0.0121826588826,0.0,-0.00651407943509,0.0119340105467,-0.999907568809,0.0,0.273952342442,-0.248053362529,0.304851254231,1.0,-0.0715731428572,-0.0940675591838,2.509
-0.607571731302,-0.524679243686,-0.12999593052,-2.64455072565,-0.0702648808334,2.10969556669,-0.857545090893,-0.337822598122,0.033788362844,0.0461449906089,0.0252088955989,0.0273329444257,0.00697653050219,-0.306153126016,0.57385793276,0.818920831695,0.00604080504633,0.0,0.818917481806,-0.573766004521,-0.0121440087922,0.0,-0.00647909794738,0.0119160860591,-0.99990800986,0.0,0.27276876927,-0.249592885218,0.304870416901,1.0,-0.0609942857144,-0.0801639183675,2.526
-0.612409661651,-0.524144920416,-0.129324088304,-2.64414465935,-0.0698305665746,2.10982395499,-0.861990250908,-0.287613253204,0.0335951091365,0.0432213270943,0.0270266558579,0.0288588035467,0.00758220818087,-0.266460384135,0.5739117296,0.818882899403,0.0060721161096,0.0,0.818880251671,-0.573820196052,-0.0120939211025,0.0,-0.006419325913,0.0119134085156,-0.999908427283,0.0,0.27184076286,-0.250823775395,0.304886874336,1.0,-0.0510377142858,-0.0670781387756,2.542
-0.616771144212,-0.5236248271,-0.128629846757,-2.64374828662,-0.0693837031468,2.10994360419,-0.865968040348,-0.244515298546,0.0248773577005,0.0399246774773,0.0189222934086,0.0195373661018,0.00140630556327,-0.220574300265,0.573946805525,0.818858113886,0.00609923367153,0.0,0.818856073593,-0.573855621098,-0.0120500529058,0.0,-0.00636732665865,0.011910713226,-0.999908791871,0.0,0.27102979562,-0.251912416156,0.304903765992,1.0,-0.040458857143,-0.0531744979593,2.559
-0.620541462313,-0.523206131008,-0.127838095604,-2.64344566294,-0.068911604336,2.11002294929,-0.86932418087,-0.189712325726,0.0241985178207,0.0454586378323,0.012313406159,0.0248533750104,0.0056983351325,-0.173614145606,0.573943394711,0.818860457449,0.00610555444281,0.0,0.818858553339,-0.573852284805,-0.0120404214354,0.0,-0.00635586100748,0.0119103351416,-0.999908869321,0.0,0.270360548007,-0.252786975824,0.304914010884,1.0,-0.0292577142858,-0.0384529959185,2.577
-0.62292428084,-0.522946242046,-0.127121762486,-2.64325658939,-0.0685389308376,2.1100827373,-0.871395177112,-0.140543180484,0.0151157374902,0.0473889458619,0.00952430706432,0.0195391643622,0.00392334687964,-0.11066247554,0.57386082065,0.818918637937,0.00606381592514,0.0,0.818916367254,-0.573770235726,-0.0120186080613,0.0,-0.006363147561,0.0118629947937,-0.999909385748,0.0,0.269989425318,-0.253283842209,0.304927206574,1.0,-0.0199781818182,-0.026257038961,2.592
-0.625120857569,-0.52271912102,-0.126469792342,-2.64308359015,-0.068164069692,2.11012762181,-0.873299706296,-0.109854634333,0.00990436047179,0.0316984044483,0.00739148692118,0.0144385510697,0.00162209662508,-0.106404629859,0.573807500458,0.818956049217,0.00605712556626,0.0,0.818953840001,-0.573717231715,-0.0119955359337,0.0,-0.00634886163975,0.0118438627637,-0.999909703359,0.0,0.269645831934,-0.253738467616,0.304942189644,1.0,-0.0196181818182,-0.0257838961039,2.61
-0.626850102031,-0.522504286196,-0.126061551793,-2.64290142635,-0.0679623544696,2.1101685963,-0.874905056489,-0.0951195387885,0.0138069195976,0.0191445595325,0.00965535039461,0.00718489917632,0.00919102187419,-0.0961145759331,0.573715508538,0.819020764448,0.00602076136954,0.0,0.819018291467,-0.573625799022,-0.01196778346,0.0,-0.00634832133166,0.0117974438014,-0.999910255541,0.0,0.26935531246,-0.254140746466,0.304959486059,1.0,-0.0192781818182,-0.025337038961,2.627
-0.628462937386,-0.522268722373,-0.125860386057,-2.6427045085,-0.0678031112345,2.11024329494,-0.87647312702,-0.0934444908462,0.0126032783501,0.0145951531777,0.0152125812985,0.00725055379675,0.00376600365605,-0.089285551766,0.573687933574,0.819039888538,0.00604671455523,0.0,0.819038056359,-0.573598690409,-0.0119143400226,0.0,-0.00629005327701,0.0117878293964,-0.99991073717,0.0,0.269054591654,-0.254569680904,0.304973746961,1.0,-0.0189381818182,-0.0248901818182,2.644
-0.63003487166,-0.522021025067,-0.125740723243,-2.64254164695,-0.0677286907869,2.11026744044,-0.877912411934,-0.0923027497945,0.0162661386203,0.00530814160445,0.00687182939786,0.00700571781379,-0.000184013263755,-0.0782223542679,0.573752371428,0.818994733101,0.00604899453018,0.0,0.818992624778,-0.57366253358,-0.0119634872495,0.0,-0.00632807335406,0.0118183886281,-0.999910136551,0.0,0.268722482734,-0.254998375277,0.304961734752,1.0,-0.0185981818182,-0.0244433246753,2.661
-0.631440984563,-0.521812212824,-0.125690488425,-2.64237977261,-0.0676974813052,2.11028486833,-0.879272034941,-0.085237695296,0.0146701101677,0.00108933425278,0.00742065773361,6.92267030447e-05,0.00259403733408,-0.0886725642939,0.573776748038,0.818977659484,0.00604843607106,0.0,0.818975413692,-0.573686664472,-0.0119845599126,0.0,-0.00634530187904,0.011830210015,-0.999909887577,0.0,0.268413037437,-0.255401426389,0.304961287163,1.0,-0.0182781818182,-0.0240227532468,2.677
-0.632759240189,-0.521599272388,-0.125623565523,-2.64223102406,-0.067662021606,2.11032402153,-0.880621127678,-0.0820510285435,0.0114185841686,0.00727331620962,0.00673929041775,0.0038526168917,0.00216620688514,-0.0858407000344,0.573727169913,0.81901243293,0.00604285619398,0.0,0.81901001083,-0.573636926743,-0.0120010557067,0.0,-0.00636273087848,0.0118347192985,-0.999909723463,0.0,0.268129737818,-0.255776025344,0.304955597497,1.0,-0.0179581818182,-0.0236021818182,2.693
-0.634177675442,-0.521354011685,-0.12558072007,-2.64207284123,-0.067626970946,2.11037189669,-0.882029033136,-0.0785097389241,0.014733529805,0.00254446406707,0.0117672446,0.00593199952424,0.00270164571497,-0.0747586506387,0.57372893348,0.819011156863,0.00604836536115,0.0,0.819008607549,-0.573638297097,-0.012031282739,0.0,-0.00638430370623,0.0118565865826,-0.9999093269,0.0,0.267817948137,-0.256185558428,0.304942473732,1.0,-0.0175981818182,-0.023129038961,2.711
-0.635414210222,-0.521149664348,-0.125578844193,-2.64193437203,-0.067595267419,2.11038307027,-0.883338693911,-0.0752504392753,0.0130045153658,0.000135099403439,0.00497407551983,0.00368649930827,0.00127188712075,-0.07654067673,0.573698243235,0.819032448477,0.00607626142126,0.0,0.819029992646,-0.573606992859,-0.0120679655083,0.0,-0.00639879249329,0.0119002400752,-0.999908715704,0.0,0.267517986885,-0.256571870311,0.304935647054,1.0,-0.0172581818182,-0.0226821818182,2.728
-0.636652409028,-0.520983177739,-0.125578228019,-2.64178553634,-0.067572914719,2.11041943131,-0.884486500234,-0.0833273691169,0.00994914010039,-0.000288482729246,0.0107973463569,-7.90523271267e-06,0.00133385553826,-0.0734511355974,0.57377953116,0.818975410705,0.00608877514588,0.0,0.818973219607,-0.573688399499,-0.0120512550473,0.0,-0.00637674465562,0.0119015363971,-0.999908841125,0.0,0.267254532148,-0.256914686158,0.304940869136,1.0,-0.0169581818182,-0.0222878961039,2.743
-0.638012344616,-0.520784095197,-0.125575605943,-2.6416072755,-0.0675384276524,2.11047318667,-0.885885479394,-0.0731555601765,0.0110742482799,0.0025971661622,0.00963431654639,0.000236916922304,0.000180415671055,-0.0784959143348,0.573769644692,0.818982183599,0.00610939266441,0.0,0.818980504197,-0.573678882933,-0.0120091599254,0.0,-0.00633058034309,0.0118941939082,-0.999909221832,0.0,0.266954035813,-0.257323156569,0.30495334987,1.0,-0.0165981818182,-0.0218147532468,2.761
-0.639499704685,-0.520571433914,-0.125550428226,-2.64141920353,-0.067512274494,2.11052640844,-0.887372702009,-0.0703866225905,0.00687005713734,0.00160545428663,0.00967507807179,0.000161641549767,0.00512800708657,-0.0786775165253,0.573772829587,0.818979934462,0.00611178181927,0.0,0.818978519024,-0.573682495425,-0.0119719138914,0.0,-0.00629865627723,0.0118748055588,-0.99990965388,0.0,0.266626086471,-0.257763342866,0.304965767419,1.0,-0.0161981818182,-0.021289038961,2.781
-0.640436619603,-0.520429720013,-0.125522599617,-2.64130387409,-0.0674932125814,2.11054145172,-0.88829318704,-0.0700377512682,0.0130597781149,0.00288699977586,0.00899632765523,0.0038189375442,6.42993727569e-05,-0.0654055990512,0.573780740717,0.818974391439,0.00611184515809,0.0,0.818972940826,-0.57369033678,-0.0119777536288,0.0,-0.00630328833968,0.0118782688457,-0.999909583555,0.0,0.266418097651,-0.258034022766,0.304968010959,1.0,-0.0159381818182,-0.0209473246753,2.794
-0.641612188291,-0.520239170289,-0.125481364814,-2.6411556433,-0.0674686791986,2.1105555538,-0.889554540942,-0.0721552797402,0.0117789529858,0.00371694554233,0.00807824829546,0.000490222444045,0.000228777694331,-0.0760884377455,0.573699533411,0.819031286241,0.00611100850178,0.0,0.819029685847,-0.573608888557,-0.0119984820394,0.0,-0.00632192509966,0.0118888498183,-0.999909340147,0.0,0.266157935414,-0.258371985961,0.304967475425,1.0,-0.0155981818182,-0.0205004675325,2.811
-0.642747026052,-0.520033549981,-0.125416005342,-2.64100012254,-0.0674425331754,2.11060663321,-0.890715709758,-0.0626355391662,0.0192108473203,0.00016784870938,0.00948920875142,0.00306043066042,0.00489370816749,-0.0609722566837,0.573650981693,0.819065419442,0.0060939952318,0.0,0.819063657787,-0.573560531371,-0.011991173734,0.0,-0.00632640240358,0.0118703471502,-0.999909531653,0.0,0.265920484506,-0.258700148498,0.30496842488,1.0,-0.0152581818182,-0.0200536103896,2.828
-0.643958726122,-0.519826572867,-0.125353650793,-2.64084603434,-0.0674141631862,2.11067837111,-0.891896671537,-0.0658482980662,0.0128198621618,0.00379991551445,0.009170781046,0.000961490570819,0.000215786823803,-0.0619878350728,0.573652164858,0.819064704768,0.00607865589556,0.0,0.819062921832,-0.573562112526,-0.0119657868736,0.0,-0.00631438854772,0.0118432292218,-0.999909929153,0.0,0.265665203533,-0.259051440213,0.304969903574,1.0,-0.0148981818182,-0.0195804675325,2.846
-0.645088478388,-0.519630047318,-0.125316687121,-2.6407015499,-0.0673851474253,2.11069004561,-0.893063864998,-0.0698682275391,0.0131760410987,0.00138208278884,0.00674259661568,0.00300669940138,0.00170588238046,-0.0630607640728,0.573615317025,0.819090473156,0.00608372922505,0.0,0.819088537431,-0.573524841305,-0.0119987981302,0.0,-0.00633905344584,0.0118660357244,-0.999909502704,0.0,0.265413753665,-0.259375578526,0.304965123938,1.0,-0.0145581818182,-0.0191336103896,2.863
-0.646144124154,-0.519465048111,-0.125309470339,-2.6405687765,-0.0673649106848,2.11070844341,-0.89408254794,-0.0678812243857,0.0129046115739,-0.00669746555343,0.0132386268764,-9.22767296862e-05,-9.01171336298e-05,-0.0693932925659,0.573656056782,0.819061862875,0.00609427618028,0.0,0.819060008908,-0.573565424258,-0.0120063651459,0.0,-0.00633861173776,0.0118793307023,-0.999909347643,0.0,0.265172995947,-0.259685712012,0.304966479614,1.0,-0.0142381818182,-0.018713038961,2.879
-0.647169242199,-0.519319444262,-0.12530130634,-2.64045509156,-0.0673422170658,2.11074481767,-0.895102704413,-0.0620054713419,0.00838348634547,0.000624442916959,0.00888723912286,0.00294479016052,0.000557126311146,-0.0603211429824,0.573669966283,0.819052029267,0.00610655703482,0.0,0.819050392747,-0.57357938734,-0.0119953099591,0.0,-0.00632230944497,0.0118831557851,-0.999909405402,0.0,0.26493913444,-0.259985038361,0.30496785154,1.0,-0.0139181818182,-0.0182924675325,2.895
-0.648288375961,-0.519145324957,-0.125278207583,-2.64030756649,-0.0673182880864,2.11079090604,-0.896224645804,-0.0609895550513,0.0122486837646,0.00135431592896,0.00973208976145,0.00220584181297,0.00512914638003,-0.0630692977107,0.573673000834,0.81904988532,0.00610904032986,0.0,0.819048418521,-0.57358266943,-0.0119731511749,0.0,-0.00630268978294,0.0118725019672,-0.999909655818,0.0,0.264678455654,-0.260333729916,0.304974528441,1.0,-0.0135381818182,-0.017793038961,2.914
-0.649296783056,-0.518963947982,-0.125257929133,-2.64015863166,-0.0672949044761,2.11082538266,-0.897217886613,-0.0574037568671,0.00733852995722,0.00171401561134,0.0105676168245,-8.44782988845e-05,0.000473899986283,-0.0547254782683,0.573684915643,0.819041520332,0.00611166410447,0.0,0.819040160613,-0.57359470836,-0.0119613019971,0.0,-0.00629130591041,0.0118679453717,-0.999909781602,0.0,0.26447200702,-0.260615130226,0.304979604846,1.0,-0.0132181818182,-0.0173724675325,2.93
-0.650182127893,-0.518799657959,-0.125246216104,-2.64003621712,-0.0672796410759,2.11085372093,-0.89809504533,-0.0589629890738,0.00653071970327,-0.000575313832958,0.00564627902612,0.000349844251733,0.000506143207979,-0.05200743527,0.573696271096,0.819033545419,0.00611448363344,0.0,0.819032166285,-0.573605943926,-0.0119699032954,0.0,-0.00629656940665,0.0118752762978,-0.999909661433,0.0,0.264274004538,-0.260877675874,0.304977432528,1.0,-0.0129181818182,-0.0169781818182,2.945
-0.65117165771,-0.518622471581,-0.125221359401,-2.63992274946,-0.0672686208356,2.11088166549,-0.899139289053,-0.0582551033558,0.0111170088551,0.000100013526844,0.00392821711187,-0.000155987788309,0.00301513008625,-0.0683255297029,0.573644619197,0.819069747965,0.00611111579826,0.0,0.819068131564,-0.573553952704,-0.0120002539205,0.0,-0.00632411209142,0.0118895301994,-0.999909318227,0.0,0.264048627901,-0.26116257431,0.304966711318,1.0,-0.0125781818182,-0.0165313246753,2.962
-0.652202675744,-0.518448034888,-0.125218609433,-2.63980380053,-0.0672587418424,2.11091233422,-0.900134743388,-0.0553678399747,0.0101903286582,-0.00120296447393,0.00442288630445,7.81957953781e-05,-0.000334645507231,-0.0579019461904,0.573682342777,0.819043290286,0.00611597290715,0.0,0.819041612636,-0.573591413883,-0.0120197167506,0.0,-0.00633672081018,0.0119049647852,-0.999909054756,0.0,0.263808912809,-0.261465001588,0.304959193555,1.0,-0.0122181818182,-0.0160581818182,2.98
-0.65309423806,-0.518292772875,-0.125215370363,-2.63968365666,-0.067248245099,2.1109520271,-0.901007733019,-0.0559172104965,0.00745666683626,0.00291234797853,0.0133242155993,-0.000346151779093,0.00497059672366,-0.0560102457688,0.573706018957,0.819026693726,0.00611765299549,0.0,0.819025096539,-0.573615188093,-0.0120105840845,0.0,-0.00632793213108,0.0119012848523,-0.99990915422,0.0,0.263607645859,-0.2617321897,0.304960055695,1.0,-0.0118981818182,-0.0156376103896,2.996
-0.653997006898,-0.518131341401,-0.125206457586,-2.63956455625,-0.0672391147051,2.11098180893,-0.901916478388,-0.0546121030134,0.00995499487436,0.000559642633585,0.00808220394898,-0.000219977817501,0.000465217804096,-0.0566337183735,0.573704966013,0.819027433458,0.00611736192476,0.0,0.819025782396,-0.573614042439,-0.0120185268847,0.0,-0.00633462048663,0.0119055949141,-0.999909060562,0.0,0.263402359799,-0.261999310292,0.304957450775,1.0,-0.0115581818182,-0.0151907532468,3.013
-0.654769137529,-0.517979952909,-0.125190268525,-2.63945364134,-0.0672293083092,2.111005558,-0.902701767129,-0.049448424949,0.0111113299888,0.000593725896292,0.00982473490373,0.00209784544088,0.00110091292947,-0.0463020794367,0.573697082007,0.819032983123,0.00611371848804,0.0,0.819031232853,-0.57360607834,-0.0120271943199,0.0,-0.00634392489663,0.0119075219333,-0.999908978627,0.0,0.263217793479,-0.262242238338,0.30495573319,1.0,-0.0112381818182,-0.0147701818182,3.029
-0.65563132604,-0.51783084936,-0.125162843494,-2.63933790516,-0.0672198109904,2.11103887898,-0.903509389302,-0.0491268848668,0.0094837834698,0.00316264223778,0.00857842303986,0.00018581079253,0.00374658556272,-0.0459218801041,0.573728055519,0.819011364158,0.00610332631412,0.0,0.819009489751,-0.57363711049,-0.0120278039263,0.0,-0.00634993588628,0.0118995998333,-0.999909034782,0.0,0.263039164793,-0.262479382371,0.304955611044,1.0,-0.0109181818182,-0.0143496103896,3.045
-0.656569580694,-0.517663174714,-0.125135789661,-2.63921072791,-0.0672038019451,2.11108214119,-0.904393322445,-0.0450311075632,0.0138731541181,0.00370884064873,0.00424557706501,0.0043083859759,-6.4660532951e-05,-0.0494977993488,0.573766827741,0.818984248856,0.00609708210424,0.0,0.818982350495,-0.573676008496,-0.0120205555396,0.0,-0.00634701812416,0.011890627584,-0.999909160042,0.0,0.262832246423,-0.26275463985,0.304955934616,1.0,-0.0105381818182,-0.0138501818182,3.064
-0.657328121854,-0.517529182673,-0.125132548618,-2.63910523223,-0.0671887008576,2.11110689529,-0.905183285728,-0.0436786910933,0.00405416638437,-0.000190737570874,0.00519548100127,0.000111876232126,-0.000224673801525,-0.0385637419318,0.573750322458,0.818995752556,0.00610505327253,0.0,0.81899390316,-0.573659370135,-0.0120274912286,0.0,-0.0063483654409,0.0119010075107,-0.999909028,0.0,0.262649774134,-0.262994036293,0.304954418289,1.0,-0.0101981818182,-0.0134033246753,3.081
-0.658113920761,-0.517371248651,-0.125131514866,-2.63899692872,-0.0671793077706,2.11113421239,-0.905985477852,-0.044552339949,0.0101385287631,0.0014392105637,0.0078048232296,0.000162120335522,0.00317162253484,-0.0510894489481,0.573746331378,0.818998518148,0.00610912450931,0.0,0.818996652631,-0.573655232957,-0.0120375903954,0.0,-0.00635435979346,0.011910105158,-0.999908881602,0.0,0.262479676007,-0.263214458809,0.304950019034,1.0,-0.00987818181819,-0.0129827532468,3.097
-0.658929705706,-0.517203642772,-0.125116634979,-2.6388939779,-0.0671605563157,2.11116174052,-0.906763819349,-0.0468180251228,0.00711941088155,0.00382342944425,0.00462561326287,6.29156284794e-06,0.000165093718226,-0.0451313527783,0.573779976635,0.818974898529,0.00611562705944,0.0,0.818972908685,-0.573688451654,-0.0120698872926,0.0,-0.00637659287128,0.0119342223008,-0.99990845251,0.0,0.262293858359,-0.263451035175,0.304937710316,1.0,-0.00951818181819,-0.0125096103896,3.115
-0.659582935809,-0.517072686076,-0.125101336244,-2.63881892866,-0.0671468772147,2.11118803724,-0.907400599952,-0.0438036132315,0.0147839519413,-0.000713669279135,0.00685051803665,-6.09796206386e-05,0.000746438608668,-0.0466607819609,0.573792499869,0.818966101424,0.00611871835177,0.0,0.818963985095,-0.573700646902,-0.0120956919171,0.0,-0.00639577211515,0.0119516573742,-0.999908121772,0.0,0.262144602216,-0.263638525508,0.3049261333,1.0,-0.00921818181819,-0.0121153246753,3.13
-0.660327387668,-0.516923581611,-0.125060172881,-2.6387431201,-0.0671291458156,2.11121384033,-0.908140421844,-0.0408779136451,0.00962289168944,0.000718194172437,0.0058451322662,-0.000322600940356,0.002629166227,-0.04429617097,0.573778827805,0.818975711185,0.0061145852655,0.0,0.818973266367,-0.57368648389,-0.0121389488618,0.0,-0.00643377322575,0.0119729842331,-0.999907622839,0.0,0.26197691812,-0.263843631251,0.30490877457,1.0,-0.00885818181819,-0.0116421818182,3.148
-0.660988739514,-0.516790358147,-0.125015436958,-2.63866582697,-0.0671115344594,2.11123901107,-0.908851964047,-0.0379304976594,0.010513522896,0.000853478140783,0.00201833695023,-0.000117639300494,0.00123401898142,-0.0350591397353,0.573717657101,0.819018618142,0.00610736999545,0.0,0.819015906884,-0.57362503831,-0.012165796148,0.0,-0.00646079759248,0.0119819959288,-0.999907340641,0.0,0.261832386672,-0.264026679893,0.304897970441,1.0,-0.00851818181819,-0.0111953246753,3.165
-0.661543777351,-0.516688584444,-0.124992705869,-2.63859517958,-0.0670958287724,2.11125981522,-0.909401849562,-0.0394170704004,0.00514135453767,0.00143983405334,0.00566450900332,0.000795899366231,-0.000146441497455,-0.0415073041768,0.573716167892,0.819019660466,0.00610748476343,0.0,0.819016905358,-0.573623464824,-0.012172766439,0.0,-0.0064664629639,0.0119860769536,-0.999907255107,0.0,0.261709284192,-0.264184983787,0.304894848832,1.0,-0.00821818181819,-0.010801038961,3.18
-0.662186221437,-0.516567236029,-0.124984480347,-2.63850922919,-0.067078429316,2.1112841529,-0.910047783718,-0.0310261192093,0.00949801010331,-0.0020080942729,0.00181611349496,7.72798670835e-05,-0.00101640839184,-0.0336988017416,0.573719421184,0.819017321777,0.00611549564426,0.0,0.819014619064,-0.573626584636,-0.0121795755048,0.0,-0.00646739694801,0.0119965703155,-0.999907123226,0.0,0.261563514485,-0.264373198806,0.304891416356,1.0,-0.00785818181819,-0.0103278961039,3.198
-0.662795479712,-0.516485181241,-0.124972100414,-2.63841417138,-0.0670595721664,2.1113041424,-0.910609120933,-0.0368282075324,0.00356432271962,8.09775348982e-05,0.00817665900289,0.00350068464061,0.00465986856976,-0.0346698858811,0.573762683331,0.818986990899,0.00611872987048,0.0,0.818984568115,-0.573670264811,-0.0121429552372,0.0,-0.00643491287726,0.0119785505451,-0.999907548838,0.0,0.261429698268,-0.264554039248,0.304906338221,1.0,-0.00751818181819,-0.00988103896105,3.215
-0.6633513537,-0.516415347339,-0.124973483853,-2.63832775215,-0.0670439494502,2.11131918091,-0.911148457517,-0.0351972497547,0.00634814136178,-0.000629666802185,0.00656295112563,0.000622628080563,0.000353163105604,-0.0308797684676,0.573788182826,0.818969063536,0.00612708095553,0.0,0.818966970083,-0.573696133105,-0.0121076700748,0.0,-0.0064008478075,0.011965345306,-0.999907925591,0.0,0.261304087766,-0.264721428555,0.304921093982,1.0,-0.00719818181819,-0.00946046753247,3.231
-0.663951153077,-0.51634539161,-0.124973178436,-2.63823833885,-0.0670212955244,2.1113394665,-0.911737410214,-0.0302275398988,0.00465768371503,-3.15438339767e-05,0.00280090749121,0.000400548475276,0.00367392805369,-0.0223224874358,0.573805211598,0.818957030608,0.00614068905114,0.0,0.818955323623,-0.573713490604,-0.012072924678,0.0,-0.00636433292792,0.0119566872919,-0.99990826224,0.0,0.261183006051,-0.264880344561,0.304934064367,1.0,-0.00687818181819,-0.0090398961039,3.247
-0.664415843707,-0.516298732151,-0.1249550073,-2.63816418176,-0.0669982845314,2.11135283677,-0.91221460998,-0.0280564270885,0.00181306913382,0.000961933521135,0.00451283236818,-0.000100627506052,7.63608657645e-05,-0.0287027985637,0.57380125333,0.818959771347,0.00614503811101,0.0,0.818958459337,-0.573710151686,-0.0120187617413,0.0,-0.0063175332528,0.0119291411675,-0.999908888032,0.0,0.261070074921,-0.265036164343,0.304955711221,1.0,-0.00653818181819,-0.00859303896105,3.264
-0.664995407189,-0.516199697226,-0.124913014591,-2.63807714506,-0.0669708427652,2.1113788779,-0.912790145643,-0.0257177535103,0.00710068633873,0.00303844289112,0.00552945388989,0.000289244121984,-0.000417306902652,-0.0329347855555,0.573790896106,0.818967047952,0.00614237865908,0.0,0.818965816603,-0.573700025729,-0.0120007756547,0.0,-0.00630447839708,0.0119165634021,-0.999909120405,0.0,0.260949801518,-0.265200242519,0.304961936482,1.0,-0.00613818181819,-0.00806732467533,3.284
-0.665409185846,-0.516121184174,-0.124857578608,-2.63802499185,-0.0669503396198,2.11140760263,-0.913196185344,-0.0260320613414,0.00270941904237,0.000420686781314,0.00446083340555,-0.00015895546824,0.00430596335054,-0.0299200991434,0.573769357404,0.818982235455,0.00612938942969,0.0,0.818980876284,-0.573678624261,-0.0119961347266,0.0,-0.0063084429967,0.0119030964111,-0.999909255804,0.0,0.260868763896,-0.265310478012,0.30496042503,1.0,-0.00583818181819,-0.00767303896105,3.299
-0.665834133381,-0.516023594787,-0.124816189592,-2.63797096354,-0.0669252053219,2.11143123777,-0.913638643713,-0.0243944787791,0.00951965796856,0.000643410032403,0.0080366600515,0.000908749148012,0.00108439973515,-0.0303870902219,0.573739274691,0.819003312686,0.00612906087879,0.0,0.819001841906,-0.573648346908,-0.0120126577456,0.0,-0.00632260257631,0.0119120750353,-0.999909059447,0.0,0.260781224857,-0.265425603052,0.304951961329,1.0,-0.00549818181819,-0.00722618181819,3.316
-0.666210555997,-0.515924875334,-0.124781805449,-2.63793908613,-0.0669004771397,2.11144246161,-0.914025305381,-0.0216204962412,0.00533250417529,0.00369931401551,0.00136154499037,0.00143928039315,0.00177324871349,-0.0241493351639,0.573718946864,0.819017497305,0.00613644998909,0.0,0.819015782814,-0.573627352238,-0.0120646246486,0.0,-0.00636122559953,0.0119477831711,-0.999908388447,0.0,0.260697963999,-0.265522044941,0.304931791376,1.0,-0.00517818181819,-0.00680561038962,3.332
-0.666592281503,-0.515838833369,-0.124760129943,-2.6379129649,-0.0668777225067,2.11145446262,-0.914439947226,-0.0219509010068,0.00668634462544,0.000521994782027,0.000146384213639,0.00203711322388,-0.000330491473698,-0.0296066054689,0.573687906474,0.819039146355,0.00614895146857,0.0,0.819037298085,-0.573595706946,-0.0121085184871,0.0,-0.00639046151686,0.0119829619274,-0.99990778106,0.0,0.260609352962,-0.2656216143,0.304913449775,1.0,-0.00483818181819,-0.00635875324676,3.349
-0.666964755223,-0.515776309021,-0.124743590602,-2.63790139468,-0.0668574236438,2.11145857897,-0.914808410407,-0.0215614250451,0.00371471905393,0.00087569267699,-0.00183439192882,0.00093258852829,0.000490219643951,-0.0141173641906,0.573688936725,0.8190383156,0.00616346972502,0.0,0.819036366571,-0.573596128626,-0.01215147568,0.0,-0.00641730535287,0.0120195044243,-0.999907170544,0.0,0.260517801397,-0.265715588542,0.304896382107,1.0,-0.00449818181819,-0.0059118961039,3.366
-0.667318608615,-0.515730462887,-0.124723922749,-2.6378746611,-0.0668344575151,2.11146090791,-0.915165641025,-0.0240198200594,9.5721273218e-05,0.000123663023201,0.000396411184433,-6.97864452585e-05,0.00451495208401,-0.0201588609001,0.573683448244,0.819042070055,0.0061754021723,0.0,0.819040180403,-0.573590407041,-0.0121644866881,0.0,-0.00642119854046,0.0120366989223,-0.999906938714,0.0,0.260435615287,-0.265807725407,0.304892279352,1.0,-0.00415818181819,-0.00546503896105,3.383
-0.66761552062,-0.515692055935,-0.124707583919,-2.63784157508,-0.0668194466368,2.1114653485,-0.915442323579,-0.0153147497914,0.000768682252648,-0.000331022598299,0.00156135394315,0.000429190787519,-0.000297145903028,-0.0186869991604,0.57369651597,0.819032885528,0.00617955415288,0.0,0.819031057008,-0.573603466204,-0.0121629813847,0.0,-0.00641739161313,0.0120393386085,-0.999906931374,0.0,0.260368996083,-0.265888609016,0.304893904032,1.0,-0.00385818181819,-0.00507075324676,3.398
-0.667917338318,-0.515650234186,-0.124682957081,-2.63777988568,-0.066799566535,2.11146887447,-0.91573246313,-0.0197564393516,0.00139330829672,0.00135610708624,0.000733918815998,-7.09562061762e-06,0.000108864071611,-0.0160677847825,0.573700096738,0.819030377689,0.00617950862793,0.0,0.819028713861,-0.573607356812,-0.0121372559994,0.0,-0.0063962929033,0.0120245714551,-0.999907244257,0.0,0.260309569354,-0.265975745222,0.304907379596,1.0,-0.00351818181819,-0.0046238961039,3.415
-0.668173572553,-0.515617079676,-0.124669205292,-2.63772975975,-0.0667807413229,2.11147844895,-0.915977397052,-0.0119238430706,0.00473415455402,-0.000272949771184,0.00246127450994,0.00022553272893,-0.000352316018958,-0.0195883957126,0.573710067574,0.819023359592,0.0061839880418,0.0,0.819021935239,-0.573617646435,-0.0121083524072,0.0,-0.00636990144186,0.0120117367944,-0.999907566995,0.0,0.260258248969,-0.266051456912,0.304919061498,1.0,-0.00319818181819,-0.00420332467533,3.431
-0.668424729284,-0.515591897838,-0.124640449383,-2.63768722675,-0.0667608714242,2.1114890517,-0.916214855922,-0.0127945221762,0.00246177694909,0.00259037315124,0.00133137234958,0.000656096814874,0.000210258681389,-0.0146109541499,0.573711396915,0.819022439487,0.00618252116019,0.0,0.819021188766,-0.573619345836,-0.0120783002236,0.0,-0.00634610735266,0.0119933052321,-0.999907939538,0.0,0.260210323965,-0.266120806651,0.304930677634,1.0,-0.00285818181819,-0.00375646753247,3.448
-0.668668678386,-0.515571288117,-0.124612577281,-2.63766412597,-0.0667464788827,2.11149752685,-0.916442588587,-0.0168483154015,0.00396123144636,0.000853495785715,0.00125166433441,0.000377266977521,-7.85674009457e-05,-0.0173614592918,0.57371216713,0.819021919284,0.00617996123805,0.0,0.819020718809,-0.57362028513,-0.012065552263,0.0,-0.00633712265344,0.0119839011591,-0.999908109273,0.0,0.260158994752,-0.266183716643,0.304934948749,1.0,-0.00249818181819,-0.00328332467533,3.466
-0.668884576434,-0.5155582198,-0.124588522641,-2.63765057001,-0.0667280085608,2.1115074181,-0.916630629107,-0.0150259226003,0.000458755938586,0.00313078629646,0.000900249409887,3.76532927787e-05,1.57097496538e-05,-0.0141768070144,0.573726450287,0.819011889568,0.0061831940332,0.0,0.819010809154,-0.573634698682,-0.0120529605651,0.0,-0.00632474513212,0.01197943567,-0.99990824115,0.0,0.260112876618,-0.266237581915,0.304937701629,1.0,-0.00215818181819,-0.00283646753247,3.483
-0.669089948883,-0.515541971375,-0.124556019641,-2.63763234521,-0.066712204956,2.11151894001,-0.916814793457,-0.0114156023318,0.00427886440192,0.0025464772407,-0.000170707799608,0.000284775556978,0.000820007675356,-0.0110573632789,0.573728372256,0.8190105736,0.00617916673964,0.0,0.819009540442,-0.573636826591,-0.0120378878692,0.0,-0.00631468142636,0.0119675047359,-0.999908447624,0.0,0.260072426599,-0.266288543353,0.304941736772,1.0,-0.00179818181819,-0.00236332467533,3.501
-0.669261504955,-0.515516596134,-0.124525816577,-2.63761563416,-0.0666992492935,2.11152952607,-0.916979844444,-0.0115773885309,-3.66768093534e-05,0.00355059902665,0.00266368347483,0.00343987272873,0.000286510429017,-0.0160362874413,0.573718645991,0.819017421801,0.00617453883438,0.0,0.819016352262,-0.573627167608,-0.0120347085591,0.0,-0.00631487433426,0.0119618152745,-0.999908514484,0.0,0.260039512813,-0.266330796115,0.304941579119,1.0,-0.00145818181819,-0.00191646753247,3.518
-0.669410834652,-0.515500178379,-0.124500665311,-2.63760249623,-0.0666917851774,2.11153906136,-0.917081674713,-0.00974451058661,-0.000764473091377,0.00321203159944,0.00105391029157,0.000312838501003,0.000968936368952,-0.0101065858517,0.573743533523,0.819000042821,0.00616721171552,0.0,0.818998930852,-0.573652181676,-0.0120279933223,0.0,-0.00631321413946,0.0119521533072,-0.999908640506,0.0,0.260010113057,-0.266367973407,0.304942893532,1.0,-0.00115818181819,-0.00152218181819,3.533
-0.669556696584,-0.515458095428,-0.124473542062,-2.63758447417,-0.0666798121173,2.11154844543,-0.917178548394,-0.00794815987316,0.0061010075575,0.00249886137806,0.000295349007841,0.00152569357364,-0.000166825796196,-0.00918874610424,0.573770510734,0.818981172447,0.00616336680755,0.0,0.818979930033,-0.573679017651,-0.0120418358849,0.0,-0.00632636445794,0.0119571542549,-0.999908497601,0.0,0.259982995354,-0.266404178178,0.30493698706,1.0,-0.000818181818187,-0.00107532467533,3.55
-0.669661905893,-0.515436847321,-0.124462321907,-2.6375746313,-0.0666676077471,2.11155254412,-0.917225596913,-0.00391277057628,-0.00171493882927,0.000788359840618,-0.00134709270465,0.000342147096553,5.94103254346e-05,-0.00126165729115,0.573815928906,0.818949317809,0.00616777884531,0.0,0.818948094281,-0.57372433418,-0.0120479933545,0.0,-0.00632821296495,0.0119646515861,-0.999908396221,0.0,0.259960970811,-0.266430684778,0.304934233493,1.0,-0.000458181818187,-0.000602181818189,3.568
