nelsonifechukwu/NELSON_IML_WORK/CNN-GradCAM/train2dof/data_sample_2022-02-22-11-45-38/robot_state.csv
position_joint1,position_joint2,position_joint3,position_joint4,position_joint5,position_joint6,position_joint7,velocity_joint1,velocity_joint2,velocity_joint3,velocity_joint4,velocity_joint5,velocity_joint6,velocity_joint7,ee_T_00,ee_T_10,ee_T_20,ee_T_30,ee_T_01,ee_T_11,ee_T_21,ee_T_31,ee_T_02,ee_T_12,ee_T_22,ee_T_32,ee_T_03,ee_T_13,ee_T_23,ee_T_33,v_x,v_y,time
0.465063372578,0.547820775138,-0.124004366569,-1.35585046502,0.0795692343837,1.8940982042,0.159162752817,-0.00116568415343,0.000691269536021,0.0015586658373,-0.000831311243233,0.000103123603281,0.00031696133745,0.00131864042593,0.573847536717,0.818948128326,0.00192733385724,0.0,0.818904104829,-0.573788488555,-0.0119826707161,0.0,-0.00870747142026,0.00845469045981,-0.999926346363,0.0,0.661673993153,0.260882937537,0.303178472102,1.0,0.0,0.0,0.0
0.465063194812,0.547823479759,-0.124006635476,-1.35585046502,0.0795682273938,1.89409709409,0.159161266678,-0.000712829481553,0.00093130045757,0.000373660589137,2.01717810842e-05,-0.000369460611069,-0.000183046609043,-0.000319904646762,0.573847780439,0.818947967841,0.00192295513664,0.0,0.818903906328,-0.573788769407,-0.0119827878198,0.0,-0.00871007736862,0.00845117437827,-0.99992635339,0.0,0.661674323503,0.260881231828,0.303176532995,1.0,-0.00024,-0.000315428571429,0.013
0.465058145474,0.547818639355,-0.124004370062,-1.35585426469,0.0795685069605,1.89409591155,0.159162076106,-0.00118188819578,0.000579865551517,0.000729695340464,-0.000365922650137,3.69938294437e-05,-0.000391153811348,0.000133249238421,0.573851260385,0.818945527321,0.00192383378543,0.0,0.818901457864,-0.573792226355,-0.0119845810928,0.0,-0.00871100592573,0.00845296000254,-0.999926330208,0.0,0.661674126017,0.260878779493,0.303177976383,1.0,-0.00056,-0.000736,0.029
0.465063502823,0.547800627054,-0.124012302432,-1.35587560489,0.0795681638809,1.8940952333,0.159162713326,0.00129860845442,-0.00431287117865,-0.00135794707392,-0.00511884140857,-8.20120442971e-05,-0.000123446491306,0.00076873144759,0.573853974354,0.818943635961,0.00191941107548,0.0,0.818899529464,-0.573794978847,-0.0119845648239,0.0,-0.00871350241679,0.008449357658,-0.999926338902,0.0,0.661670017951,0.260875334734,0.303180782967,1.0,-0.0009,-0.00118285714286,0.046
0.465065221104,0.547712345107,-0.124007318342,-1.35596624884,0.0795654088805,1.89411327682,0.15915800066,2.41192632324e-05,-0.00403657946429,0.000577711194098,-0.00361730474634,-0.000120876138784,3.01707307987e-05,0.0015862324026,0.573849415771,0.818946789139,0.0019368737428,0.0,0.818902840452,-0.57379027861,-0.0119833623485,0.0,-0.0087025443448,0.00846291982966,-0.999926319641,0.0,0.661653735529,0.260870538702,0.303201577421,1.0,-0.00124,-0.00162971428571,0.063
0.465064943462,0.547562325757,-0.124001319996,-1.35616086249,0.079562057644,1.89414427304,0.159155317204,0.000209753714303,-0.00617710983079,0.00542308288293,-0.0139933080521,-0.000297031138598,0.00488760988212,0.000871189342862,0.57385294141,0.818944326701,0.00193346856495,0.0,0.818900170448,-0.573793659761,-0.0120039060041,0.0,-0.00872128662819,0.0084719576177,-0.999926079815,0.0,0.661618144758,0.26085425474,0.303217709783,1.0,-0.00158,-0.00207657142857,0.08
0.465047550485,0.547395923891,-0.124010534285,-1.35637667516,0.0795593405581,1.89424827252,0.159146849019,-0.00240225581258,-0.00767042516323,-0.00423319464256,-0.0136358579113,-0.000246068180744,0.0122565127623,-0.00115593841212,0.57387818466,0.818926519558,0.00198283586242,0.0,0.818882997589,-0.573818680668,-0.0119793521085,0.0,-0.0086725878444,0.00849856303985,-0.999926277606,0.0,0.661600611023,0.260820614456,0.303242196387,1.0,-0.00192,-0.00252342857143,0.097
0.465026939843,0.547202397792,-0.124012279316,-1.356609861,0.0795572578369,1.89437137604,0.159132455222,-0.00270368317353,-0.0139557800279,-0.000914345718336,-0.0153793472813,-4.47990873596e-05,0.00656660857503,-0.00124878675615,0.573897187572,0.818913013318,0.00205951850301,0.0,0.818870447731,-0.573837317923,-0.0119444252147,0.0,-0.00859978224336,0.00854151532717,-0.999926540432,0.0,0.661582703032,0.260788866929,0.303279033518,1.0,-0.00228,-0.00299657142857,0.115
0.465006679332,0.547018273189,-0.124004159834,-1.35683489967,0.0795560874044,1.89448774851,0.159123656111,-0.00115145850763,-0.013035577896,0.000834045287307,-0.0179002606068,0.000373583620451,0.0113498629296,0.000910372750313,0.5739133506,0.818901500339,0.00213205239038,0.0,0.818859778913,-0.573853080304,-0.011918540371,0.0,-0.00853679011976,0.00858622669909,-0.999926697276,0.0,0.661562653441,0.260763592606,0.303312173139,1.0,-0.00258,-0.00339085714286,0.13
0.464972248037,0.546777527638,-0.124007464587,-1.35720467128,0.0795472532506,1.89463087075,0.159092557564,0.000107525086073,-0.0167884824311,0.000409155591947,-0.0177260180983,4.53522067627e-05,0.016091576753,-0.00875663151739,0.57393679325,0.818885023124,0.00215015307261,0.0,0.818843441798,-0.573876350001,-0.0119205551465,0.0,-0.0085278062662,0.00860244956069,-0.9999266345,0.0,0.661522958215,0.260706456622,0.303319204763,1.0,-0.00294,-0.003864,0.148
0.464934283567,0.546492541483,-0.124010431494,-1.35761775546,0.0795404081146,1.89478307491,0.15895520157,-0.00312901210461,-0.018441967111,-0.00089642540907,-0.0221606968327,0.000206541011219,0.0106425701214,-0.0080609945082,0.573878749211,0.818925619241,0.0021813425242,0.0,0.818884288896,-0.573818029582,-0.0119221317872,0.0,-0.00851180936613,0.00862829132109,-0.999926548148,0.0,0.661477010776,0.260643559556,0.303337718117,1.0,-0.00328,-0.00431085714286,0.165
0.464885900558,0.546186500846,-0.124010434745,-1.35812390485,0.0795268901526,1.89496085469,0.158939213083,-0.00228801926807,-0.017047463803,-0.0073457359332,-0.0290200334586,-0.00289664434143,0.0125068446717,0.00138224516831,0.57392999069,0.818889736437,0.00217077106282,0.0,0.818848100604,-0.573869137822,-0.011947706631,0.0,-0.00853828020419,0.00863484516464,-0.999926265892,0.0,0.661417726896,0.260565364369,0.303328937758,1.0,-0.00364,-0.004784,0.183
0.464842651225,0.545900347426,-0.124007731557,-1.3586057069,0.0795113198218,1.89512206464,0.158890135134,-0.00302012540397,-0.0197411048188,-0.000132323011117,-0.0299949613245,-0.00620597820218,0.00884701040895,0.00121990078146,0.573946073823,0.818878520888,0.00214924936494,0.0,0.818836438648,-0.573885140145,-0.0119782955314,0.0,-0.0085755117597,0.00863494563657,-0.999925946414,0.0,0.661358314331,0.260493303961,0.30331611274,1.0,-0.00394,-0.00517828571429,0.198
0.464775350341,0.545551538559,-0.124005935337,-1.35921570805,0.0794468842424,1.89532761578,0.158772833157,-0.00162407094195,-0.0235135776989,0.000486163737896,-0.0369830844418,-0.00936166914189,0.0140619676665,-0.00951442908126,0.573920797701,0.818896397456,0.00208688784878,0.0,0.818853698319,-0.573860323375,-0.0119873644601,0.0,-0.00861899337794,0.00858881896759,-0.999925969831,0.0,0.661289108393,0.2603855127,0.303290400327,1.0,-0.00428,-0.00562514285714,0.215
0.464717973576,0.545161652024,-0.12401621562,-1.35990873614,0.0793746313046,1.89554905271,0.158729359231,-0.000944906786585,-0.0252097813549,-0.00112738725097,-0.0385374152487,-0.00113792090206,0.00913145254161,-0.00238202001003,0.573958733165,0.818870033256,0.00199703767969,0.0,0.818826431778,-0.573898899335,-0.012003118933,0.0,-0.0086830638494,0.0085246863008,-0.999925964322,0.0,0.661205619832,0.260267788981,0.303255987904,1.0,-0.00462,-0.006072,0.232
0.46465288536,0.544753195642,-0.12401092688,-1.36058195544,0.0793577230594,1.89577633763,0.158626385129,-0.00407200262087,-0.0283161092539,-1.41819453796e-05,-0.0411107454483,0.00065871108153,0.0113160308253,-0.0103832588827,0.573956988546,0.818871298244,0.00197967503369,0.0,0.818827184165,-0.573896948932,-0.0120449732552,0.0,-0.00872732145309,0.00853447262513,-0.999925495543,0.0,0.661123602704,0.260165949402,0.30324420857,1.0,-0.00494,-0.00649257142857,0.248
0.464595228673,0.544329656294,-0.124014120243,-1.3612882315,0.0793352133459,1.89603485359,0.158545692896,-0.00135229777617,-0.0285217151811,3.19917124302e-05,-0.0435825020321,-0.00476625286815,0.0114938551957,-0.00130237086538,0.573977928787,0.818856672931,0.00195789776546,0.0,0.818812085192,-0.573917796212,-0.0120780476813,0.0,-0.00876668635493,0.00853584748535,-0.999925139457,0.0,0.661036435315,0.260049951916,0.303221997719,1.0,-0.00528,-0.00693942857143,0.265
0.464513199999,0.543833768999,-0.124014362866,-1.36211134399,0.0793005915919,1.89632884158,0.158440704113,-0.00236876691205,-0.0278017332961,-0.00140906469927,-0.0492791086777,-0.00396622109376,0.0221735079808,-0.0131132397308,0.573991837949,0.818846948232,0.00194736760054,0.0,0.818802064925,-0.573931596054,-0.012101587728,0.0,-0.00879186165529,0.00854088563307,-0.999924875399,0.0,0.660946440617,0.259930383654,0.303214927923,1.0,-0.0056,-0.00736,0.281
0.464443569966,0.543292313034,-0.124030812176,-1.36295971089,0.0792539857741,1.89662127086,0.158330423991,-0.00241777402328,-0.0328152513531,-0.00352065245788,-0.0500894122543,-0.00518110411989,0.0209612970466,-0.00756292466077,0.574004767492,0.818837916375,0.00193403839403,0.0,0.818792861589,-0.573944585271,-0.0121082513279,0.0,-0.00880483394462,0.00853393512394,-0.999924820599,0.0,0.660848147761,0.259793537696,0.303220073551,1.0,-0.00594,-0.00780685714286,0.298
0.464354453553,0.542736354183,-0.124019028767,-1.36385551261,0.0791995270407,1.89694578379,0.158215427431,-0.00156153594458,-0.0303236763207,0.00153459265726,-0.0498704299537,-0.00797182419773,0.0157187253901,0.000216083648867,0.57401063863,0.818833826488,0.00192308046726,0.0,0.818788550298,-0.573950428424,-0.012122809677,0.0,-0.0088229836473,0.00853338228663,-0.999924665335,0.0,0.660744601133,0.259655645456,0.303214680281,1.0,-0.00628,-0.00825371428571,0.315
0.464287466959,0.54213097835,-0.124029679252,-1.3647790597,0.0791466144607,1.89728855156,0.158088977907,-0.00487524336574,-0.0365248698877,0.000723843858748,-0.0528151211523,-0.00309957837956,0.0181820433019,-0.0134317791196,0.574006632048,0.818836587979,0.00194305245333,0.0,0.818791596325,-0.573946356825,-0.0121098379961,0.0,-0.00880093999435,0.0085422468075,-0.999924783909,0.0,0.660638778068,0.259518232359,0.303233278606,1.0,-0.00662,-0.00870057142857,0.332
0.464194251286,0.541495868999,-0.124022617105,-1.36574173299,0.0790961899272,1.8976454161,0.157958293517,-0.00560276055306,-0.0336930267119,-0.000328188203311,-0.0610002768743,-0.000149751414394,0.0221995650973,-0.00928518919038,0.574017170444,0.818829127237,0.00197365796149,0.0,0.818784484353,-0.573956709612,-0.0121000237727,0.0,-0.00877522662617,0.00856178676552,-0.999924842778,0.0,0.660525646953,0.259357772799,0.303254571873,1.0,-0.00698,-0.00917371428571,0.35
0.464122743001,0.540847025977,-0.124035391449,-1.36673056507,0.0790383161673,1.89801156796,0.157840164099,-0.00495597058607,-0.0390056911284,0.00205000039525,-0.0616602104791,-0.00367187253556,0.0241154331169,-0.00794334995786,0.574017262675,0.818829020196,0.00199116458298,0.0,0.818784557338,-0.573956677659,-0.0120966001889,0.0,-0.00876237377448,0.00857415721886,-0.999924849493,0.0,0.660406713593,0.259216935431,0.303272627471,1.0,-0.0073,-0.00959428571429,0.366
0.464028189793,0.540126970165,-0.124027862092,-1.36782995185,0.0789744928039,1.89842158115,0.157703048582,-0.00527085311876,-0.0455553266425,0.0005475294381,-0.065482647107,-0.00124474865432,0.0236265549566,-0.00629114081665,0.574024889955,0.818823593966,0.00202350647773,0.0,0.818779522603,-0.573964132793,-0.0120836474266,0.0,-0.00873312361305,0.00859328549949,-0.999924941181,0.0,0.660289619902,0.259061225779,0.303295934178,1.0,-0.00762,-0.0100148571429,0.382
0.463925296532,0.539378525513,-0.124033157319,-1.36898130154,0.0788975894196,1.89886613712,0.157565527842,-0.00266939016134,-0.049393919866,0.00170403647539,-0.0626204403038,-0.00069720924266,0.0299654737137,-0.00973890692029,0.574043514527,0.818810464787,0.0020525800235,0.0,0.818766888061,-0.5739827431,-0.0120557264458,0.0,-0.00869337683656,0.00860126173841,-0.999925218952,0.0,0.660163951381,0.258881096016,0.303315462707,1.0,-0.00796,-0.0104617142857,0.399
0.463822315315,0.538614674827,-0.124041531551,-1.3701603321,0.0788417701577,1.89931586714,0.157413787758,-0.00935269969139,-0.0523621332451,-0.00169638024562,-0.0649285922862,0.000327146237694,0.0271437999963,-0.0148043490632,0.574059804149,0.818798955584,0.00208770133951,0.0,0.818755750789,-0.57399879468,-0.012047869378,0.0,-0.0086666116703,0.00862568108427,-0.99992524094,0.0,0.660032632117,0.258699805443,0.30333316404,1.0,-0.0083,-0.0109085714286,0.416
0.463704182965,0.537835110561,-0.12403992146,-1.37138218997,0.0787617806135,1.89978816737,0.157257653024,-0.00287530585237,-0.0500019640907,-0.00103242504289,-0.0736188818323,-0.00806499902894,0.0336551443059,-0.00564568376235,0.57407372526,0.818789141145,0.00210884121156,0.0,0.818746278817,-0.574012690707,-0.012029494225,0.0,-0.00863928395979,0.00863258866142,-0.999925417812,0.0,0.659899035444,0.258507068976,0.30334304008,1.0,-0.00864,-0.0113554285714,0.433
0.463600746541,0.537060414049,-0.124048081396,-1.37259776393,0.0786925579006,1.90023773292,0.157107060222,-0.00684623547132,-0.0475441167864,-0.000745642978202,-0.0747812566358,-0.00235486796713,0.0298522292786,-0.00726956285995,0.574088981367,0.818778414844,0.00212032062287,0.0,0.818735705315,-0.57402789945,-0.0120234103512,0.0,-0.00862755178217,0.00863865592263,-0.999925466709,0.0,0.659750414029,0.25830995134,0.303354198714,1.0,-0.00898,-0.0118022857143,0.45
0.46346187925,0.536117088969,-0.124051371345,-1.37407117793,0.0786151604833,1.9007937361,0.156929234477,-0.00397763872258,-0.0457243181476,-0.00131130785177,-0.0811861583807,-0.00461973265647,0.0319430286552,-0.00743358833158,0.574120180005,0.818756481025,0.00214256680208,0.0,0.818713963208,-0.574058901659,-0.0120237588277,0.0,-0.00861473678174,0.00865739862224,-0.999925415098,0.0,0.65959462634,0.258088413711,0.303363600196,1.0,-0.00934,-0.0122754285714,0.468
0.463356926996,0.535271548449,-0.12404997165,-1.37541202629,0.0785367170453,1.90126844488,0.156763969608,-0.00710865929004,-0.0533743361611,0.00192943328342,-0.0839176342051,-0.0132879995405,0.0350667971763,-0.0118821910633,0.574122330527,0.818755014127,0.00212681303379,0.0,0.818712210612,-0.574061037961,-0.0120410875916,0.0,-0.00863794665068,0.00865447169603,-0.999925240204,0.0,0.659431303247,0.257891462657,0.303363186505,1.0,-0.00966,-0.012696,0.484
0.463226181863,0.534370052569,-0.12405836277,-1.37687134211,0.0784564253812,1.90180242263,0.156580588245,-0.00806362062191,-0.0543848326671,3.85645443834e-05,-0.0899762639642,-0.00923014507509,0.0339148894293,-0.0088394970479,0.574143687017,0.818740087769,0.00210766205731,0.0,0.818696972268,-0.574082411077,-0.0120581836046,0.0,-0.00866271337121,0.00864883305517,-0.999925074735,0.0,0.659262402223,0.257662220502,0.303351176292,1.0,-0.01,-0.0131428571429,0.501
0.463086964391,0.533380000403,-0.124058590629,-1.37843416476,0.0783680421776,1.90238486876,0.156385800076,-0.00724157582489,-0.0607162994628,0.000942412774014,-0.0856246946009,-0.00206980823411,0.0307026954195,-0.00905250115882,0.574160262806,0.81872843656,0.00211817922068,0.0,0.818685391428,-0.574098873035,-0.0120607107183,0.0,-0.00865856923099,0.00865906993396,-0.999925022033,0.0,0.659081799371,0.257423014093,0.30335608983,1.0,-0.01036,-0.013616,0.519
0.462963050539,0.532495368363,-0.124058855147,-1.3798788702,0.0782857897854,1.90292718805,0.15620162271,-0.00706044486624,-0.0587189071627,-0.00222300919852,-0.0909399825822,-0.0047155344792,0.034168760394,-0.0192230945414,0.574168127169,0.818722958167,0.00210390462951,0.0,0.81867966682,-0.574106737658,-0.0120749249218,0.0,-0.008678319513,0.00865562761684,-0.999924880619,0.0,0.658913243907,0.257204799025,0.303339226368,1.0,-0.01068,-0.0140365714286,0.535
0.462840842165,0.531574827284,-0.124056449201,-1.3813485496,0.0782085201529,1.903463499,0.156018882335,-0.00965337300483,-0.0565277688805,0.0010121182083,-0.0907283350865,-0.00150904838304,0.0346432376115,-0.0149494688191,0.574176320001,0.818717224491,0.00209923123591,0.0,0.818673720758,-0.574114798688,-0.0120947826821,0.0,-0.00869717463749,0.00866329005345,-0.999924650441,0.0,0.658736921733,0.256987190529,0.30333500127,1.0,-0.011,-0.0144571428571,0.551
0.462710582884,0.530623041351,-0.124062704155,-1.38289900372,0.078110255732,1.90400538137,0.155817948469,-0.00885325699646,-0.0605408631931,-0.00061337891642,-0.0959354127573,-0.000439302892432,0.0307090515025,-0.0176717456761,0.57418072878,0.818714265491,0.00204672424284,0.0,0.818670067413,-0.574119426816,-0.0121223502212,0.0,-0.00874984536985,0.00863617803158,-0.999924425462,0.0,0.658548482342,0.256747094214,0.303314898445,1.0,-0.01132,-0.0148777142857,0.567
0.462567936146,0.52958985602,-0.124064191077,-1.38453647931,0.0780019006202,1.90460738635,0.155605915441,-0.0086530356315,-0.0574717568291,0.00165326390888,-0.092347091553,-0.00163044006249,0.0389247941368,-0.0135180286143,0.57418479328,0.81871143517,0.00203862439123,0.0,0.81866719224,-0.574123586406,-0.0121195208019,0.0,-0.00875213642818,0.00862796556775,-0.999924476307,0.0,0.658356075363,0.256494821264,0.303315542294,1.0,-0.01166,-0.0153245714286,0.584
0.462438099532,0.528489253257,-0.124068063629,-1.38622919123,0.0779016617342,1.90525538804,0.155370770311,-0.00262668818274,-0.0673927887803,-0.000458836458587,-0.0966387206157,-0.00106528488354,0.0387889465124,-0.0114106818663,0.574168832018,0.818722546687,0.00207142124761,0.0,0.81867872631,-0.574107478365,-0.0121034405757,0.0,-0.00872030915572,0.00864541329841,-0.999924603676,0.0,0.658169417112,0.256256800078,0.303333429002,1.0,-0.01198,-0.0157451428571,0.6
0.462293285067,0.527379580463,-0.124067738612,-1.38795946804,0.0777929275015,1.90592469436,0.155130620444,-0.0111125737968,-0.0642653489594,0.00127224093612,-0.102631089573,-0.00848974884317,0.0372848590005,-0.00941463615038,0.57415255817,0.818733825294,0.00212371570369,0.0,0.818690762336,-0.574091055619,-0.012068240386,0.0,-0.00866163718899,0.00866784440153,-0.999924919439,0.0,0.657958566857,0.255990247254,0.303356781144,1.0,-0.01234,-0.0162182857143,0.618
0.462154105032,0.526287211415,-0.124071026677,-1.3896582266,0.0776912855996,1.90656581228,0.154897396435,-0.0105568613999,-0.0714174622244,0.00358317292909,-0.107215776007,-0.00510656098715,0.0354025526624,-0.0126046567828,0.574141893181,0.818741229987,0.00215214186052,0.0,0.818698492879,-0.574080225558,-0.0120589917739,0.0,-0.00863785797822,0.00868569489116,-0.999924970242,0.0,0.657742635708,0.255723642682,0.303372100673,1.0,-0.01268,-0.0166651428571,0.635
0.462000034096,0.525099816752,-0.124076931216,-1.3915104064,0.0775685114415,1.90721622807,0.154652108735,-0.00959284123588,-0.0731279879874,-0.00117568386421,-0.115336597697,-0.00313373102598,0.0286168383764,-0.0171196637789,0.574138258892,0.818743825319,0.00213426334594,0.0,0.818700944664,-0.574076757902,-0.0120576176808,0.0,-0.00864703552426,0.0086702299679,-0.999925025134,0.0,0.65753251644,0.255451804811,0.303382821745,1.0,-0.013,-0.0170857142857,0.651
0.46184209438,0.523857049789,-0.124079761639,-1.39351637508,0.0774486636831,1.90794096716,0.154365326444,-0.0114734470056,-0.0694764885808,-0.0001060562395,-0.110721549064,-0.00325193604209,0.0384347940077,-0.0142996404836,0.574110261953,0.81876354246,0.00210132341856,0.0,0.81872015894,-0.574048832625,-0.0120824669508,0.0,-0.00868658843061,0.0086572307879,-0.99992479494,0.0,0.657285810904,0.255154335056,0.303364862884,1.0,-0.01336,-0.0175588571429,0.669
0.461686858734,0.522633829122,-0.124084079056,-1.39544274787,0.0773279723253,1.90868286812,0.15410949432,-0.00429127327273,-0.0795895721153,0.000787451416632,-0.117488913181,-0.00423610089407,0.0385159279075,-0.0131975835881,0.574101898382,0.818769334699,0.00212925601692,0.0,0.818726385382,-0.574040420037,-0.0120602215554,0.0,-0.00865242714694,0.00866724104338,-0.999925004406,0.0,0.657059789525,0.254868009144,0.303372212155,1.0,-0.0137,-0.0180057142857,0.686
0.461516145719,0.521402667775,-0.124084434293,-1.3974361309,0.0772103101033,1.90944830662,0.153835061283,-0.00985972299565,-0.0693741392921,0.000869928251614,-0.119282627598,-0.0134811353871,0.0478639336396,-0.0173470407259,0.574092401216,0.818775989147,0.00213104771454,0.0,0.818733035284,-0.574030888467,-0.0120624592061,0.0,-0.00865333135849,0.00866989225613,-0.999924973598,0.0,0.656825095776,0.25456808905,0.303354869001,1.0,-0.01404,-0.0184525714286,0.703
0.461368487659,0.52026214567,-0.124092900734,-1.39922713767,0.0770980076439,1.91010510096,0.153594421597,-0.0095930878505,-0.0796200077874,-0.00106907345017,-0.116485599996,-0.0103598185776,0.039695647393,-0.0138264585673,0.574087472701,0.818779441621,0.00213226822372,0.0,0.818736537754,-0.574025989518,-0.0120578607399,0.0,-0.0086489176252,0.0086681995911,-0.999925026459,0.0,0.656609120303,0.254294994717,0.30336064877,1.0,-0.01434,-0.0188468571429,0.718
0.46118839167,0.518936392744,-0.124090818482,-1.40129496669,0.0769694234318,1.91083979236,0.153318184475,-0.0126848205758,-0.0812863303764,0.000955116674265,-0.126703123138,-0.0109630293984,0.0428924900561,-0.0163597498429,0.574082370582,0.818783035443,0.00212592539095,0.0,0.818739985407,-0.574020851622,-0.0120683511232,0.0,-0.00866120241702,0.00866897465001,-0.999924913407,0.0,0.656354275313,0.253979049196,0.303370798246,1.0,-0.01468,-0.0192937142857,0.735
0.461020531196,0.5175803606,-0.124099246352,-1.40341294522,0.0768327331713,1.91160145128,0.153034156417,-0.00894315446045,-0.0838114322399,0.000814960620769,-0.126076631723,-0.00877884266869,0.041583000788,-0.0126562473388,0.574068516562,0.818792764312,0.00211997728259,0.0,0.818749679227,-0.574007067399,-0.0120663268026,0.0,-0.00866310592651,0.00866279583369,-0.999924950466,0.0,0.656092712435,0.253660026574,0.303380593367,1.0,-0.01502,-0.0197405714286,0.752
0.460843020599,0.516312367909,-0.124108193599,-1.40543614225,0.0766999525836,1.9123548531,0.152754308575,-0.00994585273242,-0.0832266379661,-9.59259898427e-05,-0.128648674899,-0.0121972207877,0.0473337100724,-0.0179603652057,0.574056066295,0.818801503801,0.00211589804265,0.0,0.818758445976,-0.573994716619,-0.0120589941066,0.0,-0.0086595749351,0.00865511475136,-0.999925047566,0.0,0.655835687259,0.2533252351,0.303376298422,1.0,-0.01536,-0.0201874285714,0.769
0.460657556517,0.514933517137,-0.124108623544,-1.40762794764,0.0765663622423,1.91318578051,0.152454241596,-0.0109328994115,-0.079471253976,-0.00043492534504,-0.132977757527,-0.00798217782159,0.0549665057261,-0.0111768648236,0.574048532526,0.818806766856,0.00212314778222,0.0,0.818763810511,-0.573987159782,-0.0120544557812,0.0,-0.00865177697257,0.00865836592039,-0.999925086921,0.0,0.655587542312,0.253015447953,0.303368325422,1.0,-0.01568,-0.020608,0.785
0.460467636406,0.513517456868,-0.124105360617,-1.40989206515,0.0764304284872,1.91396651032,0.15213591131,-0.0161337119521,-0.0791696980195,0.00866687858561,-0.131435806899,-0.0118742063688,0.0488501984651,-0.0188873821148,0.574029323368,0.818820409729,0.00205412427991,0.0,0.818776374235,-0.57396807351,-0.0121097682283,0.0,-0.00873689183895,0.008633396712,-0.999924562746,0.0,0.655281844497,0.252651120318,0.303337593587,1.0,-0.01604,-0.0210811428571,0.803
0.460270902009,0.512102386989,-0.124115027582,-1.4121806073,0.0762874989181,1.91478615144,0.151812720155,-0.00708327685534,-0.0833226970336,0.000254574729551,-0.133384361265,-0.00777789708504,0.0517600957508,-0.015279136059,0.574007769773,0.818835606559,0.00201905228163,0.0,0.818791094675,-0.573946658418,-0.0121294465192,0.0,-0.00877336330199,0.00861574445273,-0.999924395664,0.0,0.655012827837,0.252318866693,0.303324178237,1.0,-0.01636,-0.0215017142857,0.819
0.460065788822,0.510646175117,-0.124121643134,-1.41450349319,0.0761456456485,1.91567111361,0.151490211127,-0.0136576209712,-0.0884136400853,-0.000389654494536,-0.145409428327,-0.0112195663208,0.0550319042679,-0.0128939355651,0.573999718111,0.818841221579,0.00203085044499,0.0,0.818796886799,-0.573938578502,-0.0121207746109,0.0,-0.00875957512026,0.00862034120012,-0.999924476929,0.0,0.654734915915,0.251961257567,0.303315177491,1.0,-0.0167,-0.0219485714286,0.836
0.459882382533,0.509248180888,-0.124124595747,-1.41671001166,0.076013033684,1.9164848868,0.151178681477,-0.00737483096648,-0.0855529599552,-0.000402224460044,-0.138353138273,-0.0137861926691,0.0526733620238,-0.0162524409554,0.57397611886,0.818857752521,0.00203543980348,0.0,0.818813422281,-0.573914907573,-0.0121245725786,0.0,-0.00876029966823,0.00862602662058,-0.999924421551,0.0,0.654461329112,0.251629808916,0.303314036893,1.0,-0.01702,-0.0223691428571,0.852
0.459667355635,0.507724943577,-0.12412484774,-1.41908681512,0.0758538267014,1.91733133426,0.150845116774,-0.0103568110973,-0.0941551814879,0.00449739409093,-0.140843008336,-0.00174004918831,0.0531542087672,-0.0141907323542,0.573959284624,0.818869582934,0.00202302743217,0.0,0.818825121267,-0.573898160271,-0.0121272140708,0.0,-0.00876976385198,0.00861719870284,-0.999924414708,0.0,0.654164726056,0.251258762866,0.303321683343,1.0,-0.01736,-0.022816,0.869
0.459447928401,0.506157501428,-0.12413434185,-1.42152033788,0.0757043640861,1.91823353851,0.150523162649,-0.0144493719295,-0.0938691570725,-0.000180749291663,-0.143242806546,-0.00508031139666,0.0485166628663,-0.0170446348527,0.573967718038,0.818863602096,0.00205102758737,0.0,0.818819519045,-0.573906482538,-0.0121116238747,0.0,-0.00874083821323,0.00863126871841,-0.999924546627,0.0,0.653868524689,0.250878655032,0.303337845969,1.0,-0.0177,-0.0232628571429,0.886
0.459221749729,0.504525854422,-0.124139791472,-1.42400490591,0.0755459178758,1.91918851664,0.150174169236,-0.00893053631076,-0.0969761869601,0.000419437668983,-0.15299987936,-0.00692936546755,0.0537781029353,-0.020519068728,0.573956515577,0.818871246245,0.00213241650391,0.0,0.818828331663,-0.573895035803,-0.0120581113191,0.0,-0.00865042394484,0.00866708147364,-0.999925023121,0.0,0.65357254544,0.250493469349,0.303378393986,1.0,-0.01804,-0.0237097142857,0.903
0.458989942802,0.502853969262,-0.124140856979,-1.42646875647,0.0753985196877,1.9201290532,0.149824638038,-0.0140650632263,-0.101412335536,-0.000134533225079,-0.147926482617,-0.0121055444413,0.0579433529922,-0.0203373170309,0.573947790677,0.818877014877,0.00226163320135,0.0,0.818835788344,-0.573885773723,-0.011992387045,0.0,-0.0085225350702,0.0087350784321,-0.999925529627,0.0,0.653278481775,0.250111038859,0.303454819281,1.0,-0.01838,-0.0241565714286,0.92
0.458724039128,0.500957269384,-0.12414723314,-1.4293420815,0.0752133061397,1.92112659108,0.149430784712,-0.0185724705048,-0.0972341014804,0.000867204365847,-0.149294799324,-0.0151558247324,0.0560254122939,-0.0247576653692,0.57394400457,0.818879625298,0.00227723335828,0.0,0.818838571244,-0.573881892322,-0.0119881111416,0.0,-0.00851012081697,0.00874535940061,-0.999925545495,0.0,0.652913672467,0.24965568375,0.303497720411,1.0,-0.01876,-0.024656,0.939
0.458489278499,0.499255117855,-0.124145146127,-1.4319473151,0.0750462111528,1.92208120504,0.149072213788,-0.0149727251045,-0.0997515299742,0.00116503272425,-0.152695285705,-0.0140268656474,0.0547463399493,-0.0194331890091,0.573929912595,0.818889380741,0.00232043931948,0.0,0.818848902638,-0.573867639271,-0.0119647042209,0.0,-0.00846630719851,0.00876715963311,-0.999925726519,0.0,0.65260778273,0.249276480309,0.303530421215,1.0,-0.01908,-0.0250765714286,0.955
0.458262419564,0.497773190773,-0.124147249169,-1.43428424406,0.0749061514761,1.92295539023,0.148723125799,-0.0159984939152,-0.103436085265,0.00440870305972,-0.152444028645,-0.00997669961201,0.0599136496852,-0.0226350785382,0.573911141518,0.818902492828,0.00233576193786,0.0,0.818862145807,-0.573848737464,-0.0119649311281,0.0,-0.00845790072908,0.0087796433498,-0.999925688128,0.0,0.652301365463,0.24888469797,0.303524654892,1.0,-0.0194,-0.0254971428571,0.971
0.457985650824,0.496001971714,-0.124151149094,-1.43711735497,0.0747321452706,1.92394773709,0.14829683445,-0.0158039244535,-0.0955008375082,-0.00120239859458,-0.157846628248,-0.0120679017246,0.0537939241513,-0.014374812001,0.573887673331,0.818919103608,0.00227750875433,0.0,0.818877851523,-0.573825360063,-0.0120111337472,0.0,-0.00852941881829,0.00875821169852,-0.999925268579,0.0,0.651939569429,0.248428657381,0.303496750847,1.0,-0.01976,-0.0259702857143,0.989
0.457749270843,0.494524098521,-0.124148284994,-1.43953641814,0.0745788640137,1.92479008981,0.147960631451,-0.018364225868,-0.0994591885775,0.000377117651978,-0.157281844443,-0.00491900696936,0.0579503312391,-0.0162527340213,0.57388418769,0.818921779304,0.00219212255308,0.0,0.818879280495,-0.573822097403,-0.0120694411626,0.0,-0.00862620595214,0.00872171309652,-0.999924757315,0.0,0.651626492826,0.248041462031,0.303447788557,1.0,-0.0223268571429,-0.0293438693878,1.004
0.457434277771,0.492162697312,-0.124232376624,-1.44306690503,0.0743837307984,1.92609613452,0.147446181064,-0.0206376273828,-0.16495913873,-0.00576816130426,-0.242612294755,-0.0171108708947,0.0927489025892,-0.0368341431803,0.573906336124,0.818905948854,0.00230460175539,0.0,0.818865066741,-0.573843926137,-0.0119957412197,0.0,-0.00850106579808,0.00877175864626,-0.999925391282,0.0,0.651199378181,0.247456585234,0.303526748602,1.0,-0.0356257142857,-0.0468223673469,1.021
0.456953192509,0.48834535897,-0.124271749339,-1.44911852478,0.0740607818933,1.92839951727,0.146543996871,-0.0296569983172,-0.230253502416,-0.00275274956975,-0.362655851487,-0.0206628179996,0.130481060608,-0.0532614255826,0.573806291814,0.818975841922,0.00237838688628,0.0,0.818935609631,-0.573743269458,-0.0119947876479,0.0,-0.00845902070684,0.00883060035244,-0.999925229938,0.0,0.650430481129,0.246557257141,0.303501937671,1.0,-0.0504891428571,-0.0663571591837,1.04
0.456393785641,0.48458511012,-0.124348101936,-1.45503397387,0.0737205520338,1.93064496712,0.145644214201,-0.0391423759275,-0.285612086364,-0.00724810656072,-0.451448163874,-0.0326786056522,0.175529552102,-0.0654238593557,0.573784641229,0.818990801286,0.00244944890735,0.0,0.818951567406,-0.573721411713,-0.011950685573,0.0,-0.00838236165475,0.00886327050132,-0.999925586456,0.0,0.649704071261,0.245594596024,0.30349495583,1.0,-0.0614411428571,-0.0807512163265,1.054
0.45542273333,0.4782914225,-0.124525084875,-1.46508627178,0.0731155812538,1.93410714614,0.144122693319,-0.05480760086,-0.364741253875,-0.00553848087804,-0.570229706779,-0.0345802660817,0.19761776111,-0.0919917237144,0.573789695348,0.818988025795,0.00217853571582,0.0,0.818945158488,-0.573727482315,-0.0120975339096,0.0,-0.00865801629589,0.00872570957047,-0.999924447519,0.0,0.64839904388,0.243890625919,0.30337989208,1.0,-0.0763045714286,-0.100286008163,1.073
0.454334106842,0.471433010927,-0.124670443853,-1.47579587822,0.0724909230867,1.937891024,0.142587932864,-0.0683712870707,-0.42016145986,-0.00416277822499,-0.656887000474,-0.0319396544304,0.236888959316,-0.0950649244229,0.573877591555,0.818926584782,0.00212262810192,0.0,0.81888268682,-0.573815309114,-0.0121607217966,0.0,-0.00874091015856,0.00871711697095,-0.999923801278,0.0,0.647014729811,0.24207925921,0.303359574063,1.0,-0.0896034285714,-0.117764506122,1.09
0.453064316141,0.463483267747,-0.124780170168,-1.48788209471,0.071754659679,1.94240034628,0.140625788325,-0.0761832359986,-0.487174270049,-0.00446222748989,-0.746487388648,-0.0486960226883,0.274535189593,-0.121281494496,0.573765067882,0.819004559511,0.00243418974559,0.0,0.818964859399,-0.573701619899,-0.0119898830511,0.0,-0.00842343246382,0.00887306275941,-0.99992515447,0.0,0.645481230672,0.240056862876,0.303486256892,1.0,-0.102902285714,-0.135243004082,1.107
0.451616470433,0.455149255523,-0.124882856532,-1.50094979916,0.0709353794255,1.9468781043,0.138650517566,-0.0923201409168,-0.535942391371,-0.0135569049542,-0.860399484755,-0.050443058487,0.28161458949,-0.122691633718,0.573792096698,0.818986241685,0.0022164383109,0.0,0.818943110997,-0.573728953206,-0.0121661868995,0.0,-0.00869247220954,0.00879616812905,-0.999923531253,0.0,0.643722879605,0.237803031813,0.30339281804,1.0,-0.115418857143,-0.151693355102,1.123
0.449854225051,0.445085052069,-0.125055280899,-1.51605829678,0.0698709592538,1.95232016568,0.136281458015,-0.112215479331,-0.605213528599,-0.00871800782045,-0.913961060772,-0.0658337231329,0.327634060657,-0.13909915486,0.573814920716,0.818969497469,0.00247908877723,0.0,0.818930932625,-0.573751870749,-0.0119023234565,0.0,-0.00832541832629,0.00886010385938,-0.999926090253,0.0,0.641755057606,0.235119439901,0.303580336134,1.0,-0.128717714286,-0.169171853061,1.14
0.44787525762,0.434150474838,-0.125179346771,-1.53273737247,0.0687886321992,1.95804556346,0.133593525211,-0.129501323163,-0.680864313086,-0.00937280617099,-0.997702233313,-0.0623880209578,0.353183647052,-0.164640671851,0.573766897129,0.819003195159,0.00246190555021,0.0,0.818963901035,-0.573703384737,-0.0119708832116,0.0,-0.00839194962318,0.00888487935106,-0.999925314261,0.0,0.639462456932,0.232177461529,0.303613652703,1.0,-0.142016571429,-0.18665035102,1.157
0.445905662594,0.423679748396,-0.125311418894,-1.54846356089,0.067699338513,1.96357071084,0.130981716182,-0.132160870466,-0.69979662573,-0.0120243943174,-1.05756094782,-0.0712093938717,0.363469718564,-0.172060587751,0.573714346316,0.819039417695,0.00265103637235,0.0,0.819002951419,-0.573650503056,-0.0118327009637,0.0,-0.00817083747237,0.00895996941898,-0.999926475479,0.0,0.637315530881,0.229337060059,0.303738401851,1.0,-0.153750857143,-0.202072555102,1.172
0.44309892393,0.409396470207,-0.125486532893,-1.56980133904,0.0661654331858,1.9710876322,0.127421490084,-0.150629391118,-0.791297114738,-0.00626682118176,-1.15969313064,-0.0756027392693,0.40240198207,-0.194428298728,0.573692127215,0.819053861232,0.00297699075197,0.0,0.81902253915,-0.573628187794,-0.0115554936375,0.0,-0.00775703521907,0.00906769283182,-0.999928800141,0.0,0.634538657384,0.225627411872,0.303920899644,1.0,-0.167832,-0.2205792,1.19
0.440414530108,0.396543767363,-0.125646109464,-1.58899023144,0.0648948562406,1.97761953669,0.124161134211,-0.177660448789,-0.816412086852,-0.0156779090353,-1.21534742989,-0.0794254346016,0.424143213539,-0.210940673959,0.573754580815,0.819009483599,0.0031454206686,0.0,0.818979663743,-0.573689290653,-0.0115609284365,0.0,-0.00766416343544,0.00920934851892,-0.999928221673,0.0,0.631635139953,0.221794621091,0.304021262856,1.0,-0.181130857143,-0.238057697959,1.207
0.437294141341,0.38220195256,-0.125787863364,-1.61053741268,0.0632842150957,1.9848108136,0.120365181402,-0.190026009701,-0.901269378986,-0.0138909612904,-1.28462377733,-0.0973505107508,0.429825391479,-0.231844182334,0.573679749326,0.819062055204,0.00310513101031,0.0,0.819031994293,-0.573614932679,-0.0115433198808,0.0,-0.00767369353239,0.00916554696471,-0.999928551036,0.0,0.628289382043,0.21741744753,0.304041948982,1.0,-0.195212,-0.256564342857,1.225
0.433828162257,0.366990040838,-0.125948071731,-1.6332583037,0.0615679748497,1.99233357598,0.116335357656,-0.21864306263,-0.885720194242,-0.00789255930501,-1.34707211216,-0.0965609231763,0.439304174769,-0.238039962897,0.573688784397,0.819056053048,0.00301786744284,0.0,0.819024802192,-0.573624175904,-0.0115941844544,0.0,-0.00776531473899,0.00912333752364,-0.999928229724,0.0,0.625086190109,0.213236517865,0.304006777302,1.0,-0.207728571429,-0.273014693878,1.241
0.430193587677,0.351950758697,-0.126147091015,-1.65552780477,0.059835608082,1.99965743014,0.112232110172,-0.235949678527,-0.942904841696,-0.0119014935313,-1.43360217726,-0.11121452099,0.461164294459,-0.267347809511,0.573741285518,0.819019465615,0.0029663338621,0.0,0.818987845618,-0.57367718761,-0.0115818844303,0.0,-0.00778422059981,0.00907457135451,-0.999928526478,0.0,0.621498827098,0.208443848033,0.303992633513,1.0,-0.221027428571,-0.290493191837,1.258
0.426237029957,0.336225167868,-0.126348666959,-1.6785534287,0.0580944342864,2.00711588878,0.107838855008,-0.254192294626,-0.993321752765,-0.00764137948828,-1.47220421993,-0.113152066773,0.470501178826,-0.276310093859,0.573799838164,0.818977861518,0.00312329445993,0.0,0.818948048382,-0.573734963706,-0.011533966105,0.0,-0.00765426703025,0.00917618045684,-0.999928602405,0.0,0.618169847695,0.20399701204,0.304082969233,1.0,-0.232761714286,-0.305915395918,1.273
0.422045840247,0.319877775562,-0.126482122347,-1.70239708728,0.0561659002051,2.0146936373,0.103178601435,-0.263417724217,-1.03277642632,-0.00620840299011,-1.51694913154,-0.119388594014,0.459740189155,-0.29263609723,0.573700771842,0.819047238127,0.0031293778005,0.0,0.819017465979,-0.573635846035,-0.0115348804642,0.0,-0.00765263604114,0.00918076165979,-0.999928572838,0.0,0.614366136508,0.199091857642,0.304103704623,1.0,-0.245278285714,-0.322365746939,1.289
0.417196790539,0.301816619166,-0.126652377444,-1.72850381115,0.0539862713709,2.02289823,0.0978460189782,-0.29144236611,-1.0690318965,-0.00905131248882,-1.5673532879,-0.125724540851,0.472214615808,-0.320543772727,0.573555388851,0.819148860671,0.0031791324571,0.0,0.819119949007,-0.573490589701,-0.0114803991512,0.0,-0.00758109929682,0.0091889125305,-0.999929042893,0.0,0.610123398548,0.193585200672,0.304142245751,1.0,-0.258577142857,-0.339844244898,1.306
0.411860316506,0.283030027785,-0.126856483236,-1.75536920096,0.0517532031947,2.03111449144,0.0922662882331,-0.320164109031,-1.10662780246,-0.00535737946393,-1.58726973347,-0.129612411826,0.473290782656,-0.326957067979,0.573578014318,0.819132753728,0.00324656145412,0.0,0.819104387152,-0.573512608683,-0.0114907585096,0.0,-0.00755065810517,0.00925029727607,-0.99992870724,0.0,0.60565302464,0.187742808112,0.304199474879,1.0,-0.271876,-0.357322742857,1.323
0.406058062111,0.263581696646,-0.127094296831,-1.78289221444,0.0493878376917,2.03939323945,0.0862321204504,-0.344920780301,-1.16279240834,-0.0140692173863,-1.6005676401,-0.136446588912,0.471165060315,-0.35598417689,0.5735440731,0.819156077275,0.0033562144496,0.0,0.81912901811,-0.573478207237,-0.0114518301994,0.0,-0.00745626401431,0.00931748137408,-0.999928791799,0.0,0.600976877035,0.181592424574,0.304274676936,1.0,-0.285174857143,-0.374801240816,1.34
0.399703437061,0.243595629036,-0.127396279385,-1.8111056446,0.046831918626,2.04769123778,0.0799296862842,-0.378767420343,-1.18902731598,-0.0135393567068,-1.67471204063,-0.146035293206,0.476036979383,-0.382210771915,0.573674151788,0.819065183488,0.00330751709572,0.0,0.81903780007,-0.573608791871,-0.0114360327747,0.0,-0.00746977921398,0.00926971639836,-0.999929134867,0.0,0.596080989153,0.175063388204,0.30426073204,1.0,-0.298473714286,-0.392279738775,1.357
0.392547905014,0.221740265935,-0.127609640107,-1.84159218276,0.0440894056922,2.0563886364,0.0727003737775,-0.409676267305,-1.22775692934,-0.0110382302162,-1.73265811921,-0.162374098255,0.46843906219,-0.404732613862,0.573544352451,0.819156005926,0.00332575221318,0.0,0.819128102863,-0.573478018368,-0.0115265107402,0.0,-0.00753490978177,0.00933536197413,-0.999928035486,0.0,0.590595831253,0.167996047478,0.304255786623,1.0,-0.312554857143,-0.410786383673,1.375
0.385191120759,0.200484445567,-0.127875716497,-1.87084010652,0.0412524640959,2.06442883908,0.0654436861772,-0.451552088352,-1.25359364357,-0.0117024142948,-1.72500524599,-0.167391042633,0.45728890861,-0.433339845651,0.573447872678,0.819223809736,0.00326094831604,0.0,0.819195189302,-0.573381901152,-0.0115405440611,0.0,-0.00758466575548,0.00928943246482,-0.999928087059,0.0,0.585204934639,0.16095709292,0.304275015857,1.0,-0.325853714286,-0.428264881633,1.392
0.377668401997,0.179861375814,-0.128246356719,-1.89881754155,0.0385617672858,2.07192377416,0.0581670110714,-0.484963581123,-1.28750575511,-0.0304845277642,-1.74462384136,-0.174936392536,0.463504819308,-0.465220730191,0.573506053704,0.819182819993,0.00332576235364,0.0,0.819154710811,-0.573439469387,-0.0115534239955,0.0,-0.00755738855294,0.00935045252661,-0.999927724846,0.0,0.579947999473,0.153979095666,0.304332508056,1.0,-0.338370285714,-0.444715232653,1.408
0.3685412952,0.156041114509,-0.128663917471,-1.93071677079,0.035348690434,2.08026727153,0.0495217540582,-0.517801496946,-1.34041963607,-0.0240326950405,-1.77564972379,-0.180731134356,0.482354822556,-0.496553885038,0.573585694101,0.819126513987,0.00345723993697,0.0,0.819100210628,-0.573518831358,-0.0114778886872,0.0,-0.00741919358239,0.00941555998875,-0.999928148817,0.0,0.573809777627,0.145824095384,0.304412489606,1.0,-0.352451428571,-0.463221877551,1.426
0.359891396183,0.134371305052,-0.129013269862,-1.95944657296,0.0323207285859,2.08750412604,0.0413795658474,-0.556967743258,-1.37913654222,-0.0329591046735,-1.81113205214,-0.18351504646,0.473044553618,-0.517564557637,0.573557927501,0.819145744599,0.00350710796314,0.0,0.819120291991,-0.573491186338,-0.0114259941416,0.0,-0.00734840045201,0.00942639430563,-0.999928569499,0.0,0.56810916351,0.138360709932,0.304445513487,1.0,-0.364968,-0.479672228571,1.442
0.349925825594,0.110826388408,-0.12951464184,-1.99019278536,0.0289724850691,2.09489727675,0.0321374488012,-0.606893202197,-1.40996627376,-0.0363554590198,-1.82392910391,-0.213588509431,0.449603002042,-0.552389433961,0.573644523017,0.819084875051,0.00356027761946,0.0,0.819060398456,-0.573577994188,-0.0113620053224,0.0,-0.00726448967806,0.00943401616335,-0.999929110752,0.0,0.561866670617,0.130034863131,0.304502482657,1.0,-0.378266857143,-0.497150726531,1.459
0.339316773984,0.0868170274592,-0.12991681379,-2.02118482747,0.0255003602979,2.10192502112,0.0223104644587,-0.63471954099,-1.43522547029,-0.0241657268217,-1.84371783579,-0.201036655271,0.396575095911,-0.587019661032,0.573554550512,0.819148045528,0.00352193076982,0.0,0.819122806365,-0.573487795646,-0.0114159204361,0.0,-0.00733168575717,0.00943272853963,-0.999928632461,0.0,0.55534576575,0.121540736369,0.304512421202,1.0,-0.38998,-0.512545142857,1.476
0.327999740074,0.0627577997195,-0.130351158923,-2.05197314381,0.0219796268595,2.10855712266,0.0119664359533,-0.683881537769,-1.38892202529,-0.0268491611892,-1.82185745923,-0.214979206489,0.362028288698,-0.60375002653,0.573527608256,0.819167422692,0.00340045126925,0.0,0.81913981604,-0.573460210121,-0.0115799865153,0.0,-0.00753606930184,0.00942706849717,-0.999927166367,0.0,0.54868864544,0.112829712978,0.304437588417,1.0,-0.38998,-0.512545142857,1.493
0.316696585583,0.040199343263,-0.130826902902,-2.08018624828,0.0185736673769,2.11420083662,0.00204645348437,-0.718556016235,-1.3955002511,-0.0226045744161,-1.71798983197,-0.200122092257,0.329712885578,-0.624887688372,0.573805175169,0.818973340681,0.00332191286962,0.0,0.81894448651,-0.573737704325,-0.0116499593249,0.0,-0.00763524644546,0.00940545026443,-0.999926617566,0.0,0.542436806814,0.104449928732,0.304459131246,1.0,-0.38998,-0.512545142857,1.509
0.304388115947,0.0165182013776,-0.131217498167,-2.10916745885,0.0150240843419,2.11979719741,-0.00887830297799,-0.736374513317,-1.38368890634,-0.0256462259188,-1.66327628589,-0.214121264271,0.322769729624,-0.651225766147,0.573870262204,0.818926915233,0.00351803438376,0.0,0.818900615533,-0.573802180539,-0.0115579578299,0.0,-0.00744661032171,0.00951387198421,-0.999927014454,0.0,0.535850853117,0.0957168768732,0.304576978694,1.0,-0.38998,-0.512545142857,1.526
0.291506189054,-0.00683807769575,-0.131672555669,-2.13735886292,0.0114677919779,2.12487899101,-0.0201943931241,-0.76174434357,-1.36634853747,-0.0141592715945,-1.61588828702,-0.210402077328,0.302021853073,-0.679268809921,0.574043868824,0.818804506473,0.00368289927703,0.0,0.818780302243,-0.573975221136,-0.0114895205018,0.0,-0.0072939186677,0.00961115922759,-0.999927209535,0.0,0.52927464601,0.0868915735701,0.30466541484,1.0,-0.38998,-0.512545142857,1.543
0.277545202728,-0.0313110713153,-0.132014591069,-2.16641836792,0.00762363920857,2.12973609147,-0.0325316325115,-0.789742155916,-1.35864908575,-0.0220273283554,-1.5804804734,-0.22336986763,0.277431944926,-0.687480277958,0.573958064263,0.818863990257,0.00382790144582,0.0,0.818842103083,-0.573889615701,-0.0113607266836,0.0,-0.00710623391167,0.00965521345898,-0.999928136564,0.0,0.522268196508,0.0777138254809,0.304754894335,1.0,-0.38998,-0.512545142857,1.561
0.265347215361,-0.0514080794965,-0.132467591926,-2.19002805604,0.00451146405904,2.1332447137,-0.0431171361996,-0.819376440856,-1.34549856571,-0.0224420848967,-1.54349161498,-0.206807039899,0.24079093329,-0.708149339245,0.574207400451,0.818689055773,0.00385202884556,0.0,0.818666673909,-0.574137754904,-0.011465702162,0.0,-0.00717538783203,0.00973740615083,-0.99992684569,0.0,0.516407890806,0.0699076806136,0.304762269534,1.0,-0.38998,-0.512545142857,1.576
0.252976575656,-0.0711919661483,-0.132735416728,-2.2130449403,0.0013228527331,2.13639630423,-0.054092874891,-0.824095192217,-1.31490238435,-0.0145019030707,-1.49735459185,-0.210910061327,0.206397468488,-0.734607389753,0.574035369876,0.8188100716,0.00376930752176,0.0,0.818786180916,-0.573965401619,-0.0115609076929,0.0,-0.00730287615322,0.00972281402834,-0.99992606471,0.0,0.510523561754,0.0622976691086,0.304722391224,1.0,-0.38998,-0.512545142857,1.591
0.23576188672,-0.0973419814145,-0.133230437568,-2.24274744137,-0.00286844437473,2.14007669495,-0.0692194090397,-0.862019762509,-1.31661469154,-0.00714014687312,-1.45224883961,-0.206439816842,0.186018788361,-0.767181618681,0.574047796476,0.818800869568,0.00387430731223,0.0,0.818778099221,-0.573977191347,-0.0115479414263,0.0,-0.00723183968741,0.00980145701493,-0.999925813216,0.0,0.502736647193,0.0520366158553,0.304765158855,1.0,-0.38998,-0.512545142857,1.611
0.220671155593,-0.119133118792,-0.13358905326,-2.26716393454,-0.00647810770301,2.1426339515,-0.082465567065,-0.903385680745,-1.29259067946,-0.0251891826323,-1.40001109323,-0.202856637708,0.135375509094,-0.786283209383,0.573973981485,0.818852960375,0.00380062700721,0.0,0.818829004665,-0.573903299264,-0.011610818864,0.0,-0.00732650207828,0.00977655979013,-0.999925367838,0.0,0.496103339993,0.0433871760546,0.304743296665,1.0,-0.38998,-0.512545142857,1.628
0.206022545605,-0.139342245535,-0.133933883368,-2.28965594166,-0.00981240846013,2.14460185008,-0.0954490627823,-0.916502621217,-1.24981544447,-0.0184596252369,-1.37471382902,-0.205354726126,0.105687896269,-0.822967025915,0.573824698438,0.818958451785,0.00360785454551,0.0,0.818930589446,-0.573752844011,-0.0118789966315,0.0,-0.00765853533435,0.00977123223589,-0.999922931959,0.0,0.489791040057,0.0352604314841,0.304621976188,1.0,-0.38998,-0.512545142857,1.644
0.190821879767,-0.159449534486,-0.134402163254,-2.31149981945,-0.0131991317445,2.14626844315,-0.1088417444,-0.96158004052,-1.24503981339,-0.0332518606109,-1.36456935505,-0.217183318064,0.0865320440253,-0.837827782416,0.57381993802,0.818961984421,0.00356282277355,0.0,0.818933196375,-0.57374781438,-0.0119420379369,0.0,-0.00773606225069,0.00977048142291,-0.999922342501,0.0,0.483511435458,0.0270306486169,0.304587610908,1.0,-0.38998,-0.512545142857,1.66
0.173262437949,-0.181729860894,-0.134801784924,-2.33518844197,-0.0168263300495,2.14758138751,-0.12439207734,-0.986867894976,-1.21574247583,-0.0249974885865,-1.31513114748,-0.213357003971,0.062141937099,-0.882375671943,0.573722117247,0.819030371698,0.00359573629701,0.0,0.81900081206,-0.573648370117,-0.0120815647913,0.0,-0.00783263103796,0.00987656203334,-0.99992054855,0.0,0.476458749791,0.0179093466301,0.304586982938,1.0,-0.38998,-0.512545142857,1.678
0.154943527103,-0.203672897183,-0.135412552692,-2.35801853111,-0.020533985933,2.14853731398,-0.140570043666,-1.01714659781,-1.21206436795,-0.0323799564148,-1.26534145288,-0.21449980126,0.0412402975395,-0.914194055962,0.573817138788,0.818963371504,0.00369246107984,0.0,0.818935043303,-0.573742971237,-0.0120476017223,0.0,-0.00774817011017,0.00993719744568,-0.999920605832,0.0,0.469452969889,0.00861061292751,0.3046246846,1.0,-0.38998,-0.512545142857,1.696
0.139218616408,-0.221751220737,-0.135969531157,-2.37636642746,-0.0235447346473,2.1489745593,-0.154478849031,-1.05583322965,-1.21393345397,-0.0421325182383,-1.20333038821,-0.205461811465,0.0224073566298,-0.937472602757,0.573962833111,0.818860350353,0.00389098034805,0.0,0.818834703706,-0.573888034876,-0.0119581910801,0.0,-0.00755924701068,0.0100498204618,-0.99992092632,0.0,0.463630949679,0.00085791585114,0.304716651736,1.0,-0.38998,-0.512545142857,1.711
0.123159157457,-0.239395136,-0.136406474804,-2.39426119583,-0.0265491999133,2.14905744166,-0.168763458305,-1.07709126216,-1.16747904893,-0.0317345178839,-1.15862916893,-0.19514139349,-0.00385666297901,-0.956846730036,0.573952034557,0.81886812531,0.00384737306421,0.0,0.818841040377,-0.573876251091,-0.0120890830333,0.0,-0.00769159681661,0.0100891350126,-0.999919521108,0.0,0.457752146214,-0.0067932193082,0.304682066058,1.0,-0.38998,-0.512545142857,1.726
0.104338238029,-0.259158344699,-0.137023914632,-2.41380765584,-0.029889870789,2.14903307411,-0.185598569103,-1.11058690226,-1.16019889317,-0.0278281749222,-1.15478500922,-0.19789053989,-0.0112041069262,-1.01086620509,0.574017435001,0.818821190967,0.00407289081806,0.0,0.818797444335,-0.573941342307,-0.0119510519506,0.0,-0.00744831757153,0.010195181068,-0.999920287247,0.0,0.451155881196,-0.0155515972352,0.30473703571,1.0,-0.38998,-0.512545142857,1.743
0.0850547139932,-0.2784557868,-0.137624758395,-2.43250586063,-0.0332193484238,2.14869964803,-0.20292179472,-1.14817799699,-1.11184623878,-0.0404565641869,-1.11249554359,-0.19361347863,-0.0446181907549,-1.03047189526,0.574030600376,0.818810797747,0.00430049146973,0.0,0.818791144847,-0.573955328115,-0.0117085161358,0.0,-0.00711890650601,0.0102424480797,-0.999922203688,0.0,0.444607719067,-0.0242595777768,0.304817490506,1.0,-0.38998,-0.512545142857,1.76
0.0652076494323,-0.297301310585,-0.138137917006,-2.45050473309,-0.036410360563,2.14787605597,-0.220913710856,-1.18939236828,-1.09709618506,-0.0415764309406,-1.03180820693,-0.190053084036,-0.0511602850396,-1.08276242362,0.57392870942,0.818881523682,0.00443097917095,0.0,0.818863459082,-0.573852889249,-0.0116723511559,0.0,-0.00701567757358,0.0103276632054,-0.999922056783,0.0,0.438014560726,-0.0329121224731,0.304856851752,1.0,-0.38998,-0.512545142857,1.777
0.045994586766,-0.314611599194,-0.138702385828,-2.46693632327,-0.0394617605876,2.14680848361,-0.238297016181,-1.20394416223,-1.06235978409,-0.0415658003432,-1.03287841981,-0.181446633719,-0.0751055986594,-1.09725813254,0.573923494902,0.818885393192,0.00439109516253,0.0,0.818866197966,-0.573846906888,-0.0117738771903,0.0,-0.0071217767918,0.0103532234779,-0.999921042412,0.0,0.43174374024,-0.0410953478073,0.304809457731,1.0,-0.38998,-0.512545142857,1.793
0.0250082037596,-0.33258801249,-0.139277308684,-2.48353431254,-0.0425881520227,2.14550003753,-0.257383594715,-1.24727375023,-1.03596040268,-0.0320212629469,-0.965531041408,-0.187233996468,-0.0815738057236,-1.13479378871,0.57391197553,0.818892801679,0.00451338039891,0.0,0.818875555211,-0.573835528648,-0.0116772445692,0.0,-0.00697260773825,0.0103978075695,-0.999921631099,0.0,0.42475795756,-0.0503016595122,0.304842616121,1.0,-0.38998,-0.512545142857,1.811
0.000853500804743,-0.352077110636,-0.140020118821,-2.50123121284,-0.0460358953454,2.14357329245,-0.279470567248,-1.28265273844,-1.03442765082,-0.0273345506426,-0.907187628927,-0.173462594902,-0.100844098107,-1.17134653406,0.573931180317,0.81887903693,0.00456837368553,0.0,0.818862202235,-0.573854105249,-0.011700706842,0.0,-0.00696001755831,0.0104564703446,-0.99992110708,0.0,0.417729479413,-0.0595348756655,0.304869659213,1.0,-0.38998,-0.512545142857,1.829
-0.020066471245,-0.36796037724,-0.140687551519,-2.51538228146,-0.0487780929936,2.14185058085,-0.298720997921,-1.32471494816,-0.977334363118,-0.0506629427858,-0.878923124392,-0.179166399819,-0.110453337859,-1.21465670685,0.573995245415,0.818833137177,0.00474326921558,0.0,0.818818427536,-0.573917390175,-0.0116601407527,0.0,-0.00682559635725,0.0105769452324,-0.999920766593,0.0,0.41150472706,-0.0677603080132,0.304902739114,1.0,-0.38998,-0.512545142857,1.845
-0.0441240867994,-0.385169821949,-0.141361888539,-2.53044794214,-0.0518934457944,2.13965552087,-0.320945773627,-1.36562964392,-0.938984690896,-0.0534668401364,-0.81855678296,-0.170678680877,-0.115471339088,-1.23088443532,0.573961834206,0.818856253133,0.00479546463172,0.0,0.818842560999,-0.573884356234,-0.0115910684142,0.0,-0.00673950647479,0.0105797651209,-0.999921320716,0.0,0.404510857807,-0.0769659546936,0.304941240745,1.0,-0.38998,-0.512545142857,1.863
-0.0646742831691,-0.398960999518,-0.141867899447,-2.54240740722,-0.0542631783311,2.13773047691,-0.340031857617,-1.38985254611,-0.912974364931,-0.0324498344192,-0.773747386278,-0.166331029409,-0.127292489375,-1.29742466866,0.573944410454,0.818867779464,0.00491124885337,0.0,0.818855164205,-0.573865913366,-0.0116138035697,0.0,-0.00669190007102,0.0106874848964,-0.999920494909,0.0,0.398673151061,-0.0846000650021,0.304942467732,1.0,-0.38998,-0.512545142857,1.878
-0.0883934120219,-0.413978928045,-0.142493707072,-2.55514665309,-0.0569934964732,2.13535263941,-0.36227306551,-1.40346593356,-0.867728373816,-0.0295089471858,-0.725762844873,-0.160829918699,-0.119072810849,-1.32941824226,0.573809526977,0.818962001396,0.00496124190396,0.0,0.818950107843,-0.573731019227,-0.0115838396414,0.0,-0.00664043397129,0.0107101333407,-0.999920595688,0.0,0.392070361724,-0.093255199752,0.304977928031,1.0,-0.38998,-0.512545142857,1.895
-0.11131447435,-0.427436671015,-0.143117511078,-2.56648322058,-0.0594419452977,2.13311348356,-0.383793802252,-1.43190890665,-0.846276478323,-0.0404376808831,-0.699638223967,-0.144011110684,-0.144366133067,-1.35032699654,0.573781840831,0.81898096147,0.00503296966711,0.0,0.818969820114,-0.573702833359,-0.0115861831087,0.0,-0.00660156152438,0.0107699990911,-0.999920210069,0.0,0.38583833459,-0.101445023592,0.304974501742,1.0,-0.38998,-0.512545142857,1.911
-0.136125049254,-0.441012019307,-0.143743992398,-2.57777848848,-0.0619392128683,2.13051977433,-0.407160808241,-1.46454665371,-0.775565217897,-0.0462873590412,-0.628585366257,-0.146307358204,-0.137862443783,-1.38367430725,0.573752740878,0.819001373875,0.00502879986257,0.0,0.818989096076,-0.573671996629,-0.0117493699573,0.0,-0.0067379982067,0.0108599745585,-0.999918326831,0.0,0.379185713515,-0.110101224209,0.304948294039,1.0,-0.38998,-0.512545142857,1.928
-0.165997333821,-0.455995962092,-0.144494871803,-2.58992681048,-0.0647489223869,2.12763288546,-0.435524036544,-1.50608768221,-0.741002322513,-0.0405060882925,-0.597600391976,-0.140404374391,-0.153016527096,-1.4224660022,0.57366651427,0.819061092607,0.00513847098398,0.0,0.8190507586,-0.57358628113,-0.0116352841475,0.0,-0.00658277882315,0.0108836510009,-0.99991910331,0.0,0.371430363456,-0.120325501027,0.304993534045,1.0,-0.389155428572,-0.511461420408,1.948
-0.190238545981,-0.466864702735,-0.144921956558,-2.59885917445,-0.0666752660155,2.1252989671,-0.458589950017,-1.5089700707,-0.663099331485,-0.0270847640266,-0.545046006368,-0.109109573813,-0.137933021964,-1.4283235793,0.573613606328,0.819097919884,0.00517447379305,0.0,0.81908627238,-0.573530334934,-0.0118903410886,0.0,-0.00677176634225,0.0110590148033,-0.999915917151,0.0,0.365247013197,-0.128366670441,0.304910613958,1.0,-0.376638857143,-0.495011069388,1.964
-0.215978682303,-0.477368653232,-0.145220395975,-2.60708430195,-0.0685100264677,2.12303676016,-0.482857196265,-1.50311622506,-0.591372399944,-0.0237618389825,-0.46200737992,-0.111432167346,-0.124719901665,-1.42180794156,0.573777265502,0.818982332634,0.00532309385178,0.0,0.818973425557,-0.573694793905,-0.0117285369207,0.0,-0.00655175943717,0.0110892537516,-0.999917048009,0.0,0.3589449541,-0.136767989829,0.304983025304,1.0,-0.36334,-0.477532571429,1.981
-0.23983693957,-0.486203980686,-0.145298118472,-2.61404575798,-0.0699408521701,2.12097133241,-0.505451694772,-1.481461751,-0.531382173955,0.00275798639304,-0.415073908993,-0.0780440992609,-0.120273295849,-1.38416344273,0.573849931346,0.81893073898,0.00542659651484,0.0,0.81892270296,-0.573766288137,-0.0117728533293,0.0,-0.00652767901536,0.0112000297958,-0.999915970839,0.0,0.353166265187,-0.144344496669,0.304989028444,1.0,-0.350823428572,-0.461082220408,1.997
-0.261866165077,-0.493563931611,-0.14521054323,-2.61988180835,-0.0711070219693,2.1191245117,-0.526349939828,-1.44815761104,-0.462186006097,0.0257696699923,-0.365179198125,-0.0793185679604,-0.121683986995,-1.37712680964,0.573870108192,0.818916450092,0.0054491828449,0.0,0.818907596072,-0.573784480348,-0.0119359167009,0.0,-0.00664798998072,0.0113122608287,-0.999913914787,0.0,0.347896600929,-0.151192359183,0.30495231429,1.0,-0.339089142857,-0.445660016327,2.012
-0.286279649756,-0.500906494459,-0.14501891923,-2.6255426079,-0.0721027704252,2.11737736057,-0.549588775231,-1.41438953067,-0.404899196691,0.0296924506908,-0.309352271061,-0.0706732242381,-0.109617414468,-1.35228345158,0.573931643165,0.818871974796,0.00564843070289,0.0,0.818865928117,-0.573845636396,-0.011854292884,0.0,-0.00646594540187,0.0114290812886,-0.999913780109,0.0,0.342218064568,-0.158681817623,0.304983825866,1.0,-0.325790285714,-0.428181518367,2.029
-0.310010022067,-0.507147354513,-0.144779513222,-2.63029078799,-0.072901420931,2.1158267209,-0.572240065199,-1.38122326077,-0.350101731777,0.0204193815209,-0.260352562366,-0.0605827109635,-0.0901098734085,-1.33211621204,0.574017347291,0.818810508474,0.00584663354479,0.0,0.818807326439,-0.573931121376,-0.0117633748085,0.0,-0.00627653080434,0.0115398697625,-0.999913714561,0.0,0.336796417383,-0.165884907264,0.305023079699,1.0,-0.312491428572,-0.410703020408,2.046
-0.333182300099,-0.512533040977,-0.144418624349,-2.63435390961,-0.073611155442,2.11443678826,-0.594316961249,-1.35619730752,-0.294295775263,0.0150705421432,-0.229813790682,-0.0362529341593,-0.0765988070614,-1.29221559902,0.574107799053,0.818746369474,0.00594680086986,0.0,0.818745005289,-0.574022163952,-0.0116584093026,0.0,-0.00613180284263,0.0115623198253,-0.999914353209,0.0,0.331556904011,-0.172823230558,0.305062926124,1.0,-0.299192571429,-0.393224522449,2.063
-0.354216304286,-0.516729255969,-0.143876410101,-2.63771046723,-0.074111864625,2.11318412886,-0.614507331941,-1.31340755063,-0.251190875774,0.0310409127348,-0.20029091605,-0.0265273127052,-0.0720662344217,-1.24344472067,0.57399676102,0.818824418513,0.00591919641278,0.0,0.818821282823,-0.573908617191,-0.0118891887999,0.0,-0.00633820230756,0.0116713445719,-0.999911799564,0.0,0.326800542195,-0.178970860821,0.304993831963,1.0,-0.286676,-0.376774171429,2.079
-0.375785866482,-0.520391188072,-0.143318419299,-2.64064335629,-0.0745223939954,2.11215223448,-0.635204684767,-1.25257141461,-0.201731235492,0.0360376180834,-0.157470798854,-0.0135479456253,-0.0542336349083,-1.1879821945,0.573962833933,0.818848140615,0.00592745951303,0.0,0.818844308177,-0.573873189311,-0.0120128455007,0.0,-0.00643521000421,0.0117488195326,-0.99991027263,0.0,0.321990205217,-0.18525187275,0.304935148434,1.0,-0.273377142857,-0.35929567347,2.096
-0.396554380288,-0.523352888167,-0.142707738769,-2.64291951965,-0.0747840350349,2.11126019601,-0.655194498505,-1.19167512366,-0.162981810204,0.033516430243,-0.12009344464,-0.00160009950393,-0.047341449877,-1.17076120763,0.573918229369,0.818879178666,0.00595849363931,0.0,0.818875473153,-0.573827958288,-0.0120490936188,0.0,-0.00644772578539,0.0117946858576,-0.999909652027,0.0,0.317424921298,-0.191261779156,0.304927793044,1.0,-0.260078285714,-0.34181717551,2.113
-0.415375666338,-0.525555765814,-0.142078210115,-2.64460542342,-0.0749348817404,2.1105786028,-0.673224050067,-1.15109990068,-0.127163816108,0.0489074733389,-0.0942470747255,-0.017479920965,-0.0402976412169,-1.09693575912,0.573954751921,0.818853504004,0.00596897223097,0.0,0.818849874071,-0.573864317718,-0.0120571756828,0.0,-0.00644780451965,0.0118081927818,-0.999909492104,0.0,0.313325615006,-0.196669327598,0.304927055777,1.0,-0.247561714286,-0.32536682449,2.129
-0.435597933447,-0.527420402068,-0.141388525262,-2.6460487474,-0.0749833969025,2.11000286113,-0.69268447142,-1.11237891823,-0.0893041918633,0.0287475274418,-0.0598334266205,-0.000541598954176,-0.0309187602395,-1.06557678768,0.573983483174,0.818833015241,0.00601673461332,0.0,0.818830005205,-0.573892837103,-0.012049107793,0.0,-0.00641336984505,0.0118428997074,-0.999909303094,0.0,0.308945702675,-0.202454990301,0.304922275335,1.0,-0.233480571429,-0.306860179592,2.147
-0.452609732417,-0.528645385794,-0.140661023645,-2.64703729986,-0.0749666167001,2.10957936136,-0.709086576495,-1.03659901609,-0.0708621970471,0.0469522637358,-0.0595358844292,-0.004882550672,-0.0242216047552,-1.00888267581,0.573917096722,0.818879734474,0.0059911150711,0.0,0.818876150088,-0.57382613103,-0.0120900399503,0.0,-0.00646255474666,0.0118448899225,-0.999908962841,0.0,0.305271411579,-0.207255011144,0.304903713173,1.0,-0.220964,-0.290409828572,2.163
-0.470938172679,-0.529579091712,-0.139913296634,-2.64776430186,-0.0749434702075,2.10922231563,-0.726617104841,-0.983855692526,-0.0450495331466,0.0475281063583,-0.0301417046452,0.00871860133448,-0.0181751845119,-0.95074359623,0.574009288406,0.818815456544,0.00594405997742,0.0,0.818811336232,-0.573918645823,-0.0120884463536,0.0,-0.00648692476041,0.0118061714875,-0.999909262944,0.0,0.301321632306,-0.212441071736,0.304903487264,1.0,-0.206882857143,-0.271903183674,2.181
-0.486242785194,-0.530034504009,-0.139167088772,-2.64812922959,-0.0748469845152,2.10901015255,-0.741338339508,-0.942052177111,-0.0206781868849,0.034799412471,-0.0146720404455,0.00996686072355,-0.0118443170081,-0.888920219111,0.573980174904,0.818836361571,0.00587526061276,0.0,0.818831479188,-0.573890072889,-0.0120805559276,0.0,-0.00652037025757,0.0117450740715,-0.999909764932,0.0,0.298054513357,-0.216734998356,0.304905491717,1.0,-0.194366285714,-0.255452832653,2.197
-0.500609335315,-0.530234091557,-0.138344271201,-2.64827962681,-0.0746614064054,2.10887890431,-0.755274985119,-0.882458868635,-0.00879621894746,0.0551306257943,-0.0035944499418,0.0213158084368,-0.000838396162409,-0.86257943051,0.573822104657,0.818947627144,0.00580715970702,0.0,0.818942196917,-0.573732926263,-0.0120396981235,0.0,-0.00652824916682,0.0116645976246,-0.999910655571,0.0,0.29501780528,-0.220727911811,0.304920579586,1.0,-0.181849714286,-0.239002481633,2.213
-0.51504819022,-0.530250921969,-0.137573451037,-2.64830887869,-0.074380627546,2.10881773356,-0.769090663941,-0.824395358072,0.00317396721202,0.0409712690795,0.000451276097627,0.0162661666493,-0.00231512535312,-0.797533094896,0.573897122064,0.818894923499,0.00582618704116,0.0,0.81888995598,-0.573808236281,-0.012003952337,0.0,-0.00648698641498,0.0116602642455,-0.99991097466,0.0,0.291773821662,-0.224955907415,0.304926876383,1.0,-0.167768571429,-0.220495836735,2.231
-0.528338651452,-0.530055589106,-0.136626490974,-2.64822527949,-0.0739509752187,2.10881683881,-0.781941891536,-0.764089477134,0.00978172302416,0.0508535312032,0.00962505371838,0.02944447754,-0.00159718451453,-0.732993042592,0.573786963135,0.818971949929,0.00584919373066,0.0,0.818967275103,-0.573697994147,-0.0119983633479,0.0,-0.00647077689884,0.0116750274996,-0.999910907421,0.0,0.289164757386,-0.228338945048,0.304920384978,1.0,-0.155252,-0.204045485714,2.247
-0.540791266303,-0.529715573874,-0.135814715757,-2.64802845407,-0.0735301956602,2.10881763145,-0.793794033005,-0.714046325728,0.0196017276486,0.0462445349464,0.0166113037903,0.0176741182035,-0.00241126061824,-0.677578615932,0.573897152684,0.818894321892,0.00590716653139,0.0,0.818890070517,-0.573807323756,-0.0120397057018,0.0,-0.00646979578173,0.0117470990069,-0.99991006966,0.0,0.286530036214,-0.231726095946,0.304907234829,1.0,-0.141953142857,-0.186566987755,2.264
-0.553350667811,-0.529141925957,-0.134761639219,-2.64770785606,-0.0729983321555,2.10887743436,-0.805874032582,-0.633246299032,0.0365118935828,0.0504986055031,0.0155625281696,0.0322540390869,0.00222721270798,-0.606512997634,0.573792570367,0.818967504041,0.00592118376199,0.0,0.818962868032,-0.573701675934,-0.0121224880558,0.0,-0.00653105648114,0.0118052505043,-0.999908986539,0.0,0.283921949759,-0.235077976477,0.304876198968,1.0,-0.127089714286,-0.167032195919,2.283
-0.563710060449,-0.528572216614,-0.133934682178,-2.64736072726,-0.0725316545243,2.10897356538,-0.81563995065,-0.595455547257,0.0323216213715,0.0454346296865,0.0215058985144,0.0263887855774,0.00611530456892,-0.546578542984,0.573914193501,0.818881950039,0.00596634731875,0.0,0.818877610915,-0.57382254823,-0.0121609369289,0.0,-0.0065348729411,0.0118652709912,-0.999908251181,0.0,0.281761366375,-0.237851408842,0.304855625398,1.0,-0.113790857143,-0.149553697959,2.3
-0.573000689424,-0.527961634747,-0.133087328412,-2.64692901902,-0.0720450306824,2.10911397544,-0.824429155845,-0.516032561785,0.0409324178301,0.0561684458979,0.0244660818965,0.0339955404488,0.0142180712105,-0.505936599058,0.573958678475,0.818850535629,0.00599855021217,0.0,0.818846868512,-0.573867342927,-0.0121171593692,0.0,-0.00647989512617,0.0118668713093,-0.999908589984,0.0,0.279863717378,-0.240324591678,0.304862619303,1.0,-0.100492,-0.1320752,2.317
-0.580237023214,-0.52738287607,-0.132286355073,-2.64653232768,-0.0716012504157,2.10921753522,-0.831306603635,-0.47679801038,0.0357095174038,0.0521650883035,0.0303451929411,0.0302506119514,0.00300613527128,-0.446469134612,0.573898711687,0.818892550106,0.00600058381213,0.0,0.818888833183,-0.5738072401,-0.0121275305675,0.0,-0.00648809091251,0.0118740138565,-0.999908452045,0.0,0.278415835883,-0.242213522639,0.304860717384,1.0,-0.0887577142858,-0.116652995919,2.332
-0.587287033913,-0.526823753974,-0.131455750241,-2.64610312529,-0.0711381583808,2.10930784792,-0.837774108598,-0.415847824629,0.0319190592965,0.0532780173091,0.0313278591327,0.0300462328904,0.00296150236599,-0.383850564643,0.574010359991,0.818814307804,0.00599857145886,0.0,0.818810750131,-0.573919213631,-0.012101181574,0.0,-0.00646604969106,0.0118581266932,-0.999908783356,0.0,0.277014588089,-0.244039767858,0.304880153551,1.0,-0.0762411428573,-0.100202644898,2.348
-0.593727825625,-0.526218512122,-0.13058511135,-2.64566296321,-0.0706193198643,2.10944134063,-0.843711689298,-0.352690512623,0.0369684312004,0.0517439333749,0.0174651595647,0.0290647927743,0.0151053998343,-0.344076647289,0.574052933861,0.818784349504,0.00601373715,0.0,0.818781191308,-0.573962084747,-0.0120678471447,0.0,-0.00642943104906,0.0118517461095,-0.999909095133,0.0,0.275772842709,-0.245682549563,0.304892162642,1.0,-0.0629422857144,-0.0827241469389,2.365
-0.598722439186,-0.525686299069,-0.129671804439,-2.64532185109,-0.070093630888,2.10954070552,-0.848337000515,-0.292174367945,0.0282301705108,0.0598831924651,0.0158346079495,0.0343785992806,0.00153022327816,-0.266546642392,0.573953105916,0.818854349912,0.00601105157975,0.0,0.818850931268,-0.573861874265,-0.0121015919061,0.0,-0.0064600522233,0.0118681299433,-0.999908703441,0.0,0.274860527931,-0.246883604152,0.304883760181,1.0,-0.0504257142858,-0.0662737959185,2.381
-0.603372485291,-0.525246049671,-0.128649067851,-2.64505697134,-0.069527017593,2.1096045273,-0.852515574156,-0.237998701477,0.0264682577647,0.0544416582626,0.0105685826,0.0288669896784,0.000452794610501,-0.203518072531,0.573872609783,0.818910883093,0.00599501409332,0.0,0.818906918456,-0.573780848128,-0.0121550042226,0.0,-0.00651416638883,0.0118850113357,-0.999908151853,0.0,0.274032687892,-0.24793574913,0.304873802387,1.0,-0.0363445714287,-0.0477671510206,2.399
-0.606963186495,-0.524896579378,-0.127652785292,-2.64481470493,-0.0689478149364,2.10971273407,-0.855534636155,-0.17458401008,0.0204200266097,0.0548008736482,0.0131940467568,0.0327409811125,0.00715638413724,-0.146001358569,0.573896395697,0.818894253102,0.00598966971479,0.0,0.818890567531,-0.573805289692,-0.0121026787045,0.0,-0.0064740345176,0.0118507958834,-0.9999088186,0.0,0.273464107045,-0.248701927541,0.304889713666,1.0,-0.0222634285715,-0.0292605061226,2.417
-0.609258025322,-0.524628802665,-0.126943949868,-2.64465692308,-0.0684977789747,2.10976863063,-0.85737945042,-0.131948194208,0.0153414838428,0.0337888777882,0.0101005807045,0.0270856000927,0.00152853615082,-0.10626614974,0.57396421984,0.818846511229,0.00601766507465,0.0,0.818843053894,-0.573872727758,-0.0121199144723,0.0,-0.00647110039961,0.0118841493083,-0.999908441736,0.0,0.273118960673,-0.249164538651,0.304885468588,1.0,-0.0197183783784,-0.0259155830116,2.433
-0.611172835697,-0.524461545084,-0.126401833242,-2.64452104179,-0.0682135225735,2.10977105383,-0.859059125502,-0.111677252783,0.0108605884403,0.0320330622926,0.00595086368525,0.0135166514351,0.00127768887562,-0.101286277245,0.573901763053,0.818890467318,0.00599297934238,0.0,0.818886691777,-0.573810398066,-0.0121227060802,0.0,-0.00648845950811,0.0118650418588,-0.999908556156,0.0,0.272807406991,-0.249566835304,0.304899328077,1.0,-0.0193783783784,-0.0254687258687,2.45
-0.612777490615,-0.524290592314,-0.126041988601,-2.64434435227,-0.0680344099735,2.1098199418,-0.860620418442,-0.0924240065685,0.0177559101235,0.0181152368278,0.0128628008596,0.00851471358104,0.00293937565481,-0.101135034587,0.573768224876,0.818984272095,0.00596096343252,0.0,0.818980576022,-0.573677932773,-0.0120495829185,0.0,-0.00644886987696,0.0117958081731,-0.99990963141,0.0,0.27254305436,-0.249952421231,0.30492985502,1.0,-0.0190583783784,-0.0250481544402,2.466
-0.614305570491,-0.524086454909,-0.125855496859,-2.64415644177,-0.0678885349139,2.10992017319,-0.862097429884,-0.0909713157895,0.00656521510191,0.012136011791,0.00776463595783,0.00895166442085,0.00468663955276,-0.0858062975866,0.573750059691,0.818996850021,0.00598126754003,0.0,0.818994030093,-0.573660813008,-0.0119497778592,0.0,-0.00635573399284,0.0117550344885,-0.999910707918,0.0,0.272268611945,-0.250368380236,0.304953505027,1.0,-0.0187183783784,-0.0246012972973,2.483
-0.615732149674,-0.523942216198,-0.125760222963,-2.64401161957,-0.0678294462804,2.10992026151,-0.863506203317,-0.0873912985702,0.011416692366,0.00635837143135,0.010755518463,6.19613381265e-05,0.000769361538979,-0.092736856924,0.573729920963,0.819010931527,0.00598487525672,0.0,0.819008224468,-0.573640785916,-0.0119383369044,0.0,-0.00634458203594,0.0117512693946,-0.999910822997,0.0,0.271967285982,-0.250762703272,0.304968740913,1.0,-0.0183983783784,-0.0241807258687,2.499
-0.61720827925,-0.523807864192,-0.125706935511,-2.64384932794,-0.0677982442037,2.10992258117,-0.864844226133,-0.0828533566766,0.00343877863168,0.00769844037555,0.00810995419181,0.000544318733138,0.00100151654656,-0.0806021331414,0.573826889843,0.818943010498,0.00598272098794,0.0,0.818940533907,-0.573738223031,-0.0118995906961,0.0,-0.00631269245871,0.0117280236404,-0.999911297754,0.0,0.271646490545,-0.251187241262,0.304994707994,1.0,-0.0180583783784,-0.0237338687259,2.516
-0.618600890282,-0.523608083912,-0.125639906454,-2.64367358178,-0.0677598198935,2.10996753855,-0.866239292904,-0.0828030939936,0.010678798007,0.00177224240965,0.0108763121252,0.00438775525375,0.00173189887089,-0.0783901718986,0.573803013913,0.81895978939,0.00597590892292,0.0,0.818957418846,-0.573714740427,-0.0118696940172,0.0,-0.00629245622521,0.0117051065076,-0.999911693839,0.0,0.271358187643,-0.251592942858,0.305006748645,1.0,-0.0177183783784,-0.023287011583,2.533
-0.619939846992,-0.523406170724,-0.125631466884,-2.64352983224,-0.0677276433211,2.1100179842,-0.86763181138,-0.0801009876286,0.00795737383296,-0.000245166422419,0.00827072772742,0.00265331277447,-0.000567543923502,-0.0845039678557,0.573774575421,0.818979564904,0.00599631318012,0.0,0.818977438506,-0.573686189037,-0.01186838774,0.0,-0.00628008588195,0.0117208500079,-0.99991158719,0.0,0.27106323267,-0.251990239123,0.305002519228,1.0,-0.0173783783784,-0.0228401544402,2.55
-0.62120799734,-0.523240719841,-0.125627697019,-2.6434209237,-0.0677091755966,2.11001719809,-0.868858672786,-0.0827716813725,0.00694443344053,-0.000324325313458,0.00370358426942,0.00376451447767,0.000747752332654,-0.0788174399314,0.57381949723,0.818947965066,0.00601348603712,0.0,0.818945732385,-0.573730419138,-0.0119180730814,0.0,-0.00631028332546,0.0117637679193,-0.999910893074,0.0,0.27076768914,-0.25235542976,0.304991330088,1.0,-0.0170583783784,-0.0224195830116,2.566
-0.622589345396,-0.523045437864,-0.125607011264,-2.64329153255,-0.0676723866097,2.11002106894,-0.87024552562,-0.074382657566,0.00975779789251,0.00199064953768,0.00844811472318,0.00460697296545,-0.000668712856989,-0.0736440414977,0.573823030236,0.818945314374,0.00603729552441,0.0,0.81894303124,-0.573733183617,-0.0119704845503,0.0,-0.00633949750656,0.0118133682592,-0.999910123512,0.0,0.270453113035,-0.25275048708,0.304979304636,1.0,-0.0166983783784,-0.0219464401544,2.584
-0.624055161699,-0.522824804629,-0.125562051358,-2.64315868289,-0.0676379143438,2.11008188366,-0.871673009655,-0.0758958515772,0.00945343008088,0.00253388421809,0.00645036982007,0.00103998496594,0.00490508449005,-0.0751230744986,0.573844548259,0.818930196973,0.00604266670235,0.0,0.818927867781,-0.573754458999,-0.0119881212887,0.0,-0.00635054983136,0.0118280539304,-0.999909879768,0.0,0.270130959196,-0.253171012143,0.304964969308,1.0,-0.0162983783784,-0.0214207258687,2.604
-0.624979282049,-0.522678911989,-0.12550922281,-2.6430662924,-0.0676184415724,2.11009770776,-0.872637638505,-0.0684735676795,0.0163691334418,0.00902476310781,0.00757763020481,0.000594432526309,0.000894381322579,-0.0754782945628,0.57378730077,0.818970374613,0.00603372874715,0.0,0.818967731296,-0.573696893052,-0.0120198544008,0.0,-0.0063824961085,0.0118384968833,-0.999909552777,0.0,0.269930743597,-0.253429692904,0.304956011954,1.0,-0.0160383783784,-0.021079011583,2.617
-0.626180023813,-0.522511928438,-0.125423630185,-2.64295168961,-0.0675965262375,2.11011924141,-0.873867103317,-0.0740992418001,0.00937530343263,0.000466262600789,0.00564244597653,0.000261331672313,0.00131665290403,-0.0646968854872,0.573718679015,0.819018616302,0.00601085685146,0.0,0.819015543405,-0.5736281381,-0.0120434937717,0.0,-0.00641597250764,0.0118327903459,-0.999909406081,0.0,0.269672915898,-0.253761289148,0.304950664508,1.0,-0.0156983783784,-0.0206321544402,2.634
-0.627428477029,-0.522314962798,-0.125369276033,-2.64281782998,-0.0675626148089,2.11015776043,-0.875184610656,-0.064665355765,0.00867865804617,0.00171097324265,0.0111782428518,0.00124047566209,0.00245302505989,-0.0688768275859,0.573645273868,0.819070026893,0.00601146544776,0.0,0.819066850063,-0.57355453947,-0.0120595307413,0.0,-0.0064298206661,0.0118419128769,-0.999909209131,0.0,0.269403574342,-0.254117841674,0.304943763485,1.0,-0.0153183783784,-0.0201327258687,2.653
-0.628369217783,-0.522177117758,-0.125369140155,-2.6427296486,-0.0675438907372,2.11018579675,-0.876159242477,-0.064839552725,0.00548993655171,-0.00264520880761,0.00784964301353,-0.000586327136332,0.00230045690866,-0.064052086725,0.573630168974,0.819080485436,0.0060278123019,0.0,0.819077402082,-0.573539147751,-0.0120748621541,0.0,-0.00643322148377,0.0118639784766,-0.999908925691,0.0,0.269188153807,-0.254392943061,0.304935616954,1.0,-0.0150383783784,-0.0197647258687,2.667
-0.629598416929,-0.522005806197,-0.125365913587,-2.64260230839,-0.0675181371604,2.11021402316,-0.877358000088,-0.0667614659012,0.00426105872176,0.00098862199114,0.0111526228538,0.00312164954095,0.000399217532854,-0.0640095662533,0.573670552797,0.819052060619,0.00604696214001,0.0,0.819049157968,-0.573579313751,-0.012082821311,0.0,-0.0064281710605,0.0118845468442,-0.999908713915,0.0,0.268908707506,-0.254753363178,0.30493306065,1.0,-0.0146783783784,-0.0192915830116,2.685
-0.630683876647,-0.521846470467,-0.125362719258,-2.64247684352,-0.067490457102,2.11023889896,-0.87837124373,-0.0658898186255,0.00969009764337,1.46237267343e-05,0.00942129798157,0.000133003666166,-0.00111653200486,-0.067166817704,0.573745846803,0.818999179191,0.00606586045006,0.0,0.818996496038,-0.573654460803,-0.0120849484427,0.0,-0.0064179785153,0.0119018365791,-0.99990857374,0.0,0.268664905759,-0.255073940276,0.304933757802,1.0,-0.0143583783784,-0.018871011583,2.701
-0.631783254812,-0.521693428774,-0.125367917521,-2.64234771331,-0.0674611372853,2.11028456227,-0.879522771057,-0.0647465046283,0.0074124805303,0.000528945722669,0.0105401932111,0.00265048083417,-0.000345242740056,-0.0743586103572,0.573726052106,0.819012870828,0.00608945425401,0.0,0.81901065554,-0.57363486714,-0.0120553811208,0.0,-0.00638051186336,0.0119040433273,-0.999908787251,0.0,0.268419869018,-0.255403599634,0.30494000178,1.0,-0.0140183783784,-0.0184241544402,2.718
-0.632782145939,-0.52154637771,-0.125345426491,-2.64222609992,-0.0674407175109,2.11031439005,-0.880521467691,-0.0617877377556,0.0070582210413,0.000348565263083,0.00754933843756,4.20757397677e-05,-0.000384556813923,-0.0580426029466,0.573725350033,0.819013342517,0.00609215968448,0.0,0.819011226062,-0.573634272356,-0.0120449186224,0.0,-0.0063704001235,0.011900251442,-0.999908896859,0.0,0.268201093151,-0.255696892786,0.304944323284,1.0,-0.0136983783784,-0.0180035830116,2.734
-0.633808407402,-0.521367130327,-0.125279802237,-2.64209839383,-0.0674174662057,2.11033900775,-0.881526450102,-0.0586233040997,0.00914682222928,0.00397289083615,0.0116001622361,-0.000443317767046,-0.000412898526053,-0.0526203530955,0.573713008288,0.819022105781,0.00607628700288,0.0,0.819019664267,-0.573621780706,-0.0120660327082,0.0,-0.00639698010809,0.011899267562,-0.999908738874,0.0,0.267984321109,-0.255987795809,0.304940152617,1.0,-0.0133583783784,-0.0175567258687,2.751
-0.634788435397,-0.521207712567,-0.125200972622,-2.64198749183,-0.0673967230055,2.11036588871,-0.882567121825,-0.0556561561259,0.00857986767236,0.00133741540148,0.00445234099496,4.00838065e-05,0.00118264272524,-0.0598552310497,0.573622252057,0.819085838672,0.00605373710002,0.0,0.81908301722,-0.57353098082,-0.012081880764,0.0,-0.00642421534776,0.0118891778058,-0.999908684285,0.0,0.267778585597,-0.256259866914,0.304936128305,1.0,-0.0130183783784,-0.0171098687259,2.768
-0.635730725283,-0.521038707093,-0.125158357598,-2.64189586969,-0.067376675002,2.11039886492,-0.883551845489,-0.0532318978623,0.0140553569694,0.00253746687488,0.00616236482032,-6.56451347714e-05,0.00219754387216,-0.0540035222929,0.573570908273,0.819121819458,0.00605020423972,0.0,0.819118702599,-0.573479202547,-0.0121203217641,0.0,-0.00645847805894,0.0119079286747,-0.999908240438,0.0,0.26757071029,-0.256525543316,0.304919472267,1.0,-0.0126783783784,-0.016663011583,2.785
-0.636663790724,-0.520883773832,-0.125140118057,-2.64177991972,-0.0673604108324,2.11040842203,-0.884458291938,-0.0571766084366,0.0105707602354,0.00147515280913,0.00745590000781,-0.00059095810511,0.000700968728231,-0.054007208518,0.573592857925,0.819106425464,0.00605342900503,0.0,0.81910319359,-0.573500843994,-0.0121444262996,0.0,-0.00647605565628,0.0119245688041,-0.999907928442,0.0,0.267361616822,-0.256797516982,0.304916458558,1.0,-0.0123383783784,-0.0162161544402,2.802
-0.637546621388,-0.520746032028,-0.125135900818,-2.64167611916,-0.06734515951,2.11042434422,-0.885361943656,-0.0583483666444,0.00796193291426,-0.000286040871649,0.0125367955618,-0.000165662671301,0.000435287316077,-0.0628537779477,0.573584800269,0.819111994685,0.00606332950587,0.0,0.819108798928,-0.573492572824,-0.0121569459693,0.0,-0.0064807505985,0.0119397958528,-0.999907716315,0.0,0.267160645216,-0.257057184464,0.304914448997,1.0,-0.0120183783784,-0.0157955830116,2.818
-0.63850511623,-0.520595893986,-0.125140796404,-2.64156101111,-0.0673365217703,2.11045607553,-0.886308125975,-0.0581391233663,0.00952077386732,-0.000890801220562,0.00963438791712,0.00342824255664,5.66918636458e-05,-0.0584019591502,0.573608095128,0.819095633117,0.0060699186477,0.0,0.819092530581,-0.573515846856,-0.0121551080437,0.0,-0.00647512605131,0.0119443233618,-0.999907698681,0.0,0.266942287755,-0.257344433507,0.304914142198,1.0,-0.0116783783784,-0.0153487258687,2.835
-0.639436244677,-0.520454885238,-0.125135128153,-2.64144951854,-0.0673245885819,2.11049033461,-0.887177679757,-0.0535697685528,0.00869258030272,0.00109052284534,0.00684513958032,0.000217341099618,0.00439968935363,-0.0518183558547,0.573665440856,0.8190554477,0.00607309320617,0.0,0.819052451432,-0.573573286089,-0.012145541981,0.0,-0.00646463276204,0.0119418894916,-0.999907795648,0.0,0.26673301088,-0.257621123169,0.304916010929,1.0,-0.0113383783784,-0.0149018687259,2.852
-0.640269359307,-0.520329083491,-0.125142202103,-2.64133819719,-0.0673193200452,2.11053622004,-0.887976232985,-0.0527467916621,0.00768986973922,-0.00162359479312,0.00624439859614,0.00194639674987,0.00321316934748,-0.0506648750717,0.573706757684,0.819026497684,0.00607446948,0.0,0.819023750462,-0.573615015703,-0.0121101957128,0.0,-0.00643428815478,0.0119230654489,-0.999908216011,0.0,0.266547551869,-0.257876832667,0.304924075502,1.0,-0.0110183783784,-0.0144812972973,2.868
-0.641143157421,-0.520189515423,-0.1251333932,-2.64122555761,-0.0673117678178,2.11056153772,-0.888885697545,-0.0487927003763,0.0043843837485,0.000690528781414,0.00264713146221,0.00167451982633,0.000832822103432,-0.0524138073328,0.573680411026,0.819044959167,0.00607353016836,0.0,0.819042217484,-0.573588711658,-0.0121071358423,0.0,-0.00643270408657,0.0119203337868,-0.999908258772,0.0,0.266351693156,-0.258136770572,0.304926292419,1.0,-0.0106583783784,-0.0140081544402,2.886
-0.642054672055,-0.520054590635,-0.125105658886,-2.64111808741,-0.0673045399153,2.11058497613,-0.88980111646,-0.0467398395168,0.00979144451678,-0.00231597337584,0.00442074184413,0.000381581491722,-3.58593901514e-05,-0.0492119797702,0.57366625971,0.819054943332,0.00606375917315,0.0,0.819052086377,-0.573574628366,-0.0121067087545,0.0,-0.00643816519323,0.0119119742731,-0.999908323247,0.0,0.266148504495,-0.258400974907,0.304928149549,1.0,-0.0102783783784,-0.0135087258687,2.905
-0.642753110732,-0.519959740505,-0.125086507311,-2.64104656363,-0.0672962004377,2.1106064149,-0.890469597418,-0.0484549798269,0.00510316423834,0.000893584484807,0.00635913260075,1.36383260643e-05,-8.66855947296e-05,-0.0426765735858,0.573684538264,0.819042167284,0.00606017073657,0.0,0.819039280443,-0.573592949958,-0.012105030026,0.0,-0.00643858278014,0.0119082157106,-0.999908365327,0.0,0.265990675532,-0.258601356632,0.30492803956,1.0,-0.00997837837838,-0.0131144401544,2.92
-0.643489260458,-0.519859316124,-0.125064143221,-2.64098313655,-0.0672906308824,2.11062665831,-0.891156719734,-0.045927305414,0.00247093146107,0.00167607097094,0.00598493928493,0.00291387914339,-0.000193485645546,-0.0408778499744,0.57371462681,0.81902113475,0.00605431405997,0.0,0.81901809597,-0.573622918068,-0.0121183019393,0.0,-0.00645237633584,0.0119112691773,-0.999908240043,0.0,0.26582119893,-0.258808919732,0.304922168971,1.0,-0.00965837837838,-0.0126938687259,2.936
-0.644289708417,-0.519759677865,-0.125055514957,-2.64091395034,-0.0672755962141,2.11064656641,-0.891947329482,-0.0443479133641,0.00635606435793,-0.00022269446322,0.00118980985688,0.000440005224251,0.000479740432912,-0.0409038771034,0.573726655672,0.819012638624,0.00606376508001,0.0,0.819009678614,-0.573634820874,-0.012123758458,0.0,-0.00645124881573,0.0119222352236,-0.999908116627,0.0,0.265634071165,-0.259036938178,0.304918854302,1.0,-0.00929837837838,-0.0122207258687,2.954
-0.645030801801,-0.519654009433,-0.12504634328,-2.64083836033,-0.0672661084388,2.11067294834,-0.892682320363,-0.045005835536,0.0109344852335,0.00251385012874,0.00145186968455,-0.000131646662655,0.0043087869915,-0.0474314002002,0.573733194061,0.819008040404,0.00606619212102,0.0,0.819005112954,-0.573641348922,-0.0121233107472,0.0,-0.00644939451797,0.0119240177351,-0.999908107334,0.0,0.265464134055,-0.259251948959,0.304916788794,1.0,-0.00895837837838,-0.0117738687259,2.971
-0.645696462404,-0.519578618506,-0.125036131,-2.64077086157,-0.0672530739811,2.11069467911,-0.893311742359,-0.042748157799,0.00183578865549,-0.00187599649614,0.00108486077763,-0.00026365305397,0.000451744979322,-0.0398218071056,0.573764668696,0.818985959386,0.00607043546181,0.0,0.81898320034,-0.573673007656,-0.0121055668541,0.0,-0.00643196815007,0.0119175606674,-0.999908296562,0.0,0.265312211573,-0.259444043113,0.304921816418,1.0,-0.00863837837838,-0.0113532972973,2.987
-0.646412743757,-0.519448524231,-0.125016168445,-2.64066944978,-0.0672421237307,2.11072274852,-0.893995434194,-0.0384383985773,0.00288770697291,0.00222290426476,0.00614959956414,-0.000478292217193,0.00306940447831,-0.0281289421207,0.573787218158,0.818970233876,0.00606062735657,0.0,0.81896741852,-0.573695727539,-0.0120965494004,0.0,-0.00642988166601,0.0119045309697,-0.999908465193,0.0,0.265147744513,-0.259667283556,0.304925262658,1.0,-0.00825837837838,-0.0108538687259,3.006
-0.646988106374,-0.519364583368,-0.124997686722,-2.64058309802,-0.067231471944,2.11074291541,-0.894552733481,-0.0383928816532,0.00619147213217,0.00291182729938,0.00251590178665,0.000287530502709,-0.000118957576741,-0.0402118805513,0.57379780018,0.818962823744,0.00606009356467,0.0,0.818960127105,-0.573706542495,-0.0120772601299,0.0,-0.00641423522678,0.0118931092699,-0.999908701601,0.0,0.265033277886,-0.259827056609,0.304933388856,1.0,-0.00797837837838,-0.0104858687259,3.02
-0.647615538836,-0.51925102715,-0.12497540975,-2.640494282,-0.0672177877137,2.11076885063,-0.895169850632,-0.0343214997656,0.0052847694049,0.00189000262265,0.00459445414757,0.00084956009735,0.000443894830689,-0.0345667648884,0.573800927463,0.818960658788,0.00605655851181,0.0,0.818957949922,-0.573709747058,-0.012072667114,0.0,-0.00641245622084,0.0118876032026,-0.999908778487,0.0,0.264898287502,-0.260011467982,0.304934689904,1.0,-0.00763837837838,-0.010039011583,3.037
-0.648212866568,-0.519172001132,-0.124957874157,-2.64042706854,-0.0672034209916,2.11078155296,-0.895746789053,-0.0336258559571,0.00632077437311,-0.000406307085044,0.00411644965248,0.000583242139065,-0.000406291424209,-0.0312247855189,0.573814799523,0.818950922826,0.00605877485408,0.0,0.818948270777,-0.573723658509,-0.0120681547267,0.0,-0.00640728733502,0.0118869378353,-0.999908819532,0.0,0.264763738274,-0.260182008923,0.304937643381,1.0,-0.00729837837838,-0.00959215444016,3.054
-0.648806035087,-0.519078953155,-0.124947956114,-2.64036621248,-0.0671871475104,2.11080802203,-0.896338167463,-0.0296275115142,0.0035668195699,0.000719170692095,0.00908250368145,-5.82261612001e-05,0.00522066399212,-0.0280318709335,0.573819418353,0.818947629474,0.00606648178251,0.0,0.81894505875,-0.573728207845,-0.0120698455797,0.0,-0.00640418300499,0.0118942560512,-0.999908752393,0.0,0.264629082066,-0.260352914864,0.304933540011,1.0,-0.00693837837838,-0.00911901158302,3.072
-0.649385231578,-0.519005071788,-0.124930593429,-2.64032836776,-0.0671746633597,2.11082082374,-0.896907890282,-0.0292929279487,0.00301842407554,0.00272706543508,0.00525789530186,0.000783979766901,0.00360862118151,-0.0323487475235,0.573822285673,0.818945585543,0.00607118479793,0.0,0.818942946372,-0.573730813413,-0.012089302257,0.0,-0.0064173784776,0.0119092943105,-0.999908488794,0.0,0.264492214219,-0.26051132436,0.304925042898,1.0,-0.00655837837838,-0.00861958301159,3.091
-0.649783662699,-0.518954439771,-0.124923870619,-2.64029241012,-0.0671636791964,2.11082947517,-0.897284988723,-0.0288242286286,0.00502777696155,-0.000251804509439,0.00283401769931,0.000363289451394,-0.000247701291219,-0.0271171982193,0.5738415739,0.818932023942,0.00607742764824,0.0,0.818929440011,-0.573750021996,-0.0120926193752,0.0,-0.00641623254516,0.0119164615843,-0.999908410757,0.0,0.264399344509,-0.260623677361,0.304923641341,1.0,-0.00629837837838,-0.00827786872587,3.104
-0.650351890572,-0.51888053522,-0.124895463995,-2.64023257317,-0.0671494903379,2.11084544153,-0.897819555352,-0.0318769663681,0.00284612248183,0.00410092024555,0.00854144818649,0.000211303892503,0.00038288352558,-0.0275630805478,0.573858154998,0.818920429486,0.00607412670262,0.0,0.818917840852,-0.573766685082,-0.0120875111016,0.0,-0.00641370172346,0.0119109568665,-0.999908492582,0.0,0.264273287087,-0.260782569233,0.304925656389,1.0,-0.00591837837838,-0.00777844015445,3.123
-0.650806806672,-0.518815502232,-0.124886984803,-2.64017367039,-0.0671339664955,2.11086531212,-0.898287841637,-0.0259643955774,0.00170554104127,0.00096864756805,0.00511859405199,0.00311341863649,0.000209494047421,-0.027170496439,0.573850834647,0.818925512814,0.00608037325193,0.0,0.818923106882,-0.573759527641,-0.0120704746445,0.0,-0.0063962707013,0.0119062393358,-0.999908660422,0.0,0.264173075737,-0.260916142986,0.304930376281,1.0,-0.00557837837838,-0.00733158301159,3.14
-0.651174775922,-0.51873853743,-0.124879879255,-2.64010114883,-0.0671238427525,2.11087950925,-0.898653525736,-0.0280629958372,0.00875067940375,0.000676355445269,0.00217146457188,-0.000157755766936,-0.000225982224173,-0.0258156883,0.573848643274,0.818927028091,0.00608310585197,0.0,0.818924731763,-0.573757462834,-0.0120583767693,0.0,-0.00638482619917,0.0119015181183,-0.999908789771,0.0,0.26409398385,-0.261035066236,0.304937017675,1.0,-0.00527837837838,-0.0069372972973,3.155
-0.65164071466,-0.518680891458,-0.1248609473,-2.64002342296,-0.0671040740028,2.11089937227,-0.899105996854,-0.022744722712,0.00391588800637,0.00151256542096,0.00308662139036,0.00060298024266,0.000394939791848,-0.0262304417242,0.573865580083,0.818915168269,0.00608194678635,0.0,0.818913132637,-0.573774915945,-0.0120155702477,0.0,-0.00635018648589,0.011876136938,-0.999909312139,0.0,0.264000603341,-0.261168727745,0.304952606924,1.0,-0.00491837837838,-0.00646415444016,3.173
-0.652013300169,-0.518641119274,-0.124839330732,-2.6399817797,-0.0670828894912,2.11090376158,-0.899451779035,-0.0268510591122,0.00291078625129,0.00129820861846,0.00229736263326,0.000690896291529,-0.000102780123533,-0.0276291602914,0.573883342388,0.818902673969,0.006088250676,0.0,0.818900774749,-0.573792749733,-0.0120061804861,0.0,-0.0063386212459,0.0118760488329,-0.999909386567,0.0,0.263919252464,-0.261270852485,0.304957776874,1.0,-0.00459837837838,-0.00604358301159,3.189
-0.652350303527,-0.518603882549,-0.124808142822,-2.63995440367,-0.0670638387746,2.11091788976,-0.899788829509,-0.0246708999,0.000999182873838,0.00162140549418,0.00425508539752,0.000463142127713,0.00393686080644,-0.0230943710973,0.573870738253,0.818911502603,0.00608880790341,0.0,0.818909653402,-0.573780226053,-0.0119991106443,0.0,-0.00633269407638,0.0118723506332,-0.99990946804,0.0,0.263847388683,-0.261359438816,0.304958452822,1.0,-0.00427837837838,-0.00562301158302,3.205
-0.652663356355,-0.51856460717,-0.124767702202,-2.63994053988,-0.0670378402486,2.11092484051,-0.900106119633,-0.0226259060143,0.00140897331344,0.0034947122511,0.000350827395925,0.000150624136873,0.00472423988935,-0.0159517086723,0.573850493004,0.818925655833,0.0060933405545,0.0,0.818923762641,-0.573759772954,-0.0120141925502,0.0,-0.00634273893776,0.0118845605065,-0.999909259325,0.0,0.263780129468,-0.261434450037,0.304951847568,1.0,-0.00393837837838,-0.00517615444016,3.222
-0.652946153717,-0.518517511073,-0.124741014633,-2.63991750038,-0.0670122058832,2.11093189153,-0.900422683817,-0.0147963561932,0.00156483491262,0.00176909118447,0.00198874134379,0.000208963527742,0.000432095006164,-0.0174498698624,0.573816126516,0.818949662252,0.00610332282251,0.0,0.818947798329,-0.573725182706,-0.0120276864882,0.0,-0.00634856201522,0.0119002123756,-0.999909036216,0.0,0.263719664052,-0.261506739899,0.304946214443,1.0,-0.00359837837838,-0.0047292972973,3.239
-0.653184937463,-0.518464579293,-0.124697787466,-2.63990272622,-0.0669924049373,2.11094069051,-0.900668570321,-0.0161833999113,0.0061375426918,0.00333841824207,-0.000447479125388,-0.000182394093591,0.00028391668057,-0.00645374614223,0.573789018542,0.818968675525,0.00610062373946,0.0,0.818966604236,-0.573697769593,-0.0120547588969,0.0,-0.00637267838894,0.0119133247523,-0.999908726666,0.0,0.263672038973,-0.261562416379,0.304935210315,1.0,-0.00327837837838,-0.00430872586873,3.255
-0.653427824256,-0.518412102926,-0.124657517119,-2.63986418272,-0.0669722767927,2.11094740871,-0.900921053808,-0.0146555474471,0.00309755451287,0.000286449519507,0.00196560784826,-0.000166741339559,-0.000310166978473,-0.0180209331416,0.573763198124,0.818986796624,0.00609641979651,0.0,0.818984639854,-0.573671915288,-0.0120598587918,0.0,-0.00637964312643,0.0119126066753,-0.999908690809,0.0,0.263627835584,-0.261625604891,0.304934925286,1.0,-0.00293837837838,-0.00386186872588,3.272
-0.653643579115,-0.518358861021,-0.12462234025,-2.63984638676,-0.0669503395629,2.110955735,-0.901153150703,-0.00959120943437,0.000680216506472,0.000335701808748,0.00188979057234,1.81391214374e-05,0.000932647396577,-0.0102263823205,0.573735284484,0.819006332445,0.00609898794757,0.0,0.819004046085,-0.573643692226,-0.0120844431849,0.0,-0.00639871272246,0.011928596917,-0.999908378328,0.0,0.263585252681,-0.26167743795,0.30492494932,1.0,-0.00259837837838,-0.00341501158302,3.289
-0.653845475702,-0.518315525398,-0.124596120923,-2.63982735585,-0.0669267314169,2.11095816843,-0.901363615178,-0.0112501984518,0.00195164484075,0.00387249871441,0.00237511779444,0.00143729938292,-0.000211598411556,-0.0148081001339,0.573720819259,0.819016404126,0.00610722702461,0.0,0.819014092149,-0.573628946208,-0.0121035463855,0.0,-0.00640984424479,0.0119461915465,-0.999908096979,0.0,0.26354405006,-0.261727051317,0.304918470547,1.0,-0.00225837837838,-0.00296815444016,3.306
-0.654037424182,-0.518292297276,-0.124573448455,-2.63980937952,-0.0669060191797,2.11096453404,-0.901547198629,-0.0118834396909,0.00151698897037,-0.00124006501724,0.00202004262751,0.00581551858189,0.000446948560376,-0.00268663315758,0.573721354285,0.819015984064,0.00611329584488,0.0,0.819013766981,-0.573629483981,-0.0121000621381,0.0,-0.00640350084559,0.0119491675539,-0.999908102063,0.0,0.263505232738,-0.261775728152,0.30491916972,1.0,-0.00191837837838,-0.0025212972973,3.323
-0.654209967909,-0.518277337864,-0.124550885651,-2.63980692484,-0.0668868547918,2.11096296316,-0.901709513223,-0.011596219137,0.000105159782094,-0.000654845476287,0.000713226367154,7.67222934083e-05,0.00032985341472,-0.00820046595499,0.573722084998,0.819015416491,0.00612075462291,0.0,0.819013213541,-0.5736300267,-0.012111788265,0.0,-0.00640881606208,0.0119620096352,-0.999907914461,0.0,0.263466704781,-0.261814495314,0.304915182302,1.0,-0.00159837837838,-0.00210072586873,3.339
-0.654371167874,-0.518274245378,-0.12452900575,-2.63980073401,-0.0668656109024,2.11096537369,-0.901846427748,-0.0114224237528,-0.000502562633762,0.00154325839914,0.000454813239364,0.000562590111691,-0.000622154122756,-0.00249555424913,0.573735810857,0.819005743653,0.00612846668327,0.0,0.819003684652,-0.573643796819,-0.0121039579877,0.0,-0.00639777739305,0.0119639412885,-0.999907962041,0.0,0.263432926054,-0.261851932917,0.304917588784,1.0,-0.00125837837838,-0.00165386872588,3.356
-0.654527830176,-0.51827321624,-0.124508046357,-2.6397921333,-0.0668496525593,2.1109669179,-0.901958779972,-0.00982844643637,-0.000677928613878,0.0036773902853,0.00248999706446,0.00152845313764,0.000128906078798,-0.00863347583759,0.57376443584,0.818985667518,0.00613151417025,0.0,0.818983717032,-0.573672531083,-0.0120931889611,0.0,-0.00638679014585,0.0119604822843,-0.999908073662,0.0,0.263400114224,-0.261889438427,0.304921751314,1.0,-0.000918378378384,-0.00120701158302,3.373
-0.654652714946,-0.518267839097,-0.124499241364,-2.63978487036,-0.066829295777,2.11097248243,-0.90201150795,-0.00671077578748,0.000538553592107,-0.00169867207647,-0.000568918504484,0.00285450778793,0.000512611727454,-0.00135674557164,0.573826322315,0.818942217848,0.00614349615995,0.0,0.818940477746,-0.573734453679,-0.0120837688999,0.0,-0.00637129575706,0.0119653727183,-0.999908114002,0.0,0.263373584383,-0.261920921372,0.304923764546,1.0,-0.000578378378384,-0.000760154440161,3.39
-0.654688726504,-0.518266759334,-0.124494847459,-2.63977815347,-0.0668163267594,2.11097438569,-0.902050519618,0.000188524574968,0.000387554706967,0.00084400881231,0.00110252997429,5.91610880188e-05,-0.000397169651264,-0.00822794541533,0.573826592727,0.818941967765,0.00615157003241,0.0,0.81894038056,-0.573734778438,-0.0120749327004,0.0,-0.00635942191529,0.0119669169925,-0.999908171109,0.0,0.263368093229,-0.261930119,0.304926692233,1.0,-0.000218378378384,-0.000287011583019,3.408
-0.65468203827,-0.518266361381,-0.124475057336,-2.63978084642,-0.0668018484401,2.110974091,-0.9020643111,0.000280465307564,-0.000680201272383,0.000822980606995,-0.000579300013708,0.00269065517324,3.92116813266e-05,0.000413508350137,0.573801833621,0.81895929265,0.00615464189316,0.0,0.818957724872,-0.573709972433,-0.0120772225437,0.0,-0.00635989664841,0.0119705544331,-0.99990812455,0.0,0.263374811075,-0.261921845238,0.304925770904,1.0,0.0,0.0,3.424
-0.654674893081,-0.518266087189,-0.124430299871,-2.63978084608,-0.0667899693298,2.11097479776,-0.902074556224,0.00153479341882,-2.82026805378e-05,0.00557693034316,-0.000859554926864,0.0036414890745,4.27731014409e-06,0.000592167521299,0.573760901393,0.81898806068,0.00614258883037,0.0,0.818986348373,-0.573669125043,-0.0120765496852,0.0,-0.00636685902837,0.0119599786955,-0.999908206795,0.0,0.263387660403,-0.261909112896,0.304926788586,1.0,0.0,0.0,3.442
-0.654675708432,-0.518256071556,-0.124397293195,-2.63977783243,-0.0667832210511,2.11097719795,-0.902076286411,0.000233063619831,0.00163353907854,0.00134722949097,-0.000836785029448,0.000165588410326,0.000261111404756,0.00163020089293,0.573739795125,0.819002928478,0.00613168288039,0.0,0.819001053456,-0.573648032132,-0.0120812487012,0.0,-0.0063772730302,0.0119535780366,-0.999908216968,0.0,0.263396128399,-0.261902401475,0.304925451598,1.0,0.0,0.0,3.458
-0.654665797473,-0.518253436904,-0.124371697175,-2.63977774696,-0.0667739088757,2.11097644138,-0.902082554739,0.000770828942914,0.0005841099451,-0.000192417042724,-0.00167283059866,0.000246163449795,-7.76522933474e-05,-0.000529086861827,0.573712371054,0.819022173188,0.00612715496653,0.0,0.81902022238,-0.573620602184,-0.0120841625239,0.0,-0.00638265761582,0.0119513274571,-0.999908209514,0.0,0.263405009541,-0.261893146952,0.304925061707,1.0,0.0,0.0,3.476
-0.654670978892,-0.518250314382,-0.124365176946,-2.63978048314,-0.0667736363553,2.11097935022,-0.902088708766,-0.000248532824839,-0.00108424504815,0.000579681925775,-0.000869534899732,-0.00033764991893,7.90169388014e-05,-0.000369905944573,0.573706951212,0.819025989956,0.00612444352851,0.0,0.819023986935,-0.57361516373,-0.0120871694143,0.0,-0.00638675518274,0.0119507893597,-0.999908189781,0.0,0.263404868301,-0.261892716731,0.304923069524,1.0,0.0,0.0,3.491
-0.654673511504,-0.518257054891,-0.124362700299,-2.63977496541,-0.0667699503334,2.11098128315,-0.902086654512,-5.23256814958e-05,-0.00303088363438,3.88314221466e-05,-0.000202344296467,-0.000375074319575,-0.00012330121011,0.000486728698245,0.573710742242,0.819023330577,0.00612495781707,0.0,0.819021425931,-0.573619123362,-0.0120727826297,0.0,-0.00637462043627,0.011942986708,-0.999908360442,0.0,0.26340679616,-0.261894280283,0.304928285026,1.0,0.0,0.0,3.508
-0.654676118275,-0.518251651981,-0.124367415425,-2.63976970402,-0.0667682308356,2.11098307578,-0.90209447395,-0.00153305889237,-0.00119782524591,0.000123662596681,0.000929625529443,-8.93851648673e-05,0.00466176468783,-0.000962814793132,0.573710819013,0.819023253503,0.00612807230355,0.0,0.81902139811,-0.573619202855,-0.0120708929104,0.0,-0.00637128470133,0.0119444541714,-0.999908364174,0.0,0.263406601295,-0.261897334809,0.304928728352,1.0,0.0,0.0,3.527
-0.654683491229,-0.51825152069,-0.124367380562,-2.63977196369,-0.0667682176923,2.11098673016,-0.902087003529,-0.00166154429581,-0.000606079380341,-9.1111055081e-05,-0.000481041578299,9.44726800391e-05,0.000213271919517,0.00133995652986,0.573722851069,0.819014826445,0.00612789732703,0.0,0.819012978103,-0.573631250613,-0.0120696694179,0.0,-0.00637020744241,0.0119437025425,-0.999908380016,0.0,0.263404735406,-0.261899199341,0.304927965957,1.0,0.0,0.0,3.543
-0.654679224994,-0.518249224328,-0.124372468365,-2.63976911906,-0.0667682176863,2.11098702548,-0.902090867635,0.000747736861609,-0.000364445208382,-0.00171495452912,0.000526636713495,0.000190768545768,-0.000100520859813,0.000647897772214,0.573719944136,0.819016846284,0.00613009823318,0.0,0.81901502989,-0.573628340889,-0.0120687300168,0.0,-0.00636821772592,0.0119449436759,-0.999908377864,0.0,0.263405384499,-0.261899918187,0.30492831818,1.0,0.0,0.0,3.558
-0.654684543927,-0.518251755554,-0.124370202615,-2.63976066407,-0.0667684863188,2.11098621654,-0.902094522346,-0.000788524592253,-0.00122793879606,-0.000517892688999,0.00198583975188,-9.11661992168e-05,-0.00070861090733,0.000251379427398,0.573719961171,0.819016853782,0.00612750165581,0.0,0.819015070125,-0.573628494039,-0.0120587161819,0.0,-0.00636150471955,0.0119370722036,-0.999908514598,0.0,0.263406326708,-0.261902958261,0.30493307609,1.0,0.0,0.0,3.575
