nelsonifechukwu/NELSON_IML_WORK/CNN-GradCAM/train2dof/data_sample_2022-02-22-08-56-58/robot_state.csv
position_joint1,position_joint2,position_joint3,position_joint4,position_joint5,position_joint6,position_joint7,velocity_joint1,velocity_joint2,velocity_joint3,velocity_joint4,velocity_joint5,velocity_joint6,velocity_joint7,ee_T_00,ee_T_10,ee_T_20,ee_T_30,ee_T_01,ee_T_11,ee_T_21,ee_T_31,ee_T_02,ee_T_12,ee_T_22,ee_T_32,ee_T_03,ee_T_13,ee_T_23,ee_T_33,v_x,v_y,time
0.465059892023,0.547801937849,-0.12400389315,-1.35584223506,0.0795278844991,1.89410820452,0.159155601798,0.000183931657157,0.000239149307375,0.000410380784623,0.000472982701509,0.000145079398234,-0.000138608261813,0.00130112894018,0.573832831558,0.818958411374,0.00193617365943,0.0,0.818914904632,-0.573774138312,-0.0119316418817,0.0,-0.00866075885393,0.00843249166539,-0.999926939501,0.0,0.661681499185,0.260876117907,0.30319650947,1.0,0.0,0.0,0.0
0.465054575818,0.547798895803,-0.124006626033,-1.35584474072,0.0795240877372,1.89410894627,0.159151709911,-0.00346072801267,0.000124242234838,-0.000153127201119,-0.000369522712816,-7.62120536825e-05,-0.000143450047002,0.000412362788678,0.573835038125,0.818956868824,0.00193466465613,0.0,0.818913389742,-0.573776396989,-0.0119269971441,0.0,-0.00865779800926,0.0084286139294,-0.999926997836,0.0,0.661683380983,0.260870196451,0.303197619816,1.0,-0.00024,-0.000315428571429,0.013
0.465059059017,0.547796209097,-0.124001354183,-1.35584576909,0.079526636665,1.89410930339,0.159152206323,0.000457820277563,0.00011929512202,0.00120519940264,0.000821690853746,-0.000250500739792,-6.48428513581e-05,0.000614792360403,0.573828819202,0.818961215657,0.00193917609339,0.0,0.818917744101,-0.573770110056,-0.0119304695974,0.0,-0.00865811729987,0.00843423537855,-0.999926947671,0.0,0.661680764537,0.260876564985,0.303198894821,1.0,-0.00058,-0.000762285714286,0.03
0.465056594652,0.547766606844,-0.124004425934,-1.35586643306,0.0795230105337,1.89411291212,0.15915165968,-0.000249226870475,-0.00310265195645,0.00128450219354,0.000236001634524,-2.21766613865e-05,-1.94004599145e-06,0.0011561126588,0.573832676528,0.818958491032,0.00194838816626,0.0,0.818915172816,-0.573773960946,-0.0119217605131,0.0,-0.00864565906039,0.00843682281104,-0.999927033638,0.0,0.661679084195,0.260870752883,0.303210438742,1.0,-0.0009,-0.00118285714286,0.046
0.465053406147,0.547667254378,-0.123997279019,-1.35598237638,0.0795239183579,1.89414155977,0.159148441959,-0.0023714701658,-0.0114400612418,0.00189910132462,-0.00723488328973,-9.86492482738e-07,-0.000341490770259,0.00192639734774,0.573834254177,0.818957343756,0.00196589482343,0.0,0.818914126795,-0.573775341555,-0.0119271647976,0.0,-0.00864002357461,0.0084542775298,-0.999926934923,0.0,0.661659985322,0.260862417136,0.303227890011,1.0,-0.00126,-0.001656,0.064
0.465047461161,0.547544133218,-0.124006255539,-1.3561586856,0.0795219929349,1.89417251818,0.159142994961,0.000306045410107,-0.0138320334386,0.000787157246917,-0.0111307502349,0.000106775134107,-0.000358265469996,-0.00209400655968,0.573849291614,0.818946836526,0.00195355047427,0.0,0.818903334138,-0.573790307012,-0.0119482139974,0.0,-0.00866419054143,0.00845640594727,-0.999926707814,0.0,0.661629873163,0.26083950182,0.30323344926,1.0,-0.0016,-0.00210285714286,0.081
0.465035093933,0.547402082876,-0.124007282263,-1.35634847525,0.079516761102,1.89425879867,0.159137002538,-0.00078732399471,-0.00909716261093,-0.000382449776299,-0.0106914578251,-0.00272226033246,0.00370700530894,-0.00130176275297,0.573865308416,0.818935533598,0.00198658212622,0.0,0.81889247863,-0.573806200501,-0.0119289400314,0.0,-0.00862928586853,0.00847256513467,-0.999926872859,0.0,0.661613910396,0.260811342274,0.303251982744,1.0,-0.00188,-0.00247085714286,0.095
0.46502300677,0.547201668428,-0.124002408384,-1.35657548487,0.079520337239,1.8943846794,0.159133996201,-0.00170900329262,-0.0078604085896,-0.000446123366066,-0.0138485043305,0.000240237007539,0.00780391341246,0.00174849373707,0.573883195753,0.81892276363,0.0020812838537,0.0,0.818880823362,-0.573823578896,-0.0118930372193,0.0,-0.00854535368249,0.00852970186557,-0.999927107902,0.0,0.661594096419,0.260790997722,0.303296671999,1.0,-0.00224,-0.002944,0.113
0.464998413986,0.546994166497,-0.12400447397,-1.35684102415,0.0795128382175,1.89451199943,0.159119761094,-0.00297843757643,-0.0142304147371,-0.0010796299611,-0.0190283783528,0.00014160282072,0.00777107588233,0.000490441319353,0.573906135856,0.818906525491,0.00214397660918,0.0,0.818865379015,-0.573846241253,-0.0118629402124,0.0,-0.00848448958565,0.00856400727954,-0.999927332968,0.0,0.661571380152,0.260752178257,0.303328368543,1.0,-0.00258,-0.00339085714286,0.13
0.464971516559,0.546786290952,-0.124004531043,-1.35716917443,0.0795088550383,1.89462965781,0.159096026999,-0.000133578542598,-0.00955233754542,-0.000135849983604,-0.0223485741297,0.000470102657463,0.00539089097676,-0.00459586753199,0.573926063812,0.81889254297,0.00215017344084,0.0,0.818851329674,-0.573865993036,-0.011877239983,0.0,-0.00849243534204,0.00857749511684,-0.999927149906,0.0,0.661532302659,0.260705470167,0.303329619739,1.0,-0.0029,-0.00381142857143,0.146
0.46493637167,0.546491663918,-0.124004455546,-1.35756557629,0.0794974481549,1.89478518379,0.158984515288,-0.000189801723753,-0.0162707577378,-0.000715847722768,-0.0216013189798,-0.00318594171039,0.00752573105971,-0.0147139130813,0.573882623059,0.818922843364,0.0022041931843,0.0,0.818882230199,-0.573822237955,-0.0118608260361,0.0,-0.00844844897505,0.00861186239283,-0.99992722712,0.0,0.661489927818,0.260647798287,0.303363080541,1.0,-0.00324,-0.00425828571429,0.163
0.464889115562,0.546213520508,-0.124002028629,-1.35802913923,0.0794880295945,1.89495088199,0.158919794011,-0.00472521860863,-0.0188772761671,0.000386671377739,-0.0256871361649,-0.000223616099899,0.00788449147084,-0.000779869773073,0.573889474138,0.818918056058,0.00219905365064,0.0,0.818877142794,-0.573828871146,-0.0118911122049,0.0,-0.00847612920906,0.00862510496051,-0.999926878726,0.0,0.661431184412,0.260574984596,0.303352949958,1.0,-0.0036,-0.00473142857143,0.181
0.464838657796,0.545918147949,-0.124004534283,-1.35853133288,0.07946916901,1.89511582899,0.158886788702,-0.00214410003399,-0.0184774771784,0.000280899043124,-0.0358677312994,-0.00469854311327,0.007585195393,-0.00106245838998,0.573929098834,0.818890370645,0.00216732042705,0.0,0.818848962489,-0.573868535895,-0.0119175098625,0.0,-0.00851554101872,0.00861467963806,-0.999926633737,0.0,0.66137635551,0.260493866708,0.303338181685,1.0,-0.0039,-0.00512571428571,0.196
0.464770627658,0.545568067989,-0.124006676843,-1.35913338187,0.079412374554,1.89531427106,0.158815847689,-0.0028491119343,-0.0240793251653,-0.000214301697389,-0.0347601760736,-0.00108728581318,0.0146005240384,-0.00300802103055,0.573946680811,0.818878198679,0.00210955345717,0.0,0.81883619017,-0.573886504275,-0.0119298273238,0.0,-0.00855859602982,0.00857462859912,-0.999926610396,0.0,0.661308265536,0.260385029771,0.303316680865,1.0,-0.00424,-0.00557257142857,0.213
0.464705663678,0.545147823346,-0.124003093737,-1.3598618645,0.0793296727896,1.89554533303,0.158686379755,-0.0106937810688,-0.0257792436794,0.00130307005671,-0.0418042330025,-0.000701599147603,0.0125124226477,-0.00231420805267,0.573909875081,0.818904211005,0.00202370556496,0.0,0.818861347644,-0.573850319715,-0.011943650976,0.0,-0.00861956794697,0.00851187738583,-0.999926622804,0.0,0.661218736591,0.260265472462,0.303287240457,1.0,-0.0046,-0.00604571428571,0.231
0.464645609473,0.544773353535,-0.124005303853,-1.36048995063,0.0793127746365,1.89576126364,0.158654290562,-0.000817435151251,-0.0279970565972,0.00044538305068,-0.0450631788549,-0.00151318298433,0.0156891144786,-0.00540215023752,0.573964821823,0.818865754223,0.00200169226969,0.0,0.81882239714,-0.573905148013,-0.0119795629289,0.0,-0.00866103908654,0.00851504210553,-0.999926237509,0.0,0.661144350943,0.260166762263,0.303272147921,1.0,-0.0049,-0.00644,0.246
0.46457953399,0.544294654037,-0.124010818577,-1.36128087566,0.0792892794923,1.89605049541,0.158536573499,-0.00268841456546,-0.0274076337973,0.000858449264809,-0.0457035100912,-0.00229854868068,0.0103520112468,-0.00405894583485,0.573964293359,0.81886614505,0.00199332426643,0.0,0.818822468622,-0.573904448602,-0.0120081495702,0.0,-0.00868925677881,0.00852459190401,-0.99992591133,0.0,0.661052494656,0.260048108388,0.303259744058,1.0,-0.00526,-0.00691314285714,0.264
0.464510045992,0.543794575558,-0.124008284554,-1.36209860023,0.0792538704616,1.8963351062,0.158449931846,-0.00186477241343,-0.0247367266509,0.00145215806232,-0.0473789324727,-0.00199359770471,0.0174040490795,-0.000154841044491,0.573984542212,0.818852000928,0.00197301253469,0.0,0.818807884025,-0.573924610075,-0.0120390161824,0.0,-0.0087259800427,0.00852589156067,-0.999925580454,0.0,0.66095370728,0.25992672304,0.303248971926,1.0,-0.0056,-0.00736,0.281
0.464445917976,0.543292640127,-0.124019622977,-1.36290427465,0.0792092295457,1.89660925698,0.158337693359,0.000697386984571,-0.0290231765427,-0.00218557444216,-0.0513892214646,-0.00153438877502,0.0248778298582,-0.00863204484658,0.5739859223,0.81885109438,0.00194759737215,0.0,0.818806622163,-0.573926076831,-0.01205490506,0.0,-0.00875356381521,0.00851421534976,-0.999925438849,0.0,0.66085784623,0.259800100706,0.303244723883,1.0,-0.00592,-0.00778057142857,0.297
0.464363444253,0.542736624986,-0.124023358198,-1.36379721805,0.0791543600309,1.89692271873,0.158208547103,-0.00120645003601,-0.0323081975049,-0.00144499087052,-0.0587990229716,-0.00141908301064,0.0205238363394,-0.0102767839153,0.573985288631,0.818851589115,0.00192622453537,0.0,0.818806829757,-0.57392552836,-0.0120669109887,0.0,-0.00877566876344,0.00850359891259,-0.999925335434,0.0,0.660754617089,0.259657130053,0.303240280377,1.0,-0.00626,-0.00822742857143,0.314
0.464289454764,0.542112318098,-0.124019068107,-1.36476759853,0.0791015654381,1.89728413145,0.158083213012,-0.00233987802352,-0.0365130568944,0.000608012380967,-0.0481923395774,0.00054472111834,0.0193180711136,-0.00383009612502,0.573980111934,0.818855177836,0.00194312564972,0.0,0.818810558269,-0.573920200142,-0.0120673293047,0.0,-0.00876636480173,0.00851762281374,-0.999925297685,0.0,0.660640602464,0.259519722281,0.303251105621,1.0,-0.00662,-0.00870057142857,0.332
0.464198345604,0.541506904988,-0.124013403279,-1.36567655151,0.0790411650247,1.89762107208,0.157959530285,-0.00274213478562,-0.0398976939417,0.00226112594843,-0.053736475539,-0.00539626707261,0.0156392564532,-0.0125050127653,0.5739837786,0.818852542826,0.00197025695677,0.0,0.818808295917,-0.573923766598,-0.0120512062452,0.0,-0.00873755180919,0.00853062387958,-0.999925439043,0.0,0.66053977673,0.259375968113,0.303275532012,1.0,-0.00694,-0.00912114285714,0.348
0.464118066685,0.540787245772,-0.124023704736,-1.36678757552,0.078985546203,1.89802632378,0.157820886924,-0.00798128355628,-0.0404537523399,-0.00377792387276,-0.0643683494128,-0.00163582804731,0.0176241865518,-0.00971764653831,0.573989936222,0.818848188807,0.00198587620252,0.0,0.818804075288,-0.573929787085,-0.0120512525623,0.0,-0.00872856087926,0.00854350570623,-0.999925407586,0.0,0.66040935058,0.259213037258,0.303290929258,1.0,-0.0073,-0.00959428571429,0.366
0.464012825046,0.540058065095,-0.124023687845,-1.36789349282,0.0789191696931,1.89843516756,0.157686988312,-0.00309146710066,-0.0407942708032,4.54326673611e-05,-0.0633903376088,-0.00342860620465,0.01936882047,-0.00655827587779,0.574009947638,0.818834093472,0.00201352443016,0.0,0.818790331214,-0.573949667694,-0.0120382459558,0.0,-0.00870183207385,0.00855889205101,-0.999925508968,0.0,0.660285565617,0.259038851442,0.303315318673,1.0,-0.00764,-0.0100411428571,0.383
0.463933061167,0.539440335973,-0.124034565248,-1.36883890045,0.0788579948011,1.89879501234,0.157581614476,-0.00516089050573,-0.0470315680552,-0.000915238601065,-0.0681111261067,-0.00692256592068,0.027764237572,-0.00559938876448,0.574032612382,0.818818150795,0.00203537523182,0.0,0.81877477531,-0.573972336617,-0.0120154490323,0.0,-0.00867038561169,0.00856393837741,-0.999925738929,0.0,0.6601815871,0.258890285556,0.303333351319,1.0,-0.00792,-0.0104091428571,0.397
0.463799246994,0.538606190415,-0.124030817884,-1.37015200386,0.0787894448692,1.89930380543,0.157414064352,-0.0075948139861,-0.0479074042668,-3.06711927393e-05,-0.0683889549133,-0.00472484889256,0.024420579597,-0.00738467003183,0.574056770287,0.818801137729,0.00206597241439,0.0,0.818758065468,-0.573996266962,-0.0120109385581,0.0,-0.00864887622072,0.00858665749385,-0.999925730369,0.0,0.660038799875,0.258682632268,0.303341619547,1.0,-0.0083,-0.0109085714286,0.416
0.463686801759,0.537824349526,-0.124039034581,-1.37138161743,0.0787162202761,1.89978116715,0.157260951099,-0.00899177417685,-0.0444411415182,0.000222636562226,-0.0700918670117,-0.00124599637673,0.0269269360643,-0.013300478235,0.574077663411,0.818786433067,0.00208813275621,0.0,0.818743701962,-0.574017116092,-0.0119936579991,0.0,-0.00862178650586,0.00859510218522,-0.999925891762,0.0,0.659904873884,0.258488497333,0.303350185663,1.0,-0.00864,-0.0113554285714,0.433
0.463583493634,0.537034475094,-0.124041895907,-1.37260017794,0.0786498045391,1.90022450035,0.157107111633,-0.00409799234735,-0.0497017896784,-0.00242860575137,-0.0806934027761,-0.00179966330632,0.0250590819598,-0.00418917488083,0.574087601271,0.818779424578,0.00210400957996,0.0,0.818736828038,-0.574026913882,-0.0119939757934,0.0,-0.00861282829622,0.00860838866077,-0.999925854668,0.0,0.659762698692,0.258303728776,0.303366423333,1.0,-0.00896,-0.011776,0.449
0.463473670366,0.536191932253,-0.124051286102,-1.37391741749,0.0785724092103,1.90072444709,0.156939868763,-0.00628979975181,-0.0510990596843,-0.000158076681304,-0.0759830131272,-0.00075621081368,0.0314885503998,-0.0164740274654,0.574099023689,0.818771365571,0.00212339844132,0.0,0.818729053286,-0.574038285495,-0.0119804420931,0.0,-0.00859049632567,0.00861661400112,-0.999925975928,0.0,0.659613827964,0.258101924732,0.303377845008,1.0,-0.0093,-0.0122228571429,0.466
0.46334686557,0.535248507123,-0.124057649825,-1.37541582301,0.0784859482592,1.90125537353,0.156770394953,-0.0104987262503,-0.0479321611657,0.000713990522397,-0.0812105551169,-0.0114307601865,0.024485769847,-0.0160712464786,0.574127570576,0.818751400174,0.0021034065681,0.0,0.818708769716,-0.574066854629,-0.0119976542982,0.0,-0.00861576614311,0.00861042729583,-0.999925811806,0.0,0.659435578688,0.257871155465,0.303376648902,1.0,-0.00966,-0.012696,0.484
0.463246049255,0.534462487399,-0.124058144149,-1.37670963697,0.0784204518382,1.90172106593,0.156612916968,-0.00732101408528,-0.0524061078243,-0.00201473614404,-0.0910884200608,-0.00598628453274,0.0270720914287,-0.0126981444045,0.574134933053,0.818746314172,0.00207330164144,0.0,0.818703135815,-0.574074188481,-0.0120311440805,0.0,-0.0086603926533,0.00860508433109,-0.999925472284,0.0,0.659278158566,0.257682124498,0.303355786285,1.0,-0.00996,-0.0130902857143,0.499
0.463111909785,0.533543554605,-0.124052452359,-1.37817230328,0.0783331515622,1.90226516106,0.156420287635,-0.0151307746673,-0.0529347484437,0.00101108188156,-0.0884620405494,-0.0125079093002,0.0253530357182,-0.0111011452169,0.574139748367,0.818742934207,0.00207459204943,0.0,0.818699717615,-0.574078942981,-0.0120368809847,0.0,-0.00866429845989,0.00860948550402,-0.999925400563,0.0,0.659108668592,0.257458236088,0.303354715114,1.0,-0.0103,-0.0135371428571,0.516
0.46298758809,0.532594242371,-0.124055904381,-1.37969817863,0.078259266088,1.90284604601,0.156227096388,-0.00666503876271,-0.0593630132997,-0.000159519961928,-0.0928999564856,0.00125591029203,0.0358457554073,-0.0103315512923,0.574149573181,0.818736016502,0.00208561750503,0.0,0.818692794753,-0.574088571394,-0.0120485233932,0.0,-0.00866739774803,0.00862530065142,-0.999925237408,0.0,0.658931036621,0.257233072944,0.303348314889,1.0,-0.01064,-0.013984,0.533
0.462864682329,0.531672058839,-0.124053164887,-1.38117826789,0.0781717150176,1.90337587896,0.156041573725,-0.00441852711066,-0.0616170474794,0.000354453423128,-0.0939837285031,-0.00245802666103,0.0325309864734,-0.0121899176457,0.574153533941,0.818733296184,0.00206302796246,0.0,0.818689697053,-0.574092546447,-0.0120695879944,0.0,-0.00869757204111,0.00861894227916,-0.999925030227,0.0,0.658751748709,0.257011892976,0.303339723112,1.0,-0.01096,-0.0144045714286,0.549
0.462728268164,0.53066548969,-0.124056243779,-1.38281695444,0.0780649331267,1.9039538263,0.155821139347,-0.0119893498336,-0.0532256781947,0.00103760311044,-0.096138807563,-0.00317390328985,0.0337771701873,-0.011109168425,0.574147296799,0.818737797964,0.00201163252926,0.0,0.818693537244,-0.574086542037,-0.0120946776872,0.0,-0.00874768703419,0.00859120245803,-0.999924831781,0.0,0.658552714652,0.256760905733,0.303319261774,1.0,-0.0113,-0.0148514285714,0.566
0.462590274713,0.529632343569,-0.124061650779,-1.3844521477,0.0779624507341,1.90455378594,0.155623854188,-0.012025423551,-0.060048614507,-0.000141586615004,-0.0971721737736,-0.00157045617093,0.0414070987588,-0.014180842765,0.574163845317,0.81872620713,0.00200583898471,0.0,0.818681898893,-0.574103141347,-0.0120945616078,0.0,-0.00875074456884,0.00858656938711,-0.999924844824,0.0,0.658359832892,0.256510495463,0.303320933568,1.0,-0.01164,-0.0152982857143,0.583
0.462464167387,0.528611381897,-0.124061003552,-1.38604768336,0.0778611327116,1.90516030663,0.155393024117,-0.00534206863277,-0.0655752988611,0.000950329891362,-0.107141815994,-0.00915693509323,0.0422191818287,-0.0180458160401,0.574137015601,0.818744962934,0.002029750727,0.0,0.818701007204,-0.574076250733,-0.0120775017623,0.0,-0.00872332999659,0.00859606528321,-0.999925002775,0.0,0.658172273365,0.256276630289,0.303333027081,1.0,-0.01196,-0.0157188571429,0.599
0.462315195331,0.527434985988,-0.124057285671,-1.38786463831,0.077748118392,1.905863408,0.155144387418,-0.00604149520566,-0.0702238219008,-0.00177846877271,-0.102173560545,-0.00329719469526,0.0380811655015,-0.0157086589929,0.574120872527,0.818756154291,0.00208097107039,0.0,0.818712899768,-0.574059921914,-0.012047435712,0.0,-0.00866947695672,0.00862056813468,-0.999925260194,0.0,0.657961560067,0.256009941582,0.303357167757,1.0,-0.01232,-0.016192,0.617
0.462159427833,0.526272114383,-0.124063060964,-1.389666621,0.0776398437929,1.90654484062,0.154902959682,-0.00959346996355,-0.0678316504888,-0.00123819423208,-0.104752206137,-0.00380804262972,0.0390777104975,-0.00855379488583,0.57412304778,0.818754540803,0.00211537764602,0.0,0.818711754879,-0.574061970475,-0.0120276089944,0.0,-0.00863346784039,0.00863737837447,-0.999925426683,0.0,0.657752742172,0.255734193139,0.303377044133,1.0,-0.01266,-0.0166388571429,0.634
0.462026802273,0.525229519742,-0.124062750859,-1.39128716735,0.0775369677354,1.9071221694,0.154682209969,-0.00978864883927,-0.0684347102563,0.00146248434963,-0.107174667628,-0.010752286567,0.0407841102493,-0.0105341440089,0.574110078043,0.818763640844,0.00211320194537,0.0,0.818720809986,-0.574048995026,-0.0120305239654,0.0,-0.00863724044379,0.00863713375266,-0.999925396216,0.0,0.657554427475,0.255491039201,0.303389145865,1.0,-0.01296,-0.0170331428571,0.649
0.461858814439,0.523982700435,-0.124073706871,-1.39329878658,0.077411872706,1.9078362554,0.15440768884,-0.0103254227177,-0.0707942234463,0.000517461188864,-0.113656601377,-0.00703729901251,0.0416796090588,-0.0187364648261,0.574104870521,0.81876741381,0.00206558178581,0.0,0.818723956626,-0.574043985908,-0.0120553719026,0.0,-0.00868497808643,0.00861235483218,-0.999925196452,0.0,0.657309146998,0.255180060055,0.303370709634,1.0,-0.01332,-0.0175062857143,0.667
0.461703861222,0.522751961617,-0.1240777941,-1.39521446356,0.0772976576488,1.90858493067,0.154155505548,-0.0057911129676,-0.0791193375452,3.50549240761e-06,-0.114996479701,-0.00433006093644,0.0508608010545,-0.0101736760947,0.574100359149,0.818770443289,0.00211795253299,0.0,0.818727704616,-0.574039287525,-0.0120245154792,0.0,-0.00862969605455,0.00863747136908,-0.999925458439,0.0,0.657086792065,0.254896915672,0.303389046497,1.0,-0.01366,-0.0179531428571,0.684
0.461545710091,0.521608171795,-0.124080817346,-1.39706537492,0.0771885868082,1.90930271194,0.153890579627,-0.0128315874119,-0.06733974958,-0.000712905198137,-0.119033249817,-0.0086301558219,0.0491433709592,-0.0176047973323,0.574084991853,0.818781198859,0.00212542369438,0.0,0.818738553356,-0.574023886396,-0.0120210647156,0.0,-0.00862274382465,0.00864144553472,-0.999925484078,0.0,0.656870902508,0.254617608272,0.303374119202,1.0,-0.01398,-0.0183737142857,0.7
0.461384757224,0.52032155918,-0.124082193938,-1.39910334041,0.0770617411097,1.91005382744,0.153630394512,-0.00586768874755,-0.0789972702666,8.82102198811e-05,-0.122254848315,-0.013488585645,0.0511512562654,-0.01865041014,0.574079218225,0.818785255,0.00212233317848,0.0,0.818742563105,-0.574018120432,-0.0120232973022,0.0,-0.00862640693054,0.00864013597144,-0.999925463799,0.0,0.656621960812,0.254316564462,0.303372959493,1.0,-0.01432,-0.0188205714286,0.717
0.461214776095,0.518995997974,-0.12408934524,-1.40117167214,0.0769305378842,1.91078657608,0.153348659296,-0.00952221170489,-0.0746366890972,-0.00110705189144,-0.126369373219,-0.00492613259652,0.0472103154433,-0.0147585761838,0.574067166289,0.818793736108,0.00211026064481,0.0,0.818750887405,-0.574006121674,-0.0120292791112,0.0,-0.00863836217298,0.00863355817023,-0.999925417405,0.0,0.65636631717,0.254001264023,0.303382875443,1.0,-0.01466,-0.0192674285714,0.734
0.461045602656,0.517706940036,-0.124090407218,-1.40317011783,0.0767995302633,1.91150266279,0.153075159637,-0.0119971807647,-0.087421214864,-0.000703757466374,-0.123565808585,-0.00214931357454,0.0383865902952,-0.0207572861435,0.574052920917,0.818803720295,0.0021115203977,0.0,0.818760911722,-0.573991896471,-0.0120257690966,0.0,-0.00863491512708,0.00863242444305,-0.999925456966,0.0,0.656120599647,0.253696812127,0.303398390382,1.0,-0.01498,-0.019688,0.75
0.460848458159,0.516281587936,-0.124093366427,-1.40543662129,0.0766544740535,1.91234643946,0.152754854554,-0.013870868304,-0.0817351910065,0.00307636244194,-0.128152647262,-0.00233687336214,0.0497136268556,-0.0132078386615,0.574034960254,0.818816321003,0.00210802440678,0.0,0.818773508006,-0.573973994005,-0.0120226325737,0.0,-0.00863454282628,0.00862757205761,-0.99992550206,0.0,0.655847984855,0.25334929668,0.303392709576,1.0,-0.01534,-0.0201611428571,0.768
0.460659382636,0.514903368674,-0.124094015595,-1.40763257371,0.0765213801722,1.91316326548,0.152461696339,-0.0128518593097,-0.0829169140326,0.000740726093008,-0.133392708332,-0.0105495768164,0.0463775233522,-0.0169597481775,0.574030181998,0.818819675623,0.00210615037886,0.0,0.81877679864,-0.573969184775,-0.0120281270353,0.0,-0.00864016801142,0.00862914115351,-0.99992543993,0.0,0.655581396908,0.253016333273,0.303384718374,1.0,-0.01568,-0.020608,0.785
0.460491467317,0.513658694791,-0.124097123878,-1.40962749048,0.0764047751501,1.91385698584,0.152184851728,-0.014039739533,-0.0792236384762,0.000543865203963,-0.132617516318,-0.00505600101878,0.0473223201837,-0.0184110611406,0.574027959843,0.818821382332,0.00204745102571,0.0,0.818777590583,-0.573967066067,-0.0120752280086,0.0,-0.00871245317357,0.00860809124853,-0.999924994149,0.0,0.6553114632,0.252689019175,0.303359268421,1.0,-0.016,-0.0210285714286,0.801
0.460285579989,0.512167061892,-0.124116326988,-1.41205181831,0.0762551149198,1.91472108471,0.151846805489,-0.0156301275153,-0.0905104576516,-0.00293056373898,-0.136372075743,-0.0109008388923,0.0580041168189,-0.0193909633746,0.574008503525,0.818835146871,0.00199675484196,0.0,0.818790697411,-0.573947836809,-0.0121004692897,0.0,-0.00876242512972,0.00858086176673,-0.99992479153,0.0,0.655027146483,0.252332613135,0.303334479608,1.0,-0.01634,-0.0214754285714,0.818
0.46008733222,0.510716281387,-0.124109583546,-1.41435895734,0.076114211677,1.91560384129,0.151515652779,-0.010423581164,-0.0894151832535,-0.000906462234432,-0.139381613274,-0.0134328272995,0.0552801173352,-0.019783967184,0.573977662418,0.818856712093,0.00201866453467,0.0,0.818812512339,-0.57391686822,-0.0120931762326,0.0,-0.00874420125382,0.00859428627104,-0.999924835769,0.0,0.654747656129,0.251989100071,0.303328569962,1.0,-0.01668,-0.0219222857143,0.835
0.459900967259,0.509311105102,-0.124112034499,-1.41656922383,0.0759785079152,1.91641906335,0.151220441002,-0.0121117118507,-0.0916260956138,-0.000137672765978,-0.135868214676,-0.00940235768041,0.0470449986234,-0.0181372575692,0.573968796264,0.818862909004,0.0020258516161,0.0,0.818818774474,-0.57390794374,-0.0120927077915,0.0,-0.00873978581249,0.00859980784516,-0.999924826899,0.0,0.654474506853,0.251655263247,0.303330789463,1.0,-0.017,-0.0223428571429,0.851
0.459688875315,0.507795648951,-0.12411514894,-1.41895030134,0.075822723986,1.9172699225,0.150876173841,-0.0132591171303,-0.0886073282332,0.000485590759665,-0.139715229367,-0.00712884754999,0.0493425294123,-0.0174860288988,0.573944063506,0.818880288435,0.00200800422175,0.0,0.818835932744,-0.573883303676,-0.0121002442011,0.0,-0.00875645995394,0.00858925470583,-0.999924771727,0.0,0.654177339716,0.251284694479,0.303331477689,1.0,-0.01734,-0.0227897142857,0.868
0.459462788752,0.506134807933,-0.124120587818,-1.42152439807,0.075654876805,1.91822489374,0.150527443935,-0.00538875836928,-0.0985616582313,-0.000165271976637,-0.142154184325,-0.00434663635563,0.0482526552134,-0.0165914054798,0.573935277295,0.818886376366,0.00203641323568,0.0,0.818842471216,-0.573874473296,-0.0120765530394,0.0,-0.00872084708774,0.00859882701785,-0.999925000688,0.0,0.653862237897,0.250887786437,0.303350466896,1.0,-0.0177,-0.0232628571429,0.886
0.459255122469,0.504705935657,-0.124121626419,-1.42370353935,0.0755227657627,1.91907137134,0.150226375023,-0.0137828740333,-0.0926659111528,0.000481461863501,-0.146150191435,-0.0132167230256,0.056867951992,-0.00311370897559,0.573936495329,0.81888531671,0.0021176183739,0.0,0.818842496738,-0.573875368928,-0.0120321808001,0.0,-0.00863789346586,0.00863986994027,-0.999925366937,0.0,0.653605541521,0.250547716877,0.303385191638,1.0,-0.018,-0.0236571428571,0.901
0.459014362113,0.502938582708,-0.124127087947,-1.42632434118,0.0753587205718,1.92005901302,0.149860344485,-0.0158690009463,-0.101139564289,-0.000479078352936,-0.147057917132,-0.00583944944015,0.0570401270937,-0.0215736657166,0.573928145804,0.818890870377,0.00222997026981,0.0,0.818849575658,-0.573866613651,-0.0119678353178,0.0,-0.00852080964461,0.00869485514529,-0.999925894903,0.0,0.653289899964,0.250140042118,0.303457862645,1.0,-0.01836,-0.0241302857143,0.919
0.45877072771,0.501141292041,-0.124133684333,-1.42902670907,0.0751886012559,1.92102105,0.149484953947,-0.0104594486919,-0.101760050854,-0.00077292166384,-0.148727601861,-0.0121068036911,0.0519160497525,-0.0254255828106,0.573916965342,0.818898574623,0.00227777854921,0.0,0.818857880931,-0.573855217586,-0.0119460029606,0.0,-0.00847561287371,0.00872135859633,-0.999926048211,0.0,0.65295034532,0.249718034002,0.303509723115,1.0,-0.01872,-0.0246034285714,0.937
0.458553441181,0.49962344414,-0.124131596511,-1.43131385642,0.0750422828058,1.92184561382,0.149159679981,-0.0152197541721,-0.0968717172828,-0.00402135131818,-0.148832505524,-0.0122695594484,0.0600090929279,-0.0198400366432,0.573903869036,0.818907622138,0.00232430849532,0.0,0.818867515149,-0.573841915882,-0.0119245591893,0.0,-0.00843148910297,0.00874701978452,-0.999926197095,0.0,0.652665113197,0.249358487923,0.303551397536,1.0,-0.01902,-0.0249977142857,0.952
0.45829189654,0.497952319159,-0.124128140594,-1.43397379047,0.0748819969137,1.92283002411,0.148777383165,-0.0179192261533,-0.10678302272,0.000481663828521,-0.159729726748,-0.00611151754978,0.0575385389025,-0.0248333551344,0.573897198013,0.818912284863,0.00232867217297,0.0,0.818872145037,-0.573835135208,-0.0119329202453,0.0,-0.00843590348925,0.00875532283737,-0.999926087196,0.0,0.652317900895,0.248912568794,0.30354031325,1.0,-0.01938,-0.0254708571429,0.97
0.458014874663,0.496188967007,-0.124131232597,-1.43680063517,0.0747059608389,1.92383434428,0.148365754801,-0.0147668888766,-0.0987042479249,-0.000620944014549,-0.160291962402,-0.0120338847512,0.0595969333612,-0.0231592910194,0.573881947824,0.818923135066,0.0022706202106,0.0,0.818882122885,-0.573820002151,-0.0119758444911,0.0,-0.00850453256019,0.00873225938476,-0.999925707526,0.0,0.65197834914,0.248482680251,0.303506652109,1.0,-0.01972,-0.0259177142857,0.987
0.457770043801,0.494695815528,-0.124136593034,-1.43923122355,0.07455194963,1.92466672077,0.148023055101,-0.0202847335434,-0.101966625604,-0.00547002876504,-0.1616322295,-0.00593251596407,0.0607130510917,-0.0187404396712,0.573886269846,0.818920355302,0.00217895725164,0.0,0.818878036038,-0.573824589988,-0.0120353197321,0.0,-0.00860579474785,0.00869137231813,-0.999925197374,0.0,0.651664995815,0.24808321827,0.303462277483,1.0,-0.0205651428571,-0.0270284734694,1.002
0.457463995676,0.492445491726,-0.124203653082,-1.44264569972,0.0743537512784,1.92592071445,0.147537071324,-0.0189835280168,-0.143249187525,-0.00284037155249,-0.210279179276,-0.0149186034928,0.0745972651274,-0.0320063418792,0.573905309991,0.818906822925,0.00224887341977,0.0,0.818865550352,-0.573843474106,-0.0119843470348,0.0,-0.00852372632719,0.00871957324938,-0.999925654802,0.0,0.651247055164,0.247522471092,0.303514277248,1.0,-0.0310977142857,-0.0408712816327,1.02
0.457077759267,0.489578726722,-0.124238313391,-1.44723420929,0.0741109548805,1.92767000144,0.146849117482,-0.0271052532998,-0.188882448167,-0.00102006366748,-0.301042875293,-0.0148938565986,0.113693682777,-0.0431413608428,0.573848246041,0.818946717466,0.00228284208324,0.0,0.818905649202,-0.573786033278,-0.0119946913444,0.0,-0.00851331410767,0.00875273338523,-0.999925453792,0.0,0.65067104082,0.24682389441,0.303477203895,1.0,-0.0410451428571,-0.053945044898,1.037
0.456553477255,0.48604417529,-0.124284257542,-1.45280111297,0.0737968500836,1.92975446094,0.146030426305,-0.039212267821,-0.235920721647,-0.00464486465786,-0.372372372749,-0.0175286268279,0.148889356721,-0.0628218255954,0.573832578622,0.818957557858,0.00233174651069,0.0,0.818916981111,-0.573770016976,-0.0119871835204,0.0,-0.00847927155871,0.00878831244543,-0.999925430979,0.0,0.649976878576,0.245933462756,0.303465599174,1.0,-0.0504074285714,-0.0662497632653,1.053
0.455860118512,0.481480420308,-0.124420809186,-1.46000395304,0.0733577461948,1.93228449564,0.14491835512,-0.046926424157,-0.288252890627,-0.00960717479136,-0.453075432596,-0.0313166512248,0.150395017813,-0.0670255962667,0.573823482027,0.818964245388,0.00221881785083,0.0,0.8189223365,-0.573761531955,-0.012027390916,0.0,-0.00857709593194,0.00871880669782,-0.99992520512,0.0,0.649059543438,0.244710979482,0.303427542875,1.0,-0.0603548571429,-0.0793235265306,1.07
0.454948461765,0.475680549615,-0.124559239642,-1.46907886723,0.0728099985633,1.93549672697,0.143600539184,-0.0577434933361,-0.342656337415,-0.0103539120502,-0.530880343088,-0.0370832590746,0.188755256543,-0.070750903196,0.573883918089,0.818922076485,0.00215130327351,0.0,0.81887929797,-0.573822256411,-0.0120606925102,0.0,-0.00864246804992,0.00868326236663,-0.999924951534,0.0,0.647898490885,0.243170416357,0.303408247084,1.0,-0.0708874285714,-0.0931663346939,1.088
0.454056918054,0.470176857821,-0.124661286612,-1.47757449597,0.0723166725768,1.93856886716,0.142340192797,-0.0667106991486,-0.37956787616,-0.00936320140738,-0.576158819847,-0.0309186907839,0.210694389789,-0.0934427704028,0.573930971077,0.818888907313,0.00222369502439,0.0,0.818846890642,-0.573868812489,-0.0120458557353,0.0,-0.00858827376862,0.00873452360271,-0.999924972011,0.0,0.646815443865,0.24172962388,0.303438798112,1.0,-0.0796645714286,-0.104702008163,1.103
0.452816665781,0.462711475149,-0.124714315635,-1.48893866338,0.0716089772779,1.94276816524,0.140487960992,-0.0750322730195,-0.423756027204,-0.0013722595948,-0.657268000044,-0.0425368867765,0.23867196143,-0.101467253323,0.573814067748,0.818970097261,0.00247837617057,0.0,0.818931356658,-0.57375084358,-0.0119226454263,0.0,-0.0083424802844,0.00887117242761,-0.999925849912,0.0,0.645362963109,0.239823122152,0.303544582167,1.0,-0.0901971428571,-0.118544816327,1.121
0.451454547844,0.454933688292,-0.124813187819,-1.501140942,0.070816302934,1.94688141352,0.138675176816,-0.084370767469,-0.470781117263,-0.00824930943657,-0.729243680179,-0.0515126226588,0.243172838956,-0.111902630623,0.57386584356,0.818934611698,0.00220051344968,0.0,0.818891846522,-0.57380333968,-0.0121085908663,0.0,-0.00865364880243,0.00875085771506,-0.999924265558,0.0,0.643710173189,0.237702072739,0.303447610039,1.0,-0.100144571429,-0.131618579592,1.138
0.450050001492,0.446705890624,-0.124949799704,-1.51332755168,0.069963269736,1.95136655749,0.136734001175,-0.0887023241019,-0.519510789531,-0.0032565877414,-0.769664283998,-0.0562514667959,0.277982600922,-0.124508871615,0.573846501483,0.818947032597,0.00258794070995,0.0,0.818910374351,-0.573783561793,-0.0117885494346,0.0,-0.00816943702683,0.00888428039614,-0.999927162278,0.0,0.642142743683,0.235557963821,0.303683418528,1.0,-0.109506857143,-0.143923297959,1.154
0.448366036417,0.4374693601,-0.124997058652,-1.52754411707,0.0690471827021,1.95624336381,0.134492648527,-0.102586183039,-0.551079668132,-0.00105070048863,-0.839903359935,-0.05249376193,0.28403336231,-0.134457267762,0.573806313289,0.818975430219,0.0025112601746,0.0,0.818937056159,-0.57374289562,-0.0119136340781,0.0,-0.00831631602521,0.00889285367787,-0.999925875273,0.0,0.64018194658,0.233084843554,0.303658543221,1.0,-0.119454285714,-0.156997061224,1.171
0.446507061919,0.427399201997,-0.125093739081,-1.54261729635,0.0680235328251,1.9616220479,0.132015675974,-0.117643298872,-0.60169674667,-0.00461610308126,-0.924134352999,-0.0596458230377,0.322430501208,-0.142219477814,0.573743924499,0.819018191638,0.00280317087309,0.0,0.818983880253,-0.573679721722,-0.0117357433543,0.0,-0.0080038191115,0.00902923704849,-0.999927203229,0.0,0.638142470027,0.230404542932,0.303816252043,1.0,-0.129401714286,-0.17007082449,1.188
0.444552210864,0.417380924597,-0.12519410507,-1.55773203089,0.0669444184896,1.966828299,0.12949878802,-0.128289915339,-0.647759211691,-0.00958853598647,-0.952357410254,-0.0655758956493,0.345371031523,-0.158214440552,0.573696092058,0.819051528885,0.00285199764954,0.0,0.819018114888,-0.573632023947,-0.0116779916234,0.0,-0.0079290323679,0.0090356298599,-0.999927741309,0.0,0.636040622615,0.227644969337,0.303879786019,1.0,-0.138178857143,-0.181606497959,1.204
0.442285043155,0.406106794475,-0.125304831034,-1.57477216578,0.0657568853147,1.97274343836,0.126673131855,-0.136893624652,-0.68074517575,-0.0018327919891,-1.03102341706,-0.0635878107852,0.352111971623,-0.166868229731,0.57369053218,0.819055086291,0.00294716987373,0.0,0.819022935733,-0.573626175926,-0.0116270347781,0.0,-0.00783275899393,0.00908429439244,-0.999928059153,0.0,0.633642586759,0.224513714835,0.303912377242,1.0,-0.148711428571,-0.195449306122,1.221
0.439742549028,0.394083132383,-0.125429127064,-1.59267827122,0.0645312600059,1.97887539303,0.123621656668,-0.149867679013,-0.710191938444,-0.00684203892299,-1.06726299071,-0.0762748814825,0.377402326263,-0.183116407044,0.573736874823,0.81902186165,0.00315206426346,0.0,0.818992097796,-0.573671529841,-0.0115614228678,0.0,-0.0076609560495,0.00921490776374,-0.999928195036,0.0,0.63109004643,0.221132040084,0.304023425787,1.0,-0.158658857143,-0.208523069388,1.238
0.437140606246,0.382379390772,-0.125547503834,-1.61039702018,0.063162676859,1.98471674109,0.120476816901,-0.166010671837,-0.758146586607,-0.00885190120451,-1.11203078371,-0.085058725572,0.360554383195,-0.205403366593,0.573670276631,0.819069337036,0.00292946029811,0.0,0.819036982975,-0.57360601239,-0.0116322813635,0.0,-0.00784744003212,0.00907260506773,-0.999928050173,0.0,0.628480760368,0.217710572769,0.303949410272,1.0,-0.168021142857,-0.220827787755,1.254
0.434144187983,0.369214684365,-0.125689377459,-1.63003843457,0.0617065178594,1.99124145421,0.117002503422,-0.18130790464,-0.795820834858,-0.00569192325756,-1.17421766443,-0.091429025688,0.384218875471,-0.205236391732,0.573699516174,0.819048909464,0.00291478115375,0.0,0.819016286769,-0.573635207106,-0.0116498101662,0.0,-0.00786989474113,0.00907091833642,-0.999927888999,0.0,0.625381543526,0.213646663295,0.303951994489,1.0,-0.178553714286,-0.234670595918,1.272
0.430627756345,0.354705893784,-0.125911087614,-1.65153954249,0.0600126769406,1.99832361534,0.113065592009,-0.206065364671,-0.777541686293,-0.0147279955592,-1.20318923369,-0.0933448472525,0.391710215175,-0.226469098163,0.573791117663,0.818984772499,0.00290561646895,0.0,0.818952755584,-0.573727663215,-0.0115628493246,0.0,-0.00780291520694,0.00901439640633,-0.99992892506,0.0,0.622338023715,0.209500628703,0.303977056032,1.0,-0.188501142857,-0.247744359184,1.289
0.427222186263,0.341150668852,-0.126070313131,-1.67130191851,0.0585609187179,2.00473586923,0.109333267233,-0.212456385018,-0.866809093989,-0.00857373009666,-1.24265213013,-0.0894010368065,0.40959222845,-0.230680841534,0.573894917615,0.81891141347,0.00307690199252,0.0,0.818881095657,-0.573830291465,-0.0115453312571,0.0,-0.00768913201115,0.00914559988662,-0.999928615078,0.0,0.619309055802,0.205437196714,0.304080620296,1.0,-0.197863428571,-0.260049077551,1.305
0.423424505356,0.326348852829,-0.126195069575,-1.69298853623,0.0568231229536,2.01171335247,0.105112362727,-0.225049932859,-0.908305204599,-0.00636944676555,-1.27902689751,-0.11534486764,0.423274648657,-0.25583303621,0.573830245126,0.818956667046,0.0030942174235,0.0,0.818926634904,-0.573765646144,-0.0115280896147,0.0,-0.00766579777929,0.0091492797037,-0.999928760575,0.0,0.615895379429,0.200976631344,0.304086019215,1.0,-0.207810857143,-0.273122840816,1.322
0.419390793018,0.311078428905,-0.126305538317,-1.71523092435,0.0549818355798,2.01873115735,0.100683100857,-0.242888942046,-0.905544618407,-0.00420163225584,-1.2954286417,-0.102957137192,0.411643567686,-0.269219219016,0.57371887664,0.819034807455,0.00306295026224,0.0,0.819004443088,-0.573654476889,-0.0115330069252,0.0,-0.00768900701318,0.00912544934434,-0.999928800138,0.0,0.612303629079,0.196348422517,0.304077216723,1.0,-0.217758285714,-0.286196604082,1.339
0.415271798149,0.296149731746,-0.126426738048,-1.73689597538,0.053131436049,2.02537632503,0.0962240190583,-0.261959873258,-0.927403382185,-0.0109215382115,-1.37434912025,-0.111866713381,0.399420265307,-0.280739306662,0.573595590746,0.819121708142,0.00291074382835,0.0,0.819089394719,-0.573531725678,-0.0116047404526,0.0,-0.00783644176694,0.00904076141855,-0.999928424845,0.0,0.608720250256,0.191736771958,0.304028411544,1.0,-0.227120571429,-0.298501322449,1.355
0.410239099361,0.278756027046,-0.12660743792,-1.76172388885,0.0510925678974,2.0329530778,0.0909773574866,-0.290361771455,-0.969161193226,-0.0126078972676,-1.40632576974,-0.116925040518,0.409477175624,-0.302899529489,0.573610600869,0.819110848971,0.00300708652143,0.0,0.819079202907,-0.573545738476,-0.0116315150867,0.0,-0.00780294876882,0.00913517826943,-0.99992782865,0.0,0.604567434708,0.186301826106,0.304077453709,1.0,-0.237653142857,-0.312344130612,1.373
0.405090868516,0.261774739059,-0.126824625765,-1.78565095651,0.0489757974839,2.04013421371,0.0857485412222,-0.316203741697,-1.01370722494,-0.0174288350334,-1.4342186157,-0.133631469871,0.42660476657,-0.311980627937,0.573654450299,0.819079724245,0.0031183144008,0.0,0.819049906798,-0.573589682606,-0.0115270587275,0.0,-0.00765309446224,0.00916678014615,-0.999928697601,0.0,0.600502450768,0.180889500102,0.304174467249,1.0,-0.247600571429,-0.325417893878,1.39
0.400192203693,0.246525905972,-0.127005830995,-1.80710814212,0.0470816905278,2.04638675687,0.0809450619967,-0.325938481873,-1.00069923297,-0.0129196637489,-1.44968528166,-0.123335496679,0.410667603062,-0.324162456482,0.573778213373,0.818993059185,0.0031109107585,0.0,0.818962870794,-0.57371312376,-0.0115678341649,0.0,-0.00768935360578,0.00918526847021,-0.999928249768,0.0,0.596771668543,0.175917133084,0.304191083548,1.0,-0.256377714286,-0.336953567347,1.405
0.394060049921,0.22767526663,-0.127163336395,-1.83334417513,0.044750586109,2.05395046001,0.0747930979798,-0.341997318008,-1.04363691452,-0.00298120856276,-1.47324521967,-0.117560070971,0.400268804849,-0.351087276263,0.573705333097,0.819043636067,0.00323417612329,0.0,0.819014440319,-0.573639132103,-0.0115861801059,0.0,-0.0076344840851,0.00929606924263,-0.999927646257,0.0,0.592089467141,0.169856800463,0.304242845021,1.0,-0.266910285714,-0.35079637551,1.423
0.387497377457,0.208294177665,-0.127368573423,-1.86002290718,0.0421866528777,2.06141260247,0.0682671032278,-0.379926304283,-1.07224328401,-0.00792085035378,-1.48534067616,-0.134062197412,0.392696833489,-0.367281187029,0.573573856647,0.819135566748,0.00327126282423,0.0,0.819107161117,-0.573507936078,-0.0115261772863,0.0,-0.00756555223351,0.00929080764058,-0.99992821908,0.0,0.587216950454,0.163523296605,0.304304020546,1.0,-0.277442857143,-0.364639183673,1.441
0.381591964421,0.191771416757,-0.127577809233,-1.88266734542,0.0399712421758,2.06758617788,0.0625564847018,-0.405029299216,-1.12130386678,-0.0138381996572,-1.51910707741,-0.152005027078,0.406355013108,-0.381631830723,0.573556863329,0.819147610328,0.00323479894317,0.0,0.819118833811,-0.573491181429,-0.0115303001583,0.0,-0.00759003528517,0.00926314587427,-0.999928290175,0.0,0.582999586775,0.157991112255,0.304303612598,1.0,-0.28622,-0.376174857143,1.456
0.374368668084,0.172637027289,-0.127925637863,-1.9085132585,0.0374839701939,2.07447831513,0.0557272864291,-0.426807044587,-1.13422854053,-0.017329181443,-1.55228506693,-0.148092848169,0.411333681279,-0.401861590042,0.573727150843,0.819027939018,0.00333742333409,0.0,0.819000061208,-0.573660600262,-0.0115395992091,0.0,-0.0075368509919,0.00935411138663,-0.999927845636,0.0,0.577823248405,0.151043675008,0.304362704819,1.0,-0.296752571429,-0.390017665306,1.474
0.366814894383,0.153092503467,-0.128146951031,-1.9346438961,0.0347738841715,2.08119090509,0.0485390957541,-0.447474470614,-1.1656152033,-0.0118052502255,-1.55717072369,-0.171757389093,0.400908017751,-0.434113083387,0.573616428572,0.819105413233,0.00335585828887,0.0,0.819078085921,-0.573550225024,-0.0114880564097,0.0,-0.00748532003158,0.00933862767036,-0.999928377444,0.0,0.573029129609,0.144780884424,0.30440511302,1.0,-0.306114857143,-0.402322383673,1.49
0.359236778846,0.13435464842,-0.128405885899,-1.95948681175,0.0321675520461,2.08738096843,0.0414700629971,-0.48254592258,-1.20788395752,-0.017888031676,-1.56274915629,-0.166381612596,0.390410197166,-0.451555222902,0.57361265581,0.819108055457,0.00335581294754,0.0,0.819080668352,-0.573546379053,-0.0114959431616,0.0,-0.00749184952526,0.00934307988317,-0.999928286953,0.0,0.568082390462,0.138303422111,0.304419977399,1.0,-0.315477142857,-0.414627102041,1.506
0.350617917246,0.114035663044,-0.128788114734,-1.98609259354,0.0292834163524,2.09381006026,0.0335097455735,-0.524100831356,-1.22815822557,-0.0326737789703,-1.5947067478,-0.186282354175,0.38608329238,-0.468057418165,0.573681298986,0.819059873018,0.00338208603155,0.0,0.819033057039,-0.573615224342,-0.0114530686548,0.0,-0.00744087618024,0.00934063140094,-0.999928690441,0.0,0.562689034578,0.131124002332,0.304450232598,1.0,-0.325424571429,-0.427700865306,1.523
0.341470763863,0.0933434163447,-0.129133671662,-2.01283529316,0.026287139336,2.10000365932,0.0250916665714,-0.539718905159,-1.2256051084,-0.011512573039,-1.57757327137,-0.174876595953,0.366889028543,-0.508551229259,0.573633544496,0.819093392215,0.00336427715287,0.0,0.819066341004,-0.573567522493,-0.0114618095073,0.0,-0.00745879592364,0.00933062423517,-0.999928650362,0.0,0.556771011574,0.123355160586,0.30445701588,1.0,-0.335957142857,-0.441543673469,1.541
0.331771664628,0.0723259130025,-0.12949640346,-2.03971657179,0.0232955319657,2.10591866652,0.0162105450626,-0.584304789752,-1.24710826447,-0.0210838719405,-1.58127283501,-0.196746351551,0.361927517932,-0.527354403138,0.573660507645,0.819074236279,0.00342991756676,0.0,0.8190475898,-0.573593728865,-0.0114902894444,0.0,-0.00744416416767,0.00940097198974,-0.999928100488,0.0,0.551373110846,0.116233164479,0.304490136542,1.0,-0.33998,-0.446830857143,1.557
0.321506333424,0.0514253156684,-0.129921196209,-2.06621078931,0.020165697534,2.11141483858,0.00708259295632,-0.608849135271,-1.24471050958,-0.0253138603424,-1.55592147435,-0.197377456246,0.318123482535,-0.536131562848,0.573836050282,0.818951858678,0.00328442767639,0.0,0.818922999868,-0.573769287619,-0.0116048168006,0.0,-0.00761942925795,0.00934913560251,-0.999927266336,0.0,0.545573161293,0.108499202983,0.30443761236,1.0,-0.33998,-0.446830857143,1.574
0.310922584824,0.0306699798697,-0.130206898641,-2.09202818027,0.0171251497548,2.11651231148,-0.00223967334028,-0.62682495314,-1.23502442585,-0.0190503060418,-1.52209056294,-0.183777968893,0.292137965563,-0.5600797359,0.573960948823,0.818864216067,0.00331236657342,0.0,0.81883489118,-0.573893061442,-0.0117013638606,0.0,-0.00768103183482,0.00942858875617,-0.999926048998,0.0,0.539767765661,0.100874220716,0.304448489431,1.0,-0.33998,-0.446830857143,1.591
0.300659604537,0.0113638243833,-0.130485015374,-2.11563629454,0.0141193168685,2.12098009486,-0.0113058917456,-0.647752752635,-1.21628724105,-0.01892732888,-1.489450775,-0.202005693405,0.282688258744,-0.575149796411,0.573965608385,0.818860784088,0.00335314399774,0.0,0.818832552134,-0.573898284058,-0.0116085322632,0.0,-0.00758155421305,0.0094087428877,-0.999926995132,0.0,0.53435347966,0.0936935078713,0.304502545317,1.0,-0.33998,-0.446830857143,1.607
0.289420655878,-0.00899369693223,-0.130771157251,-2.14010091381,0.0110865881344,2.12531755273,-0.0212518281005,-0.654639666301,-1.22652030557,-0.00939831961797,-1.4386875318,-0.189454176644,0.271750567073,-0.600699803341,0.573983875248,0.818847177741,0.00354363681685,0.0,0.818821049054,-0.573915493898,-0.0115690272246,0.0,-0.00743966045464,0.00954222321243,-0.999926796035,0.0,0.528600642528,0.0860975856115,0.304599029181,1.0,-0.33998,-0.446830857143,1.624
0.279302369046,-0.0266629327291,-0.130954966653,-2.16122384229,0.00834794209458,2.12872149031,-0.0302021222428,-0.686317237103,-1.20189560848,-0.0133299593456,-1.38529154353,-0.19120241387,0.241522393284,-0.605247341389,0.573886522323,0.818915065251,0.00362247178967,0.0,0.818890114874,-0.573818120802,-0.011510469245,0.0,-0.0073475981819,0.00957229380162,-0.999927189345,0.0,0.522481660034,0.0781148246336,0.304664820981,1.0,-0.33998,-0.446830857143,1.642
0.265905329872,-0.0489505564576,-0.131335670454,-2.18737414404,0.00492752543656,2.13274195568,-0.0418887209726,-0.705114429434,-1.17842924449,-0.0161111140119,-1.33949626093,-0.166460784013,0.195943525642,-0.619263258136,0.574024881353,0.818818060333,0.00362857561879,0.0,0.81879209525,-0.573955021044,-0.0116569926163,0.0,-0.00746246056324,0.00966263887292,-0.999925469769,0.0,0.517026368928,0.0709164556221,0.304659340948,1.0,-0.33998,-0.446830857143,1.658
0.253701737531,-0.0685431969337,-0.131541982995,-2.21019552405,0.00181101231036,2.13595679667,-0.0526905506598,-0.721904719124,-1.12125876939,-0.00956052595066,-1.31821179384,-0.182496744117,0.172316730359,-0.638029325595,0.573849614604,0.818941029842,0.00359949453762,0.0,0.818914393876,-0.5737794943,-0.011707020294,0.0,-0.00752218792582,0.00966593307057,-0.9999249904,0.0,0.511220701024,0.0634165581298,0.304633248074,1.0,-0.33998,-0.446830857143,1.675
0.240936742952,-0.0879602189497,-0.131922319403,-2.23237299032,-0.0012952733918,2.13884607347,-0.0638441715933,-0.764543577165,-1.13192162446,-0.0197681016858,-1.30008275539,-0.187653641958,0.159687081108,-0.662942621596,0.573939514511,0.818877646781,0.00368513042253,0.0,0.81885220934,-0.573869218974,-0.0116587166332,0.0,-0.00743242262088,0.00970916228396,-0.999925242837,0.0,0.505472412542,0.0557410440287,0.304661295851,1.0,-0.33998,-0.446830857143,1.692
0.228809791989,-0.106072288313,-0.132099269731,-2.25267873001,-0.00417865168742,2.14112612579,-0.0745479551204,-0.764457932584,-1.1229872725,-0.0182072117818,-1.27072486279,-0.180467147575,0.142792663238,-0.659924314321,0.573772020954,0.818994686051,0.00375753799114,0.0,0.81897007527,-0.573701373523,-0.0116403063612,0.0,-0.00737778639253,0.00975638111742,-0.999925187849,0.0,0.500034743513,0.0487325999222,0.304718128913,1.0,-0.33998,-0.446830857143,1.708
0.215339774725,-0.124987781364,-0.132496363305,-2.2738357069,-0.00726865993487,2.14324627046,-0.0862959679082,-0.803150645865,-1.11003854611,-0.0266681380975,-1.23377123005,-0.17476696768,0.112772842865,-0.694225702795,0.573878876042,0.818920159326,0.00368173648517,0.0,0.818893926415,-0.573807621551,-0.011760001398,0.0,-0.00751803850832,0.00976395601732,-0.999924069247,0.0,0.494239561145,0.0410727974403,0.304664617016,1.0,-0.33998,-0.446830857143,1.725
0.201614728039,-0.143769892126,-0.132770472513,-2.29443781817,-0.010327950145,2.1450017714,-0.098451864169,-0.819799569253,-1.1226218041,-0.0181961206356,-1.18166874851,-0.178984402449,0.123662385666,-0.72245336017,0.573730303647,0.819024357729,0.00365882837394,0.0,0.818997316419,-0.573658487793,-0.0118356234739,0.0,-0.00759489218718,0.00978721490327,-0.999923261074,0.0,0.488430775966,0.0335481542495,0.304653270541,1.0,-0.33998,-0.446830857143,1.742
0.188188068161,-0.161152349333,-0.133187625451,-2.3134027898,-0.013235307213,2.14631363611,-0.110182919369,-0.838054959525,-1.07162158992,-0.021740619118,-1.16581660793,-0.184328487824,0.0659937781367,-0.726421448309,0.573848091632,0.818942563401,0.00349177350302,0.0,0.818912231642,-0.573775454091,-0.0120512261366,0.0,-0.0078659195405,0.0097752173553,-0.99992128312,0.0,0.482935518512,0.0263166492506,0.304559813291,1.0,-0.33998,-0.446830857143,1.758
0.172815263865,-0.180598227335,-0.133518509632,-2.33399197449,-0.0163538585778,2.14750422097,-0.123782461292,-0.868214072646,-1.07087771117,-0.0226293382265,-1.12343168335,-0.17515038788,0.0584140607947,-0.76779975959,0.573790064233,0.818982693405,0.00361344582715,0.0,0.818953357801,-0.573716230254,-0.0120760834015,0.0,-0.00781716129631,0.00988857064962,-0.999920550924,0.0,0.476817874505,0.0183500301952,0.30460186462,1.0,-0.33998,-0.446830857143,1.776
0.15773482634,-0.198769500839,-0.133957403557,-2.35283830505,-0.0193658656205,2.14839284004,-0.137054371194,-0.88411566309,-1.05168384031,-0.0199932320116,-1.10028840909,-0.170082855153,0.0373767679473,-0.782177051241,0.573882753568,0.818916917901,0.00379652931148,0.0,0.818890552513,-0.573808981286,-0.0119274012657,0.0,-0.00758921418235,0.00995406351336,-0.999921657155,0.0,0.471077179352,0.0106945311746,0.304688264752,1.0,-0.33998,-0.446830857143,1.793
0.143254363208,-0.215554624521,-0.1343299518,-2.37007476092,-0.0220581957624,2.14882058157,-0.149942837331,-0.919953927185,-1.04959857317,-0.034859297554,-1.03956756285,-0.168116995018,0.0254622197387,-0.802341455407,0.573883577383,0.818915847462,0.00390144679633,0.0,0.818889954594,-0.573808244788,-0.0120036402998,0.0,-0.00759143508907,0.0100837417701,-0.99992034096,0.0,0.465641156353,0.00356950385479,0.304718067241,1.0,-0.33998,-0.446830857143,1.809
0.127473076131,-0.23309046953,-0.134703386791,-2.38792916635,-0.0250973873399,2.14907422814,-0.163935283148,-0.925576839757,-1.03458055024,-0.0201878555293,-1.04136605937,-0.173441457287,0.00580431808365,-0.835767441457,0.573838100708,0.818947971111,0.00384729636258,0.0,0.818921567131,-0.573763231429,-0.0119986686803,0.0,-0.00761899486774,0.0100361204394,-0.999920610451,0.0,0.459856385175,-0.00400696898243,0.304704737195,1.0,-0.33998,-0.446830857143,1.826
0.111215649226,-0.250469837749,-0.135144351826,-2.40508711578,-0.0279162589612,2.14914290284,-0.178448444007,-0.964824490077,-1.01572701305,-0.0203042204361,-0.995139726414,-0.161475519397,-0.00244660195021,-0.865716843625,0.57388868932,0.818911051288,0.00414840330387,0.0,0.818889155235,-0.573813555477,-0.0118026221433,0.0,-0.00728502791737,0.0101706696464,-0.999921739861,0.0,0.454145935418,-0.0116112185754,0.304819950048,1.0,-0.33998,-0.446830857143,1.843
0.0956478627763,-0.266403450525,-0.135473412751,-2.42090319654,-0.0306395509471,2.14898336783,-0.192431717935,-0.98029201283,-0.986134590787,-0.0226577671767,-0.960176495906,-0.171827977309,-0.0065119029705,-0.877494886798,0.573767139124,0.818996201193,0.00415203495878,0.0,0.818974413605,-0.573692097567,-0.0117912658984,0.0,-0.00727515240263,0.0101660470247,-0.99992185877,0.0,0.448713532827,-0.018682070231,0.304783333741,1.0,-0.33998,-0.446830857143,1.859
0.0775427465368,-0.284051440804,-0.135949365685,-2.43806064425,-0.0335791894675,2.14846156641,-0.208708098247,-1.00332082847,-0.976009935026,-0.0120075538497,-0.931806124445,-0.148536600976,-0.0439310091796,-0.909715394183,0.573789645897,0.818979932291,0.00424966679304,0.0,0.818958983444,-0.573713669527,-0.0118133710578,0.0,-0.00723696123286,0.0102588903083,-0.999921187675,0.0,0.442601635022,-0.0267287947224,0.304778744195,1.0,-0.33998,-0.446830857143,1.877
0.0600164149196,-0.300532668104,-0.136473030643,-2.45362464056,-0.0363756776317,2.14777952553,-0.224545431497,-1.04587511595,-0.978576296257,-0.037071936395,-0.896215158352,-0.169139006117,-0.0306327304956,-0.934238985144,0.5738146166,0.818961265304,0.0044697438357,0.0,0.818944149738,-0.573739356709,-0.0115921125549,0.0,-0.00692915662029,0.0103123927319,-0.999922817694,0.0,0.436866099304,-0.0343569801715,0.304873122644,1.0,-0.33998,-0.446830857143,1.894
0.0431779166746,-0.315596432433,-0.136842751226,-2.46791129744,-0.0389386733368,2.14679411295,-0.239775004069,-1.06382890325,-0.936101078779,-0.0231407644266,-0.893177368729,-0.162561432128,-0.0562193685902,-0.96671080862,0.573773647371,0.81899019498,0.00442820637236,0.0,0.818971752674,-0.573697358481,-0.011719901662,0.0,-0.00705817014032,0.0103513459529,-0.999921512856,0.0,0.431387960739,-0.0414470769892,0.304826126516,1.0,-0.33998,-0.446830857143,1.91
0.0247714649092,-0.331236725508,-0.137366694476,-2.48228968385,-0.0415495461484,2.14565811036,-0.25647823344,-1.07929635046,-0.897216800802,-0.0257084624013,-0.851841954294,-0.146856539311,-0.0793257657927,-1.00128117121,0.573877452703,0.818916297913,0.0046382316193,0.0,0.818900903937,-0.573800981087,-0.0115970055011,0.0,-0.00683568656632,0.010453713308,-0.999921993591,0.0,0.425670963289,-0.0490751960472,0.304893680296,1.0,-0.33998,-0.446830857143,1.927
0.00598453734626,-0.346505532766,-0.137884109897,-2.49629587261,-0.0442187239864,2.14423102775,-0.273628855536,-1.11650807591,-0.882220646756,-0.0386465016079,-0.837506274175,-0.16306303156,-0.0978016665027,-1.02036505381,0.57388255122,0.818912793975,0.00462603187995,0.0,0.81889678356,-0.573805417637,-0.0116682246691,0.0,-0.00690094917427,0.0104846350301,-0.999921221561,0.0,0.419864935191,-0.0566741571573,0.304870246205,1.0,-0.33998,-0.446830857143,1.944
-0.0120703049393,-0.360544731116,-0.138273366367,-2.50871812757,-0.0465909571478,2.14283675632,-0.2902602659,-1.13575309467,-0.866188048493,-0.0249669635796,-0.779867992369,-0.149976227572,-0.0876184400033,-1.03574433264,0.573785444288,0.818979644638,0.00483244167711,0.0,0.818967516708,-0.573709608996,-0.011412187499,0.0,-0.0065740576084,0.0105059621067,-0.999923200314,0.0,0.414513677749,-0.0637826348433,0.304983943784,1.0,-0.33998,-0.446830857143,1.96
-0.0316666894643,-0.374907225153,-0.138751631668,-2.52167628384,-0.0491373503251,2.14105768362,-0.308389744313,-1.15093787889,-0.844735039184,-0.0265146057145,-0.764361539939,-0.143459527958,-0.112750316905,-1.07167584918,0.573672671202,0.81905934148,0.00471257383567,0.0,0.819044389103,-0.573595204526,-0.0116437504689,0.0,-0.0068339444129,0.0105397115147,-0.99992110273,0.0,0.408677894982,-0.0713392317938,0.304890226757,1.0,-0.33998,-0.446830857143,1.977
-0.0505672167621,-0.388132459642,-0.139206238154,-2.53305414969,-0.0514646958582,2.13937533869,-0.325783271381,-1.18350628398,-0.85114315266,-0.0210062409445,-0.719208175119,-0.15022304522,-0.101807867663,-1.08676925472,0.573717935207,0.819026838388,0.00484930123587,0.0,0.819014936708,-0.573642078714,-0.0114037659859,0.0,-0.00655835342853,0.0105143976545,-0.999923214773,0.0,0.403305807908,-0.0785016039058,0.304992588684,1.0,-0.33998,-0.446830857143,1.993
-0.0710619021365,-0.401546973008,-0.139768591053,-2.54484590533,-0.0536944777641,2.13739954768,-0.344851849298,-1.22091231467,-0.761752778407,-0.0432520478341,-0.685257866841,-0.137641495012,-0.123287213674,-1.14766388584,0.573787070204,0.818978021335,0.00491381101814,0.0,0.818964910006,-0.57370774859,-0.0116894091846,0.0,-0.00675440779161,0.0107316772647,-0.999919601307,0.0,0.397479911659,-0.0860886565952,0.304901018328,1.0,-0.33998,-0.446830857143,2.01
-0.0918737855401,-0.41461009388,-0.14018693067,-2.5558054099,-0.05598849977,2.13537569339,-0.364346095604,-1.23897218469,-0.771722452828,-0.0300529464625,-0.632276300615,-0.129497078323,-0.111556972763,-1.16928478206,0.573648186637,0.819074659321,0.00502068988892,0.0,0.819063930558,-0.573570172494,-0.0115013819315,0.0,-0.00654089845421,0.0107102190883,-0.999921250827,0.0,0.391765649984,-0.0936242855529,0.304988288585,1.0,-0.33998,-0.446830857143,2.027
-0.114483789215,-0.427714822652,-0.140700754349,-2.56695456732,-0.0583654099162,2.13307682216,-0.385513041954,-1.26770062621,-0.718441406232,-0.0220812718501,-0.613580376907,-0.125036811062,-0.140526949762,-1.18908737469,0.573622699107,0.819092918601,0.00495345011681,0.0,0.819080245101,-0.573543157102,-0.0116852867786,0.0,-0.00673044781557,0.0107604260491,-0.999919453908,0.0,0.385609321604,-0.101656691407,0.304926577918,1.0,-0.33998,-0.446830857143,2.045
-0.133613914429,-0.438172272103,-0.141129690146,-2.57575096861,-0.060216841734,2.13110782664,-0.403486019271,-1.27567049363,-0.703680747167,-0.0327748023862,-0.562772775482,-0.118256083522,-0.129972517097,-1.21457965745,0.57364783574,0.819075194143,0.00497330795577,0.0,0.819061459965,-0.573566124607,-0.0118731801012,0.0,-0.0068726386454,0.0108846785073,-0.999917141873,0.0,0.380137952008,-0.108765829186,0.304880112839,1.0,-0.33998,-0.446830857143,2.061
-0.15699884654,-0.450234278424,-0.14164564434,-2.58536903835,-0.0624180386514,2.12892232542,-0.425598473354,-1.30153406643,-0.649516233944,-0.0226924040536,-0.536847494914,-0.130605241996,-0.125372899535,-1.22746118102,0.573593471375,0.819112368558,0.00511900111577,0.0,0.819102692039,-0.573514818534,-0.0115012919965,0.0,-0.00648515239201,0.010790261342,-0.999920753389,0.0,0.374457646218,-0.116372812038,0.305013262428,1.0,-0.33998,-0.446830857143,2.078
-0.180836930655,-0.461514708674,-0.142164988013,-2.59460000096,-0.0644724706513,2.12644227978,-0.44826819429,-1.31999157945,-0.6165924103,-0.017861206244,-0.488409098444,-0.123060658797,-0.130911182057,-1.28442478312,0.573544064892,0.819147131192,0.00509214970137,0.0,0.819135329658,-0.573462584615,-0.0117780581572,0.0,-0.00672793475508,0.0109266054473,-0.999917668704,0.0,0.368273747709,-0.124382427597,0.304958790105,1.0,-0.339248571429,-0.44586955102,2.096
-0.200880134609,-0.470197138006,-0.142542826133,-2.60163163468,-0.0659101488351,2.12466584554,-0.467360199932,-1.34629916942,-0.561824969276,-0.0312711970353,-0.444854751337,-0.103936004917,-0.119627555553,-1.27111950867,0.573591207421,0.819113004017,0.00526880626745,0.0,0.819102843329,-0.573508034788,-0.0118242540954,0.0,-0.00666382586354,0.0110981960527,-0.999916208224,0.0,0.363242769989,-0.130998097122,0.30493536105,1.0,-0.330471428571,-0.434333877551,2.111
-0.224938184341,-0.479773737436,-0.142783277778,-2.60904451487,-0.0675167753279,2.1225685563,-0.490069014344,-1.32305198406,-0.504535056007,-0.01641193933,-0.396951343656,-0.0675863471497,-0.111736339598,-1.28081180008,0.573760328571,0.818993418425,0.00544176769596,0.0,0.818986487792,-0.573678220332,-0.0116266604226,0.0,-0.00640045798571,0.0111278649628,-0.999917598985,0.0,0.357396093931,-0.138804037717,0.305030721897,1.0,-0.319938857143,-0.420491069388,2.129
-0.247348380786,-0.487888795762,-0.142836956295,-2.61549170543,-0.0688816351252,2.12060876633,-0.511362998401,-1.31527027388,-0.458195877052,0.00399679318991,-0.371094931791,-0.0731390452613,-0.118580989094,-1.23417416149,0.573757982761,0.81899503032,0.00544650618974,0.0,0.818987327096,-0.573674415567,-0.0117545685188,0.0,-0.0065025371392,0.0112051128011,-0.999916077707,0.0,0.351954209932,-0.14588737017,0.305002631626,1.0,-0.309991428572,-0.407417306123,2.146
-0.26816624174,-0.494662536202,-0.142843937232,-2.62082053865,-0.0699273369874,2.11897269694,-0.531135632012,-1.29117717878,-0.405748156771,-0.00397264838583,-0.319078275035,-0.0512362251643,-0.0933513526617,-1.2273443464,0.573861926178,0.818921525075,0.00554728338597,0.0,0.818914573028,-0.57377701891,-0.0118153101411,0.0,-0.00649303308678,0.0113233258506,-0.999914807778,0.0,0.347014484674,-0.152386068379,0.304988852264,1.0,-0.300629142857,-0.395112587755,2.162
-0.289857266905,-0.501067329216,-0.142649696526,-2.62578542737,-0.0709630678625,2.11739586115,-0.55175720123,-1.26216735145,-0.35319734635,0.0190044960022,-0.281036031809,-0.0607583091166,-0.0902007851878,-1.19025520909,0.573863668434,0.818920333521,0.00554295029429,0.0,0.818913576678,-0.573779215264,-0.0117776468506,0.0,-0.00646464928143,0.011298178403,-0.999915276148,0.0,0.341961376865,-0.159045413303,0.304999157903,1.0,-0.290681714286,-0.38203882449,2.179
-0.31104836006,-0.506642862415,-0.142478480531,-2.6300478245,-0.0716657950628,2.11600211246,-0.571990295338,-1.24193892781,-0.317122013928,0.0261169419225,-0.238783185172,-0.0518472890577,-0.0827164172797,-1.18582846849,0.573973518531,0.818842045256,0.00573165303702,0.0,0.818837729783,-0.573888366371,-0.0117329506018,0.0,-0.00631822591505,0.0114279167232,-0.999914737736,0.0,0.337105643346,-0.165486215498,0.305023656232,1.0,-0.280734285714,-0.368965061225,2.196
-0.330567365703,-0.51125231641,-0.142265308835,-2.63355971675,-0.072261505198,2.11483980896,-0.590693431178,-1.22296044334,-0.270639215381,-0.000853359157189,-0.209250053208,-0.0358642749576,-0.0711955128703,-1.15847733556,0.574026244906,0.818804163072,0.0058617058731,0.0,0.818801756633,-0.573941035797,-0.0116669475002,0.0,-0.00618879079661,0.0114969304804,-0.999914756096,0.0,0.332671723201,-0.171359638365,0.305043324185,1.0,-0.271372,-0.356660342857,2.212
-0.350654032771,-0.515430001668,-0.141832169217,-2.63689983504,-0.0727961604809,2.11359614605,-0.610075390344,-1.16710281702,-0.23662919251,0.0343444985935,-0.185631556424,-0.0256251203551,-0.0620582619539,-1.12927609668,0.573868406925,0.818914950131,0.00583976766703,0.0,0.818910782072,-0.573780598015,-0.0119039173488,0.0,-0.00639767367286,0.0116137543932,-0.999912091376,0.0,0.328097112168,-0.17726361563,0.304974298735,1.0,-0.261424571429,-0.343586579592,2.229
-0.37142034074,-0.519116122338,-0.141462325798,-2.6398903481,-0.0732710180764,2.11253537659,-0.630004106021,-1.13625672353,-0.186025861359,0.0253959824002,-0.149619375435,-0.0218495134098,-0.0507161046092,-1.08348180129,0.573911436364,0.818884620155,0.00586421236574,0.0,0.818879422532,-0.573821087236,-0.0121077701814,0.0,-0.00654998417795,0.0117510968567,-0.99990950062,0.0,0.32341167121,-0.183363448516,0.304892170055,1.0,-0.250892,-0.329743771429,2.247
-0.388249116242,-0.521730883558,-0.141086304486,-2.64189455862,-0.0735834391683,2.1117735233,-0.646117763566,-1.11273657675,-0.159190133429,0.0377110689888,-0.122996189933,-0.0211138567503,-0.051037820073,-1.05729654854,0.573977188497,0.818838379714,0.00588573641113,0.0,0.818833323219,-0.573886483523,-0.0121259934797,0.0,-0.00655161042023,0.0117797075462,-0.999909153319,0.0,0.319677007186,-0.188279986099,0.304886917634,1.0,-0.242114857143,-0.318208097959,2.262
-0.408779031155,-0.524461369835,-0.140586723755,-2.6439228394,-0.0738050606378,2.11094859851,-0.665926343791,-1.08304825397,-0.130989188031,0.0147558157366,-0.0946969655595,-0.00877105044458,-0.0369374090599,-1.02927046256,0.57399784184,0.818823205179,0.00598189965211,0.0,0.818819490774,-0.573906880719,-0.0120946555775,0.0,-0.00647045585174,0.0118406301951,-0.999908962195,0.0,0.315162034626,-0.194238760832,0.304909074919,1.0,-0.230997142857,-0.303596244898,2.281
-0.426441886163,-0.526422690573,-0.14007532103,-2.64536743558,-0.073955383674,2.11037066397,-0.683023398645,-1.02028962611,-0.109973867466,0.038090452708,-0.0818073238624,-0.00597579461674,-0.0337015713259,-0.976437716653,0.573948720723,0.818857366181,0.0060188646474,0.0,0.818854595967,-0.573858465137,-0.0120149721501,0.0,-0.0063846949463,0.0118247805378,-0.999909701041,0.0,0.311302949964,-0.199326980943,0.304934536688,1.0,-0.221049714286,-0.290522481633,2.298
-0.44255551549,-0.527821299982,-0.13966456473,-2.646442788,-0.0740525830923,2.1099252267,-0.698534930244,-0.989185464632,-0.079504970956,0.0349444665885,-0.0578669414541,-0.00207825843805,-0.0246459881822,-0.965728239196,0.574046030977,0.818788821302,0.00606360715978,0.0,0.818786595377,-0.573955496765,-0.0120144024434,0.0,-0.00635714015033,0.0118618486766,-0.999909437557,0.0,0.307775417354,-0.20396804414,0.304929817996,1.0,-0.211687428572,-0.278217763265,2.314
-0.458885110131,-0.52890982306,-0.139117963924,-2.64727172588,-0.0740658541246,2.10955196541,-0.714339660869,-0.955065698002,-0.0580900907147,0.0230139882212,-0.0459048775132,-0.0031932366637,-0.0206995822386,-0.914393899589,0.574034924635,0.818796473858,0.00608166081206,0.0,0.818794569908,-0.57394447971,-0.0119972247281,0.0,-0.00633287158028,0.011866685312,-0.999909534167,0.0,0.304234946441,-0.208626508103,0.304933150156,1.0,-0.20174,-0.265144,2.331
-0.47545103455,-0.529686460368,-0.138484049955,-2.64785977746,-0.0740520006486,2.10923876842,-0.730365359719,-0.890886482581,-0.0329958997991,0.0383245239577,-0.0234065321722,0.0003364510597,-0.013960485433,-0.8810415692,0.574006910538,0.818816369194,0.00604707335007,0.0,0.818814140526,-0.573916849776,-0.0119833100389,0.0,-0.00634173522758,0.0118301597085,-0.9999099108,0.0,0.300850467311,-0.213072770709,0.304938024518,1.0,-0.191792571429,-0.252070236735,2.348
-0.487797379859,-0.530026040326,-0.138045527442,-2.64813708106,-0.0740480150847,2.10906989654,-0.742276746445,-0.879691475129,-0.016185609806,0.028500689535,-0.0134113813682,-3.81183787791e-05,-0.0129943758263,-0.838749059508,0.574033385983,0.818798112454,0.00600580711389,0.0,0.818795333959,-0.573943466507,-0.0119935500029,0.0,-0.00637342505805,0.0118024521934,-0.999910036741,0.0,0.297986420591,-0.21683765898,0.304934190012,1.0,-0.183015428572,-0.240534563265,2.363
-0.501990577949,-0.530212096234,-0.137384601576,-2.64828505141,-0.0739441266013,2.10892392066,-0.75616446263,-0.824359855807,-0.00655420582153,0.0402109211905,-0.00510702114763,0.0143879350057,-0.00656602569243,-0.801267944098,0.573853074349,0.81892493298,0.00594559545524,0.0,0.818921486823,-0.573763652771,-0.0119839926249,0.0,-0.00640274706363,0.0117462530328,-0.999910511181,0.0,0.294948494093,-0.22082556421,0.304939710756,1.0,-0.173068,-0.2274608,2.38
-0.516456718666,-0.53023721796,-0.136777279088,-2.64832241223,-0.0738413611148,2.1088502779,-0.770042760399,-0.799067006632,-6.77805641111e-06,0.0382482249761,-7.80727391347e-05,0.00975979033061,-0.00361107366791,-0.760301248106,0.573947964153,0.818858795293,0.00589531309369,0.0,0.818854932046,-0.573859160367,-0.0119587301567,0.0,-0.00640955535107,0.0116913201241,-0.999911111366,0.0,0.291822850986,-0.224895217503,0.304941516821,1.0,-0.162535428572,-0.213617991837,2.398
-0.527661916388,-0.530059209226,-0.136152802105,-2.64824767222,-0.0736135391163,2.10884031574,-0.780990475834,-0.733291027734,0.0186619247034,0.039479759418,0.00536019940373,0.0166808252189,-0.00138521158568,-0.708954309426,0.573820228351,0.818948364909,0.00588795799276,0.0,0.81894425574,-0.573731206489,-0.011981468681,0.0,-0.0064342228213,0.0116973436808,-0.999910882493,0.0,0.289433590223,-0.227990892776,0.304926099382,1.0,-0.153758285714,-0.202082318367,2.413
-0.540552158233,-0.529752519311,-0.135538610799,-2.64804982523,-0.0733274326998,2.10884255989,-0.793354148872,-0.703396656082,0.016641586472,0.0338353323519,0.0150452107144,0.0197930439076,-0.000847184221193,-0.67480565208,0.573951801166,0.818855790489,0.00593895798827,0.0,0.818852231048,-0.573862337176,-0.0119911875699,0.0,-0.00641103249712,0.0117457188441,-0.999910464367,0.0,0.286654356384,-0.231568869305,0.304920421954,1.0,-0.143225714286,-0.188239510204,2.431
-0.551773787398,-0.529272248354,-0.134811067649,-2.64776272671,-0.0729830524633,2.10890169655,-0.804293435348,-0.641855693646,0.0276097895844,0.0388980832082,0.0137205873564,0.0237973124179,0.0102636413836,-0.632714026295,0.573833515149,0.818938603998,0.00595035077459,0.0,0.818934894179,-0.573743481656,-0.0120334223765,0.0,-0.00644078315686,0.0117783577134,-0.999909889241,0.0,0.284277432186,-0.234631816065,0.30489965441,1.0,-0.133278285714,-0.175165746939,2.448
-0.561746952878,-0.528712607335,-0.134188268865,-2.64740181987,-0.0726714973101,2.10899143867,-0.813915642705,-0.611738217014,0.0360221828475,0.0399924930566,0.0264380648769,0.0195543226941,0.0144365140756,-0.584537441439,0.5738352719,0.818937280219,0.00596311096014,0.0,0.818933528107,-0.573744803283,-0.012063339046,0.0,-0.00645793847921,0.0118059882404,-0.999909452737,0.0,0.282162585714,-0.237366341541,0.304883181231,1.0,-0.123916,-0.162861028572,2.464
-0.571698933269,-0.52806725274,-0.133557741911,-2.64692116977,-0.072323441722,2.10909585634,-0.823395411034,-0.56096244605,0.0441969934684,0.038639095956,0.0328873820757,0.0189429149233,0.00588546031951,-0.546742773711,0.573952627335,0.818854839741,0.00598998417204,0.0,0.818851531732,-0.573862193546,-0.0120456921931,0.0,-0.00642637162166,0.011818791945,-0.999909504858,0.0,0.280060960877,-0.240099523496,0.30489110747,1.0,-0.113968571429,-0.149787265306,2.481
-0.581133799673,-0.527260148441,-0.132788532946,-2.64639938023,-0.071890438337,2.10923105693,-0.8326425495,-0.51416452192,0.0448312353078,0.0332463736058,0.0337017265213,0.0246125984544,0.00821682260415,-0.495562022088,0.57377781133,0.818977214744,0.00600764987485,0.0,0.818973650403,-0.573686445012,-0.0121148526858,0.0,-0.00647540568171,0.0118715691715,-0.999908563303,0.0,0.278104923519,-0.24264100116,0.304864561804,1.0,-0.103436,-0.135944457143,2.499
-0.589049319367,-0.526587957226,-0.132181904678,-2.64591328389,-0.0715549158827,2.10933806243,-0.840109089812,-0.484288914523,0.0395719245602,0.0350292995945,0.028156303533,0.0206205952508,0.00951861118435,-0.445815863387,0.573887455778,0.818900348301,0.00601286577874,0.0,0.818896757618,-0.573795870848,-0.0121303694376,0.0,-0.00648353102975,0.0118856119793,-0.999908343826,0.0,0.276446747679,-0.244783694199,0.304864267705,1.0,-0.0940737142858,-0.123639738776,2.515
-0.596670986897,-0.525835257195,-0.13155618899,-2.64535735113,-0.0711530013342,2.10948222167,-0.847374909602,-0.423253360698,0.0446899205866,0.0410104223608,0.0330934923872,0.0248628255978,0.0161703338651,-0.416319397341,0.573939146905,0.818863822534,0.00605332111029,0.0,0.818860796596,-0.573847442865,-0.0121183751905,0.0,-0.00644974036892,0.0119122666132,-0.999908245167,0.0,0.274875318162,-0.246843761118,0.304869711408,1.0,-0.0841262857144,-0.11056597551,2.532
-0.60333771375,-0.525100968002,-0.13083782935,-2.64486097169,-0.0707200132599,2.1096077268,-0.853851069659,-0.382079929508,0.0447008698077,0.0370284994132,0.0252135063788,0.0305579132419,0.00187023739903,-0.36805728666,0.573799893363,0.818961263686,0.00607271441812,0.0,0.818958129389,-0.573707466145,-0.0121685043796,0.0,-0.00648169691521,0.0119558155421,-0.999907518764,0.0,0.273531255503,-0.248591583161,0.304855299509,1.0,-0.074178857143,-0.097492212245,2.549
-0.609513144616,-0.52446961977,-0.130156500749,-2.6443663606,-0.0703271732387,2.10973821308,-0.859533778235,-0.346329335885,0.0348358134574,0.0423533974157,0.0300423790381,0.0172116572017,0.0140055820846,-0.317691649851,0.573916227163,0.818879773818,0.00606853623295,0.0,0.818876915384,-0.573824404258,-0.0121201250115,0.0,-0.00644277508287,0.0119255502545,-0.99990813173,0.0,0.2722908189,-0.250212699951,0.304877012636,1.0,-0.0642314285715,-0.0844184489797,2.566
-0.614503223912,-0.523869542729,-0.129509889742,-2.64389816957,-0.0699172219409,2.10987525741,-0.864253687543,-0.301380226968,0.0397803963147,0.0377857625251,0.0247621295409,0.0179111806845,0.0022466225658,-0.28380707166,0.573880394799,0.818904746196,0.00608736601441,0.0,0.818902459781,-0.573789104393,-0.0120653199658,0.0,-0.00638760647208,0.0119092388779,-0.999908680087,0.0,0.271328992549,-0.251506912119,0.304897678728,1.0,-0.0548691428572,-0.0721137306124,2.582
-0.619131850648,-0.523300187683,-0.128869022477,-2.64347916965,-0.0694933300126,2.11000244314,-0.868505709502,-0.257706959943,0.0322182185315,0.0412815646613,0.0191460357168,0.0187992212278,0.0100122982337,-0.235736877001,0.573938925657,0.818863467549,0.00612193026447,0.0,0.818861758237,-0.573847712003,-0.0120403997686,0.0,-0.00634651001985,0.011923698256,-0.999908769454,0.0,0.270440034599,-0.252686343099,0.304906084333,1.0,-0.0449217142858,-0.0590399673471,2.599
-0.622744224664,-0.522842775191,-0.12816234478,-2.64316888086,-0.0690930297641,2.11008983677,-0.871805968481,-0.207333099219,0.0267731004759,0.0437347746919,0.015125124504,0.0220222214921,0.00176216693647,-0.187314912356,0.573882049427,0.818903432579,0.00610805674922,0.0,0.818901434773,-0.573790705229,-0.012058756992,0.0,-0.00637033395238,0.0119224301555,-0.999908633078,0.0,0.269786361944,-0.253545479608,0.30490416888,1.0,-0.0355594285715,-0.0467352489797,2.615
-0.626001403196,-0.522496476548,-0.127340761205,-2.64290380528,-0.0686675682887,2.11016415027,-0.874718004619,-0.16393968811,0.0140053660737,0.0489239891929,0.0130309232108,0.0283809704849,0.00557236207222,-0.143148608928,0.573778703077,0.81897620909,0.00605935152324,0.0,0.818973832406,-0.573688064934,-0.012025509894,0.0,-0.00637255154663,0.0118626602027,-0.999909329829,0.0,0.269236790357,-0.254267836671,0.30492400338,1.0,-0.025026857143,-0.0328924408165,2.633
-0.628233549066,-0.522244897244,-0.126686251058,-2.64272610044,-0.0683080424152,2.11023808777,-0.876660997357,-0.129803125268,0.0142580738238,0.0271443377349,0.00778448810721,0.0219509455537,0.00385731873032,-0.105944454697,0.573717371971,0.819019352051,0.00603530989863,0.0,0.81901690439,-0.573627297308,-0.0119908718423,0.0,-0.00635886000896,0.0118226199333,-0.999909891219,0.0,0.268867262903,-0.254765627423,0.30493587195,1.0,-0.0198125,-0.0260392857143,2.65
-0.630176229453,-0.522006105597,-0.126278246735,-2.6425517243,-0.0680184520909,2.11025866028,-0.878312836763,-0.104266615023,0.0157608926623,0.0194017437044,0.0129193981489,0.0125870373612,-0.000892069412375,-0.0978729826055,0.57379697173,0.818963268432,0.00607841215891,0.0,0.818961207838,-0.573706376207,-0.0120116966406,0.0,-0.0063500367853,0.0118704874648,-0.999909380174,0.0,0.268542514288,-0.255181338787,0.304937915458,1.0,-0.0194925,-0.0256187142857,2.666
-0.63190322965,-0.521779232698,-0.126020646112,-2.64236179069,-0.0678540020225,2.11030083242,-0.879941503462,-0.0983070424312,0.0115298967251,0.0136211001493,0.00939819376242,0.0145068179278,0.00538473094916,-0.0983828489466,0.573775153911,0.81897850458,0.00608512044438,0.0,0.818976668017,-0.573684790796,-0.0119885342926,0.0,-0.00632753266258,0.0118625231653,-0.999909617353,0.0,0.26821681448,-0.255620839509,0.304950739125,1.0,-0.0191525,-0.0251718571429,2.683
-0.63349531465,-0.521517692846,-0.125841640136,-2.64216168706,-0.0677336243764,2.11039806173,-0.881422383734,-0.0894961478889,0.0135087737534,0.0076985531833,0.0138177394051,0.0149238523172,0.0124797642111,-0.0862783787071,0.573801331171,0.818960157356,0.00608604238519,0.0,0.818958648935,-0.573711552754,-0.0119386964279,0.0,-0.00628580489947,0.0118348848101,-0.999910208048,0.0,0.26791471968,-0.256055261632,0.304958214286,1.0,-0.0188125,-0.024725,2.7
-0.634884955821,-0.521263382877,-0.125718739402,-2.64200341525,-0.0676957574528,2.11041663143,-0.882822974193,-0.0868108840353,0.0164788050384,0.00875440828097,0.0110142471042,0.00280732549961,-0.000164562917806,-0.0829048303566,0.573730071477,0.819010296215,0.00605695279929,0.0,0.81900799871,-0.573639659185,-0.0120077624858,0.0,-0.00636009522248,0.0118501353715,-0.99990955765,0.0,0.267622393809,-0.256434699739,0.304941205529,1.0,-0.0184925,-0.0243044285714,2.716
-0.636290369801,-0.521044192521,-0.125645891801,-2.64185707906,-0.0676630475867,2.1104153938,-0.884195810375,-0.086765068879,0.00763433131297,-0.000265800167283,0.00732440142036,0.0074044649728,-0.000104912330595,-0.080835837633,0.573726986072,0.819012501739,0.00605097913725,0.0,0.819009714275,-0.573635834199,-0.0120732989649,0.0,-0.00641724787631,0.0118828169024,-0.999908804638,0.0,0.267309148344,-0.256824413827,0.304928779217,1.0,-0.0181525,-0.0238575714286,2.733
-0.637727007907,-0.520800030895,-0.125544674852,-2.64166816445,-0.0676245899886,2.11044888677,-0.885653771011,-0.0808044215926,0.0130451599056,0.00509825955048,0.0104610226238,0.00140363138887,0.00766874666223,-0.0782489987185,0.573664172442,0.819056665887,0.00602845122004,0.0,0.819053518529,-0.573573008034,-0.0120865686736,0.0,-0.00644195176725,0.0118714841617,-0.9999087804,0.0,0.267008804042,-0.257230436478,0.304930144957,1.0,-0.0177925,-0.0233844285714,2.751
-0.638903650878,-0.520607773455,-0.125539279094,-2.64151013694,-0.0675895092707,2.11053404016,-0.88690323476,-0.0798349171228,0.0162126094261,0.000202845207977,0.00697756060541,0.00586797580231,0.00470613464023,-0.0831735432902,0.573623905492,0.819084739424,0.00604579126883,0.0,0.819082172811,-0.57353333198,-0.01202739342,0.0,-0.00638411450852,0.011851428412,-0.999909389258,0.0,0.266756176123,-0.257588385636,0.304938675735,1.0,-0.0174925,-0.0229901428571,2.766
-0.640248735438,-0.520416627704,-0.125555818143,-2.64134371399,-0.0675654171419,2.11055453849,-0.888200167071,-0.0801102121511,0.010664083147,-0.00156610802223,0.010596215705,0.00346152692806,-0.000455266043652,-0.0805181791073,0.573694010233,0.819035455482,0.00607060017635,0.0,0.819033216239,-0.573603325519,-0.0120234168223,0.0,-0.00636561078223,0.011870013935,-0.99990928677,0.0,0.266445578423,-0.257990114704,0.304945373664,1.0,-0.0171525,-0.0225432857143,2.783
-0.641652012101,-0.520228111022,-0.125557959332,-2.64117540652,-0.0675410571339,2.11056590483,-0.889596072978,-0.0752976177541,0.0096859892784,-0.000265094433412,0.0105356387266,0.00130945412978,0.00158850455578,-0.0801731221206,0.573720699784,0.819016614079,0.00609027116449,0.0,0.819014610412,-0.573629887935,-0.0120235809938,0.0,-0.00635407336464,0.0118864272173,-0.999909165174,0.0,0.266121518022,-0.258403027673,0.30495344636,1.0,-0.0167925,-0.0220701428571,2.801
-0.642846766895,-0.520053832509,-0.125553315857,-2.64101782397,-0.0675168288389,2.11060635609,-0.890782733603,-0.0771543174438,0.0127961164578,0.00174386345364,0.0106918327546,0.00194348395859,0.00219076811546,-0.0752163879963,0.573742524742,0.81900123838,0.00610194529616,0.0,0.818999572494,-0.573652007519,-0.011992557087,0.0,-0.00632164764796,0.0118783592653,-0.999909466578,0.0,0.265854715,-0.258760187465,0.304964516241,1.0,-0.0164725,-0.0216495714286,2.817
-0.64408796191,-0.519870870004,-0.125532081986,-2.64085460776,-0.0674829380378,2.11065722793,-0.891997278535,-0.0745371876113,0.0108412881929,0.00178721192456,0.00914098459174,0.00539916810969,0.00181350724147,-0.075280980267,0.573772197943,0.818980373773,0.00611221263785,0.0,0.818979079074,-0.573682079364,-0.011953524856,0.0,-0.00628335637298,0.0118646029374,-0.999909871253,0.0,0.265582622637,-0.25912753384,0.304976230582,1.0,-0.0161325,-0.0212027142857,2.834
-0.645296384524,-0.519657786862,-0.12547090443,-2.64069798981,-0.0674613199292,2.11069449134,-0.893262664778,-0.0680521505124,0.0114223644238,0.00361704826158,0.00940458320894,0.00110861928834,0.000442516419523,-0.067487364044,0.573699680509,0.819031293358,0.00609622717506,0.0,0.819029721948,-0.573609513568,-0.0119660942458,0.0,-0.00630387311115,0.0118581640003,-0.999909818499,0.0,0.265321748058,-0.259474307829,0.304973628327,1.0,-0.0157925,-0.0207558571429,2.851
-0.646486006505,-0.519439212255,-0.125399592106,-2.6405436036,-0.0674362878617,2.11073170183,-0.894416756738,-0.0712777813418,0.0111031506406,0.0015269273541,0.0112648667533,0.000498767726505,0.000151264831753,-0.0682524516979,0.573697094822,0.8190332448,0.00607735187679,0.0,0.819031317124,-0.573606799092,-0.0119870140513,0.0,-0.00633187456512,0.0118546848885,-0.999909682827,0.0,0.265067177365,-0.259812601526,0.304968213669,1.0,-0.0154525,-0.020309,2.868
-0.647574824123,-0.519249530591,-0.125368211516,-2.64040539661,-0.0674176994963,2.11076983697,-0.895535884183,-0.069475637634,0.0123287996509,0.00104638035247,0.0126225671477,2.27119963513e-05,0.00363481846108,-0.0680441778314,0.573665252298,0.819055575511,0.00607366709546,0.0,0.819053554778,-0.573574894189,-0.0119942512081,0.0,-0.0063403774364,0.011855572027,-0.999909618429,0.0,0.264826221553,-0.260129820596,0.304965198125,1.0,-0.0151325,-0.0198884285714,2.884
-0.648706312653,-0.519060346305,-0.12533585418,-2.64026645771,-0.0673957480141,2.11079837565,-0.89668562818,-0.0704894586121,0.0106582617821,0.000891093388628,0.00703614966232,0.0007497291443,0.00711797507975,-0.0685736372857,0.573644055909,0.819070420906,0.00607368240394,0.0,0.819068302177,-0.57355351867,-0.0120093501187,0.0,-0.00635304385826,0.0118640814658,-0.999909437102,0.0,0.264572953022,-0.260456406729,0.304961893391,1.0,-0.0147925,-0.0194415714286,2.901
-0.649804223584,-0.518868043763,-0.125337825584,-2.6401109345,-0.0673663372129,2.11083942871,-0.897776062729,-0.0657958767275,0.0113361125791,6.6902330047e-05,0.0083860268795,0.00518147314324,0.00208835996397,-0.0686086576315,0.573672239893,0.81905054048,0.00609263618567,0.0,0.819048723226,-0.573581719701,-0.0119977793186,0.0,-0.0063322848107,0.0118731874201,-0.999909460696,0.0,0.264326947081,-0.260786575889,0.304965225112,1.0,-0.0144525,-0.0189947142857,2.918
-0.650912439934,-0.518695609705,-0.125336899945,-2.63996790483,-0.0673469788966,2.11088820547,-0.898911001969,-0.065792252719,0.0135632956981,-0.000604835295678,0.0087917125239,0.000271439080715,0.00101564616799,-0.0715691936899,0.573665386566,0.819055268306,0.00610234528457,0.0,0.819053730236,-0.5735751144,-0.0119717178702,0.0,-0.00630546659733,0.0118661372883,-0.999909713863,0.0,0.264076377302,-0.261117841087,0.304970907781,1.0,-0.0141125,-0.0185478571429,2.935
-0.652019026686,-0.518525829871,-0.125325039577,-2.63982096421,-0.0673295037624,2.11091082091,-0.899988514513,-0.0657710021425,0.00812733487673,0.00341254025228,0.00613210916387,0.00223640937502,0.00302309966498,-0.05803654608,0.573695856368,0.819033894685,0.00610660663125,0.0,0.819032447346,-0.573605626595,-0.0119658778946,0.0,-0.00629779690432,0.0118665120072,-0.999909757752,0.0,0.263824870659,-0.261443618928,0.304977360808,1.0,-0.0137725,-0.018101,2.952
-0.652998038176,-0.518358157914,-0.125321166555,-2.63967316145,-0.0673080546978,2.1109566317,-0.900955218212,-0.0628511118016,0.00530707274152,0.00193361576236,0.00796029057103,3.8191825087e-05,0.00583743009235,-0.0557833248952,0.573719965246,0.81901695212,0.00611396098433,0.0,0.819015793837,-0.573630065242,-0.0119341777101,0.0,-0.00626726268005,0.0118545348667,-0.999910091669,0.0,0.26360887581,-0.261740394916,0.304986766471,1.0,-0.0134525,-0.0176804285714,2.968
-0.654004495628,-0.518164248646,-0.125325768631,-2.63952833351,-0.0672865954342,2.11100131332,-0.901985341534,-0.0567877418815,0.0136106500472,-0.000160159351989,0.00730843942848,0.000986800359226,0.00109070976519,-0.0660072638572,0.573720617541,0.819016390843,0.00612792304965,0.0,0.819015410787,-0.573630653888,-0.0119321713802,0.0,-0.00625759991098,0.0118648245813,-0.999910030143,0.0,0.263382065115,-0.262044700667,0.304984847936,1.0,-0.0131125,-0.0172335714286,2.985
-0.655065485819,-0.517967969701,-0.125310189411,-2.63940015016,-0.0672707864097,2.11101034238,-0.903030556074,-0.0605492488317,0.00675460711011,0.00192036584064,0.00580193240497,-0.000466051623641,0.000484120866607,-0.0554274147235,0.573736105876,0.819005494638,0.00613412329463,0.0,0.81900425684,-0.573645472697,-0.011985233967,0.0,-0.00629728165873,0.0119004636753,-0.999909357496,0.0,0.263135055976,-0.262349981926,0.30497191329,1.0,-0.0127525,-0.0167604285714,3.003
-0.655984576,-0.517802064277,-0.125285308623,-2.63927938889,-0.0672563984602,2.11103817928,-0.903893846455,-0.0561045194335,0.0121102911988,0.00211813282617,0.00815980348127,0.000479890172148,0.00387357814802,-0.0561140349869,0.573776656503,0.818977117152,0.0061300029016,0.0,0.818975753916,-0.573685896503,-0.0119980644842,0.0,-0.00630956553116,0.0119047622756,-0.999909228889,0.0,0.262928824194,-0.26261710858,0.304968613296,1.0,-0.0124325,-0.0163398571429,3.019
-0.656880370459,-0.517639355213,-0.125259972604,-2.63915033105,-0.0672448649344,2.11109149514,-0.904780112468,-0.0552365020152,0.0104781493196,0.00105964916118,0.0114552217189,-0.000429627608032,0.0017412738377,-0.0592170323008,0.573771282837,0.818980968167,0.00611846984032,0.0,0.818979589132,-0.573680825682,-0.0119787199406,0.0,-0.00630041612694,0.0118841762302,-0.999909531464,0.0,0.262722187501,-0.262897606523,0.304969833362,1.0,-0.0120925,-0.015893,3.036
-0.657835199511,-0.517464313611,-0.125237749676,-2.63900770425,-0.0672325476035,2.11113001428,-0.905788482929,-0.0556041173187,0.00811626183834,-0.00102906405389,0.0127767036134,-0.000279016248973,0.00636069847854,-0.0612574197943,0.573731156223,0.819009126864,0.00611206952629,0.0,0.819007763326,-0.573640920421,-0.0119634832398,0.0,-0.00629218991794,0.0118698839957,-0.999909753028,0.0,0.262523778719,-0.263167935676,0.304976532298,1.0,-0.0117525,-0.0154461428571,3.053
-0.658724442614,-0.517292839058,-0.125194196668,-2.63887843051,-0.0672157070016,2.11114928075,-0.906675616159,-0.0534980383617,0.00735420009678,0.0030783452062,0.00553000455499,0.00912733148004,0.00339995841468,-0.0544573729184,0.573715936433,0.819019870139,0.00610110659701,0.0,0.819018257449,-0.573625548791,-0.0119820966907,0.0,-0.00631394621869,0.0118714660794,-0.999909597102,0.0,0.262329405267,-0.263423354481,0.304974731439,1.0,-0.0114125,-0.0149992857143,3.07
-0.659593669974,-0.517130146862,-0.125154715797,-2.63876615182,-0.067204946501,2.11117853401,-0.907544203519,-0.0474697241688,0.00982503871758,-0.000829717424907,0.00669674944358,0.000424201906694,0.0011507821478,-0.0513104821778,0.573698967422,0.819031855079,0.00608786062259,0.0,0.819029973574,-0.573608457726,-0.0119994380663,0.0,-0.0063359956643,0.0118704340957,-0.999909469879,0.0,0.26213651891,-0.26367204782,0.304969190729,1.0,-0.0110725,-0.0145524285714,3.087
-0.660442535448,-0.516971848862,-0.125139342792,-2.63866102355,-0.0671890567686,2.11122050077,-0.90837866213,-0.0456647827022,0.00811570827464,0.000801718409398,0.0103550137816,0.00285973776676,0.00655313743814,-0.0508050042561,0.573712215593,0.819022560462,0.00608983040126,0.0,0.819020662548,-0.573621616082,-0.0120059478713,0.0,-0.00634000587469,0.0118758845312,-0.99990937974,0.0,0.261944381841,-0.263920007631,0.304962532995,1.0,-0.0107325,-0.0141055714286,3.104
-0.661221271091,-0.516822317286,-0.125137237221,-2.63855382127,-0.0671756431449,2.1112681781,-0.909161655818,-0.0461724732553,0.00729749525525,-0.000370739482994,0.00675152356648,-0.000100812926161,0.0012101063402,-0.0456711206575,0.573718588634,0.819018063842,0.00609418235678,0.0,0.819016279838,-0.573628076872,-0.0119962362926,0.0,-0.00632946197808,0.0118739269271,-0.999909469787,0.0,0.261768941213,-0.264154095625,0.304960215925,1.0,-0.0104125,-0.013685,3.12
-0.662022587642,-0.516659641568,-0.125139205985,-2.63842894049,-0.0671612654778,2.11128032446,-0.909937076872,-0.0434387068398,0.00948930443728,0.000587801921889,0.0105517562028,0.000163587421854,2.85782023589e-05,-0.0535314595198,0.573753867916,0.818993280128,0.00610352833165,0.0,0.818991477462,-0.573663046176,-0.0120173290687,0.0,-0.00634086517847,0.0118939557167,-0.999909159497,0.0,0.261584665998,-0.26439406902,0.304957947948,1.0,-0.0100725,-0.0132381428571,3.137
-0.662750478583,-0.516521756669,-0.125136840511,-2.63831276467,-0.0671461696411,2.11130261433,-0.910619858379,-0.0486026397958,-0.000596912321891,0.000122885595962,0.00435096102085,0.000156211609764,0.000461184396463,-0.045612750049,0.573797962256,0.818962344145,0.0061093604231,0.0,0.818960594008,-0.57370706262,-0.0120207596466,0.0,-0.00633968833441,0.011901041963,-0.999909082643,0.0,0.261411046945,-0.264623709149,0.304957935869,1.0,-0.0097325,-0.0127912857143,3.154
-0.663479385103,-0.516363198426,-0.125115014671,-2.63821398113,-0.0671266298668,2.11133700345,-0.911365884372,-0.040011803931,0.00870114927225,0.00251033926305,0.00588692001163,-0.000203774941523,0.00142664636047,-0.0432596765507,0.5737856878,0.818970924708,0.0061119440827,0.0,0.818969122235,-0.573694618417,-0.0120336414102,0.0,-0.00634893524169,0.011910454007,-0.999908911905,0.0,0.261258692486,-0.264824946149,0.304951673596,1.0,-0.0094125,-0.0123707142857,3.17
-0.66418227686,-0.516216471965,-0.125089269332,-2.63812977936,-0.0671085165063,2.11136742272,-0.912107087648,-0.0450456731941,0.0112427476611,0.0017743822616,0.00436151112985,0.000952316233368,-8.51849724328e-05,-0.0500301350718,0.57374831777,0.818997091338,0.00611384793919,0.0,0.818995131604,-0.57365690692,-0.0120612790894,0.0,-0.0063710240558,0.0119275799281,-0.999908567265,0.0,0.261100401206,-0.265024821545,0.304939003221,1.0,-0.0090725,-0.0119238571429,3.187
-0.664875031644,-0.516093859458,-0.125055696019,-2.63804953575,-0.0670879234144,2.11139269539,-0.912780750899,-0.0451201099854,0.00615347057435,0.0016089979489,0.00482117551728,0.000179357411529,0.000206712642392,-0.0367254231068,0.573753160044,0.818993703768,0.00611321754425,0.0,0.818991654629,-0.573661598977,-0.0120742042778,0.0,-0.00638190200157,0.0119345167875,-0.999908415124,0.0,0.260945447289,-0.26521867343,0.304933173283,1.0,-0.0087325,-0.011477,3.204
-0.665498063803,-0.515965407267,-0.125023373403,-2.63797682594,-0.067068630063,2.11140988839,-0.913395803039,-0.0367851320092,0.00566760728181,0.0030899101372,0.0051729088405,0.000418344301428,-3.18362715929e-05,-0.0383939429662,0.573748920326,0.818996668123,0.00611399450095,0.0,0.818994406113,-0.573656940305,-0.0121088602861,0.0,-0.00640990426114,0.0119550029817,-0.999907991283,0.0,0.260805369046,-0.265391437294,0.304921041935,1.0,-0.0084125,-0.0110564285714,3.22
-0.666140873533,-0.515848301174,-0.125009218879,-2.63790139634,-0.0670462564881,2.11142695614,-0.914019269453,-0.0373829621486,0.00587445035431,0.001857806213,0.00274779035125,0.00020154184641,7.12286410439e-05,-0.0332661075557,0.573768279531,0.818983020294,0.00612542043592,0.0,0.818980769497,-0.573675987979,-0.0121287638036,0.0,-0.00641936858469,0.0119759320563,-0.999907680118,0.0,0.260657010486,-0.265573783983,0.304913891927,1.0,-0.0080725,-0.0106095714286,3.237
-0.666790546717,-0.515718857903,-0.124996943939,-2.63781867512,-0.0670256008627,2.11145243522,-0.91468622691,-0.0386857814717,0.00719739794309,0.000629372163623,0.00296024192506,-1.90987263797e-06,0.00148762509502,-0.0346417504026,0.573758630011,0.818989706663,0.00613528885978,0.0,0.818987466685,-0.573666076636,-0.0121453213338,0.0,-0.00642740981485,0.011993438521,-0.999907418632,0.0,0.260508811416,-0.265761301154,0.30490616872,1.0,-0.0077125,-0.0101364285714,3.255
-0.66734789397,-0.515638197576,-0.124983774759,-2.63774505461,-0.0670012882067,2.11146885296,-0.91525449579,-0.0385576301376,0.00220665357963,0.00297144452775,0.00666121866618,0.00715113658165,0.000238316355682,-0.0302063813616,0.573754469772,0.818992536726,0.0061465522056,0.0,0.818990521063,-0.573662011704,-0.0121313493523,0.0,-0.00640956448062,0.0119946148424,-0.999907519073,0.0,0.260383178211,-0.265921321305,0.304911563263,1.0,-0.0073925,-0.00971585714286,3.271
-0.66791903816,-0.515551017737,-0.124962845896,-2.63767161491,-0.0669809684091,2.11148234139,-0.91580911797,-0.0313368504605,0.00700310021416,0.00504126063095,0.00314566954271,0.000142250666727,0.000713303649061,-0.0299641291095,0.573765590382,0.818984710825,0.00615122994939,0.0,0.818982775959,-0.573673146182,-0.0121276928107,0.0,-0.00640372284312,0.0119964351736,-0.999907534664,0.0,0.260254502457,-0.266083019493,0.304914397336,1.0,-0.00705250000001,-0.00926900000001,3.288
-0.668455184251,-0.515479518503,-0.124939175215,-2.63758794523,-0.0669563330311,2.11150229077,-0.91631911833,-0.0320896438534,0.00435192653016,0.00215878935076,0.00404207051656,0.000153008840673,7.43412828735e-05,-0.0249527983086,0.573784873449,0.818971178599,0.00615422829767,0.0,0.818969511219,-0.573692840476,-0.012091789847,0.0,-0.00637231335609,0.0119784420701,-0.999907951038,0.0,0.260139707092,-0.266238398244,0.304928282516,1.0,-0.00671250000001,-0.00882214285715,3.305
-0.668898517302,-0.515397106738,-0.124902608039,-2.63751282005,-0.0669308296253,2.11153275392,-0.916751629025,-0.0236769826723,0.0017949566167,0.00466761407599,0.0028015089245,0.00393250860187,0.00120365622622,-0.0299387714188,0.573786988807,0.818969734185,0.00614921672262,0.0,0.818968171932,-0.57369529785,-0.0120658811872,0.0,-0.00635393712231,0.011959488669,-0.999908294852,0.0,0.26004593279,-0.266375342679,0.3049358542,1.0,-0.00639250000001,-0.00840157142858,3.321
-0.669420220165,-0.515298847864,-0.124849368585,-2.6374119726,-0.0669049107664,2.1115558965,-0.917259717009,-0.0254807971927,0.00774290408849,0.000672219051791,0.0076313169021,0.000236953840905,0.000561542996099,-0.0225698057252,0.573771923705,0.818980365115,0.00613905734931,0.0,0.818978863206,-0.573680642569,-0.0120369790679,0.0,-0.00633631314064,0.01193446862,-0.99990870563,0.0,0.259951359252,-0.266515336459,0.304948229364,1.0,-0.00605250000001,-0.00795471428572,3.338
-0.669877530664,-0.515216506509,-0.124811604324,-2.63733699164,-0.0668852582979,2.11157610741,-0.917731406032,-0.0300163472212,0.00577660467333,-0.000155514388246,0.0103515139492,0.000159709893943,-9.05271684372e-05,-0.0333370086853,0.573745517754,0.81899891398,0.00613242683807,0.0,0.81899742876,-0.573654464597,-0.0120213906671,0.0,-0.0063277336949,0.0119198903197,-0.999908933854,0.0,0.259857879511,-0.266645144602,0.30495450883,1.0,-0.00571250000001,-0.00750785714286,3.355
-0.670285021975,-0.515133977984,-0.124784352302,-2.63727926246,-0.0668621369963,2.11160146703,-0.918162083691,-0.0287592223427,0.00509585412245,0.00213206406597,0.00658652896384,0.00634078641819,-0.000144806445035,-0.0269375275196,0.573720053718,0.819016728333,0.00613559894563,0.0,0.819015303138,-0.573629027732,-0.012017431946,0.0,-0.00632304187582,0.0119200206294,-0.999908961981,0.0,0.259772512881,-0.266760126969,0.304953074592,1.0,-0.00539250000001,-0.00708728571429,3.371
-0.670693856208,-0.515075028463,-0.12476767367,-2.63724362023,-0.0668457864633,2.11161659338,-0.918583066871,-0.0242375394923,0.0059284741005,0.000895123594369,0.00403144053547,0.000413669203834,-0.000214387680284,-0.0306334338781,0.573707135147,0.819025731214,0.00614179072296,0.0,0.819024347575,-0.573616011871,-0.0120223086872,0.0,-0.00632367241349,0.0119277900615,-0.999908865343,0.0,0.25967771981,-0.266871551085,0.304949187545,1.0,-0.00505250000001,-0.00664042857144,3.388
-0.67111557652,-0.515010314143,-0.124758986031,-2.63721087921,-0.0668213817568,2.11162832683,-0.918979353165,-0.0277917022499,0.000894617332906,0.00336563545413,0.00544729403369,0.000247313912198,0.000254865249749,-0.0235335602192,0.573734015036,0.819006767385,0.00615969718895,0.0,0.819005500192,-0.573642589003,-0.0120381742492,0.0,-0.00632600332932,0.0119517660315,-0.999908564305,0.0,0.259577083208,-0.266985859509,0.304941380395,1.0,-0.00469250000001,-0.00616728571429,3.406
-0.671446801803,-0.514968801849,-0.124751982676,-2.63718184163,-0.0668035340572,2.11163421396,-0.919293341922,-0.0167218978281,0.00327428747108,0.0010889927682,0.00319189121492,-5.33547471736e-06,1.69749745553e-05,-0.0238693650377,0.573755869463,0.81899137191,0.00617105302313,0.0,0.818990223442,-0.573664334695,-0.0120412585011,0.0,-0.00632169550468,0.0119630051599,-0.999908457147,0.0,0.259493875209,-0.267080629906,0.30494005156,1.0,-0.00437250000001,-0.00574671428572,3.422
-0.671827388472,-0.514916575488,-0.12473320115,-2.63715159521,-0.0667887899255,2.11163735958,-0.919637981702,-0.0205461078367,0.0017261388724,0.00177030920623,0.00324908951996,-0.000279642554513,-0.000114738149111,-0.0190576833474,0.573776321276,0.818976999386,0.00617693458327,0.0,0.818975820612,-0.573684554384,-0.0120575377098,0.0,-0.0063313559879,0.0119773203005,-0.999908224654,0.0,0.259408381482,-0.267176949608,0.30493508512,1.0,-0.00403250000001,-0.00529985714286,3.439
-0.672155929516,-0.514866816102,-0.124706794354,-2.63710663579,-0.0667742348437,2.11164153378,-0.919946888811,-0.0188880771531,0.0066852193213,0.00109975223632,0.00160875399416,0.000849176196828,0.000443259340896,-0.0225550859411,0.573782139945,0.818972938518,0.00617484866641,0.0,0.818971744545,-0.573690403522,-0.0120560957543,0.0,-0.0063312866407,0.0119748295585,-0.999908254925,0.0,0.259337480366,-0.267266533942,0.304938113469,1.0,-0.00369250000001,-0.00485300000001,3.456
-0.672420087049,-0.514809416757,-0.124685156215,-2.63705411728,-0.0667605730709,2.11164811294,-0.920215054796,-0.0172018935044,0.00046594509128,0.00396499778475,0.00172503932806,0.00327392708863,0.000270701165232,-0.0171031680387,0.57377198438,0.818980069488,0.00617273231612,0.0,0.818978870724,-0.573680302388,-0.0120526702737,0.0,-0.00632984366567,0.0119710523614,-0.999908309289,0.0,0.259284512573,-0.267342709788,0.30494184525,1.0,-0.00337250000001,-0.00443242857144,3.472
-0.672685234192,-0.514755062297,-0.124664948584,-2.63700631576,-0.066746362923,2.11166376663,-0.920480780472,-0.0179437324503,-0.000530150968645,0.00412733967513,0.00134614686577,-3.18808369035e-05,-7.70034367136e-05,-0.0130269188152,0.573765649502,0.81898451962,0.00617114053855,0.0,0.81898337008,-0.573674108088,-0.0120417666187,0.0,-0.00632191862174,0.011963443854,-0.999908450487,0.0,0.259231404596,-0.267419509294,0.304945298912,1.0,-0.00303250000001,-0.00398557142858,3.489
-0.672921539708,-0.514718743962,-0.124638291246,-2.63698080486,-0.0667362592366,2.1116748928,-0.920702232616,-0.0084635969126,-0.000911432787547,7.28043175089e-05,0.00419209581292,9.75609747659e-05,-0.000216681367103,-0.0163005853582,0.573764509727,0.818985359468,0.00616565131742,0.0,0.818984154013,-0.573673021697,-0.0120402057068,0.0,-0.00632380612976,0.0119580436819,-0.999908503148,0.0,0.259181755653,-0.267481675025,0.304945051514,1.0,-0.00269250000001,-0.00353871428572,3.506
-0.673137805225,-0.514686535269,-0.1246035582,-2.63696373526,-0.0667248550905,2.11168625849,-0.920905913837,-0.0129691084811,0.00105741110264,0.00421702088061,0.000203982777808,-0.000354930496895,0.00355049565793,-0.0125831414184,0.573755918276,0.818991434296,0.0061582216393,0.0,0.818990122502,-0.573664445999,-0.0120428212308,0.0,-0.00633033650637,0.0119533927886,-0.999908517436,0.0,0.259137619218,-0.267534671878,0.304942697922,1.0,-0.00237250000001,-0.00311814285715,3.522
-0.673358653515,-0.514658009646,-0.124580577668,-2.6369410439,-0.0667073031148,2.11170158336,-0.92111587831,-0.0105826648595,0.000270291379515,0.0024734466352,0.00207155731248,9.0715171097e-05,0.000186466587984,-0.00611586766056,0.573757151135,0.818990556406,0.00616010874317,0.0,0.818989340681,-0.573665805564,-0.0120312209684,0.0,-0.00631973428509,0.0119482925072,-0.99990864546,0.0,0.259092127986,-0.267592869256,0.304944323938,1.0,-0.00201250000001,-0.00264500000001,3.54
-0.673553535248,-0.514644776607,-0.124563062308,-2.63692228583,-0.0666979109797,2.11171162245,-0.92129259425,-0.0177356580114,-0.00114508410256,0.00151338312392,-0.00164534607838,-0.000559094981836,0.000268362844816,-0.0028285810913,0.573764499335,0.818985425608,0.00615782799026,0.0,0.81898428953,-0.573673368791,-0.0120144223207,0.0,-0.00630717628285,0.0119368432105,-0.999908861498,0.0,0.259050234039,-0.267644790975,0.304949228503,1.0,-0.00167250000001,-0.00219814285715,3.557
-0.673723266071,-0.514631965093,-0.124540649963,-2.63689847418,-0.0666883618524,2.11171692204,-0.921437890259,-0.00698929521853,-0.00146429497988,-0.000484849216818,0.00334543078868,0.000110214778937,0.00151148284441,-0.0113397259442,0.573773799671,0.818978948827,0.00615264906155,0.0,0.818977860181,-0.573682906562,-0.0119972560645,0.0,-0.00629595178042,0.011922824112,-0.999909099497,0.0,0.259016583194,-0.267689773168,0.304956294758,1.0,-0.00135250000001,-0.00177757142858,3.573
