nelsonifechukwu/NELSON_IML_WORK/CNN-GradCAM/train2dof/data_sample_2022-02-22-15-31-28/robot_state.csv
position_joint1,position_joint2,position_joint3,position_joint4,position_joint5,position_joint6,position_joint7,velocity_joint1,velocity_joint2,velocity_joint3,velocity_joint4,velocity_joint5,velocity_joint6,velocity_joint7,ee_T_00,ee_T_10,ee_T_20,ee_T_30,ee_T_01,ee_T_11,ee_T_21,ee_T_31,ee_T_02,ee_T_12,ee_T_22,ee_T_32,ee_T_03,ee_T_13,ee_T_23,ee_T_33,v_x,v_y,time
0.465044592343,0.547789530796,-0.123988148004,-1.35584727385,0.079598807567,1.89409473546,0.159163552424,0.000782362980638,-0.00386573819717,0.000237374870039,-0.000506905258525,-7.1660243524e-05,-0.00033867269532,0.000167223440094,0.573859824063,0.818939404787,0.00197497181491,0.0,0.818895650558,-0.573800228695,-0.011998247697,0.0,-0.00869276591113,0.00850277184641,-0.999926066613,0.0,0.661674380252,0.260885251778,0.303201341345,1.0,0.0,0.0,0.0
0.465041814061,0.547796303161,-0.123992861313,-1.3558504617,0.0795938580798,1.89409791438,0.159160162676,-0.00161623219162,-0.00040710462816,-0.0014487709068,-0.0016862009741,-0.000155967884994,-0.000165524642945,-0.00103058943264,0.573861513164,0.818938244906,0.00196510588762,0.0,0.818894431511,-0.573802027482,-0.0119954240593,0.0,-0.00869609721028,0.00849308998868,-0.999926119929,0.0,0.661676188012,0.260879630349,0.303195449447,1.0,-0.00032,-0.000420571428571,0.017
0.465038866697,0.547793896949,-0.123986190229,-1.35585142693,0.0795945350271,1.8940963885,0.159159043823,-0.000586290305281,-0.0016067625127,9.29050903238e-05,0.000364907578837,7.8857206043e-05,-0.000453012207919,0.000559006098366,0.573858567001,0.818940304291,0.00196722887383,0.0,0.818896475034,-0.573799030113,-0.011999296619,0.0,-0.00869808106961,0.00849701954709,-0.999926069289,0.0,0.66167492491,0.260881464092,0.303196342542,1.0,-0.00058,-0.000762285714286,0.03
0.465041356168,0.547762716355,-0.123988552776,-1.35588760507,0.0795948147664,1.89410479353,0.159162414735,0.00202358384122,-0.00636664184786,0.000763587666942,-0.00365116266747,0.000158690889054,-0.000315645629273,0.000963935961155,0.573862992549,0.818937193531,0.00197122686752,0.0,0.818893400186,-0.573803422229,-0.0119991112923,0.0,-0.00869558922107,0.00850023424207,-0.99992606364,0.0,0.661669010056,0.260878476281,0.303202021092,1.0,-0.001,-0.00131428571429,0.051
0.465040699761,0.547657499723,-0.123986046162,-1.35599451024,0.0795947688552,1.89411825176,0.159153349028,0.00014703911143,-0.00995745831217,-0.00396613381094,-0.0108493906327,-8.07958817895e-05,-0.000490285718244,-0.0058130126101,0.573860087153,0.818939190301,0.00198742636841,0.0,0.818895503672,-0.573800345934,-0.0120026652335,0.0,-0.00868923430473,0.00851550898386,-0.999925988918,0.0,0.661649567944,0.260869094677,0.303226760674,1.0,-0.00126,-0.001656,0.064
0.465035365196,0.54751331596,-0.123986022834,-1.35620174534,0.0795929829502,1.89415575364,0.159157954808,-0.000254347141777,-0.0056054342497,-0.000190067707794,-0.0104969102385,0.000425475951539,0.00247642314573,5.07180706443e-05,0.573879057403,0.818925931571,0.00197306254536,0.0,0.818881905557,-0.573819226434,-0.0120277606948,0.0,-0.00871783175354,0.00851834919177,-0.999925715809,0.0,0.661614826034,0.260845125648,0.303233516396,1.0,-0.00164,-0.00215542857143,0.083
0.465021878873,0.547394179727,-0.123993556378,-1.35636663238,0.0795885522314,1.89423119897,0.159154039166,0.000262141953197,-0.00719922158234,-0.000262319065095,-0.0125310551339,-0.000945279762914,0.00651770557891,0.00140686434281,0.573900303787,0.818910979334,0.00199903513411,0.0,0.818867303763,-0.573840370453,-0.0120131164733,0.0,-0.00869071323723,0.0085314399605,-0.999925840268,0.0,0.661600712099,0.260818245748,0.303246221369,1.0,-0.0019,-0.00249714285714,0.096
0.464998198759,0.547167327414,-0.123986082334,-1.35663656921,0.0795870226927,1.89439536919,0.159137970042,-0.00175374381577,-0.00673152864026,0.000573301456219,-0.016787119345,-0.000352785408301,0.0094939417962,0.000975658696496,0.573916385117,0.818899429044,0.00211066493792,0.0,0.818857137712,-0.573855910062,-0.0119636703213,0.0,-0.00858599055355,0.00859464494683,-0.999926203699,0.0,0.661582103163,0.260788764117,0.303292434763,1.0,-0.00232,-0.00304914285714,0.117
0.464976440904,0.546990952611,-0.123988792478,-1.35683557616,0.079586075265,1.89449051046,0.159129217475,-0.00361819781148,-0.0131347783428,-0.000518489771073,-0.0132260044567,0.000239037973578,0.0156436752319,0.00181125906297,0.573939882249,0.818882784369,0.00217805629003,0.0,0.818841325373,-0.573879081303,-0.011934437751,0.0,-0.00852312876927,0.00863329851451,-0.999926408509,0.0,0.66156644839,0.260757813489,0.303330988977,1.0,-0.00258,-0.00339085714286,0.13
0.464938151517,0.546688556382,-0.123986874708,-1.35729403285,0.0795738543787,1.89465700038,0.159093225238,-0.000691960590474,-0.0153603385439,8.52901009719e-05,-0.0251780248912,2.16249243999e-05,0.0123869066959,-0.0037826385936,0.573962820188,0.818866659684,0.00219581462549,0.0,0.818825280523,-0.573901790312,-0.0119432806774,0.0,-0.00851993644436,0.0086531541866,-0.999926264084,0.0,0.661512687457,0.260692469129,0.303341319527,1.0,-0.003,-0.00394285714286,0.151
0.464906963544,0.546475970668,-0.12398916439,-1.35760472042,0.0795705048765,1.89477429864,0.158982892519,-0.00335960855666,-0.015429700479,-0.000170802801011,-0.0260627263089,-0.000723707187433,0.0065525525937,-0.01018367534,0.573916110769,0.818899329299,0.00222107527556,0.0,0.81885815104,-0.573854853466,-0.0119449792482,0.0,-0.00850732446038,0.00867432863451,-0.999926188003,0.0,0.661479242677,0.260643848263,0.303354247616,1.0,-0.00326,-0.00428457142857,0.164
0.464857933711,0.54612824648,-0.123986708401,-1.35816656572,0.0795537307227,1.89497203517,0.158924754149,-0.00417994789845,-0.0182998973555,0.000340185107196,-0.0269449511537,3.26861082124e-06,0.00893272822004,-0.000872402845102,0.573933884692,0.818886883902,0.00221681661929,0.0,0.818845465339,-0.573872454223,-0.0119690049554,0.0,-0.00852925539207,0.00868481495576,-0.999925910151,0.0,0.661412039579,0.260561415562,0.303350117617,1.0,-0.00366,-0.00481028571429,0.184
0.464817078485,0.545881615154,-0.123987054438,-1.35858033194,0.0795353300564,1.89511186074,0.158896507818,-0.00189134098684,-0.0209336289773,-0.00279227387115,-0.0321221369626,0.000280291102613,0.013874845275,-0.00456024698457,0.573962658508,0.818866770821,0.00219663008036,0.0,0.818825008444,-0.573901225547,-0.0119889851126,0.0,-0.00855689757614,0.00868005253003,-0.999925715337,0.0,0.661363176103,0.260494823646,0.303339927093,1.0,-0.00392,-0.005152,0.197
0.464736146944,0.545439256318,-0.123986737779,-1.35933097058,0.079460482712,1.89537373645,0.158771559909,-0.00702504795312,-0.0273625387948,0.000552027641294,-0.0356935272016,-0.0116982771432,0.0185084002986,-0.0128338477823,0.573948438191,0.818876886802,0.00214043474147,0.0,0.818834617415,-0.573887468173,-0.0119912509063,0.0,-0.00859115494281,0.00863518804641,-0.99992581004,0.0,0.661279833654,0.260363837552,0.30331842183,1.0,-0.00434,-0.005704,0.218
0.464690600428,0.545160330022,-0.123989243758,-1.35982669658,0.079429913322,1.89552395704,0.158733722846,-0.00370927531774,-0.0218774389615,0.00135455131256,-0.0407579076319,-0.000745079760088,0.0138471772621,0.000477032855637,0.573976725886,0.818857214619,0.00208017011006,0.0,0.818814104641,-0.573915951061,-0.0120287181516,0.0,-0.00865612649121,0.00860764261121,-0.999925487205,0.0,0.661211570145,0.260277461945,0.303292239533,1.0,-0.0046,-0.00604571428571,0.231
0.464597829561,0.544605470579,-0.123994945382,-1.36074255482,0.0793982519894,1.89584204545,0.158612586447,-0.00532223126274,-0.0303830291872,-0.00095481266351,-0.041840463631,-1.68905619652e-05,0.0144321031628,-0.00970024965289,0.573999308576,0.818841442936,0.00205717925833,0.0,0.818797819214,-0.573938417083,-0.0120653035029,0.0,-0.00869904380612,0.0086100555291,-0.999925093985,0.0,0.661112069637,0.260132714112,0.303277570818,1.0,-0.00502,-0.00659771428571,0.252
0.464545847212,0.544228378721,-0.12399805091,-1.36137763827,0.0793733221042,1.89607851362,0.158539088398,-0.00316888396585,-0.0255707450102,-0.000614833193673,-0.0442968874486,-0.000526215274578,0.0183920282533,-0.00153673515362,0.57401273093,0.818832066355,0.00204419682787,0.0,0.818788158374,-0.573951780335,-0.0120852164582,0.0,-0.00872266029435,0.00861099804749,-0.999924880134,0.0,0.661038699818,0.260038124905,0.303262758144,1.0,-0.0053,-0.00696571428571,0.266
0.464466641365,0.543663089255,-0.123995952885,-1.36230760695,0.0793298286924,1.89640011195,0.158417962478,-0.00229346200194,-0.0297282493256,-2.64502207492e-05,-0.049738996255,-0.000265500146871,0.0228953852541,-0.0101389512384,0.574017100012,0.818829076671,0.00201469421645,0.0,0.818784608385,-0.573956105343,-0.0121202768851,0.0,-0.00876825790101,0.00860701251561,-0.999924515646,0.0,0.660926228076,0.259898798279,0.303247907007,1.0,-0.00568,-0.00746514285714,0.285
0.464402000201,0.543184096788,-0.124001335301,-1.36305663696,0.0792839805163,1.89666271563,0.158333226154,-0.000336992547951,-0.0311454330433,-0.000189115118607,-0.0518422557922,-0.00216885624964,0.0224137000773,-0.00435370532435,0.574033817784,0.818817376228,0.00200682045664,0.0,0.818772811499,-0.573972861909,-0.0121236893383,0.0,-0.00877539596693,0.00860270333265,-0.99992449011,0.0,0.660839318646,0.259780737021,0.30325317046,1.0,-0.00598,-0.00785942857143,0.3
0.464315453464,0.542574984816,-0.124007288065,-1.36401349514,0.0792302956414,1.89700443577,0.158207679455,-0.00534118707587,-0.0345065623277,-0.00189717067045,-0.0519008787942,-5.17797547979e-05,0.0189007395196,-0.0030369517797,0.574044912572,0.818809608614,0.00200252179952,0.0,0.818764953497,-0.573983940688,-0.0121298663442,0.0,-0.00878280485622,0.0086028483646,-0.999924423814,0.0,0.660729871639,0.259629014695,0.303258373839,1.0,-0.00634,-0.00833257142857,0.318
0.464242015728,0.542013220279,-0.124004238416,-1.36488196937,0.0791853588139,1.89733309632,0.158074275332,-0.00644719817086,-0.0363595899946,8.34482889501e-05,-0.0494898181093,-0.00248427488536,0.0206400188758,-0.0159542394902,0.574030017568,0.818819993487,0.00202585727359,0.0,0.818775562412,-0.573968865466,-0.0121271090479,0.0,-0.00876730914856,0.00862021301416,-0.999924410252,0.0,0.660630849503,0.259501579572,0.303270663436,1.0,-0.00666,-0.00875314285714,0.334
0.464149661429,0.541336694216,-0.124005224928,-1.36592671974,0.0791245608897,1.89771364204,0.157946989011,-0.00441322681213,-0.0395257160993,-0.000309130506423,-0.0584623867794,-0.00550789124345,0.0219711940973,-0.00252045999588,0.574043846232,0.81881027034,0.00203732425321,0.0,0.818765958147,-0.573982611547,-0.0121249462788,0.0,-0.00875881047919,0.00862850866697,-0.999924413182,0.0,0.660511096216,0.259340854237,0.303284729458,1.0,-0.00702,-0.00922628571429,0.352
0.464080737523,0.540803656367,-0.124005224916,-1.36673319025,0.0790784699871,1.89800796767,0.1578515832,-0.00305798563898,-0.0462645315412,-0.00102544664582,-0.0618164750355,-0.00429613564609,0.0143192613102,-0.00890028005779,0.574054539011,0.818802725217,0.00205677403259,0.0,0.818758635382,-0.573993186451,-0.0121188199547,0.0,-0.00874251684507,0.00864103146929,-0.999924447633,0.0,0.660418090184,0.259219116518,0.303303181531,1.0,-0.00728,-0.009568,0.365
0.463965803599,0.539952753641,-0.124003841803,-1.36803678817,0.0789979214226,1.89848441,0.157693355345,-0.00646132046464,-0.0466044193673,-0.000229713468924,-0.0639780835733,-0.0102664024308,0.0295005433837,-0.0129145113553,0.574068757687,0.818792706906,0.00207640725032,0.0,0.818748868249,-0.574007312458,-0.0121096195639,0.0,-0.00872356319265,0.00865197692271,-0.999924518522,0.0,0.66026829642,0.259019752438,0.303325308816,1.0,-0.00768,-0.0100937142857,0.385
0.463895794691,0.539340274281,-0.124016870703,-1.36898538372,0.078938774364,1.8988510285,0.157569878598,-0.00380631597863,-0.0469829306754,0.000820432449384,-0.0680243927947,-0.00943364594542,0.0219171914292,-0.00968384970699,0.574070905422,0.818791147812,0.00209731093908,0.0,0.818747681398,-0.574009468017,-0.0120876686407,0.0,-0.00869356712241,0.00865651401429,-0.999924740496,0.0,0.660162623213,0.258876719178,0.303338765412,1.0,-0.00796,-0.0104617142857,0.399
0.463765044198,0.53843910534,-0.124017319431,-1.37038566886,0.0788676579064,1.89939425238,0.157387947557,-0.00439820659166,-0.0406644106725,-0.000939890534649,-0.0724854996992,-0.000631233547345,0.0338214836366,-0.0126588825332,0.574087866964,0.818779143033,0.00214075696559,0.0,0.8187361522,-0.574026149219,-0.0120764231244,0.0,-0.00865923961652,0.0086858103416,-0.999924784305,0.0,0.660008565098,0.258661108077,0.303355982546,1.0,-0.00836,-0.0109874285714,0.419
0.463675009386,0.537809887099,-0.124028956137,-1.37138882438,0.0788020567455,1.89978417487,0.15726523558,-0.0117700184514,-0.042171380722,-0.000898350941502,-0.0704009276999,-0.00789884024213,0.0275427450728,-0.00846033477054,0.574107243719,0.818765539884,0.00214716317434,0.0,0.818722753244,-0.574045617213,-0.0120594186987,0.0,-0.0086414332262,0.00868149812145,-0.999924975797,0.0,0.659900166121,0.258499958012,0.303357057232,1.0,-0.00864,-0.0113554285714,0.433
0.463548152642,0.536832187929,-0.124027322811,-1.3729210516,0.0787150899961,1.90034937191,0.157082172558,-0.00758991231239,-0.0496749008486,0.000604262099904,-0.0772524726863,-0.00219051823869,0.0310846434409,-0.0119372865112,0.574121231633,0.81875570043,0.00215900512312,0.0,0.818712992472,-0.574059476703,-0.0120623408466,0.0,-0.00863687926417,0.00869301889587,-0.999924915051,0.0,0.659720698918,0.258272434,0.303367011231,1.0,-0.00904,-0.0118811428571,0.453
0.463444288618,0.536140517771,-0.124029966651,-1.37400279368,0.0786577041378,1.90075496364,0.156945301614,-0.00789226638396,-0.0412609134256,0.00128711493788,-0.0796504852648,-0.00874593218277,0.0347399239963,-0.0126290708543,0.574140269209,0.818742307523,0.00217532672922,0.0,0.81869975237,-0.574078381854,-0.0120612543997,0.0,-0.00862641729534,0.00870595891923,-0.999924892781,0.0,0.659599437433,0.258101287212,0.303375614804,1.0,-0.00932,-0.0122491428571,0.467
0.463306098964,0.535070559223,-0.124036752889,-1.37566430629,0.0785605712605,1.90135103777,0.156745900274,-0.0103981071934,-0.0539836566426,-0.00161414402601,-0.084413211315,-0.0054880683603,0.0230593314666,-0.0127483369342,0.574160032229,0.818728437108,0.00217957841816,0.0,0.818685898751,-0.574098085238,-0.0120637727601,0.0,-0.00862582809491,0.00871109398845,-0.999924853142,0.0,0.659403223832,0.257847762515,0.303391701782,1.0,-0.00972,-0.0127748571429,0.487
0.463206336818,0.534400978863,-0.124044963007,-1.3767943541,0.0785020934279,1.90176931075,0.156605459616,-0.00876597033092,-0.051483466365,-0.0020667675746,-0.0896367544711,-0.0131142036921,0.0313147239137,-0.0144529580561,0.57417893355,0.818715272562,0.0021451438853,0.0,0.818672210657,-0.574117056549,-0.0120898212972,0.0,-0.00866672450657,0.00869805785056,-0.999924612996,0.0,0.659272416417,0.257670773346,0.303362765484,1.0,-0.00998,-0.0131165714286,0.5
0.463051233573,0.533312131088,-0.124040376437,-1.37853318136,0.0784062049414,1.90240887533,0.156394362146,-0.00995128123061,-0.0537862902962,0.0013987324444,-0.0883398401423,-0.00163393950692,0.0285516879606,-0.0171713533031,0.574199384702,0.818700939579,0.00214127100873,0.0,0.81865769048,-0.574137384705,-0.0121076918654,0.0,-0.0086833621511,0.00870536480324,-0.999924405065,0.0,0.659068250138,0.257406962407,0.303358385061,1.0,-0.01038,-0.0136422857143,0.52
0.462963713168,0.532586863708,-0.124040403075,-1.37969562122,0.0783397739195,1.902847389,0.156248674186,-0.0110299308892,-0.0589577684616,0.000400576869169,-0.0889139724176,-0.0081580421337,0.0327875763851,-0.0109042410275,0.574197592149,0.818702191618,0.0021432479068,0.0,0.818658928034,-0.574135543433,-0.0121113260714,0.0,-0.00868522161382,0.00870905097805,-0.999924356817,0.0,0.65893025863,0.257239804915,0.303354491799,1.0,-0.01064,-0.013984,0.533
0.462803714228,0.531444561226,-0.124038283354,-1.38155616818,0.0782362196376,1.90352641094,0.156020856497,-0.00784398293573,-0.0548509202884,0.00804213402066,-0.096615079845,-0.00344855247747,0.0326946649379,-0.000374069151422,0.574214327321,0.818690531016,0.00211367588683,0.0,0.818646739115,-0.574152263069,-0.012142580012,0.0,-0.00872761151765,0.00870296484486,-0.999924040715,0.0,0.658708329456,0.256959080955,0.303332922991,1.0,-0.01104,-0.0145097142857,0.553
0.462707104407,0.530665573098,-0.124041068728,-1.38282069736,0.0781603541407,1.903967453,0.155861633571,-0.00445357420791,-0.0584483947768,0.000714707385323,-0.0985909292097,-0.00505411112702,0.0323717121044,-0.021607976154,0.57420706998,0.818695721531,0.00207442380927,0.0,0.818651342376,-0.574145105743,-0.0121706235931,0.0,-0.00877318609775,0.00868685519823,-0.999923781972,0.0,0.65853855964,0.256760256544,0.303318981285,1.0,-0.01132,-0.0148777142857,0.567
0.462535704548,0.529372590307,-0.124049168763,-1.38485756804,0.0780224238101,1.90471277273,0.155572496756,-0.00892909085069,-0.0680211271685,-0.000653538867853,-0.106759337559,-0.0153042857013,0.0339962281539,-0.0178509770599,0.574196214029,0.818703355807,0.00206637024329,0.0,0.818659015128,-0.574134429089,-0.0121581736589,0.0,-0.00876773208115,0.00867299689479,-0.999923950108,0.0,0.658311456059,0.256457518458,0.303324444641,1.0,-0.01172,-0.0154034285714,0.587
0.46243249938,0.528537216755,-0.12405141074,-1.38615165729,0.077942957398,1.90520657354,0.155389545371,-0.00449027111827,-0.0700475170643,0.000619331327467,-0.10021482595,-0.0108887309371,0.0370806539452,-0.014384652143,0.574181402255,0.818713672392,0.00209447944437,0.0,0.818669728508,-0.574119524737,-0.0121405865259,0.0,-0.00873735085749,0.00868575314137,-0.999924105316,0.0,0.658160562814,0.256266280874,0.303339617403,1.0,-0.01198,-0.0157451428571,0.6
0.462254503815,0.527144930649,-0.124047828493,-1.38831720379,0.0778133559546,1.90602904302,0.155098060626,-0.00712872385865,-0.0691256159252,-0.000101425024334,-0.105218859423,-0.00309211683364,0.0379664047242,-0.015990938045,0.574168409008,0.818722675003,0.00213692171367,0.0,0.818679260721,-0.574106323242,-0.0121220699971,0.0,-0.00869796076923,0.0087097308222,-0.999924240164,0.0,0.657905983985,0.255947291054,0.303360125067,1.0,-0.0124,-0.0162971428571,0.621
0.462130833443,0.526267935164,-0.124052556528,-1.38967349824,0.0777262214942,1.90654915111,0.154903603978,-0.0105118477999,-0.0666375896517,8.7498955606e-05,-0.104636294347,-0.00597008202004,0.0420871358344,-0.0152852838985,0.57416365639,0.818725928591,0.00216712608104,0.0,0.818682990056,-0.57410152247,-0.0120975448796,0.0,-0.00866059002589,0.00872032775459,-0.99992447218,0.0,0.657752288703,0.255734897881,0.303376907729,1.0,-0.01266,-0.0166388571429,0.634
0.461949039589,0.524884958627,-0.124055530567,-1.3918422211,0.0775958032979,1.90733109166,0.154615120138,-0.00845334982616,-0.0639170263607,0.00159067737743,-0.104896928653,-0.0064294751947,0.0430768248524,-0.0171759987721,0.574159991769,0.818728506643,0.00216406147651,0.0,0.818685469164,-0.57409781219,-0.0121058464934,0.0,-0.0086691855708,0.00872254634428,-0.999924378344,0.0,0.657489796106,0.255406325022,0.303385344664,1.0,-0.01306,-0.0171645714286,0.654
0.461825854371,0.523911002161,-0.124063857762,-1.39341123599,0.0774999293711,1.90789368356,0.1544063123,-0.00158409527037,-0.0669013233195,-0.000880317798672,-0.108477272628,-0.00532730055676,0.0426605014276,-0.013064262164,0.574154210278,0.81873264081,0.00213368075466,0.0,0.818689192645,-0.574092148873,-0.0121225966666,0.0,-0.0087004037226,0.00870722893117,-0.9999242407,0.0,0.657297410648,0.255169725022,0.303372434544,1.0,-0.01334,-0.0175325714286,0.668
0.461632657282,0.522464071687,-0.124068040573,-1.39568702181,0.0773625909853,1.90876839587,0.154091566915,-0.0108428303148,-0.0728715370939,-0.00433361794762,-0.115908284925,-0.000313038393079,0.041760450821,-0.0112424840776,0.574142906561,0.818740471843,0.00217014128006,0.0,0.818697529675,-0.574080719056,-0.0121008187253,0.0,-0.00866176053209,0.0087244565126,-0.999924426026,0.0,0.657032063801,0.254826311066,0.303382215267,1.0,-0.01374,-0.0180582857143,0.688
0.46151391967,0.521518906176,-0.124068176916,-1.39720071507,0.077272958502,1.90936112517,0.153886840941,-0.00901299628973,-0.0721057075487,6.6132336145e-05,-0.11447381424,-0.00082723390482,0.0430540682115,-0.0166488670846,0.574129679455,0.818749695337,0.00218962446659,0.0,0.818707010171,-0.574067412784,-0.0120906565778,0.0,-0.0086423957299,0.00873443385078,-0.999924506481,0.0,0.656853623444,0.254606662245,0.303377239696,1.0,-0.014,-0.0184,0.701
0.46131303532,0.520005571872,-0.12407163772,-1.39959461631,0.0771107018567,1.91022690092,0.153566496654,-0.0100279441414,-0.0776996088313,-0.00156546463149,-0.119849153972,-0.0127539850767,0.0449257275862,-0.0164203506383,0.574118039835,0.818757917837,0.00216684471958,0.0,0.818715029105,-0.574055966844,-0.0120911103495,0.0,-0.00865596884779,0.0087159207194,-0.999924550618,0.0,0.656561971341,0.254241009229,0.303375818748,1.0,-0.0144,-0.0189257142857,0.721
0.461178106666,0.518894222442,-0.12408083791,-1.4013097157,0.0769996093218,1.91084049713,0.153332711991,-0.0157437161996,-0.0835443172487,-0.00146778175551,-0.124286099173,-0.0118675119895,0.0488301155372,-0.0156989280264,0.574104677579,0.818767278167,0.00217031940551,0.0,0.818724484287,-0.574042641283,-0.0120835308903,0.0,-0.0086479103128,0.00871427301856,-0.999924634707,0.0,0.656350749164,0.253981804672,0.303393139939,1.0,-0.01468,-0.0192937142857,0.735
0.460970404955,0.51730609295,-0.124078719209,-1.40380163807,0.0768447537252,1.91173960797,0.153002721248,-0.013281666782,-0.0750955901719,0.00160432169465,-0.127807137822,-0.00937394237674,0.0466740181957,-0.0159725635806,0.574093276584,0.818775285277,0.0021653871971,0.0,0.818732368618,-0.574031204071,-0.0120926519704,0.0,-0.0086583314465,0.00871535057863,-0.999924535133,0.0,0.656042853779,0.25360784582,0.303399362369,1.0,-0.01508,-0.0198194285714,0.755
0.460832995986,0.516266000189,-0.124087126307,-1.40543681703,0.0767421383896,1.91235645905,0.15276367603,-0.0103732003426,-0.081167620947,-3.31916498889e-05,-0.126195061705,-0.0123331723321,0.0495572232569,-0.0170339336324,0.574074916265,0.818788121112,0.00217948228182,0.0,0.81874544605,-0.574012843876,-0.0120787639901,0.0,-0.00863906397877,0.00871872448163,-0.999924672371,0.0,0.655848110263,0.253357659473,0.303404362907,1.0,-0.01534,-0.0201611428571,0.768
0.460602546265,0.514540798333,-0.124082582671,-1.40817364552,0.0765743567007,1.91337113362,0.152393317731,-0.0124403361856,-0.0894834836705,0.0020131888474,-0.13546248813,-0.00356436035617,0.0504733186133,-0.0204455304409,0.57405624548,0.818801206478,0.0021813293088,0.0,0.818758493864,-0.573994105376,-0.0120848094489,0.0,-0.00864315279916,0.00872351019368,-0.999924595297,0.0,0.655512842509,0.252948791884,0.3033991271,1.0,-0.01576,-0.0207131428571,0.789
0.460461648097,0.513484982714,-0.124087649465,-1.40990145024,0.0764711737161,1.9139589894,0.152150641893,-0.00651180972211,-0.0751170782835,-0.00219528511265,-0.129674955615,-0.00613681175145,0.0478888041953,-0.0172215655421,0.574039279075,0.818813286807,0.00211052826096,0.0,0.818769524653,-0.573977321811,-0.0121345147307,0.0,-0.00872467450863,0.00869389169328,-0.999924145274,0.0,0.655289573433,0.252685577415,0.303367844867,1.0,-0.01602,-0.0210548571429,0.802
0.460214898266,0.51173111796,-0.124093603175,-1.41273890393,0.0762989571409,1.91497873747,0.15175161278,-0.0120548461824,-0.0841036802074,-0.000591183795692,-0.136349032722,-0.00369273250736,0.0512941509144,-0.0149215130925,0.57402100064,0.818826242695,0.00205475037566,0.0,0.818781652751,-0.573959193586,-0.0121735827935,0.0,-0.00878887540341,0.00867045101815,-0.99992378657,0.0,0.65493668726,0.252248167197,0.303334532448,1.0,-0.01644,-0.0216068571429,0.823
0.460072843878,0.510703357866,-0.124093603517,-1.41436972233,0.0761962713694,1.91560749579,0.151530542243,-0.0090043985207,-0.0857729835462,-0.00589943981516,-0.137756013795,-0.00864240039555,0.0602675987008,-0.01675822334,0.574013977332,0.818831119959,0.00207309338514,0.0,0.818786806739,-0.573952126383,-0.0121601246607,0.0,-0.00876740093776,0.00867767010624,-0.999923912467,0.0,0.654741778669,0.252001171209,0.303332446742,1.0,-0.01668,-0.0219222857143,0.835
0.459812345499,0.508856774758,-0.124099384378,-1.41728280493,0.0760039192601,1.91667768466,0.151114070033,-0.0140062813608,-0.0884725549851,-0.00111357962453,-0.135318535416,-0.0109813049124,0.0493599215479,-0.0180484001721,0.573990014564,0.818847933971,0.00206666717326,0.0,0.818803623924,-0.573928281317,-0.0121531993525,0.0,-0.00876567220849,0.00866817653352,-0.999924009966,0.0,0.65438564527,0.251547465828,0.303331184223,1.0,-0.0171,-0.0224742857143,0.856
0.459660726658,0.507720538138,-0.124100289971,-1.41910418922,0.0758917026933,1.91732130263,0.150866669987,-0.0087468806855,-0.0835140867064,0.00305689033511,-0.141128886978,-0.0127675896229,0.0508079212119,-0.0161142282425,0.573976328264,0.818857616751,0.0020310051888,0.0,0.818812759556,-0.573914675287,-0.0121801961804,0.0,-0.00880839232127,0.00865432386704,-0.999923754545,0.0,0.654152756358,0.251272149279,0.303314929544,1.0,-0.01736,-0.022816,0.869
0.459394619024,0.505773435468,-0.124106372152,-1.422121251,0.0757063842462,1.91845191754,0.150458046906,-0.0176737661349,-0.0925607208221,0.00501294174999,-0.14375780839,-0.00698366532091,0.0585376718254,-0.0200511335504,0.573970120352,0.81886184464,0.00208020126452,0.0,0.818817641266,-0.57390826046,-0.0121542514353,0.0,-0.00875897669884,0.00867964976203,-0.999923969113,0.0,0.653785117274,0.25080896838,0.30333840296,1.0,-0.01778,-0.023368,0.89
0.459223116244,0.504523225363,-0.124115277057,-1.42401352793,0.0755827594713,1.91918252231,0.150191703403,-0.0127808846104,-0.093662195968,-0.000990792250579,-0.148193053738,-0.0128623665237,0.0550468297765,-0.0213864345364,0.573963061814,0.818866615294,0.00214870441087,0.0,0.818823447989,-0.573901044836,-0.0121036631393,0.0,-0.00867830904547,0.00870663273869,-0.999924437894,0.0,0.653561500132,0.250513177615,0.303374907863,1.0,-0.01804,-0.0237097142857,0.903
0.458956124228,0.502558747534,-0.124113871043,-1.42692224397,0.0754008600937,1.92028363061,0.149792848309,-0.0119528955624,-0.0983814106114,0.00121596348704,-0.145105877839,-0.00754735392568,0.0500171309973,-0.0249913961901,0.573954346948,0.818872363769,0.00228174835285,0.0,0.818830982941,-0.573891818529,-0.0120311638182,0.0,-0.00854267531605,0.00877387394316,-0.999925018106,0.0,0.653210288305,0.250065636749,0.303457701229,1.0,-0.01844,-0.0242354285714,0.923
0.458772142354,0.501229311305,-0.124122358708,-1.42889815264,0.07527736148,1.92097827285,0.149505005267,-0.0184094901526,-0.104221523305,0.000810419274794,-0.153197689852,-0.00414407422241,0.0561966869374,-0.0215289520875,0.573942803827,0.818880338685,0.00232287579163,0.0,0.818839480463,-0.573880092606,-0.0120121374385,0.0,-0.00850361472048,0.00879651160791,-0.999925152159,0.0,0.652962825043,0.249750878544,0.303505582729,1.0,-0.0187,-0.0245771428571,0.936
0.458479983536,0.49913719138,-0.124120269452,-1.43211234947,0.0750791489376,1.92213012126,0.149064215351,-0.0168123321764,-0.100495837709,0.000551883162161,-0.156643840363,-0.0137253704698,0.0533380851331,-0.021435914001,0.573929708609,0.818889438002,0.00235049043893,0.0,0.818848831274,-0.573866773063,-0.0120110447887,0.0,-0.00848701275484,0.0088183615653,-0.999925100752,0.0,0.65255583396,0.249253915641,0.303534994348,1.0,-0.01912,-0.0251291428571,0.957
0.458282951987,0.497850992504,-0.124123801439,-1.43414597747,0.0749489086667,1.92289064107,0.148754573403,-0.0178922464402,-0.0979582531786,-0.0003640071463,-0.155702518811,-0.00765040910263,0.0481266606222,-0.0220849850767,0.573908221193,0.818904477892,0.00235725206557,0.0,0.818863989884,-0.573845292508,-0.0120038843258,0.0,-0.00847749984358,0.00881956653639,-0.999925170822,0.0,0.652307149633,0.248929630829,0.303529924138,1.0,-0.01938,-0.0254708571429,0.97
0.457981174402,0.495881763922,-0.124120719184,-1.4372906449,0.0747595501839,1.92399773525,0.148287602376,-0.0197961011425,-0.0992203388135,0.000581971145113,-0.159883506564,-0.00919069663658,0.0529822064974,-0.0278366249175,0.573877160856,0.818926391409,0.00230577596044,0.0,0.818884991134,-0.573814199801,-0.0120574583753,0.0,-0.00855124852718,0.00880783488458,-0.999924646258,0.0,0.651882177159,0.248405895209,0.303505645757,1.0,-0.0198,-0.0260228571429,0.991
0.457771677424,0.494599320119,-0.124125967275,-1.43938894974,0.0746208267458,1.92472617453,0.147997076814,-0.0195094985293,-0.0982008662523,0.000327581177745,-0.159481436992,-0.0113165099008,0.0495512086974,-0.0232094518909,0.573884022222,0.818921811268,0.0022232789267,0.0,0.818879319291,-0.573821394005,-0.0121002116154,0.0,-0.00863352842204,0.00876488399687,-0.999924316634,0.0,0.65163472763,0.248087985826,0.303459380364,1.0,-0.0219011428571,-0.0287843591837,1.003
0.457341074816,0.491219716545,-0.124236408566,-1.44442452431,0.0743517133809,1.92660879851,0.147258683027,-0.0201200037138,-0.196019971788,-0.00439457263299,-0.286826614634,-0.0218505321097,0.10971064762,-0.0352797579988,0.573892293144,0.818915466086,0.00241705947705,0.0,0.818875634152,-0.573828994094,-0.0119886709284,0.0,-0.00843089155348,0.00885964753857,-0.99992521056,0.0,0.651022051408,0.247274437402,0.303581084658,1.0,-0.0430337142857,-0.0565585959184,1.025
0.457005059894,0.488526108604,-0.124255967019,-1.4487159246,0.0741406148988,1.9282787064,0.146605446569,-0.0301414176455,-0.243624311459,0.00171384668042,-0.38430599556,-0.0177530702545,0.14298377554,-0.0521930982087,0.573805467677,0.81897606035,0.00249894755307,0.0,0.818936942398,-0.573741476327,-0.0119895629448,0.0,-0.0083855766158,0.00892632910058,-0.999924998564,0.0,0.650479355762,0.246650002656,0.30355691316,1.0,-0.0545605714286,-0.0717081795918,1.037
0.456066290424,0.482094062431,-0.124400535539,-1.45891707634,0.0735498774333,1.93204311449,0.145022326925,-0.0553837900331,-0.338686867631,-0.00964406614387,-0.547571406983,-0.0394513864546,0.186468126861,-0.0900623307649,0.573727683547,0.819030597159,0.00248454224119,0.0,0.818991296323,-0.573663765485,-0.011995316516,0.0,-0.00839940110616,0.00891703530961,-0.999924965456,0.0,0.649197344376,0.244991057851,0.303497843073,1.0,-0.0747325714286,-0.0982199510204,1.058
0.455290366235,0.477026754475,-0.124541774689,-1.46701382966,0.0730714301426,1.93482037539,0.143833388321,-0.0686943837041,-0.417302025761,-0.0137176586013,-0.653038064773,-0.0386611113689,0.23132982096,-0.089777882693,0.573756815844,0.819010837732,0.00226071918526,0.0,0.818968411194,-0.573693612605,-0.0121296011431,0.0,-0.00863748093535,0.00881106856899,-0.999923876599,0.0,0.648137530566,0.243624397347,0.303400537309,1.0,-0.08722,-0.114632,1.071
0.453808779319,0.467616062603,-0.124723736093,-1.48153967103,0.0722075388627,1.94001968795,0.141667098498,-0.0820072498945,-0.516140583575,-0.00837524436358,-0.75871154854,-0.0458093017593,0.294420345761,-0.117235463107,0.573791586656,0.818986284953,0.00232960125392,0.0,0.818944570166,-0.573727891363,-0.012117944072,0.0,-0.008588038128,0.00886115925839,-0.99992385983,0.0,0.646265351582,0.241177498462,0.303447297147,1.0,-0.106431428571,-0.139881306122,1.091
0.452678802835,0.460632829877,-0.124832294261,-1.49236735232,0.0715340732045,1.9439637849,0.13992225921,-0.0932661915506,-0.547110564285,-0.0087709592221,-0.84819837309,-0.0536582934248,0.306285134566,-0.130904762123,0.573694489136,0.819054095582,0.00240177995971,0.0,0.819013363753,-0.57363054458,-0.0120770534423,0.0,-0.00851418966273,0.00889580016034,-0.999924183783,0.0,0.644860178233,0.239355645355,0.3034520463,1.0,-0.118918857143,-0.156293355102,1.104
0.45043244592,0.447614320529,-0.125059105488,-1.51226547365,0.0701956176094,1.95101011704,0.136827920768,-0.114190529858,-0.657444188202,-0.0146284819645,-0.997983517302,-0.0725008813811,0.36052326585,-0.151887455619,0.573712884349,0.819040984443,0.00247770795805,0.0,0.819001919114,-0.573649340168,-0.0119598458772,0.0,-0.00837442963952,0.00889093642531,-0.999925407307,0.0,0.642239519903,0.23586430393,0.303540024632,1.0,-0.139090857143,-0.182805126531,1.125
0.448826111315,0.438715523226,-0.125169339161,-1.5260674359,0.0693000235729,1.9557362154,0.134673295468,-0.121636835173,-0.693197485083,-0.00805592591771,-1.09783620418,-0.0721008604638,0.36907849087,-0.176734239824,0.573716087056,0.819039202678,0.00232009300252,0.0,0.818997624096,-0.573652710482,-0.0120915831831,0.0,-0.00857271806129,0.00883745659527,-0.99992420106,0.0,0.640343648973,0.233439913719,0.303472894247,1.0,-0.151578285714,-0.19921717551,1.138
0.445824800254,0.422659213155,-0.125375321198,-1.5502649191,0.0676538597049,1.96409821847,0.130661983441,-0.155017184934,-0.802971481162,-0.00850527064848,-1.1998409484,-0.0811415080862,0.405768407339,-0.198693855188,0.573632872364,0.819097065217,0.00246422369987,0.0,0.819057462397,-0.573569009513,-0.0120088100474,0.0,-0.00842314089142,0.00890716050202,-0.999924853771,0.0,0.636842236481,0.228855867223,0.303631719276,1.0,-0.172710857143,-0.226991412245,1.16
0.443711494242,0.411831628205,-0.125532178848,-1.5663000009,0.0664870475799,1.96980365596,0.127987073642,-0.164084967352,-0.867406247307,-0.00614890514348,-1.25292565317,-0.0983874482695,0.452226788476,-0.202083515611,0.573633720006,0.819095325668,0.00281951105106,0.0,0.819061335887,-0.573569597704,-0.0117128795422,0.0,-0.00797693264456,0.00902842897706,-0.999927425374,0.0,0.634824145654,0.226111529783,0.303828028952,1.0,-0.184237714286,-0.242140995918,1.172
0.440033688486,0.394037211624,-0.125734858084,-1.59277941583,0.0647219191748,1.97890240917,0.123486258559,-0.197872966772,-0.907933116216,-0.0118616983028,-1.36185455199,-0.0940034169357,0.462637260033,-0.233215493563,0.573685698471,0.819057593794,0.00318187368717,0.0,0.819027667083,-0.573619603579,-0.0116179965371,0.0,-0.00769077123648,0.00927129954242,-0.999927444889,0.0,0.631060345379,0.221154103021,0.3040170424,1.0,-0.203449142857,-0.267390302041,1.192
0.437369720758,0.381838381246,-0.125875108542,-1.61109923047,0.0633638777579,1.98501056773,0.120240441531,-0.212435852972,-0.964527337553,-0.00822441124237,-1.41084413252,-0.0979167018389,0.472461579926,-0.252325801853,0.573634248171,0.819093862352,0.00312103903005,0.0,0.819063213735,-0.573568438898,-0.0116380715017,0.0,-0.00774269252323,0.00923250240844,-0.999927403171,0.0,0.628373508333,0.217635763812,0.30401098282,1.0,-0.215936571429,-0.28380235102,1.205
0.432799836158,0.361753488611,-0.126134026538,-1.64076448611,0.0610962530044,1.99492960632,0.114919133924,-0.240424123518,-1.03711158844,-0.0215288184944,-1.52063086803,-0.113697432895,0.524043907171,-0.271111021152,0.573651204314,0.819081272154,0.00330337646223,0.0,0.81905370051,-0.573585692636,-0.0114558188378,0.0,-0.0074886213703,0.00927746560826,-0.999928922065,0.0,0.623970962936,0.211794178999,0.304142565413,1.0,-0.235148,-0.309051657143,1.225
0.429200673302,0.347051104403,-0.126330539988,-1.66263485531,0.0594469006939,2.00191391221,0.11079474927,-0.271585134944,-1.04577777588,-0.0108814323497,-1.53016324942,-0.107790927672,0.490812290657,-0.300794747202,0.573652689104,0.819080963559,0.00311678033613,0.0,0.819050457393,-0.57358712706,-0.0116147671489,0.0,-0.0077258383355,0.0092158202013,-0.999927687425,0.0,0.62060006401,0.207358211781,0.304077290027,1.0,-0.248596,-0.326726171429,1.239
0.423587388971,0.324807573728,-0.126594950445,-1.69509589091,0.0569286206979,2.0125216518,0.104540149975,-0.285090620838,-1.14215348421,-0.0147372673928,-1.68787041837,-0.140203553673,0.553692408335,-0.322140199633,0.57365199724,0.819080406098,0.00337954292239,0.0,0.819053371034,-0.573585700516,-0.0114789574151,0.0,-0.0074638753093,0.00935313294733,-0.999928402172,0.0,0.615545064184,0.200691914006,0.304170235333,1.0,-0.267807428571,-0.351975477551,1.259
0.41962620041,0.309789728722,-0.126734077879,-1.71694069091,0.0550880425914,2.01930268096,0.10016828957,-0.311468849009,-1.15728765938,-0.0113350723342,-1.66199575711,-0.130692458752,0.526258344111,-0.339827360701,0.573535416462,0.819162524998,0.00326046073814,0.0,0.819134081064,-0.573469658802,-0.0115175767807,0.0,-0.00756513762284,0.0092766713108,-0.999928353464,0.0,0.611996054086,0.196119174313,0.30415958369,1.0,-0.280294857143,-0.368387526531,1.272
0.412549481613,0.284283629871,-0.127038132896,-1.75359415371,0.0520212373477,2.03062677476,0.092566908353,-0.35057744091,-1.2201695504,-0.0150699480941,-1.76378852557,-0.147127679882,0.554966171191,-0.37148852764,0.573444994649,0.819225611168,0.0033140637457,0.0,0.819197815173,-0.573379029399,-0.0114967457013,0.0,-0.00751835862138,0.00930780426105,-0.99992841697,0.0,0.60593134336,0.188236043731,0.304199662793,1.0,-0.300466857143,-0.394899297959,1.293
0.407743799024,0.26788048405,-0.127245859087,-1.77688996305,0.0500449085954,2.03761986467,0.0874932824992,-0.37887250164,-1.28328137252,-0.0197688765594,-1.81469980777,-0.152263980506,0.567988832174,-0.391828226154,0.573381451656,0.819269903932,0.00335891482048,0.0,0.819242359809,-0.573314950883,-0.0115182416419,0.0,-0.00751097724766,0.00935629155467,-0.999928019924,0.0,0.601968374653,0.183082082438,0.304237858084,1.0,-0.312954285714,-0.411311346939,1.306
0.399563683636,0.241833495899,-0.127683932715,-1.8135331044,0.0467126021151,2.04842655859,0.0792877313849,-0.419576820464,-1.31090965651,-0.0212202513866,-1.8675487737,-0.176125231816,0.537774074391,-0.434733723794,0.573513355091,0.819177478122,0.00338197755309,0.0,0.81915093396,-0.573447646427,-0.0114145127098,0.0,-0.00741126735739,0.00931690493147,-0.999929131688,0.0,0.595628194199,0.174611045587,0.304287134454,1.0,-0.332165714286,-0.436560653061,1.326
0.393876544552,0.224322121324,-0.127878909683,-1.83774688261,0.0445736986812,2.05544233392,0.0735272034395,-0.441482761628,-1.361823147,-0.00804919461484,-1.88837938347,-0.16568294683,0.528194620986,-0.444256453849,0.573436710536,0.819230077839,0.00362842593876,0.0,0.819206257896,-0.573369731858,-0.0113580154223,0.0,-0.00722453734569,0.00948571486675,-0.99992891111,0.0,0.591305795942,0.168989906713,0.304388426657,1.0,-0.344653142857,-0.452972702041,1.339
0.383816464826,0.195202044263,-0.128285709584,-1.87772699912,0.0407296190427,2.06649193253,0.0635830375596,-0.49419582407,-1.40896059194,-0.0209262108784,-1.90377929914,-0.182771711216,0.530051846064,-0.481682923382,0.573332589957,0.819302817161,0.00365813981212,0.0,0.819279511926,-0.573265718074,-0.0113245185677,0.0,-0.00718126208087,0.00948993727098,-0.999929182775,0.0,0.583945931501,0.159355642169,0.304447663918,1.0,-0.364825142857,-0.479484473469,1.36
0.376927531988,0.1765253822,-0.128696558797,-1.90301383863,0.0382434079574,2.07323330006,0.0569494053745,-0.55009293945,-1.43981804111,-0.0361342716531,-1.92877125181,-0.192118884311,0.531065826323,-0.525480696602,0.573440228997,0.819227334487,0.00369121917975,0.0,0.819204537362,-0.573373362801,-0.0112986590919,0.0,-0.00713986108169,0.00950315212262,-0.999929353746,0.0,0.579188248873,0.152962953642,0.304496272145,1.0,-0.377312571429,-0.495896522449,1.373
0.365584991902,0.147093650923,-0.129238068817,-1.94253773428,0.0342042125925,2.08339561893,0.0461482983629,-0.580712821997,-1.48872706146,-0.0235569566102,-1.99323799708,-0.217819963237,0.501970254928,-0.556357895868,0.573461505467,0.819212689687,0.00363561612945,0.0,0.819189022687,-0.573394582876,-0.0113465562085,0.0,-0.00721073906526,0.00948525264964,-0.999929015093,0.0,0.571489577027,0.142856847376,0.304478625072,1.0,-0.396524,-0.521145828571,1.393
0.357595467383,0.127479139336,-0.129600296787,-1.96839977274,0.0315062128953,2.08975136941,0.0386284756498,-0.623703385753,-1.50833221414,-0.0269727985848,-2.00393438102,-0.206928628369,0.469558550768,-0.593132527879,0.573471649919,0.819205388093,0.00368045631362,0.0,0.819181945427,-0.573404135909,-0.0113747135902,0.0,-0.00720797656473,0.00953822277332,-0.999928531136,0.0,0.566306218398,0.136038326833,0.304512128254,1.0,-0.409011428571,-0.537557877551,1.406
0.343498177188,0.0948975671323,-0.130377507844,-2.010598571,0.0267422010456,2.09970948734,0.0255962026013,-0.699726235389,-1.59641444182,-0.0335085704385,-2.02685043524,-0.239070229386,0.47880810913,-0.657657095428,0.57359254444,0.819120363323,0.00376433975055,0.0,0.81909908005,-0.573526241014,-0.0111845800356,0.0,-0.00700270445909,0.00949894183183,-0.999930363693,0.0,0.557642179,0.124414056187,0.304616784305,1.0,-0.429183428571,-0.56406964898,1.427
0.334271747941,0.0744770278926,-0.130731647128,-2.03678008826,0.0238865985434,2.10546342037,0.0169863412798,-0.731115218037,-1.52519368609,-0.0320190339539,-2.00298027049,-0.220012369331,0.447765948726,-0.670643039181,0.573478122473,0.819200386093,0.00378383025095,0.0,0.819178118464,-0.573410114209,-0.0113489230431,0.0,-0.00712749282864,0.00960817501156,-0.999928438349,0.0,0.552026817858,0.11718421122,0.304600892433,1.0,-0.42998,-0.565116571429,1.44
0.318247718326,0.0418092544431,-0.13143009332,-2.07811345581,0.0188713143828,2.11389164533,0.00275217538555,-0.780396432885,-1.53842911377,-0.0335332656089,-1.95555744387,-0.241844584781,0.37766531974,-0.692685397403,0.573721226643,0.819031614303,0.0034519231471,0.0,0.819004747125,-0.573653734458,-0.0115483345285,0.0,-0.0074783864491,0.00945284809217,-0.999927356061,0.0,0.542916150676,0.105113868342,0.304499915487,1.0,-0.42998,-0.565116571429,1.461
0.30797429547,0.0217128748942,-0.131745286981,-2.1027492907,0.0158775808003,2.11863321032,-0.00637668769596,-0.800117190784,-1.49355506474,-0.0253674321657,-1.88898921979,-0.237719615348,0.360595309352,-0.708152160211,0.573758279163,0.819005037893,0.00359609506363,0.0,0.818979734529,-0.5736899588,-0.0115226951845,0.0,-0.00737424375437,0.00955655473424,-0.999927143741,0.0,0.53731842093,0.0977757922497,0.304600197853,1.0,-0.42998,-0.565116571429,1.474
0.291409858109,-0.008662146999,-0.132348462982,-2.13921652373,0.0112228965032,2.12534209936,-0.0210049134898,-0.836290740478,-1.52480244832,-0.0199586199276,-1.79673278483,-0.228020273801,0.344838118089,-0.74330984728,0.573906968754,0.818898954887,0.00400497218209,0.0,0.818879801686,-0.573838699242,-0.0112144791898,0.0,-0.00688544982687,0.00971584564432,-0.999929093948,0.0,0.528859730168,0.0863795177954,0.304827514051,1.0,-0.42998,-0.565116571429,1.494
0.279501740718,-0.0296522111635,-0.13264119537,-2.1640508406,0.00797229446263,2.12944255737,-0.0315851493274,-0.852787496759,-1.49219207446,-0.0212042938123,-1.72427271757,-0.230206758301,0.281667140342,-0.750470136652,0.573800088989,0.818972974377,0.00417995430642,0.0,0.818956157572,-0.57373154761,-0.0111207082802,0.0,-0.00670951706328,0.00980445148451,-0.999929425066,0.0,0.522863631123,0.0785488683053,0.304937789135,1.0,-0.42998,-0.565116571429,1.508
0.26160048162,-0.0591931896602,-0.133249124841,-2.19865147585,0.00323102137364,2.1346435861,-0.0472113878328,-0.899899313409,-1.46777316357,-0.0163382424057,-1.69785336903,-0.238090698727,0.246828117635,-0.788059197852,0.573955699193,0.818863702059,0.00422370868159,0.0,0.818847595335,-0.57388725572,-0.0110806244382,0.0,-0.00664971659197,0.00981855028173,-0.999929686198,0.0,0.514262883575,0.0671400859829,0.304969532968,1.0,-0.42998,-0.565116571429,1.528
0.249639122574,-0.0781695247609,-0.133608519854,-2.2204433211,0.000222881670316,2.13754701728,-0.0577752731008,-0.925653038764,-1.46613685793,-0.0376076990026,-1.69134432859,-0.238516612906,0.234215556607,-0.820235666405,0.573925731311,0.81888429806,0.00430211940541,0.0,0.818868887532,-0.573856658517,-0.0110917721317,0.0,-0.00661420551371,0.00988891555603,-0.999929228313,0.0,0.508657598974,0.0598164706647,0.30500513434,1.0,-0.42998,-0.565116571429,1.541
0.23053963924,-0.106781073584,-0.134153990135,-2.2529268216,-0.00443074870225,2.14125185061,-0.0745994495002,-0.960145136529,-1.42074500338,-0.0182325531317,-1.62526111477,-0.228216398238,0.154767525559,-0.848528418092,0.573869921855,0.818923974732,0.0041932447657,0.0,0.818906187351,-0.57379967701,-0.0112842315684,0.0,-0.00683497687009,0.00990974596537,-0.999927537388,0.0,0.500010822598,0.0485496400479,0.304954603504,1.0,-0.42998,-0.565116571429,1.561
0.21761022533,-0.125035796872,-0.13459182243,-2.27331696566,-0.00752766748169,2.14336404964,-0.0859059346915,-1.01039628591,-1.42642039344,-0.0428331978064,-1.57241280283,-0.239366839955,0.145679575395,-0.877319048478,0.573931088423,0.818881417379,0.00413242236879,0.0,0.818862978147,-0.57386117887,-0.011292356192,0.0,-0.00687579625231,0.00986511190199,-0.999927698883,0.0,0.494441399699,0.0411550495634,0.304915911102,1.0,-0.42998,-0.565116571429,1.574
0.196120326647,-0.154155277172,-0.135162501063,-2.30531099237,-0.0123913532555,2.14597620763,-0.104958892463,-1.04613444007,-1.39255608714,-0.0371809326142,-1.51603355404,-0.235310303969,0.0948897720743,-0.91766651849,0.573740813082,0.819015531011,0.00397319369343,0.0,0.818993882209,-0.573669744825,-0.0115235271356,0.0,-0.00715878451261,0.00986572910195,-0.999925706837,0.0,0.485352629532,0.0293809697352,0.304810834755,1.0,-0.42998,-0.565116571429,1.595
0.182299118462,-0.17187607112,-0.135589285692,-2.32439666227,-0.0153622405043,2.14718184402,-0.117151538717,-1.07078261069,-1.36992479117,-0.0293087689846,-1.4795546667,-0.240195494774,0.0938354814892,-0.94886898125,0.573750489398,0.819009084224,0.00390419976689,0.0,0.818985665188,-0.573678433757,-0.0116739778955,0.0,-0.00732147969929,0.00989562469534,-0.999924233403,0.0,0.479743810297,0.0220521450863,0.30475418012,1.0,-0.42998,-0.565116571429,1.608
0.160241098366,-0.198815856214,-0.136320888405,-2.35283076273,-0.0199583822837,2.14843715259,-0.136698915926,-1.12394153978,-1.34641399619,-0.0314996643423,-1.40876535319,-0.22749865054,0.0499871353513,-1.00963436705,0.573751289566,0.819009017803,0.00379912894866,0.0,0.818983040267,-0.573677992734,-0.0118780178971,0.0,-0.00754887244116,0.00992664138131,-0.999922235134,0.0,0.471089211065,0.0107213568146,0.304686493973,1.0,-0.42998,-0.565116571429,1.628
0.144300480977,-0.2173060459,-0.136823513903,-2.37192138157,-0.0230693705956,2.14889324044,-0.150898515495,-1.15911609203,-1.33425785652,-0.0411001384093,-1.33640989983,-0.229919386941,0.0415593404561,-1.03210403878,0.573738186435,0.81901821696,0.00379481427528,0.0,0.818991053905,-0.573663428238,-0.0120279519358,0.0,-0.00767431333579,0.0100090069773,-0.999920459184,0.0,0.465055952155,0.00283270695395,0.304662089601,1.0,-0.42998,-0.565116571429,1.642
0.120698899936,-0.243442872736,-0.137619378665,-2.39817686135,-0.0275635005463,2.14915686303,-0.171861084056,-1.19650452673,-1.30954154148,-0.0275116991469,-1.27224354526,-0.228265364642,0.0183660453233,-1.07012381259,0.573830799859,0.818952504944,0.0039692164975,0.0,0.818927923636,-0.573755804816,-0.0119196992348,0.0,-0.00748445063941,0.0100905870458,-0.999921078412,0.0,0.456470167917,-0.00849075244382,0.304735243569,1.0,-0.42998,-0.565116571429,1.662
0.104791646495,-0.260112391749,-0.13823140226,-2.41468116829,-0.0304710119713,2.14907146288,-0.186087913489,-1.22725845484,-1.28103711835,-0.0389748991503,-1.2660431216,-0.235874973646,-0.000611278900409,-1.09888347583,0.573912812136,0.818894479507,0.00408196032386,0.0,0.818871534881,-0.573837643145,-0.0118539264548,0.0,-0.00736487423936,0.0101459167226,-0.999921406412,0.0,0.450868434627,-0.0159137507882,0.304752032049,1.0,-0.42998,-0.565116571429,1.675
0.0783873482782,-0.286370393858,-0.139091659261,-2.43994468216,-0.0349821064478,2.14843350127,-0.209827813948,-1.26306677639,-1.24623634452,-0.0372835587853,-1.19396893978,-0.229123921372,-0.0388074669498,-1.16930619508,0.573954869757,0.818863180494,0.00443238254856,0.0,0.818845923582,-0.573880207657,-0.0115588750739,0.0,-0.00692161385104,0.0102639086312,-0.999923368784,0.0,0.441928310153,-0.0277695517374,0.304886646077,1.0,-0.42998,-0.565116571429,1.696
0.0614673245895,-0.302243228048,-0.139679034428,-2.45479754875,-0.0377413230544,2.14770175965,-0.225111093928,-1.31691150617,-1.2186787377,-0.0574011202011,-1.1247336346,-0.219856541285,-0.059526122669,-1.1791016473,0.574012048575,0.818821715725,0.00468111619239,0.0,0.818808754129,-0.573938347609,-0.0113023982564,0.0,-0.00656810349606,0.0103208504028,-0.999925167232,0.0,0.436418313497,-0.0351536454588,0.30501844041,1.0,-0.42998,-0.565116571429,1.709
0.0347414004547,-0.325886565816,-0.140562474193,-2.47678291046,-0.0418453993433,2.14613233726,-0.249356356987,-1.36655225254,-1.18534569793,-0.0635283091592,-1.06080013341,-0.208138280239,-0.0756821353488,-1.26026684375,0.574091608548,0.8187646829,0.00489550119533,0.0,0.818754631098,-0.574017608747,-0.0111975803219,0.0,-0.00635820182684,0.0104368521158,-0.999925319905,0.0,0.427874445832,-0.0464417887413,0.30508571643,1.0,-0.42998,-0.565116571429,1.729
0.0169455498083,-0.340761215455,-0.141048805225,-2.49046325741,-0.0445381281203,2.14484927608,-0.265734359796,-1.3783851866,-1.13825351788,-0.0347893740086,-1.0410600086,-0.209927100792,-0.106553354093,-1.25404139989,0.57389339904,0.818903755021,0.00487375138429,0.0,0.818893534356,-0.573819664162,-0.01118567444,0.0,-0.00636345893511,0.0104106686592,-0.999925559414,0.0,0.422300513478,-0.0537084752894,0.305080272769,1.0,-0.42998,-0.565116571429,1.742
-0.012885447292,-0.364111658628,-0.142014045321,-2.51134647465,-0.0487072303901,2.1424005194,-0.293069407044,-1.44370481786,-1.08761117449,-0.0424239463152,-0.970951118052,-0.204178527364,-0.131005780243,-1.32434511981,0.573956370554,0.818858703021,0.0050255435173,0.0,0.818850751435,-0.573882811187,-0.0110775809393,0.0,-0.00618701963838,0.0104734198817,-0.999926011395,0.0,0.413302752751,-0.0656016879309,0.305155401525,1.0,-0.42998,-0.565116571429,1.763
-0.0318142599271,-0.378061539849,-0.142628938772,-2.52363762612,-0.0512574971427,2.14069821422,-0.31060953736,-1.46414834219,-1.07442718112,-0.0499753276188,-0.923993189027,-0.182726211249,-0.138314595786,-1.37007874366,0.573891174568,0.818904120765,0.0050702710878,0.0,0.818896893767,-0.573817785817,-0.0110350786065,0.0,-0.00612737758573,0.0104851653392,-0.999926255557,0.0,0.407710508334,-0.0729390555457,0.305179383504,1.0,-0.42998,-0.565116571429,1.776
-0.0601816505121,-0.397799479117,-0.143486485098,-2.54024493603,-0.0546834905086,2.13819722248,-0.336933731388,-1.50126636204,-1.01868600718,-0.0469592843002,-0.857660027515,-0.172568810924,-0.139626412099,-1.40905938076,0.573930922476,0.818873042206,0.00556631614766,0.0,0.818874669744,-0.57386137329,-0.0103993460457,0.0,-0.00532155276113,0.0105268242403,-0.999930431104,0.0,0.399716718603,-0.0836525843297,0.305455061809,1.0,-0.42998,-0.565116571429,1.795
-0.0831696337083,-0.412671817326,-0.144126038618,-2.5525028531,-0.0574630762867,2.1359307254,-0.358451592245,-1.53896469402,-0.973372099515,-0.0416898646553,-0.801438858757,-0.186518961514,-0.136553535391,-1.45256604437,0.573795857479,0.818966597917,0.00572471284916,0.0,0.818972232089,-0.573730356233,-0.00993520537108,0.0,-0.00485225322099,0.0103893605727,-0.999934256252,0.0,0.393378770589,-0.0921194575031,0.305664303678,1.0,-0.42998,-0.565116571429,1.81
-0.114649349765,-0.431564936536,-0.144979440999,-2.5676929685,-0.0607743011685,2.13288677242,-0.388068462889,-1.57611946902,-0.913203356778,-0.0371544650364,-0.73366005853,-0.155702871538,-0.177204386211,-1.49778539891,0.573734786789,0.819006086483,0.00617831964079,0.0,0.819019669389,-0.573674902402,-0.0091996961608,0.0,-0.00399033705891,0.010338550074,-0.999938593911,0.0,0.38495351762,-0.103400945377,0.305988331845,1.0,-0.42998,-0.565116571429,1.83
-0.135570801088,-0.443043197492,-0.145583758465,-2.57697336128,-0.0630108091025,2.1306902019,-0.407779843255,-1.61028526178,-0.859710729011,-0.0533119460807,-0.692739255233,-0.159334764922,-0.166177781159,-1.5216506186,0.573708046805,0.819024952227,0.00616048383372,0.0,0.819038950785,-0.573649804292,-0.00904687980249,0.0,-0.00387573457239,0.0102361410341,-0.999940098255,0.0,0.379388412012,-0.110749119033,0.306074807421,1.0,-0.42998,-0.565116571429,1.843
-0.170219631903,-0.460290887443,-0.14649390587,-2.59072345091,-0.0662092905005,2.12736778216,-0.440639934492,-1.67398755001,-0.778104475418,-0.0308623960309,-0.63854647689,-0.147474965444,-0.154808361717,-1.59494583521,0.573702080909,0.819027780194,0.00633754938246,0.0,0.819044920262,-0.573646892951,-0.00868376083863,0.0,-0.00347679279026,0.0101728251503,-0.9999422111,0.0,0.370458069164,-0.122620531143,0.306214448528,1.0,-0.421006857143,-0.553323297959,1.864
-0.191698642962,-0.469571841882,-0.146840901313,-2.59849896952,-0.0679411593562,2.12531789807,-0.461085476361,-1.64020709667,-0.683403980935,-0.0266423539678,-0.58436598809,-0.117811296685,-0.140530578756,-1.58051938505,0.57361815393,0.819087681469,0.0061911589838,0.0,0.819101987456,-0.573559789741,-0.00904702376843,0.0,-0.00385938018271,0.0102609252555,-0.999939907493,0.0,0.364986890584,-0.129727497945,0.306061310487,1.0,-0.408519428572,-0.53691124898,1.877
-0.224675675286,-0.482734459769,-0.14714591004,-2.60889157194,-0.0701671319654,2.12236551509,-0.49207660376,-1.63313078569,-0.646922468618,-0.00971183007706,-0.501816746257,-0.106023241892,-0.118750607551,-1.55497673394,0.573907272602,0.818884431527,0.00628308501449,0.0,0.818899817795,-0.57384886881,-0.00901726572179,0.0,-0.00377863003665,0.0103204902517,-0.999939602894,0.0,0.356881826426,-0.140399733763,0.306088497417,1.0,-0.389308,-0.511661942857,1.897
-0.247245748284,-0.49045622587,-0.147168608244,-2.61528290776,-0.0714414439066,2.12039851969,-0.513484857699,-1.59972271185,-0.546930802365,0.00462586671685,-0.454610982825,-0.0711725990958,-0.129558980412,-1.53333717403,0.573953923215,0.818852448367,0.00618940468336,0.0,0.818865051175,-0.57389116819,-0.00947111078648,0.0,-0.00420347850212,0.0105044706195,-0.999935991384,0.0,0.351400103717,-0.147498666282,0.305929809017,1.0,-0.37586,-0.493987428572,1.911
-0.278882431501,-0.500464898474,-0.146980272256,-2.62306947573,-0.0728412970653,2.11800043011,-0.543479382844,-1.56273885288,-0.452583327388,0.00369808253352,-0.366304122104,-0.0636381501859,-0.118192454572,-1.49421155022,0.574097917135,0.818750178306,0.00636191532373,0.0,0.818764750119,-0.574034795156,-0.00943847517716,0.0,-0.00407587094773,0.0106277255671,-0.999935217264,0.0,0.343945477761,-0.157258444811,0.305942744904,1.0,-0.356648571429,-0.468738122449,1.931
-0.298683235279,-0.505712708792,-0.146636631005,-2.62725958261,-0.0735938849431,2.11659373279,-0.562360175266,-1.52846909167,-0.400085555373,0.0338447097368,-0.308047812871,-0.0463634526359,-0.10733139489,-1.44470540544,0.574030913354,0.818797653652,0.0062976018353,0.0,0.818810824904,-0.573966241493,-0.00960903462577,0.0,-0.00425332603931,0.0106726329576,-0.999933999884,0.0,0.339381911216,-0.163241835052,0.305882380092,1.0,-0.344161142857,-0.45232607347,1.944
-0.334228621831,-0.514086735178,-0.146019563724,-2.63357201785,-0.0746810285789,2.1145029667,-0.596277168049,-1.45558455228,-0.303849362062,0.0249558141206,-0.238684294048,-0.0348852120176,-0.087159696999,-1.37110907271,0.574074313478,0.818766539784,0.00638614407655,0.0,0.818781702078,-0.574011974792,-0.00935542830513,0.0,-0.00399426539089,0.0105997730767,-0.999935843269,0.0,0.331364040504,-0.173904839259,0.305954378451,1.0,-0.321107428572,-0.422026906123,1.968
-0.347030064374,-0.516711831207,-0.145622009646,-2.63560067149,-0.0749108422603,2.11374319505,-0.608570262104,-1.4093333218,-0.289030808228,0.0393304391413,-0.221303655127,-0.0128132019675,-0.0762825268664,-1.35164426293,0.573953339147,0.818851269368,0.00639609545157,0.0,0.818866279086,-0.573890299924,-0.0094174056722,0.0,-0.00404087525115,0.0106429032236,-0.999935197869,0.0,0.328176095564,-0.17803492605,0.305943964703,1.0,-0.311501714286,-0.409402253061,1.978
-0.375937571042,-0.52165976972,-0.144682824763,-2.63956940415,-0.0753904749056,2.11229947602,-0.636245838414,-1.33939866866,-0.217563479178,0.0524107929801,-0.170087878281,-0.0215275094307,-0.0610260043059,-1.29181605537,0.573881677131,0.818902206669,0.00630424204284,0.0,0.818915443673,-0.573816991341,-0.00960746917079,0.0,-0.00425017833186,0.010676397244,-0.999933973083,0.0,0.322063251791,-0.186003362541,0.305864760389,1.0,-0.292290285714,-0.384152946939,1.998
-0.394385962857,-0.524344204637,-0.144069811554,-2.64159618632,-0.0755820852293,2.1115466514,-0.653900245594,-1.29779082964,-0.179258317218,0.0479898766498,-0.138654189292,-0.0105988013607,-0.0492972590852,-1.24669222039,0.57389167329,0.818895185453,0.00630630407374,0.0,0.818908711255,-0.573827650321,-0.00954448845145,0.0,-0.00419728480241,0.0106419946813,-0.999934563234,0.0,0.318021962618,-0.191326878501,0.305880324519,1.0,-0.278842285714,-0.366478432653,2.012
-0.419506884768,-0.527133428629,-0.143127154308,-2.6437473443,-0.0756963239652,2.11065586088,-0.678022276634,-1.22761349905,-0.127052963052,0.0576655591617,-0.0991174802674,-0.00510765046525,-0.041469702468,-1.17544366956,0.573862861288,0.818915689453,0.00626553303692,0.0,0.818928642919,-0.573798666268,-0.00957681036108,0.0,-0.00424752753762,0.0106270048657,-0.999934510494,0.0,0.312577741244,-0.198523660587,0.305872667359,1.0,-0.259630857143,-0.341229126531,2.032
-0.435042672262,-0.528463244725,-0.142518360501,-2.6448528562,-0.0756950104463,2.11024670907,-0.692898065757,-1.19006038031,-0.0899328334602,0.0338454185424,-0.0767351556987,-0.00049806773576,-0.031627741286,-1.12822624875,0.57390703294,0.818884898553,0.00624398634416,0.0,0.818897406794,-0.573842384479,-0.0096281785726,0.0,-0.00430138883634,0.0106390684575,-0.99993415197,0.0,0.309216303673,-0.202941746617,0.305837518568,1.0,-0.247143428572,-0.324817077551,2.045
-0.457557510697,-0.529964627741,-0.141419213769,-2.64603469189,-0.0756528395721,2.10973493799,-0.714495275101,-1.09588331115,-0.067963088603,0.0570611547639,-0.0503524082133,7.5567092288e-05,-0.0213599613836,-1.05851224443,0.57382908409,0.818940642891,0.00609529112742,0.0,0.818951635346,-0.573765232407,-0.00961373742816,0.0,-0.0043758984293,0.0105085931028,-0.999935208393,0.0,0.304392113981,-0.209280141076,0.305834205645,1.0,-0.227932,-0.299567771429,2.065
-0.471437642024,-0.530565209638,-0.140726286367,-2.64654669172,-0.0755746719886,2.10946474834,-0.727709464093,-1.0452886299,-0.0433240897072,0.0627677749311,-0.0285988521105,0.0132452518828,-0.0115292161146,-1.00118675818,0.573888298687,0.818899849236,0.00600037105538,0.0,0.818909587645,-0.573824244498,-0.00967318923735,0.0,-0.00447830104171,0.0104652929903,-0.999935209132,0.0,0.301417349022,-0.213169939308,0.30581600726,1.0,-0.215444571429,-0.283155722449,2.078
-0.492327172712,-0.531158544605,-0.139537467298,-2.64697090601,-0.0752783463767,2.1092074047,-0.747682088471,-0.965312779081,-0.0125178539198,0.0677787168867,-0.0141106144751,0.0115465631267,-0.0049579946291,-0.929199625595,0.57390100377,0.818891608362,0.0059091900427,0.0,0.818900809023,-0.573838311173,-0.00958146711471,0.0,-0.00445534916081,0.0103380531409,-0.999936635253,0.0,0.29699586169,-0.218979182696,0.305849485223,1.0,-0.195272571429,-0.256643951021,2.099
-0.504164278684,-0.531228713553,-0.138652908338,-2.64704107613,-0.0749473586327,2.10911711643,-0.759160567711,-0.892318918947,-0.00135824748344,0.0679197640182,-0.00503655404871,0.0304300598141,-0.0100044634147,-0.855855268753,0.573707443713,0.819027567169,0.00586175286937,0.0,0.819036341595,-0.573645140446,-0.00956404151356,0.0,-0.00447073368062,0.0102881485125,-0.999937081291,0.0,0.294539194433,-0.222202543035,0.305859163852,1.0,-0.182785142857,-0.240231902041,2.112
-0.52127074459,-0.531113263061,-0.137426363665,-2.64701782316,-0.0744261802224,2.10909772957,-0.775415042641,-0.819497208653,0.019068438682,0.0701769092491,0.00536006783414,0.0337675547204,0.000991759109688,-0.782310598974,0.573763378262,0.81898860112,0.00583128645662,0.0,0.818997224465,-0.573701573644,-0.00952877843356,0.0,-0.00445862854557,0.0102432687424,-0.999937596091,0.0,0.290966686714,-0.226858579601,0.305858680187,1.0,-0.163573714286,-0.214982595919,2.132
-0.532074347336,-0.530885691116,-0.136470650812,-2.64691758456,-0.0739665819197,2.1090936756,-0.785795953055,-0.764160040059,0.0178454833506,0.0637716882791,0.00773606125284,0.0304054002899,0.0107149842967,-0.724622928526,0.57363704031,0.819077191247,0.00581787449042,0.0,0.819085520229,-0.573574957108,-0.0095616960489,0.0,-0.00449486657211,0.0102504771289,-0.999937359985,0.0,0.288736672011,-0.229730835131,0.305846206603,1.0,-0.150125714286,-0.197308081633,2.146
-0.546308212469,-0.530379271611,-0.135236201894,-2.64666920896,-0.0732969439251,2.10911055869,-0.799204366527,-0.67263604206,0.0289968589937,0.068284083285,0.0151586927234,0.0397616158331,0.00244533660012,-0.633154203422,0.573741977321,0.819003477418,0.00584759256439,0.0,0.819011596368,-0.573678570126,-0.00967729791692,0.0,-0.00457119011453,0.0103417172731,-0.999936074509,0.0,0.28578375424,-0.233507364941,0.305808243106,1.0,-0.130914285714,-0.17205877551,2.166
-0.555083355691,-0.529932756551,-0.134288954689,-2.64642546438,-0.0727855219813,2.10918838926,-0.807616647271,-0.618497314236,0.0346336432085,0.060115438152,0.016980583074,0.0381785260532,0.0129624942669,-0.572622789529,0.573602686732,0.819101052555,0.00584554346018,0.0,0.819108952736,-0.573538866357,-0.00971798469323,0.0,-0.00460745382931,0.0103625986236,-0.999935691892,0.0,0.284013981031,-0.235790397963,0.305787443253,1.0,-0.117466285714,-0.154384261225,2.18
-0.566512344829,-0.529280821745,-0.13309510453,-2.64602257372,-0.0720980049817,2.10930415483,-0.818114413353,-0.538843338564,0.0313858941322,0.054032123888,0.0263244138961,0.03460955244,0.00867471662017,-0.493107935815,0.573838418267,0.818935750072,0.0058697423153,0.0,0.818943789108,-0.573774194104,-0.00974635128497,0.0,-0.00461381766375,0.0104000200506,-0.99993527404,0.0,0.281697420844,-0.238771774974,0.305773365741,1.0,-0.098254857143,-0.129134955102,2.2
-0.572897770372,-0.528816542272,-0.132247405055,-2.64571354469,-0.0716323103875,2.10940557741,-0.824098697341,-0.46560616517,0.0400272039661,0.0716499668353,0.0230355399321,0.0336772593505,0.00642625915932,-0.45291506849,0.573784149663,0.818973898857,0.00585230607833,0.0,0.81898180161,-0.57372011605,-0.00973570608794,0.0,-0.00461579231886,0.0103793258488,-0.999935479947,0.0,0.28045685022,-0.240400475626,0.305774688361,1.0,-0.0857674285716,-0.112722906123,2.213
-0.581672623703,-0.5281553578,-0.130915828341,-2.64526565988,-0.0708555905413,2.10953705477,-0.832160291848,-0.398005197494,0.0328187475614,0.0642886378087,0.0251426519855,0.0392290568558,0.00843317525571,-0.354166244572,0.57378349067,0.818974318132,0.00585824001046,0.0,0.818982338015,-0.573719554882,-0.00972364472965,0.0,-0.00460251707375,0.0103772617099,-0.999935562562,0.0,0.278785674381,-0.242579400638,0.305781813262,1.0,-0.0655954285716,-0.086211134694,2.234
-0.586244258668,-0.52780182511,-0.130050959939,-2.64501799607,-0.0703757056078,2.1096029369,-0.836168319163,-0.333503829277,0.0321107642703,0.0687516951582,0.0213370111788,0.0388311211194,0.0125730168099,-0.29550733361,0.573852030382,0.818926448138,0.00583666582118,0.0,0.81893430744,-0.573788324503,-0.00971111032299,0.0,-0.00460376301877,0.0103527855813,-0.999935810538,0.0,0.27795220954,-0.243665792588,0.305792595138,1.0,-0.0531080000001,-0.0697990857145,2.247
-0.591750889981,-0.527285825453,-0.128773675928,-2.64468402873,-0.0695808904957,2.10972882761,-0.840944711781,-0.241434272364,0.0262457646319,0.0654600576737,0.0180963845162,0.0363098429816,0.0113306973876,-0.213927661237,0.573904202508,0.818889653023,0.00586936251523,0.0,0.818897937027,-0.573840532073,-0.00969326483043,0.0,-0.00456972414633,0.0103696139248,-0.999935792303,0.0,0.277023279569,-0.244907154417,0.305798443161,1.0,-0.0338965714287,-0.044549779592,2.267
-0.594434048544,-0.527020084339,-0.127895724365,-2.64453497921,-0.0690731204974,2.10979466236,-0.843195397377,-0.185759718743,0.0180483049746,0.0674128815709,0.0117806356535,0.0400175011529,0.00560748220284,-0.155495640887,0.573862309596,0.81891908,0.00585977295658,0.0,0.818927226917,-0.573798604673,-0.00970078300845,0.0,-0.00458191496644,0.0103658409344,-0.999935775636,0.0,0.276628215258,-0.245436753695,0.305796363687,1.0,-0.0214091428573,-0.0281377306124,2.28
-0.597472586944,-0.526809960264,-0.126745476155,-2.64440185429,-0.0684275650286,2.10979620902,-0.845591215499,-0.127684391162,0.0100405792418,0.04502011617,0.00553293759421,0.0303271884626,-0.0010135069732,-0.104171567192,0.573857610141,0.818922524272,0.0058386149336,0.0,0.818930346922,-0.573793766609,-0.00972353801986,0.0,-0.00461275225532,0.0103615447352,-0.999935678385,0.0,0.276198989267,-0.24597580307,0.305808401915,1.0,-0.0195897560976,-0.0257465365854,2.301
-0.598930218572,-0.526673991249,-0.126209923633,-2.64427205964,-0.0682254500383,2.1098193289,-0.846951115649,-0.10581136362,0.0126019044072,0.0388200385469,0.00727929901557,0.0150525292747,0.00406870470789,-0.0989404165961,0.573651941122,0.819067311249,0.00573907594641,0.0,0.819074264486,-0.573588941224,-0.00968620995272,0.0,-0.00464187681697,0.0102574400386,-0.999936616943,0.0,0.275999104901,-0.246267705212,0.305832655467,1.0,-0.0193297560976,-0.0254048222997,2.314
-0.600894065826,-0.526412834523,-0.125771723,-2.64405382745,-0.0680065440352,2.10992766766,-0.848809365656,-0.0929779229543,0.0116705439866,0.0134395427733,0.0155119687498,0.010327565932,0.00929807121114,-0.092217002601,0.573533276178,0.819150734913,0.00569223231225,0.0,0.819157606571,-0.573471388919,-0.00959836390208,0.0,-0.00459826300501,0.0101680122574,-0.999937731813,0.0,0.275687990807,-0.246750299205,0.305856190233,1.0,-0.0189297560976,-0.0248791080139,2.334
-0.602194487777,-0.52622555231,-0.125662590954,-2.64395075064,-0.0678981177861,2.10993620992,-0.85006165108,-0.0956198243493,0.0157837972826,0.00685316975744,0.00739621757253,0.0133145774332,-0.000756765703389,-0.094594292525,0.573547358185,0.81914061689,0.00572927406567,0.0,0.81914757643,-0.573484656514,-0.00966145295753,0.0,-0.00462852687955,0.0102346188337,-0.999936912668,0.0,0.275420491584,-0.24709586163,0.30583782805,1.0,-0.0186497560976,-0.0245111080139,2.348
-0.604319161706,-0.526024540726,-0.125567289123,-2.64380372561,-0.0678470380243,2.10993837325,-0.85199189317,-0.0884455299724,0.00671223820325,0.00176398443343,0.00682948612651,0.00148768564866,0.00105449187568,-0.0751566415325,0.573668826454,0.819055568843,0.0057270938826,0.0,0.819062335558,-0.573605739256,-0.00970016829972,0.0,-0.0046599726632,0.0102557285109,-0.999936550331,0.0,0.274949972407,-0.247686742371,0.305833507846,1.0,-0.0181897560976,-0.0239065365854,2.371
-0.605178380577,-0.525939263036,-0.125534080649,-2.64370864557,-0.0678281218105,2.1099416092,-0.852824116398,-0.0882649652374,0.0051272538407,0.00272057137905,0.00879649678506,0.000466554058109,3.91595688524e-05,-0.0850029147367,0.573680378501,0.81904749834,0.00572413194873,0.0,0.81905432049,-0.573617492195,-0.00968192313639,0.0,-0.00464658217166,0.0102429015408,-0.99993674412,0.0,0.274766915793,-0.247935824286,0.305846587055,1.0,-0.0179897560976,-0.0236436794425,2.381
-0.606788683623,-0.525737387839,-0.125530290364,-2.64353047073,-0.0678015365268,2.10998902108,-0.854452318994,-0.0834223406103,0.00794135441496,8.30186501502e-05,0.0107503703508,0.00519285870471,0.000539172403765,-0.06842545856,0.573683650116,0.819045110185,0.00573794143233,0.0,0.81905222727,-0.57362103896,-0.00964881172523,0.0,-0.00461149692235,0.0102352362999,-0.999936985032,0.0,0.27441622166,-0.248421282622,0.305857796754,1.0,-0.0175897560976,-0.0231179651568,2.401
-0.607942843003,-0.525633446877,-0.125545222792,-2.64343293275,-0.0677843986847,2.11000797686,-0.855540263313,-0.0818693708409,0.00940140052192,-0.00424475382653,0.00768862018864,0.000917530070556,0.00065605115573,-0.0825243016437,0.573760783676,0.818990933138,0.00575859832733,0.0,0.818998354857,-0.573698272523,-0.0096298363028,0.0,-0.00458313894669,0.0102417021646,-0.999937049206,0.0,0.274151764655,-0.248764323875,0.305865334922,1.0,-0.0173097560976,-0.0227499651568,2.415
-0.609566841127,-0.525476593247,-0.125551565582,-2.64329468144,-0.067764508572,2.11002274697,-0.85710558956,-0.0799115649416,0.00413171170518,-0.000846753372707,0.00788240447078,0.000418072138206,0.00471782735216,-0.0723467735453,0.573828997848,0.818943005486,0.00577770680891,0.0,0.818950652266,-0.573766453697,-0.00962458654564,0.0,-0.0045670214153,0.0102547210471,-0.999936989521,0.0,0.273779673906,-0.2492421665,0.305871828063,1.0,-0.0169097560976,-0.0222242508711,2.435
-0.610542134996,-0.525375917551,-0.12555123688,-2.64320027,-0.0677522081102,2.1100532032,-0.858063012689,-0.0700567386907,0.00876045146808,-0.00141157582141,0.00665015349742,0.00166727979614,0.00549822654293,-0.070833979487,0.573853526782,0.818925767734,0.00578477671024,0.0,0.818933623792,-0.573791254468,-0.00959494764345,0.0,-0.00453838295784,0.0102436399204,-0.999937233491,0.0,0.273562804005,-0.249533496242,0.30588048234,1.0,-0.0166497560976,-0.0218825365854,2.448
-0.61221314049,-0.525184723835,-0.125517288106,-2.64301678284,-0.0677298733103,2.11011758987,-0.859775782664,-0.0726021734143,0.0104426825453,0.00454567653007,0.00635339617665,-0.000130131013985,0.00316817664692,-0.0773539033871,0.573814314665,0.818953287914,0.00577852932353,0.0,0.818961376364,-0.573752747859,-0.00952865411395,0.0,-0.00448816194908,0.010200266845,-0.999937903551,0.0,0.27320433236,-0.250031271077,0.305900174707,1.0,-0.0161897560976,-0.0212779651568,2.471
-0.613007775054,-0.525077075348,-0.125461292576,-2.64292829704,-0.0677167316826,2.11012799206,-0.860598841791,-0.0705170976001,0.0134083531821,0.00475937084082,0.0120720987873,0.000261541588714,-0.000269877241426,-0.0714403292011,0.573761689531,0.818990294632,0.00575915151892,0.0,0.818998163655,-0.573700168653,-0.00953264483338,0.0,-0.00450320410364,0.0101863970432,-0.999937977311,0.0,0.273038708139,-0.250255900749,0.30590316732,1.0,-0.0159697560976,-0.0209888222997,2.482
-0.614394351595,-0.524865009609,-0.125355831705,-2.64277940755,-0.0677013702849,2.11016270611,-0.862002275567,-0.0718519403415,0.0124379578285,0.00793238900442,0.00411372536652,-0.000470741670663,0.00469674308502,-0.0686047211838,0.573687812761,0.819042360652,0.00571417968439,0.0,0.81904967195,-0.573626281964,-0.00955355537429,0.0,-0.00454705044435,0.0101611509164,-0.999938035752,0.0,0.272751100276,-0.250647131408,0.305898571817,1.0,-0.0155697560976,-0.0204631080139,2.502
-0.615271741282,-0.524706849645,-0.125305771009,-2.64271329371,-0.0676862762801,2.11018373027,-0.862921560172,-0.0709404068621,0.00958254591293,0.00544504482829,0.00442860238446,-0.000467925018161,0.00278478484049,-0.0709959948878,0.573628337115,0.819084098943,0.00570233451472,0.0,0.819090985258,-0.573566193284,-0.00961907957794,0.0,-0.00460825755155,0.0101887035829,-0.999937475186,0.0,0.272558452308,-0.250890245318,0.3058735804,1.0,-0.0153097560976,-0.0201213937282,2.515
-0.61668753705,-0.524516352786,-0.125271102807,-2.64265743156,-0.0676659177333,2.11019809012,-0.864320679563,-0.0697310324282,0.00152350370341,-2.34829494132e-05,0.00771887672198,0.000158329489637,-0.000668440836059,-0.0619200839898,0.573629620404,0.819083151449,0.00570933521488,0.0,0.819089590345,-0.573566303206,-0.00973065858723,0.0,-0.0046956266137,0.0102584485409,-0.999936355637,0.0,0.272223335831,-0.251278774212,0.305831099025,1.0,-0.0148897560976,-0.0195693937282,2.536
-0.617578087835,-0.524409121458,-0.125279276442,-2.64262699298,-0.06765520994,2.11020465677,-0.865159838836,-0.0669571594838,0.00525479164789,-0.000511272431002,0.00289794002376,0.000265640104993,-0.000447217341411,-0.0662109422633,0.573683964832,0.819044963626,0.00572738646272,0.0,0.819051285893,-0.573619894574,-0.00979563819862,0.0,-0.0047378165308,0.0103108223222,-0.999935617946,0.0,0.272004553157,-0.251528576087,0.305805935062,1.0,-0.0146297560976,-0.0192276794425,2.549
-0.618959571621,-0.524277999876,-0.125300436508,-2.64253319377,-0.0676381864403,2.11022070202,-0.866512784664,-0.0679234236867,0.00177000634296,-0.00140931357777,0.00177748634249,0.000944519738881,0.00426137172849,-0.0630068565744,0.573734839823,0.819009144684,0.00575338145948,0.0,0.819015676244,-0.573670509244,-0.00980896480866,0.0,-0.00473317773478,0.0103400535381,-0.99993533807,0.0,0.271659863844,-0.251950397331,0.3058018279,1.0,-0.0142097560976,-0.0186756794425,2.57
-0.619840274101,-0.524220608026,-0.125298757456,-2.64243532585,-0.0676264450519,2.11024144543,-0.867359009491,-0.0675331250977,0.00818462738978,-0.00015905953815,0.00725338897458,0.000320600474953,0.00472714623479,-0.0627683965317,0.573771424763,0.818983472849,0.00575935995626,0.0,0.818990379947,-0.573707748777,-0.00974286658985,0.0,-0.00467514729143,0.0103072372896,-0.999935949877,0.0,0.271480286179,-0.252194319888,0.30582663651,1.0,-0.0139697560976,-0.0183602508711,2.582
-0.621162571597,-0.524090094994,-0.125276775276,-2.64226799396,-0.0676049234333,2.11031147244,-0.868658814654,-0.0607703344598,0.00983848092869,0.00115491762341,0.00693477540874,0.000395772068061,0.00296461488402,-0.0596477968359,0.573791864574,0.818969182982,0.0057550305059,0.0,0.818976574779,-0.573729379533,-0.00962891088056,0.0,-0.00458403945248,0.0102384230208,-0.999937078659,0.0,0.271200982566,-0.252595038286,0.305861402637,1.0,-0.0135497560976,-0.0178082508711,2.603
-0.621940883023,-0.523990832638,-0.125263297882,-2.64215637586,-0.0675899292337,2.11037013037,-0.86945479311,-0.0610047736563,0.0118531802662,0.00131834639541,0.00129714545826,-0.000366953384338,-0.000701854632224,-0.0560723384124,0.573779902501,0.818977588099,0.00575157185624,0.0,0.818985286803,-0.573718202791,-0.00955356939491,0.0,-0.00452446486217,0.0101922950755,-0.999937821236,0.0,0.271042047583,-0.252835683548,0.305881103874,1.0,-0.0132897560976,-0.0174665365854,2.616
-0.623143478916,-0.52381212552,-0.125254060949,-2.64197026095,-0.067566444691,2.11037473048,-0.870704543511,-0.0542449595805,0.0119476786803,-0.000391543634267,0.00612332139506,0.000957606271268,0.000147772051689,-0.0548456507793,0.573754275849,0.818995494739,0.00575825013097,0.0,0.819003345691,-0.573692740117,-0.00953449455796,0.0,-0.0045053285332,0.0101866792684,-0.999937964866,0.0,0.270782372683,-0.253201200256,0.305900775744,1.0,-0.0128697560976,-0.0169145365854,2.637
-0.623900375031,-0.523696532182,-0.125232319197,-2.6418741677,-0.0675562592659,2.11038143569,-0.871408897277,-0.0578782166687,0.003749861489,-4.97252076518e-05,0.00865546116728,-0.000335217888942,0.00235258353585,-0.0555232398076,0.573790095265,0.818970440585,0.00575247118645,0.0,0.818978164708,-0.573728426479,-0.00955014571162,0.0,-0.00452101784254,0.0101911235232,-0.999937848768,0.0,0.270630320875,-0.253404450826,0.305901066434,1.0,-0.0126297560976,-0.0165991080139,2.649
-0.625192480642,-0.523484129645,-0.125172410713,-2.64178679107,-0.0675271812268,2.11041529701,-0.872728257675,-0.0567999057329,0.00980714494957,0.0048438915082,-0.000455801411233,0.000709671497231,-0.000605107874776,-0.0620774487708,0.573743987969,0.819002768653,0.00574874852265,0.0,0.819010104065,-0.573681557117,-0.00962638901685,0.0,-0.0045861765511,0.0102315629393,-0.999937139076,0.0,0.27032611946,-0.253779414855,0.305869159577,1.0,-0.0121497560976,-0.0159682508711,2.673
-0.625751170536,-0.523400393085,-0.125157894184,-2.64176588971,-0.0675219426409,2.11042210789,-0.873291384768,-0.0539378694675,0.0119358326236,-0.00105672004257,0.0011442783336,-0.000187001768137,0.000296088684411,-0.053602761983,0.573733668846,0.819009992725,0.0057494305085,0.0,0.819017091375,-0.57367069444,-0.00967911559658,0.0,-0.00462910172645,0.0102623139359,-0.999936626157,0.0,0.270191989282,-0.253931449984,0.305848816663,1.0,-0.0119497560976,-0.0157053937282,2.683
-0.627005432424,-0.523258765383,-0.125140835022,-2.64172842115,-0.0675004116733,2.11043325502,-0.874534996433,-0.052909296543,0.00608359755167,0.00129406082102,0.00580137202261,0.00106666503218,0.00101888728271,-0.0550968329573,0.573741867132,0.819004120092,0.00576784813357,0.0,0.819011013941,-0.573677934051,-0.00976390940491,0.0,-0.00468788508596,0.0103260935699,-0.999935695695,0.0,0.26988624325,-0.254272763497,0.305815169136,1.0,-0.0114697560976,-0.0150745365854,2.707
-0.627522743416,-0.523209084194,-0.12514121737,-2.64168812739,-0.0674887943481,2.11044237658,-0.875038482642,-0.0558928367862,0.00850467120983,0.000654879127984,0.00357221943625,0.00199028454575,0.000528120101335,-0.0526149346765,0.573760506546,0.818990991986,0.0057778089378,0.0,0.818998004598,-0.573696558761,-0.00976083148601,0.0,-0.00467941404976,0.0103325925431,-0.999935668238,0.0,0.269765419191,-0.254421779816,0.305816023001,1.0,-0.0112697560976,-0.0148116794425,2.717
-0.62859787945,-0.523057625798,-0.125128030359,-2.64152776123,-0.0674704482546,2.11046340886,-0.876126773904,-0.0543478653001,0.0112525611073,0.00254440084162,0.0151719178511,9.8131969974e-05,0.00111365341227,-0.0482605000294,0.573756389042,0.818993874884,0.00577804780908,0.0,0.819001056843,-0.573692810102,-0.00972498991465,0.0,-0.00464997221529,0.0103122009008,-0.999936016089,0.0,0.269533721085,-0.254747525357,0.305835452194,1.0,-0.0108497560976,-0.0142596794425,2.738
-0.629194650212,-0.522945105939,-0.125112000309,-2.64141362216,-0.0674572744413,2.11050879406,-0.876716545585,-0.0521537238051,0.00793466013194,-0.00114388045021,0.0128175961195,0.000515964366996,0.0107935781989,-0.0497722099366,0.573762979764,0.818989328287,0.00576802437498,0.0,0.818996705251,-0.57370010923,-0.00966066040425,0.0,-0.00460295018238,0.0102671199328,-0.999936697545,0.0,0.269408382408,-0.254955872586,0.305855901006,1.0,-0.0105897560976,-0.0139179651568,2.751
-0.630207450318,-0.522790655823,-0.125087126441,-2.64125127885,-0.0674332231637,2.11058592298,-0.877655937541,-0.0475045628838,0.00861513756345,0.00107566627938,0.00861593124637,-0.000149533597798,0.0005373746512,-0.0474182895456,0.57382321561,0.818947162142,0.00576278999704,0.0,0.818954836387,-0.573761145277,-0.00958493771786,0.0,-0.00454318002495,0.0102197212831,-0.99993745645,0.0,0.269213758827,-0.255250070438,0.305874624136,1.0,-0.0101897560976,-0.0133922508711,2.771
-0.630825984967,-0.522704603327,-0.1250812681,-2.64116297344,-0.0674226455233,2.11058402299,-0.878245927407,-0.0427774724425,0.0037435169382,0.000294160247711,0.00422131498193,-0.000117223070705,-0.00172932582614,-0.0444780196168,0.573851464012,0.818927351925,0.0057651037001,0.0,0.818935068474,-0.573789420612,-0.00958130046948,0.0,-0.00453852089022,0.0102196856556,-0.999937477972,0.0,0.269076429302,-0.255434706563,0.305883146765,1.0,-0.00992975609756,-0.0130505365854,2.784
-0.631747757683,-0.52257324045,-0.125066230559,-2.64105291365,-0.0674026192123,2.11058963425,-0.879231145365,-0.047333842852,0.0066477883358,0.00096776247336,0.00311420030213,8.29072933646e-05,0.000233897475134,-0.0512775575018,0.573803113687,0.818961181474,0.00577207606813,0.0,0.818968921437,-0.573740938603,-0.00959103710996,0.0,-0.00454309821084,0.0102307148421,-0.999937344403,0.0,0.268869527816,-0.25570357735,0.305885766694,1.0,-0.00950975609756,-0.0124985365854,2.805
-0.632300987839,-0.522488716147,-0.125039626551,-2.64099721051,-0.0673890414538,2.11060095827,-0.879778903293,-0.0437384952576,0.0048107898307,0.00431136787404,0.00365737857734,0.000855492269903,-0.000893173743674,-0.045999627716,0.57379751548,0.818965124684,0.00576911446788,0.0,0.818972769467,-0.573735208863,-0.00960520084273,0.0,-0.00455646813773,0.0102363851145,-0.999937225539,0.0,0.268747855851,-0.255859202405,0.305881633757,1.0,-0.00924975609756,-0.0121568222997,2.818
-0.633169185348,-0.522371172367,-0.124981855063,-2.64097415383,-0.0673669355933,2.11061886155,-0.880632524181,-0.0382930149369,0.00907855505687,0.00342462761113,0.00180299395562,-0.000115332847793,-0.000529314382947,-0.0406189938531,0.573779550739,0.818977739082,0.00576514905058,0.0,0.818985016863,-0.5737165356,-0.00967604431535,0.0,-0.00461699244754,0.0102736848529,-0.999936565378,0.0,0.26854558988,-0.25608372559,0.305851795078,1.0,-0.00882975609757,-0.0116048222997,2.839
-0.633645917776,-0.522328534603,-0.124959746973,-2.64096478277,-0.0673569808972,2.11062248215,-0.881089983259,-0.0384247206135,0.00433232046816,0.00272517950204,0.000988952923685,0.000105572663305,-0.000448248711394,-0.045152654039,0.573784541731,0.818974233612,0.00576638985907,0.0,0.818981401564,-0.573721247662,-0.00970261692774,0.0,-0.0046379821735,0.0102899757701,-0.999936300731,0.0,0.268430911893,-0.256207969394,0.305841211172,1.0,-0.00858975609757,-0.0112893937282,2.851
-0.634442457938,-0.522233142866,-0.124936886527,-2.64092070118,-0.0673400288825,2.11063188202,-0.881907093893,-0.036866448193,0.00139171922579,-0.000733326072251,0.000590071951097,0.00087016801634,-0.000367337060713,-0.0399740989437,0.573761201675,0.818990540019,0.00577284269562,0.0,0.818997602431,-0.573697500339,-0.00973921040779,0.0,-0.00466454557387,0.0103161240112,-0.999935907746,0.0,0.268242810965,-0.256425771937,0.305827530447,1.0,-0.00816975609757,-0.0107373937282,2.872
-0.634929652433,-0.522168004598,-0.124929051626,-2.64085822555,-0.0673254625693,2.11064314619,-0.882393893423,-0.0395839325982,0.00533359977493,0.000302970516186,0.00620845019363,0.0020065585526,0.00458064343027,-0.0391302547376,0.57376537625,0.81898757709,0.0057782775283,0.0,0.81899475079,-0.573701771208,-0.00972742478459,0.0,-0.0046517215632,0.0103138370791,-0.999935991077,0.0,0.268135721173,-0.256569461009,0.305833157277,1.0,-0.00790975609757,-0.0103956794425,2.885
-0.635641359259,-0.522056015724,-0.124923095855,-2.64072452332,-0.0673095888535,2.11067501752,-0.883108425119,-0.03746325419,0.00654476705975,-0.00167997440554,0.00840364073823,0.000334292610091,-9.24932614394e-05,-0.037780792848,0.573772328452,0.818982710714,0.00577767740589,0.0,0.818990144296,-0.573709316988,-0.0096700593985,0.0,-0.00460499276102,0.0102804712806,-0.999936550963,0.0,0.267989455099,-0.256793624812,0.30585568541,1.0,-0.00750975609757,-0.0098699651568,2.905
-0.636114764129,-0.521997602035,-0.124909956647,-2.64063956496,-0.0672922682568,2.11070371523,-0.883551341775,-0.0348485545318,0.00244709191508,0.00117271410175,0.0037994691197,0.00255624803605,0.00147194948017,-0.0307496847918,0.57379956971,0.818963626446,0.00577747874976,0.0,0.818971325804,-0.573737154764,-0.0096120577975,0.0,-0.00455725923321,0.0102471813497,-0.999937111354,0.0,0.267895256045,-0.256940251673,0.305875643167,1.0,-0.00722975609757,-0.0095019651568,2.919
-0.636762476798,-0.521930965109,-0.124882183368,-2.64054215891,-0.0672724712875,2.11073731949,-0.884173711721,-0.0302172979697,-0.000832392444287,0.00278667940477,0.0077688500766,-0.000200231154669,7.32874573595e-05,-0.0329687894421,0.5738138981,0.818953627095,0.00577182091428,0.0,0.818961577922,-0.573752204558,-0.00954403229073,0.0,-0.00450461161545,0.0102035943866,-0.999937795633,0.0,0.26776302006,-0.257133719965,0.305899009478,1.0,-0.00682975609757,-0.00897625087109,2.939
-0.637162795197,-0.521840863814,-0.124824684152,-2.64048731706,-0.0672587031451,2.11074950242,-0.88456954051,-0.0281494427664,0.00575817899622,0.00446451755904,0.00616394275628,0.000125891246799,-0.00046033330426,-0.0297250985626,0.573785667092,0.818973543332,0.00575243097903,0.0,0.818981199144,-0.573723846282,-0.00956506968441,0.0,-0.00453331946535,0.0101996290853,-0.99993770635,0.0,0.267686347136,-0.257240852104,0.30589321873,1.0,-0.00656975609757,-0.00863453658537,2.952
-0.637656614371,-0.521749011091,-0.124774013793,-2.64044617886,-0.0672419319663,2.11075742207,-0.885089604947,-0.0243805862918,0.0100198490522,0.00213670181715,0.00174848662976,0.000190219321128,0.000307637541507,-0.0296291705896,0.573737743081,0.81900718712,0.00574251784373,0.0,0.819014558055,-0.573675563271,-0.00960461873202,0.0,-0.0045719976376,0.0102139346383,-0.999937384228,0.0,0.267580467943,-0.257370101354,0.305880015942,1.0,-0.00622975609757,-0.00818767944251,2.969
-0.638118491199,-0.521661889557,-0.124758721853,-2.64042927876,-0.0672310012277,2.11076467576,-0.885578205275,-0.0255909058705,0.00570721810266,-0.000274821663584,-0.000829208546066,-0.000163665798909,0.00490372200567,-0.025931137544,0.573710851829,0.819025984533,0.00574822185309,0.0,0.819033137681,-0.573648035114,-0.00966426878487,0.0,-0.00461791999417,0.0102526774531,-0.999936776711,0.0,0.267469000341,-0.257493033464,0.305856621154,1.0,-0.00588975609757,-0.00774082229966,2.986
-0.638700138835,-0.521566008891,-0.124744654388,-2.64041329345,-0.0672114760037,2.11077258641,-0.886139483129,-0.0333051379874,0.00667889172372,0.000891129606308,-0.000767300508838,0.00399371125373,-0.000429341894335,-0.0325136891412,0.57372558327,0.819015584713,0.00575968751663,0.0,0.819022545537,-0.573662024301,-0.00973132460733,0.0,-0.00466608234972,0.0103006221366,-0.999936060385,0.0,0.267333181614,-0.25763900987,0.305829710976,1.0,-0.00548975609757,-0.00721510801394,3.006
-0.639015553735,-0.521503788881,-0.124740570225,-2.6403997426,-0.0672011795436,2.11078299066,-0.88642188458,-0.0225056012828,0.00203900106826,-0.00132606855667,0.00126084881032,7.07247947693e-05,0.000901070878316,-0.023056138452,0.573756481908,0.818993858159,0.00577119292208,0.0,0.819000769536,-0.573692493258,-0.00976778278407,0.0,-0.00468895432834,0.010331139037,-0.999935638566,0.0,0.267250769714,-0.257733256686,0.305813869538,1.0,-0.00522975609757,-0.00687339372823,3.019
-0.639524808658,-0.521426406869,-0.124736336721,-2.64037066673,-0.0671855525646,2.11078716986,-0.886905334621,-0.0224118182459,0.00438040119767,0.00051739013235,0.00320064175366,0.000284406865765,0.00196277592096,-0.0220716553032,0.573782965685,0.81897520741,0.0057848802548,0.0,0.818982072568,-0.573718494815,-0.00980818132986,0.0,-0.00471385530279,0.0103656801635,-0.99993516402,0.0,0.267127488878,-0.257873477614,0.305799077627,1.0,-0.00480975609757,-0.00632139372823,3.04
-0.639823256797,-0.521404986527,-0.124736539809,-2.64034495038,-0.0671731204814,2.11079593569,-0.887187361463,-0.0210652427308,0.00298842856669,-0.00444796663791,-3.04786519628e-05,0.000810005907685,7.31455173565e-05,-0.0189781537982,0.573803132234,0.818961010052,0.00579451067956,0.0,0.818968049151,-0.573738776022,-0.0097927657019,0.0,-0.00469544822742,0.0103648382953,-0.999935259351,0.0,0.267058455709,-0.257959346321,0.305803649955,1.0,-0.00454975609757,-0.00597967944251,3.053
-0.640241309613,-0.521379023698,-0.124722845306,-2.64028633555,-0.0671582308031,2.11080547827,-0.887588293179,-0.0179355595644,0.00155242481234,0.00303761261617,0.00291757910777,-5.78906342299e-05,-0.000230659208037,-0.0184416581936,0.573816620499,0.8189515487,0.00579601775837,0.0,0.818958814321,-0.573752721938,-0.0097478928504,0.0,-0.00465766065553,0.0103404018484,-0.999935689075,0.0,0.266969382342,-0.258082184347,0.305821920351,1.0,-0.00414975609757,-0.0054539651568,3.073
-0.640506895718,-0.521368052077,-0.124705460429,-2.64023819069,-0.0671454332155,2.11081557883,-0.887867390631,-0.020099718502,0.000991697208574,0.0016449832396,-0.000262707282395,0.00116616216097,0.000562697266623,-0.0278350781465,0.573800961729,0.818962537011,0.00579363377036,0.0,0.818970004665,-0.573737581333,-0.00969876929554,0.0,-0.00461899221154,0.0103101739281,-0.999936180576,0.0,0.266918222386,-0.258161364414,0.305841080304,1.0,-0.00386975609757,-0.0050859651568,3.087
-0.64084940606,-0.521362452072,-0.124668329159,-2.64016120801,-0.0671268682622,2.11083564647,-0.888200025194,-0.0189318268411,0.000285465982618,0.00321233860448,0.00204086901992,0.000445545089119,0.000420864457266,-0.013673215262,0.573794228081,0.818967339465,0.0057816616469,0.0,0.818975111826,-0.573731862777,-0.00960534987969,0.0,-0.00454943191964,0.0102467285948,-0.999937151636,0.0,0.266860320455,-0.258264899529,0.305876672697,1.0,-0.00346975609757,-0.00456025087109,3.107
-0.641055727313,-0.521340045686,-0.124627125207,-2.64012035985,-0.0671158523698,2.11084677283,-0.888411852815,-0.0107946531583,-0.00022332907208,0.0015140621331,0.00303865876467,0.000902794743654,0.0015000831392,-0.0172241407163,0.573767204838,0.818986379454,0.00576643925314,0.0,0.81899413298,-0.57370522151,-0.00957475101774,0.0,-0.00453344164395,0.0102165547453,-0.999937533007,0.0,0.26682763104,-0.258321279768,0.305888950935,1.0,-0.00320975609757,-0.00421853658537,3.12
-0.641369393538,-0.521277706235,-0.124566118488,-2.64008418974,-0.0670972759816,2.11086324722,-0.888729845552,-0.0137734436284,0.00493911595081,0.000335775003044,0.00294505375226,-0.000200448422785,0.00188576211919,-0.0190458477047,0.573730292134,0.819012353636,0.00575007650946,0.0,0.819019902442,-0.573668304469,-0.0095824189266,0.0,-0.00454957043018,0.010207347635,-0.999937553782,0.0,0.266771044402,-0.258400061744,0.305885321786,1.0,-0.00278975609757,-0.00366653658537,3.141
-0.641537116108,-0.521234511016,-0.124537765677,-2.64007335263,-0.0670869747841,2.11086691819,-0.888894754897,-0.016544488178,0.00603125291104,0.0024891761445,2.71181648103e-07,0.00220621396039,0.000291934152435,-0.0160837428345,0.573717585143,0.819021285476,0.00574572331041,0.0,0.8190286638,-0.573655337256,-0.00960982894082,0.0,-0.00457467768562,0.0102194366949,-0.999937315754,0.0,0.266736889827,-0.258440055805,0.305875335172,1.0,-0.00252975609757,-0.00332482229966,3.154
-0.641783952184,-0.521177180441,-0.124516220291,-2.6400774652,-0.0670675360311,2.11086988693,-0.889153470305,-0.0168666987128,0.00173077665408,-0.000248626565242,-0.00107475848382,0.00200631680813,0.00029933272325,-0.0136649407534,0.573700921923,0.81903288555,0.00575599454942,0.0,0.819040112361,-0.573638057472,-0.00966541589468,0.0,-0.00461452478201,0.010259645962,-0.999936720911,0.0,0.266677744292,-0.258497590962,0.305853120926,1.0,-0.00210975609757,-0.00277282229966,3.175
-0.641926058309,-0.521140037825,-0.12450274482,-2.6400777113,-0.0670593552057,2.11086794525,-0.889293837052,-0.00968937496144,0.00117901104867,-0.00130538850477,1.83516430518e-05,-0.0001283353062,-0.00034245349659,-0.00866367952945,0.573696435455,0.819036007246,0.00575896531159,0.0,0.819043088336,-0.57363316693,-0.00970340909306,0.0,-0.00464399734168,0.0102838499389,-0.999936335833,0.0,0.266643470932,-0.258530743584,0.30583948378,1.0,-0.00184975609757,-0.00243110801394,3.188
-0.642095768458,-0.521119449492,-0.124489925524,-2.64007746405,-0.0670458652595,2.11086825973,-0.889450581836,-0.00878431590368,-0.000409983139887,0.000275423454691,0.000375265080854,-0.000263940794455,-0.000497088455863,-0.00720515912338,0.573703810846,0.81903079075,0.00576611873692,0.0,0.819037861626,-0.573640322269,-0.00972156322933,0.0,-0.0046546710254,0.0103001657423,-0.999936118271,0.0,0.26660321792,-0.25857156123,0.305832350648,1.0,-0.00152975609757,-0.00201053658537,3.204
-0.642261672961,-0.521101683752,-0.124479696757,-2.64007746405,-0.0670314444985,2.11086924537,-0.889568199975,-0.00719188330529,0.00162749056856,0.00155174709601,0.000454595437318,0.00152462729395,0.000255688920912,-0.00649381979924,0.573742321508,0.819003752432,0.00577485185406,0.0,0.819010846385,-0.573678637811,-0.00973657661717,0.0,-0.00466147338791,0.0103161509945,-0.999935921794,0.0,0.26656357645,-0.258611910277,0.305826141719,1.0,-0.00118975609757,-0.00156367944252,3.221
-0.642443559449,-0.521111638718,-0.124457971349,-2.64006879119,-0.0670120747977,2.11087401358,-0.889668655427,-0.0130725195926,-0.0012091421403,0.000817953896273,0.000283877482132,4.54841594216e-05,-0.000164293034275,-0.00677848610413,0.573802205709,0.818961765753,0.00577943419121,0.0,0.818969028665,-0.573738760836,-0.0097114006142,0.0,-0.0046374696694,0.0103057991173,-0.999936140151,0.0,0.266525928049,-0.25865665369,0.30583469073,1.0,-0.000789756097566,-0.0010379651568,3.241
-0.642533745811,-0.521108824687,-0.124450483416,-2.64005957693,-0.0670000787096,2.11088277467,-0.889724306964,-0.00293286256705,-0.000718344587888,0.000365638007258,0.000458329919375,0.00419740285579,-0.000153645171206,-0.00400758685718,0.573830717614,0.818941753778,0.00578431878615,0.0,0.818949144444,-0.573767417794,-0.00969515312943,0.0,-0.00462100102193,0.0103006379179,-0.999936269573,0.0,0.266508744247,-0.258681326896,0.305838784625,1.0,-0.000509756097566,-0.000669965156801,3.255
-0.642578824359,-0.521107022002,-0.124451133361,-2.64004928507,-0.0669847317972,2.11088513518,-0.88975725825,0.00041543721373,0.000340015668205,-0.000700632655222,0.000705700111817,0.00231416843821,-0.000141103947892,-0.00625126916416,0.573848116993,0.818929476669,0.00579635811013,0.0,0.81893704919,-0.573784887942,-0.00968290938811,0.0,-0.00460384586744,0.0103035701018,-0.999936318496,0.0,0.266501016761,-0.258694829721,0.305843002327,1.0,-0.000109756097566,-0.000144250871087,3.275
-0.642580596236,-0.521100313594,-0.124437687876,-2.64004916921,-0.0669731221491,2.11089247036,-0.889771577216,-0.00131542521658,0.000664694562153,0.00183062411256,-7.7971193312e-05,0.00354020851867,-0.000826032050741,-0.000377489805892,0.573833282945,0.818939851847,0.00579908124069,0.0,0.818947458555,-0.573770057502,-0.00968132955506,0.0,-0.00460117600146,0.0103048103654,-0.999936318004,0.0,0.266505544426,-0.258692094457,0.305841538213,1.0,0.0,0.0,3.288
-0.642575306537,-0.521100594403,-0.124406872642,-2.64004844631,-0.0669635980094,2.1108891371,-0.889787224273,-6.57481118756e-05,-0.00200838038345,0.000121200531083,9.05378217202e-05,0.000487924818389,0.000172721536216,-0.00158760473197,0.573798385313,0.818964352198,0.00579221398416,0.0,0.818971876763,-0.573735171706,-0.00968321847317,0.0,-0.00460710256031,0.0103000737901,-0.999936339517,0.0,0.266514063735,-0.258682648947,0.30584241761,1.0,0.0,0.0,3.311
-0.642575384538,-0.521103265677,-0.124385225836,-2.64004104179,-0.0669574979996,2.11088994647,-0.889789136373,-0.000518178325983,-0.000690473055647,0.00180949459753,0.00257506255926,0.000192194684678,0.000206782843934,-0.0029964216015,0.573784468952,0.818974150258,0.00578543854425,0.0,0.818981654617,-0.573721399575,-0.0096722268002,0.0,-0.00460216243193,0.0102881396284,-0.999936485125,0.0,0.266521162451,-0.258679314055,0.305847355988,1.0,0.0,0.0,3.322
-0.642572496477,-0.521102459295,-0.1243748795,-2.64005386513,-0.0669494995899,2.1108898434,-0.889787657388,0.000376155261042,-0.000942607079848,0.00344490182506,-0.00210961500215,-0.000304733374934,-0.000134683064815,-0.00270223946633,0.573778793261,0.818978102424,0.00578887343755,0.0,0.818985581527,-0.573715573548,-0.00968528884373,0.0,-0.00461096140954,0.0102984155002,-0.99993633881,0.0,0.26652186091,-0.258672165242,0.305841462265,1.0,0.0,0.0,3.344
-0.64257781219,-0.521102290069,-0.124379784133,-2.64004885382,-0.0669476463797,2.11088754617,-0.889800455261,-0.000687099888722,0.000450218179293,-0.000749471915993,0.000844534943802,0.000166601613369,-0.000304116036681,-0.00251314532831,0.573777162525,0.818979218863,0.00579255869699,0.0,0.81898674875,-0.573713954757,-0.00968247855899,0.0,-0.00460656565936,0.0102998121913,-0.999936344685,0.0,0.266520377564,-0.258675424017,0.305843369306,1.0,0.0,0.0,3.355
-0.642578515164,-0.521110635383,-0.124375974003,-2.64004356411,-0.0669421835704,2.11088885664,-0.889801887679,-0.000249365184452,-0.00240033365718,0.000696102658738,-0.000598317917063,-0.000136842744361,-0.000427613707649,-0.00156706914654,0.57377639333,0.81897974632,0.00579417607871,0.0,0.818987363147,-0.573713335577,-0.00966718609161,0.0,-0.00459312195973,0.0102923583174,-0.999936483278,0.0,0.266523115751,-0.258675875407,0.305849057184,1.0,0.0,0.0,3.375
-0.64257534543,-0.52109569561,-0.124371298494,-2.64004249221,-0.066939747572,2.11089371513,-0.88979488172,-0.00109252567934,0.00172291290098,-0.000124971696504,-0.000857032023996,0.000518657288885,6.39185020836e-05,0.00148928509513,0.573777374442,0.818979062588,0.00579366227184,0.0,0.818986633085,-0.573714226979,-0.00967612997787,0.0,-0.0046007299654,0.0102970746613,-0.999936399746,0.0,0.26652585904,-0.258674455867,0.305844570453,1.0,0.0,0.0,3.389
-0.642575306648,-0.521099778606,-0.124362682952,-2.64004551596,-0.0669393901757,2.11089302192,-0.889801359608,0.000383620600361,0.000163612241988,0.000710021181149,0.000296822968241,0.000307540068065,-0.000450183275589,-0.000720167268488,0.57376035738,0.818991002928,0.00579105537288,0.0,0.818998559084,-0.573697252659,-0.00967312832664,0.0,-0.00459998107616,0.0102931217461,-0.99993644389,0.0,0.266529203233,-0.258670584566,0.305846305922,1.0,0.0,0.0,3.41
-0.642570718952,-0.521089999878,-0.124355826224,-2.64004802162,-0.0669362792778,2.1108937684,-0.88980196359,0.00102179594368,0.000823562211093,0.00423962628984,-0.00180464384551,-0.000356477776987,2.95405780654e-06,0.000386184522832,0.573758066794,0.818992615709,0.00578991392567,0.0,0.819000095408,-0.573694823062,-0.00968713653291,0.0,-0.00461213844064,0.0103002110984,-0.999936314887,0.0,0.26652931673,-0.258667970653,0.305840326989,1.0,0.0,0.0,3.423
-0.642572522517,-0.521091787009,-0.124356050862,-2.64004802162,-0.0669314038209,2.11089494851,-0.889804334299,0.000276370870527,0.000451285645461,2.09618594147e-05,-0.00176923808169,-0.000157716736605,0.000317558478325,-0.00203584177876,0.573759825055,0.818991355007,0.00579400358057,0.0,0.818998892635,-0.573696597493,-0.00968373831112,0.0,-0.00460698651969,0.0103016208538,-0.999936324114,0.0,0.266529460774,-0.258668196368,0.305841084471,1.0,0.0,0.0,3.443
-0.642576018177,-0.521092084673,-0.124358280733,-2.64004551596,-0.0669343450335,2.11089413929,-0.889807294347,-0.00140014220736,0.00128796828339,-3.59929821685e-05,-0.00133118054657,8.32032614487e-05,8.18595765331e-05,-0.000713985884685,0.573760708591,0.818990747548,0.00579237510715,0.0,0.818998276611,-0.573697506744,-0.00968197111643,0.0,-0.00460646229396,0.0102992781316,-0.999936350662,0.0,0.266528269831,-0.258670448116,0.305842210718,1.0,0.0,0.0,3.457
-0.642570029449,-0.521095783012,-0.124357538263,-2.6400427319,-0.0669295485479,2.11089413929,-0.889804034544,0.000693579089987,0.000298822473214,6.34749962193e-06,-0.000768239489442,0.000105477761682,-0.000222018744178,0.000845230903526,0.573760098282,0.818991152731,0.00579553871029,0.0,0.818998745776,-0.573696952229,-0.0096751393611,0.0,-0.00459905918971,0.0102979461129,-0.999936398458,0.0,0.266531128256,-0.258668965965,0.305844860957,1.0,0.0,0.0,3.477
-0.642580707981,-0.521096618358,-0.124353164504,-2.64004022625,-0.0669295483292,2.11089371685,-0.889806832605,-0.000791129016672,9.69289955766e-05,0.00144857225742,2.43918773772e-05,3.71682313384e-06,0.000109711416499,-0.000980496203934,0.573763565754,0.818988741053,0.00579305983253,0.0,0.818996321897,-0.573700460364,-0.00967230054098,0.0,-0.00459811267822,0.0102943065401,-0.999936440286,0.0,0.266529841396,-0.258671439502,0.305846376069,1.0,0.0,0.0,3.49
-0.642578439567,-0.52109641985,-0.124360999657,-2.64004238862,-0.0669295483232,2.11089344323,-0.889806758453,0.000441305317366,-0.00104443445493,-0.000320933161659,-0.000238273706606,8.90332792534e-05,0.00186889771112,0.000141122821211,0.573764800295,0.818987856219,0.00579587868936,0.0,0.818995454217,-0.573701655163,-0.00967490240361,0.0,-0.00459861091896,0.0102981150159,-0.99993639878,0.0,0.266529039747,-0.258671684115,0.30584490884,1.0,0.0,0.0,3.51
-0.642580971237,-0.52109852557,-0.124356301867,-2.64003973587,-0.0669294300337,2.11089332549,-0.889810257409,-0.000988762318593,-0.000651850377133,0.000143308721352,-0.000613044447191,-4.6268530452e-05,1.35677036709e-05,-0.000758019949056,0.57376326381,0.818988941218,0.00579466707545,0.0,0.81899654815,-0.573700172452,-0.00967021963267,0.0,-0.00459548991524,0.0102944273103,-0.9999364511,0.0,0.266529197774,-0.258672290033,0.305847194378,1.0,0.0,0.0,3.523
-0.642575681523,-0.52109176304,-0.124363494343,-2.64004341175,-0.0669262362121,2.11089332549,-0.889808376341,0.000884852810868,0.00091830215862,-0.000965132044952,-0.000963066108435,-0.000204057229056,-0.000367123279815,0.00107525506292,0.573766787094,0.818986423383,0.00580165855673,0.0,0.818994056561,-0.573703560471,-0.00968023356667,0.0,-0.0045996362529,0.0103059188089,-0.999936313664,0.0,0.266528298124,-0.258671095645,0.305842862461,1.0,0.0,0.0,3.54
-0.64258121507,-0.521096609583,-0.124360339244,-2.64004169876,-0.0669256244176,2.11089413931,-0.889808101473,-0.000874282656592,-0.000530562258205,-0.00102498367887,-0.000635804550927,0.000131617546127,-0.000283628470116,0.00157865123757,0.573769625077,0.818984445966,0.00580012987943,0.0,0.818992097393,-0.57370648122,-0.00967288558438,0.0,-0.00459445919504,0.0103004667862,-0.999936393641,0.0,0.266528233792,-0.258672439753,0.305845572206,1.0,0.0,0.0,3.557
-0.642575681527,-0.521096173344,-0.124360052682,-2.64003462116,-0.0669240893369,2.11089413929,-0.88981217673,0.0017067524516,-0.000860196881222,-0.00111116578384,0.00203599677706,-0.000151133794356,-6.21574172519e-05,-0.00104520561337,0.57376253502,0.818989411489,0.00580036019184,0.0,0.818997095557,-0.573699459156,-0.00966617476264,0.0,-0.00458891962616,0.0102967653307,-0.999936457201,0.0,0.266531488302,-0.258672535012,0.305848640854,1.0,0.0,0.0,3.574
