nelsonifechukwu/NELSON_IML_WORK/CNN-GradCAM/train2dof/data_sample_2022-02-22-08-41-49/robot_state.csv
position_joint1,position_joint2,position_joint3,position_joint4,position_joint5,position_joint6,position_joint7,velocity_joint1,velocity_joint2,velocity_joint3,velocity_joint4,velocity_joint5,velocity_joint6,velocity_joint7,ee_T_00,ee_T_10,ee_T_20,ee_T_30,ee_T_01,ee_T_11,ee_T_21,ee_T_31,ee_T_02,ee_T_12,ee_T_22,ee_T_32,ee_T_03,ee_T_13,ee_T_23,ee_T_33,v_x,v_y,time
0.465072676091,0.547749906161,-0.123998554104,-1.35582884758,0.0795246458945,1.89411489496,0.159161228402,0.000941958203281,-0.000533040688306,0.000841129207375,-0.000544583968722,-9.47693007897e-05,-0.000256095999289,0.00125735571865,0.573821605682,0.81896612887,0.00199787807614,0.0,0.818923454901,-0.573762686402,-0.0118954448147,0.0,-0.00859582399529,0.00846213538281,-0.999927249391,0.0,0.661682911032,0.260889884522,0.303240139178,1.0,0.0,0.0,0.0
0.465064169188,0.547749077043,-0.124003776956,-1.35583198529,0.0795246460396,1.89411537591,0.159158887311,-0.00125268414608,0.000754525667079,-0.000460224400008,-0.00134304218737,1.15391881781e-05,-0.00161534997772,0.00146805646401,0.573830477738,0.8189599191,0.0019951512132,0.0,0.81891723391,-0.573771592474,-0.0118941404577,0.0,-0.00859622872221,0.00845924688058,-0.999927270352,0.0,0.661685728137,0.260880903748,0.303239447829,1.0,-0.00032,-0.000420571428571,0.017
0.465068434663,0.547746361692,-0.124000925707,-1.35583301365,0.0795221198059,1.89411879031,0.159157361378,5.73272663367e-05,0.0014354504049,0.00053784987991,0.000197433624527,9.49879291875e-05,0.00010130363007,0.000545026947421,0.573823148482,0.818965045657,0.00199878942952,0.0,0.818922419496,-0.573764260661,-0.0118907920923,0.0,-0.00859147456204,0.00846022811765,-0.99992730291,0.0,0.661684620028,0.260885113315,0.303241079471,1.0,-0.00064,-0.000841142857143,0.033
0.465069053816,0.547708807667,-0.124000925781,-1.35586237516,0.0795216623015,1.89412203278,0.159157321833,0.00128133429774,0.000644849100925,4.27637609364e-05,-0.00153942875166,0.000367188970194,0.00201082532658,-0.00107397745608,0.573824046886,0.818964388624,0.00201004505874,0.0,0.818921888012,-0.573765092152,-0.0118872731891,0.0,-0.00858212496386,0.00846743612669,-0.999927322187,0.0,0.661679394622,0.260882679383,0.303253989025,1.0,-0.00098,-0.001288,0.05
0.465063738708,0.547595982277,-0.124000926072,-1.35599200841,0.0795211705302,1.89414670834,0.159160071499,-0.000756453437337,-0.00529809088094,-0.000476428627185,-0.00865850007398,1.58559098628e-05,0.000266528186312,0.000570940972588,0.573837570803,0.818954882452,0.00202231150313,0.0,0.818912446271,-0.573778470128,-0.0118919914999,0.0,-0.00857881086924,0.00848033084712,-0.999927241349,0.0,0.661658994586,0.260866853921,0.303274356183,1.0,-0.00132,-0.00173485714286,0.067
0.465059946586,0.547494324898,-0.124000526879,-1.35615343757,0.0795164387329,1.89418101144,0.159158255067,0.000358190043589,-0.006325258549,0.000460876490025,-0.0134901422026,-0.000258954274661,-0.00082435006899,0.00207151656646,0.573846527905,0.818948650747,0.00200418368888,0.0,0.81890589636,-0.573787419541,-0.0119112125221,0.0,-0.00860486170686,0.00847660899015,-0.999927049067,0.0,0.661632670335,0.260848306179,0.303272491308,1.0,-0.0016,-0.00210285714286,0.081
0.465037538475,0.547311611741,-0.124004119607,-1.35638447678,0.0795151086313,1.8943087471,0.159140701036,-0.00514693967973,-0.00562101293037,0.000932237459782,-0.0117611094136,0.000431570342997,0.00225797928481,-0.000227498271744,0.573871480807,0.818931008156,0.00206743740362,0.0,0.818889006553,-0.573812040244,-0.011886308008,0.0,-0.00854791029932,0.0085143788676,-0.999927216642,0.0,0.661614133746,0.260810360168,0.303295978318,1.0,-0.002,-0.00262857142857,0.101
0.465011648526,0.547107382175,-0.123998936803,-1.35663083414,0.0795127927267,1.89442165166,0.159137910604,-0.00156233736535,-0.0121318011911,-0.000423697498069,-0.0147403447968,-0.000176788805517,0.00162731753166,0.000791111620278,0.573894379017,0.818914761316,0.00214530478639,0.0,0.818873704304,-0.573834553451,-0.0118536309893,0.0,-0.00847622657182,0.0085596306724,-0.99992744052,0.0,0.661593863181,0.260781462014,0.303340192792,1.0,-0.00234,-0.00307542857143,0.118
0.464987788122,0.546901714556,-0.123998391155,-1.35690189468,0.0795080077166,1.8945472365,0.159111682147,-0.00211401672805,-0.017218644812,-4.1538690504e-05,-0.0180756827865,-0.000616147440485,0.00664609223983,-0.000177326892242,0.573906081262,0.81890640786,0.00220271582065,0.0,0.818866028697,-0.573845957274,-0.0118317905224,0.0,-0.00842527171915,0.00859423115503,-0.999927574371,0.0,0.661568537674,0.260744278859,0.303367726454,1.0,-0.00266,-0.003496,0.134
0.464955949003,0.546657933367,-0.123999206636,-1.35727360231,0.0795062926137,1.89467752634,0.159074047777,-0.00330736132917,-0.0188902390309,-0.000700098056709,-0.0247654692862,0.000436254197609,0.00553461494998,-0.00253153879904,0.573922202138,0.818895073629,0.00221611824249,0.0,0.818854677934,-0.573861828576,-0.0118475748612,0.0,-0.00843033733139,0.00861443089852,-0.999927357858,0.0,0.66152426503,0.260690389812,0.303374795493,1.0,-0.003,-0.00394285714286,0.151
0.464915175805,0.546374791648,-0.124002054066,-1.3576799764,0.0794903161005,1.89483791541,0.158930450042,-0.00322520940974,-0.0174241203182,0.000537538257066,-0.0250799867162,-0.00524946449788,0.00949384179317,-0.00913034232478,0.573858522304,0.818939599576,0.00225289284101,0.0,0.818899626753,-0.573797955551,-0.0118344585571,0.0,-0.00839916315564,0.00863636428325,-0.999927431002,0.0,0.661482652017,0.260625555344,0.303395879258,1.0,-0.00334,-0.00438971428571,0.168
0.464878503172,0.546103110893,-0.124002290279,-1.35814554285,0.0794786783217,1.89498883206,0.158922153013,-0.000271876587178,-0.0223093920568,-0.00391201872277,-0.0304909088374,0.000150752837534,0.00799411287674,0.000153745959047,0.573904792275,0.818907252,0.00222461847998,0.0,0.818866734389,-0.573844149614,-0.0118705588,0.0,-0.00844446496884,0.00863440289127,-0.999927066389,0.0,0.661423309293,0.260557817179,0.30337975417,1.0,-0.00366,-0.00481028571429,0.184
0.464820389904,0.545769555401,-0.124006255393,-1.35869690061,0.079447096416,1.89517291676,0.158861199346,-0.00225632549109,-0.024431941888,-0.00150966206039,-0.0315576211331,-0.0022884556352,0.012872974386,-0.00602415538834,0.573927590359,0.818891352145,0.00219574776872,0.0,0.818850430298,-0.573867030885,-0.0118890943784,0.0,-0.00847597250746,0.00862163428659,-0.999926909985,0.0,0.661360032133,0.260463392422,0.303369553569,1.0,-0.004,-0.00525714285714,0.201
0.464756029467,0.545408193465,-0.123998487244,-1.35932034585,0.0793392000333,1.89538526476,0.158758267571,-0.0062413539851,-0.0231323912182,0.000167271490607,-0.0373063741745,-0.0050400611479,0.0105944756496,-0.00560469464951,0.573897859662,0.818912399746,0.00211544752886,0.0,0.818871008965,-0.57383820806,-0.0118629064019,0.0,-0.00850092019941,0.00854053967766,-0.999927394133,0.0,0.661285103732,0.260347823145,0.30334721703,1.0,-0.00436,-0.00573028571429,0.219
0.464692490474,0.545008678275,-0.124002028521,-1.36001437585,0.0793250011211,1.89559988605,0.158702892258,-0.00416382404996,-0.0261693884522,0.000559614134164,-0.0427905436685,-0.000163995231647,0.00781595658829,0.00103299652943,0.573940621628,0.818882565854,0.00206230127822,0.0,0.818840163398,-0.573880861158,-0.0119285751003,0.0,-0.00858475223473,0.00853515325201,-0.999926723909,0.0,0.661201681866,0.260244056761,0.303317832365,1.0,-0.00468,-0.00615085714286,0.235
0.464623561068,0.544602532556,-0.124002029492,-1.3606833332,0.0793080371689,1.89583350132,0.158593494856,-0.00321437931812,-0.0271490374123,0.00025000097947,-0.0397312880436,-0.000129902107864,0.0123565251309,-0.00568662886067,0.573940253125,0.81888285432,0.00205027940718,0.0,0.81884005355,-0.573880302608,-0.0119629378488,0.0,-0.00861979568282,0.00854502699487,-0.999926338105,0.0,0.66112405002,0.260137514982,0.303307154616,1.0,-0.005,-0.00657142857143,0.251
0.464555308834,0.544104944946,-0.124007700372,-1.36150724564,0.0792701665952,1.8961355649,0.158495404353,-0.00343620039146,-0.031307465925,-0.000216794293751,-0.0461831247786,-0.00415457015634,0.0133078826273,-0.00171328267948,0.573955695842,0.81887207225,0.00203356832346,0.0,0.81882896031,-0.573895720996,-0.0119825740389,0.0,-0.00864530552384,0.00854277573139,-0.99992613711,0.0,0.661029038848,0.260012209731,0.303293489601,1.0,-0.00536,-0.00704457142857,0.269
0.464481902337,0.543629160666,-0.124008440835,-1.36229117226,0.0792322726409,1.89639809587,0.158417775128,-0.00370308227744,-0.02601503178,8.51869960959e-05,-0.0483726710799,-0.00090090720952,0.00743671255839,-0.00611245132698,0.573986204031,0.81885077173,0.00199953004859,0.0,0.818807086147,-0.573926241663,-0.0120154778452,0.0,-0.00869146787805,0.00853411219883,-0.999925810906,0.0,0.660934862033,0.259888131437,0.30327977948,1.0,-0.00568,-0.00746514285714,0.285
0.464405929742,0.543085948046,-0.124014084694,-1.36313920871,0.0791838464945,1.89670037865,0.158295719754,-0.00957936862325,-0.0335163698696,0.000644951235048,-0.0527713429042,-0.00574564713439,0.0194621815944,-0.00326110649792,0.573986654351,0.818850460334,0.00199778346203,0.0,0.818806730661,-0.573926678461,-0.0120188383896,0.0,-0.00869521753126,0.00853461569936,-0.999925774009,0.0,0.660837900112,0.259753797562,0.303286794291,1.0,-0.00602,-0.007912,0.302
0.464327849912,0.542509416585,-0.124016494743,-1.3640423102,0.0791410474745,1.89701799047,0.158173496109,-0.00527620405169,-0.0299426823583,9.49301488134e-05,-0.050486148888,-0.00553095337474,0.0128374362297,-0.0017119059965,0.57399091305,0.818847478562,0.00199636901201,0.0,0.818803602747,-0.573930817387,-0.0120342794738,0.0,-0.00870862937268,0.00854236566953,-0.999925591113,0.0,0.660731543201,0.259615803077,0.303292335598,1.0,-0.00636,-0.00835885714286,0.319
0.464268862688,0.542055001377,-0.124017315145,-1.36475742884,0.0791003557996,1.89728303052,0.158060191355,-0.00494350923567,-0.0340812154997,-0.00104921871194,-0.05354439744,-0.000188904010014,0.0206534499102,-0.0070787346417,0.573982237726,0.818853551894,0.00199955655943,0.0,0.818809710135,-0.573922122093,-0.0120334226822,0.0,-0.00870618878201,0.00854439171147,-0.999925595056,0.0,0.660644491067,0.259495700373,0.303296236962,1.0,-0.00664,-0.00872685714286,0.333
0.464171521623,0.541305220041,-0.124016965972,-1.36589910403,0.0790208651854,1.89770817461,0.157922962438,-0.00316827651299,-0.036606426409,0.000410103467033,-0.0620922129221,-0.00205283241372,0.0204946097582,-0.00472100010182,0.573985150948,0.818851451076,0.0020234780569,0.0,0.818807994382,-0.573925004663,-0.0120126707931,0.0,-0.00867543528603,0.00855209932235,-0.999925796457,0.0,0.660520018572,0.259335051688,0.303319829106,1.0,-0.00702,-0.00922628571429,0.352
0.464074495057,0.540562526533,-0.124018265852,-1.36703190697,0.0789534319991,1.89811868062,0.157781450011,-0.0122224055628,-0.0443337239934,0.00158222212402,-0.0652856101121,-0.00944417061234,0.0254608698297,-0.00997289366035,0.573994343648,0.81884496273,0.00204141436191,0.0,0.818801718015,-0.573934098488,-0.0120060014337,0.0,-0.0086595832089,0.00856305536485,-0.999925840101,0.0,0.660389108593,0.25916244832,0.303341243814,1.0,-0.00738,-0.00969942857143,0.37
0.464001549234,0.5399221596,-0.12402566003,-1.36801426235,0.0789004463427,1.89847825528,0.15765342514,-0.00712296862341,-0.0422178732241,-0.000452722019472,-0.0633105747433,-0.00380174322727,0.0302816846138,-0.0177474947545,0.573994633883,0.818844717256,0.00205820240824,0.0,0.818801657442,-0.573934284072,-0.0120012598294,0.0,-0.00864606174953,0.00857408336279,-0.999925862607,0.0,0.660274250367,0.259017616507,0.303357635583,1.0,-0.00768,-0.0100937142857,0.385
0.463890835287,0.53912471853,-0.124029985968,-1.36924402457,0.078827908055,1.89894810171,0.157513163492,-0.00450250118712,-0.0451939058933,4.12021894549e-06,-0.0736839936101,-0.00496420133169,0.021736506941,-0.0168203100347,0.574022188153,0.818825323481,0.00208902743583,0.0,0.818782685274,-0.573961725063,-0.0119832949829,0.0,-0.00861336943403,0.00858930207157,-0.999926014142,0.0,0.660138292125,0.258826648027,0.303376596736,1.0,-0.00804,-0.0105668571429,0.403
0.463797431923,0.538499054539,-0.124029393401,-1.37022859762,0.0787747856849,1.89932558179,0.157380976858,-0.00741658748177,-0.0449526507047,-0.00346098574209,-0.0745745113091,-0.000157111327737,0.0206591647998,-0.00949835248529,0.57403030299,0.818819587341,0.00210749542238,0.0,0.818777138267,-0.573969710275,-0.0119798347202,0.0,-0.00859985035879,0.00860252285029,-0.99992601685,0.0,0.660029200187,0.258673693105,0.303382639266,1.0,-0.00832,-0.0109348571429,0.417
0.463680620679,0.537623231484,-0.124038209508,-1.37159646595,0.0786949451879,1.8998618029,0.157213031849,-0.00329289755087,-0.0526281127309,9.07912185404e-05,-0.0749953767839,-0.00657703284327,0.025752475686,-0.010739965249,0.574048932841,0.818806435459,0.0021426285171,0.0,0.818764494197,-0.573988242369,-0.011956068115,0.0,-0.00856002674584,0.00861784221663,-0.999926226648,0.0,0.659879073997,0.258464074385,0.303396867479,1.0,-0.0087,-0.0114342857143,0.436
0.46356522852,0.536784366561,-0.12403646092,-1.37290471542,0.0786169893137,1.90033450351,0.157053647061,-0.00229589475813,-0.0559152747148,0.00150023352983,-0.0750122886416,-0.00107025200293,0.0308672207961,-0.0113734222675,0.574062784842,0.818796713991,0.00214641984843,0.0,0.818754774774,-0.574002029317,-0.0119597669741,0.0,-0.00856073337038,0.0086232146584,-0.999926174281,0.0,0.659725905601,0.258264135259,0.30340734778,1.0,-0.00904,-0.0118811428571,0.453
0.463449488939,0.535873922578,-0.124051396468,-1.37432535433,0.078543027783,1.90086320345,0.156879120474,-0.0107981222895,-0.0490178988089,-0.000343679728047,-0.0851681381502,-0.00137012889703,0.0253870637366,-0.0105884147675,0.574083506034,0.818782138498,0.00216441161823,0.0,0.81874039134,-0.574022631119,-0.0119556452394,0.0,-0.00854681207692,0.00863579621709,-0.999926184789,0.0,0.659563087078,0.258046334554,0.303420114589,1.0,-0.0094,-0.0123542857143,0.471
0.463331259751,0.535033218859,-0.124048563309,-1.37564373599,0.078465671636,1.90133489692,0.156717555716,-0.00615703165595,-0.0528680781706,-0.000436817504775,-0.0812000976457,-0.00895915387648,0.0249488438716,-0.0121475804272,0.574097579294,0.81877227906,0.00216134053637,0.0,0.818730419242,-0.574036641872,-0.0119658387574,0.0,-0.00855677315118,0.00863928064122,-0.999926069499,0.0,0.659407233468,0.257844041062,0.303426621472,1.0,-0.00972,-0.0127748571429,0.487
0.463207433532,0.534134780876,-0.124054435144,-1.37712643402,0.0783793389003,1.90187135409,0.156534003025,-0.0044667230387,-0.0521493312121,-0.0032640092504,-0.0896789233855,0.000198980456117,0.0278360925248,-0.00797281620429,0.57411094885,0.818763013803,0.00211956110838,0.0,0.818720564058,-0.574050137485,-0.0119926871013,0.0,-0.0086025999157,0.00862062721099,-0.999925837281,0.0,0.65923121602,0.257617211441,0.303401404618,1.0,-0.01006,-0.0132217142857,0.504
0.463069866409,0.533216937805,-0.12405247843,-1.37859912921,0.0783019159364,1.90243003915,0.156342335513,-0.0104626137814,-0.0489525630005,0.000480430217732,-0.0872579566859,-0.00228300348968,0.0322649067229,-0.0158521944527,0.574125257287,0.818752958781,0.00212798843527,0.0,0.818710503207,-0.574064292865,-0.012001937194,0.0,-0.00860518508886,0.00863298797388,-0.999925708394,0.0,0.659063356558,0.257390273837,0.303396133997,1.0,-0.0104,-0.0136685714286,0.521
0.462935444705,0.53226370584,-0.124061011933,-1.38014579095,0.0782055048644,1.90300911169,0.156157336401,-0.00946387189975,-0.0545650813721,-0.00206352889831,-0.092993628421,-0.012224652614,0.03380377931,-0.0145494139997,0.574148560961,0.818736663479,0.00211014758012,0.0,0.818694028647,-0.574087721836,-0.0120050821173,0.0,-0.00861775697899,0.00862043181527,-0.99992570845,0.0,0.658885501891,0.257149346317,0.303382503785,1.0,-0.01074,-0.0141154285714,0.538
0.46281326583,0.531265291511,-0.124055292814,-1.38174440521,0.0781117177432,1.90358211454,0.155954621286,-0.00815152958443,-0.0622696469538,-0.000888572392083,-0.0939597482908,-0.0114428854553,0.0379143060808,-0.0114251101094,0.574140469976,0.818742390082,0.00208957407583,0.0,0.818699378518,-0.57407961041,-0.0120281098606,0.0,-0.00864850805464,0.00861672354417,-0.999925474915,0.0,0.65868853373,0.256919239853,0.303374793742,1.0,-0.01108,-0.0145622857143,0.555
0.462670737366,0.530244051131,-0.124063202567,-1.38337989084,0.0780131125945,1.90415864037,0.155737159682,-0.00934279194492,-0.0629428491823,-0.00149059809696,-0.0989836186485,-0.00818706345049,0.0356207058157,-0.0160312340951,0.574147028562,0.81873787614,0.00205588626986,0.0,0.818694390712,-0.574086277522,-0.0120493766938,0.0,-0.00868519220429,0.00860142198587,-0.999925288697,0.0,0.658492410878,0.256663223784,0.303366135279,1.0,-0.01142,-0.0150091428571,0.572
0.462547164004,0.529256442405,-0.124061923063,-1.38492380133,0.0779217790664,1.90474122409,0.155531890842,-0.00804365760917,-0.0707476661438,-0.00050632969707,-0.0986083709385,-0.00654874903914,0.0373228869003,-0.00909236302527,0.574138603334,0.818743726275,0.00207888128899,0.0,0.818700511174,-0.574077725691,-0.0120409621705,0.0,-0.00866518962479,0.00861532824909,-0.999925342517,0.0,0.65831021902,0.25643705601,0.303377366761,1.0,-0.01174,-0.0154297142857,0.588
0.462413001327,0.528171651878,-0.124060265176,-1.38662897015,0.0778086604415,1.90539278472,0.155285234172,-0.00962008121635,-0.0647904434726,0.000711970672821,-0.104629177999,-0.00112649787772,0.0373573777248,-0.0173658427279,0.574107412817,0.818765545812,0.00209915253355,0.0,0.818722680054,-0.574046537725,-0.0120205071757,0.0,-0.00863713216615,0.00861985202235,-0.999925546278,0.0,0.658110007931,0.256187459463,0.303385992315,1.0,-0.01208,-0.0158765714286,0.605
0.462271940332,0.527036619274,-0.124062376074,-1.38838958777,0.0776998848741,1.90606988051,0.155043709181,-0.00572523353179,-0.0689331560359,-0.00235479615923,-0.108027371793,-0.00790079230984,0.0395143691862,-0.0168755744774,0.574092723041,0.818775739797,0.00214013374897,0.0,0.81873345297,-0.574031722438,-0.0119942287979,0.0,-0.00859224432243,0.00863816487689,-0.999925774968,0.0,0.657905105302,0.255927662179,0.303405659584,1.0,-0.01242,-0.0163234285714,0.622
0.462129712155,0.525927134979,-0.124070890499,-1.39009575725,0.0775953930542,1.90669591498,0.154819387136,-0.00862847159834,-0.0674643169561,-0.00125442676829,-0.110415265072,-0.004444615986,0.0344817964107,-0.0207232195448,0.574095371687,0.818773823145,0.00216278555772,0.0,0.818731855189,-0.574034300389,-0.0119799072165,0.0,-0.00856748628872,0.00864851722904,-0.999925897919,0.0,0.657703096728,0.255666774889,0.30342874882,1.0,-0.01274,-0.016744,0.638
0.461964621595,0.524696681886,-0.124070587312,-1.39203544323,0.0774704580619,1.9073895218,0.154555202926,-0.00906421562585,-0.0660184129811,0.00069823312517,-0.104163275026,-0.00517954516528,0.0351768750375,-0.0139660024801,0.574084590306,0.818781426941,0.00214591951095,0.0,0.81873923578,-0.574023586994,-0.0119888393831,0.0,-0.00858459588242,0.00863972278735,-0.999925827201,0.0,0.657467316365,0.255371189842,0.303431061542,1.0,-0.0131,-0.0172171428571,0.656
0.461819396772,0.52355173789,-0.124074126086,-1.39383188557,0.0773621919617,1.90803557167,0.154309442414,-0.00764280632402,-0.0763850262883,-0.000410672793944,-0.111126952897,-0.0058595985846,0.0362354591522,-0.0161078411129,0.57407195553,0.818790297893,0.00214122641007,0.0,0.818747999496,-0.574010927044,-0.011996493531,0.0,-0.00859369061045,0.00864014169007,-0.99992574546,0.0,0.657247741699,0.255101805581,0.303437117744,1.0,-0.01342,-0.0176377142857,0.672
0.461663216768,0.522412234006,-0.124074787735,-1.39565942642,0.077253168445,1.90874914901,0.154061532305,-0.0113953005837,-0.0699975900854,0.000945329008888,-0.110169296351,-0.0082483855028,0.0391998375231,-0.00980210788867,0.574066164972,0.818794305612,0.00216107229559,0.0,0.818752274148,-0.574005062918,-0.0119853336444,0.0,-0.00857322156095,0.00864992391558,-0.999925836594,0.0,0.657035811051,0.254827583325,0.303430051082,1.0,-0.01374,-0.0180582857143,0.688
0.461496627512,0.52116020011,-0.124080818316,-1.39764885386,0.0771280930857,1.90952637731,0.153799730219,-0.00538955085167,-0.0732490013883,-2.81299094071e-05,-0.116947530761,-0.0109871847578,0.0460555445522,-0.0111240774625,0.574065368509,0.818794791553,0.00218835691252,0.0,0.818753210264,-0.574004249654,-0.0119603077764,0.0,-0.00853707591031,0.00865788942967,-0.99992607691,0.0,0.656805526396,0.254527424826,0.303430356273,1.0,-0.01408,-0.0185051428571,0.705
0.461312621681,0.519796055965,-0.124088005721,-1.39982327692,0.0769892531081,1.91030800174,0.153499144668,-0.00854310185965,-0.0730042858957,-0.000758838047456,-0.121500177339,-0.00572960617782,0.0427566944617,-0.0266158542178,0.574053297044,0.818803334055,0.00215851663132,0.0,0.818761382527,-0.573992321457,-0.0119733158654,0.0,-0.00856498388067,0.0086407978725,-0.999925986093,0.0,0.656540095309,0.254192850695,0.303421379798,1.0,-0.01444,-0.0189782857143,0.723
0.461160747266,0.518597882733,-0.124096048929,-1.40164672243,0.0768690388267,1.91095858581,0.153261144986,-0.0129970629571,-0.0744473318606,0.000479063631529,-0.122001346538,-0.00968679861199,0.043971564235,-0.0172394937292,0.574052679049,0.818803725026,0.00217450231883,0.0,0.818762046051,-0.573991702583,-0.0119576006814,0.0,-0.00854294617023,0.00864485911419,-0.999926139513,0.0,0.656317378643,0.253912528431,0.303451157224,1.0,-0.01474,-0.0193725714286,0.738
0.460969462917,0.517172367947,-0.124100074872,-1.40390154145,0.0767193736723,1.91177321752,0.152948550917,-0.00948289949893,-0.0799533140249,-0.00142597507565,-0.127149128229,-0.0063704401896,0.0428634327135,-0.0188914975016,0.574035139015,0.818816075285,0.0021542819949,0.0,0.818774192056,-0.57397430775,-0.0119609099534,0.0,-0.00855744758556,0.0086300192623,-0.999926143702,0.0,0.656041309486,0.25356689543,0.303448917163,1.0,-0.0151,-0.0198457142857,0.756
0.460766589611,0.515747931857,-0.124107823967,-1.40618173705,0.0765774973708,1.91263286422,0.152630743615,-0.0140416006784,-0.077954801066,-0.00154395111853,-0.129296777501,-0.0170414216168,0.0482329026647,-0.0136190673434,0.574028896181,0.818820457389,0.00215216440801,0.0,0.818778588645,-0.573968116851,-0.0119570278928,0.0,-0.00855555001664,0.00862599173651,-0.999926194692,0.0,0.655770660401,0.253212790071,0.303437450278,1.0,-0.01546,-0.0203188571429,0.774
0.460614453762,0.514599040791,-0.124109554249,-1.40801221736,0.0764718118506,1.91330949448,0.152374267117,-0.014153078261,-0.0875736164784,-0.000812004756687,-0.135120069225,-0.0142467813585,0.0541267644303,-0.0282776167183,0.574013427405,0.81883127702,0.00216144266651,0.0,0.818789433071,-0.573952514861,-0.0119633556137,0.0,-0.00855556902168,0.00863705946478,-0.999926098991,0.0,0.655531192404,0.252917209945,0.303439187568,1.0,-0.01576,-0.0207131428571,0.789
0.460414112842,0.513119779869,-0.124115286949,-1.4104122145,0.0763211801534,1.91413898374,0.152049027176,-0.013051671783,-0.0781107152511,-0.00130389205903,-0.131886573804,-0.00831272679782,0.0458594183888,-0.0107119273587,0.573999642835,0.818841177943,0.00206935526824,0.0,0.818798068989,-0.57393905216,-0.0120180500464,0.0,-0.00865335705931,0.00859290597199,-0.999925637924,0.0,0.655239980653,0.252570698601,0.303396822249,1.0,-0.0161,-0.02116,0.806
0.460219372819,0.511697347556,-0.124118108314,-1.41270943326,0.0761913620535,1.91496837837,0.151717632802,-0.0178613353943,-0.0753779132055,0.000546811360031,-0.137239218796,-0.000992367451187,0.0561281697089,-0.0219114662706,0.573975093514,0.818858471468,0.0020353458169,0.0,0.818814752534,-0.573914486477,-0.0120544658065,0.0,-0.00870295455417,0.00858569962123,-0.99992526938,0.0,0.654952759134,0.252222865943,0.303371810697,1.0,-0.01644,-0.0216068571429,0.823
0.460024110823,0.510224270971,-0.124119990404,-1.41503283716,0.0760442732454,1.91585286185,0.15138996595,-0.00861443030238,-0.0909623735168,-6.73350729837e-05,-0.135179975135,-0.0164084793463,0.0510847155228,-0.0167227633322,0.57394975744,0.818876169902,0.00205941811497,0.0,0.818832812887,-0.573889097814,-0.0120363969401,0.0,-0.00867460803478,0.00859477170819,-0.999925437758,0.0,0.654671583605,0.251873791853,0.303374003581,1.0,-0.01678,-0.0220537142857,0.84
0.459818592887,0.508728735264,-0.124125233131,-1.41740766399,0.0758916605999,1.91671032492,0.151064087411,-0.0160891484423,-0.0884819832208,0.000551452014659,-0.138917076792,-0.00324270056074,0.0501002892581,-0.0219162679762,0.573937134648,0.818885076842,0.00203550952181,0.0,0.818841417721,-0.573876588607,-0.0120474302173,0.0,-0.00869749701254,0.00858139229979,-0.99992535384,0.0,0.654375991795,0.251507650829,0.303364711001,1.0,-0.01712,-0.0225005714286,0.857
0.459609485095,0.507203341698,-0.124127689922,-1.4198002308,0.0757382568407,1.91757379785,0.150729482559,-0.0120682853355,-0.0900640249244,-0.000146817512318,-0.142221174943,-0.0108618693074,0.0602936750784,-0.0174315076863,0.573918568609,0.818898106386,0.00202851272102,0.0,0.818854350694,-0.573858049763,-0.0120514718379,0.0,-0.00870501671174,0.0085777850828,-0.999925319355,0.0,0.654077476673,0.251139442565,0.303367750164,1.0,-0.01746,-0.0229474285714,0.874
0.459420180485,0.505833722696,-0.124131993708,-1.42195843748,0.0756024278547,1.91838162255,0.150443009318,-0.0155707440339,-0.0911492712122,-0.000869178138755,-0.142712956669,-0.0080760918173,0.0607343049783,-0.0194162581017,0.573917019643,0.818899161636,0.00204071977217,0.0,0.818855590925,-0.573856473975,-0.0120422335022,0.0,-0.00869046198465,0.00858246279537,-0.999925405819,0.0,0.653813476715,0.250807953856,0.303368188239,1.0,-0.01776,-0.0233417142857,0.889
0.459181567314,0.504084092396,-0.12413195068,-1.42458243806,0.0754384768877,1.91938795923,0.150077387142,-0.0146451998189,-0.0958561794874,0.000515723970982,-0.142259714926,-0.0118639976087,0.0573633999315,-0.0270039080497,0.573903983346,0.818908014959,0.00215124091709,0.0,0.81886593683,-0.573843024726,-0.0119794563105,0.0,-0.0085757633028,0.00863680188906,-0.999925928225,0.0,0.653499349997,0.250405476556,0.303428899769,1.0,-0.01812,-0.0238148571429,0.907
0.458950829282,0.50239916274,-0.124139815285,-1.42705626664,0.0752869398025,1.92032686001,0.149732330534,-0.0137432093647,-0.105053516595,-0.00200801678287,-0.142766816049,-0.0090340197138,0.0621668293012,-0.0174173742022,0.573902051032,0.818909024967,0.00227849748264,0.0,0.818868656363,-0.57384062736,-0.0119081870578,0.0,-0.00844439000847,0.00870009065241,-0.999926497649,0.0,0.653204132367,0.250018019304,0.303509562601,1.0,-0.01846,-0.0242617142857,0.924
0.458728951816,0.500786080228,-0.124138701641,-1.42948870817,0.0751348584464,1.92117270812,0.149397916717,-0.0112946205234,-0.0984029079779,-0.000774344573167,-0.14766515999,-0.00822736077966,0.0447187993042,-0.0136787498586,0.57389194145,0.818916040042,0.00230343284155,0.0,0.818875901746,-0.573830322237,-0.0119065411553,0.0,-0.0084288402051,0.00871946154149,-0.999926460118,0.0,0.65289308773,0.249639405864,0.303550844733,1.0,-0.01878,-0.0246822857143,0.94
0.458486829354,0.499088470414,-0.124141540552,-1.43208781361,0.074958833203,1.92212896356,0.149019845763,-0.012396629201,-0.101719116275,-0.000114641234281,-0.152394741793,-0.0136174499687,0.0566505881603,-0.0251465500704,0.573867225107,0.818933252976,0.00234137125397,0.0,0.818893714698,-0.573805569396,-0.011874319305,0.0,-0.00838094442893,0.00873178498717,-0.999926755168,0.0,0.652572288745,0.249230299506,0.303580869297,1.0,-0.01912,-0.0251291428571,0.957
0.458217392733,0.497300818666,-0.124136566415,-1.43490049293,0.0747855299214,1.92316352387,0.148601010686,-0.0199479762291,-0.104182789308,0.00110883026528,-0.159621103695,-0.00479384109558,0.0496570632224,-0.0288239678458,0.573837282095,0.818954208848,0.00235040193107,0.0,0.818914700294,-0.573775503229,-0.0118799174058,0.0,-0.00838066666324,0.00874208652085,-0.999926667486,0.0,0.652221562793,0.248789649584,0.303577999031,1.0,-0.01948,-0.0256022857143,0.975
0.457966933995,0.495722462393,-0.124139703885,-1.43743927784,0.0746328435977,1.92404110343,0.148230971408,-0.0127310655953,-0.103082336689,-0.0001929645166,-0.159114180924,-0.0152879521894,0.0605107215078,-0.0143479051673,0.573828515601,0.818960542676,0.0022827885876,0.0,0.818919977543,-0.573766824033,-0.0119351967299,0.0,-0.00846482980725,0.00871834525701,-0.99992616583,0.0,0.651894927864,0.248379262724,0.303545680427,1.0,-0.0198,-0.0260228571429,0.991
0.45768533524,0.494047458279,-0.12414250113,-1.44018524686,0.0744629714536,1.9250113167,0.14784995311,-0.021476958854,-0.105278527111,-0.000912856940549,-0.165413823592,-0.0102581876128,0.0568917743263,-0.0291484682612,0.57384142106,0.818951737871,0.0021957721956,0.0,0.818909907992,-0.573779949957,-0.0119949373063,0.0,-0.00856354956704,0.00868149862182,-0.999925645836,0.0,0.651546483997,0.247929127878,0.303489570579,1.0,-0.023824,-0.0313115428571,1.008
0.45739161403,0.491692878586,-0.124227883193,-1.44376875214,0.0742603710332,1.92636094184,0.14733657664,-0.0210232398821,-0.149790719996,-0.00741729645891,-0.234495210662,-0.0115032740664,0.0875641430828,-0.0376766629526,0.573848528703,0.818946500751,0.00228952269696,0.0,0.818906099762,-0.573786886313,-0.0119229093686,0.0,-0.00845068950868,0.00871701593067,-0.999926297024,0.0,0.651110014456,0.247352743613,0.303542191058,1.0,-0.0331594285714,-0.0435809632653,1.025
0.457024087416,0.489057566729,-0.124241162521,-1.44799959617,0.0740357571181,1.92793615964,0.146689634922,-0.0330483099829,-0.188309556471,-0.00146291942755,-0.304450145924,-0.0186922803861,0.112951209256,-0.0426592787011,0.573780676638,0.818994046977,0.00228758282501,0.0,0.818953258628,-0.573718677565,-0.0119660393048,0.0,-0.00848784938076,0.00873947379987,-0.999925786251,0.0,0.650569120745,0.246709514799,0.303498219719,1.0,-0.0402982857143,-0.0529634612245,1.04
0.456411389948,0.484998292026,-0.124322399268,-1.45435383305,0.0736618307802,1.93032809009,0.145741183036,-0.0360387531839,-0.24810365821,-0.0109154497145,-0.377083437933,-0.0236198160095,0.13938351544,-0.0597022635448,0.573778851216,0.818995118729,0.00236057116108,0.0,0.81895540177,-0.57371668411,-0.0119148305592,0.0,-0.00840405081338,0.00876984914111,-0.999926228117,0.0,0.64978944809,0.245665826984,0.303503375939,1.0,-0.0512811428571,-0.0673980734694,1.058
0.455693661505,0.480374768502,-0.12444350823,-1.46167792686,0.0732187572882,1.93288110535,0.144621622811,-0.0474569250158,-0.284508443682,-0.0125066608695,-0.459695093282,-0.0345412292137,0.157600270948,-0.0783075971214,0.57377641341,0.818997216833,0.00222106625493,0.0,0.818955677596,-0.573714806222,-0.0119860817535,0.0,-0.00854247346988,0.00869645325283,-0.999925696163,0.0,0.648849161486,0.244424212556,0.303449480181,1.0,-0.0606165714286,-0.0796674938775,1.075
0.454885139284,0.475265085548,-0.124559855144,-1.4696447842,0.0727388721528,1.93570858573,0.143483363623,-0.0580693728599,-0.33624023028,-0.005840523648,-0.521775695723,-0.0329084340178,0.190498297127,-0.0737809384772,0.573847308268,0.818947641064,0.00218515206643,0.0,0.818905629525,-0.573785836825,-0.012005427587,0.0,-0.0085781724517,0.00867888272935,-0.999925543204,0.0,0.647831046855,0.243070577618,0.303444517452,1.0,-0.0694028571429,-0.0912151836735,1.091
0.453887538767,0.469129006584,-0.124653584205,-1.47907571312,0.0721916010187,1.93916229482,0.142047800361,-0.0629158967662,-0.380556655087,-0.00674852201295,-0.566702238448,-0.03803596519,0.221383609763,-0.0979847556447,0.573861471441,0.818937321781,0.00232840960124,0.0,0.818896961652,-0.573799189273,-0.0119584065602,0.0,-0.00845730872911,0.00876936517012,-0.999925783328,0.0,0.646633986606,0.241481017453,0.303498755822,1.0,-0.0787382857143,-0.103484604082,1.108
0.452719583884,0.462201976794,-0.124694134265,-1.48966071815,0.0715241781393,1.94301859601,0.140345435303,-0.072528210739,-0.407077563598,-0.00109010405355,-0.650934322781,-0.0426895782982,0.223961343004,-0.100506538119,0.573771460914,0.818999896158,0.00249552314676,0.0,0.818961599807,-0.573708410839,-0.0118871475137,0.0,-0.00830402983889,0.00886441429109,-0.999926229903,0.0,0.645268758499,0.239697374538,0.303572753599,1.0,-0.0880737142857,-0.11575402449,1.125
0.451466196624,0.455073484084,-0.124784686505,-1.50084636828,0.0707895058756,1.94677001738,0.138675394443,-0.0797311434802,-0.462799274394,-0.00790158609449,-0.729279362353,-0.0422417199913,0.240179100725,-0.101765725579,0.573813040507,0.818971558125,0.00222000609277,0.0,0.818929346173,-0.573750763096,-0.0120637773747,0.0,-0.00860632606205,0.00874054919607,-0.999924764146,0.0,0.64375086379,0.237747663087,0.303480977116,1.0,-0.09686,-0.127301714286,1.141
0.449924452191,0.446102353426,-0.124925422994,-1.51415977397,0.0698686055271,1.95168527388,0.136581896592,-0.0897493876783,-0.506675831968,-0.00505938115782,-0.75488012268,-0.0486954465564,0.283657647878,-0.117958065625,0.573816886117,0.818967592308,0.00264780229099,0.0,0.818931982735,-0.573754028798,-0.0117247172211,0.0,-0.00808313182644,0.00889638198936,-0.999927756074,0.0,0.64203976947,0.235408272035,0.303727314846,1.0,-0.106744571429,-0.140292865306,1.159
0.448283882515,0.437119242956,-0.124968288442,-1.5279865626,0.0689751916673,1.9564090354,0.134385249111,-0.0979198706477,-0.544473448832,-0.00151520863685,-0.835689386304,-0.0592760423883,0.277171904193,-0.138487514973,0.573762282499,0.819006136234,0.00255712603113,0.0,0.818968631309,-0.573698986116,-0.0118575361563,0.0,-0.00824453299401,0.00889778432557,-0.999926425848,0.0,0.640127319136,0.233001792881,0.303700183577,1.0,-0.11608,-0.152562285714,1.176
0.4465865917,0.427934580416,-0.125060348397,-1.54170062356,0.0680339640088,1.96134066539,0.132121614677,-0.108504229003,-0.572291184844,-0.00701993393473,-0.89414575577,-0.0595615977861,0.312052367098,-0.143214199344,0.573702276148,0.819047148478,0.00286597510473,0.0,0.819014063239,-0.573638327732,-0.0116524707949,0.0,-0.00790004191114,0.00903249683699,-0.999927999077,0.0,0.638283227047,0.230558064743,0.303862494961,1.0,-0.124866285714,-0.16410997551,1.192
0.444567579497,0.417677631705,-0.125138866683,-1.55727638889,0.0669260028361,1.96666237533,0.129552327195,-0.126036979636,-0.622517506875,-0.00830774794583,-0.930082869962,-0.0627047159746,0.320780491943,-0.147502679097,0.573659728017,0.819077074024,0.00283022269318,0.0,0.819043575394,-0.573595964533,-0.0116635319971,0.0,-0.00793008002407,0.00900914776099,-0.99992797195,0.0,0.63610414818,0.227722945872,0.303879480122,1.0,-0.134201714286,-0.176379395918,1.209
0.4423859352,0.406757616121,-0.125247543821,-1.57374601111,0.0657768925419,1.972399383,0.126809086256,-0.133743633522,-0.646291936827,-0.00316375379278,-1.00034778375,-0.0615424624584,0.33420639121,-0.164091019783,0.573637898763,0.819091914896,0.00295684913579,0.0,0.819060151327,-0.573573821175,-0.0115882299146,0.0,-0.0077960042708,0.00906945977442,-0.999928481051,0.0,0.633791416278,0.224702586813,0.303929696921,1.0,-0.143537142857,-0.188648816327,1.226
0.440089509013,0.395850587575,-0.125355642723,-1.5900198765,0.0646701338623,1.97794319949,0.124050459305,-0.142848149518,-0.69337704179,-0.0104534797731,-1.02822381793,-0.0745270539453,0.356006576763,-0.173408728997,0.573680774275,0.819061333844,0.00310604723041,0.0,0.819031136322,-0.573615777307,-0.0115622083003,0.0,-0.00768862808613,0.00917714269108,-0.999928329957,0.0,0.631466019654,0.221638825321,0.304017503951,1.0,-0.152323428571,-0.200196506122,1.242
0.437290070869,0.383145357565,-0.125494252934,-1.6092677102,0.0631953784299,1.98433269515,0.120662768226,-0.16145346192,-0.736750540002,-0.00505552603441,-1.07189338459,-0.082356238953,0.355841870062,-0.190087750077,0.573623912453,0.819101930767,0.00289499183139,0.0,0.819069357364,-0.573560031869,-0.0116200073511,0.0,-0.00785767013425,0.00903688716646,-0.999928293274,0.0,0.628642502055,0.217935779921,0.30393959648,1.0,-0.162208,-0.213187657143,1.26
0.434395474867,0.370417014045,-0.125631169673,-1.62820862041,0.0617982504224,1.99065042832,0.117296659196,-0.175563657305,-0.736137030521,-0.00994821302478,-1.13303773509,-0.0786091351419,0.373218640832,-0.203821206511,0.573645197527,0.819086845625,0.00294509404188,0.0,0.819054892592,-0.573581114433,-0.0115989218013,0.0,-0.00781142434234,0.00906603402119,-0.999928391775,0.0,0.625837448371,0.214236230546,0.303975049941,1.0,-0.171543428571,-0.225457077551,1.277
0.431416063333,0.357933651001,-0.125816532024,-1.64661328606,0.0603478156791,1.99674206959,0.113992447494,-0.183054168208,-0.773550050334,-0.017420521887,-1.16633617821,-0.091603050654,0.37525558309,-0.217871313385,0.573755674587,0.819009252697,0.00300279508272,0.0,0.818978750581,-0.573692215716,-0.0114801839744,0.0,-0.00767984459416,0.00904622023349,-0.999929590464,0.0,0.623091837162,0.210511306074,0.304042883138,1.0,-0.180329714286,-0.237004767347,1.293
0.427941795818,0.344189271496,-0.125997831035,-1.6668522653,0.0588516950253,2.00327908008,0.110145607116,-0.210423232401,-0.833332167801,-0.0129048198196,-1.1923981989,-0.0904917663267,0.402441683019,-0.222304958876,0.573849042197,0.81894375345,0.00302528612806,0.0,0.818913046051,-0.573784915669,-0.0115343165856,0.0,-0.00771024141829,0.00909657794068,-0.999928899696,0.0,0.619999229514,0.206336262472,0.304068118769,1.0,-0.189665142857,-0.249274187755,1.31
0.424315576441,0.330012911002,-0.126099703529,-1.68770964866,0.0572324186425,2.00995818673,0.106152943145,-0.222028647606,-0.821816812437,-0.000140286368731,-1.22570128882,-0.0946045742786,0.385537737045,-0.237517255586,0.573832325707,0.818955577156,0.00299524974892,0.0,0.818924039974,-0.573767780397,-0.0116059395146,0.0,-0.00778632100429,0.00911292074078,-0.99992816136,0.0,0.616715974112,0.202071125411,0.304044095975,1.0,-0.199000571429,-0.261543608163,1.327
0.420702175211,0.316109089413,-0.126211590162,-1.70791627792,0.0555074464824,2.01642641039,0.102199608634,-0.233567493227,-0.854433472278,-0.00830730292425,-1.28593088543,-0.106592365341,0.399953231778,-0.245678204348,0.573748254972,0.819014349463,0.00303021299982,0.0,0.818984008782,-0.573684483899,-0.0114914400384,0.0,-0.00767341584355,0.0090750643823,-0.999929378454,0.0,0.613490738118,0.197879306567,0.304080046182,1.0,-0.207786857143,-0.273091297959,1.343
0.416582232198,0.300848584869,-0.126313858904,-1.7298729139,0.0536787619202,2.02329858477,0.0976418227803,-0.244783249598,-0.909333436649,-0.00695498821346,-1.30993823723,-0.121497334282,0.398007112916,-0.271886130802,0.573561120469,0.819145074983,0.00311995501134,0.0,0.819115926023,-0.57349713671,-0.0114403156376,0.0,-0.00758213892477,0.009117500634,-0.999929688704,0.0,0.609903938064,0.193253884409,0.304145027167,1.0,-0.217122285714,-0.285360718367,1.36
0.411806375407,0.284220756145,-0.126489434912,-1.75374568885,0.0517296497999,2.03056597824,0.092706658527,-0.271472733217,-0.908180136424,-0.0115455099134,-1.33261249818,-0.109645266069,0.399642527323,-0.278730960841,0.573634022224,0.819094042209,0.00311535989265,0.0,0.819064195465,-0.573569277168,-0.0115271374216,0.0,-0.00765508224807,0.00916421438747,-0.999928705904,0.0,0.605926916157,0.188048504299,0.304151962387,1.0,-0.227006857143,-0.298351869388,1.378
0.407250507024,0.268943134541,-0.126650469933,-1.77544465207,0.0498672240277,2.03708653176,0.0879804971372,-0.287840680685,-0.977163675845,-0.0111392837247,-1.36574287005,-0.114291299321,0.40765944552,-0.300529680567,0.573604161299,0.819114822561,0.00314968293279,0.0,0.819085266181,-0.573539128067,-0.0115300564439,0.0,-0.00763812079272,0.00919372424733,-0.999928564721,0.0,0.602247754521,0.183217052633,0.304189419909,1.0,-0.235793142857,-0.309899559184,1.394
0.402301557993,0.253294701803,-0.126878035119,-1.79749669086,0.0478719136734,2.04360412716,0.0831134154446,-0.320275741887,-1.00748155221,-0.0180684043201,-1.39144349916,-0.136059298207,0.418408028795,-0.310926850599,0.57375845907,0.819006734252,0.00315385422807,0.0,0.818977705765,-0.57369396433,-0.0114673297859,0.0,-0.00758261917242,0.00916259017587,-0.999929272913,0.0,0.598225705834,0.177779900028,0.304231652222,1.0,-0.245128571429,-0.322168979592,1.411
0.396448531858,0.23525201501,-0.127052772167,-1.8227749111,0.0456152471795,2.05086513069,0.0772758269672,-0.337924394656,-1.04181893352,-0.00815563773734,-1.40130644335,-0.126840746217,0.420723104191,-0.333643753411,0.573746405203,0.819015265634,0.00313114627705,0.0,0.818985392202,-0.573681318868,-0.0115506988247,0.0,-0.00766406609741,0.00919171195894,-0.999928384697,0.0,0.593993431247,0.172255160252,0.304240143439,1.0,-0.254464,-0.3344384,1.428
0.39101803983,0.218924071284,-0.127179722386,-1.84559455846,0.0435364138984,2.05732499188,0.0718050987405,-0.342129376344,-1.02715384869,-0.010223540759,-1.42240924502,-0.136437917842,0.384093399783,-0.353320560813,0.573607091222,0.819113064135,0.00307245234323,0.0,0.819081805138,-0.573541469968,-0.0116587143672,0.0,-0.0077877763547,0.00920428825814,-0.999927313167,0.0,0.589848393584,0.166956417305,0.304187875065,1.0,-0.263250285714,-0.345986089796,1.444
0.38477121881,0.201021940708,-0.127372075046,-1.87020799129,0.0411648603985,2.06410046777,0.0657401872105,-0.374163191844,-1.04538382396,-0.0107667343081,-1.45000966004,-0.129907899762,0.376517907181,-0.355627361695,0.573580776981,0.819131585613,0.00304706900283,0.0,0.819100008864,-0.573515257796,-0.0116692525517,0.0,-0.00781126317191,0.00918929011491,-0.999927267912,0.0,0.585308160714,0.161028164359,0.304208161651,1.0,-0.272585714286,-0.358255510204,1.461
0.378048108341,0.182655505484,-0.127669000977,-1.89516464609,0.0387475970178,2.07082389537,0.0592613811484,-0.407647288469,-1.06357031879,-0.0203334341648,-1.45261078861,-0.14315416474,0.382794387715,-0.390155298907,0.573622100688,0.819102464783,0.00309591487575,0.0,0.819071428458,-0.573556302565,-0.0116580347007,0.0,-0.00777359313445,0.0092232593509,-0.999927248722,0.0,0.580633125595,0.154808707967,0.304253734192,1.0,-0.281921142857,-0.370524930612,1.478
0.371284587772,0.16504596148,-0.127929308552,-1.91894078464,0.036373672147,2.07704190155,0.0529367244108,-0.43656755584,-1.10101367894,-0.0168052978407,-1.50127667339,-0.162962368415,0.384425973283,-0.40407236406,0.573729353659,0.819027412256,0.00307792538528,0.0,0.818995966903,-0.573663393592,-0.0116903357782,0.0,-0.00780916268962,0.00922807493607,-0.999926927136,0.0,0.576077263001,0.148756598081,0.304257514031,1.0,-0.290707428571,-0.382072620408,1.494
0.363345684192,0.144866684222,-0.128165443283,-1.94584210839,0.0335356575379,2.08390248654,0.0454359275974,-0.455214595982,-1.10950794034,-0.0177128855723,-1.50414032399,-0.167793571431,0.371725226802,-0.424744866023,0.573628702658,0.819097890306,0.00308293428281,0.0,0.819066901157,-0.573563202233,-0.0116366393214,0.0,-0.00776343852911,0.00920041688324,-0.99992753805,0.0,0.570789043005,0.141859060821,0.304287744844,1.0,-0.300592,-0.395063771429,1.512
0.355299266508,0.125368052346,-0.128442981967,-1.97148691443,0.0308687075488,2.09018901362,0.0379119666027,-0.494313611889,-1.13257600551,-0.0171196769508,-1.54216845794,-0.170261843558,0.369008724678,-0.455463871797,0.573610438513,0.819110382183,0.00316125454769,0.0,0.819079998505,-0.573544193105,-0.0116516739676,0.0,-0.00773103677434,0.00927302071855,-0.999927118423,0.0,0.565633737355,0.135091581696,0.304336747759,1.0,-0.309927428571,-0.407333191837,1.529
0.347182696676,0.106644016095,-0.128830291993,-1.9957859613,0.0281850620582,2.09597459731,0.0305255244988,-0.517631075327,-1.17458739061,-0.0267724507844,-1.52854572567,-0.178535752517,0.346769129616,-0.467492559115,0.573762517933,0.81900356104,0.00323835154903,0.0,0.818974675741,-0.573696608671,-0.0115511296469,0.0,-0.00760273138961,0.00927991180803,-0.999928038267,0.0,0.56067553591,0.128416113877,0.304408438461,1.0,-0.318713714286,-0.418880881633,1.545
0.338176238651,0.0865152701312,-0.129115668722,-2.0217880201,0.0253436300123,2.10189980645,0.0222272688604,-0.551113980975,-1.1905764295,-0.0232477667571,-1.55258836907,-0.166497575229,0.334754527073,-0.49328519969,0.573707643058,0.819041928871,0.00325667771294,0.0,0.819012630014,-0.573640888554,-0.011627113045,0.0,-0.00765507698251,0.00933800358488,-0.999927098085,0.0,0.555196035213,0.121288041158,0.304398473534,1.0,-0.328049142857,-0.431150302041,1.562
0.328640942846,0.0661097131081,-0.129450543924,-2.04777861759,0.0223686991708,2.10756606348,0.0135057414291,-0.571744417454,-1.18802856924,-0.0279033142314,-1.54891893993,-0.187374712752,0.326008984442,-0.514377131137,0.573654792131,0.819078894844,0.00326961572135,0.0,0.819049541409,-0.573587731431,-0.0116494622893,0.0,-0.0076665648383,0.009360927352,-0.999926795732,0.0,0.549596789533,0.11395600195,0.30440509409,1.0,-0.32998,-0.433688,1.579
0.319116484677,0.047069448054,-0.129825046559,-2.07174808131,0.0195346108978,2.11245487707,0.00512699940185,-0.599404203422,-1.18001373209,-0.0205086355341,-1.47968864984,-0.168157240628,0.287766557502,-0.52883006417,0.573882782817,0.818919483874,0.00319020677208,0.0,0.818888727334,-0.573815504842,-0.0117373570239,0.0,-0.00778151006478,0.00934847146237,-0.999926024355,0.0,0.544323139041,0.10687040287,0.304393175783,1.0,-0.32998,-0.433688,1.595
0.308814123406,0.0269130875617,-0.130045744193,-2.09666456517,0.0165648372511,2.11732544565,-0.00397055327737,-0.611237440883,-1.17528892669,-0.0092227936656,-1.44379383802,-0.176731790142,0.267689604783,-0.532805920081,0.573919213038,0.818893650083,0.00326705694506,0.0,0.818863354343,-0.573851017613,-0.0117712956112,0.0,-0.00776478477293,0.00943122750285,-0.999925377248,0.0,0.538687979454,0.0995199917746,0.30444335735,1.0,-0.32998,-0.433688,1.612
0.297498608407,0.00583985869867,-0.130371850303,-2.12232796923,0.013340204024,2.12208685949,-0.0139630627915,-0.642868596889,-1.16943998515,-0.0182974236028,-1.41454311233,-0.165093693043,0.23717219642,-0.566128668052,0.573964540113,0.818861573275,0.00334326297284,0.0,0.818832459823,-0.573896316187,-0.0117118704216,0.0,-0.00767186204237,0.00945995269768,-0.999925823163,0.0,0.532766372562,0.091658255414,0.304510967125,1.0,-0.32998,-0.433688,1.63
0.287219881262,-0.012747102312,-0.130560038394,-2.14457315758,0.0105694977803,2.12606090396,-0.0231117918599,-0.639530654053,-1.15363025614,-0.00840946352855,-1.3835079662,-0.165075561144,0.240333960563,-0.566390091216,0.573866244825,0.81892940737,0.0035924497828,0.0,0.818903518263,-0.573797224019,-0.0115982924109,0.0,-0.00743698820281,0.00959792306828,-0.999926282823,0.0,0.527512873417,0.0847929218303,0.304615740741,1.0,-0.32998,-0.433688,1.646
0.275918044251,-0.0322497030232,-0.130829027957,-2.16765062053,0.00747487275656,2.12982482728,-0.0330139680425,-0.673682838926,-1.15317719284,-0.0211190599104,-1.35115868576,-0.180668177073,0.221904907764,-0.587846051782,0.573857316763,0.818935358159,0.00366142816803,0.0,0.818910985718,-0.573788901702,-0.0114821885963,0.0,-0.00730242397763,0.00958770628169,-0.999927372609,0.0,0.521926535168,0.0774127609193,0.304695187603,1.0,-0.32998,-0.433688,1.663
0.264216493229,-0.0515501062884,-0.131144144352,-2.19021295163,0.0045453508781,2.13320458313,-0.0432144790206,-0.689496299574,-1.15547369906,-0.0137854224075,-1.30429420014,-0.180745842562,0.205106565928,-0.595836977328,0.573985175702,0.818845175981,0.00378718207418,0.0,0.818821846339,-0.573915601771,-0.0115070805531,0.0,-0.00724913408971,0.00970610794415,-0.999926618069,0.0,0.51632607292,0.0700008429485,0.304752731277,1.0,-0.32998,-0.433688,1.68
0.253031588875,-0.0693074025659,-0.131331137954,-2.210996007,0.00173163295227,2.13606052841,-0.0531307345033,-0.703071870337,-1.10557190714,-0.0156416741833,-1.26718330255,-0.163815776776,0.161579225531,-0.615827759365,0.57382529199,0.818957800881,0.00366081281121,0.0,0.818932026553,-0.573755062296,-0.011670958703,0.0,-0.00745775637598,0.00969523480321,-0.999925189348,0.0,0.511015979678,0.0631480123041,0.304669716227,1.0,-0.32998,-0.433688,1.696
0.239902446846,-0.0892266435467,-0.131708008906,-2.23381298772,-0.00145363169239,2.13897657065,-0.064596316621,-0.721659349638,-1.09894891821,-0.0168100397981,-1.26870474308,-0.177006032951,0.147188550571,-0.6360771007,0.573912911997,0.818896353513,0.00367131411632,0.0,0.818870448092,-0.573842288301,-0.0117031747656,0.0,-0.00747707580335,0.00972312094504,-0.999924774299,0.0,0.505080249412,0.0552693765177,0.304658373717,1.0,-0.32998,-0.433688,1.714
0.2281073869,-0.106788654562,-0.131892585016,-2.25350666156,-0.00426301052627,2.14119645725,-0.0750229737995,-0.749214551016,-1.08966933811,-0.0210129929436,-1.23463451992,-0.175367875449,0.13186483209,-0.661708811614,0.573743556984,0.819014726637,0.00373567554684,0.0,0.818989660222,-0.573672755784,-0.0116727298599,0.0,-0.00741722517419,0.00975682104536,-0.999924891786,0.0,0.499804705642,0.0484557184511,0.304706817468,1.0,-0.32998,-0.433688,1.73
0.214988150762,-0.125150601452,-0.132265764138,-2.27404022253,-0.00726002204689,2.14323112777,-0.086419252427,-0.781262524607,-1.07007724276,-0.019330707545,-1.19678649503,-0.176400569191,0.109850089114,-0.675250371927,0.573879687531,0.818919740498,0.00364825473313,0.0,0.818892868384,-0.573808281386,-0.0118014077092,0.0,-0.00757115272838,0.00976030586771,-0.999923704127,0.0,0.494174116356,0.0410086224769,0.304652579717,1.0,-0.32998,-0.433688,1.747
0.201656205168,-0.143408633391,-0.132523236436,-2.29405994284,-0.010224205821,2.14494201966,-0.0982430790033,-0.792455488008,-1.08779406074,-0.019968103265,-1.15355737022,-0.180298472888,0.108435863767,-0.699816912959,0.57371903962,0.819032347761,0.00363645442845,0.0,0.819004845387,-0.573647084616,-0.0118672847038,0.0,-0.00763379554546,0.00978694940916,-0.999922967426,0.0,0.488530956709,0.0337034745086,0.304646278241,1.0,-0.32998,-0.433688,1.764
0.187800077018,-0.161350357804,-0.132933424743,-2.3135991772,-0.013202934629,2.14631026412,-0.110337509278,-0.8171293449,-1.04192493163,-0.0205780434922,-1.14108159272,-0.168384764024,0.0666054073661,-0.712948837306,0.573844895083,0.818944749359,0.00350439528174,0.0,0.81891449387,-0.573772100038,-0.01205719076,0.0,-0.00786360022343,0.00978894592268,-0.999921167057,0.0,0.482874473266,0.0262524327792,0.304568262291,1.0,-0.32998,-0.433688,1.781
0.174562787585,-0.178154576621,-0.133203156016,-2.33134952253,-0.0158898558372,2.14738088285,-0.122068024645,-0.84569346669,-1.04476771567,-0.012250652104,-1.11561662362,-0.169763126415,0.0544742961208,-0.732435781464,0.573768226518,0.818997785753,0.00366006445596,0.0,0.818969410694,-0.573694668359,-0.0120116087565,0.0,-0.00773787048862,0.00988955068892,-0.999921157966,0.0,0.477617611956,0.0193881264906,0.304633633502,1.0,-0.32998,-0.433688,1.797
0.159949266253,-0.195830390061,-0.133636163251,-2.34968062655,-0.0188219292372,2.14827457886,-0.134887721659,-0.861336375555,-1.03341472558,-0.0122573132004,-1.06452350591,-0.163017912224,0.0562061608127,-0.758195600947,0.573897589599,0.818906273708,0.0038494721049,0.0,0.818881106194,-0.573824301895,-0.011838554532,0.0,-0.00748589006122,0.00994656938808,-0.999922510601,0.0,0.472058330719,0.0119348343884,0.30473630461,1.0,-0.32998,-0.433688,1.814
0.145110767116,-0.213129374522,-0.133947701008,-2.36763267623,-0.0215657978216,2.14875914959,-0.148129000648,-0.8869482799,-1.00933655037,-0.02289289792,-1.02745292441,-0.163349366011,0.027514219109,-0.776877478377,0.573822030081,0.818959093588,0.00387656084674,0.0,0.818932702116,-0.573746568319,-0.0120354330338,0.0,-0.00763251079507,0.0100810331566,-0.999920055579,0.0,0.466415976809,0.00463929618328,0.304702042811,1.0,-0.32998,-0.433688,1.831
0.130724610904,-0.229170746741,-0.134306423372,-2.38392135436,-0.024339856716,2.14905480028,-0.160826214824,-0.897872082015,-0.984756340344,-0.0191629758076,-1.00639500475,-0.168913086905,0.00859108482631,-0.807936675951,0.573848115666,0.818940749116,0.00389056366587,0.0,0.818915182008,-0.573773449413,-0.0119457241641,0.0,-0.00755068353501,0.0100412662799,-0.99992107696,0.0,0.461174400812,-0.00230977109644,0.304731696853,1.0,-0.32998,-0.433688,1.847
0.115070925011,-0.246101335003,-0.134689188968,-2.40078415089,-0.0271095533287,2.14916942613,-0.174812275518,-0.94005883773,-0.990497832564,-0.0335266789192,-0.994719305406,-0.162368630038,0.00822651445584,-0.828032036063,0.573829739175,0.818952622587,0.00409625418752,0.0,0.818930090554,-0.573754847454,-0.0118164592459,0.0,-0.0073270156604,0.0101353766772,-0.999921791432,0.0,0.455600228451,-0.00966188096596,0.304804790953,1.0,-0.32998,-0.433688,1.864
0.0981043264011,-0.263627296238,-0.135073567085,-2.41825713974,-0.0300544088419,2.14900647493,-0.190023803065,-0.951642311797,-0.981730466235,-0.0217540460393,-0.952749639946,-0.170768260079,-0.0112564815197,-0.844048696551,0.573753258265,0.819006201805,0.00409718640717,0.0,0.818983183965,-0.573677687674,-0.0118828426528,0.0,-0.00738179952619,0.0101735423307,-0.999921000916,0.0,0.449629842282,-0.0174149136624,0.304751294056,1.0,-0.32998,-0.433688,1.882
0.0825407360872,-0.278914752503,-0.135518021967,-2.43309574297,-0.0326629623102,2.14868071271,-0.203966789318,-0.972858100797,-0.93709066385,-0.0250548384038,-0.923656577331,-0.160456713721,-0.0397455390854,-0.879659378146,0.573808789236,0.818966663163,0.00422195735014,0.0,0.818945876043,-0.57373364077,-0.0117519557126,0.0,-0.00720231966094,0.0102011264426,-0.999922028766,0.0,0.444399746999,-0.0244006027091,0.3047881226,1.0,-0.32998,-0.433688,1.898
0.0657285162918,-0.29493141787,-0.135889835069,-2.44838352707,-0.0352747835,2.14798630072,-0.219209853232,-1.00405273612,-0.926214403498,-0.0309589104617,-0.855678870436,-0.165281782272,-0.0437363476373,-0.898151967671,0.573720193887,0.819027950224,0.00437067266168,0.0,0.819008876804,-0.573644266872,-0.0117244062691,0.0,-0.00709554173061,0.0103063467746,-0.999921713187,0.0,0.438812928059,-0.0317069344719,0.304834140996,1.0,-0.32998,-0.433688,1.915
0.0484144030366,-0.310638189607,-0.136351053068,-2.46316896775,-0.0379533092415,2.14713096744,-0.234808737332,-1.01436848465,-0.907736064881,-0.0175777221574,-0.850782988005,-0.149313229289,-0.0638190217805,-0.924134520575,0.57377887326,0.818986255348,0.00447940316203,0.0,0.818969002534,-0.573703199383,-0.0116257820076,0.0,-0.00695164158717,0.0103393195046,-0.999922383564,0.0,0.433222955906,-0.0391010296396,0.304875687484,1.0,-0.32998,-0.433688,1.932
0.0317267761055,-0.325117914126,-0.136818634034,-2.47657650558,-0.040372475562,2.14614882528,-0.24988915009,-1.05537471815,-0.921165751162,-0.0249613251129,-0.843410103815,-0.154463244777,-0.0604979672926,-0.950917504944,0.573892460629,0.818905737607,0.00464579901807,0.0,0.818890873612,-0.573816626704,-0.0115309554346,0.0,-0.00677705932402,0.0104221314627,-0.999922722335,0.0,0.427968710915,-0.0460706902524,0.304927102913,1.0,-0.32998,-0.433688,1.948
0.0137302292519,-0.340071042555,-0.137201694729,-2.49032995386,-0.0429201508796,2.1449232688,-0.26641972885,-1.0765622433,-0.878090168608,-0.0279684764091,-0.786375629437,-0.155022694372,-0.0811868472415,-0.985509514338,0.573730673088,0.819018752703,0.00470578158941,0.0,0.819004806074,-0.573654911894,-0.0114854946936,0.0,-0.00670746995462,0.0104438394156,-0.999922965065,0.0,0.422384876936,-0.0533732065807,0.304935151996,1.0,-0.32998,-0.433688,1.965
-0.00477560324803,-0.354669935614,-0.137679525677,-2.50344884972,-0.045459305452,2.14343516913,-0.283330058881,-1.09269826679,-0.874791881298,-0.0269728400912,-0.761214808272,-0.141099265482,-0.084246721741,-1.01412450371,0.573751554318,0.819003777888,0.00476577631683,0.0,0.818990928113,-0.573676127281,-0.0114152335381,0.0,-0.00661523465604,0.0104528368038,-0.999923485509,0.0,0.416805195472,-0.0607621120186,0.304986403124,1.0,-0.32998,-0.433688,1.982
-0.0225844362611,-0.368001242783,-0.138150670973,-2.51545313609,-0.0477353347518,2.14196189908,-0.299705304697,-1.12033401301,-0.81276210089,-0.0208186473388,-0.727597856944,-0.153544261875,-0.105737852398,-1.03212520745,0.573777289701,0.818985497517,0.00480869846206,0.0,0.818972594811,-0.573700777704,-0.0114914538532,0.0,-0.00665270808898,0.010531930276,-0.99992240695,0.0,0.411510804014,-0.0677118032601,0.304952279579,1.0,-0.32998,-0.433688,1.998
-0.0430053195711,-0.382557410443,-0.138648854303,-2.52828331902,-0.0502495178316,2.14009125398,-0.318504703021,-1.1593181505,-0.796739010938,-0.0374908653054,-0.684075581721,-0.137568919656,-0.0954741645813,-1.04994760179,0.573814796423,0.818959005555,0.004844948739,0.0,0.818946178046,-0.573737549075,-0.0115381604681,0.0,-0.00666967982002,0.0105887233185,-0.999921694089,0.0,0.40557659685,-0.0755036302505,0.304953463345,1.0,-0.32998,-0.433688,2.016
-0.062668023708,-0.395855289514,-0.139023936346,-2.53987156928,-0.0525740682766,2.13828357424,-0.336792978228,-1.16433494513,-0.756058114772,-0.0141499881893,-0.665004019129,-0.130754536723,-0.115800244828,-1.08011513252,0.573675494357,0.81905651456,0.00485798649712,0.0,0.819043961394,-0.573598399994,-0.0115157166656,0.0,-0.00664561742161,0.0105853927577,-0.999921889564,0.0,0.3999847425,-0.0828117863819,0.304949201364,1.0,-0.32998,-0.433688,2.033
-0.0803999615772,-0.40718018099,-0.139477830935,-2.54968509118,-0.0544958753582,2.13645344101,-0.353281293299,-1.18789253374,-0.733935807172,-0.0218706748792,-0.634425507761,-0.125527859897,-0.123118189859,-1.11223276712,0.573742470773,0.819009533419,0.00486911703488,0.0,0.818995545192,-0.573662832515,-0.0117472740318,0.0,-0.00682802941438,0.0107279017338,-0.9999191418,0.0,0.394664234217,-0.0897441668057,0.304899745699,1.0,-0.32998,-0.433688,2.049
-0.102090404761,-0.420352912787,-0.139983665838,-2.56062799616,-0.056803599158,2.13446051371,-0.373557162172,-1.21124480632,-0.700522358281,-0.0149386900051,-0.599603129563,-0.130292401814,-0.1208163153,-1.12673236828,0.573727509616,0.819018787953,0.00507115285641,0.0,0.819009066757,-0.57364992417,-0.0114306592739,0.0,-0.00645298249241,0.0107116100785,-0.999921807156,0.0,0.389140447855,-0.0971275466451,0.305014712114,1.0,-0.32998,-0.433688,2.066
-0.122981808055,-0.432134796975,-0.140471905761,-2.5706857323,-0.0589029662287,2.13224946168,-0.393162509295,-1.2394580818,-0.67693466096,-0.0383070788041,-0.572004172318,-0.119337161423,-0.120375041032,-1.13782633012,0.573725578068,0.819020667431,0.00498540791388,0.0,0.819007751847,-0.573644863891,-0.0117736760326,0.0,-0.006783160955,0.0108381554834,-0.999918258216,0.0,0.383451700871,-0.104478526673,0.304912256064,1.0,-0.32998,-0.433688,2.083
-0.142840731475,-0.442871719776,-0.140814327171,-2.57942873405,-0.0607263593742,2.13028640726,-0.411995110327,-1.25248046499,-0.657278923698,-0.0234831564325,-0.515772846077,-0.116563625337,-0.116797871816,-1.19097281286,0.573575504646,0.819124924105,0.00512309292143,0.0,0.81911433028,-0.573495236136,-0.0116479595055,0.0,-0.00660319169313,0.0108775925062,-0.999919034643,0.0,0.378228535606,-0.111320450621,0.304979559544,1.0,-0.32998,-0.433688,2.099
-0.164485150285,-0.453606277069,-0.141284281637,-2.58817845995,-0.0627103219489,2.12821203138,-0.432438875934,-1.27673196811,-0.617112493,-0.0258527501069,-0.51351303377,-0.0994492503399,-0.138790699382,-1.21122477914,0.573581627885,0.819120433898,0.00515536854795,0.0,0.819110513332,-0.573501679207,-0.011599042922,0.0,-0.00654452655432,0.010876023896,-0.999919437393,0.0,0.37263832653,-0.11871314434,0.304994200674,1.0,-0.32998,-0.433688,2.116
-0.186435170454,-0.46381556178,-0.141737133311,-2.5964604007,-0.0646376017514,2.12602445387,-0.453317462656,-1.29954460457,-0.581988652094,-0.0314184088467,-0.480752351905,-0.104595951748,-0.121025180071,-1.24617615651,0.573508475179,0.819171915825,0.00511352350605,0.0,0.819160859823,-0.573427693728,-0.0117009700512,0.0,-0.00665299815377,0.0108996136554,-0.999918464695,0.0,0.366993270632,-0.126064988093,0.304974225717,1.0,-0.328350285714,-0.431546089796,2.133
-0.207272743944,-0.472637433028,-0.142065350164,-2.60351676045,-0.0661034124313,2.12415979565,-0.473107982475,-1.30760313779,-0.539765288615,-0.00958528730932,-0.420369643437,-0.100593241111,-0.116143976012,-1.19933742729,0.573583258091,0.819118554467,0.00527130601481,0.0,0.819109211665,-0.57350139233,-0.011704668404,0.0,-0.0065645361124,0.0110315895446,-0.999917602054,0.0,0.361811161788,-0.132909539197,0.304980403168,1.0,-0.319564,-0.4199984,2.149
-0.230665880842,-0.481708507075,-0.142344514068,-2.61057614247,-0.0676180795498,2.12214193012,-0.495229928895,-1.28743792301,-0.484723522966,-0.012294100615,-0.381317252346,-0.083465576856,-0.113063544538,-1.19299632591,0.573776525253,0.818982056903,0.00544393616914,0.0,0.818975387205,-0.573694812622,-0.0115898241386,0.0,-0.00636882269124,0.0111086326302,-0.999918014829,0.0,0.356131063279,-0.140483874971,0.305043681125,1.0,-0.309679428571,-0.40700724898,2.167
-0.252448604262,-0.489391062668,-0.142398505521,-2.61672258587,-0.0688175723136,2.1202498265,-0.515933463926,-1.28509534264,-0.427919066329,-0.0125403472826,-0.352712049916,-0.0675886615167,-0.113611786424,-1.20541042314,0.573833242815,0.818941885792,0.005508542178,0.0,0.818934550562,-0.573748688105,-0.0118064259782,0.0,-0.00650838321358,0.0112862725136,-0.999915126899,0.0,0.350852124947,-0.14733508464,0.30499058007,1.0,-0.300344,-0.394737828572,2.184
-0.272640587391,-0.495874056375,-0.142316567117,-2.62177421241,-0.0698584924764,2.11874199759,-0.535148076218,-1.25278123541,-0.392058395932,0.0100854964467,-0.306132128045,-0.0607805922232,-0.0848494394563,-1.20890502941,0.57383562268,0.818939877263,0.00555899922363,0.0,0.818933572054,-0.57375154531,-0.0117352341053,0.0,-0.0064210904088,0.0112867637665,-0.999915685726,0.0,0.346097136267,-0.153611845012,0.305004052561,1.0,-0.291557714286,-0.383190138776,2.2
-0.294889726305,-0.502269213296,-0.142188011753,-2.62675644838,-0.0708267295849,2.11710414262,-0.556380122816,-1.21962050527,-0.338540208602,0.00876685585305,-0.257875874956,-0.0464147971233,-0.0783730828148,-1.17789673157,0.573870499754,0.818915004134,0.00562249205368,0.0,0.818908988838,-0.573785250326,-0.0118026018392,0.0,-0.00643934870086,0.0113776933541,-0.999914537789,0.0,0.340908635567,-0.160437905921,0.304993733847,1.0,-0.281673142857,-0.370198987755,2.218
-0.315529884833,-0.507582488516,-0.141950462356,-2.63079554432,-0.0715682270542,2.11579567291,-0.576072233172,-1.20182242547,-0.294615880603,0.0211337098768,-0.223878755335,-0.043792297565,-0.0696125372157,-1.14278373142,0.573921506174,0.818878588839,0.00571912523731,0.0,0.818874392926,-0.573836918125,-0.0116904622193,0.0,-0.00629134513236,0.0113928722396,-0.999915307133,0.0,0.336202704234,-0.166695016207,0.305029348484,1.0,-0.272337714286,-0.357929567347,2.235
-0.333331896322,-0.511749439497,-0.141805154218,-2.63396262582,-0.0720844273553,2.11470755838,-0.593102786787,-1.18110507563,-0.264019972203,0.00739777465104,-0.211738961564,-0.0306402843594,-0.0700218190009,-1.13228337286,0.574041249392,0.818793581502,0.0058704164446,0.0,0.818791261623,-0.57395595811,-0.011669401907,0.0,-0.00618558997819,0.0115055852554,-0.999914676352,0.0,0.332142478854,-0.172050112807,0.305045316744,1.0,-0.264100571429,-0.347103608163,2.25
-0.354057787814,-0.516000325123,-0.141378290946,-2.63736756801,-0.0726086873702,2.11343811635,-0.613075013374,-1.14644283946,-0.227279238544,0.0095824681502,-0.179455661782,-0.0264669448543,-0.0669180555693,-1.09142735857,0.573929235153,0.818872091778,0.00587173276212,0.0,0.818868173441,-0.573840987454,-0.0119240322105,0.0,-0.0063949393948,0.0116519501045,-0.999911664503,0.0,0.327419782263,-0.178137359182,0.304970864939,1.0,-0.254216,-0.334112457143,2.268
-0.373119479652,-0.519343857689,-0.141015860955,-2.64004804962,-0.0730314862781,2.11249633529,-0.631403818062,-1.10331023723,-0.186771865539,0.0211393799214,-0.146760847679,-0.0250200930999,-0.0582281926093,-1.06597856447,0.573932659851,0.818869511183,0.00589682212845,0.0,0.818865055931,-0.573842741336,-0.0120530200578,0.0,-0.00648612694571,0.0117465496005,-0.999909970312,0.0,0.323136262586,-0.183732766235,0.304913029008,1.0,-0.244880571429,-0.321843036735,2.285
-0.390611797857,-0.522031921819,-0.140651184541,-2.64210103183,-0.0733759045001,2.11170457932,-0.648208947808,-1.07691420667,-0.160467806983,0.0261284010236,-0.119193971734,-0.0211510992168,-0.0448359601506,-1.04018870023,0.573967310368,0.818845124575,0.00591062518244,0.0,0.818840721024,-0.573877094807,-0.012070648294,0.0,-0.00649214409169,0.011768244697,-0.999909676162,0.0,0.319249438181,-0.188851088538,0.304909450546,1.0,-0.236094285714,-0.310295346939,2.301
-0.408550514969,-0.524421696613,-0.140252392127,-2.64388008125,-0.0735711454278,2.11098363738,-0.665543670211,-1.05401688808,-0.137628729105,0.0114061303621,-0.0968397322298,-0.00687552419082,-0.0423739460965,-1.00528164676,0.573989765035,0.818828656435,0.00601065198045,0.0,0.818825572626,-0.573899153456,-0.0120494886742,0.0,-0.00641708208723,0.0118381866444,-0.999909335087,0.0,0.315293094293,-0.194063602796,0.304926060025,1.0,-0.226758857143,-0.298025926531,2.318
-0.425878787971,-0.526340704584,-0.139778123288,-2.64529352321,-0.0737240185619,2.11040895872,-0.682326562068,-1.00537036901,-0.10769402956,0.0316788003951,-0.0748074659943,-0.00532849262578,-0.030856484342,-0.971019175548,0.573951117312,0.818855432594,0.00605329245673,0.0,0.818853281686,-0.573861036512,-0.0119816838283,0.0,-0.00633764023012,0.0118338870527,-0.999909892657,0.0,0.311505165553,-0.199066285503,0.304949501727,1.0,-0.217423428572,-0.285756506123,2.335
-0.442677968013,-0.527824705257,-0.139358458823,-2.64643462224,-0.0738537097732,2.10994204205,-0.698491774105,-0.971605980506,-0.081037957561,0.0256560179306,-0.0634915322425,-0.00404958507878,-0.0226055199134,-0.939446985216,0.574050597482,0.818785480982,0.00608231581563,0.0,0.818783721044,-0.573960400672,-0.0119759557298,0.0,-0.00631485183031,0.0118551339662,-0.999909785153,0.0,0.307821388483,-0.203908489461,0.304944491482,1.0,-0.208088,-0.273487085714,2.352
-0.458698364346,-0.528899466658,-0.138829997315,-2.64725355262,-0.0738667291859,2.10957981144,-0.714025455561,-0.936829304843,-0.0568622071948,0.0206073380767,-0.042626797745,-0.000546492322672,-0.0128779106192,-0.898053436515,0.574021857371,0.818805464645,0.00610452527291,0.0,0.81880410207,-0.573931778864,-0.0119541852438,0.0,-0.00628469215376,0.011860602305,-0.999909910321,0.0,0.304347477676,-0.208481357933,0.304947788147,1.0,-0.198752571429,-0.261217665306,2.369
-0.474122782058,-0.529643784465,-0.138295695179,-2.64781496394,-0.0738627109255,2.10927969762,-0.728944599865,-0.88137223677,-0.035937242786,0.0363684484381,-0.0263739750367,0.000816848645755,-0.013278837962,-0.860551648334,0.574027031097,0.818801919163,0.00609357417049,0.0,0.818800470591,-0.573937102998,-0.0119473036253,0.0,-0.0062852678418,0.0118477247335,-0.999910059369,0.0,0.301006291462,-0.21287182058,0.304952681393,1.0,-0.189417142857,-0.248948244898,2.386
-0.487173177999,-0.530027068813,-0.137850482105,-2.6481226789,-0.0738574488639,2.109099715,-0.741544381508,-0.869221913476,-0.0234333000856,0.0259020666454,-0.0152766416588,0.00270229259272,-0.0147015758272,-0.822294829525,0.574078546241,0.818766001436,0.00606667454066,0.0,0.81876422078,-0.573988751066,-0.0119503690821,0.0,-0.00630247430846,0.0118278542855,-0.999910186307,0.0,0.297992740499,-0.216835818577,0.304948115093,1.0,-0.180630857143,-0.237400555102,2.402
-0.502017236248,-0.530215291733,-0.137213548532,-2.64828301139,-0.0737872619535,2.10894556508,-0.756092043648,-0.820128550856,-0.00769550823822,0.0335564599317,-0.0119015204631,0.0016819769106,-0.00571237961757,-0.786607202063,0.573880404738,0.818905432592,0.0059933655167,0.0,0.818902751376,-0.573791047815,-0.0119525786693,0.0,-0.00634921436806,0.011767560758,-0.999910601999,0.0,0.294990136737,-0.220777290198,0.304948254926,1.0,-0.171295428572,-0.225131134694,2.419
-0.515541357697,-0.53023757499,-0.136688484929,-2.64831409966,-0.0737078112984,2.1088600291,-0.769078301333,-0.789296192839,0.001144643241,0.0272454197371,-0.00165826349415,0.00640703211019,-0.00301147954234,-0.74917427036,0.57398277391,0.818833978831,0.00595292088585,0.0,0.818830888114,-0.573893774554,-0.0119439985143,0.0,-0.00636393011516,0.0117303107395,-0.999910946136,0.0,0.292059173093,-0.224594790949,0.30494868039,1.0,-0.16196,-0.212861714286,2.436
-0.527411471619,-0.530062343575,-0.136049271098,-2.64822557541,-0.0735068049385,2.10886332847,-0.780697442503,-0.732396997499,0.0102955947092,0.0357311530984,0.00350747999038,0.0141423020777,-0.00220119809335,-0.703101043246,0.573828612211,0.81894223846,0.00592290258629,0.0,0.81893885958,-0.573739952164,-0.0119314065274,0.0,-0.00637304962398,0.0116973027481,-0.999911274737,0.0,0.289528239637,-0.227889843182,0.304942023057,1.0,-0.153173714286,-0.20131402449,2.452
-0.540208976928,-0.529754596028,-0.135469622576,-2.64804196837,-0.0732692080216,2.10886035916,-0.793016578097,-0.702106485623,0.0193037357134,0.0337259361699,0.0133852550259,0.0104038515428,-0.00171680168122,-0.670390324336,0.57392370758,0.818875405138,0.00594942332799,0.0,0.818872147017,-0.573834509921,-0.0119628159169,0.0,-0.00638219418786,0.011737786707,-0.999910741997,0.0,0.286756754506,-0.231451877626,0.304928097591,1.0,-0.143289142857,-0.18832287347,2.47
-0.550778608282,-0.529322479699,-0.134819848182,-2.64777101282,-0.0729846295469,2.10889974912,-0.803302321037,-0.640531302312,0.0248184030384,0.0437074282156,0.0199741753131,0.026629354738,0.00677174359863,-0.635645323232,0.573835028851,0.818937581953,0.00594503412371,0.0,0.818934026766,-0.573745426773,-0.0119996651444,0.0,-0.00641616414815,0.0117546452419,-0.999910326556,0.0,0.284507756402,-0.234349555096,0.304913833622,1.0,-0.134502857143,-0.176775183674,2.486
-0.560786492757,-0.528774618025,-0.134225606797,-2.64744292198,-0.0726974733123,2.10896989306,-0.813024398096,-0.61838369901,0.0323419481564,0.0368329363231,0.019883648683,0.0188809021089,0.00739574745593,-0.597632110191,0.573791488144,0.818968013859,0.00595544378552,0.0,0.818964119097,-0.573700982903,-0.0120706565024,0.0,-0.0064689621759,0.0118035619861,-0.999909410123,0.0,0.282368623136,-0.237095112932,0.304884334064,1.0,-0.125716571429,-0.165227493878,2.502
-0.570862656389,-0.528144565004,-0.133654836728,-2.64697880159,-0.0723717489597,2.10909590108,-0.822624881274,-0.571049888706,0.038967058196,0.0406379140893,0.032589324045,0.0267992716409,0.00797898589463,-0.562389834977,0.573945166908,0.818860018074,0.00599692294992,0.0,0.818856891809,-0.573854873782,-0.0120300239008,0.0,-0.00640966553226,0.0118154232463,-0.999909651899,0.0,0.280110330427,-0.240034749703,0.304891280624,1.0,-0.115832,-0.152236342857,2.52
-0.580451680904,-0.527328312121,-0.132939711349,-2.64644097519,-0.0719681872337,2.10922122346,-0.832077219099,-0.52560099918,0.0394489910038,0.0359520282647,0.0317977033688,0.0188708457776,0.00927962416724,-0.513551821555,0.573753403979,0.818994247692,0.00601669100826,0.0,0.81899084208,-0.573662078558,-0.0121064905536,0.0,-0.00646372310002,0.0118739836118,-0.999908610222,0.0,0.278223258016,-0.242483823088,0.304865868376,1.0,-0.106496571429,-0.139966922449,2.537
-0.588574590406,-0.526647701006,-0.132388485234,-2.64595253886,-0.0716505230281,2.1093159254,-0.839735735558,-0.499910615165,0.0508173626797,0.0345154990713,0.0293730931618,0.0268721872076,0.00450275496487,-0.463313003354,0.573907411662,0.818886185716,0.00603693508806,0.0,0.818882818021,-0.573815550127,-0.0121404976531,0.0,-0.00647772330346,0.0119112933308,-0.999908075871,0.0,0.276501079891,-0.2446980105,0.304861135842,1.0,-0.0977102857144,-0.128419232653,2.553
-0.596459376341,-0.525865626903,-0.131808062409,-2.64536590202,-0.0712826227995,2.10946377312,-0.847272569034,-0.444471105297,0.0498349924382,0.0406147345716,0.0371368121477,0.0249899374633,0.00891010936554,-0.424411599665,0.573971889412,0.818840743836,0.00607069194349,0.0,0.818837893201,-0.573880007702,-0.0121238739251,0.0,-0.00644379726674,0.0119299051127,-0.999908073195,0.0,0.274860437645,-0.246852194577,0.304868980401,1.0,-0.088374857143,-0.116149812245,2.57
-0.603383377237,-0.525075255288,-0.131103017994,-2.64482555617,-0.0708639740942,2.1096016429,-0.854067696008,-0.403258456535,0.0377602542972,0.0372786322147,0.026874986615,0.0210864334984,0.00924623751881,-0.385596826837,0.573800039363,0.818961059059,0.00608649925682,0.0,0.818958134151,-0.573707605089,-0.0121616311638,0.0,-0.00646815595782,0.0119631628433,-0.99990751857,0.0,0.273375505107,-0.248796629802,0.304858807448,1.0,-0.0784902857144,-0.103158661225,2.588
-0.609882320244,-0.524388467194,-0.130458785934,-2.64430193775,-0.0705076574653,2.10974158062,-0.860094038665,-0.36880630404,0.0348113986024,0.040308180033,0.0257788605372,0.0256397112348,0.00768630856745,-0.335934655389,0.573900189033,0.818891034029,0.0060658317456,0.0,0.818888001562,-0.573808124847,-0.0121418144599,0.0,-0.00646232387825,0.0119356562481,-0.999907884997,0.0,0.272133851379,-0.250415026252,0.304869238665,1.0,-0.0697040000001,-0.0916109714287,2.604
-0.615245818134,-0.523709652756,-0.129846884063,-2.64379284269,-0.0701178651705,2.10988677518,-0.865184796928,-0.316905931228,0.0369529339684,0.036759825309,0.0368779065088,0.0289375221378,0.00677611528195,-0.29869866236,0.573886027649,0.818900809946,0.006085855807,0.0,0.818898228712,-0.573794230576,-0.0121086279465,0.0,-0.00642385996172,0.0119328986783,-0.999908165759,0.0,0.271016145199,-0.251914281872,0.304883291561,1.0,-0.0603685714287,-0.0793415510205,2.621
-0.620552610946,-0.523020526994,-0.129204019723,-2.64330201965,-0.069686458874,2.11002751668,-0.870163060611,-0.276004194607,0.0384159118194,0.0382942450342,0.0278346803176,0.0187843899885,0.0109046834495,-0.260398022542,0.573909868532,0.818883814173,0.00612442549631,0.0,0.818881615589,-0.573817672899,-0.0121212549039,0.0,-0.00641171930762,0.0119719177498,-0.999907777268,0.0,0.270032626058,-0.253208225936,0.304877795104,1.0,-0.0510331428572,-0.0670721306124,2.638
-0.62429348788,-0.522552874966,-0.12857584233,-2.64295637514,-0.0693335915041,2.11013475877,-0.873673386969,-0.236736984146,0.028848568144,0.041153074076,0.0252219558417,0.0247784317799,0.00969380661137,-0.221621016124,0.573823270934,0.81894463348,0.00610638438305,0.0,0.818942366635,-0.57373148449,-0.0120967242331,0.0,-0.00640324569873,0.0119423886732,-0.999908184684,0.0,0.269335154918,-0.25413471094,0.304887945029,1.0,-0.0427960000001,-0.0562461714287,2.653
-0.628125295231,-0.522108366843,-0.127805688819,-2.64262739527,-0.0689137627165,2.11023306919,-0.877196303403,-0.196185908831,0.0265581992981,0.0391113278611,0.0157489465449,0.0198966609612,0.00424873121553,-0.183201735485,0.573727722842,0.81901178999,0.00607740085352,0.0,0.819009332437,-0.57363643055,-0.0120708669061,0.0,-0.00640008700036,0.0119030681697,-0.999908673757,0.0,0.268642683105,-0.255040269199,0.304901585897,1.0,-0.0329114285715,-0.0432550204083,2.671
-0.631081698114,-0.521748827865,-0.127155002038,-2.64235830176,-0.0685431479929,2.11032089967,-0.879744645028,-0.159218399258,0.0196426456868,0.036654590162,0.0102560339361,0.0242076402831,0.0104184588487,-0.137882845068,0.573773552704,0.818979798136,0.00606196033022,0.0,0.818977367421,-0.573682740837,-0.0120387465962,0.0,-0.00638197111279,0.0118723512968,-0.999909154733,0.0,0.268127676908,-0.25572556415,0.304915242283,1.0,-0.0235760000001,-0.0309856000001,2.688
-0.633243257699,-0.521455766449,-0.126647501304,-2.64217073559,-0.0682099353039,2.11038292461,-0.881567437713,-0.125407725885,0.0183411636162,0.0263253257613,0.01154838641,0.0228333582092,0.00170472212415,-0.0983139540973,0.573843806794,0.818930370616,0.00608936685152,0.0,0.818928185663,-0.57375265616,-0.0120525174651,0.0,-0.00637650495663,0.0119032458255,-0.999908822305,0.0,0.267759164978,-0.256209400059,0.304910495663,1.0,-0.0197909677419,-0.0260109861751,2.704
-0.63513079431,-0.521216138633,-0.126292271632,-2.64201406555,-0.0679526875023,2.11038548119,-0.883287620366,-0.102109106101,0.00777947132266,0.0246782682332,0.0072808110997,0.00498157207415,4.29880131886e-05,-0.103028370567,0.573847414741,0.81892749527,0.00613587699822,0.0,0.818925514599,-0.573755310159,-0.0121075391706,0.0,-0.00639482783691,0.0119729367963,-0.999907873237,0.0,0.267405320552,-0.25664566684,0.30490250843,1.0,-0.0194509677419,-0.0255641290323,2.721
-0.636768903957,-0.520970009083,-0.126016044567,-2.64182154716,-0.0677946526508,2.1104101991,-0.884767199154,-0.0909857714375,0.0177056645426,0.0129694530479,0.0128139461065,0.00563333124573,0.00107720562886,-0.0857665211442,0.573859124053,0.818919347668,0.00612818545604,0.0,0.818917195985,-0.573766918636,-0.0121200701387,0.0,-0.00640933324524,0.0119739198184,-0.999907768592,0.0,0.26710093234,-0.257054458929,0.304908319164,1.0,-0.0191109677419,-0.0251172718894,2.738
-0.638177741285,-0.520703994675,-0.125839409641,-2.64162835673,-0.0676871861669,2.11051921801,-0.886213289237,-0.0838886127894,0.0169688159776,0.0078018540706,0.0128465979455,0.00701881440382,0.00146783582634,-0.0874407970098,0.573759535364,0.818989195055,0.00611889384555,0.0,0.818987234352,-0.573667975434,-0.0120710741418,0.0,-0.00637598860814,0.0119374196711,-0.999908418197,0.0,0.266842274309,-0.257440335334,0.304911880568,1.0,-0.0187909677419,-0.0246967004608,2.754
-0.639738287688,-0.520448393367,-0.125689757583,-2.64144717591,-0.0676511944041,2.11054118834,-0.887758461822,-0.0877426326063,0.00715372437609,0.00590915029496,0.0113726497525,0.00320348012845,6.18090817271e-05,-0.0843137003212,0.573691102022,0.819037468467,0.00607384631421,0.0,0.819034679658,-0.57359930408,-0.0121152291279,0.0,-0.00643899654651,0.0119253195192,-0.999908158822,0.0,0.266515379494,-0.257864690778,0.30490566997,1.0,-0.0184309677419,-0.0242235576037,2.772
-0.641148304192,-0.520242026485,-0.125630211392,-2.64128130195,-0.0676166562979,2.11054444246,-0.889164220417,-0.0854502153856,0.0166811048115,0.00191903380376,0.0119760989574,0.00186160049449,-9.89223642253e-05,-0.0842251480313,0.573675845236,0.81904815793,0.00607342453903,0.0,0.819045178704,-0.573583710301,-0.0121436988441,0.0,-0.00646278121597,0.0119411856904,-0.999907816023,0.0,0.266201716963,-0.258262839819,0.30490685328,1.0,-0.0180909677419,-0.0237767004608,2.789
-0.64242926237,-0.520045632393,-0.125587498732,-2.64110780261,-0.0675838729234,2.11059944152,-0.890477973962,-0.0746332241964,0.0138162718566,0.00189197892602,0.0122466611792,0.00231680451426,0.000603759771055,-0.0785503651398,0.573641685514,0.819072093061,0.00607205975794,0.0,0.819069351723,-0.573550036882,-0.0121036837797,0.0,-0.00643128333123,0.0119168450501,-0.999908309496,0.0,0.265927288616,-0.258639479862,0.304919170343,1.0,-0.0177709677419,-0.0233561290323,2.805
-0.643785417785,-0.519835716091,-0.12558466708,-2.6409310809,-0.0675513928903,2.11068701347,-0.891765721039,-0.0849591041317,0.0165721139935,-0.000631976468575,0.0134132726837,7.38431597803e-05,0.00455219830279,-0.0725197431174,0.573718748342,0.819018010054,0.00608637073552,0.0,0.819015847866,-0.573627752149,-0.0120411714869,0.0,-0.00637074780279,0.0118933089055,-0.999908977245,0.0,0.265629825981,-0.259049725192,0.30492979733,1.0,-0.0174309677419,-0.0229092718894,2.822
-0.645145477703,-0.519653136454,-0.125579196132,-2.64075959057,-0.0675230874653,2.11069134998,-0.893137572905,-0.0788848036517,0.0073848819908,0.00138945194475,0.0122898366519,0.00567519054826,0.000476278987834,-0.0744530747358,0.573726147889,0.819012684606,0.00610545518208,0.0,0.819010763301,-0.573635054396,-0.0120391389494,0.0,-0.00635802680755,0.011907831585,-0.99990888537,0.0,0.265317110245,-0.259448030371,0.304941051079,1.0,-0.0170909677419,-0.0224624147465,2.839
-0.646403379581,-0.519463650931,-0.125578892417,-2.64060110547,-0.0674962574523,2.11072589667,-0.894331960607,-0.076892094903,0.012450371424,-0.000511073374308,0.0118104964801,0.00362497338458,0.00472409011858,-0.0789797518691,0.573797661582,0.818962456308,0.00612255028072,0.0,0.81896081781,-0.573706593031,-0.0120279219438,0.0,-0.00633799106317,0.011915951689,-0.999908915834,0.0,0.265030741103,-0.259820950675,0.30494629814,1.0,-0.0167709677419,-0.022041843318,2.855
-0.64767489827,-0.519268644963,-0.125567673013,-2.64042915402,-0.0674766251616,2.11078051464,-0.895613735183,-0.0699749787207,0.0109203120216,0.00251959162056,0.00891966536774,0.000541765736309,0.00152141405087,-0.06934252071,0.573795446114,0.81896401324,0.00612192274871,0.0,0.818962652174,-0.57370491859,-0.0119828056267,0.0,-0.00630143071579,0.0118895343013,-0.999909461374,0.0,0.264735676043,-0.260221053268,0.304960018753,1.0,-0.0164109677419,-0.0215687004608,2.873
-0.648978936552,-0.519063455864,-0.125501324091,-2.64025655724,-0.0674471977245,2.11083837394,-0.8969134314,-0.0713386648306,0.0103310322814,0.00371805651207,0.00880726953719,0.000344658127894,0.00605516976611,-0.0708672762551,0.573776610041,0.818977307441,0.00610889250769,0.0,0.818975952168,-0.573686471427,-0.0119569717632,0.0,-0.00628802061656,0.0118638951995,-0.99990985033,0.0,0.264469970527,-0.260578108312,0.304966999287,1.0,-0.0160709677419,-0.021121843318,2.89
-0.650082919925,-0.518858291389,-0.125444438497,-2.64010074115,-0.0674249225803,2.1108574284,-0.898037679303,-0.0647648866064,0.0132948791472,0.00807276620465,0.0119166412751,-0.000527117092885,0.00478841372527,-0.074821200887,0.573737380149,0.819004887397,0.00609589539474,0.0,0.81900321974,-0.573647033874,-0.0119813807167,0.0,-0.00631603865609,0.0118669524141,-0.999909637465,0.0,0.264230725949,-0.260894429281,0.304965240577,1.0,-0.0157509677419,-0.0207012718894,2.906
-0.651241113656,-0.518642972514,-0.125379484743,-2.63994247584,-0.0673958916229,2.11088195583,-0.899294238448,-0.0642774377037,0.0116058180237,0.00363763596109,0.0118840510605,0.00165092935391,0.000251352531129,-0.071875594773,0.573631485229,0.819079135504,0.00608570766865,0.0,0.819077174024,-0.573540901422,-0.0120068434813,0.0,-0.00634427486371,0.0118723962787,-0.999909394087,0.0,0.263980521381,-0.261223625335,0.304961503564,1.0,-0.0154109677419,-0.0202544147465,2.923
-0.652403583747,-0.518439927297,-0.12536453864,-2.63979819288,-0.0673718392021,2.11092617998,-0.900457508129,-0.0652915866235,0.00801990461357,0.00112453005133,0.00955746220843,8.91085673823e-05,0.00262663503452,-0.0699697604564,0.573638127682,0.819074419172,0.00609436045406,0.0,0.819072513691,-0.573547399995,-0.0120143321023,0.0,-0.00634534966297,0.0118838309095,-0.999909251433,0.0,0.26371759606,-0.261564502608,0.304956414475,1.0,-0.0150709677419,-0.0198075576037,2.94
-0.653476158784,-0.518240361216,-0.125369099484,-2.63964868559,-0.0673440461433,2.11096317873,-0.901512026828,-0.0642266634371,0.0148107962265,0.000688220267574,0.00815492261238,0.000122295940229,0.00401266532006,-0.0627832783556,0.573675879864,0.819047828421,0.00611445190608,0.0,0.819046128533,-0.573584954213,-0.012020255244,0.0,-0.0063381283667,0.0119039778535,-0.999909057585,0.0,0.263473977093,-0.261885694826,0.304953892693,1.0,-0.0147509677419,-0.0193869861751,2.956
-0.654605111788,-0.518046825393,-0.125369099142,-2.63949490968,-0.0673236217526,2.11100520838,-0.90266083149,-0.0638750007414,0.00996387624463,0.000517923874862,0.0104290822692,0.00190196860273,0.00833500076552,-0.0608744084767,0.5736763657,0.819047404042,0.00612570572864,0.0,0.819045895819,-0.573585477146,-0.0120111552411,0.0,-0.00632421143726,0.0119079792881,-0.999909098058,0.0,0.263217430479,-0.262223170568,0.304956052756,1.0,-0.0144109677419,-0.0189401290323,2.973
-0.655788030471,-0.517845404375,-0.125373709059,-2.63934032738,-0.0673026535057,2.11102730799,-0.903743783218,-0.071281977867,0.0152149166142,-0.00113141457917,0.00931937066095,0.000400208345143,0.00121110383303,-0.060417819548,0.573778576723,0.818975685895,0.00614147440968,0.0,0.818974263065,-0.573687373538,-0.0120291638002,0.0,-0.00632842819216,0.0119320156915,-0.999908784839,0.0,0.262942198003,-0.262572798383,0.304953852731,1.0,-0.0140509677419,-0.0184669861751,2.991
-0.656729357618,-0.517691024866,-0.12536513553,-2.63919535913,-0.0672840860718,2.11106033884,-0.904666380582,-0.0622160620126,0.0133998875362,-0.00056390429166,0.00809727932553,0.000347191688713,0.000524271913164,-0.06316268279,0.573803186166,0.818958418586,0.00614484119649,0.0,0.818957220863,-0.573712305755,-0.0120003134506,0.0,-0.00630250805749,0.0119184096282,-0.999909110822,0.0,0.262733276699,-0.262855923447,0.304965853459,1.0,-0.0137509677419,-0.0180727004608,3.006
-0.657811940602,-0.517485155896,-0.125352053031,-2.63902120304,-0.0672643217131,2.11111744405,-0.905821810752,-0.0593165102197,0.0179234382766,0.00119858368967,0.0133109592661,0.000318895196243,0.0036872812691,-0.0632053912446,0.573751685297,0.818994501138,0.00614472348226,0.0,0.818993494707,-0.57366118133,-0.0119687745248,0.0,-0.00627749205056,0.0118998222217,-0.999909489566,0.0,0.262497271056,-0.263184938204,0.304974289364,1.0,-0.0133909677419,-0.0175995576037,3.024
-0.658812076412,-0.517295354322,-0.125322474731,-2.63887358665,-0.0672447963393,2.11117533936,-0.906840003686,-0.0601557909391,0.0102777645542,0.00391684999025,0.00914488320468,0.0034768590241,0.00424249032177,-0.0586291377896,0.573731931512,0.819008391122,0.00613782833618,0.0,0.819007431827,-0.573641719792,-0.0119478378193,0.0,-0.00626458563992,0.0118820118576,-0.999909782311,0.0,0.262280652289,-0.263482093008,0.304977035542,1.0,-0.0130509677419,-0.0171527004608,3.041
-0.659754238767,-0.517113408299,-0.125281518645,-2.63875177149,-0.0672326410019,2.11118901048,-0.907759905819,-0.0578660274905,0.0115998545965,-0.000352951973594,0.00780479220885,-0.000240702044749,0.000570191153031,-0.0544432059125,0.573732770969,0.819007884544,0.00612694646333,0.0,0.819006530786,-0.57364212601,-0.0119900249194,0.0,-0.00630537174768,0.0118973084483,-0.99990934406,0.0,0.262068220336,-0.263749335851,0.304967435267,1.0,-0.0127309677419,-0.0167321290323,3.057
-0.660773075685,-0.516912014533,-0.125245932494,-2.63860954999,-0.0672171769764,2.11121732212,-0.908796241543,-0.0530467550961,0.00834239266711,0.000518930135936,0.00667604081462,0.00433269984119,0.000253648971217,-0.059700489157,0.573707290559,0.819025793318,0.0061189492278,0.0,0.819024178409,-0.57361638888,-0.0120158433239,0.0,-0.00633147795155,0.0119053734965,-0.999909083101,0.0,0.261840886235,-0.264044349477,0.304961048248,1.0,-0.0123709677419,-0.0162589861751,3.075
-0.661641298672,-0.516733638478,-0.125222797195,-2.63847143628,-0.0672057970554,2.11127044577,-0.909679354048,-0.0567437755894,0.0120798509038,0.00134484422024,0.00923241186259,-2.39879612257e-05,0.00154801301755,-0.0610166715632,0.573690718966,0.819037480688,0.00610828141059,0.0,0.81903584249,-0.573600083087,-0.0119991791277,0.0,-0.00632418847865,0.0118869479726,-0.999909348445,0.0,0.261653376807,-0.264305729237,0.30496309301,1.0,-0.0120509677419,-0.0158384147465,3.091
-0.662488138603,-0.516574884312,-0.125212846583,-2.63835145498,-0.0671874972138,2.11131252908,-0.910491601962,-0.0538039521529,0.0135702861301,0.00180111642938,0.00864590462214,0.000376415807969,0.00268036797847,-0.0502727511965,0.573726064675,0.819012691463,0.00611235116029,0.0,0.819011156337,-0.573635498531,-0.0119911434394,0.0,-0.0063147586357,0.0118859441694,-0.999909419975,0.0,0.261463578107,-0.264557612474,0.304962879758,1.0,-0.0117309677419,-0.015417843318,3.107
-0.663425088747,-0.516398752068,-0.125193043834,-2.63820883571,-0.0671729957996,2.11132989455,-0.911419270452,-0.0505436652921,0.00451801734421,0.00104527230135,0.00826557164592,0.000567351024393,0.00011421699172,-0.0544921664134,0.573733205663,0.819007705765,0.0061101161092,0.0,0.81900607227,-0.573642517091,-0.0120026277278,0.0,-0.00632534399636,0.0118907572123,-0.999909295845,0.0,0.261252394887,-0.264833213584,0.304964652783,1.0,-0.0113709677419,-0.0149447004608,3.125
-0.664286634324,-0.516222803305,-0.12518051936,-2.63808059326,-0.0671521549035,2.11136341587,-0.912321381359,-0.0505728280334,0.0125766833148,0.000159069214603,0.0102529266268,0.000443213634062,0.000840388596812,-0.0544904774146,0.573706716607,0.819026211358,0.00611680707543,0.0,0.819024599177,-0.573615881687,-0.0120113746543,0.0,-0.00632905484656,0.0119010509102,-0.999909149899,0.0,0.261059155988,-0.265088475029,0.304961163497,1.0,-0.0110309677419,-0.014497843318,3.142
-0.665091201276,-0.516072114867,-0.125167024262,-2.63797700076,-0.0671361248752,2.11138558579,-0.913096194619,-0.0475341777592,0.00938792929112,0.000664005788116,0.00522734948514,0.00558997250518,0.000122488756678,-0.0482828028967,0.573733824969,0.819007186733,0.0061215249539,0.0,0.819005504671,-0.573642717484,-0.0120317453886,0.0,-0.00634263984797,0.0119168113726,-0.999908876111,0.0,0.260873786735,-0.26532141233,0.304954839936,1.0,-0.0107109677419,-0.0140772718894,3.158
-0.665926412884,-0.515914815349,-0.125163439344,-2.6378696207,-0.0671171655957,2.11141297868,-0.913892870232,-0.0481219030845,0.00833441262295,2.21604537833e-05,0.00304340462189,0.000744608500888,0.000416115734306,-0.0475806252774,0.573776616936,0.818977122633,0.00613297337232,0.0,0.818975471785,-0.573685229789,-0.0120490928156,0.0,-0.00634965737661,0.011936472288,-0.999908597063,0.0,0.260679661846,-0.265565675173,0.304948004145,1.0,-0.0103709677419,-0.0136304147466,3.175
-0.666740256743,-0.515753127811,-0.125170171389,-2.63775604401,-0.0671035665664,2.1114479748,-0.914688571973,-0.0501284004966,0.0123359033718,-0.000824778474312,0.00617069444674,-8.73355857354e-05,-0.000387818072799,-0.0408009363307,0.573808047245,0.818955024611,0.006143246893,0.0,0.818953446783,-0.573716494744,-0.0120574691715,0.0,-0.00635016514869,0.0119499361308,-0.999908433022,0.0,0.260490691981,-0.265809618364,0.304942758527,1.0,-0.0100309677419,-0.0131835576037,3.192
-0.667441477515,-0.515600179537,-0.125156101787,-2.63765373629,-0.0670798873233,2.11147832429,-0.915418058433,-0.0417879294085,0.0130828671939,0.00122679921434,0.00429584753634,0.00690070814086,0.0023984487701,-0.0497947420651,0.573790435167,0.81896729145,0.00615296241632,0.0,0.818965730995,-0.573698638705,-0.0120727090883,0.0,-0.00635733009853,0.0119665007567,-0.999908189392,0.0,0.260333944948,-0.266015173383,0.304935712237,1.0,-0.00971096774194,-0.0127629861751,3.208
-0.668227705742,-0.515434318903,-0.12512845851,-2.63753571418,-0.067059755221,2.11151716883,-0.916179868542,-0.0480409314864,0.010066774384,0.00318492426036,0.00769355869529,0.000786442504229,0.00237968728806,-0.0312328438168,0.573805584394,0.818956696094,0.00615045878489,0.0,0.818955076837,-0.573713746366,-0.0120775102391,0.0,-0.00636247762852,0.0119673226756,-0.999908146815,0.0,0.26016168888,-0.266245273558,0.304932072347,1.0,-0.00935096774194,-0.012289843318,3.226
-0.668904979946,-0.515300078678,-0.125086598545,-2.63743319112,-0.0670426255859,2.11154305398,-0.916794375195,-0.0450333317674,0.0108977868021,0.000946448972286,0.00678832448414,-0.000294148506286,0.00143525028245,-0.0439129422039,0.573839893957,0.818932741063,0.00613910582788,0.0,0.818930970825,-0.573748092442,-0.0120804943634,0.0,-0.00637093476457,0.0119600037672,-0.999908180535,0.0,0.260016359991,-0.26643882172,0.304932285877,1.0,-0.00903096774194,-0.0118692718894,3.242
-0.669587485774,-0.515156535525,-0.125037113783,-2.63732079979,-0.0670174457557,2.1115629708,-0.917490681317,-0.038688476707,0.00950136130726,0.00291795170959,0.00440025883816,0.00220492767106,0.00050864404189,-0.0409602545093,0.573810014818,0.818953734161,0.00613148436029,0.0,0.818951822697,-0.57371817433,-0.012087822214,0.0,-0.00638174599533,0.0119577339599,-0.999908138739,0.0,0.259873023859,-0.266632767986,0.304933215987,1.0,-0.00869096774194,-0.0114224147466,3.259
-0.670243935364,-0.515042162037,-0.125004955301,-2.63722511642,-0.0669930492731,2.11159619265,-0.918180599733,-0.0393875980703,0.00689977800738,0.00122306318246,0.00170012918981,0.00527455710881,0.00199563324073,-0.0378899796726,0.573775083701,0.818978211805,0.00613097169934,0.0,0.818976410779,-0.573683472456,-0.0120689237667,0.0,-0.00636707105668,0.0119461989427,-0.99990837017,0.0,0.25973150919,-0.266821730473,0.304938048859,1.0,-0.00835096774194,-0.0109755576037,3.276
-0.670871565965,-0.514923715783,-0.124983182248,-2.63713381841,-0.0669746625379,2.11162242199,-0.918835627151,-0.0409081825457,0.0102563906814,0.00409622293398,0.00587079802266,0.000107809832261,0.00456144146242,-0.038095411267,0.573749761622,0.818995944396,0.00613196571412,0.0,0.818994171567,-0.573658180048,-0.0120659149726,0.0,-0.00636440567082,0.0119450899994,-0.999908400387,0.0,0.259592521941,-0.267003748159,0.304938536938,1.0,-0.00801096774194,-0.0105287004608,3.293
-0.671442033683,-0.514817301744,-0.124975041299,-2.63706435012,-0.0669533330045,2.11163908529,-0.919397255526,-0.0421817743242,0.00137242191949,0.000824828878168,0.000592960672744,0.00234409521092,0.000260989688247,-0.0378432460277,0.573764010528,0.818985862619,0.00614523835339,0.0,0.818984149588,-0.573672155743,-0.0120816948078,0.0,-0.00636950774305,0.0119651248395,-0.999908128359,0.0,0.259459779824,-0.267166629497,0.304932414397,1.0,-0.00769096774194,-0.0101081290323,3.309
-0.672045716136,-0.514710109626,-0.124959332952,-2.63699406068,-0.0669254089191,2.11166078279,-0.919963245132,-0.0390692843617,0.00634219984763,0.000129235579492,0.00458634624503,9.16201370504e-05,0.00135173732415,-0.0342427164313,0.57379936212,0.818960986574,0.00615965924543,0.0,0.818959385147,-0.573707293115,-0.0120919067109,0.0,-0.00636908104185,0.0119830698171,-0.999907916183,0.0,0.259321305858,-0.267336703988,0.304926985419,1.0,-0.00735096774194,-0.00966127188941,3.326
-0.672643811589,-0.514607026327,-0.124945518355,-2.63692359113,-0.0669012286216,2.11168088883,-0.920554532679,-0.0312137050851,0.00482917318064,0.00154803129455,0.00159421310474,0.000964173693872,0.00253511100906,-0.0237067941286,0.573809155925,0.81895403081,0.00617210639985,0.0,0.818952530661,-0.573716915227,-0.0120996118827,0.0,-0.00636810668415,0.0119977612312,-0.999907746216,0.0,0.259183332798,-0.267505928047,0.304922970056,1.0,-0.00699096774194,-0.00918812903226,3.344
-0.673112649493,-0.514511583236,-0.124925586172,-2.63685642001,-0.0668852183623,2.111692748,-0.921034402467,-0.0317085126658,0.0102812955317,0.00093753641782,0.00197206009325,0.00340116231514,-0.000143413342891,-0.0292709740524,0.573796318237,0.818963007287,0.00617452620043,0.0,0.818961450092,-0.573703902727,-0.0121128923492,0.0,-0.00637778375869,0.0120072631409,-0.999907570481,0.0,0.259078621878,-0.267639175214,0.304919711195,1.0,-0.00669096774194,-0.00879384331798,3.359
-0.673654987542,-0.514413202505,-0.12488244223,-2.63677866808,-0.066856745412,2.11170608585,-0.921588985963,-0.0277103296801,0.00702355381652,0.00481102997636,0.00299817450139,8.71827239099e-06,-0.000222232816266,-0.0319783876869,0.573771800312,0.81898018016,0.00617515771334,0.0,0.818978607465,-0.573679342577,-0.012116076763,0.0,-0.00638038915519,0.0120094164605,-0.999907528,0.0,0.258963051929,-0.267788132902,0.304920848808,1.0,-0.00633096774194,-0.00832070046084,3.377
-0.674146049579,-0.514322632826,-0.124854657226,-2.63670856075,-0.066834694924,2.11173354444,-0.922076442406,-0.0311987053962,0.00616902001891,0.00416725066165,0.00131583335946,0.00121049449835,0.00473730663402,-0.0339439817223,0.573768039145,0.818982808819,0.00617600330384,0.0,0.818981312236,-0.573675701033,-0.0121056662064,0.0,-0.00637143215722,0.0120041067682,-0.999907648872,0.0,0.258857744035,-0.267927868084,0.30492223671,1.0,-0.00599096774194,-0.00787384331798,3.394
-0.674567756138,-0.51424073537,-0.124821601464,-2.63663978735,-0.0668153964659,2.11175303024,-0.922494510485,-0.023047945663,0.00591236761091,0.00192579595241,0.00305163819928,0.00210212650638,0.00292303070889,-0.0230400910301,0.573759282736,0.818988974562,0.00617186535839,0.0,0.818987484327,-0.573667078373,-0.0120967189077,0.0,-0.00636660602245,0.0119955161983,-0.999907782707,0.0,0.258770544184,-0.268047410987,0.304925662501,1.0,-0.00567096774194,-0.00745327188941,3.41
-0.674986568009,-0.514157155467,-0.124806645926,-2.63658139392,-0.066788367745,2.11177633061,-0.922899682626,-0.0248295120836,0.0063702292161,0.0015734666069,0.00128365839739,0.00532954455055,0.00165920133977,-0.0265847545963,0.573774419277,0.818978276098,0.00618433213708,0.0,0.818976951227,-0.573682162074,-0.0120945102504,0.0,-0.00635742252383,0.0120045771997,-0.999907732396,0.0,0.258678939811,-0.268167092593,0.304923654954,1.0,-0.00533096774194,-0.00700641474655,3.427
-0.675356252385,-0.514093683903,-0.124787212748,-2.63652168055,-0.0667734433066,2.11179106022,-0.923272223469,-0.021356424613,0.00584653777469,0.00110520762004,0.000850195951703,-2.7081980279e-05,0.000813474466874,-0.0241060421156,0.573767660533,0.818983016241,0.00618366685596,0.0,0.8189817675,-0.573675567909,-0.0120811500983,0.0,-0.00634696035047,0.011996314606,-0.999907898024,0.0,0.25859976613,-0.268273739504,0.304929042522,1.0,-0.00501096774194,-0.00658584331798,3.443
-0.675748231271,-0.514028107762,-0.124771494634,-2.63648476249,-0.0667561426839,2.11180572083,-0.923648166399,-0.0258480618977,0.00248304973975,-0.00116933561656,-0.000868375319788,-3.1529110869e-05,-7.67383594455e-06,-0.0116636433704,0.573778997822,0.8189750185,0.00619093140556,0.0,0.818973789607,-0.573686729328,-0.0120919573046,0.0,-0.00635147805333,0.0120085529002,-0.999907722434,0.0,0.258508797886,-0.268380659266,0.304923205869,1.0,-0.00467096774194,-0.00613898617512,3.46
-0.676123692272,-0.51396536579,-0.124744561543,-2.63643689083,-0.0667395120033,2.11181962855,-0.924003300261,-0.0239952771077,0.00558742315621,0.00212532300592,1.13298681641e-05,0.000660800071332,0.000252134445043,-0.023290536074,0.57378607377,0.818970068663,0.00618991778024,0.0,0.818968837807,-0.573693829499,-0.0120904754351,0.0,-0.0063507421331,0.0120069273711,-0.999907746629,0.0,0.258427077128,-0.268483759751,0.304923588759,1.0,-0.00433096774194,-0.00569212903227,3.477
-0.676468171026,-0.513916807496,-0.124719647002,-2.63638938891,-0.066723828739,2.11182699537,-0.924342853986,-0.0252467957256,0.00202186477895,-0.000123964228284,0.00136432940171,0.000553332874765,0.000182289396199,-0.0188516248354,0.573781485872,0.8189732903,0.00618895358519,0.0,0.818972102266,-0.573689351577,-0.0120818251466,0.0,-0.00634427747089,0.0120011389723,-0.999907857158,0.0,0.258352313347,-0.268578564683,0.304928438842,1.0,-0.00399096774194,-0.00524527188941,3.494
-0.676756298578,-0.513864935212,-0.124704246157,-2.63634557585,-0.0667100722945,2.11183898512,-0.924629702028,-0.0183378731633,-0.000753715015135,0.000615337534154,0.00536463025641,0.00275644397316,0.000336132133135,-0.0192827967031,0.573779698452,0.818974530086,0.00619060710562,0.0,0.818973400072,-0.573687626298,-0.0120757735813,0.0,-0.00633839833218,0.0119990072919,-0.999907920026,0.0,0.258290152423,-0.268660663174,0.304930557821,1.0,-0.00367096774194,-0.00482470046084,3.51
-0.677063698527,-0.513802394255,-0.124681999365,-2.63629708575,-0.0666984169475,2.11185141195,-0.924943615359,-0.0187416303423,0.00328522648551,0.000743618318904,0.00154272788897,0.00026990879331,0.0049097280085,-0.0117899948974,0.57376602561,0.818984134287,0.00618728883801,0.0,0.818982963803,-0.573673976176,-0.0120756350306,0.0,-0.0063403889842,0.0119961042309,-0.999907942238,0.0,0.258225014474,-0.2687475701,0.30493105312,1.0,-0.00331096774194,-0.00435155760369,3.528
-0.67733562848,-0.513757293212,-0.124662819278,-2.63626140118,-0.0666878355533,2.11186318183,-0.925189897131,-0.01733805424,0.000124147155476,-0.000253911495071,0.00320319404928,0.00177001200526,0.000275422233569,-0.0108567635236,0.573779745377,0.818974540199,0.00618491736615,0.0,0.818973367261,-0.573687757218,-0.012071778497,0.0,-0.00633838990524,0.0119920554781,-0.999908003478,0.0,0.258166016242,-0.268822913962,0.304932049128,1.0,-0.00297096774194,-0.00390470046084,3.545
-0.677562873768,-0.513723978215,-0.124653937272,-2.63624204774,-0.0666751648205,2.11187372938,-0.925404363092,-0.0128133201435,0.00304378544101,0.0015351437283,0.00104072172402,0.000154379221737,-0.000319118287081,-0.015668837643,0.573790341526,0.818967068888,0.00619119942402,0.0,0.818965964489,-0.573698298382,-0.0120730420246,0.0,-0.0063356652461,0.011998007513,-0.999907949344,0.0,0.25811330807,-0.268884448084,0.304929639564,1.0,-0.00265096774194,-0.00348412903227,3.561
-0.677805149388,-0.513701441345,-0.124628379465,-2.63622066507,-0.0666643466526,2.11188503373,-0.925617705416,-0.0151159235416,0.00106620805673,0.00172914209113,0.00128685778407,-0.000339237785405,0.000623246972365,-0.0143214951178,0.573801553145,0.818959248705,0.00618655558105,0.0,0.818958162484,-0.573709676919,-0.0120615758225,0.0,-0.00632877411863,0.0119877119317,-0.999908116469,0.0,0.258060939115,-0.268947297352,0.304932589737,1.0,-0.00229096774194,-0.00301098617512,3.579
