nelsonifechukwu/NELSON_IML_WORK/CNN-GradCAM/train2dof/data_sample_2022-02-21-17-14-49/robot_state.csv
position_joint1,position_joint2,position_joint3,position_joint4,position_joint5,position_joint6,position_joint7,velocity_joint1,velocity_joint2,velocity_joint3,velocity_joint4,velocity_joint5,velocity_joint6,velocity_joint7,ee_T_00,ee_T_10,ee_T_20,ee_T_30,ee_T_01,ee_T_11,ee_T_21,ee_T_31,ee_T_02,ee_T_12,ee_T_22,ee_T_32,ee_T_03,ee_T_13,ee_T_23,ee_T_33,v_x,v_y,time
0.465063764066,0.547828929198,-0.123993956397,-1.35585427746,0.079480439012,1.89409861039,0.159154859534,-0.000154345445451,0.000202282350278,-0.00132182874943,0.000390688187918,0.000184712798558,0.000305538297951,-0.000319616860741,0.57381017231,0.818974439393,0.00187100941701,0.0,0.818930441535,-0.573752102,-0.0119249435435,0.0,-0.00869289573266,0.008375041723,-0.999927143466,0.0,0.661675473041,0.260874293678,0.303170407417,1.0,0.0,0.0,0.0
0.465058854107,0.547836715586,-0.123992861246,-1.35585901141,0.0794832896361,1.89409872817,0.159156293004,-0.000467658059287,0.00200018640426,-0.000571209587847,-0.000699920679953,-9.70744187312e-06,-6.12780429849e-05,-0.000192497518845,0.573815629425,0.818970635988,0.00186218105093,0.0,0.818926486357,-0.573757560313,-0.0119339359473,0.0,-0.00870527025942,0.0083730295589,-0.999927052662,0.0,0.661675072094,0.260871481555,0.303162617792,1.0,-0.00016,-0.000210285714286,0.009
0.46506057527,0.547835672459,-0.123990893908,-1.35585232548,0.0794791335536,1.89409954198,0.159159226877,-0.000553955971056,0.00320694666754,-0.00105971018702,0.00151040362844,1.91317751e-05,0.00051376478027,0.000909291703915,0.573813786171,0.818971915539,0.00186742058672,0.0,0.818927870822,-0.573755730438,-0.0119269057777,0.0,-0.00869652504353,0.00837326693798,-0.999927126771,0.0,0.66167612884,0.260873949886,0.303166536579,1.0,-0.00046,-0.000604571428571,0.024
0.465062289505,0.547807057252,-0.123993606182,-1.35587496959,0.0794794578313,1.89409746337,0.159150482335,-0.00025294637693,-0.0035007411056,0.0035255490926,-0.00133685188923,-0.000199100445638,-0.000110264092823,-0.00147231011367,0.573810724138,0.818974038287,0.00187733257143,0.0,0.818930092365,-0.573752597803,-0.0119250674613,0.0,-0.00868936351299,0.00838029707816,-0.999927130136,0.0,0.661672247986,0.260873718707,0.303176687353,1.0,-0.00082,-0.00107771428571,0.042
0.465061722409,0.54774290332,-0.12399608877,-1.35593249953,0.0794802962966,1.89410877437,0.159150123269,-5.75658503302e-05,-0.00583163703251,-0.00243971682462,-0.00826802645197,0.00021064607061,1.36145870672e-06,-0.00155296428016,0.573813608435,0.818971988246,0.00189001174293,0.0,0.818928182682,-0.573755404514,-0.0119211702923,0.0,-0.00867886717952,0.00838847512823,-0.999927152721,0.0,0.661662877141,0.260864225526,0.303195072321,1.0,-0.00112,-0.001472,0.057
0.465056674355,0.547618755309,-0.123986047134,-1.35609526228,0.079477809242,1.8941449657,0.159147070378,-0.00224663119538,-0.00579271379489,-0.00610340725461,-0.0122403618399,0.000240327239517,0.00680735771822,-0.000975146456423,0.573816483451,0.818969960598,0.00189574786019,0.0,0.818926078928,-0.573758109234,-0.0119355033655,0.0,-0.00868728527027,0.00840142768471,-0.999926970877,0.0,0.661635210961,0.260851062111,0.303208357318,1.0,-0.00146,-0.00191885714286,0.074
0.465050009484,0.547463380572,-0.123988640478,-1.35630491344,0.0794774097891,1.89420094805,0.159151489212,-0.000345646467359,-0.00742223213681,-0.000460368032417,-0.00809646640015,0.000167241414632,0.00876628063111,0.000374880057968,0.573838823164,0.818954287747,0.00190434024418,0.0,0.818910391422,-0.573780287457,-0.0119456874339,0.0,-0.00869046636975,0.00841454523978,-0.999926832935,0.0,0.661604767542,0.260826043988,0.303223582749,1.0,-0.0018,-0.00236571428571,0.091
0.465027278011,0.547290307522,-0.123988789551,-1.35650223952,0.0794724259997,1.89432566357,0.159140876391,0.000272218542815,-0.0102960130278,0.000124094925739,-0.00785061649378,0.000488888795373,0.0151917684942,-0.00236225376497,0.573856905653,0.818941396823,0.00199682392065,0.0,0.818898726298,-0.573798003268,-0.0118943018083,0.0,-0.00859512804144,0.0084609866961,-0.999927265094,0.0,0.661594262189,0.260797160348,0.303263809008,1.0,-0.00214,-0.00281257142857,0.108
0.465010541277,0.547081831439,-0.123985991315,-1.35674479807,0.0794678343856,1.89445342501,0.15912456298,-0.00139337365411,-0.0143255789794,0.000703837750933,-0.0141725136961,0.000285475001379,0.00166209813257,-0.000152156432034,0.573869787404,0.818932167441,0.00207825297741,0.0,0.818890495197,-0.573810491435,-0.0118584862509,0.0,-0.00851893650164,0.00850725238451,-0.999927524563,0.0,0.661574566937,0.260769892206,0.303306295055,1.0,-0.00246,-0.00323314285714,0.124
0.464981498918,0.54686631547,-0.123984342398,-1.35706586875,0.0794583026683,1.89458146226,0.159107401659,-0.00274678710659,-0.0118890053492,0.000570578496011,-0.025079719054,-0.000513044400812,0.0092155083819,-0.000320234124441,0.573893856476,0.818915238037,0.00210269151359,0.0,0.81887380013,-0.57383437577,-0.0118556124193,0.0,-0.00850230869008,0.00852586627177,-0.999927507548,0.0,0.661539872495,0.260723504888,0.303317166283,1.0,-0.0028,-0.00368,0.141
0.464929679053,0.546545470082,-0.123990921553,-1.35754542377,0.0794487258684,1.89476225508,0.158991514653,-0.00302321597639,-0.0148888712878,0.000114224401983,-0.0261755078676,0.000453499025777,0.00730819277574,-0.0098688216759,0.573870288326,0.818931680294,0.00213121754674,0.0,0.818890470757,-0.573810552945,-0.0118571975327,0.0,-0.00848748299041,0.00854989171886,-0.999927428359,0.0,0.661489921458,0.260643432596,0.303332039565,1.0,-0.00322,-0.004232,0.162
0.464889773094,0.546278909211,-0.123989480159,-1.35798372731,0.0794336339221,1.89491777827,0.158918873713,-0.000249355879873,-0.0105526455674,-0.00323488815343,-0.0281761410484,-0.000277516651406,0.0144533364312,-0.00145432193659,0.573862971208,0.818936826812,0.00212388059256,0.0,0.818895397427,-0.573803140961,-0.0118756219899,0.0,-0.00850685861713,0.00855438046031,-0.999927225318,0.0,0.661438284552,0.260577454178,0.303325615658,1.0,-0.00354,-0.00465257142857,0.178
0.464848454634,0.546049448588,-0.123986737743,-1.35837312299,0.0794150262351,1.89505110866,0.158911750035,-0.0083421997807,-0.0153745272937,0.00543760805086,-0.0271395709545,-0.00158648964997,0.0102093644744,0.00121161506164,0.573901142674,0.818910144968,0.00209757164787,0.0,0.818868310664,-0.573841351378,-0.0118970643651,0.0,-0.00853911775936,0.00854553831348,-0.999927025959,0.0,0.661387507035,0.260508992856,0.303311125838,1.0,-0.00382,-0.00502057142857,0.192
0.464784792777,0.545688463297,-0.123989953734,-1.35900454527,0.0793340311946,1.89525361514,0.15881294642,-0.00330589786763,-0.019007836314,4.37887022289e-05,-0.0335309879962,-0.00839090068809,0.0142810338544,-0.00605870285301,0.573892961759,0.818916069671,0.00202143006982,0.0,0.818873584434,-0.573833820724,-0.0118973026636,0.0,-0.00858309264777,0.0084832372781,-0.999927179952,0.0,0.661319441937,0.260400979742,0.303286803866,1.0,-0.00416,-0.00546742857143,0.209
0.464727695895,0.545354160857,-0.123992804723,-1.3595905423,0.0792944993783,1.89544207471,0.158741442672,-0.00336526161679,-0.0216353369275,-0.000226032987499,-0.0437107126238,-0.000626122304276,0.00998340798806,-0.00238451722598,0.573905253621,0.818907594548,0.00196427042396,0.0,0.818864371496,-0.573846353767,-0.0119268715443,0.0,-0.0086399826127,0.00845352806133,-0.999926941613,0.0,0.661248925319,0.260302784749,0.303260948801,1.0,-0.00446,-0.00586171428571,0.224
0.46465450134,0.544893145244,-0.123994570598,-1.36038084952,0.0792715172744,1.89570763931,0.158649421135,-0.00263633048774,-0.0259807678846,0.000166818357556,-0.0494560759248,-0.00470174389759,0.0196056578112,-0.0122806273943,0.573928963125,0.818891076962,0.00192256585791,0.0,0.818847046417,-0.573869978683,-0.0119795259035,0.0,-0.00870679167341,0.00844984694053,-0.999926393224,0.0,0.66115310287,0.260179904754,0.303234208233,1.0,-0.00484,-0.00636114285714,0.243
0.464584268952,0.544449590694,-0.123995633104,-1.36111170337,0.0792463507769,1.89597754202,0.158544769296,-0.00438948825737,-0.0249340937439,0.000230828219402,-0.0481543733524,-0.00650171448435,0.0165055656568,-0.00464761384669,0.573935630689,0.818886416768,0.00191707063105,0.0,0.818842135463,-0.573876495206,-0.0120030138473,0.0,-0.0087291112875,0.00845889839201,-0.999926122098,0.0,0.66107045231,0.260066171522,0.303223708713,1.0,-0.00518,-0.006808,0.26
0.46452875538,0.543981690978,-0.124004231237,-1.36187039691,0.0792119896585,1.89623722253,0.158480809933,-0.000408737327742,-0.0271749647213,-0.00188095676093,-0.052125225594,-0.00402798638369,0.0181878386555,-0.00484431611094,0.573967755227,0.818863953355,0.00189440145596,0.0,0.818819279475,-0.573908619753,-0.0120262476929,0.0,-0.00876081607786,0.00845401359326,-0.999925886131,0.0,0.660978315808,0.259952639352,0.303216485009,1.0,-0.0055,-0.00722857142857,0.276
0.464450068778,0.543487632701,-0.123998839781,-1.36266174221,0.0791703994135,1.89650604024,0.158361628374,-0.00422141230904,-0.0265990683449,-0.000240781402723,-0.0520411151098,-0.00458500928165,0.0184058942928,-0.0025403042904,0.573963664665,0.818866864278,0.00187540214303,0.0,0.818821813453,-0.573904488073,-0.0120508623547,0.0,-0.00879191943309,0.00845254004076,-0.999925625594,0.0,0.660884290355,0.259827819795,0.303212497104,1.0,-0.00582,-0.00764914285714,0.292
0.464370734357,0.542906420415,-0.124006665101,-1.36358663712,0.0791118716223,1.89684423419,0.158248516008,-0.00335726336858,-0.034491909001,-0.000146248348767,-0.0544058574573,-0.00660878188662,0.0193455124225,-0.00388429489719,0.573977335273,0.818857301906,0.00186671083003,0.0,0.818812188118,-0.573918243469,-0.0120497843818,0.0,-0.00879588387483,0.00844495130089,-0.999925654849,0.0,0.660779660668,0.259682183165,0.303212969407,1.0,-0.00618,-0.00812228571429,0.31
0.464306864342,0.542338659301,-0.124007730582,-1.36445363347,0.0790633417271,1.89716110838,0.158134747042,-0.00139474611674,-0.0375370679329,-0.000481178468417,-0.0566890484467,-0.000230896286915,0.0197316595954,-0.00887467976025,0.573972423936,0.818860705435,0.00188376135661,0.0,0.818815771377,-0.573913217145,-0.0120456893505,0.0,-0.00878279523449,0.00845650983679,-0.999925672212,0.0,0.660677509064,0.259557559804,0.303229349138,1.0,-0.0065,-0.00854285714286,0.326
0.46420349296,0.541570794336,-0.124005261353,-1.36562866989,0.0789981351326,1.89759342808,0.157980568643,-0.00418155217798,-0.036866941154,-0.000138406859372,-0.0520789777138,-0.00108368041678,0.0212547938963,-0.00734574570198,0.573976888845,0.818857517227,0.0019090452965,0.0,0.81881283457,-0.573917495701,-0.012041468913,0.0,-0.00876478159133,0.00847483882127,-0.999925675093,0.0,0.660542816565,0.259380095282,0.303250409513,1.0,-0.00692,-0.00909485714286,0.347
0.464139302163,0.541014553363,-0.124008421226,-1.36647383862,0.0789418075433,1.89791244192,0.157863284135,-0.00513553255315,-0.035132242811,0.00222304636129,-0.0588679754893,-0.00875130887352,0.0180991099597,-0.00338155037439,0.573967475039,0.818864064516,0.00193089168161,0.0,0.818819733548,-0.573908053179,-0.0120223687501,0.0,-0.00873669966247,0.00848166414605,-0.999925862978,0.0,0.660446521368,0.259255383114,0.303269103658,1.0,-0.0072,-0.00946285714286,0.361
0.464060435668,0.540384316317,-0.124009144224,-1.36742744345,0.0788929833908,1.89826140378,0.157748944704,-0.00529313134651,-0.0455205275021,-0.000921166526731,-0.0584326365746,-0.00691667199681,0.0263586840437,-0.00195630928598,0.57397867022,0.818856153967,0.00195758635472,0.0,0.818812082863,-0.57391904627,-0.012018659962,0.0,-0.00871822543152,0.00850151350381,-0.999925855658,0.0,0.660335796823,0.259113742143,0.303290950959,1.0,-0.0075,-0.00985714285714,0.376
0.463958633203,0.539651181172,-0.124017306324,-1.3685726732,0.0788260293369,1.89869477818,0.157615523851,-0.00934117063231,-0.0403968128541,0.000173195203167,-0.0653757169948,-0.000731052169214,0.021114310042,-0.00455329327794,0.574004056457,0.818838319667,0.00197390888473,0.0,0.818794486754,-0.573944384227,-0.0120074633624,0.0,-0.00869942469464,0.00850872220921,-0.999925958087,0.0,0.660208803561,0.258934046952,0.303301763214,1.0,-0.00784,-0.010304,0.393
0.463856703068,0.538901936543,-0.12402016276,-1.3697424737,0.0787546095388,1.89914537279,0.157477247304,-0.00588934430639,-0.040728139711,-0.000462658337897,-0.0704998238887,-0.00703200167105,0.0248175255972,-0.00284156538767,0.57401188158,0.818832730238,0.00201658048309,0.0,0.818789484405,-0.573952057623,-0.0119817644724,0.0,-0.00865380701097,0.00852899427302,-0.999926181216,0.0,0.660073305976,0.258749115173,0.303324619589,1.0,-0.0082,-0.0107771428571,0.411
0.463747396109,0.538123762303,-0.124026487261,-1.37095341534,0.0786847829598,1.89960659916,0.157313097714,-0.0112962086141,-0.0462723669995,-0.000356006824552,-0.0725351420355,-0.00712009000102,0.0302280217305,-0.0140625096597,0.574029744687,0.818820197459,0.00202073008104,0.0,0.818777019157,-0.573969914287,-0.011978200798,0.0,-0.00864832097818,0.0085305351374,-0.999926215535,0.0,0.659944560892,0.258565754115,0.303326910354,1.0,-0.00852,-0.0111977142857,0.427
0.463643466661,0.537363194062,-0.124030021695,-1.37213922196,0.078613765134,1.90004652531,0.157178781568,-0.00529155414125,-0.0530805268578,0.000193155776197,-0.0724139935314,-0.00583554656311,0.0273509655666,-0.00648071137879,0.574053691778,0.818803380913,0.00203205859762,0.0,0.818760353397,-0.573993813911,-0.0119721425905,0.0,-0.00863660804678,0.00853658602379,-0.999926265132,0.0,0.659809191454,0.258382709401,0.303337819103,1.0,-0.00884,-0.0116182857143,0.443
0.463520107,0.53648020884,-0.124035256469,-1.37352955837,0.0785491994617,1.90058320633,0.157006545784,-0.00395004791765,-0.0467956409862,-0.00102677286347,-0.0777428885562,-0.0049880725007,0.0316710791591,-0.0064706536797,0.574076772719,0.818787116791,0.00206477665514,0.0,0.818744382302,-0.574016622896,-0.0119707973707,0.0,-0.00861648443628,0.00856284586989,-0.999926214211,0.0,0.659653696216,0.258170796828,0.303346143298,1.0,-0.0092,-0.0120914285714,0.461
0.463417494299,0.53571869557,-0.124038240094,-1.37473353384,0.078470093052,1.90101454842,0.156853323605,-0.00418131108378,-0.0482007981471,0.000539587624178,-0.0809039249876,-0.0085710114779,0.0240120121245,-0.00812703721473,0.57408229275,0.818783281165,0.002050984126,0.0,0.818740403889,-0.574022236585,-0.0119737148219,0.0,-0.00862673310575,0.00855328590665,-0.999926207665,0.0,0.659511858691,0.257984940177,0.303348017941,1.0,-0.0095,-0.0124857142857,0.476
0.463283331539,0.534764457411,-0.124039676337,-1.37625917016,0.0783831558923,1.90156460137,0.156675230471,-0.00266826233352,-0.0476971094624,-8.48244079142e-06,-0.0832809821311,-0.00331168142039,0.0275513549902,-0.0134633002088,0.574107667017,0.818765530441,0.002034633709,0.0,0.818722358826,-0.574047595966,-0.0119918149434,0.0,-0.00865067468603,0.00855055763475,-0.99992602416,0.0,0.65933196396,0.257750323381,0.303342895858,1.0,-0.00986,-0.0129588571429,0.494
0.46319313617,0.534009780484,-0.124050301864,-1.37748482073,0.0783193975123,1.90200917892,0.156519548602,-0.0038614204388,-0.052420931561,-0.000883607159746,-0.0846947474872,-0.00807235152976,0.0297812375242,-0.0139939701212,0.574111573241,0.818762841428,0.0020144152264,0.0,0.818719331905,-0.574051514017,-0.0120109001281,0.0,-0.00867786768226,0.00854500197469,-0.999925836027,0.0,0.659184662381,0.257568952014,0.303330779755,1.0,-0.01014,-0.0133268571429,0.508
0.463042631067,0.532987825579,-0.124046414222,-1.37915452359,0.0782214226307,1.90265177899,0.156308632498,-0.0107817604415,-0.0537223760148,0.000555153091449,-0.0922677554858,-0.00856154622892,0.0343275134536,-0.0101323669038,0.574124634416,0.818753694498,0.00200967768868,0.0,0.818710084894,-0.574064556028,-0.0120178744331,0.0,-0.00868616159749,0.00854526567928,-0.99992576176,0.0,0.658994328016,0.257314966198,0.303312334716,1.0,-0.01052,-0.0138262857143,0.527
0.46291911472,0.532018193339,-0.124040766003,-1.38070343847,0.078135138405,1.90321663551,0.156110833281,-0.00318855757736,-0.0591043803973,0.00168753476658,-0.0934118583976,-0.00267566175798,0.0374854935781,-0.0108587914532,0.574121188503,0.818756129387,0.0020021000705,0.0,0.818712288949,-0.574061013219,-0.0120369401014,0.0,-0.00870615851261,0.00854997090184,-0.999925547629,0.0,0.658806793805,0.257090096488,0.303307463248,1.0,-0.01086,-0.0142731428571,0.544
0.462770308937,0.530947526084,-0.124046091837,-1.38242318908,0.0780356129352,1.90383387085,0.155892778136,-0.0105804467663,-0.0650630865952,-0.00151722334317,-0.0949372866679,-0.000820032477461,0.0294417923936,-0.0169362838015,0.574135098972,0.81874643933,0.00197562999243,0.0,0.818702182789,-0.574074966784,-0.0120588270731,0.0,-0.00873913026169,0.00854101290327,-0.999925336563,0.0,0.658601799084,0.256824681335,0.303297158549,1.0,-0.01122,-0.0147462857143,0.562
0.462656776186,0.530091949168,-0.12404927361,-1.38377404708,0.0779452042367,1.90430859253,0.155717146572,-0.0105145692001,-0.0646663518473,0.000315732062267,-0.100685209802,-0.00427415673177,0.0366558028638,-0.0105957800247,0.574135432286,0.818746259788,0.00195304337588,0.0,0.818701746081,-0.574075434831,-0.0120661919535,0.0,-0.00875812392761,0.00852675252171,-0.999925292088,0.0,0.658438362356,0.256616556939,0.30329820702,1.0,-0.0115,-0.0151142857143,0.576
0.462507856139,0.528972012341,-0.12404684847,-1.38552200087,0.0778398043773,1.90497028461,0.155486140827,-0.00948315334005,-0.063374013238,0.00097376445415,-0.0946281781816,-0.00600981047149,0.0349611659403,-0.0148122378758,0.574133101508,0.818747825844,0.00198149660202,0.0,0.818703665744,-0.574072963628,-0.0120535069607,0.0,-0.0087314270982,0.00854274034138,-0.999925389101,0.0,0.65823461453,0.256354989534,0.303312291267,1.0,-0.01186,-0.0155874285714,0.594
0.462358369255,0.52780498722,-0.124049972137,-1.38734621773,0.0777192337616,1.90567173237,0.155227167267,-0.00410132595439,-0.0640575674977,0.000456266219044,-0.101768696554,-0.011371339676,0.0382610922999,-0.0101136231955,0.574112110137,0.818762472198,0.00201147065382,0.0,0.818718822351,-0.574051963073,-0.0120241640067,0.0,-0.00869041288814,0.00855021167349,-0.999925682541,0.0,0.658023888363,0.256081667971,0.303326551153,1.0,-0.01222,-0.0160605714286,0.612
0.462220292326,0.526709271563,-0.124050288063,-1.38902409346,0.0776185219816,1.90630199976,0.155000098789,-0.0132920544916,-0.066670038572,0.000639138227461,-0.105117889088,-0.0109589444138,0.0363712086011,-0.0168359193281,0.574103012168,0.81876874914,0.00205274250128,0.0,0.818725623928,-0.574042677528,-0.0120043326522,0.0,-0.00865057717858,0.0085725214674,-0.999925836945,0.0,0.657826176444,0.255832336335,0.303353720052,1.0,-0.01254,-0.0164811428571,0.628
0.462067922285,0.525464776496,-0.124061617284,-1.39096430029,0.0774917762448,1.90700669542,0.154733952785,-0.0053285559714,-0.0717944743315,-0.00064041226879,-0.104595230161,-0.0140229310559,0.0367811937211,-0.0142576991909,0.574088142852,0.818779174447,0.00205295623664,0.0,0.818736141412,-0.574027897774,-0.0119937577213,0.0,-0.00864195127715,0.00856646849476,-0.999925963407,0.0,0.657592721566,0.255538904291,0.303367208606,1.0,-0.0129,-0.0169542857143,0.646
0.461908737492,0.52428443322,-0.124064832421,-1.39283823704,0.0773734276529,1.90767812475,0.15447289061,-0.00526496531424,-0.0711513399582,-0.000459350702545,-0.108311492046,-0.00745107787733,0.0417545468808,-0.0166347238563,0.574075706945,0.818787948744,0.00203090835002,0.0,0.818744620822,-0.574015549215,-0.0120059166839,0.0,-0.00866469374468,0.00855526511017,-0.999925862512,0.0,0.657365295513,0.255251878325,0.30336366418,1.0,-0.01324,-0.0174011428571,0.663
0.461763709564,0.523166415313,-0.124067386405,-1.39464237788,0.0772702602682,1.90835393973,0.154230308403,-0.0124506917187,-0.0664733497582,0.000648069336479,-0.111883934597,-0.00852523825374,0.0413956411237,-0.00834138912238,0.574066752663,0.81879424561,0.00202330044713,0.0,0.818750750412,-0.574006561215,-0.0120176238518,0.0,-0.00867874061645,0.00855566178173,-0.999925737299,0.0,0.657148340824,0.254984762422,0.303349622708,1.0,-0.01356,-0.0178217142857,0.679
0.461588960562,0.521848126287,-0.124068887106,-1.39671290099,0.077151446512,1.90916028968,0.153947197303,-0.00925862761175,-0.0730485116501,-0.000817679950381,-0.119544633249,-0.00562757916223,0.049273052352,-0.0162847502524,0.574058162851,0.818800149892,0.00207053187349,0.0,0.818757241447,-0.573997743799,-0.0119965241987,0.0,-0.008634441428,0.00858213083979,-0.99992589398,0.0,0.656907556956,0.254676082741,0.303360481036,1.0,-0.01392,-0.0182948571429,0.697
0.461427719707,0.520667662151,-0.124069514671,-1.3986082031,0.0770166295266,1.90987140059,0.153704539927,-0.00669786113813,-0.0767423537216,4.52073089925e-05,-0.118911240206,-0.00662163357103,0.0464551588947,-0.0153469499646,0.574056697968,0.818801217274,0.00205450978951,0.0,0.818758259724,-0.573996505062,-0.011986292648,0.0,-0.0086352758278,0.00856312330489,-0.999926049731,0.0,0.656681977365,0.254386831906,0.303349243205,1.0,-0.01424,-0.0187154285714,0.713
0.461271812409,0.519417270407,-0.12407753038,-1.40054772728,0.0769113838189,1.91055988642,0.153443107712,-0.0102827415757,-0.0814088484206,-0.000546609135386,-0.119757804954,-0.00241273182014,0.0377437890895,-0.0142309646206,0.574050694979,0.818805411483,0.00206024767552,0.0,0.818762379681,-0.573990330829,-0.0120005264128,0.0,-0.00864370014056,0.00857592893011,-0.999925867198,0.0,0.656441353338,0.254095724305,0.303364020362,1.0,-0.01456,-0.019136,0.729
0.461091111877,0.518084184008,-0.124083649177,-1.40264204673,0.0767566153241,1.91131651781,0.153151915525,-0.0166776387923,-0.079524769144,-0.00102000617062,-0.125776034175,-0.0170630771769,0.0489269924039,-0.020730415325,0.574033637209,0.818817420582,0.0020400993065,0.0,0.818774338892,-0.573973570873,-0.0119861925676,0.0,-0.00864370661506,0.00855102331051,-0.999926080436,0.0,0.656187772006,0.253768883141,0.303368587599,1.0,-0.0149,-0.0195828571429,0.746
0.460909884121,0.516724041023,-0.124083684524,-1.40478900079,0.076631204628,1.91209885737,0.152863243139,-0.014062575448,-0.0710591857847,0.000381978077092,-0.123704177466,-0.00818149190239,0.0533352740945,-0.026785951185,0.574025454187,0.818823160027,0.00203898242006,0.0,0.818779959071,-0.573965290031,-0.0119988068203,0.0,-0.00865476241203,0.00855726323099,-0.999925931424,0.0,0.655923952532,0.253445841495,0.303368781684,1.0,-0.01524,-0.0200297142857,0.763
0.46073668294,0.515422420421,-0.124095042389,-1.40684580379,0.0764938386991,1.91287988901,0.152577780864,-0.016662033441,-0.0773630893041,-0.000797147504347,-0.127603853564,-0.00615336624457,0.0419332735085,-0.0195010616141,0.574013141244,0.818831764023,0.00205007471697,0.0,0.818788862622,-0.57395308537,-0.0119750216048,0.0,-0.00862904749176,0.00855256277699,-0.999926193881,0.0,0.655680128723,0.253129420514,0.303370659314,1.0,-0.01556,-0.0204502857143,0.779
0.460544969794,0.514037066366,-0.12410238302,-1.40908869857,0.0763642744799,1.91367673603,0.152279058013,-0.0154663659364,-0.0792421698759,-0.00102977270872,-0.130494974611,-0.00971685419321,0.0481599942184,-0.0221940818133,0.574013728216,0.818831475515,0.00200035666418,0.0,0.818787798359,-0.573953756563,-0.0120155518759,0.0,-0.008690767174,0.00853512368544,-0.999925808363,0.0,0.65540001133,0.25278463561,0.303343578499,1.0,-0.0159,-0.0208971428571,0.796
0.460355847283,0.512619020161,-0.124097902646,-1.4113657573,0.0762288232639,1.91446191669,0.151956302551,-0.00874887958922,-0.0865273760786,0.000425260560215,-0.130445636515,-0.00705083915725,0.0447258256011,-0.0142053008561,0.57398370284,0.818852663832,0.00194183187397,0.0,0.818808031551,-0.573923800293,-0.0120675525818,0.0,-0.00876725284569,0.00851673002289,-0.999925297503,0.0,0.65510639507,0.252443188407,0.30332129545,1.0,-0.01624,-0.021344,0.813
0.460167239518,0.511269409773,-0.12410647232,-1.41353357255,0.0760971126,1.91529099547,0.151650615631,-0.0135256533871,-0.0864089097544,0.000799636225125,-0.137380694009,-0.00722650066491,0.0467239139302,-0.0264004009519,0.57397203093,0.818860832966,0.00194700943637,0.0,0.818816296894,-0.573912135122,-0.0120615091083,0.0,-0.00875945369917,0.00851737592159,-0.999925360354,0.0,0.654847555907,0.252110076435,0.303306865428,1.0,-0.01656,-0.0217645714286,0.829
0.459959164031,0.509708632534,-0.124109916905,-1.4160148968,0.0759363336769,1.91622598079,0.151303550795,-0.0143390234467,-0.089826766348,0.000752464580723,-0.143643402838,-0.00808989285923,0.0553361021174,-0.0226451090749,0.573946686022,0.818878586522,0.00195167651249,0.0,0.818834184447,-0.573886844229,-0.0120505312604,0.0,-0.00874804895767,0.00851462586002,-0.999925483617,0.0,0.654545039016,0.251735377943,0.303299573162,1.0,-0.01692,-0.0222377142857,0.847
0.459749841201,0.508204723643,-0.124115898311,-1.41839487175,0.0757883310433,1.91705657332,0.150967923532,-0.0163910303501,-0.0877213699293,-8.3678130776e-05,-0.147749675032,-0.00674089352655,0.0462998701792,-0.0239315492586,0.573930875572,0.818889761832,0.00191178788912,0.0,0.81884476366,-0.573871136627,-0.0120796719,0.0,-0.00879496908668,0.00849851779523,-0.99992520906,0.0,0.654243533471,0.251364800507,0.303291212483,1.0,-0.01726,-0.0226845714286,0.864
0.459550536585,0.506768808349,-0.124121543427,-1.42065130589,0.0756531233833,1.91788697489,0.150657277774,-0.0117706116601,-0.0842630490472,-0.000285630698712,-0.140305929709,-0.0142972734849,0.0506755139057,-0.0240315347331,0.57392410818,0.818894485133,0.00192020025386,0.0,0.818849545369,-0.573864283428,-0.0120811074116,0.0,-0.00879138715235,0.00850615767179,-0.999925175597,0.0,0.653965559923,0.251016798617,0.303293572276,1.0,-0.01758,-0.0231051428571,0.88
0.459331086276,0.505162603459,-0.124122362756,-1.42311042902,0.0754972650509,1.91883920418,0.150334400824,-0.0174819520351,-0.0939526422063,0.000401327676634,-0.143209331239,-0.00323873005487,0.0574649920362,-0.0182259996705,0.573925015319,0.818893658224,0.00200005330104,0.0,0.818849838726,-0.573864920228,-0.0120308707806,0.0,-0.00870441094395,0.00854272549398,-0.99992562477,0.0,0.65367197767,0.250641599972,0.303328318649,1.0,-0.01792,-0.023552,0.897
0.459103901664,0.503492819583,-0.124128142656,-1.42559220608,0.0753370340891,1.91977635272,0.149969516512,-0.0114029723981,-0.0988620434116,0.00149016487241,-0.146027367575,-0.00707747270888,0.0584403558369,-0.0227215636723,0.573897054851,0.818912999125,0.00210171321007,0.0,0.81887056403,-0.573836592287,-0.0119712830874,0.0,-0.00859756491982,0.00859148060105,-0.999926131441,0.0,0.653353538727,0.250234819794,0.30339165613,1.0,-0.01828,-0.0240251428571,0.915
0.458867403771,0.501802159694,-0.124131913165,-1.42810505401,0.0751740335845,1.92069916964,0.149618464177,-0.0153436762239,-0.096458655015,-0.000616436200534,-0.148438124119,-0.00390548471523,0.0534382586009,-0.0203025291869,0.573893964881,0.818914949015,0.00218409115791,0.0,0.81887368199,-0.57383326011,-0.0119176104171,0.0,-0.00850636895158,0.00862810558025,-0.999926596047,0.0,0.653066855187,0.24985879964,0.303459200675,1.0,-0.0186,-0.0244457142857,0.931
0.45862974902,0.500078466864,-0.124134205694,-1.43071741125,0.0750125410183,1.92160903502,0.14925967769,-0.0144502499151,-0.0955483694065,-0.000581572259099,-0.151692652333,-0.0066116783153,0.0426426820392,-0.0170371579616,0.573885687012,0.818920694956,0.00220465782493,0.0,0.818879591491,-0.57382479414,-0.0119191933888,0.0,-0.00849595038409,0.00864577024347,-0.999926532043,0.0,0.652732880565,0.249450885011,0.303497465049,1.0,-0.01894,-0.0248925714286,0.948
0.458380554144,0.49839396563,-0.124134502536,-1.43333957241,0.0748506878326,1.92259857873,0.148879214749,-0.0148130651972,-0.0882847427959,-0.000140220316884,-0.152035933359,-0.00789779761704,0.0564099683838,-0.0191796472307,0.573868188711,0.818932840697,0.00224751310838,0.0,0.81889228172,-0.573807112024,-0.0118985727062,0.0,-0.00845465571892,0.00866885040692,-0.999926682227,0.0,0.65241270812,0.249040267362,0.303509999987,1.0,-0.01928,-0.0253394285714,0.965
0.458133775829,0.496807765391,-0.12413235136,-1.43584481164,0.074700781368,1.92349947834,0.148509471923,-0.0121030936375,-0.0927054708344,0.000451958854701,-0.154548046732,-0.0102772109987,0.0484805317837,-0.0250013150721,0.573850256142,0.81894547105,0.00222393208095,0.0,0.818904464337,-0.573789132603,-0.0119271328307,0.0,-0.00849176684748,0.00866574298184,-0.999926394688,0.0,0.652080055278,0.248612805152,0.303490158111,1.0,-0.01962,-0.0257862857143,0.982
0.45786114442,0.495134892101,-0.124133088236,-1.43856929581,0.0745276699984,1.92444076762,0.148113572993,-0.0209593805401,-0.0951211316486,0.000534922914317,-0.157887888939,-0.00531868504712,0.0588901692273,-0.0244386697775,0.573842330442,0.818951248653,0.0021398655684,0.0,0.818909018968,-0.573781423563,-0.0119851378242,0.0,-0.00858759381211,0.00863010078922,-0.99992588455,0.0,0.651746701712,0.248198251315,0.303451764299,1.0,-0.01994,-0.0262068571429,0.998
0.457580015566,0.493310587552,-0.124175571262,-1.44146225491,0.0743509629641,1.92548440437,0.147709755478,-0.0182883900843,-0.115747680566,-0.00714380478283,-0.184868720103,-0.00686490692057,0.0684918577498,-0.0271029412706,0.573870118032,0.818931854387,0.00211007160002,0.0,0.818889310663,-0.573809406489,-0.0119920310343,0.0,-0.00861004305038,0.00860994911131,-0.99992586522,0.0,0.651389771946,0.247713592238,0.303436889539,1.0,-0.02498,-0.0328308571429,1.015
0.457250985011,0.490837155828,-0.124220817546,-1.44533151859,0.07413655758,1.92693595089,0.14714177916,-0.0236517804507,-0.141031059707,-0.000375271898419,-0.23644659394,-0.0119029540939,0.0879685097368,-0.0328612587236,0.573843456621,0.818950407511,0.00215968329269,0.0,0.818908446399,-0.573782477717,-0.0119737872744,0.0,-0.00856691447668,0.00863982871178,-0.999925977928,0.0,0.650906762683,0.247110531325,0.303443516278,1.0,-0.0314085714286,-0.0412798367347,1.033
0.456872972722,0.488388446605,-0.124228288579,-1.44929680614,0.0739061340348,1.92835411436,0.146567886244,-0.0214374809565,-0.168718855205,-0.0012419940991,-0.280013377753,-0.0191876977093,0.0964709624099,-0.0357307341147,0.573823711184,0.818964443097,0.00208238488439,0.0,0.818921187121,-0.573762772438,-0.0120464579978,0.0,-0.0086709927844,0.00861801826005,-0.99992526903,0.0,0.650394812815,0.246481640632,0.303381970961,1.0,-0.0367657142857,-0.0483206530612,1.048
0.456320580886,0.484823626339,-0.124300087491,-1.45480617599,0.0735678769096,1.93045422965,0.145749828183,-0.0310470781891,-0.207398723486,-0.00250269224483,-0.319542898375,-0.0182188807996,0.11621199097,-0.0448950348148,0.573839504203,0.818953074164,0.00219832546079,0.0,0.818911618355,-0.573778368592,-0.0119537425309,0.0,-0.0085283667944,0.00865993067858,-0.999926133552,0.0,0.649730624866,0.245562409984,0.303419740922,1.0,-0.0431942857143,-0.0567696326531,1.066
0.455749072377,0.481178187683,-0.124380430834,-1.46051053883,0.0732283771868,1.932430919,0.144878193719,-0.0412622533809,-0.242278919468,-0.00744348410381,-0.369826249214,-0.0214791736021,0.129029991193,-0.0548923819648,0.573839430303,0.818953318646,0.00212532569702,0.0,0.818910795762,-0.573778480524,-0.0120046147092,0.0,-0.00861191871221,0.00862933956504,-0.999925681916,0.0,0.64899707443,0.244596196778,0.303407301295,1.0,-0.0489085714286,-0.0642798367347,1.082
0.455080534435,0.477068427936,-0.124453102438,-1.46689032783,0.0728342694277,1.9347187063,0.143936499402,-0.0499513612632,-0.274509044606,-0.00378118596761,-0.405542132931,-0.0249350998352,0.142277413943,-0.0619985457908,0.573871705124,0.818930689785,0.00213032551083,0.0,0.818888273208,-0.57381077155,-0.0119975562499,0.0,-0.00860292892349,0.0086297227903,-0.999925755993,0.0,0.648190226431,0.243510655044,0.303418393592,1.0,-0.0546228571429,-0.0717900408163,1.098
0.454184672464,0.471643421255,-0.124520372748,-1.47528514777,0.0723419933624,1.93775442652,0.142711427461,-0.0502263281936,-0.2937014205,-0.00402151355247,-0.456702740533,-0.0268224310625,0.160762361719,-0.0719300553238,0.573922003643,0.818895272062,0.00219408979196,0.0,0.818853405615,-0.573860514438,-0.01199820747,0.0,-0.0085663388022,0.00868284034124,-0.999925610295,0.0,0.647119321297,0.242095896238,0.303440189454,1.0,-0.0614085714286,-0.0807084081633,1.117
0.453452546984,0.467183378705,-0.124546308619,-1.48193778678,0.0719301562132,1.94026562015,0.141644307296,-0.0547762401802,-0.327080522802,-0.00562445056784,-0.493606693668,-0.0310885482398,0.182775632445,-0.0788255540974,0.573865261117,0.818934237295,0.0024746655756,0.0,0.818896070542,-0.573802706976,-0.0118501484952,0.0,-0.00828468201945,0.00882705242438,-0.99992672091,0.0,0.64622399889,0.240902633452,0.30357222256,1.0,-0.0667657142857,-0.0877492244898,1.132
0.452410382917,0.461052531206,-0.124581117036,-1.49142070703,0.0713171228092,1.94356462563,0.140179063783,-0.0549515934783,-0.350380746726,-0.00244616019665,-0.54109654965,-0.0349290124901,0.181125130766,-0.0827210845136,0.573827923096,0.818960574217,0.0024164962897,0.0,0.818921399433,-0.573765333697,-0.0119092527288,0.0,-0.00836686774133,0.00881295195888,-0.999926160975,0.0,0.645026698543,0.239376390663,0.303570370215,1.0,-0.0728371428571,-0.0957288163265,1.149
0.451314983043,0.454806523183,-0.124646596219,-1.50115280458,0.0706635685289,1.94687262214,0.138727946923,-0.0659403647249,-0.377282510116,-0.00359041581489,-0.579124819412,-0.0424163522867,0.205217966918,-0.0920843132195,0.573848782829,0.818946438232,0.00224781096669,0.0,0.81890496883,-0.57378677146,-0.012005824558,0.0,-0.00854252753254,0.00873043946712,-0.999925399542,0.0,0.643636808295,0.237584668961,0.303524580944,1.0,-0.0792657142857,-0.104177795918,1.167
0.450213358606,0.448366093726,-0.124717832013,-1.51062349199,0.0700061082915,1.95047919834,0.137200963038,-0.0704647424741,-0.409888963013,-0.00147936626699,-0.606687482536,-0.0390847773701,0.224563158029,-0.085565374531,0.573809361978,0.818972716975,0.00269292734592,0.0,0.818937858778,-0.573746528807,-0.0116812261262,0.0,-0.00802170222376,0.00890830857766,-0.999928144584,0.0,0.642517185228,0.236043392574,0.303748450339,1.0,-0.0846228571429,-0.111218612245,1.182
0.448758611725,0.440401506237,-0.124741036159,-1.52289941677,0.069200854622,1.95470642079,0.135293365983,-0.0843863488529,-0.425044384041,0.00051334029514,-0.666357450619,-0.0432426802029,0.216675063122,-0.105643420749,0.573782939135,0.818991454328,0.00262362276345,0.0,0.818955193686,-0.573719804074,-0.0117781173876,0.0,-0.00814110989233,0.00890688378567,-0.999927192225,0.0,0.640831959397,0.233915411128,0.303724698589,1.0,-0.0914085714286,-0.120136979592,1.201
0.447350131965,0.432698944381,-0.124776798203,-1.53452319261,0.0684159334705,1.9587775701,0.133387614286,-0.083458074726,-0.469955211521,-0.0035469949995,-0.682941326161,-0.0478066273964,0.249601845393,-0.115867247196,0.573694565738,0.819052976567,0.00274111692469,0.0,0.819018132153,-0.573630895834,-0.0117320693286,0.0,-0.00803695168396,0.0089758216947,-0.999927418382,0.0,0.639240853529,0.231880246101,0.303803590938,1.0,-0.09748,-0.128116571429,1.218
0.445987576928,0.425675735849,-0.124801991649,-1.54529726414,0.0676383476819,1.962553838,0.13163477073,-0.0904618886776,-0.482520256917,-0.0029043862182,-0.716508753785,-0.0520093024612,0.25404373323,-0.127051590241,0.5736397883,0.819091391313,0.00272632668793,0.0,0.819056549911,-0.573576395598,-0.0117146643994,0.0,-0.00803177876345,0.00895318571362,-0.999927662881,0.0,0.637755879029,0.229957623449,0.303785400737,1.0,-0.102837142857,-0.135157387755,1.233
0.444311664136,0.417272602294,-0.124931913035,-1.55810856317,0.0667101098453,1.96686863965,0.129547266009,-0.104177803704,-0.507927902756,-0.00533042633818,-0.747950085343,-0.0587059881685,0.274104583036,-0.116794324166,0.573678083565,0.81906499587,0.00259535731898,0.0,0.819028765648,-0.573615499368,-0.011742522159,0.0,-0.00812930819347,0.00886227053594,-0.99992768464,0.0,0.635963195786,0.227572034282,0.303770710821,1.0,-0.108908571429,-0.143136979592,1.25
0.44250710915,0.408444481512,-0.12500204006,-1.57142681973,0.0658211435098,1.97153649421,0.12730784879,-0.115182244735,-0.519486846954,8.77613253044e-05,-0.774139377534,-0.0539683439631,0.268001816478,-0.139972142444,0.573675737495,0.819066155328,0.00274377599649,0.0,0.81903159321,-0.573612337562,-0.011699676133,0.0,-0.00800909918575,0.00895923205287,-0.999927790639,0.0,0.634103778812,0.225122444271,0.303813327954,1.0,-0.11498,-0.151116571429,1.267
0.440624988388,0.39976849158,-0.125108418482,-1.58456905791,0.0649309430827,1.97590292844,0.125123415758,-0.120390414427,-0.547881010156,-0.00684842078004,-0.78421321287,-0.0584942942569,0.28089678696,-0.134973354666,0.5737865112,0.818988839598,0.00265839796065,0.0,0.818952666584,-0.573722848106,-0.0118055223289,0.0,-0.0081435641725,0.00895112390561,-0.999926777191,0.0,0.632219189075,0.222609717552,0.303793140189,1.0,-0.120694285714,-0.15862677551,1.283
0.438527237834,0.390201447451,-0.125228961042,-1.598897346,0.0638158896289,1.98086849784,0.122664493622,-0.123118792409,-0.560247482585,-0.00544518080287,-0.874415455327,-0.0711074110986,0.292668407697,-0.133628001047,0.573823350105,0.818962745105,0.00274443188453,0.0,0.818928656829,-0.573760450189,-0.0116424965142,0.0,-0.00796027769161,0.00892840216975,-0.999928456248,0.0,0.630190299356,0.219840429099,0.303839453803,1.0,-0.126765714286,-0.166606367347,1.3
0.436154980147,0.379573391666,-0.125319604335,-1.61472263912,0.062633455374,1.98609121533,0.119837001966,-0.130910742592,-0.605102538897,-0.000804197963398,-0.874777563041,-0.0614359374902,0.304884617602,-0.149841076172,0.573781158583,0.818992360546,0.00272806236949,0.0,0.818958053844,-0.573718313489,-0.0116511678236,0.0,-0.00797723168365,0.00891956095073,-0.99992840004,0.0,0.62785520069,0.216777097199,0.303880999049,1.0,-0.133194285714,-0.175055346939,1.318
0.433736237138,0.369282678799,-0.125407968638,-1.63016203098,0.0614840393972,1.9912430647,0.11709542475,-0.144052919152,-0.608867844199,-0.00689875364112,-0.931128108465,-0.0709501484045,0.300160010019,-0.161457734184,0.57382200521,0.818963848147,0.00269604641589,0.0,0.818929061049,-0.573759193532,-0.0116759456891,0.0,-0.00801545031724,0.00890795683373,-0.999928197853,0.0,0.625564153314,0.213739792726,0.303847799808,1.0,-0.139265714286,-0.183034938775,1.335
0.431325415632,0.359162861104,-0.125546693874,-1.64501769309,0.0603139308141,1.99617958031,0.114415665676,-0.151457475684,-0.634788348159,-0.00638319842395,-0.940710570599,-0.0769272292614,0.303556233961,-0.181667964097,0.573896011177,0.818911649747,0.00279734943381,0.0,0.818878780766,-0.573833526821,-0.0115487145856,0.0,-0.00785231520376,0.00891862303975,-0.999929397162,0.0,0.623351003206,0.210738739466,0.303932971034,1.0,-0.14498,-0.190545142857,1.351
0.428563351117,0.348228916729,-0.125651851332,-1.66139783871,0.0591319461043,2.00134693399,0.111332180222,-0.168294898565,-0.654057284768,-0.00403550829105,-0.95101217965,-0.064991829857,0.310898616481,-0.181175168523,0.573936129718,0.818884258714,0.00257618627995,0.0,0.818847452347,-0.573873227116,-0.0117947396977,0.0,-0.00818027983568,0.00887910177546,-0.999927119631,0.0,0.620808411659,0.207407096566,0.303825641862,1.0,-0.151051428571,-0.198524734694,1.368
0.425840310378,0.337492180822,-0.125765020351,-1.67700292481,0.0579186257122,2.00650405371,0.108366328591,-0.170101785909,-0.656500384794,-0.000575241346077,-0.975143152803,-0.0807548949089,0.316802603524,-0.192663253307,0.573986778717,0.818848092934,0.00277947090395,0.0,0.818814157265,-0.573923397942,-0.011664306995,0.0,-0.00795624533495,0.0089712008473,-0.999928105273,0.0,0.618420461464,0.204190356426,0.303923028918,1.0,-0.156765714286,-0.206034938775,1.384
0.422836974115,0.3257691353,-0.125782356795,-1.69410041991,0.0564761901001,2.01193531329,0.105024897213,-0.182435396925,-0.703418098945,0.00242384403668,-1.00012985461,-0.0884268799311,0.331446541843,-0.199856429968,0.573836486278,0.818953496828,0.00275752633098,0.0,0.818919556187,-0.57377351495,-0.0116387686828,0.0,-0.00794956778985,0.00893711443181,-0.99992846362,0.0,0.61569409073,0.20070730301,0.303947827913,1.0,-0.162837142857,-0.214014530612,1.401
0.419629619274,0.313768148537,-0.125816450404,-1.71165539666,0.0550823007915,2.01740187707,0.101595270288,-0.192600752585,-0.700873279284,-0.00454565842204,-1.03570387294,-0.0858132754761,0.324026240766,-0.216883763582,0.573801313729,0.818978425218,0.00267175803288,0.0,0.818942684125,-0.573737884185,-0.0117672117163,0.0,-0.0081043597538,0.00894023036365,-0.999927193167,0.0,0.612838919453,0.197074670351,0.303904402072,1.0,-0.168908571429,-0.221994122449,1.418
0.416449126173,0.302133734453,-0.125917776104,-1.72835213859,0.0536450414642,2.0226789838,0.0981080458648,-0.205315427338,-0.715410793395,-0.00219991556004,-1.0552950306,-0.0941848875214,0.318846602323,-0.21385211208,0.57367907885,0.819063711805,0.00277441801063,0.0,0.819029899177,-0.573615967486,-0.0116401460804,0.0,-0.00794272370521,0.00895021190391,-0.99992840086,0.0,0.610134326778,0.193513306106,0.303976485676,1.0,-0.174622857143,-0.229504326531,1.434
0.412826316625,0.289431112042,-0.126024698509,-1.74645835136,0.0522231273127,2.02822430114,0.0944060682093,-0.215512610115,-0.770717287874,-0.00785800504238,-1.06279666009,-0.0848155534728,0.340277319398,-0.224428951641,0.573770511884,0.818999180555,0.00291356210677,0.0,0.818966324288,-0.573705946846,-0.0116787472176,0.0,-0.00789350846846,0.00908720497523,-0.999927554991,0.0,0.606953801564,0.189349962759,0.304057275264,1.0,-0.181051428571,-0.237953306122,1.452
0.408791925376,0.275815763132,-0.126150463974,-1.76606808756,0.0505379920425,2.03402740786,0.0902074311943,-0.232071362925,-0.766891652671,-0.00290960039452,-1.07746811125,-0.0884323807874,0.321269398593,-0.237988592302,0.573733741735,0.819025670757,0.00270021058764,0.0,0.81898966021,-0.573669510456,-0.0118311513842,0.0,-0.00814114495462,0.00899954857358,-0.999926362231,0.0,0.603798720296,0.185258860113,0.303981489014,1.0,-0.187122857143,-0.245932897959,1.469
0.404459454203,0.261734739229,-0.126329560661,-1.78596689096,0.0487905475095,2.04004245444,0.0858473513704,-0.247229546466,-0.806085393026,-0.0147427203133,-1.11648288048,-0.0953340247017,0.32654964033,-0.245846409927,0.573800252292,0.818978750773,0.00279699023865,0.0,0.81894431022,-0.57373600897,-0.011745453188,0.0,-0.00801469687025,0.00903029710543,-0.999927106527,0.0,0.600424490738,0.180737826453,0.304034921073,1.0,-0.193551428571,-0.254381877551,1.487
0.40036070863,0.248957326486,-0.12648604557,-1.80389045381,0.0471989800786,2.04530229962,0.0818513257835,-0.260027021957,-0.785810375197,-0.0103569881302,-1.12775365508,-0.102173563798,0.330938943787,-0.261162301278,0.573923602859,0.818892153255,0.00284364534449,0.0,0.818858328492,-0.573859189983,-0.0117224073231,0.0,-0.00796768876284,0.00905648328403,-0.999927245377,0.0,0.597323619204,0.176576750942,0.30408149721,1.0,-0.199265714286,-0.261892081633,1.503
0.395860428353,0.235103476893,-0.12660692032,-1.82317876093,0.0454587984856,2.05088880987,0.0773515035128,-0.270822436601,-0.825189520569,-0.00804007561801,-1.11412937911,-0.0978995860374,0.335805984919,-0.260192046331,0.573885827085,0.818918330783,0.00292777727209,0.0,0.818885489685,-0.573821003135,-0.0116943596025,0.0,-0.00789685739298,0.00910891693272,-0.999927330997,0.0,0.593911565888,0.172107077404,0.304138181379,1.0,-0.205337142857,-0.269871673469,1.52
0.391435109597,0.221962413751,-0.12665800081,-1.84169450687,0.0437332694022,2.05613567438,0.0729646452363,-0.292206183761,-0.8044901584,-0.000361788134032,-1.16726484614,-0.116760714045,0.31227929139,-0.279337947925,0.573776201572,0.818995679543,0.00277386002192,0.0,0.818960467375,-0.573711515874,-0.0118150891818,0.0,-0.00808526722179,0.00905107295317,-0.999926350554,0.0,0.590548306358,0.167817413111,0.304035502485,1.0,-0.211051428571,-0.277381877551,1.536
0.386409328075,0.207512544177,-0.126815363354,-1.86140203458,0.0418716128781,2.06170463763,0.0681066799468,-0.304468401245,-0.859538310465,-0.0112430138796,-1.17535399077,-0.115117432739,0.318035833257,-0.288056744613,0.573800552928,0.818977915984,0.00297413705764,0.0,0.818945593389,-0.573735485554,-0.0116813777746,0.0,-0.0078605737972,0.00913861341013,-0.999927345923,0.0,0.586973342176,0.16305320916,0.304154463574,1.0,-0.217122857143,-0.285361469388,1.553
0.381458261782,0.193755706061,-0.126977533312,-1.88019898029,0.040082081155,2.0668210136,0.0633376687016,-0.312885230282,-0.848843326817,-0.0083571208794,-1.18882871222,-0.114297128598,0.31968624878,-0.303420121233,0.573812201772,0.81896966365,0.00299900300818,0.0,0.818937446438,-0.573746795072,-0.0116970452721,0.0,-0.00785900817812,0.00916807968115,-0.999927088495,0.0,0.58347717665,0.158446090369,0.304181329642,1.0,-0.222837142857,-0.292871673469,1.569
0.375798882163,0.178877170267,-0.127225849504,-1.90038439085,0.0381520061491,2.07221714676,0.0580372425923,-0.339320219155,-0.88767289657,-0.0150845812628,-1.18105090988,-0.118334723546,0.324679950884,-0.315274647857,0.573978419653,0.818853017622,0.00304240114629,0.0,0.818821043469,-0.573912467496,-0.0117185889487,0.0,-0.00784988110851,0.00921757671353,-0.999926705137,0.0,0.579689808258,0.153307408534,0.304206044721,1.0,-0.228908571429,-0.300851265306,1.586
0.369630417308,0.162921945009,-0.127356368995,-1.92207299242,0.0359418167869,2.07775209745,0.0522349086191,-0.34535380497,-0.895624441661,-0.00327182241863,-1.20319843757,-0.122971630067,0.301144046208,-0.338068975196,0.573933517837,0.818885294792,0.00281744156926,0.0,0.818849943208,-0.573867857349,-0.0118827484857,0.0,-0.00811392505831,0.00912714523478,-0.999925426939,0.0,0.575467601874,0.147850628359,0.304119324979,1.0,-0.235337142857,-0.309300244898,1.604
0.363937388762,0.148382286221,-0.127482953577,-1.94133926665,0.0339611812087,2.08276837447,0.0468572150722,-0.368017353727,-0.916635720028,-0.0032857004429,-1.2226825693,-0.127123229474,0.29859502133,-0.341214000229,0.573849527865,0.818943508164,0.00299945106726,0.0,0.818910812094,-0.573783549916,-0.0117586811726,0.0,-0.00790881219881,0.00920417375738,-0.999926364226,0.0,0.571699004393,0.142942491809,0.304204664037,1.0,-0.241051428571,-0.31681044898,1.62
0.357950295583,0.133591368223,-0.127639052228,-1.96075667149,0.0319821071816,2.08758596876,0.0412524420814,-0.37471940014,-0.942861890592,-0.00859288499631,-1.21959102006,-0.129782584989,0.300799079058,-0.35867419735,0.573810498489,0.818970326115,0.00314064787638,0.0,0.818939119139,-0.573743630801,-0.0117350824212,0.0,-0.0078089079075,0.00930589206659,-0.999926207942,0.0,0.567815729047,0.137892416663,0.304288134801,1.0,-0.246765714286,-0.324320653061,1.636
0.351155865562,0.11771982051,-0.127890523282,-1.98151586913,0.0297149307201,2.09264116037,0.0350814670824,-0.412401564559,-0.937619334867,-0.0199565750058,-1.2162344014,-0.14606952593,0.310042184521,-0.380320991574,0.573887312182,0.818916224768,0.00321195112126,0.0,0.81888657938,-0.573820961673,-0.0116198518597,0.0,-0.00767274806024,0.00929888825095,-0.999927327167,0.0,0.563383687036,0.131940445614,0.304347273508,1.0,-0.253194285714,-0.332769632653,1.654
0.343623637547,0.10069787558,-0.128069742353,-2.00362580682,0.0272807083985,2.09778975889,0.028168793431,-0.418692699876,-0.963872324548,-0.00133438692873,-1.21671033771,-0.144402682407,0.300381871009,-0.381937136896,0.573853656587,0.818939928974,0.00318126633467,0.0,0.818909666084,-0.573787145689,-0.0116626385478,0.0,-0.00772577939932,0.00929799654319,-0.999926927127,0.0,0.559042425807,0.126247766195,0.304344679954,1.0,-0.259265714286,-0.34074922449,1.671
0.337169208447,0.0863160262755,-0.128216997858,-2.02227283573,0.0253005650809,2.10198966088,0.0221921628182,-0.440844573298,-0.959661338784,-0.0139884230391,-1.25196030772,-0.125693135574,0.271836305354,-0.406927216024,0.573762940929,0.819003681126,0.00313126481769,0.0,0.818971461139,-0.573695054332,-0.0118523151903,0.0,-0.00791085093942,0.00936501604894,-0.999924854632,0.0,0.554798754907,0.120851090503,0.304280735877,1.0,-0.26498,-0.348259428571,1.687
0.328970332534,0.0686919936528,-0.128424712614,-2.04450380062,0.0227368432584,2.10691850815,0.0147139884091,-0.466889915913,-0.991097771176,-0.0152384105496,-1.26317537806,-0.140366503842,0.27086836676,-0.419257762212,0.573662840372,0.819072975091,0.00333975336657,0.0,0.819044228248,-0.573595178062,-0.0116563621515,0.0,-0.00763189173672,0.00942240894945,-0.999926483517,0.0,0.550311136146,0.11493522413,0.304405970404,1.0,-0.26998,-0.354830857143,1.704
0.3197926656,0.050145287752,-0.128740090648,-2.06783958686,0.0200006709902,2.11174084166,0.00658344072854,-0.490545602897,-0.959934327916,-0.0162025860801,-1.2158242352,-0.144758154063,0.251721910045,-0.42871074859,0.573806178153,0.818972662774,0.00331578712271,0.0,0.818943447268,-0.573738380514,-0.0116896451707,0.0,-0.00767125319384,0.00942321418213,-0.999926174729,0.0,0.545194131046,0.108101046605,0.304422211914,1.0,-0.26998,-0.354830857143,1.723
0.313418177523,0.0375641514513,-0.128858970059,-2.08358548575,0.018192487299,2.11482534185,0.000956242362428,-0.489053891507,-0.980909688952,-0.0114874822399,-1.18962867151,-0.140751876553,0.245645864897,-0.432037488251,0.573843809115,0.818946474661,0.00327128128944,0.0,0.818915768091,-0.57377504433,-0.0118283632557,0.0,-0.00780996718851,0.00946671911974,-0.999924689985,0.0,0.541644557051,0.103514812801,0.304395998587,1.0,-0.26998,-0.354830857143,1.736
0.303817589439,0.0193268979308,-0.129058141251,-2.10611646411,0.0154354505094,2.11913998205,-0.00756690129539,-0.514819110083,-0.958063522896,-0.0114779916324,-1.15329190188,-0.140026190803,0.225159019448,-0.445961959168,0.573810527257,0.81896990534,0.00324343306603,0.0,0.818938663895,-0.573741657385,-0.0118626413367,0.0,-0.00785440481129,0.00946326341874,-0.999924374626,0.0,0.536505450157,0.0967619078803,0.30439330266,1.0,-0.26998,-0.354830857143,1.755
0.295435344305,0.00397217376635,-0.129317390029,-2.12467781319,0.0131237902726,2.12251533695,-0.0148767668116,-0.531206334288,-0.963536405716,-0.0119624702073,-1.15497460738,-0.138610055578,0.204801746127,-0.457715538111,0.573953887039,0.81886902203,0.00334771763021,0.0,0.818839261937,-0.573884782239,-0.0118011324312,0.0,-0.00774252663723,0.00951473165194,-0.999924758751,0.0,0.532205977325,0.0909875320304,0.304476371948,1.0,-0.26998,-0.354830857143,1.771
0.28591031803,-0.0130866704663,-0.129444135905,-2.14511050465,0.0105961310307,2.12619240339,-0.0232922655113,-0.533078324973,-0.930292129493,-0.00446461109808,-1.13626845944,-0.138552020733,0.199197936645,-0.463376831769,0.573889409002,0.818913207744,0.00358487364917,0.0,0.818886623197,-0.573819640239,-0.0116818545585,0.0,-0.00750949866231,0.00963988328338,-0.999925337253,0.0,0.527382152388,0.0846720571634,0.304563193572,1.0,-0.26998,-0.354830857143,1.789
0.277756649613,-0.0271493007516,-0.129620575752,-2.16182892132,0.008370801758,2.12883464608,-0.0304641322655,-0.548235295435,-0.955658396734,-0.00973198578742,-1.09044675779,-0.142080356157,0.182187073061,-0.485659315011,0.573853676361,0.81893850863,0.00352478527892,0.0,0.818911229742,-0.573784216785,-0.0116968915749,0.0,-0.00755671427153,0.00959897528962,-0.999925375087,0.0,0.52332322744,0.0793373888086,0.304590260163,1.0,-0.26998,-0.354830857143,1.804
0.267618410714,-0.043799123021,-0.129879355296,-2.1816657797,0.00581113890463,2.13188564125,-0.0392591972179,-0.56647095907,-0.921531810647,-0.0112748561873,-1.10355644069,-0.131691186388,0.158021727433,-0.506488819304,0.57399477937,0.818839995364,0.0034354256361,0.0,0.818810649905,-0.573924465289,-0.0118564178916,0.0,-0.00773698331107,0.00961867025883,-0.999923807233,0.0,0.518432907728,0.0728620617398,0.304516701183,1.0,-0.26998,-0.354830857143,1.822
0.259108969602,-0.0576852887013,-0.129990081728,-2.19763866302,0.00366852485011,2.13432178777,-0.0467322904952,-0.570040404488,-0.914071174723,-0.00941973134634,-1.07696868583,-0.148124652116,0.152053240531,-0.501778945004,0.573923822771,0.818888672444,0.00367895362424,0.0,0.818863258376,-0.573853684174,-0.0116473234534,0.0,-0.0074268231385,0.00969742305905,-0.999925398359,0.0,0.514447667831,0.0676062254066,0.304639909018,1.0,-0.26998,-0.354830857143,1.837
0.248610314585,-0.0741019643445,-0.130208466746,-2.21660423209,0.00107437759669,2.13686400713,-0.055937922857,-0.593390942158,-0.933311901341,-0.0164279577056,-1.03783393243,-0.145247803472,0.152291177899,-0.520722893045,0.573903004732,0.818903338862,0.00366192037083,0.0,0.81887750048,-0.573832658425,-0.0116818762994,0.0,-0.00746514173156,0.00970311492442,-0.999925057802,0.0,0.509583843812,0.0612174484696,0.304640590185,1.0,-0.26998,-0.354830857143,1.855
0.238422900513,-0.0894277793868,-0.130404847304,-2.23429713705,-0.00128972044848,2.1389831203,-0.064857514398,-0.593247195178,-0.915547003923,-0.00553632559813,-1.03371248369,-0.138299047084,0.111367353845,-0.526714181381,0.573917077663,0.818894026152,0.00353677843518,0.0,0.818865064565,-0.573845243012,-0.0119327284877,0.0,-0.00774222565548,0.0097447285801,-0.999922546104,0.0,0.5049267067,0.0551812986603,0.304548463385,1.0,-0.26998,-0.354830857143,1.872
0.229316966402,-0.102932502611,-0.130548466593,-2.24940193588,-0.00346241387436,2.14074236113,-0.0728852997378,-0.621359471649,-0.896285029007,-0.0127982994794,-1.01647349493,-0.148634241098,0.0998492548528,-0.54539781766,0.573825716807,0.818957690208,0.00361874018775,0.0,0.818930353098,-0.573754314879,-0.0118241208307,0.0,-0.00760733335184,0.00974866848309,-0.999923543048,0.0,0.500636783374,0.0495480251132,0.304613235361,1.0,-0.26998,-0.354830857143,1.888
0.217953755958,-0.118902976084,-0.130860326979,-2.26727948762,-0.00604346882861,2.14255382889,-0.0826691981843,-0.639375363852,-0.888766030969,-0.0208486466669,-0.971429568431,-0.137864594492,0.106867958708,-0.558591099478,0.574007582025,0.818830468919,0.00356452638372,0.0,0.818801940678,-0.573935725252,-0.0119126874184,0.0,-0.00770881080817,0.00975680186972,-0.999922686538,0.0,0.496036777012,0.0434245777499,0.304592211712,1.0,-0.26998,-0.354830857143,1.905
0.206475030658,-0.134783300629,-0.131020420446,-2.28486826032,-0.00851556141856,2.14412636186,-0.092810842467,-0.644463125593,-0.881453185777,-0.00851623582367,-0.975379645733,-0.146616315644,0.0789483094528,-0.567266654336,0.57390083505,0.81890539858,0.00353929463166,0.0,0.818875337631,-0.573827572944,-0.0120766241235,0.0,-0.00785881914957,0.0098292149984,-0.999920809611,0.0,0.491118954867,0.037106897314,0.304553868727,1.0,-0.26998,-0.354830857143,1.923
0.195965494763,-0.148788114656,-0.131268414015,-2.2999808385,-0.0107788451501,2.14547628758,-0.10200335371,-0.669523208722,-0.86692897204,-0.0173834736952,-0.948294004276,-0.149402330639,0.0818677984715,-0.570074913881,0.573945784245,0.818873127889,0.00371269036527,0.0,0.818846088053,-0.573872844527,-0.0119075310584,0.0,-0.00762029173669,0.00987458934994,-0.999922208794,0.0,0.486855777222,0.0314038446043,0.304629769295,1.0,-0.26998,-0.354830857143,1.939
0.184563123549,-0.163467146662,-0.131481443252,-2.31579694437,-0.013151468821,2.14647310656,-0.11198286271,-0.660595270494,-0.867257754641,-0.00967165523605,-0.904738207437,-0.12864660194,0.0541791834374,-0.584835596447,0.573960812069,0.81886287326,0.00365074050703,0.0,0.818834273791,-0.573887128575,-0.0120309027936,0.0,-0.00775669598319,0.00989480869497,-0.999920960091,0.0,0.482238335206,0.0253729752421,0.304617155087,1.0,-0.26998,-0.354830857143,1.956
0.173045342924,-0.178046351771,-0.131662548369,-2.33121798179,-0.0154139976184,2.14739444494,-0.122233430949,-0.690298308658,-0.867131562079,-0.00818380831273,-0.912121494171,-0.143442395015,0.0467726407808,-0.608427642341,0.573850947348,0.818939226725,0.00379210513874,0.0,0.818912060177,-0.573776223584,-0.012026215041,0.0,-0.00767306721044,0.0100068481887,-0.999920490354,0.0,0.477662197598,0.0194411840647,0.304660968392,1.0,-0.26998,-0.354830857143,1.973
0.161727206514,-0.191596768592,-0.131946415551,-2.34540454892,-0.0176847938783,2.14810995232,-0.132115589714,-0.7065965627,-0.837340590537,-0.0150710488827,-0.857368379828,-0.146086340272,0.0593860386684,-0.62013836844,0.573955726615,0.818865577218,0.00383891064503,0.0,0.818839526418,-0.573881479563,-0.0119425412388,0.0,-0.00757640207331,0.00999813420395,-0.999921314626,0.0,0.473372240053,0.013672244158,0.304693021466,1.0,-0.26998,-0.354830857143,1.989
0.149729793355,-0.205865730384,-0.132116278897,-2.36024855658,-0.0199168796536,2.14864501147,-0.1428835767,-0.714989937276,-0.85216191588,-0.0142374660156,-0.864500372012,-0.134054284813,0.0219973337159,-0.63548294142,0.573779241856,0.818988920505,0.00390852998549,0.0,0.818963006571,-0.573703748603,-0.012014558199,0.0,-0.00759759802283,0.0100948399198,-0.99992018217,0.0,0.468762906725,0.00775963583643,0.30468881477,1.0,-0.26998,-0.354830857143,2.006
0.137190859612,-0.219983523183,-0.132465601983,-2.37463333901,-0.0222398214295,2.14899002913,-0.15381495191,-0.741759160695,-0.866138908019,-0.018647644906,-0.847787804466,-0.144658998638,0.0229924026845,-0.642117380626,0.573999289954,0.818834250268,0.00400407558514,0.0,0.818809767794,-0.573923665019,-0.0119556596388,0.0,-0.00749181410263,0.0101413115954,-0.999920510101,0.0,0.464197314274,0.00162350972238,0.304738322601,1.0,-0.26998,-0.354830857143,2.023
0.125369189934,-0.233044639791,-0.13261703131,-2.38802017405,-0.0244044448478,2.1491401271,-0.164394576223,-0.749241608041,-0.855927260931,-0.0107259643011,-0.812477612876,-0.139961952609,0.0103154926078,-0.663347889029,0.573834602509,0.818950082013,0.00391906043122,0.0,0.818923879913,-0.573758496316,-0.0120670508113,0.0,-0.00763386500717,0.0101340985925,-0.999919508836,0.0,0.459837264721,-0.00396445389329,0.304679185359,1.0,-0.26998,-0.354830857143,2.039
0.111588742637,-0.247664435025,-0.13299938097,-2.40246991757,-0.0267411501989,2.14921015519,-0.176611000261,-0.782757457418,-0.808061395959,-0.0193893242859,-0.78539270688,-0.131575265285,-0.00150607023564,-0.684422913723,0.573988816364,0.81884074249,0.00417420998023,0.0,0.81881837336,-0.573912450336,-0.0119045243018,0.0,-0.00735241999721,0.0102511810065,-0.999920424438,0.0,0.455038085865,-0.0104260622369,0.304778056717,1.0,-0.26998,-0.354830857143,2.057
0.0992303994858,-0.260411203999,-0.133192492904,-2.41523956839,-0.0288128366884,2.14910410985,-0.187687305027,-0.776321770473,-0.788024054681,-0.0191087549408,-0.819443026642,-0.132935061519,-0.0186355961939,-0.695881303953,0.573905237602,0.818899375581,0.00416387161244,0.0,0.818876199714,-0.573827987943,-0.0119981955515,0.0,-0.00743611194397,0.0102957208554,-0.999919347933,0.0,0.450681372859,-0.0160344925459,0.304718456165,1.0,-0.26998,-0.354830857143,2.073
0.0865156756335,-0.273062005533,-0.133511985956,-2.42737066477,-0.0309054387579,2.14891114221,-0.199022237592,-0.800033405797,-0.794373157588,-0.022961968261,-0.762762289265,-0.128045084347,-0.0170648563931,-0.7090542005,0.573989743434,0.818838877149,0.00440620049864,0.0,0.818820293757,-0.573913702237,-0.0117105003314,0.0,-0.00706037003525,0.0103297923479,-0.999921720219,0.0,0.446451521266,-0.0217617176795,0.304843027126,1.0,-0.26998,-0.354830857143,2.089
0.0720861613672,-0.286969807834,-0.13372413478,-2.44093890776,-0.0331632668422,2.14839695064,-0.212082056806,-0.807668010696,-0.768442344153,-0.0128360927636,-0.74556275265,-0.113257276907,-0.0356165662449,-0.719192393597,0.57384493222,0.818940463491,0.00438838520374,0.0,0.818920828607,-0.573767779026,-0.0118304321987,0.0,-0.00717064365339,0.0103827735111,-0.999920386773,0.0,0.441566148995,-0.028049896063,0.304792179443,1.0,-0.26998,-0.354830857143,2.107
0.0579787670672,-0.299982669542,-0.134052111698,-2.45314304895,-0.0353511342066,2.1478470146,-0.224740485911,-0.842376775756,-0.754933729718,-0.0103681510948,-0.709320988427,-0.139695157069,-0.0354416661695,-0.751480378253,0.573908521483,0.818894888541,0.0045735535086,0.0,0.818879028549,-0.573832803949,-0.0115670487543,0.0,-0.00684787390937,0.0103838148233,-0.999922638514,0.0,0.437051699058,-0.0341479555566,0.30490195508,1.0,-0.26998,-0.354830857143,2.124
0.0446820770348,-0.311945764968,-0.1342439118,-2.46455361106,-0.0372731328376,2.14709675056,-0.236830330037,-0.830616831289,-0.749982075339,-0.0109340565712,-0.712087159192,-0.12174428012,-0.0485088723769,-0.766834428353,0.573797355817,0.818972874509,0.00455765034784,0.0,0.818955846586,-0.57372025543,-0.0117105402999,0.0,-0.00697593283803,0.0104521926954,-0.999921040897,0.0,0.432704187156,-0.0397111801799,0.304849638389,1.0,-0.26998,-0.354830857143,2.14
0.0300334066933,-0.324475551488,-0.134598387352,-2.47613670181,-0.0393717877899,2.14623113756,-0.250036483498,-0.864527562784,-0.730196888754,-0.0107196984343,-0.66462738527,-0.126191088501,-0.0467824872707,-0.779986008805,0.573902923075,0.818898273859,0.00466892467063,0.0,0.818883198588,-0.573826233865,-0.0115977282104,0.0,-0.0068183394264,0.0104794758516,-0.999921842362,0.0,0.428151237679,-0.0458120728666,0.30490217606,1.0,-0.26998,-0.354830857143,2.157
0.0153364660681,-0.336723728032,-0.134809316851,-2.48750111488,-0.0413292325353,2.1452450074,-0.263552520638,-0.875053870949,-0.713986358582,-0.0195414669904,-0.667617787828,-0.133416261066,-0.0719293760225,-0.79291130347,0.573738636379,0.819013061348,0.00472539606438,0.0,0.818998189529,-0.573660986818,-0.0116526671471,0.0,-0.00683304278084,0.0105558794141,-0.999920938343,0.0,0.423567112952,-0.0517360463005,0.304876776079,1.0,-0.26998,-0.354830857143,2.174
0.00106229574712,-0.347994470228,-0.135142953985,-2.4978337897,-0.0432658946572,2.14410321244,-0.276496866089,-0.887265306905,-0.705387041683,-0.00823072561415,-0.641978717734,-0.119882976109,-0.07495292352,-0.819384099518,0.573823548026,0.818953899763,0.0046682646955,0.0,0.818937667199,-0.573745118112,-0.0117636553618,0.0,-0.00695563127238,0.0105734838294,-0.999919907109,0.0,0.419223709373,-0.0574591853118,0.304844425083,1.0,-0.26998,-0.354830857143,2.19
-0.0142502933128,-0.359832750942,-0.135444530513,-2.5083002427,-0.0452511400449,2.14295415921,-0.290573186392,-0.914898337031,-0.682192417277,-0.0276764975665,-0.618388562703,-0.122332205192,-0.0768243194112,-0.826258474154,0.573765387091,0.818993658999,0.0048388011056,0.0,0.818981009339,-0.573688574662,-0.0115009801782,0.0,-0.00664339283476,0.0105619539077,-0.999922152201,0.0,0.414712389801,-0.0634772957658,0.304946909065,1.0,-0.26998,-0.354830857143,2.207
-0.0307871179843,-0.37200449558,-0.135733109381,-2.51928018874,-0.0472354054002,2.14144379429,-0.305837125463,-0.922925615049,-0.664300230195,-0.0216078882021,-0.60888799495,-0.111669882436,-0.08776635712,-0.85535936149,0.573693870081,0.819043968233,0.00480296090324,0.0,0.819029406439,-0.573614902005,-0.0117269982013,0.0,-0.0068500090783,0.0106616784706,-0.99991969977,0.0,0.409793999318,-0.0698115961701,0.30487912599,1.0,-0.26998,-0.354830857143,2.225
-0.0458186743821,-0.382587128669,-0.136070735866,-2.52843807844,-0.0490450171714,2.14009808282,-0.319590768923,-0.955116102435,-0.654614700329,-0.0149411842385,-0.56513435176,-0.11907317887,-0.0776823018879,-0.869646291704,0.57380276848,0.818967120532,0.00489747617565,0.0,0.818954542476,-0.573724681355,-0.0115842247594,0.0,-0.00667742479759,0.0106580757993,-0.999920905581,0.0,0.405515341053,-0.0755343085754,0.304952974182,1.0,-0.26998,-0.354830857143,2.241
-0.0619364315561,-0.393465835246,-0.1363254157,-2.53797901026,-0.0508787594614,2.13863675625,-0.334612467998,-0.948856594264,-0.625270949429,-0.0149914601677,-0.55784350016,-0.110602572561,-0.0928873094976,-0.884569349061,0.573668162983,0.819061303821,0.00491591935547,0.0,0.819048815652,-0.573589804516,-0.0115983031506,0.0,-0.00668012869169,0.0106801608143,-0.999920651875,0.0,0.401209196776,-0.0811534125256,0.304932613244,1.0,-0.26998,-0.354830857143,2.257
-0.078392932705,-0.404062827788,-0.136663657181,-2.54720567291,-0.0526818503807,2.13694607476,-0.349846849204,-0.959057839156,-0.62098560155,-0.00996845484523,-0.539145073328,-0.102039302133,-0.099505404748,-0.897570602087,0.5737049866,0.819035906137,0.00484971232256,0.0,0.819021219202,-0.573624720613,-0.0118181766956,0.0,-0.00689772898537,0.0107523712185,-0.999918400595,0.0,0.396288074234,-0.0875343626369,0.304876864698,1.0,-0.26998,-0.354830857143,2.275
-0.094099183053,-0.413781986955,-0.137003830301,-2.55530508473,-0.054230712923,2.13554097613,-0.364540554828,-0.998806185222,-0.597515369755,-0.0310536320812,-0.498035440027,-0.103734251908,-0.0821730527033,-0.922433949338,0.573729805723,0.819016986807,0.00510218060285,0.0,0.81900659929,-0.57365036234,-0.011584429563,0.0,-0.00656110316462,0.0108252605269,-0.99991987962,0.0,0.392049469198,-0.0932198007867,0.304973380309,1.0,-0.26998,-0.354830857143,2.291
-0.111058355738,-0.423726019308,-0.137285560135,-2.56373530508,-0.055959239605,2.13381383088,-0.380440114848,-0.990546889299,-0.576815771183,-0.0167892905121,-0.494320678081,-0.0993724835231,-0.109123544793,-0.949601726944,0.573646071042,0.819075886507,0.00506203730174,0.0,0.819064480753,-0.573565951231,-0.0116714548741,0.0,-0.00665652316641,0.0108416279209,-0.999919071627,0.0,0.387441499059,-0.0992297624519,0.304952906165,1.0,-0.26998,-0.354830857143,2.308
-0.128306057726,-0.433286957637,-0.137646721592,-2.57187454957,-0.0576813484923,2.13204009664,-0.396509222604,-1.01390218847,-0.555343233802,-0.0110280748445,-0.473885656603,-0.100379159181,-0.103849685788,-0.959193216419,0.573727416275,0.819019494403,0.00496653832896,0.0,0.819005599937,-0.573645600784,-0.0118869203198,0.0,-0.00688671919746,0.0108876844079,-0.99991701227,0.0,0.382787799833,-0.105272590478,0.304876824498,1.0,-0.26998,-0.354830857143,2.325
-0.145748354493,-0.442515773172,-0.137977879644,-2.57936140946,-0.0591542609616,2.13038381019,-0.412993545141,-1.05083418373,-0.5348841115,-0.0317949701952,-0.423358269822,-0.0826396603013,-0.0846972630796,-0.975271424081,0.573737579497,0.819011063015,0.00517836199654,0.0,0.81900041482,-0.573655830215,-0.0117497185769,0.0,-0.00665268003619,0.0109825471674,-0.999917559355,0.0,0.378266307551,-0.111294972025,0.304949140297,1.0,-0.26998,-0.354830857143,2.342
-0.163483401508,-0.451368517989,-0.138233358696,-2.58655782714,-0.0606637172083,2.12867382398,-0.429711688181,-1.03546092252,-0.508707777418,-0.0158407790797,-0.418197491383,-0.0903342270837,-0.11622083743,-0.989952916759,0.573731628128,0.819014838329,0.00524026572573,0.0,0.819005233607,-0.573650073982,-0.011694735788,0.0,-0.0065722098549,0.011001656675,-0.999917881432,0.0,0.373702980848,-0.11731007729,0.304977925291,1.0,-0.26998,-0.354830857143,2.359
-0.183538698975,-0.460783488761,-0.138575646975,-2.59428451627,-0.0624100072714,2.12665583816,-0.448779348507,-1.04887612574,-0.484392175196,-0.00395008999831,-0.386596528053,-0.0782133481529,-0.0991920226555,-1.00255756566,0.573628095911,0.819087947694,0.00514669061664,0.0,0.819076205428,-0.573545355666,-0.0118592409998,0.0,-0.00676203106158,0.0110185377955,-0.999916429888,0.0,0.368528129077,-0.124025341765,0.304929660284,1.0,-0.26998,-0.354830857143,2.378
-0.198549583654,-0.467317600107,-0.138863968793,-2.59964413288,-0.0635248347647,2.12531509024,-0.463085303393,-1.08960662568,-0.45834040045,-0.0285925479491,-0.373160723474,-0.0821474717569,-0.099263105174,-1.03296385995,0.573647811786,0.819073697186,0.0052166572024,0.0,0.819062134005,-0.573563620665,-0.0119474093122,0.0,-0.00679385472708,0.0111265858103,-0.999915017702,0.0,0.364741068602,-0.12899638749,0.304885299383,1.0,-0.26998,-0.354830857143,2.392
-0.219100220268,-0.475876540832,-0.139106071172,-2.60623726508,-0.0650282813595,2.12348852502,-0.482633481896,-1.07422677096,-0.435145668265,-0.00638194572129,-0.334422175328,-0.0726630191451,-0.0929084760271,-1.04958589346,0.573635127825,0.819081897728,0.00532276628922,0.0,0.819073296484,-0.573553208686,-0.0116789851488,0.0,-0.00651328103576,0.0110594247978,-0.999917629754,0.0,0.359701171461,-0.135716044933,0.304998299358,1.0,-0.266408571429,-0.350136979592,2.411
-0.236437716146,-0.482452296988,-0.139306008619,-2.61149694928,-0.0661323542381,2.12197261814,-0.499174971815,-1.07677188178,-0.403906252801,-0.0119330044475,-0.320360096131,-0.0626801164594,-0.0972592741521,-1.03724614009,0.573666045417,0.819059862202,0.00538120488429,0.0,0.819051293564,-0.573582690237,-0.0117738215152,0.0,-0.0065570248966,0.0111619393514,-0.999916204756,0.0,0.355448416282,-0.141286401686,0.304971778386,1.0,-0.260694285714,-0.34262677551,2.427
-0.252625158345,-0.488135135131,-0.139438966089,-2.61609351803,-0.067028038075,2.12052999777,-0.514580775327,-1.09029300512,-0.363468894087,-0.0113386177558,-0.296018612258,-0.0701083654285,-0.0917606499526,-1.024027139,0.573760743303,0.818993205038,0.00543014244721,0.0,0.818983467276,-0.573674132911,-0.0120339710249,0.0,-0.00674073801916,0.0113520356112,-0.999912843071,0.0,0.351496849653,-0.146400932032,0.304904676196,1.0,-0.255337142857,-0.335585959184,2.442
-0.270770814129,-0.494093139967,-0.139424852041,-2.62076090039,-0.0679874978693,2.11914156272,-0.531902393763,-1.05926542606,-0.344152797276,0.00385575495342,-0.263631879792,-0.0578598979719,-0.076114793148,-1.01235267536,0.573749409888,0.81900079497,0.00548264475477,0.0,0.818991854839,-0.573662789312,-0.0120038647055,0.0,-0.00668611418211,0.0113776707437,-0.999912918451,0.0,0.347191039359,-0.152064262794,0.304907134526,1.0,-0.249265714286,-0.327606367347,2.459
-0.289810455527,-0.49978816669,-0.139388564316,-2.62514711549,-0.0688559015199,2.11773379409,-0.550003881443,-1.0426427888,-0.308508539556,0.00142230734126,-0.229378048018,-0.0454095926812,-0.0752839951907,-1.0075488075,0.573888610692,0.818902550953,0.00558761679188,0.0,0.818895077313,-0.573801728163,-0.0119656178689,0.0,-0.00659261775336,0.0114428240094,-0.999912795783,0.0,0.342496872814,-0.15827479814,0.304933361723,1.0,-0.24248,-0.318688,2.478
-0.305409024488,-0.504069711021,-0.139329050604,-2.62840712461,-0.0694826258703,2.11666006933,-0.564909418568,-1.03751635281,-0.276709709463,0.000805696289961,-0.215139215393,-0.0412296882909,-0.0678309306755,-0.987450138369,0.573936999904,0.818868087199,0.00566769886964,0.0,0.818861775392,-0.573850009238,-0.0119292329816,0.0,-0.00651618460146,0.0114879113253,-0.999912779812,0.0,0.339134164984,-0.162732273341,0.304952551629,1.0,-0.23748,-0.312116571429,2.492
-0.323758371003,-0.508717181898,-0.139154475928,-2.63189665572,-0.0701686151991,2.11552482167,-0.582563468434,-1.01516406265,-0.242303604753,0.00717162734267,-0.187791210164,-0.0383265852655,-0.0541860041081,-0.962980830728,0.573885440463,0.818903706353,0.00574176330345,0.0,0.818899246544,-0.573799771439,-0.0117725616408,0.0,-0.00634609407172,0.0114582479724,-0.999914214142,0.0,0.334945787803,-0.168294100612,0.305001489902,1.0,-0.231051428571,-0.303667591837,2.51
-0.340845109901,-0.512620917838,-0.138971674972,-2.63489940639,-0.0707635385953,2.11442767837,-0.598982122971,-0.989661352005,-0.210020168339,0.0222410364843,-0.167813716897,-0.0228888599197,-0.0589176447349,-0.968193923174,0.573892367934,0.818898802009,0.0057488256953,0.0,0.818893892751,-0.573805697127,-0.0118558534367,0.0,-0.00641015865575,0.0115118836945,-0.999913189432,0.0,0.330793785652,-0.173710509998,0.304987832652,1.0,-0.224622857143,-0.295218612245,2.528
-0.356576506754,-0.515795560679,-0.138842978883,-2.63743936538,-0.0711420442607,2.1135094061,-0.61417110116,-0.985330515239,-0.192511060489,0.00363819459274,-0.155244833826,-0.0242149040436,-0.0546542990707,-0.938314255658,0.573916571637,0.818881094416,0.00585396527941,0.0,0.818876356052,-0.573827330379,-0.0120189562954,0.0,-0.00648305563544,0.0116917770511,-0.999910632176,0.0,0.327423209539,-0.178085173318,0.304936743073,1.0,-0.219265714286,-0.288177795918,2.543
-0.372933481022,-0.518706080062,-0.138573765938,-2.63976585772,-0.0715393623777,2.11269792973,-0.62994259181,-0.952544843223,-0.161020677593,0.0143449132168,-0.129439689311,-0.0186599467804,-0.047153044984,-0.91428929941,0.573899627945,0.818892860911,0.00586909658267,0.0,0.818887650359,-0.573809123016,-0.0121183057468,0.0,-0.00655597912232,0.0117610483064,-0.999909344331,0.0,0.323737921237,-0.182903974952,0.304889373374,1.0,-0.213194285714,-0.280198204082,2.56
-0.389971378789,-0.521412521347,-0.138367124116,-2.64182164957,-0.0719040382557,2.11191514743,-0.64635196972,-0.934403314305,-0.141781888547,0.016372057474,-0.102193193408,-0.018379891226,-0.0423188438113,-0.897130227463,0.573991394565,0.818828037695,0.00593890146552,0.0,0.818823592224,-0.573900309345,-0.0121287530969,0.0,-0.00652315130065,0.011824940203,-0.999908805485,0.0,0.319924246917,-0.187934625764,0.30488839824,1.0,-0.206765714286,-0.27174922449,2.578
-0.403681387284,-0.52335676706,-0.138107577601,-2.64327389344,-0.0721131213092,2.11133208602,-0.659762052643,-0.911426401225,-0.122928266581,0.0170167834123,-0.0906703049058,-0.0190064372503,-0.0402623688641,-0.881867824839,0.573878409296,0.818906791333,0.00599877933955,0.0,0.818903116168,-0.573787069303,-0.0121174391681,0.0,-0.00648115599404,0.0118665842774,-0.999908585219,0.0,0.316879254125,-0.191935177001,0.304898700709,1.0,-0.201408571429,-0.264708408163,2.593
-0.419077570405,-0.525221996513,-0.137869437572,-2.64463521824,-0.0723389993099,2.11077183278,-0.674585339261,-0.879595487365,-0.100057541859,0.0259401698335,-0.0764312343159,-0.00750326359036,-0.021494598743,-0.859472179818,0.574002248042,0.818819500108,0.00606567281783,0.0,0.818816985452,-0.573911126383,-0.0120627629596,0.0,-0.00639619156387,0.0118909579256,-0.999908842772,0.0,0.313476873047,-0.196444290031,0.304921650164,1.0,-0.195337142857,-0.256728816327,2.61
-0.434871012992,-0.526821693762,-0.137645382153,-2.64580999235,-0.0725188102138,2.11028658401,-0.689895447413,-0.874978305501,-0.0739773779931,0.00631652557962,-0.0603757962092,-0.00518488994104,-0.0250828326937,-0.842345878581,0.574093604182,0.818754789799,0.00615424411023,0.0,0.818753664584,-0.574002528016,-0.0120117218596,0.0,-0.00630222446628,0.0119348923964,-0.999908916007,0.0,0.309989959464,-0.201059264204,0.304937345418,1.0,-0.188908571429,-0.248279836735,2.628
-0.44845779737,-0.52795855285,-0.137326402318,-2.64667396343,-0.0726230128948,2.10992587948,-0.70312668778,-0.829153703999,-0.0604741367295,0.0205935962225,-0.0482607353046,-0.00174225069565,-0.0184015820029,-0.825268908172,0.574064258255,0.818775150948,0.00618275717801,0.0,0.818774472697,-0.573973211255,-0.0119942704203,0.0,-0.00627199433732,0.0119479957363,-0.999908949597,0.0,0.307005334986,-0.204977157875,0.304937636393,1.0,-0.183194285714,-0.240769632653,2.644
-0.46259779166,-0.528857861219,-0.137055650134,-2.64737797226,-0.0726927421521,2.10959701117,-0.716803844419,-0.824538152502,-0.0517945361382,0.0131226136319,-0.0363684382172,-0.00526246548859,-0.0207548692927,-0.798161916836,0.574181211663,0.818692692463,0.00624166501683,0.0,0.81869254212,-0.574089430304,-0.0120247408275,0.0,-0.00626141408222,0.0120146161766,-0.999908217634,0.0,0.303892598647,-0.209062358334,0.304925008305,1.0,-0.177122857143,-0.232790040816,2.661
-0.476149951871,-0.529480390334,-0.13664441609,-2.64787053416,-0.0727121323254,2.10934378301,-0.730090701563,-0.791090759487,-0.0378334101395,0.0222865184945,-0.0248890456172,-0.0010932970088,-0.0124962313505,-0.774039977971,0.574071340163,0.818769748638,0.00624035413071,0.0,0.81876948049,-0.573979395036,-0.0120390528264,0.0,-0.0062754983905,0.0120209181399,-0.999908053596,0.0,0.300942256805,-0.212934388035,0.304917393555,1.0,-0.171051428571,-0.22481044898,2.678
-0.488646295191,-0.52983726513,-0.136365697665,-2.64817495899,-0.0727302459255,2.1091413522,-0.742176484528,-0.779152316024,-0.0209712536837,0.00679701693553,-0.0185108029104,-0.000438711691602,-0.00918832741996,-0.740897116376,0.574185651033,0.8186894103,0.00626374582681,0.0,0.818689075454,-0.574092866616,-0.0120964926382,0.0,-0.00630742006461,0.012073925241,-0.999907214086,0.0,0.298199544763,-0.216526505231,0.304899151143,1.0,-0.165337142857,-0.217300244898,2.694
-0.502760810366,-0.530051603382,-0.135859701443,-2.648351158,-0.0727285275096,2.10899667205,-0.75614404329,-0.734879996524,-0.0116661058441,0.0249198723282,-0.00591659887249,-0.00140276230439,-0.000410827007755,-0.721516064199,0.573939795838,0.818862271084,0.00619989115458,0.0,0.818861196626,-0.573847524568,-0.0120874360291,0.0,-0.00634027519666,0.0120145421737,-0.999907721586,0.0,0.295140680783,-0.220537470072,0.304897973411,1.0,-0.158551428571,-0.208381877551,2.713
-0.513002129983,-0.530077349198,-0.135602426749,-2.64840682224,-0.0727299639672,2.10891136522,-0.76605433588,-0.731868774089,-0.00146668372609,0.0133177325382,-0.00218686500525,-0.000741638129011,-0.00174371147726,-0.701715128118,0.574025896968,0.818801986173,0.00619063408311,0.0,0.818800553654,-0.573933199491,-0.0121277681056,0.0,-0.0063773529703,0.0120307792095,-0.999907290563,0.0,0.292885682053,-0.223464438756,0.304881403055,1.0,-0.153551428571,-0.20181044898,2.727
-0.524874819319,-0.530014674336,-0.135196111827,-2.64835707051,-0.0727004127845,2.10885156731,-0.777705023534,-0.680024921666,0.010220581371,0.0236997967949,0.00456920498168,0.00891811565654,-0.000848275239582,-0.676057058989,0.573936702578,0.81886485544,0.00614466110545,0.0,0.818862974464,-0.573844512461,-0.0121099740432,0.0,-0.00639047512445,0.0119822247355,-0.999907789808,0.0,0.290291689014,-0.226829241002,0.304886519875,1.0,-0.14748,-0.193830857143,2.744
-0.537674195,-0.529776616863,-0.134812494522,-2.64819404046,-0.0726646635844,2.10885162568,-0.790157633343,-0.669889726981,0.0124637367582,0.0179543415368,0.00772567205086,0.00406506571675,0.000266007366989,-0.635337320853,0.573982418027,0.818833094801,0.00610684507081,0.0,0.81883085761,-0.573890639975,-0.0120957379606,0.0,-0.00639985253922,0.0119434440573,-0.999908193802,0.0,0.287622723298,-0.230279639813,0.304883457353,1.0,-0.141051428571,-0.185381877551,2.762
-0.54738500114,-0.529465757664,-0.134455246859,-2.64795861837,-0.0726027358257,2.1088732719,-0.799631416377,-0.628148332689,0.0278179051956,0.0316775643645,0.0179199598851,0.0118037636992,0.00080239459512,-0.620636406242,0.573957086411,0.818851183977,0.00606204254016,0.0,0.818848532859,-0.573865824218,-0.0120765446658,0.0,-0.00641021727576,0.0118955420565,-0.999908698429,0.0,0.285354351719,-0.233210046092,0.304888235512,1.0,-0.135337142857,-0.177871673469,2.778
-0.558396198286,-0.5289077342,-0.133984760596,-2.64758601521,-0.0724688747754,2.10895053604,-0.810508898677,-0.603016277324,0.0298770779772,0.0232301871805,0.0259409261759,0.00958331986402,0.00820893906549,-0.600951031462,0.573813420268,0.818952211701,0.00601502885224,0.0,0.818948810026,-0.573722136537,-0.0121038632695,0.0,-0.00646165479712,0.0118715884668,-0.99990865203,0.0,0.282964669316,-0.236304153228,0.304872572494,1.0,-0.128908571429,-0.169422693878,2.796
-0.568565675753,-0.528308497717,-0.133654859141,-2.64714629763,-0.0723017164374,2.1090455378,-0.820309646888,-0.591117818016,0.0415864783734,0.0234178684522,0.0313132979958,0.00858536795996,0.00244707154657,-0.561576613357,0.573978955465,0.818835954297,0.00604859780459,0.0,0.818833002025,-0.573887513511,-0.0120989062442,0.0,-0.0064359285977,0.0118975381312,-0.999908509519,0.0,0.280736181868,-0.23918406071,0.304870185581,1.0,-0.122837142857,-0.161443102041,2.813
-0.577423971041,-0.527577859231,-0.133210523964,-2.6466438197,-0.0720763776244,2.10917378524,-0.829179241512,-0.547429339954,0.047327099078,0.0246579332378,0.0331966366807,0.00896905400455,0.00140994232647,-0.542164590174,0.573780907684,0.818974714118,0.00605264528308,0.0,0.818971575168,-0.573689047638,-0.0121318831341,0.0,-0.00646349365556,0.0119182168206,-0.999908085455,0.0,0.278841187994,-0.241662612726,0.304853934347,1.0,-0.117122857143,-0.153932897959,2.829
-0.586613730576,-0.526793525048,-0.132828226044,-2.64607760874,-0.0718786906411,2.10928860849,-0.838111539823,-0.537186050891,0.0446419722181,0.0229484731019,0.0287827371222,0.0164526302143,0.00963450137205,-0.518269715196,0.573838216522,0.818934503459,0.00606029746767,0.0,0.818931208427,-0.573745839014,-0.012171071417,0.0,-0.00649036483178,0.0119474226686,-0.999907562856,0.0,0.276840525288,-0.244247958196,0.304844067162,1.0,-0.111051428572,-0.145953306123,2.846
-0.595886245897,-0.525880444741,-0.132439929556,-2.64537509471,-0.0716280183589,2.10944760818,-0.847073950113,-0.496680274728,0.0461199959323,0.0247328886847,0.0381756598202,0.0157249274711,0.0096580118976,-0.480241470434,0.573964114425,0.818846022035,0.00609380431719,0.0,0.818843229475,-0.573871681265,-0.0121575444156,0.0,-0.00645821949433,0.0119680950439,-0.999907523775,0.0,0.274838325241,-0.246869902933,0.304852754153,1.0,-0.104622857143,-0.137504326531,2.864
-0.603381102936,-0.524980908196,-0.131976710359,-2.6447351037,-0.0713461468984,2.10959943905,-0.854620161948,-0.4603712364,0.0525844302866,0.0227298450659,0.0408053609099,0.0188693234202,0.0164633969293,-0.478644627818,0.573750876099,0.818995349644,0.00610707285517,0.0,0.818992373919,-0.573657769045,-0.0122066529743,0.0,-0.0064939472598,0.0120054550758,-0.99990684451,0.0,0.273256990142,-0.248953742533,0.304838983338,1.0,-0.0989085714286,-0.129994122449,2.88
-0.610735158413,-0.524133364126,-0.131583916792,-2.64411311884,-0.0711180534927,2.10974307174,-0.861712844759,-0.453976802392,0.050622769231,0.0262269119785,0.0401152580973,0.0167216822522,0.0059270734328,-0.434754035024,0.573819195703,0.818947471503,0.00610872024996,0.0,0.818944329591,-0.573725719798,-0.0122364363422,0.0,-0.00651639414097,0.0120244353775,-0.999906470407,0.0,0.271671646312,-0.25100584215,0.304833294693,1.0,-0.0931942857144,-0.122483918367,2.896
-0.618525912438,-0.523178727462,-0.131180445037,-2.64333632153,-0.0708251668665,2.10994117213,-0.869225899114,-0.424789393615,0.0543210848377,0.0162271269864,0.0421339662407,0.018146977517,0.0109949949686,-0.40389955554,0.573928751954,0.818870433174,0.00614396082451,0.0,0.818868226641,-0.573835974566,-0.01215930068,0.0,-0.00643138989169,0.0120098977966,-0.999907195483,0.0,0.270011185458,-0.25320123842,0.304863363458,1.0,-0.0867657142858,-0.114034938776,2.914
-0.624848978021,-0.522266764403,-0.130770690258,-2.64264428096,-0.0705463065215,2.1101128177,-0.87547406167,-0.384676282383,0.0548666621181,0.0212834942693,0.0415438155894,0.0168435784393,0.00755365840918,-0.385466322964,0.573857149902,0.818920483735,0.0061611465905,0.0,0.818918479032,-0.573764268649,-0.0121587673042,0.0,-0.00642214148093,0.0120231038285,-0.999907096221,0.0,0.268684805526,-0.254967352041,0.304868153268,1.0,-0.0810514285715,-0.106524734694,2.93
-0.631161766387,-0.521387271582,-0.130312161941,-2.64197689028,-0.0702655789404,2.11028625872,-0.881682494032,-0.364308497483,0.0569918317967,0.0252467942445,0.0379076045938,0.0130763092459,0.0122208431605,-0.353797646088,0.57377425774,0.818978585001,0.00615835734961,0.0,0.818976598806,-0.5736815096,-0.0121491996788,0.0,-0.00641712217036,0.0120146799041,-0.999907229702,0.0,0.267355662997,-0.256707400519,0.304874729521,1.0,-0.0749800000001,-0.0985451428572,2.947
-0.637150838751,-0.520545588354,-0.129891573143,-2.6413049694,-0.0699975137561,2.11046204573,-0.887367038068,-0.33989627059,0.0568667646635,0.0327281033131,0.0367002040154,0.0222677490961,0.0151053963955,-0.323558517247,0.573876497263,0.818906962881,0.00615621105687,0.0,0.818905281516,-0.573784361149,-0.012099326734,0.0,-0.00637600803823,0.0119851037444,-0.999907847659,0.0,0.266092100133,-0.258366170223,0.304896231634,1.0,-0.0689085714286,-0.0905655510205,2.964
-0.642270935267,-0.519709843409,-0.129552831101,-2.64067752152,-0.0697023849764,2.11063219795,-0.892377795982,-0.308883354882,0.0579727024304,0.0228716162656,0.0395410077545,0.01798475605,0.0166997781318,-0.29974345705,0.57388599723,0.818899850619,0.00621640900705,0.0,0.818898927492,-0.573793543166,-0.012093935467,0.0,-0.00633690860252,0.012031382526,-0.999907540438,0.0,0.265017977149,-0.259791618699,0.30489698514,1.0,-0.0631942857144,-0.0830553469389,2.98
-0.647325195199,-0.518904633594,-0.129183442034,-2.64009969834,-0.0694274057466,2.11079892488,-0.897174724485,-0.287918834278,0.0438726268723,0.0247417731872,0.0355425378651,0.0120189620959,0.00896436237956,-0.272329852175,0.573983620945,0.818831180017,0.00624887342922,0.0,0.818830533029,-0.573890721149,-0.012113845813,0.0,-0.00633314611561,0.012070149832,-0.999907097056,0.0,0.263947280743,-0.261177910372,0.304886631578,1.0,-0.0571228571429,-0.0750757551021,2.997
-0.652557055871,-0.5180453032,-0.128615910178,-2.63947149038,-0.0690877370678,2.11098452272,-0.902330822423,-0.248467826468,0.0428615215208,0.0256744253513,0.0303058467373,0.0146525659288,0.00812415681549,-0.240115329297,0.573822000987,0.818944550734,0.00623545567977,0.0,0.818943716923,-0.573729173808,-0.0121148889933,0.0,-0.00634408163158,0.0120585092586,-0.999907168182,0.0,0.262885455674,-0.26257169135,0.30488546062,1.0,-0.0499800000001,-0.0656880000001,3.017
-0.655663553234,-0.517522814097,-0.128235049318,-2.63908757954,-0.0688832573054,2.11110505188,-0.905244871661,-0.233820062726,0.0423066586492,0.0327086815939,0.0317115438193,0.0156402608768,0.00843225577522,-0.217005659377,0.573817240987,0.818948121664,0.00620442350471,0.0,0.818946953672,-0.573724686992,-0.0121085716654,0.0,-0.00635678347599,0.0120294325177,-0.999907437745,0.0,0.262265363848,-0.263391513966,0.304887004088,1.0,-0.0453371428572,-0.0595859591838,3.03
-0.659545318334,-0.516819336054,-0.127781408927,-2.63858261642,-0.0686114219052,2.11126349308,-0.908951428514,-0.203550002193,0.0373727246148,0.0228142698918,0.0252180301741,0.0192458534875,0.00421252257117,-0.190409226884,0.573781846729,0.818973036057,0.00618914193239,0.0,0.818971630679,-0.573689296316,-0.0121163664856,0.0,-0.00637245565617,0.0120211142423,-0.999907438027,0.0,0.261489431134,-0.264423856759,0.304881720967,1.0,-0.0389085714287,-0.0511369795919,3.048
-0.662557798488,-0.516264537209,-0.12742587569,-2.6381945512,-0.0683624927876,2.11137101636,-0.911728855493,-0.176501715878,0.026823369991,0.0232361459227,0.0248026772767,0.0182990529047,0.0124141287905,-0.165891842868,0.573848976244,0.818925843421,0.00620985847733,0.0,0.818924498079,-0.573755921794,-0.0121472447354,0.0,-0.00638487249387,0.0120563213138,-0.999906934929,0.0,0.260885323552,-0.265215554173,0.304871271864,1.0,-0.0331942857144,-0.0436267755103,3.064
-0.665326057486,-0.515812401818,-0.12702773282,-2.6378823163,-0.0681119652875,2.11146802445,-0.914294295743,-0.149204835627,0.0203786115292,0.0208980167054,0.0149650947467,0.0168456863981,0.00740625252151,-0.135244268401,0.573855945518,0.818920905015,0.00621707520866,0.0,0.818919547109,-0.573762655333,-0.0121629605089,0.0,-0.00639350014214,0.0120713040273,-0.999906699035,0.0,0.260337059127,-0.265913459298,0.304864261306,1.0,-0.0271228571429,-0.0356471836736,3.081
-0.667663100656,-0.515421470678,-0.126619400738,-2.63759976649,-0.0678655045017,2.11153586125,-0.916407253035,-0.132463945281,0.0251806241603,0.0254376225501,0.0181023149372,0.0148293341658,0.00203015059679,-0.10918491084,0.573869580269,0.818911358495,0.00621600123401,0.0,0.818909884569,-0.573776099576,-0.0121793026105,0.0,-0.00640729966365,0.0120799087058,-0.999906506788,0.0,0.259893985275,-0.266485521857,0.30486401157,1.0,-0.0210514285715,-0.0276675918368,3.098
-0.669578015285,-0.515109752972,-0.126272725012,-2.63735901802,-0.0676239014412,2.1116358464,-0.918040953253,-0.109356199681,0.0164926746085,0.0211811234804,0.0110038945215,0.0152196263985,0.00372058057131,-0.0909021466161,0.573969282911,0.818841345624,0.00623376862179,0.0,0.818840427114,-0.573876312283,-0.0121276554414,0.0,-0.00635333587405,0.012065595758,-0.999907023939,0.0,0.259545547319,-0.266956095433,0.304875211624,1.0,-0.0197,-0.0258914285714,3.115
-0.67114931252,-0.514861216391,-0.126039517771,-2.63714344011,-0.0674731367805,2.11165817207,-0.91961613418,-0.0944625553555,0.0118214623736,0.0146122823467,0.0106536196848,0.00346703302137,0.00337902924747,-0.0890753338843,0.573875909125,0.81890673426,0.00624086612577,0.0,0.818905928054,-0.573782964332,-0.0121217878735,0.0,-0.00634583323223,0.012067316636,-0.999907050815,0.0,0.259238131446,-0.267353875732,0.304888886096,1.0,-0.01938,-0.0254708571429,3.131
-0.672726883491,-0.514576501875,-0.125853354882,-2.63690684672,-0.0673625691584,2.11170532017,-0.921100966539,-0.0874570522336,0.0170835102811,0.00484900518499,0.0127635957263,0.00187018845135,9.05556290458e-06,-0.0860092780313,0.573879015119,0.818904629152,0.00623147338038,0.0,0.818903781945,-0.573786266656,-0.0121104506298,0.0,-0.00634189233626,0.0120531426587,-0.999907246775,0.0,0.258921963213,-0.267775451429,0.304899690003,1.0,-0.01904,-0.025024,3.148
-0.674284223234,-0.514258697663,-0.125706808921,-2.63665202282,-0.0673123890468,2.11181885604,-0.922673033612,-0.0865042479765,0.0196685170409,0.00592410609596,0.0113794341801,0.000370278405431,0.00171612822106,-0.0799556188051,0.573797393582,0.818962200291,0.0061816271284,0.0,0.818961104859,-0.57370564385,-0.0120536236752,0.0,-0.00632514957355,0.0119790806654,-0.999908242845,0.0,0.258609730531,-0.268219669089,0.304911204497,1.0,-0.01868,-0.0245508571429,3.166
-0.675610955393,-0.51400770599,-0.125637957205,-2.6364339034,-0.0672704249984,2.1118505578,-0.923943601774,-0.0816849071919,0.0154123092239,0.00225003507418,0.0103022869717,0.00128745500493,-0.000396921822,-0.0768702678903,0.573823591744,0.818943912254,0.0061726041451,0.0,0.818942748773,-0.57373196921,-0.0120477649151,0.0,-0.00632514518084,0.0119685315731,-0.999908369197,0.0,0.258321091967,-0.268601125765,0.304921883286,1.0,-0.01836,-0.0241302857143,3.182
-0.676899198155,-0.513742105192,-0.125587299198,-2.63622553907,-0.0672202418926,2.11191302608,-0.925294173141,-0.080908090845,0.018446135998,0.00341870763178,0.0123443484396,0.00153613221805,0.00217228843755,-0.080341513666,0.573768778602,0.818982269827,0.00617877910281,0.0,0.818981263566,-0.573677286551,-0.0120336081057,0.0,-0.00631080795337,0.0119650433061,-0.999908501535,0.0,0.258041172172,-0.268977055184,0.304924910567,1.0,-0.01804,-0.0237097142857,3.198
-0.678321767768,-0.513438915739,-0.125557410646,-2.6359893178,-0.0671832231211,2.11198497793,-0.926718713684,-0.0794176927441,0.0149577959227,0.000685386918472,0.0137751339336,0.00107349696389,0.00347035424719,-0.075353544788,0.573773989779,0.818978600469,0.00618122384851,0.0,0.818977706043,-0.573682637905,-0.0120206019444,0.0,-0.00629867622334,0.011959623525,-0.999908642868,0.0,0.257725472343,-0.269401107829,0.30492698135,1.0,-0.01768,-0.0232365714286,3.216
-0.679570468167,-0.513162644173,-0.125562706494,-2.63578475011,-0.0671430675606,2.11202037434,-0.927965871909,-0.0817445390354,0.015866212194,-0.00133734896806,0.0160922632933,0.00040594930398,0.00072818893449,-0.0796063698687,0.573806889746,0.818955329586,0.00621034010814,0.0,0.818954617675,-0.573715031216,-0.0120475742943,0.0,-0.00630358107132,0.0119991988654,-0.999908137827,0.0,0.257436259227,-0.269774079756,0.304920655618,1.0,-0.01736,-0.022816,3.232
-0.681034934928,-0.512839888364,-0.125559027019,-2.63555613758,-0.0671077333133,2.11208287464,-0.929466542315,-0.0794899510933,0.01484098277,-0.00438451353634,0.0145489938086,0.00443386650984,0.000283526460401,-0.07842764414,0.573801733476,0.818958799076,0.00622920353323,0.0,0.818958173445,-0.573709489765,-0.0120697308214,0.0,-0.00631098058388,0.0120273211787,-0.99990775328,0.0,0.257098302194,-0.270210250872,0.304910554731,1.0,-0.01698,-0.0223165714286,3.251
-0.682103719381,-0.512613538352,-0.125559386356,-2.63539002131,-0.0670837509149,2.1121178273,-0.930465683328,-0.0722013764615,0.0209637663919,0.000511048014493,0.0102019332796,8.07568158638e-05,0.000925413553162,-0.0688777871464,0.573877965584,0.818905278038,0.00624284553591,0.0,0.818904705589,-0.57378540754,-0.0120886789848,0.0,-0.00631755098759,0.012049954087,-0.999907439294,0.0,0.256848746186,-0.270527561871,0.304905254516,1.0,-0.0167,-0.0219485714286,3.265
-0.683375875767,-0.512359299031,-0.125551960042,-2.63518827334,-0.0670526809618,2.11215532147,-0.931769425198,-0.0753807459019,0.0140245321904,0.00123761496432,0.013357254775,0.00304257927456,0.00198391083332,-0.0773310817498,0.573870551276,0.818910361339,0.00625758497154,0.0,0.818909923061,-0.573777818569,-0.0120954425749,0.0,-0.00631474137345,0.012065849031,-0.999907265364,0.0,0.256553816689,-0.270903775824,0.304906205763,1.0,-0.01636,-0.0215017142857,3.282
-0.684516067829,-0.512115250795,-0.125548416297,-2.63498266171,-0.0670238615765,2.11221032344,-0.932927843968,-0.0698657310623,0.00880945470157,0.000136121881335,0.0184262331012,0.00112614457447,0.00459134231049,-0.0671811771642,0.5738759853,0.818906484549,0.00626657492685,0.0,0.818906303311,-0.573783479153,-0.0120719654541,0.0,-0.00629027473495,0.0120597809654,-0.999907492785,0.0,0.256296813092,-0.271250661951,0.304914063535,1.0,-0.01604,-0.0210811428571,3.298
-0.685705076836,-0.511874120022,-0.125500294328,-2.63478712594,-0.0669928773527,2.11227960909,-0.934111996448,-0.0670176297018,0.011307314772,0.000400591817339,0.0091878965497,0.000651752702689,0.00801130364854,-0.0625145234476,0.57386901365,0.818911455712,0.00625537991835,0.0,0.818911323724,-0.573776932443,-0.0120425318772,0.0,-0.00627269537802,0.012033669025,-0.999907917812,0.0,0.256036491844,-0.271599593895,0.304920676952,1.0,-0.0157,-0.0206342857143,3.315
-0.686868285648,-0.511630264752,-0.125431800339,-2.63459659238,-0.0669568024901,2.11230680813,-0.935316344391,-0.0707399147803,0.0139109859487,0.0037145183423,0.0124637711751,0.00129583210187,0.000997262143333,-0.0676631983005,0.57381185371,0.818951579351,0.00624612847985,0.0,0.818951204928,-0.573719591915,-0.0120623671309,0.0,-0.00629508953004,0.0120370354385,-0.999907736557,0.0,0.25578026025,-0.27192933448,0.304920884547,1.0,-0.01536,-0.0201874285714,3.332
-0.687904749349,-0.511388393898,-0.125392698134,-2.63441120847,-0.066932047501,2.11235839402,-0.936368783328,-0.0624768735687,0.0193445913576,0.000486451420114,0.00817436325028,-9.89881973141e-05,0.00375384738077,-0.0674436081903,0.573791111197,0.818966181526,0.00623707695252,0.0,0.818965695193,-0.573698905178,-0.0120624705309,0.0,-0.00630067251879,0.0120295220377,-0.999907791812,0.0,0.255552984587,-0.272236028486,0.304920850811,1.0,-0.01504,-0.0197668571429,3.348
-0.68913346016,-0.511109709772,-0.125365702315,-2.6341949127,-0.0668995107238,2.11241797983,-0.937606756916,-0.0644693351359,0.0158311326163,0.00175653625972,0.00872396998819,0.00229404464924,0.00059404148163,-0.0619226575242,0.573789389843,0.818967375702,0.00623863291148,0.0,0.818966933015,-0.573697222004,-0.0120584822297,0.0,-0.00629653840403,0.0120284948085,-0.999907830211,0.0,0.25527813194,-0.272602157118,0.304921603867,1.0,-0.01466,-0.0192674285714,3.367
-0.690168908634,-0.51087783952,-0.12535317034,-2.63401953994,-0.0668613622585,2.11246047789,-0.938687686962,-0.0662696831307,0.0168281576506,0.00207682860249,0.0126960857437,0.000841418555078,0.00510386102015,-0.060269657785,0.573768620717,0.818981789359,0.00625663488235,0.0,0.818981522828,-0.573676266492,-0.0120645526669,0.0,-0.00629148712147,0.0120465620406,-0.999907644502,0.0,0.255042149339,-0.272908697295,0.304919297622,1.0,-0.01434,-0.0188468571429,3.383
-0.69126038214,-0.510652727389,-0.125349781671,-2.6338409464,-0.0668457087755,2.1125109454,-0.939756775524,-0.0613226770762,0.0106887900371,0.000355188374363,0.0101937383483,0.00208660514346,0.00123848702571,-0.0554562181251,0.573800431455,0.818959494138,0.00625769321477,0.0,0.818959301252,-0.57370818036,-0.0120554378645,0.0,-0.00628294647383,0.012042443365,-0.999907747815,0.0,0.254788366987,-0.273235588609,0.30492139294,1.0,-0.014,-0.0184,3.4
-0.692380116883,-0.51041575312,-0.125350612677,-2.63364357235,-0.0668087850816,2.1125524094,-0.940870063598,-0.0615182168287,0.0156120682355,-0.000301590532255,0.00781066568013,0.00114239219975,0.00025173880984,-0.0659319413669,0.573832210249,0.818937072143,0.00627799747017,0.0,0.818937190131,-0.573739952127,-0.0120454495743,0.0,-0.00626264781437,0.0120535846294,-0.999907740914,0.0,0.254529957272,-0.273571739755,0.304926750525,1.0,-0.01364,-0.0179268571429,3.418
-0.693330064673,-0.510212603048,-0.125333275177,-2.63346571805,-0.0667845993966,2.11260888223,-0.941858027631,-0.0570653339929,0.013094309576,0.00339185752498,0.0099737097128,-0.000189016990273,0.00182484533316,-0.061783237236,0.573808108805,0.81895397621,0.00627582837123,0.0,0.818954291888,-0.573716300777,-0.0120092015743,0.0,-0.00623455837747,0.012030825454,-0.999908190546,0.0,0.254319347164,-0.273859487024,0.304937462955,1.0,-0.01332,-0.0175062857143,3.434
-0.694317397053,-0.510000609306,-0.12529928778,-2.63327274982,-0.0667574995012,2.11266377537,-0.942814260775,-0.0594766810115,0.0144805938975,0.00468085471923,0.0147851808536,0.000545199008093,0.000143495865016,-0.0539207792918,0.5738413237,0.818930774028,0.00626653535609,0.0,0.818931137359,-0.573749874005,-0.0119842081563,0.0,-0.00621893272426,0.0120091260113,-0.999908548702,0.0,0.254089781664,-0.274173344935,0.304947180434,1.0,-0.01296,-0.0170331428571,3.452
-0.695286788784,-0.509772329742,-0.125267326198,-2.63309342113,-0.0667302055224,2.11269148932,-0.943743646123,-0.0629991529854,0.0143002680124,0.0043142737046,0.0110654002917,0.00576153386163,0.000240886541276,-0.056098014913,0.573861617008,0.8189165691,0.0062645255406,0.0,0.818916903366,-0.573770165931,-0.0119853648524,0.0,-0.00622073577384,0.0120082979083,-0.999908547432,0.0,0.253887669104,-0.274441108799,0.304951936191,1.0,-0.01264,-0.0166125714286,3.468
-0.696178861821,-0.509557861543,-0.125236347773,-2.63293436984,-0.0667107117296,2.11273847721,-0.944699978738,-0.0524814208877,0.0161936085473,-3.03526801024e-05,0.0133435340344,0.000464148208264,0.000610361853443,-0.0588255874327,0.573803478815,0.818957361479,0.00625737009602,0.0,0.818957576937,-0.573712021343,-0.0119896057222,0.0,-0.00622916735208,0.0120044292473,-0.999908541394,0.0,0.253688944406,-0.274704650153,0.304949381163,1.0,-0.01232,-0.016192,3.484
-0.697165722147,-0.509322094501,-0.125215079622,-2.63274511995,-0.0666838597913,2.11278769742,-0.94568855166,-0.0478670068648,0.0133596010962,0.00383473240063,0.0121493210925,0.00315379919292,-2.4024939111e-05,-0.0548296679585,0.573808101332,0.818954124477,0.00625713588663,0.0,0.818954386689,-0.573716739875,-0.0119817282213,0.0,-0.00622278195116,0.0119997526362,-0.999908637287,0.0,0.253468801931,-0.275001438351,0.30495259164,1.0,-0.01196,-0.0157188571429,3.502
-0.698086095293,-0.509104177014,-0.125200844146,-2.63257079461,-0.0666609529496,2.11283283218,-0.946574133758,-0.0541433603461,0.0146232686304,-2.20170054208e-05,0.0083092105064,-0.000184722602741,0.000601620089385,-0.0457080721349,0.57384517777,0.818928140345,0.00625777933386,0.0,0.818928452541,-0.573753885874,-0.0119755986787,0.0,-0.00621684923932,0.0119970440792,-0.999908706692,0.0,0.253261146265,-0.275278805343,0.304955113939,1.0,-0.01162,-0.015272,3.519
-0.698868761086,-0.508908663043,-0.125185977543,-2.63242429847,-0.0666415057178,2.11286441832,-0.947343385962,-0.0489111479366,0.0189726372508,-0.000200903297878,0.0124590916052,0.000742723983551,0.000214345738279,-0.0494462028828,0.573861451597,0.8189167236,0.00625947920825,0.0,0.81891697469,-0.5737699884,-0.0119889898102,0.0,-0.00622660282334,0.0120062440294,-0.999908535578,0.0,0.25308334236,-0.275512319021,0.304952154609,1.0,-0.01132,-0.0148777142857,3.534
-0.699778297326,-0.508695008091,-0.125165446979,-2.63225726765,-0.0666150553166,2.11289582585,-0.948267751559,-0.0484635865708,0.00897925165655,0.00267314270342,0.00679658692076,0.000357217359292,0.00235806508697,-0.0534530843787,0.573854569429,0.818921513274,0.00626379623921,0.0,0.81892175397,-0.573762960801,-0.0119988578174,0.0,-0.00623230851658,0.0120153897226,-0.999908390174,0.0,0.252876367404,-0.275781089795,0.304951897498,1.0,-0.01096,-0.0144045714286,3.552
-0.700605528984,-0.508479510811,-0.125144711232,-2.63209422425,-0.0665960762005,2.11294993859,-0.949072135572,-0.0491980622524,0.0145012077304,-0.000430632865348,0.0113726081983,0.000696751958296,0.00127223473774,-0.0483554329073,0.573874997793,0.818907245331,0.00625758370312,0.0,0.81890744494,-0.573783488129,-0.0119938431407,0.0,-0.00623146681789,0.0120075797708,-0.999908489238,0.0,0.252693700617,-0.276031853693,0.304951069085,1.0,-0.01062,-0.0139577142857,3.569
-0.701351641398,-0.508294322522,-0.125137592538,-2.63193908587,-0.0665719950352,2.11298653447,-0.949792543087,-0.0422260063629,0.0141435682697,0.00179886805387,0.00774254463228,-7.72571769164e-06,-0.00146174639304,-0.0424566891314,0.573909170355,0.818883255762,0.00626294790172,0.0,0.818883591703,-0.573817758667,-0.0119829036165,0.0,-0.006218928133,0.0120059546972,-0.999908586814,0.0,0.252526816906,-0.276260217467,0.304956077433,1.0,-0.0103,-0.0135371428572,3.585
