nelsonifechukwu/NELSON_IML_WORK/CNN-GradCAM/train2dof/data_sample_2022-02-22-11-46-06/robot_state.csv
position_joint1,position_joint2,position_joint3,position_joint4,position_joint5,position_joint6,position_joint7,velocity_joint1,velocity_joint2,velocity_joint3,velocity_joint4,velocity_joint5,velocity_joint6,velocity_joint7,ee_T_00,ee_T_10,ee_T_20,ee_T_30,ee_T_01,ee_T_11,ee_T_21,ee_T_31,ee_T_02,ee_T_12,ee_T_22,ee_T_32,ee_T_03,ee_T_13,ee_T_23,ee_T_33,v_x,v_y,time
0.465070843159,0.547817141837,-0.124009464656,-1.35584900494,0.0795733984414,1.89409326827,0.159162082126,-0.000386790599699,3.73606973663e-05,-0.000932071778398,0.000693171480878,-0.000163101277131,0.000149023462497,0.000565289225769,0.573845414009,0.818949612324,0.00192878089169,0.0,0.818905590388,-0.573786343143,-0.0119838789457,0.0,-0.00870765253142,0.00845654624458,-0.999926329093,0.0,0.661672428106,0.260885491226,0.303181488712,1.0,0.0,0.0,0.0
0.465069577343,0.547816823946,-0.124009819671,-1.35584970173,0.0795709116867,1.89409314768,0.159158604687,0.000121240713005,0.000997843426302,-0.000314807575485,0.00130624416483,6.34339711846e-05,0.000168311208441,-0.000744356778547,0.573843228612,0.818951147908,0.00192697083683,0.0,0.818907125911,-0.57378418858,-0.0119821103757,0.0,-0.00870726529033,0.00845402581946,-0.999926353777,0.0,0.661672803985,0.260883958303,0.303181378943,1.0,-0.00022,-0.000289142857143,0.012
0.465064590806,0.547814817208,-0.124007318015,-1.35585761519,0.0795733983867,1.89409638263,0.159158441569,-0.00277100728641,-0.000703522394441,0.000572361076899,-0.000568602020497,-0.000262897686765,-9.08249356341e-06,-0.000621412359189,0.573846541053,0.818948827173,0.0019268354772,0.0,0.818904763576,-0.573787462513,-0.0119867826049,0.0,-0.00871113523305,0.00845663130343,-0.999926298039,0.0,0.66167227425,0.260881815718,0.303179237006,1.0,-0.00056,-0.000736,0.029
0.465066588033,0.547790001424,-0.124004534175,-1.35587798942,0.0795716237575,1.8940985388,0.159157611033,-0.0003089244793,-0.00215216122203,0.000849217241732,-0.00488792430308,0.000261478309207,-7.96031207723e-05,-0.00142292036349,0.573842894038,0.818951367266,0.00193336914117,0.0,0.818907372977,-0.573783772687,-0.0119851402187,0.0,-0.00870607874818,0.00846100069343,-0.999926305115,0.0,0.661667630539,0.260882516281,0.303187211521,1.0,-0.0009,-0.00118285714286,0.046
0.465069433534,0.547705966857,-0.124009531055,-1.3559703695,0.0795716237575,1.89411663685,0.159159552078,-0.000251321459734,-0.00106749493481,-0.000175680829483,-0.00727974027155,-5.14314450599e-05,0.000921754654269,-0.000375308390714,0.573850666968,0.818945893899,0.00194468182669,0.0,0.818902001888,-0.573791452536,-0.0119844566673,0.0,-0.00869894724992,0.00846995536556,-0.99992629137,0.0,0.661652691034,0.260872876685,0.303204511103,1.0,-0.00122,-0.00160342857143,0.062
0.465068383598,0.547567079753,-0.124009827028,-1.35614430874,0.0795692332741,1.89414307656,0.159156428827,-0.000797221518319,-0.0111808673447,-0.00168254463298,-0.00918420349237,-0.000197751023256,0.000829026205412,0.0017229167088,0.573857977487,0.818940773354,0.00194378842156,0.0,0.818896746385,-0.573798645924,-0.011999149829,0.0,-0.00871141759806,0.00847773308913,-0.999926116893,0.0,0.661622231564,0.26085459406,0.303222411736,1.0,-0.00156,-0.00205028571429,0.079
0.465051803932,0.547386599593,-0.124010475186,-1.3563784899,0.0795654684629,1.89424291613,0.159143688147,0.000184678314415,-0.0115200329414,0.000272948984594,-0.0104902566067,0.000300906817719,0.00921683014776,-0.000939655501725,0.573873741021,0.818929619421,0.00198864365639,0.0,0.818886107745,-0.573814148893,-0.0119838213025,0.0,-0.00867296133267,0.00850583678975,-0.999926212519,0.0,0.661597906737,0.260823999787,0.303247481402,1.0,-0.00194,-0.00254971428571,0.098
0.465036412238,0.547224561367,-0.124006703299,-1.35657365335,0.0795636089765,1.89435924548,0.15913620141,0.000465761283868,-0.00904566759495,0.000416129732688,-0.0132268642014,0.000219040951144,0.00822310427197,-0.00179758965796,0.573888263536,0.818919253868,0.00206482959826,0.0,0.818876692983,-0.573828308902,-0.0119490791572,0.0,-0.00860063890024,0.00854844170538,-0.999926473874,0.0,0.661583895557,0.260802574143,0.303279342109,1.0,-0.00224,-0.002944,0.113
0.465001609826,0.546984980759,-0.124004979247,-1.3568898807,0.079560390117,1.89451639233,0.159116122416,-0.00429805250728,-0.00533036916752,0.000947995833319,-0.0176531877357,-3.48934217719e-05,0.0119455679336,0.000202032244916,0.573916187581,0.818899487277,0.00214155804842,0.0,0.818857836339,-0.573855824557,-0.0119198736943,0.0,-0.00853239717201,0.00859480553362,-0.999926661069,0.0,0.661557903034,0.260756318244,0.303312107289,1.0,-0.00264,-0.00346971428571,0.133
0.464972937078,0.546804664578,-0.124007493807,-1.35716306415,0.0795569964965,1.89461077112,0.159087065845,-0.000939267456177,-0.00993486909056,-2.96502521453e-06,-0.0178869550711,-0.000933246847083,0.00479298318978,-3.57740541476e-05,0.57393197579,0.818888400803,0.00214967380865,0.0,0.818846741105,-0.57387146235,-0.0119292155031,0.0,-0.00853522408352,0.00860697732695,-0.999926532247,0.0,0.66152705926,0.260711691369,0.30331806272,1.0,-0.0029,-0.00381142857143,0.146
0.464924632358,0.546462881857,-0.124010809486,-1.35767357815,0.0795440950113,1.89479471033,0.158951955378,-0.00502989547875,-0.0211828336832,-0.00105334093033,-0.0284408835844,-5.87961863053e-05,0.00345659308299,-0.00336933852421,0.573888312148,0.818918940184,0.00217289862635,0.0,0.818877424879,-0.573827549722,-0.0119353720078,0.0,-0.00852739727962,0.00862907426452,-0.999926408579,0.0,0.661469696264,0.260632104407,0.303333181729,1.0,-0.00332,-0.00436342857143,0.167
0.464892394514,0.546241626537,-0.124007979032,-1.35803951688,0.0795351504262,1.89492501923,0.158944176594,-0.00333696514658,-0.0177971990364,0.00668589255082,-0.0302204931462,0.000257684675363,0.0157445525124,-0.00362551470936,0.573924461344,0.8188936196,0.00216779869404,0.0,0.818851897396,-0.573863573196,-0.0119547643298,0.0,-0.00854582406257,0.00863640402982,-0.999926187984,0.0,0.661425778589,0.260579279499,0.303326891249,1.0,-0.00358,-0.00470514285714,0.18
0.464826253889,0.545870579104,-0.124008049638,-1.3586804636,0.0795122093518,1.89513302422,0.158870685595,-0.00339993207135,-0.0243307230342,0.000356176700648,-0.0330190367233,-0.000207721744825,0.00992461903066,-0.00197853781443,0.573948133891,0.818877144348,0.00212343350979,0.0,0.818834649473,-0.573887231084,-0.0120004050537,0.0,-0.00860841178267,0.00862651710735,-0.999925736467,0.0,0.661348406084,0.260474674668,0.303302572642,1.0,-0.00398,-0.00523085714286,0.2
0.464778401438,0.545590196853,-0.124010922546,-1.35918016628,0.0794743127573,1.89531352045,0.158784779932,-0.00335996580935,-0.0207787278976,0.000451222181688,-0.0384577518373,-0.00281201565758,0.0165214336722,-0.00710594734643,0.573936899724,0.818885118327,0.00208447066121,0.0,0.818842180484,-0.573876227179,-0.0120127532807,0.0,-0.0086410030991,0.00860158048355,-0.999925670177,0.0,0.661292254351,0.260391835751,0.30327894221,1.0,-0.00426,-0.00559885714286,0.214
0.464705936204,0.545116328155,-0.124010925871,-1.35998505518,0.0793760679377,1.89556841548,0.158700621976,-0.0041324454827,-0.0241226299699,0.00140375432496,-0.0409134833496,-0.000994645556974,0.0108305027908,-0.00291627208088,0.573945946527,0.81887900717,0.00199223055112,0.0,0.818835245166,-0.573886038784,-0.0120167659668,0.0,-0.00869713153172,0.00852844690781,-0.999925809996,0.0,0.66119497042,0.260255974326,0.303253255731,1.0,-0.00466,-0.00612457142857,0.234
0.464660204737,0.544787769475,-0.124010953204,-1.360540576,0.0793657191667,1.89575747714,0.15863836293,-0.00617472283306,-0.0231882728668,0.00015588211203,-0.0461015971627,-0.0017395389754,0.0135665854264,-0.0122061332804,0.57396062961,0.818868763975,0.0019722941978,0.0,0.818824497366,-0.573900566505,-0.0120552552944,0.0,-0.00873993951579,0.00853436903709,-0.999925386218,0.0,0.661126096942,0.260175243539,0.303237812294,1.0,-0.00492,-0.00646628571429,0.247
0.464574929069,0.544213567936,-0.124017877644,-1.36147573858,0.0793346833174,1.89610407869,0.158502899819,-0.00509327131546,-0.031955121815,0.000849999554667,-0.0465950665506,-0.000527360863554,0.0181412504764,-0.00857040679404,0.573968350447,0.818863354319,0.00197143095666,0.0,0.818818866362,-0.573908085061,-0.0120797720519,0.0,-0.00876043116213,0.0085478162714,-0.999925092036,0.0,0.661020748312,0.260029883544,0.303229356989,1.0,-0.00534,-0.00701828571429,0.268
0.464523915488,0.543819920766,-0.124014801683,-1.36210757542,0.0793076395921,1.89632764555,0.158434487875,-0.0046757039018,-0.0289037257273,0.000977931133902,-0.0496970356194,-0.000749383989949,0.0188368775571,-0.00815809563592,0.573979923866,0.818855256156,0.00196554462683,0.0,0.818810551963,-0.573919546882,-0.0120987851754,0.0,-0.00877925838032,0.00855403316632,-0.999924873747,0.0,0.66094436051,0.259938903758,0.303226440589,1.0,-0.0056,-0.00736,0.281
0.464439659592,0.543193468536,-0.124023279261,-1.36309855178,0.0792580942684,1.89666527932,0.158306285046,-0.00528511126224,-0.0297140744856,0.000363801593648,-0.0528673193463,-0.0026812348263,0.0182709679058,-0.0011000280592,0.573991688865,0.818847054068,0.00194680746056,0.0,0.818802000479,-0.573931291194,-0.0121203919689,0.0,-0.00880758311161,0.00855121873666,-0.99992464873,0.0,0.660826609111,0.259783787447,0.303227496001,1.0,-0.006,-0.00788571428571,0.301
0.464372684989,0.542753708722,-0.124020509338,-1.36379706444,0.0792122637138,1.89692241324,0.158226147793,-0.00535956411885,-0.0384466152759,-8.610224073e-05,-0.0599839550064,-0.00218288440643,0.0136494744819,-0.00255298268596,0.574005628684,0.818837290228,0.00194352051294,0.0,0.818792205154,-0.573945254919,-0.012120892531,0.0,-0.00880973403365,0.00854896457806,-0.999924649057,0.0,0.660747853066,0.25967402268,0.303228261941,1.0,-0.00626,-0.00822742857143,0.314
0.464277883432,0.542023059975,-0.124031920885,-1.36493308516,0.079152413585,1.89734684998,0.158070153403,-0.00946236352569,-0.0353687004871,-0.00134437198136,-0.0501728764423,-0.0014273035199,0.0227487764503,-0.00336604692075,0.574010746497,0.818833660091,0.00196135375895,0.0,0.818788782262,-0.573950268264,-0.012114722584,0.0,-0.00879439243766,0.00856008021801,-0.999924689008,0.0,0.660620405445,0.259498629101,0.303241430694,1.0,-0.00668,-0.00877942857143,0.335
0.464208407883,0.541526776785,-0.124025867264,-1.36568290767,0.079106908234,1.8976212354,0.157961384316,-0.00530376641077,-0.0337710082337,-0.000754332350194,-0.0541184215651,0.000230470282578,0.0210168626562,-0.00819820644021,0.574003779053,0.818838497257,0.00198089501752,0.0,0.818793837152,-0.573943179067,-0.0121089366353,0.0,-0.00877851130764,0.00857268507213,-0.999924720571,0.0,0.660534394884,0.259385008529,0.303259010231,1.0,-0.00694,-0.00912114285714,0.348
0.464105647404,0.5407211944,-0.124029355251,-1.36691291152,0.079033026977,1.89807544015,0.15780363748,-0.00532884107714,-0.0385139707628,-0.000866982720666,-0.0614400577664,-0.00563712094984,0.0208499453947,-0.00373356182652,0.574009672859,0.818834305359,0.00200567515823,0.0,0.818789974717,-0.573948969281,-0.0120956548239,0.0,-0.00875335045494,0.00858541487642,-0.999924831928,0.0,0.660393807148,0.259198550186,0.303282508897,1.0,-0.00734,-0.00964685714286,0.368
0.464021408137,0.540123515548,-0.12403278307,-1.36782557156,0.078978614535,1.89841737598,0.157693283988,-0.00792829839689,-0.0465188191109,-0.00124768610202,-0.0712837444913,-0.00640094355638,0.0322834571549,-0.0022069391516,0.574026734938,0.818822289603,0.00202793653048,0.0,0.818778262849,-0.573965945291,-0.0120829149368,0.0,-0.00872996164477,0.00859651206882,-0.999924941058,0.0,0.660292539732,0.259054841235,0.303300262598,1.0,-0.00762,-0.0100148571429,0.382
0.463896490472,0.539246798397,-0.12403369072,-1.36917532583,0.0789031210518,1.89894143014,0.157525384684,-0.00205102661929,-0.045156143181,-0.00055486873311,-0.072411565456,-0.00352187980689,0.0287218691755,-0.00635540949421,0.574046848354,0.818808075546,0.00207321427922,0.0,0.818764618364,-0.57398583956,-0.012062445893,0.0,-0.008686999721,0.00862204954757,-0.999925095343,0.0,0.660144832669,0.258846466868,0.303322751556,1.0,-0.00802,-0.0105405714286,0.402
0.463810735026,0.538664536563,-0.124033300973,-1.37007876076,0.0788492511988,1.89929047143,0.157407126164,-0.00830480497034,-0.0456115549101,0.000108372177076,-0.0711825178811,-0.00530749813248,0.0271373811749,-0.0164216644476,0.57405557989,0.818801894467,0.0020965960033,0.0,0.818758749182,-0.573994476705,-0.0120498237026,0.0,-0.00866315074237,0.0086340410864,-0.999925198779,0.0,0.660045833563,0.25870545186,0.303334304082,1.0,-0.00828,-0.0108822857143,0.415
0.463674272518,0.53769546074,-0.124045281728,-1.37159934946,0.0787568583328,1.89986791611,0.157218489436,-0.00876936599718,-0.0485990553361,0.00125995845837,-0.0724170181174,-0.00347693533813,0.0259057730595,-0.00617116365815,0.574080582384,0.81878431992,0.00211406823394,0.0,0.818741475305,-0.574019474388,-0.0120327278412,0.0,-0.00863885887058,0.00863879707511,-0.999925367866,0.0,0.659877535683,0.258464887351,0.303345394767,1.0,-0.0087,-0.0114342857143,0.436
0.463581262592,0.537063153199,-0.124051250161,-1.37259080099,0.0787008859136,1.90023857845,0.157105089349,-0.00786334054649,-0.0445230038739,-0.00103937741286,-0.0802051335272,-0.0056022495176,0.0349488035983,-0.00500353679699,0.574107771087,0.818765230933,0.00212383937404,0.0,0.818722505308,-0.574046609848,-0.0120289619768,0.0,-0.00862987919021,0.00864492208372,-0.999925392471,0.0,0.659766810288,0.25830675422,0.303352272363,1.0,-0.00896,-0.011776,0.449
0.463446036009,0.536058908692,-0.124052478714,-1.37415016733,0.0786186772474,1.90082290251,0.156910999865,-0.010305440475,-0.0544373964933,0.00123366341612,-0.0827723493017,-0.00259033594573,0.0304848731472,-0.010356396895,0.574124289073,0.818753568958,0.00215427855038,0.0,0.81871113558,-0.57406289222,-0.0120257704433,0.0,-0.00860961685644,0.00866818563408,-0.999925365743,0.0,0.659587789922,0.258071252585,0.303369642386,1.0,-0.00936,-0.0123017142857,0.469
0.463362867004,0.535378709062,-0.124058447627,-1.37523875431,0.0785523207436,1.90121422563,0.156776820492,-0.00557783572778,-0.0497280969647,0.00114251196094,-0.087798784367,-0.0109823197531,0.0333663479226,-0.0170780136307,0.574128698571,0.818750520717,0.00213756950662,0.0,0.818707871116,-0.574067373314,-0.012034100322,0.0,-0.00862598306999,0.0086593340555,-0.999925301385,0.0,0.659457464953,0.257908459699,0.303365633447,1.0,-0.00962,-0.0126434285714,0.482
0.463212745623,0.534264788191,-0.124061647972,-1.37704338779,0.0784614515999,1.90185734924,0.156565685701,-0.0082767281227,-0.0528864417116,0.000646341678857,-0.0859690983588,-0.00458755385059,0.0325774544036,-0.00957134324681,0.574155564246,0.818731764554,0.00210538762932,0.0,0.818688480219,-0.574094157658,-0.0120754875716,0.0,-0.00867806158935,0.00865703165344,-0.999924870703,0.0,0.65924004846,0.257636945836,0.303348436337,1.0,-0.01004,-0.0131954285714,0.503
0.463120005185,0.533575895047,-0.124059103639,-1.37816883348,0.0783987698873,1.90228018337,0.156414871124,-0.00873499001953,-0.0487008104147,0.00098797435986,-0.0858927228328,4.70456924418e-05,0.0366488637665,-0.00562612431888,0.57415115155,0.818734883525,0.0020958468726,0.0,0.818691401489,-0.574089713683,-0.0120887002173,0.0,-0.00869440382754,0.00865675963337,-0.999924731095,0.0,0.659107431821,0.257471275373,0.303335219369,1.0,-0.0103,-0.0135371428571,0.516
0.462957247904,0.532397079292,-0.124056597025,-1.38006097482,0.0782871117795,1.902993825,0.156174462291,-0.0117894344442,-0.0534481421546,0.000709519857371,-0.0942601067425,-0.0105493075128,0.034456665654,-0.0127977187548,0.574159416271,0.818729086918,0.00209614942625,0.0,0.818685562169,-0.574097929581,-0.0120939839745,0.0,-0.00869846888345,0.00866012878494,-0.999924666567,0.0,0.658887584212,0.257186685336,0.303327575253,1.0,-0.01072,-0.0140891428571,0.537
0.462864680509,0.531700161526,-0.124062598974,-1.38117685834,0.0782261975232,1.90339729104,0.156040908569,-0.00667323315734,-0.0597673025045,-0.00144799245142,-0.0953061746057,-0.00557691323961,0.0375604461023,-0.00669046230114,0.574170809356,0.81872112107,0.00208674341079,0.0,0.818677396647,-0.574109285519,-0.0121076587674,0.0,-0.00871494498067,0.00866040063647,-0.999924520749,0.0,0.65874281722,0.257008328923,0.30332267508,1.0,-0.01098,-0.0144308571429,0.55
0.462696281189,0.530453172039,-0.124064844125,-1.3832012861,0.0781083337873,1.9041121758,0.155778899442,-0.0093440556613,-0.0608400503872,-0.00139809378051,-0.100822484945,-0.00551101979043,0.0348573882493,-0.0146556175129,0.574177975097,0.818716231096,0.00203291791856,0.0,0.818671694862,-0.574116578742,-0.0121473020147,0.0,-0.00877823045137,0.00863917196245,-0.999924150812,0.0,0.658507920229,0.256709699632,0.30330007105,1.0,-0.01138,-0.0149565714286,0.57
0.462583916215,0.529655107566,-0.124061349927,-1.38445436259,0.0780183292363,1.90457504632,0.155609299509,-0.00930460622497,-0.0614165257555,0.000613876333325,-0.0946521216272,-0.00933371661933,0.0369201691517,-0.0149947654877,0.574172491553,0.818720078283,0.00203230447113,0.0,0.818675627217,-0.574111190323,-0.0121369455992,0.0,-0.00877016116484,0.00863266463767,-0.99992427782,0.0,0.658361449175,0.256516336945,0.303305803448,1.0,-0.01164,-0.0152982857143,0.583
0.4624159403,0.528313951735,-0.124065255501,-1.38654309207,0.0778960101076,1.90537383494,0.155319312768,-0.00874736449027,-0.064962798132,-0.0010921235104,-0.0993233485551,-0.00928475081233,0.0434809866086,-0.0197220540956,0.574155918894,0.818731591038,0.0020759421358,0.0,0.81868770457,-0.574094423138,-0.0121153872395,0.0,-0.00872763150166,0.0086558362469,-0.99992444962,0.0,0.658118162981,0.256207557644,0.303325424381,1.0,-0.01206,-0.0158502857143,0.604
0.462317050095,0.527519838751,-0.124072703402,-1.38776407024,0.0778205086207,1.90584271792,0.155152342476,-0.00901982687659,-0.0658453777916,-0.000611239609593,-0.104011390947,-0.00292859741451,0.035238244134,-0.0121828951181,0.574146855764,0.818737858809,0.00211032461656,0.0,0.818694507144,-0.574085297573,-0.0120880926331,0.0,-0.0086856399695,0.0086682184394,-0.999924707989,0.0,0.657967222567,0.256006192939,0.303345190025,1.0,-0.01232,-0.016192,0.617
0.462128626268,0.526013121094,-0.124077009863,-1.39010613559,0.0776686839786,1.90671923971,0.154838311894,-0.00722030309814,-0.0694539521259,-0.00209447490455,-0.108910067396,-0.00802468291265,0.037181139503,-0.0173838637235,0.574137091949,0.818744638224,0.00213633516242,0.0,0.818701700124,-0.574075497565,-0.0120663254968,0.0,-0.00865298822912,0.00867691331825,-0.999924915666,0.0,0.65770070087,0.255673466118,0.30336575245,1.0,-0.01274,-0.016744,0.638
0.462008686316,0.525111114021,-0.124079831803,-1.39151045022,0.0775813589398,1.90721758876,0.154652049121,-0.0100819209698,-0.0666496230587,0.00420762489568,-0.108261344335,-0.0114332373094,0.0400057689529,-0.0110670756942,0.574136747096,0.818744891859,0.00213180444062,0.0,0.818701876096,-0.574075153534,-0.0120707527873,0.0,-0.00865921794068,0.0086757420702,-0.9999248719,0.0,0.657530225977,0.255457803845,0.303375100808,1.0,-0.013,-0.0170857142857,0.651
0.461829198111,0.523736728166,-0.124086152774,-1.39372968153,0.0774448309569,1.90801759703,0.154344557981,-0.00585414474195,-0.0681324402018,-0.00141418738024,-0.107260444511,-0.00600888282227,0.0431509711454,-0.013838474885,0.574118830965,0.818757561753,0.00209043152142,0.0,0.818713974235,-0.574057386018,-0.0120951581531,0.0,-0.0087031421061,0.00865569020684,-0.999924664335,0.0,0.657259039854,0.255122964731,0.303354803103,1.0,-0.0134,-0.0176114285714,0.671
0.461707768109,0.522796711878,-0.124087218008,-1.3952123149,0.0773557036342,1.90859200857,0.15414856207,-0.00830784473836,-0.0736094269504,-0.00100005071468,-0.114659790371,-0.00678067087284,0.0413002532516,-0.0169533340188,0.574114207004,0.818760738334,0.00211602940734,0.0,0.818717498915,-0.574052666168,-0.0120805768234,0.0,-0.00867655672705,0.00866822797737,-0.999924786765,0.0,0.657085507781,0.254903436531,0.303359686593,1.0,-0.01366,-0.0179531428571,0.684
0.461503927098,0.521333649325,-0.124086639918,-1.39754597633,0.0772188588807,1.90949405919,0.15382053054,-0.0164037339406,-0.0742283799928,0.000942967786814,-0.122028234432,-0.0124562585398,0.0435714987664,-0.0169358776623,0.574100391692,0.818770355696,0.00214284719939,0.0,0.818727435989,-0.574038707398,-0.0120704129542,0.0,-0.00865298566824,0.00868420379602,-0.999924852398,0.0,0.656813282487,0.254551105599,0.303355136504,1.0,-0.01406,-0.0184788571429,0.704
0.4613811991,0.520348998194,-0.124095276624,-1.39910805712,0.0771174220466,1.91006039596,0.153614765583,-0.0135646827181,-0.0775608905552,-0.000358819346602,-0.120587988039,-0.00400385143283,0.0426544850858,-0.0204306927469,0.574094407945,0.818774591276,0.00212752177754,0.0,0.818731525557,-0.574032844064,-0.0120718637862,0.0,-0.008663034751,0.0086724256148,-0.999924867609,0.0,0.656622279504,0.254315036565,0.303352572182,1.0,-0.01432,-0.0188205714286,0.717
0.461165340256,0.51868872023,-0.12409703653,-1.40167137533,0.0769491108714,1.91097331127,0.153263099935,-0.0135346433187,-0.0836944369363,-0.000777234345908,-0.124291840041,-0.00976289120053,0.0383237263139,-0.0192290560603,0.574075043511,0.818788161125,0.00213038054172,0.0,0.818745162224,-0.574013499431,-0.0120668433144,0.0,-0.0086574879416,0.00867167931969,-0.999924922122,0.0,0.656306789063,0.253924647924,0.303377247242,1.0,-0.01474,-0.0193725714286,0.738
0.461036492051,0.51765359022,-0.124099995772,-1.40329421621,0.0768487407302,1.91155599471,0.153039365395,-0.0125184690573,-0.0811897519549,0.000315909537781,-0.125344802944,-0.00644804653825,0.0416767300849,-0.0163971095511,0.574060757375,0.81879820426,0.00212001047259,0.0,0.818755043884,-0.573999233349,-0.0120749795225,0.0,-0.00867025409282,0.00866770803775,-0.999924845942,0.0,0.656090544894,0.253659363953,0.303378017574,1.0,-0.01502,-0.0197405714286,0.752
0.460806714617,0.515978893271,-0.12411320149,-1.40594956769,0.0766853992627,1.91255234834,0.15268439511,-0.0133692565612,-0.0827601221166,-0.00270380919755,-0.130658356149,-0.00712503261685,0.05689451653,-0.0210229507217,0.574061736431,0.818797485292,0.00213254460773,0.0,0.818754539203,-0.57400020943,-0.0120627944257,0.0,-0.00865307128833,0.0086709862352,-0.999924966362,0.0,0.655788793639,0.253272283786,0.30337946907,1.0,-0.01542,-0.0202662857143,0.772
0.460670637723,0.514931117461,-0.124117616979,-1.40762880558,0.0765821047564,1.91318572851,0.152453846326,-0.0114847094558,-0.0808126983794,-0.00148917128977,-0.130685058132,-0.00454069504956,0.0526651424591,-0.0161861947995,0.574048345677,0.818806877185,0.00213110337017,0.0,0.818763925303,-0.573986839575,-0.0120619035894,0.0,-0.0086533109257,0.00866915326984,-0.999924980182,0.0,0.655585269428,0.253021215947,0.303369908536,1.0,-0.01568,-0.020608,0.785
0.46039271599,0.512928627544,-0.124120987903,-1.41083886561,0.0763759951706,1.91429965345,0.152008334271,-0.0112387448923,-0.0828847651891,-0.00160214290352,-0.130429688685,-0.00910149806764,0.0436677116495,-0.0185835945242,0.574026111536,0.818822680577,0.00204644765957,0.0,0.818778545222,-0.573964896007,-0.012113584839,0.0,-0.00874445724908,0.00862926757962,-0.999924532257,0.0,0.655179278084,0.252524823082,0.303342038534,1.0,-0.01616,-0.0212388571429,0.809
0.460278050657,0.512087742601,-0.124120622899,-1.4121964607,0.0762966128936,1.91478203662,0.151813179024,-0.0186485453345,-0.0859177805565,-0.000476860671749,-0.134017470148,-0.00550901150478,0.0500039159333,-0.0193057442014,0.574009606494,0.818834318334,0.00201932496367,0.0,0.81878973018,-0.57394841531,-0.0121384190299,0.0,-0.0087805347616,0.00862113765656,-0.999924286231,0.0,0.655007583825,0.252319777989,0.303326720944,1.0,-0.01636,-0.0215017142857,0.819
0.460014231532,0.510130816348,-0.12411941012,-1.41533401375,0.0761130991593,1.91597267617,0.151372059724,-0.00942405616262,-0.0852417984003,0.000831413712175,-0.134122235497,-0.00538782260607,0.049931714497,-0.0207898148201,0.573978329496,0.818856217367,0.00202964300913,0.0,0.818811659915,-0.573916994422,-0.0121447932157,0.0,-0.00878016186307,0.0086329096936,-0.99992418794,0.0,0.654624710054,0.25185219897,0.303306745706,1.0,-0.01682,-0.0221062857143,0.842
0.459889925325,0.509245846669,-0.124116825011,-1.41672331892,0.0760292236504,1.91648174943,0.151185318273,-0.0135882062298,-0.0828530765917,0.00199701798092,-0.140388152154,-0.00469078213011,0.0538094546117,-0.0224221579657,0.573975052078,0.818858501987,0.00203475227377,0.0,0.818813955689,-0.573913640134,-0.0121485200088,0.0,-0.0087803158598,0.00863919729415,-0.999924132284,0.0,0.654453054077,0.251640113561,0.303308858211,1.0,-0.01702,-0.0223691428571,0.852
0.459628316232,0.507361760915,-0.124132700852,-1.41966604946,0.0758294250801,1.91753517692,0.15076607949,-0.0130423369779,-0.0872804663201,-0.000767835354351,-0.138833125058,-0.0112697965271,0.0586645581627,-0.0185251651169,0.573955666544,0.818872133457,0.00201712405567,0.0,0.818827501586,-0.573894477297,-0.0121407773501,0.0,-0.00878429701989,0.00862011057109,-0.999924262042,0.0,0.654089223332,0.25117456188,0.303317922373,1.0,-0.01744,-0.0229211428571,0.873
0.459458592694,0.506170280233,-0.124136302144,-1.42153604391,0.0757188108263,1.91822982959,0.150518503437,-0.0110515183161,-0.0928195609047,-0.00126558029452,-0.144005733701,-0.00835678448075,0.0507066810764,-0.0230780786055,0.573961471041,0.818868029305,0.00203156216237,0.0,0.818823537869,-0.573900169911,-0.0121390159683,0.0,-0.00877450714994,0.00863098455254,-0.999924254196,0.0,0.653860665845,0.250884508787,0.303321244181,1.0,-0.0177,-0.0232628571429,0.886
0.459183121556,0.504158370473,-0.124139336107,-1.42458946685,0.0755325889186,1.91940340919,0.150097347909,-0.00936198328013,-0.0946417513214,-0.00229513552051,-0.144963475032,-0.00821640775684,0.0558556132404,-0.0153106494331,0.573951731933,0.818874571784,0.00214289485278,0.0,0.818831574717,-0.573889988236,-0.0120781020888,0.0,-0.00866083152194,0.0086870848324,-0.999924759447,0.0,0.65349503234,0.250416348788,0.303375553574,1.0,-0.01812,-0.0238148571429,0.907
0.458998352915,0.502873751883,-0.12414050481,-1.42648256622,0.0754051678936,1.92012378897,0.149831324828,-0.0131052361015,-0.0998740478139,9.87867984013e-05,-0.146143407516,-0.0121600765355,0.0486111874535,-0.0255683544188,0.573948729197,0.818876437236,0.00223241912718,0.0,0.81883473617,-0.573886737322,-0.0120180892291,0.0,-0.00856033917415,0.00872591736841,-0.999925286689,0.0,0.65327104099,0.250115556141,0.30343402852,1.0,-0.01838,-0.0241565714286,0.92
0.458709732851,0.500756931035,-0.124144046094,-1.4296607944,0.0752092523197,1.92124058107,0.149380945523,-0.0151044156283,-0.100446572578,-0.000155530854978,-0.150332670505,-0.00366239352766,0.0555011413453,-0.0230558326076,0.573928033785,0.818890802903,0.00228294929751,0.0,0.818849657344,-0.573865729438,-0.0120045885279,0.0,-0.00852050482038,0.00875933078448,-0.999925334773,0.0,0.652867975824,0.249620086828,0.303495635376,1.0,-0.0188,-0.0247085714286,0.941
0.458537457154,0.499549440961,-0.12414257441,-1.4315000559,0.0750886102807,1.92191410443,0.149131591194,-0.0146902048495,-0.100278967106,-0.00354537704997,-0.157188545547,-0.00923047334633,0.0572000402712,-0.0129079010223,0.573924870301,0.818892928871,0.0023154257613,0.0,0.818852233044,-0.573862460327,-0.0119851560885,0.0,-0.00848598702976,0.00877473964966,-0.999925493208,0.0,0.652639804592,0.249332488222,0.303520863105,1.0,-0.01904,-0.025024,0.953
0.45822119734,0.497475625973,-0.124147578046,-1.43476722664,0.0748857856071,1.92311745478,0.148649683693,-0.0164100972835,-0.100710043744,-0.000242794243987,-0.156074761791,-0.0160181597841,0.046037825129,-0.023621609153,0.573904061897,0.818907494962,0.00232149394384,0.0,0.818866841228,-0.573841591553,-0.0119862855642,0.0,-0.00848365264234,0.00878014142998,-0.999925465599,0.0,0.652236196148,0.248811973801,0.303516286834,1.0,-0.01946,-0.025576,0.974
0.458020936171,0.496197295457,-0.124147929754,-1.43681370165,0.0747550072972,1.92384083271,0.148350854965,-0.0128226804503,-0.0987163810752,-0.000240621847195,-0.158287973605,-0.0134350697724,0.0563603808896,-0.025164383471,0.573891639144,0.818916313647,0.00228137366002,0.0,0.818875075565,-0.573829272007,-0.012013496936,0.0,-0.00852909384984,0.00876277418726,-0.999925231378,0.0,0.651975911105,0.248483394252,0.303495839233,1.0,-0.01972,-0.0259177142857,0.987
0.45767963731,0.494101269152,-0.124155489271,-1.44021094196,0.0745522839302,1.92502307262,0.147864945613,-0.0152200702049,-0.106971543679,-0.000234346411003,-0.167794271145,-0.00808648712585,0.0548206229259,-0.022271852374,0.573894995813,0.81891422844,0.00218337817177,0.0,0.818871471768,-0.573832796262,-0.0120905566622,0.0,-0.00864840138737,0.00872678407963,-0.999924521348,0.0,0.65154078282,0.247928975641,0.303441619349,1.0,-0.025456,-0.0334564571429,1.008
0.457456794892,0.492329953084,-0.124222024332,-1.44282103183,0.0744031103712,1.92599351256,0.147490751096,-0.0176669356903,-0.160401970572,-0.00507309387451,-0.233733997895,-0.0169980202908,0.0914084732509,-0.0346910976669,0.573909861279,0.818903521931,0.0022890602486,0.0,0.818862336409,-0.573847411008,-0.0120153980747,0.0,-0.00852604465623,0.00877034952201,-0.999925190968,0.0,0.651225326692,0.247500438684,0.303518207241,1.0,-0.0348434285714,-0.0457942204082,1.02
0.45691262272,0.488111239447,-0.124262481164,-1.44950572625,0.0740494812302,1.92854553426,0.14648183901,-0.0338498967347,-0.236301572578,-0.00072319251213,-0.369116795573,-0.0223331397467,0.137665632229,-0.0501470034763,0.573798415462,0.818981352555,0.00238106720256,0.0,0.818940994805,-0.573735215752,-0.0120123326238,0.0,-0.00847193742546,0.00884278122004,-0.999925012937,0.0,0.650379816668,0.246501539206,0.303492760914,1.0,-0.0512714285714,-0.0673853061224,1.041
0.456395627947,0.484579296647,-0.124349750386,-1.45504424024,0.0737326183123,1.93064465614,0.145636698222,-0.0441288569025,-0.289642139728,-0.010470614832,-0.45142917321,-0.025715513769,0.171608932448,-0.061801916871,0.573782201724,0.818992501799,0.00245232190037,0.0,0.818953195411,-0.573718844821,-0.0119623461205,0.0,-0.0083902900279,0.00887228897035,-0.999925439981,0.0,0.649700930159,0.245595572425,0.303494152252,1.0,-0.0614411428571,-0.0807512163265,1.054
0.455365121566,0.477888450026,-0.124539758174,-1.46567378954,0.0730953644409,1.93431159746,0.144030301749,-0.0638116948232,-0.368893764625,-0.0143456768329,-0.580521250115,-0.0275809517871,0.203136627451,-0.0873240673612,0.573795226742,0.81898408578,0.00220270480757,0.0,0.81894142903,-0.573732803321,-0.0120976490879,0.0,-0.00864418450153,0.00874562790471,-0.999924393175,0.0,0.648323961009,0.243790970088,0.303397447999,1.0,-0.0770868571429,-0.101314155102,1.074
0.454541580775,0.472697038012,-0.124652819768,-1.47381706016,0.0725997470523,1.93717164452,0.142869937357,-0.0640626859323,-0.404088030874,-0.00828708783272,-0.650961891634,-0.0410276480932,0.226108836431,-0.0972499909377,0.573860061573,0.818938892032,0.00211370534767,0.0,0.818895003189,-0.573797945934,-0.0121506335136,0.0,-0.00873795479299,0.00870383361944,-0.999923942821,0.0,0.64726891715,0.242410110349,0.303364871988,1.0,-0.0872565714286,-0.114680065306,1.087
0.453067023659,0.463464898487,-0.124786021668,-1.48786915639,0.0717708156643,1.94240533726,0.140623656708,-0.072798149497,-0.487216899198,-0.00785030470602,-0.741644070923,-0.0404749549033,0.271427232762,-0.120662739496,0.573769642747,0.819001239751,0.00247249853936,0.0,0.818961961545,-0.573705958161,-0.0119802343345,0.0,-0.0083935012298,0.00889894836017,-0.999925176128,0.0,0.645485782078,0.24005975589,0.303505612547,1.0,-0.102902285714,-0.135243004082,1.107
0.451800038446,0.456229923462,-0.12486125373,-1.49924185907,0.0710405080523,1.9463154691,0.138904755956,-0.0955133573582,-0.533803165931,-0.000702847934007,-0.862839450951,-0.0525892254668,0.279984615034,-0.129165935034,0.573784210283,0.818991617623,0.00227094586522,0.0,0.818949308856,-0.573720943385,-0.0121266461568,0.0,-0.00862889848117,0.00881803740978,-0.999923889267,0.0,0.643958845319,0.238099754708,0.30341353791,1.0,-0.113854285714,-0.149637061224,1.121
0.449740687608,0.444445002885,-0.125060257884,-1.51700116591,0.0698249332991,1.95264973771,0.13614074679,-0.112855804396,-0.606458999606,-0.00393135210574,-0.936844776983,-0.0601091044642,0.327847262447,-0.134886556579,0.573826495884,0.818961291339,0.00251054021039,0.0,0.818922995377,-0.573763171953,-0.0119036572,0.0,-0.00830833891897,0.00888674410572,-0.999925995904,0.0,0.641627751679,0.23495600776,0.303598369478,1.0,-0.1295,-0.1702,1.141
0.448243119618,0.43617365593,-0.125147386123,-1.52976434768,0.0689938823637,1.95697194744,0.134096344953,-0.124861819792,-0.646847896217,-0.00497089660872,-0.984813179079,-0.0674227347047,0.331507596077,-0.161124811804,0.573780335713,0.818994062017,0.00236635390299,0.0,0.818953345429,-0.573717024898,-0.0120391134892,0.0,-0.00850250863818,0.00884591033604,-0.999924725775,0.0,0.639855858119,0.232714250797,0.303554742153,1.0,-0.139669714286,-0.183565910204,1.154
0.445764908794,0.422936840249,-0.125312067065,-1.54959906339,0.0676342996905,1.96394837994,0.130792462398,-0.137359543407,-0.705397274446,-0.00850818975801,-1.07375064711,-0.0722641107305,0.367088819853,-0.170786486618,0.573705680972,0.819045503898,0.00264595292438,0.0,0.819008803763,-0.573641674132,-0.0118556298345,0.0,-0.00819262918007,0.00896887360554,-0.999926217345,0.0,0.637151261633,0.229139121472,0.30373546001,1.0,-0.154533142857,-0.203100702041,1.173
0.443553863534,0.411692003015,-0.125449763491,-1.56632606877,0.0664151902799,1.96988909181,0.128010448706,-0.148882078072,-0.78181876777,-0.00468438950595,-1.13464334518,-0.084109795874,0.405506111177,-0.192171234505,0.57369827808,0.819049602119,0.00296342662218,0.0,0.819017940627,-0.573634190777,-0.0115833934263,0.0,-0.00778760088009,0.00907264710885,-0.999928517619,0.0,0.634859752335,0.22605336615,0.303914388319,1.0,-0.166267428571,-0.218522906122,1.188
0.440929968165,0.399051608852,-0.125598348157,-1.58532114293,0.0651541388677,1.97632953681,0.124801258375,-0.171858162069,-0.816276051957,-0.0178460285867,-1.19884706974,-0.0807788676027,0.419164637152,-0.205801064931,0.573747524408,0.819014641383,0.0030890673163,0.0,0.818983951031,-0.573682248374,-0.0116065824348,0.0,-0.00773396676993,0.00918932141741,-0.999927868463,0.0,0.631976570747,0.222263801232,0.303991481401,1.0,-0.179566285714,-0.236001404082,1.205
0.437877076161,0.38481960629,-0.125755239866,-1.60673713077,0.0635737640773,1.98355422729,0.12108443794,-0.181404193454,-0.857441120178,-0.00779826484705,-1.29330143188,-0.100146052714,0.417987567843,-0.231026056218,0.573707965305,0.819042614664,0.00301874325199,0.0,0.819011189514,-0.573643133406,-0.0116178245768,0.0,-0.00778396194545,0.00913779893182,-0.999927952688,0.0,0.629031476346,0.218425152085,0.303962461042,1.0,-0.192082857143,-0.252451755102,1.221
0.434265412613,0.368766648777,-0.125931964838,-1.63056692849,0.0617691274815,1.99147030431,0.116811935656,-0.214557913094,-0.894186607585,-0.00585261728324,-1.36399581746,-0.10446624698,0.442457919291,-0.239170667102,0.573669215832,0.819069582622,0.00306537626191,0.0,0.819039036686,-0.573604562208,-0.0115589575816,0.0,-0.00770942518355,0.0091418569614,-0.999928493051,0.0,0.625494107829,0.213777328307,0.304029936905,1.0,-0.206164,-0.2709584,1.239
0.430690636796,0.353842869558,-0.126126521412,-1.65265721283,0.0600446024267,1.99873055808,0.112756838662,-0.234744849264,-0.936788783873,-0.0131393457846,-1.41247948713,-0.110580307075,0.44373346642,-0.266041953102,0.57370633749,0.81904359419,0.00306203234413,0.0,0.819013439533,-0.573642205376,-0.0115044764191,0.0,-0.00766630432887,0.00910821203456,-0.999929131615,0.0,0.62216311604,0.209327409687,0.304056113231,1.0,-0.218680571429,-0.28740875102,1.255
0.426498426458,0.337200332071,-0.12632913066,-1.67706444445,0.0582223595784,2.00663727547,0.108123287842,-0.250943402672,-0.993204103994,-0.00668005639561,-1.46747497718,-0.106749231631,0.466623565712,-0.281354899265,0.573793128832,0.8189824034,0.00316466846417,0.0,0.818953051859,-0.573728037126,-0.0115232446664,0.0,-0.00762182232949,0.00920385071097,-0.999928595929,0.0,0.618401491265,0.204312502811,0.304108253508,1.0,-0.231979428571,-0.30488724898,1.272
0.422041929104,0.319875771786,-0.126472009116,-1.70239792317,0.0561682488112,2.01469807471,0.103179359944,-0.262298346367,-1.03118681927,-0.00764569194476,-1.51324055817,-0.120963890546,0.465512908359,-0.292057525277,0.573697624126,0.819049414436,0.00313682737967,0.0,0.819019702273,-0.573632631612,-0.0115359499102,0.0,-0.00764927374641,0.00918744736892,-0.999928537158,0.0,0.614365584722,0.199095966271,0.304104766682,1.0,-0.245278285714,-0.322365746939,1.289
0.41720273042,0.30180587909,-0.126638114909,-1.72852591017,0.0539857006303,2.02289640742,0.0978471891609,-0.287161943439,-1.06826835682,-0.00598919234453,-1.5665534774,-0.126784478001,0.4675871964,-0.321227361902,0.573540830175,0.819159084292,0.00317137902505,0.0,0.819130005744,-0.573475975966,-0.011492849106,0.0,-0.00759590831279,0.00918956686397,-0.999928924493,0.0,0.61011314096,0.193594839665,0.304138286963,1.0,-0.258577142857,-0.339844244898,1.306
0.411869371267,0.28303473335,-0.126847563559,-1.75535364715,0.0517520425309,2.0311204553,0.0922680371658,-0.313758951822,-1.10936852326,-0.00742717464349,-1.58471965642,-0.124281957087,0.473367639418,-0.333849312096,0.573564139977,0.819142415609,0.00325993622647,0.0,0.819114244701,-0.573498723506,-0.0114810786564,0.0,-0.00753521431601,0.00925557340394,-0.999928774917,0.0,0.605655360086,0.187755271375,0.304204113081,1.0,-0.271876,-0.357322742857,1.323
0.406052071671,0.263583737321,-0.127088487232,-1.78289761388,0.0493969299971,2.03939832847,0.0862383831544,-0.35012878706,-1.16585131789,-0.0133570626171,-1.59572498777,-0.136579088378,0.47788429138,-0.355720108722,0.573553118974,0.819149727819,0.00336006395755,0.0,0.819122640311,-0.573487142921,-0.0114605381901,0.0,-0.00746108690906,0.0093257114334,-0.999928679101,0.0,0.600975969829,0.181593232529,0.304271237677,1.0,-0.285174857143,-0.374801240816,1.34
0.399702093763,0.243604141608,-0.127388865026,-1.81107426603,0.0468413133871,2.04768971747,0.0799163035579,-0.381499174824,-1.18763102095,-0.0126399766565,-1.67086025594,-0.148863919352,0.475961260094,-0.373011835912,0.573661101827,0.819074232744,0.00332992588848,0.0,0.819047104417,-0.57359563514,-0.0114295667142,0.0,-0.00745177610182,0.00928424274198,-0.999929134424,0.0,0.596088468774,0.175071211436,0.304269833847,1.0,-0.298473714286,-0.392279738775,1.357
0.393399951326,0.22417081745,-0.127576342472,-1.83811324206,0.0444338061232,2.05544668174,0.0735194089436,-0.391435946052,-1.23520997099,-0.00772051417053,-1.69907787244,-0.15481282661,0.471000577675,-0.400639530598,0.573534480201,0.81916247451,0.00343326025163,0.0,0.819135998872,-0.57346786981,-0.0114701590949,0.0,-0.00742720246088,0.00939101960616,-0.999928320138,0.0,0.591234410802,0.168830842659,0.304306060219,1.0,-0.310990285714,-0.408730089796,1.373
0.386094055901,0.202989598211,-0.127845440453,-1.86740882423,0.0415905949654,2.0635499654,0.0663288954791,-0.450363246991,-1.25433915949,-0.0181958129158,-1.73452006686,-0.16579540472,0.46717054665,-0.423605898537,0.573461579648,0.819214023985,0.00330854571872,0.0,0.819186120414,-0.573395584144,-0.0115043951125,0.0,-0.00752760123819,0.00930782253005,-0.999928347263,0.0,0.585852703846,0.161803660936,0.304277987081,1.0,-0.324289142857,-0.426208587755,1.39
0.378153316223,0.181173860648,-0.128213766626,-1.89709564065,0.0387354289167,2.07146419498,0.0586340404876,-0.486968104135,-1.27137664505,-0.0306164571138,-1.74156254535,-0.161979351015,0.460360857403,-0.462007489836,0.573497745987,0.81918877421,0.00329157374253,0.0,0.819160134918,-0.573431162187,-0.0115811266673,0.0,-0.00759978432132,0.00933825582106,-0.999927517501,0.0,0.58027025327,0.154424386537,0.304306724881,1.0,-0.337588,-0.443687085714,1.407
0.370100614118,0.160079160403,-0.128608455305,-1.92538133854,0.0359022974071,2.07880873733,0.0510076840843,-0.510066160883,-1.32152420738,-0.0200786919196,-1.74057685143,-0.174125452063,0.449724141948,-0.492307699192,0.573602829146,0.819114964806,0.00334898895227,0.0,0.819086966255,-0.573535923764,-0.0115686112071,0.0,-0.00755540255427,0.00937908189501,-0.999927471727,0.0,0.574833700382,0.147186301214,0.304373429128,1.0,-0.350104571429,-0.460137436735,1.423
0.360981661505,0.137133114549,-0.128957698746,-1.95580557428,0.0327031666518,2.0865716323,0.0424414882912,-0.555842745952,-1.37577918909,-0.0203245614285,-1.78999329708,-0.186086155822,0.458379737406,-0.516179555607,0.573585558818,0.819126534104,0.00347487313533,0.0,0.819100599964,-0.573518823981,-0.0114504401556,0.0,-0.00738659641941,0.00941425903895,-0.999928402397,0.0,0.568836975338,0.139300814575,0.304438392286,1.0,-0.363403428571,-0.477615934694,1.44
0.351154840417,0.11366014874,-0.1294532149,-1.98652207193,0.0294001946787,2.09403242567,0.0332536359077,-0.591710332067,-1.3940535933,-0.034382843207,-1.8189772856,-0.209764870247,0.450297433971,-0.559311844044,0.573627766238,0.819096599823,0.00356270399091,0.0,0.819071968184,-0.573560991036,-0.0113862810961,0.0,-0.0072831763224,0.00944977989839,-0.999928825968,0.0,0.562619744869,0.131046829295,0.304492772595,1.0,-0.376702285714,-0.495094432653,1.457
0.34123204604,0.0910760842048,-0.129845134372,-2.01565646035,0.0261004493679,2.10073387871,0.0240768467498,-0.616176181223,-1.41067360216,-0.0107034607206,-1.84561003653,-0.199461005163,0.41255439742,-0.595420916689,0.573562078515,0.819142526405,0.00357916556383,0.0,0.819118419867,-0.573495673647,-0.0113346126402,0.0,-0.00723216650938,0.00943304604151,-0.99992935421,0.0,0.556535718102,0.123054571877,0.304542015982,1.0,-0.389218857143,-0.511544783673,1.473
0.330052734653,0.0669220233075,-0.130264932048,-2.04656138879,0.0226329695016,2.10748755872,0.0138041926775,-0.669758731958,-1.40926214897,-0.0231477883555,-1.81189443597,-0.211339570782,0.381166803104,-0.595716404049,0.573509788572,0.819179217099,0.00356084079717,0.0,0.819153982018,-0.573442284823,-0.0114650173223,0.0,-0.00735010874388,0.00949235933616,-0.999927932911,0.0,0.549886701559,0.114395127385,0.304507738867,1.0,-0.38998,-0.512545142857,1.49
0.318145449372,0.042989422896,-0.130804852057,-2.07678894614,0.0189734919254,2.11356701874,0.00329290561166,-0.716027832055,-1.38714425788,-0.017974906598,-1.74933364021,-0.206707423692,0.34038397146,-0.621029361213,0.573771583037,0.818996982939,0.00329535080353,0.0,0.818967919989,-0.573704369788,-0.0116442697118,0.0,-0.00764621181981,0.00938011825541,-0.999926771732,0.0,0.543201899312,0.105476811023,0.304428335722,1.0,-0.38998,-0.512545142857,1.507
0.305844360981,0.0192748155467,-0.131177548565,-2.10591822975,0.0154383823239,2.11915460181,-0.0075920916339,-0.739972527416,-1.38021966071,-0.0207406825592,-1.70638717969,-0.219386098078,0.30967367592,-0.652461833315,0.573865521296,0.818930684433,0.00341239833404,0.0,0.818902692013,-0.573797362725,-0.0116496542835,0.0,-0.00758238017544,0.00947993962848,-0.999926316413,0.0,0.536586021471,0.0967246740673,0.304516081216,1.0,-0.38998,-0.512545142857,1.524
0.293024901862,-0.00411268900064,-0.131661020834,-2.13413690072,0.0118744757443,2.12425092915,-0.0188382548451,-0.755001604359,-1.33814755778,-0.024209934969,-1.60822939525,-0.204294117123,0.278791096506,-0.678272774958,0.574074842968,0.818783223753,0.00358525781873,0.0,0.818757527952,-0.574006184973,-0.011565333322,0.0,-0.00741168343637,0.00957500808802,-0.999926690397,0.0,0.530024444206,0.0878899218252,0.304629875941,1.0,-0.38998,-0.512545142857,1.541
0.280709397566,-0.0258905057174,-0.131936900126,-2.16006217075,0.00849588628522,2.12862020559,-0.0297849647011,-0.770074913086,-1.33153971186,-0.0227167106685,-1.53764158067,-0.211251396894,0.247209538492,-0.679220432927,0.573944824357,0.818873752386,0.00372332494488,0.0,0.818849946283,-0.573875908029,-0.0114871474468,0.0,-0.00726993701913,0.00964201889356,-0.999927087086,0.0,0.52379629586,0.0797606918231,0.304711121097,1.0,-0.38998,-0.512545142857,1.557
0.266957024266,-0.0486979981639,-0.13244175709,-2.18695712207,0.00491535592823,2.13274749309,-0.0417197108861,-0.82183735616,-1.32572167473,-0.0287984259199,-1.52400377389,-0.209068584783,0.228236507418,-0.707101055427,0.574202991053,0.818692639906,0.00374610883507,0.0,0.818668667534,-0.574133359169,-0.011543205305,0.0,-0.00729971171691,0.00969515160263,-0.99992635641,0.0,0.517168147722,0.0709054486079,0.304715109684,1.0,-0.38998,-0.512545142857,1.574
0.252970999715,-0.0712092504551,-0.132742220126,-2.21305896237,0.00131610936185,2.13639129137,-0.0540994550631,-0.824584380426,-1.31904243876,-0.017528806044,-1.49245588523,-0.198907314902,0.209008457027,-0.733258472532,0.574036971666,0.818808964179,0.0037659318113,0.0,0.818785044692,-0.573967033178,-0.0115603768974,0.0,-0.00730436015557,0.00971975952742,-0.999926083567,0.0,0.510518986742,0.0622899686409,0.304724357379,1.0,-0.38998,-0.512545142857,1.591
0.238343296837,-0.0934011617282,-0.133196623177,-2.23841161393,-0.00220574471018,2.13951507572,-0.0669189078265,-0.867349163435,-1.29321611046,-0.0130409855393,-1.45033767255,-0.198852867351,0.166229071022,-0.756429277924,0.574125952851,0.818746504166,0.00378141251998,0.0,0.818721864079,-0.574054729887,-0.0116800374363,0.0,-0.00739239440323,0.0098019264471,-0.999924634531,0.0,0.503878031759,0.0535338483782,0.304708055913,1.0,-0.38998,-0.512545142857,1.608
0.223396077267,-0.115281160907,-0.133498318884,-2.26301929996,-0.00590008668786,2.14220667165,-0.0801182722127,-0.886332103725,-1.27038028106,-0.0189569132817,-1.42352018278,-0.214538388172,0.138651847305,-0.790391295676,0.573899109965,0.818905999705,0.00367724479311,0.0,0.81888035637,-0.573828710159,-0.0116756263121,0.0,-0.00745127526086,0.00971204206235,-0.999925074561,0.0,0.49723060358,0.0449284966011,0.304682704423,1.0,-0.38998,-0.512545142857,1.625
0.207839025038,-0.136855639178,-0.133901241905,-2.28695131673,-0.00941740333372,2.14440672339,-0.0938030612826,-0.921441634903,-1.25425338007,-0.0191500463783,-1.40522459338,-0.210818326179,0.12036550723,-0.809192668101,0.573874892473,0.818923265697,0.00361103725407,0.0,0.818895655435,-0.573803288642,-0.0118506689436,0.0,-0.00763291041735,0.00975805195743,-0.999923256606,0.0,0.490563660297,0.0362480560405,0.304619402863,1.0,-0.38998,-0.512545142857,1.642
0.192733771104,-0.157005169526,-0.134330351011,-2.3087845768,-0.0127751592962,2.1461023494,-0.107186404781,-0.961547430898,-1.24213905277,-0.0404060172642,-1.36281665715,-0.218202123913,0.0934526122622,-0.851785743232,0.573787787053,0.818984200832,0.00363333411978,0.0,0.818956702864,-0.573715890608,-0.011863498577,0.0,-0.00763166331396,0.00978286227679,-0.999923023698,0.0,0.484309506449,0.0280596017154,0.304629069826,1.0,-0.38998,-0.512545142857,1.658
0.176228086406,-0.178054245436,-0.134731873086,-2.33127300655,-0.0162154741217,2.14739151671,-0.121753098155,-0.981093164599,-1.22495504032,-0.0306304829654,-1.31098613411,-0.204081236363,0.0636497102796,-0.871321465265,0.57374921324,0.819011297981,0.00361676459105,0.0,0.818982292408,-0.573675735908,-0.0120375102908,0.0,-0.00778415670846,0.00986876821895,-0.999921004039,0.0,0.477641867073,0.019430699276,0.304603799792,1.0,-0.38998,-0.512545142857,1.675
0.158016753949,-0.200060042686,-0.135334158885,-2.35425291662,-0.019930573451,2.14841678604,-0.137835995253,-1.0150199482,-1.19408487542,-0.0203679151471,-1.26430981713,-0.193664233879,0.035394064319,-0.905850346427,0.573810389961,0.818968094086,0.00369379795948,0.0,0.818939835656,-0.57373628554,-0.0120402297261,0.0,-0.00774144711717,0.00993399846849,-0.99992068969,0.0,0.470237503465,0.00964097998435,0.304631652575,1.0,-0.38998,-0.512545142857,1.694
0.141326706009,-0.219356404918,-0.135887875095,-2.37395191185,-0.023144314509,2.14894890847,-0.152629752135,-1.05873980764,-1.20974340754,-0.0499995395503,-1.20686432687,-0.205847934374,0.0434455974042,-0.93433185841,0.573925015287,0.81888693896,0.00387361976613,0.0,0.818861125993,-0.573850364787,-0.0119566748055,0.0,-0.00756843243155,0.0100343846069,-0.999921011858,0.0,0.46441083919,0.00188846200647,0.304706195412,1.0,-0.38998,-0.512545142857,1.709
0.122057012712,-0.240581671153,-0.136429969625,-2.39540137141,-0.0267499514866,2.14909020858,-0.169763872012,-1.08220067854,-1.1734752234,-0.0337583149446,-1.16053762522,-0.193293161131,0.0131153658281,-0.971218372878,0.573932973879,0.818881251853,0.00389663427003,0.0,0.818855166121,-0.573857478718,-0.0120232249024,0.0,-0.00760962725064,0.010091498619,-0.999920124424,0.0,0.457380273889,-0.00730873261326,0.304707142278,1.0,-0.38998,-0.512545142857,1.727
0.103201751232,-0.260319982233,-0.13704069641,-2.41493239057,-0.0300910747917,2.14902569052,-0.186611230448,-1.11442607556,-1.14525366978,-0.0257993905884,-1.14092476702,-0.188098269028,-0.00918454396208,-0.994151088923,0.574006340037,0.818828929203,0.00408083308532,0.0,0.818805419866,-0.573930404256,-0.0119298939336,0.0,-0.00742657107732,0.01018943918,-0.999920507526,0.0,0.450381438188,-0.0165718017799,0.304740507866,1.0,-0.38998,-0.512545142857,1.745
0.0838967088165,-0.279577540922,-0.137643278107,-2.43359441528,-0.0334058013111,2.14865648529,-0.203979145959,-1.14909482357,-1.12159362286,-0.0342995864344,-1.09708637374,-0.190465867953,-0.0429753779564,-1.03720139576,0.574009311072,0.818825715033,0.00430187221722,0.0,0.818806023383,-0.573933956212,-0.0117156681257,0.0,-0.00712423695301,0.010247498769,-0.999922113975,0.0,0.444215951703,-0.0247658401729,0.304815975957,1.0,-0.38998,-0.512545142857,1.761
0.064003735197,-0.298428900063,-0.138191313614,-2.4515379269,-0.0366100427336,2.14782997875,-0.221989693733,-1.19103590729,-1.09995718764,-0.0424236956867,-1.02302012825,-0.188054665797,-0.0395191036211,-1.08152414514,0.57395030591,0.818866216898,0.00446229435505,0.0,0.818848772696,-0.573874702265,-0.0116301528569,0.0,-0.0069628754844,0.0103292729166,-0.999922409233,0.0,0.43762967687,-0.0334406333136,0.304875204202,1.0,-0.38998,-0.512545142857,1.778
0.0435777759028,-0.316781285552,-0.138737269215,-2.46894442534,-0.0398238929745,2.1466617667,-0.240515274378,-1.20939923189,-1.07071648894,-0.0235232961754,-1.00186867781,-0.184215850535,-0.0791586424934,-1.09576393059,0.573878056098,0.818917125909,0.00441186171475,0.0,0.818898274294,-0.573801514978,-0.0117551975221,0.0,-0.00709513623683,0.0103591152927,-0.999921170779,0.0,0.430964116034,-0.0420926919944,0.304819565885,1.0,-0.38998,-0.512545142857,1.795
0.0250081166643,-0.332597183435,-0.139277312596,-2.48353587393,-0.0425937969478,2.14549471897,-0.25741227748,-1.24209245644,-1.03799389009,-0.0271645329233,-0.970963996456,-0.186692091845,-0.0847258378252,-1.14451289761,0.573880983553,0.818914468616,0.00452290926182,0.0,0.81889747888,-0.573804710781,-0.011654178259,0.0,-0.00694864233812,0.0103921103538,-0.999921857153,0.0,0.42515018748,-0.0497836960529,0.304854751821,1.0,-0.38998,-0.512545142857,1.81
0.00340049497801,-0.350003002614,-0.139970497196,-2.49945747854,-0.0456860699147,2.14376439753,-0.277130513978,-1.28919193423,-0.999722791588,-0.0347514034207,-0.904871562984,-0.174563876315,-0.111312059985,-1.17602259921,0.573952387426,0.818864543301,0.004501510141,0.0,0.818846285425,-0.57387470019,-0.0118040767997,0.0,-0.00708277354046,0.0104612243293,-0.999920195368,0.0,0.418485091707,-0.0585295380362,0.304822179615,1.0,-0.38998,-0.512545142857,1.827
-0.0174566835044,-0.366019497593,-0.140611418029,-2.51366652444,-0.0484002294176,2.14207115148,-0.296288529632,-1.32236330086,-0.9969833662,-0.0541485555204,-0.892544339685,-0.167430563075,-0.113778961169,-1.20588613305,0.574033554909,0.818806227303,0.00475256448474,0.0,0.818791436311,-0.573955351236,-0.0116869804494,0.0,-0.00684174427697,0.0106002821224,-0.99992040911,0.0,0.412274837941,-0.0667423207125,0.304897732449,1.0,-0.38998,-0.512545142857,1.843
-0.0400600377013,-0.38238409642,-0.141199630632,-2.52803075766,-0.0513848580716,2.14000011476,-0.31719020759,-1.35286168751,-0.949453274021,-0.0461807451655,-0.823332333782,-0.168640280326,-0.119695574462,-1.21527061214,0.573920310851,0.818885577121,0.00475765465979,0.0,0.818871265005,-0.573842751264,-0.0116230405594,0.0,-0.00678792532544,0.0105668091844,-0.999921130196,0.0,0.405662933599,-0.075405992616,0.304931897015,1.0,-0.38998,-0.512545142857,1.86
-0.0632851763692,-0.398085391118,-0.141832000995,-2.54162834215,-0.0541016783557,2.13784972814,-0.338765341782,-1.38831512056,-0.905308878598,-0.0280017375326,-0.763496177521,-0.162316231966,-0.136669392613,-1.29086054589,0.573924657368,0.818881589645,0.00491698149698,0.0,0.818869121449,-0.573846262436,-0.0116006865172,0.0,-0.0066781257363,0.0106844900628,-0.999920619004,0.0,0.399061468081,-0.0840870778605,0.304952954173,1.0,-0.38998,-0.512545142857,1.877
-0.0869818623384,-0.413120927559,-0.142474008375,-2.55444313782,-0.0568342895762,2.13546352134,-0.360952377335,-1.39446226804,-0.86722621882,-0.0375379253045,-0.726298096277,-0.149040023616,-0.127775716144,-1.31577788304,0.573824932411,0.818951298104,0.00494622875302,0.0,0.818938901872,-0.573745972574,-0.0116353279782,0.0,-0.00669101694796,0.0107275069718,-0.999920072249,0.0,0.392442889108,-0.0927477101462,0.304964291475,1.0,-0.38998,-0.512545142857,1.894
-0.109897164461,-0.426605650052,-0.143080632072,-2.56579419986,-0.0593238779648,2.13327182542,-0.382461123397,-1.43813564848,-0.841673940828,-0.0374389231043,-0.716453370566,-0.153634409424,-0.140090709628,-1.36475135289,0.573771729146,0.818988202932,0.00500731388239,0.0,0.818976910573,-0.573693096247,-0.0115671157808,0.0,-0.00660079704712,0.0107379652155,-0.999920559635,0.0,0.38622738336,-0.100950130868,0.304973022314,1.0,-0.38998,-0.512545142857,1.91
-0.134671925277,-0.44020536849,-0.143682305628,-2.5771568423,-0.0617941850632,2.13066137817,-0.405777731546,-1.47061966928,-0.773171226605,-0.0357992414657,-0.641422733279,-0.150480843025,-0.137963026959,-1.37204152424,0.573745977787,0.819006315363,0.00499552491047,0.0,0.81899338828,-0.573664997625,-0.0117918342631,0.0,-0.0067919597116,0.0108570283833,-0.999917993746,0.0,0.379567142881,-0.109588413609,0.304928549763,1.0,-0.38998,-0.512545142857,1.927
-0.161516844958,-0.453796197678,-0.144379786884,-2.5881585149,-0.0643355585836,2.12810880103,-0.431228222484,-1.50118246143,-0.735492750297,-0.0451507245672,-0.607741496643,-0.146355781077,-0.145961313361,-1.43598443899,0.57370688828,0.819032847143,0.00513308318842,0.0,0.819022574634,-0.573626882155,-0.0116176249771,0.0,-0.0065708684664,0.0108694317538,-0.999919336317,0.0,0.372602634101,-0.11881159394,0.304988993428,1.0,-0.38998,-0.512545142857,1.945
-0.187232288921,-0.465562989408,-0.144854927138,-2.59779285129,-0.0664577024982,2.12556021498,-0.455739595166,-1.5064646179,-0.653195255015,-0.0242905474942,-0.547977266627,-0.126593716609,-0.132281394067,-1.44340767719,0.573590530813,0.819114267624,0.00514455423559,0.0,0.819102396757,-0.5735076407,-0.0118741983733,0.0,-0.00677601460131,0.011025056719,-0.999916263369,0.0,0.366005794859,-0.12737322176,0.304919713736,1.0,-0.378203428572,-0.497067363265,1.962
-0.214484611797,-0.476785676189,-0.145202115756,-2.60662557943,-0.0684093802107,2.12316190191,-0.481449322851,-1.5048772338,-0.604735487555,-0.0204556803729,-0.460759791505,-0.106092739584,-0.120799967636,-1.42494612703,0.573763095146,0.818992324656,0.00531316318778,0.0,0.81898325979,-0.573680610621,-0.0117355904336,0.0,-0.00656342615484,0.0110850538195,-0.999917018066,0.0,0.359309244066,-0.136284377109,0.304980907391,1.0,-0.364122285714,-0.478560718367,1.98
-0.235382501069,-0.484624977574,-0.145307185041,-2.6128071187,-0.0696826149064,2.12134148263,-0.501263522173,-1.47530008655,-0.534844254761,0.00749981030003,-0.425076111665,-0.0939658208429,-0.133361033341,-1.40349408526,0.573821651179,0.818950616117,0.00541737027754,0.0,0.818942461574,-0.573738047377,-0.0117747409392,0.0,-0.00653490571903,0.0111933313446,-0.999915998642,0.0,0.354233267016,-0.14294315576,0.304986702522,1.0,-0.353170285714,-0.464166661225,1.994
-0.261871626464,-0.493566033319,-0.145215851846,-2.61989579178,-0.0711045358067,2.11912441275,-0.526370024168,-1.44196478853,-0.468528457584,0.0253977059458,-0.369717076633,-0.077195934131,-0.123806803726,-1.38318082133,0.573859197952,0.818924028147,0.00545929952038,0.0,0.81891522458,-0.573773395843,-0.0119453788399,0.0,-0.00665008496731,0.0113258870715,-0.999913746606,0.0,0.348232645834,-0.150754073447,0.304944747091,1.0,-0.339871428572,-0.446688163265,2.011
-0.284890036616,-0.500487885954,-0.145073798624,-2.62523841368,-0.0720333498557,2.11749696319,-0.548250450692,-1.41191615256,-0.402896362141,0.0168691014291,-0.3167997752,-0.0672386861305,-0.108142727758,-1.35071407722,0.573977103271,0.818839971593,0.0056685750329,0.0,0.818834076693,-0.573890818184,-0.0118672048786,0.0,-0.00646432300033,0.0114533467958,-0.999913512948,0.0,0.342538648025,-0.15827006171,0.304974607376,1.0,-0.326572571429,-0.429209665306,2.028
-0.308667166438,-0.506809920978,-0.144818318005,-2.63004345058,-0.0728407184051,2.11590986538,-0.570941223168,-1.39358555351,-0.362515736751,0.012809647946,-0.264086144561,-0.0511507816582,-0.087697524521,-1.3375747501,0.574050008334,0.818787515638,0.00585995468708,0.0,0.818784350458,-0.573963440265,-0.0117857365589,0.0,-0.00628673524414,0.0115638640022,-0.999913373253,0.0,0.33709757793,-0.165482928964,0.305016256774,1.0,-0.313273714286,-0.411731167347,2.045
-0.331859893561,-0.512254557886,-0.144440081396,-2.63414265113,-0.0735529178442,2.11451403915,-0.593077332032,-1.36048611274,-0.304752424016,0.0132645243145,-0.234372765372,-0.0322719114637,-0.0837366099936,-1.30702056611,0.574093017517,0.818756629768,0.00596115346309,0.0,0.81875540825,-0.574007253242,-0.0116619719008,0.0,-0.00612668944217,0.01157600615,-0.9999142262,0.0,0.331854844977,-0.172425731253,0.305062015152,1.0,-0.299974857143,-0.394252669388,2.062
-0.354217611794,-0.516733772117,-0.143879229418,-2.63773028649,-0.0741092623563,2.11317861189,-0.614508317362,-1.30666295266,-0.24856741652,0.0292834097736,-0.197282962899,-0.0231152423877,-0.0741360926128,-1.23534761034,0.573999066059,0.818822794361,0.00592034628387,0.0,0.818819536516,-0.573910664987,-0.0119105892161,0.0,-0.00635503442575,0.0116845872509,-0.999911538066,0.0,0.326793357618,-0.178967572814,0.304985945555,1.0,-0.286676,-0.376774171429,2.079
-0.377056170983,-0.520587865257,-0.143268837272,-2.64079579161,-0.074535263923,2.1120884092,-0.636410548861,-1.24937639437,-0.203746391395,0.0442698424787,-0.156123675451,-0.0259609221557,-0.0595879258365,-1.18520365694,0.573965715804,0.81884612636,0.00592666244194,0.0,0.818842230845,-0.573875977702,-0.012021235494,0.0,-0.00644249695297,0.0117530048124,-0.999910176521,0.0,0.321711181584,-0.185615622109,0.3049340125,1.0,-0.272594857143,-0.358267526531,2.097
-0.395392127217,-0.523198411353,-0.142732567595,-2.64280965242,-0.0747751814347,2.11131062217,-0.654010722382,-1.19721591874,-0.167854212999,0.0364138789757,-0.125669634017,-0.00562553174329,-0.0452447900697,-1.16490618023,0.573963929958,0.818847227764,0.00594740215985,0.0,0.818843380373,-0.57387370075,-0.0120515935879,0.0,-0.00645548060025,0.0117873978509,-0.999909687933,0.0,0.317679947721,-0.190923225199,0.304924735729,1.0,-0.260860571429,-0.342845322449,2.112
-0.417680083899,-0.525790865229,-0.141990587213,-2.6448021276,-0.0749505470215,2.1105084503,-0.675465914323,-1.14716494444,-0.120285252679,0.0452928297399,-0.0957751502199,-0.0132601129541,-0.034812100964,-1.10098511057,0.573925576436,0.818873994426,0.00596329326903,0.0,0.818870220979,-0.573835045046,-0.0120685198539,0.0,-0.00646077478783,0.0118098228665,-0.999909389131,0.0,0.312823576587,-0.197325480888,0.304920036537,1.0,-0.245997142857,-0.323310530612,2.131
-0.435635299839,-0.527422498305,-0.141387717433,-2.6460606245,-0.0749768066548,2.11000016616,-0.69271101167,-1.10747515468,-0.0927222794644,0.0279645730949,-0.0703802887068,-0.00540693900358,-0.0260597019832,-1.05862635044,0.573993942022,0.818825647013,0.00602172872107,0.0,0.81882261541,-0.57390311264,-0.0120618695005,0.0,-0.00642080286175,0.0118543959173,-0.999909119164,0.0,0.308935029147,-0.202462816408,0.304917440515,1.0,-0.233480571429,-0.306860179592,2.147
-0.452625521863,-0.528644962979,-0.140664355444,-2.64704488199,-0.0749588061209,2.10957673606,-0.709118663921,-1.03769980139,-0.0709185954493,0.0474019296466,-0.0554054979762,-0.00453657481802,-0.0311886568125,-1.0097907161,0.573909027124,0.818885330478,0.00599925115122,0.0,0.818881769207,-0.573817876114,-0.0121012401819,0.0,-0.00646717502483,0.0118579166781,-0.999908778569,0.0,0.305265569174,-0.207257852421,0.304899806298,1.0,-0.220964,-0.290409828572,2.163
-0.469989112832,-0.529531318813,-0.139968457443,-2.6477435196,-0.0749481239562,2.10923223671,-0.725690460429,-0.999479663289,-0.038445332942,0.0470688358472,-0.0303485503534,0.00867465969604,-0.0209303433923,-0.960834428298,0.574041156556,0.818793085789,0.00594812120594,0.0,0.81878883884,-0.5739501634,-0.0121158666604,0.0,-0.00650658798375,0.0118254890432,-0.999908906912,0.0,0.301727356195,-0.21189828092,0.304895622041,1.0,-0.208447428572,-0.273959477551,2.179
-0.487191489632,-0.530049454106,-0.139124173681,-2.64816244492,-0.0748332346765,2.10899324582,-0.742243951397,-0.934766308626,-0.0245244850199,0.044514566767,-0.0213487835219,0.000884510735418,-0.0118559648468,-0.899080224157,0.573989224631,0.818830002767,0.00587736990601,0.0,0.818824965086,-0.57389878288,-0.0121082807548,0.0,-0.00654173407698,0.0117627863602,-0.999909417184,0.0,0.297846151209,-0.216996512709,0.304895548606,1.0,-0.193584,-0.254424685714,2.198
-0.500639440494,-0.530224965181,-0.138345906047,-2.6482911235,-0.0746620790062,2.10886746851,-0.755287266449,-0.881439716926,-0.0109441293996,0.0564715495368,-0.00287873091145,0.0178556741184,-0.00627387925077,-0.85285025859,0.573837009872,0.81893718916,0.00580630800017,0.0,0.818931541486,-0.573747463748,-0.0120716653169,0.0,-0.00655470737273,0.0116823620122,-0.999910275089,0.0,0.295005578643,-0.220733226419,0.304911003348,1.0,-0.181849714286,-0.239002481633,2.213
-0.515066106705,-0.530237903431,-0.137566666328,-2.64831983809,-0.0743798247328,2.10881524491,-0.769114440374,-0.834185294844,0.00111789505327,0.0386783854428,-0.000711024831813,0.0241790916538,-0.00133617106386,-0.792815283524,0.573897080903,0.818894981771,0.00582204974201,0.0,0.818889828782,-0.57380797566,-0.0120250691234,0.0,-0.00650665545726,0.0116689940483,-0.999910745023,0.0,0.291941518677,-0.22473520835,0.30491889465,1.0,-0.168550857143,-0.221523983674,2.23
-0.529115008969,-0.530044214491,-0.136570783488,-2.64821890098,-0.0739276315125,2.10880984263,-0.782681775707,-0.763350148702,0.00988508361793,0.0518582403942,0.00801945678424,0.0272447213503,0.000434275753517,-0.733196118655,0.573793756822,0.818967172503,0.00585165754044,0.0,0.818962494341,-0.573704712582,-0.0120034380752,0.0,-0.00647342286687,0.0116800107597,-0.999910832097,0.0,0.288842272155,-0.228754331141,0.30492222668,1.0,-0.153687428572,-0.201989191837,2.249
-0.541532484189,-0.529684663252,-0.135763216088,-2.6480181429,-0.0735068364044,2.10881212268,-0.794470117632,-0.715496775015,0.0226827293086,0.0448664815741,0.0137709984988,0.0234248043792,-0.000702187020365,-0.671621186056,0.573924796791,0.818874951282,0.00590666504937,0.0,0.818870566532,-0.573834734172,-0.0120598518428,0.0,-0.00648618590099,0.0117584685605,-0.999909829839,0.0,0.286370872712,-0.231925023862,0.304901519736,1.0,-0.141170857143,-0.185538840816,2.265
-0.551474839332,-0.52924240642,-0.134923662032,-2.64776330504,-0.0730848993679,2.10886729092,-0.804057406295,-0.642707913249,0.0251975846603,0.0550501635062,0.0149785962326,0.0312464139305,0.00552205341435,-0.625450396791,0.573818216507,0.818949569946,0.0059163494578,0.0,0.818944998468,-0.573727568155,-0.0121042936216,0.0,-0.0065185587716,0.01179105599,-0.999909235576,0.0,0.284310741768,-0.234579377295,0.304882590053,1.0,-0.129436571429,-0.170116636735,2.28
-0.561949613794,-0.528672006651,-0.13407152132,-2.6474381994,-0.0726214479329,2.10896148023,-0.814018582348,-0.598888796809,0.0304240213864,0.0429502694246,0.018516336965,0.0287963611462,0.00970051918049,-0.571256426603,0.573854226646,0.818924097494,0.00594945417501,0.0,0.818919521758,-0.57376263865,-0.0121654541479,0.0,-0.00654913512385,0.0118535496671,-0.99990829689,0.0,0.28212653606,-0.237377955168,0.304852274804,1.0,-0.116137714286,-0.152638138776,2.297
-0.571511998845,-0.528085086431,-0.133254733305,-2.64699863785,-0.0721428195217,2.10908143528,-0.822947748891,-0.535243427807,0.0363059885073,0.0587216729726,0.0284021568563,0.0353659875056,0.0163223321531,-0.514017971567,0.574025141342,0.818803986632,0.00599295284455,0.0,0.818800302566,-0.573933918752,-0.0121106698423,0.0,-0.00647683053579,0.0118590888946,-0.999908702171,0.0,0.280160114601,-0.239937729147,0.304869002148,1.0,-0.102838857143,-0.135159640816,2.314
-0.579325693383,-0.527450133627,-0.132389347427,-2.64658881623,-0.0716598563039,2.1091988032,-0.830432780592,-0.47227450748,0.0432861598236,0.0464496264584,0.0247437274927,0.0288852141167,0.00667122822601,-0.441187176719,0.573912623086,0.818882808155,0.00599953929585,0.0,0.818878972323,-0.573820960602,-0.0121441657758,0.0,-0.00650211235711,0.0118828153896,-0.999908256408,0.0,0.278595545909,-0.241974487146,0.304855402937,1.0,-0.0903222857144,-0.118709289796,2.33
-0.587305543813,-0.526827613359,-0.13145333678,-2.64611514765,-0.071142054432,2.10932132926,-0.837795365437,-0.417163780575,0.0292315499775,0.050502721544,0.0256316749219,0.0316439382557,0.00629551948666,-0.384818639253,0.574004131306,0.818818702143,0.00599476158451,0.0,0.818815133304,-0.573913073226,-0.0120958155788,0.0,-0.00646393242009,0.011851877805,-0.999908871133,0.0,0.277009654301,-0.24404365118,0.304877309866,1.0,-0.0762411428573,-0.100202644898,2.348
-0.593406477038,-0.52625069727,-0.130637641594,-2.64569708208,-0.0706508475161,2.10943557257,-0.843398482068,-0.358526906829,0.0363408877913,0.0474429513524,0.0231048037019,0.0270555967785,0.00367192125649,-0.339823854591,0.574068123892,0.818773700045,0.00601366336119,0.0,0.818770469959,-0.573977141236,-0.0120791458063,0.0,-0.00643850556202,0.0118582908565,-0.999908959148,0.0,0.275829952042,-0.245600567739,0.30488661871,1.0,-0.0637245714287,-0.0837522938777,2.364
-0.599296692614,-0.525631626897,-0.129561212456,-2.6452927038,-0.0700324818452,2.10954966215,-0.848887655464,-0.286226984463,0.0278999860842,0.0562726694987,0.0203565085637,0.0317911357638,0.00366243418569,-0.266410470158,0.573921998414,0.81887616005,0.00601008646485,0.0,0.818872663954,-0.573830658317,-0.0121112635686,0.0,-0.00646897767959,0.0118726446899,-0.99990859214,0.0,0.274753842191,-0.247017435491,0.304880513914,1.0,-0.0488611428573,-0.064217502041,2.383
-0.603618431695,-0.525225185092,-0.128592602957,-2.64504919482,-0.0694943665024,2.10960704482,-0.852728004815,-0.234912740734,0.0236799023161,0.0562656356245,0.0131431734995,0.0325480843758,0.00605668528219,-0.206890867033,0.573874524817,0.818909534541,0.0059959073923,0.0,0.818905532771,-0.573782669834,-0.0121623639208,0.0,-0.00651965354923,0.0118899814722,-0.999908057002,0.0,0.273987933215,-0.247988888329,0.304871308407,1.0,-0.0355622857144,-0.0467390040818,2.4
-0.606981480618,-0.524885471274,-0.127650390347,-2.64482398535,-0.0689524204812,2.1097054494,-0.855548431351,-0.178446240372,0.0245540508088,0.0527127472852,0.014882280683,0.0338609771419,0.007473492072,-0.147260992395,0.573896040622,0.818894527549,0.00598616819011,0.0,0.818890620361,-0.573804628183,-0.0121304353711,0.0,-0.00649878125126,0.0118638542292,-0.999908503217,0.0,0.273455990868,-0.248703430221,0.304880858051,1.0,-0.0222634285715,-0.0292605061226,2.417
-0.609399941666,-0.524602440786,-0.126904912751,-2.64465522995,-0.0684762442561,2.10977575106,-0.857510054923,-0.13109876449,0.0148140370193,0.0284444440242,0.00776819545168,0.0267207094191,0.000654288317305,-0.120885136662,0.57395526065,0.818852794107,0.00601724669496,0.0,0.818849230442,-0.573863587138,-0.0121354053385,0.0,-0.00648415663609,0.0118926265296,-0.999908256365,0.0,0.273094505889,-0.249193207334,0.30487813659,1.0,-0.0196983783784,-0.0258892972973,2.434
-0.610973787479,-0.524462818635,-0.126449213893,-2.64454285081,-0.0682343582356,2.10976968538,-0.858889637213,-0.108350442333,0.00267801046309,0.0324929913994,0.00635700012616,0.0145863405057,0.000837137228666,-0.0967832056616,0.57390115089,0.818890849161,0.00599942234408,0.0,0.818886994169,-0.573809459097,-0.0121467004651,0.0,-0.00650442179853,0.011884083112,-0.999908226322,0.0,0.272840045089,-0.249519792031,0.304888616636,1.0,-0.0194183783784,-0.0255212972973,2.448
-0.612889372769,-0.524275042476,-0.126021496071,-2.64433734435,-0.0680340150883,2.10982210728,-0.860729757925,-0.0951481342835,0.0095033783659,0.0150406256042,0.00824167320857,0.00557309127978,0.00172050617906,-0.100648076936,0.573756386744,0.818992634789,0.00595144801533,0.0,0.818988787867,-0.573666087919,-0.0120553648083,0.0,-0.0064592354476,0.0117912387673,-0.999909618398,0.0,0.272521056358,-0.249980050093,0.304928012526,1.0,-0.0190383783784,-0.0250218687259,2.467
-0.614326129566,-0.524077746163,-0.125848651007,-2.6441656095,-0.0678880629991,2.10991793278,-0.862114543177,-0.0906933927211,0.0124768960666,0.00980365675026,0.0103526767432,0.004796601893,0.00107485524774,-0.097073303539,0.573747853455,0.818998407247,0.00597967264721,0.0,0.818995441583,-0.573658382742,-0.0119696899577,0.0,-0.00637299037027,0.0117651350753,-0.999910479288,0.0,0.27226218735,-0.250369674612,0.304946115932,1.0,-0.0187183783784,-0.0246012972973,2.483
-0.615929825083,-0.5239170232,-0.125747595957,-2.6440000257,-0.0678250047312,2.10991523788,-0.86369172027,-0.0841780900548,0.00560429102136,0.00273025797069,0.00848407176203,0.000830782527386,-0.00963631275355,-0.0844853308585,0.573733507981,0.819008427008,0.00598374555662,0.0,0.819005596909,-0.57364417624,-0.0119556764062,0.0,-0.0063593813744,0.0117603196888,-0.999910622581,0.0,0.271922092846,-0.250814964433,0.304964643617,1.0,-0.0183583783784,-0.0241281544402,2.501
-0.617312944732,-0.52377808056,-0.125699036927,-2.6438530045,-0.0677995534135,2.10992349275,-0.864935383536,-0.0820714823047,0.00609301616162,0.00336415825589,0.00793181280611,-4.30127666916e-05,8.49853232178e-05,-0.0801303845739,0.573831779734,0.81893960934,0.00597927447925,0.0,0.818936889842,-0.573742758182,-0.0119316717165,0.0,-0.00634087522409,0.0117436469634,-0.999910936063,0.0,0.271620335482,-0.251212765952,0.304982374203,1.0,-0.0180383783784,-0.0237075830116,2.517
-0.618219806427,-0.523662076778,-0.125658040883,-2.64374021375,-0.0677745367365,2.10994843318,-0.865842636423,-0.0815511607091,0.0108801097146,-0.000454790635393,0.00877252391379,0.00148267686246,0.000290092900408,-0.0835151391415,0.573812529341,0.818953127104,0.00597525554068,0.0,0.818950535308,-0.57372386127,-0.0119037233019,0.0,-0.00632056643191,0.0117241700267,-0.999911293204,0.0,0.271415664122,-0.251499473152,0.304993601128,1.0,-0.0177983783784,-0.0233921544402,2.529
-0.619565819447,-0.52345973025,-0.125628973388,-2.6435929104,-0.067736902413,2.11000513019,-0.867257580145,-0.0820514394165,0.0123985353821,0.000538854506884,0.00817324746886,0.00038452034055,0.00280276369856,-0.0795117550082,0.573772005414,0.818981420843,0.00598874096661,0.0,0.818979069408,-0.573683413269,-0.0118900005284,0.0,-0.00630216950394,0.011727028733,-0.999911375801,0.0,0.271158194519,-0.251851031285,0.30499489435,1.0,-0.0174983783784,-0.0229978687259,2.544
-0.621471077533,-0.52319727251,-0.125620194499,-2.64342399653,-0.0676974747056,2.11000927067,-0.869109195751,-0.084651261505,0.0118827986149,0.000980547022785,0.00239030321292,0.000441516210183,0.000143953536311,-0.0738595700613,0.573829529003,0.818940857696,0.00602412993927,0.0,0.818938421701,-0.573739769399,-0.011970186832,0.0,-0.00634671434268,0.0118024653705,-0.999910206483,0.0,0.270700882218,-0.25242121151,0.304973495408,1.0,-0.0169983783784,-0.0223407258687,2.569
-0.622463457811,-0.52305891099,-0.125609450924,-2.6433339774,-0.0676806864283,2.11002465847,-0.870116908889,-0.0709316785635,0.00994169080563,0.000494100319902,0.00797238479928,0.000397933238928,0.000442720046427,-0.0770241378876,0.573816050194,0.818950218644,0.0060354638608,0.0,0.818947742623,-0.573725897961,-0.0119973231753,0.0,-0.0063626310148,0.0118272138124,-0.999909812903,0.0,0.270458336712,-0.252729258474,0.304965510365,1.0,-0.0167183783784,-0.0219727258687,2.583
-0.623784663941,-0.522860335364,-0.125576014908,-2.64319776736,-0.067648340352,2.11006088602,-0.87139381602,-0.0750746906359,0.0091780019387,0.00154031127992,0.00333010703457,-0.000111249797117,0.00268805524425,-0.0587478583706,0.573855121322,0.818922781711,0.00604352778062,0.0,0.818920295647,-0.573764713528,-0.0120145656542,0.0,-0.00637156121315,0.011844015622,-0.999909557161,0.0,0.270183772823,-0.253090059661,0.304958119155,1.0,-0.0163783783784,-0.0215258687259,2.6
-0.624928545721,-0.522678786019,-0.125512151197,-2.64307054539,-0.0676224285288,2.11009312127,-0.872575754454,-0.0726767093789,0.0108267374427,0.00709094507846,0.0147842138271,0.00014982213108,0.00446050034143,-0.0715650560135,0.573796609089,0.81896386579,0.0060319838554,0.0,0.818961141869,-0.57370609945,-0.0120293999829,0.0,-0.00639118103352,0.0118426173126,-0.99990944851,0.0,0.269940889163,-0.253415368795,0.304953569038,1.0,-0.0160583783784,-0.0211052972973,2.616
-0.626126663962,-0.522505348744,-0.125418346311,-2.64295593016,-0.0675981087503,2.11012844979,-0.873818885716,-0.0638216609975,0.0100124643871,0.00172260376196,0.00877480641515,0.000305153113675,0.00497776030542,-0.0706717802003,0.573709880913,0.819024814114,0.00600610607274,0.0,0.819021670868,-0.573619346255,-0.0120455449034,0.0,-0.00642050515108,0.0118300069275,-0.999909409922,0.0,0.269687777231,-0.253745972348,0.30494723145,1.0,-0.0157183783784,-0.0206584401544,2.633
-0.62725227669,-0.522345207676,-0.125366393082,-2.64284573432,-0.0675726569228,2.11015216504,-0.874990706139,-0.0658898481483,0.0117910952955,0.000902779346355,0.00440550140506,0.000120265167866,0.00159681038133,-0.064002588075,0.573644073998,0.819070957891,0.00599910059754,0.0,0.819067519819,-0.573553208394,-0.0120773349422,0.0,-0.00645151511633,0.0118419880618,-0.999909068501,0.0,0.26945587531,-0.254042752309,0.30493750346,1.0,-0.0153983783784,-0.0202378687259,2.649
-0.628314257105,-0.522180279702,-0.125355664146,-2.64273957218,-0.0675512164847,2.11017682417,-0.876113627804,-0.0669482957247,0.0125564920681,-0.00150916969275,0.00559759439314,0.000340343640523,0.00279921535673,-0.0657193981147,0.573609375269,0.819095131995,0.00601633170939,0.0,0.819091803553,-0.573518231895,-0.0120913993208,0.0,-0.00645365465108,0.0118638964179,-0.999908794993,0.0,0.269200650295,-0.254372242176,0.304931817676,1.0,-0.0150583783784,-0.019791011583,2.666
-0.629479100477,-0.522023699917,-0.125353521975,-2.64262118876,-0.0675190361348,2.11021507242,-0.877249500677,-0.0699886779206,0.0106865696522,-0.000188230985193,0.00598293133915,8.77927732877e-06,0.00418556046722,-0.0660941019002,0.573651565919,0.819065405234,0.00604067625081,0.0,0.819062421955,-0.573560360303,-0.0120834155527,0.0,-0.0064325390557,0.0118795898926,-0.999908744729,0.0,0.268937804541,-0.254714306348,0.304931436769,1.0,-0.0147183783784,-0.0193441544402,2.683
-0.630776226098,-0.521831330874,-0.125358307736,-2.64247558488,-0.0674925446948,2.11024452232,-0.878453872451,-0.0698499526727,0.0152102951209,-8.74693999339e-05,0.00763405582687,0.00180823521731,-8.5158197692e-06,-0.0632618264225,0.573749923739,0.818996347946,0.00606250463282,0.0,0.818993573964,-0.573658464129,-0.0120929417397,0.0,-0.00642639175225,0.0119037059206,-0.999908497451,0.0,0.268642961487,-0.255098826395,0.304929350647,1.0,-0.0143383783784,-0.0188447258687,2.702
-0.63180584477,-0.521684809834,-0.125359019161,-2.64235145114,-0.0674675685927,2.1102788934,-0.879555231312,-0.0615121284981,0.0113410270495,0.00151174425249,0.00952121762793,-0.000183937159643,0.00309395186569,-0.0622943513065,0.573708796499,0.819025019947,0.00608115298953,0.0,0.819022586611,-0.573617446123,-0.0120737329134,0.0,-0.00640055712343,0.0119076376889,-0.999908616341,0.0,0.268413451199,-0.255406490583,0.304934859095,1.0,-0.0140183783784,-0.0184241544402,2.718
-0.63280101206,-0.521540116026,-0.125336212388,-2.64223544476,-0.067442317178,2.11031056396,-0.880542884016,-0.0611951934993,0.00645656713125,0.00427433273335,0.00575948772099,0.00243056013507,3.43823882315e-05,-0.0644314313431,0.573715651239,0.819020166064,0.00608818578977,0.0,0.819017877385,-0.573624367867,-0.0120643281989,0.0,-0.00638871936246,0.011908056179,-0.999908687062,0.0,0.268195155001,-0.255697088259,0.304937666391,1.0,-0.0136983783784,-0.0180035830116,2.734
-0.633821285776,-0.521376358449,-0.125286855804,-2.64210870935,-0.0674205229653,2.11033904304,-0.881548693792,-0.0583787470928,0.0108183121946,-0.000461517630807,0.00791190696419,0.00110760019435,0.00102360093997,-0.0585066394597,0.573708506951,0.819025241622,0.00607861329312,0.0,0.819022821071,-0.573617252928,-0.0120670050187,0.0,-0.0063965073949,0.0119016955847,-0.999908713001,0.0,0.267977054079,-0.255990671731,0.304938690521,1.0,-0.0133583783784,-0.0175567258687,2.751
-0.634751773286,-0.521213710138,-0.125201342701,-2.64200461641,-0.0673964269539,2.11036255842,-0.882532262344,-0.0574150207877,0.0126111222234,0.00100044920788,0.00876469229559,7.92906510483e-06,-0.000230568436247,-0.0581629681855,0.573620340735,0.819087159076,0.00605618965921,0.0,0.819084273722,-0.573528881944,-0.0120963225618,0.0,-0.00643466668563,0.0118994554795,-0.999908494825,0.0,0.267783533543,-0.256245409421,0.30493025842,1.0,-0.0130383783784,-0.0171361544402,2.767
-0.635696475523,-0.521047790981,-0.125158627113,-2.6419022408,-0.0673795831135,2.11038687418,-0.883510820246,-0.0592621065864,0.0136859563002,0.00116392470914,0.0011625791783,-0.00408195425496,0.00239789932363,-0.0538531541272,0.573575076511,0.819118908355,0.00604917201011,0.0,0.819115717406,-0.573483262693,-0.0121299551231,0.0,-0.00646690120574,0.0119126411638,-0.999908129865,0.0,0.267575980661,-0.256513620553,0.304918885148,1.0,-0.0126983783784,-0.0166892972973,2.784
-0.636680430803,-0.520886807828,-0.125133857157,-2.64178814366,-0.0673636117401,2.11040991532,-0.884480141495,-0.0547924124053,0.0125388402258,-0.000699057935343,0.00561776758634,0.000126866757293,0.00291517352868,-0.0563954554564,0.573582391366,0.819113789372,0.00604874182024,0.0,0.81911047565,-0.57349036224,-0.0121482509079,0.0,-0.006482029497,0.0119228401478,-0.999907910348,0.0,0.2673567964,-0.256799085605,0.304914110563,1.0,-0.0123383783784,-0.0162161544402,2.802
-0.637573950795,-0.520745015398,-0.125133695179,-2.64167106674,-0.0673499307071,2.11042709194,-0.885383309489,-0.05733355008,0.00657385139395,-0.00156399299353,0.00455693421094,0.000404997987076,0.0015403079602,-0.0577806294829,0.573586325201,0.819110969814,0.00605752212882,0.0,0.819107746517,-0.573494212019,-0.0121505258253,0.0,-0.00647879984941,0.0119313684736,-0.999907829552,0.0,0.267155264442,-0.257066132979,0.304916654432,1.0,-0.0120183783784,-0.0157955830116,2.818
-0.638474972506,-0.520604705569,-0.125131217914,-2.64157077587,-0.0673396563491,2.11046659773,-0.886277886994,-0.0590265701391,0.00609133426783,-0.000663783209523,0.00875226624642,-0.000500328995173,0.000981083859341,-0.0521777215178,0.573599544365,0.819101678602,0.00606215453778,0.0,0.819098540964,-0.573507454377,-0.0121460638003,0.0,-0.00647229504192,0.0119327083403,-0.999907855689,0.0,0.266951437768,-0.257333722685,0.30491406779,1.0,-0.0116983783784,-0.015375011583,2.834
-0.639404620495,-0.520466979835,-0.125134015946,-2.64146135981,-0.0673270974683,2.11049474456,-0.887148685056,-0.0557596110204,0.00611475123171,-0.00146362782854,0.0059767498634,0.0033360064256,0.00248591510564,-0.0516622788541,0.573660817756,0.819058702051,0.00607088685288,0.0,0.819055707143,-0.573568729406,-0.0121411756261,0.0,-0.0064623891121,0.0119375410971,-0.999907862075,0.0,0.266739402433,-0.257610505142,0.30491547946,1.0,-0.0113583783784,-0.0149281544402,2.851
-0.640291908224,-0.520329503416,-0.125133327337,-2.64134247041,-0.0673237559894,2.1105163824,-0.888001719828,-0.0481046608654,0.00658843232026,-0.000416389698664,0.00890252352413,0.00455892674449,0.000418965414431,-0.0495279122347,0.573695982127,0.819034084519,0.00606921649947,0.0,0.819031119454,-0.573603989112,-0.0121340818038,0.0,-0.00645702410446,0.0119323808967,-0.999907958327,0.0,0.266539107436,-0.257877511427,0.304920802638,1.0,-0.0110183783784,-0.0144812972973,2.868
-0.641217931146,-0.520169972907,-0.125123759198,-2.64122229334,-0.0673125969258,2.11057377281,-0.888946927797,-0.0489653555603,0.00598349410684,-0.00054476602185,0.00761194780599,0.000256289053003,0.00815977217417,-0.0551369496124,0.573684559064,0.819042097285,0.0060676575249,0.0,0.819039260441,-0.573592850025,-0.0121111170976,0.0,-0.0064392737514,0.0119178400591,-0.999908246212,0.0,0.266336663098,-0.258156853914,0.304921858029,1.0,-0.0106383783784,-0.0139818687259,2.887
-0.641980531509,-0.520058025577,-0.125107776111,-2.64112885618,-0.067304599053,2.11059766224,-0.889730174138,-0.0508973209245,0.00524030469176,-0.00015467352016,0.00484786664491,0.0027973245297,0.000505832094918,-0.0481080832323,0.573664591355,0.819056110279,0.00606397084597,0.0,0.819053287867,-0.57357301826,-0.0121017048435,0.0,-0.00643396910993,0.0119092641129,-0.999908382538,0.0,0.266166804665,-0.258380792177,0.304925552543,1.0,-0.0103183783784,-0.0135612972973,2.903
-0.642720848813,-0.519947336701,-0.125086883204,-2.64105519087,-0.0672985510428,2.11060740103,-0.890447109204,-0.0441714935406,0.00929762710277,0.00343373466912,0.00483481351478,0.00156060763096,-0.000296113950601,-0.0457371894143,0.573675456773,0.819048532488,0.00605958969531,0.0,0.819045506977,-0.573583630667,-0.0121253054915,0.0,-0.00645565650238,0.0119192993639,-0.99990812318,0.0,0.265996610167,-0.258590827525,0.304919629789,1.0,-0.00999837837838,-0.0131407258687,2.919
-0.643458480043,-0.519852898085,-0.125068004017,-2.64098957392,-0.0672897154114,2.11062427015,-0.891128307243,-0.0471235957442,0.00503687114979,-0.000541127959649,0.00405518297304,0.00042335724462,0.000417878100314,-0.0463258179599,0.573715549567,0.819020460928,0.00605802508177,0.0,0.819017368451,-0.573623635948,-0.0121334809204,0.0,-0.00646266718835,0.01192302399,-0.999908033487,0.0,0.265826398452,-0.258799409594,0.304916588232,1.0,-0.00967837837838,-0.0127201544402,2.935
-0.644213790166,-0.519756823075,-0.125059074194,-2.64093816845,-0.067282016283,2.11064334476,-0.891874322218,-0.0398987418234,0.0118149610342,-0.000780820745006,0.000962485921498,0.00333738973787,-0.00069147134112,-0.0457343629966,0.573722951088,0.819015238892,0.00606306510377,0.0,0.819012070148,-0.573630751753,-0.012154690296,0.0,-0.00647704068615,0.0119393781583,-0.999907745341,0.0,0.265646221676,-0.25901152894,0.304906437185,1.0,-0.00933837837838,-0.0122732972973,2.952
-0.644962754362,-0.519672769534,-0.125054121932,-2.64085988436,-0.0672713993556,2.11065673047,-0.892620909938,-0.0442925344716,0.00341892400382,-0.000965712310428,0.00401803526879,-0.000740558218848,-0.000767621600359,-0.0324586249881,0.573729940672,0.819010298802,0.00606898131635,0.0,0.819007279328,-0.573637846671,-0.0121426593422,0.0,-0.00646369012839,0.0119373769317,-0.999907855626,0.0,0.265472491645,-0.259228686963,0.304912342048,1.0,-0.00899837837838,-0.0118264401544,2.969
-0.645680361859,-0.519559451554,-0.125042076877,-2.64077344907,-0.0672570193043,2.11068480892,-0.893281481194,-0.0424222196213,0.00784258533728,-0.00099991053395,0.00792152588788,0.000154266538676,0.000355620428938,-0.0416773259532,0.57377877941,0.818976063612,0.00607177323611,0.0,0.81897311615,-0.573686728525,-0.0121375219363,0.0,-0.00645716853369,0.0119371013956,-0.999907901051,0.0,0.265312153077,-0.25943911303,0.30491260192,1.0,-0.00865837837838,-0.0113795830116,2.986
-0.64635588899,-0.519456624928,-0.125023270683,-2.64068535229,-0.0672483972715,2.11072168377,-0.893943966726,-0.0357575050344,0.00832973572568,0.000316031041753,0.00601579522084,0.00246372636534,-0.000280202484518,-0.035760868034,0.573784354408,0.818972209397,0.00606479790696,0.0,0.818969343053,-0.573692651234,-0.0121121409992,0.0,-0.00644030087999,0.011916869998,-0.999908251158,0.0,0.265165545589,-0.259639219819,0.304918380531,1.0,-0.00831837837838,-0.0109327258687,3.003
-0.646967136704,-0.519367423359,-0.125007263512,-2.64059348114,-0.067234016331,2.11074577126,-0.894529092212,-0.0394055563778,0.00427826616047,0.000971173024938,0.00345901769987,0.000643141970685,0.00393610222826,-0.0335219238514,0.573805198107,0.81895761532,0.00606348389549,0.0,0.818954929168,-0.573713861774,-0.0120820404629,0.0,-0.00641609781394,0.0118986867321,-0.999908623297,0.0,0.265034543985,-0.25982164588,0.304929732542,1.0,-0.00799837837838,-0.0105121544402,3.019
-0.647594195897,-0.51924848184,-0.124980349212,-2.64050164426,-0.0672238085263,2.11076968252,-0.895151823539,-0.0371376608507,0.00646103796303,0.00476463724041,0.000666259349757,0.000970758880418,0.000698815688278,-0.0354356723685,0.573798818138,0.818962149979,0.00605475900459,0.0,0.818959358173,-0.573707535691,-0.0120822205641,0.0,-0.00642134409273,0.0118915943785,-0.999908673991,0.0,0.26490060556,-0.260005695963,0.304930358407,1.0,-0.00765837837838,-0.0100652972973,3.036
-0.64819346319,-0.519167808227,-0.12495861537,-2.64043572301,-0.0672095738088,2.11078236693,-0.895733523515,-0.0335052745191,0.00520239466128,0.00107628672516,0.000385703675075,0.000389487854509,-0.000551603196713,-0.035974902922,0.573807293758,0.818956209059,0.00605509498065,0.0,0.818953431894,-0.573716027092,-0.0120807097108,0.0,-0.00641979079237,0.0118910691006,-0.999908690212,0.0,0.264766119417,-0.260175485163,0.304932215622,1.0,-0.00731837837838,-0.00961844015445,3.053
-0.648761282222,-0.519082622796,-0.12494583707,-2.64037741151,-0.0671951940632,2.11080642028,-0.896303998266,-0.0292070321842,0.00478224741091,0.00319539416067,0.0036633816116,0.000149145668914,0.0015757228065,-0.0374809351388,0.573805281391,0.818957583654,0.00605987828868,0.0,0.818954868906,-0.57371399469,-0.0120798134498,0.0,-0.00641634138793,0.0118944565903,-0.999908672062,0.0,0.264637727835,-0.260338393433,0.304929710967,1.0,-0.00697837837838,-0.00917158301159,3.07
-0.649339835893,-0.519004063497,-0.124934798055,-2.64033539102,-0.0671837586669,2.11082227681,-0.896870174673,-0.0253251513486,0.00615857573927,0.000653623619722,0.00348489832279,-0.000644404470617,0.00230525620527,-0.0373000814296,0.573814777969,0.818950884297,0.00606601961821,0.0,0.818948134692,-0.573723249747,-0.0120967882077,0.0,-0.00642658264311,0.0119093005818,-0.999908429605,0.0,0.264500904132,-0.260499545005,0.304921499732,1.0,-0.00659837837838,-0.00867215444016,3.089
-0.649768354277,-0.518943737587,-0.124917891232,-2.64030079805,-0.0671665605819,2.11083265353,-0.897271792981,-0.0345238193094,0.00173196119734,0.00115049406163,-0.000843626167802,0.0049002719702,-0.000779759374018,-0.0270036314639,0.573834035484,0.81893733792,0.00607315257328,0.0,0.818934597609,-0.573742317037,-0.0121088967516,0.0,-0.0064321268802,0.0119222413872,-0.999908239742,0.0,0.264402715753,-0.260616728372,0.304916300188,1.0,-0.00631837837838,-0.00830415444016,3.103
-0.650275811551,-0.518886447019,-0.12489820287,-2.64025312777,-0.0671561167608,2.110848398,-0.897758731635,-0.0323375730153,0.0040921427827,0.00203650160059,0.00228710045911,0.000276332361424,0.00061346141191,-0.0258223704414,0.573843797954,0.818930508737,0.00607159876176,0.0,0.818927808908,-0.573752196829,-0.0120998897647,0.0,-0.00642549946359,0.0119158771855,-0.999908358215,0.0,0.264287815527,-0.260758974725,0.304918677929,1.0,-0.00597837837838,-0.0078572972973,3.12
-0.650743661871,-0.518818107776,-0.124893192991,-2.64018121378,-0.0671441438139,2.11086543132,-0.898217241277,-0.0287408846829,0.00227809830076,-0.00177981857402,0.00633201349289,-6.73666611025e-05,0.000357787127209,-0.0248882536806,0.573856641592,0.818921483655,0.00607498232107,0.0,0.818918975894,-0.573765297843,-0.0120764569963,0.0,-0.00640417934021,0.0119053025692,-0.999908620954,0.0,0.264185630507,-0.260899972731,0.304927765842,1.0,-0.00563837837838,-0.00741044015445,3.137
-0.65121112313,-0.518725954758,-0.12487947539,-2.64009030893,-0.0671247295917,2.11087398578,-0.898701274977,-0.0225419763127,0.00488474889834,0.00124621951471,0.00526617796116,0.000292743328322,-0.000480036313678,-0.0264911218041,0.573846258699,0.818928724035,0.00607973918032,0.0,0.818926339841,-0.573755011232,-0.012065815416,0.0,-0.0063928850842,0.0119030107586,-0.999908720512,0.0,0.264088525852,-0.261041454997,0.304936197404,1.0,-0.00527837837838,-0.0069372972973,3.155
-0.651661321326,-0.518671435022,-0.1248642337,-2.64002303024,-0.0671063897544,2.11088951226,-0.899129827223,-0.0228890822986,0.00438415273998,0.00333195363853,0.00752547874338,0.00336928598941,7.91861140172e-05,-0.0264156547362,0.573864354759,0.818916016544,0.00608334498686,0.0,0.818913877458,-0.573773457583,-0.0120344331329,0.0,-0.00636485069886,0.0118880967185,-0.999909076782,0.0,0.26399261698,-0.2611736736,0.304948382257,1.0,-0.00491837837838,-0.00646415444016,3.173
-0.651983121385,-0.518635005802,-0.124848998537,-2.63999530836,-0.0670927003896,2.11090293981,-0.899420475349,-0.0168099776609,0.00783794458023,0.00133677156977,6.56204302201e-05,-0.00134077800038,0.000546840309211,-0.0208604914675,0.573886343127,0.81890058247,0.00608671539871,0.0,0.818898530773,-0.573795508331,-0.0120273778598,0.0,-0.00635681916715,0.0118869790558,-0.999909141162,0.0,0.263920777779,-0.261262294206,0.30494907422,1.0,-0.00463837837838,-0.00609615444016,3.187
-0.652384049128,-0.518596601069,-0.124819102854,-2.63996211883,-0.0670637252261,2.11091444415,-0.899818510877,-0.0184210351072,0.00072382844799,0.000531632530129,0.00178930734293,0.00264324084579,-0.000600125698476,-0.017837044204,0.57388157188,0.818903853144,0.0060965288051,0.0,0.818901983446,-0.573790798083,-0.0120170065028,0.0,-0.0063427629176,0.0118890270123,-0.999909206076,0.0,0.263833709124,-0.261368129949,0.304951713277,1.0,-0.00425837837838,-0.00559672586873,3.206
-0.65267580342,-0.518545235607,-0.124772401816,-2.63994085878,-0.0670408533238,2.11092002818,-0.900141157806,-0.0179142803599,0.00137213453191,0.00169621962432,0.000815085935147,-0.000339939287965,-0.000630188391076,-0.0202831443193,0.573834123968,0.81893711404,0.00609494212934,0.0,0.818935082911,-0.573743103299,-0.0120386168369,0.0,-0.00636206160712,0.0118997601917,-0.999908955795,0.0,0.263774312806,-0.261437973645,0.304944044253,1.0,-0.00393837837838,-0.00517615444016,3.222
-0.652949354363,-0.518518826646,-0.124733280106,-2.63992914083,-0.0670187594987,2.11093026092,-0.900414976217,-0.0134136560306,0.00139985993776,0.0027537255781,-0.00039505843145,0.000209213191051,0.00337669125888,-0.017055807531,0.573816235234,0.818949642633,0.00609572917221,0.0,0.818947608108,-0.573725189451,-0.0120403099666,0.0,-0.00636325668258,0.011901237297,-0.999908930611,0.0,0.263717035827,-0.261503360436,0.304941448984,1.0,-0.00361837837838,-0.00475558301159,3.238
-0.653198048286,-0.518454819195,-0.124691971794,-2.63989870875,-0.0669924054318,2.11094416032,-0.900687521122,-0.0152782317364,0.00579614954207,0.002356130026,0.00405829080696,0.00116445354865,-0.000291759628831,-0.0117113958329,0.573780339135,0.818974780594,0.00609738255315,0.0,0.81897265477,-0.573689082923,-0.0120571047798,0.0,-0.00637658570551,0.0119119485881,-0.999908718152,0.0,0.263671131927,-0.261565960773,0.304933873348,1.0,-0.00327837837838,-0.00430872586873,3.255
-0.653464092926,-0.518392215116,-0.124645873132,-2.63987263319,-0.0669715503816,2.11094986012,-0.900979666711,-0.013788331137,0.00829982408719,0.00482799546308,0.000537444588156,0.000464649350351,0.0011658254728,-0.0152389424512,0.573736651566,0.819005413357,0.00609380357785,0.0,0.819003058883,-0.573645080504,-0.0120854480823,0.0,-0.00640249022606,0.0119249378779,-0.999908397792,0.0,0.263618968289,-0.261630387427,0.30492424344,1.0,-0.00289837837838,-0.0038092972973,3.274
-0.653641352114,-0.518361243623,-0.124625194052,-2.6398494062,-0.0669527333251,2.1109534133,-0.901156972275,-0.0123046856557,0.0030506584872,0.00314716176885,0.000519618283405,0.000416620742572,-0.000274366625626,-0.0127572547355,0.57373118556,0.819009203426,0.00609904255605,0.0,0.819006897732,-0.573639556566,-0.0120874940364,0.0,-0.00640124003856,0.0119303599033,-0.999908341119,0.0,0.263583991362,-0.261676651645,0.304924188497,1.0,-0.00261837837838,-0.0034412972973,3.288
-0.653879944361,-0.518312285175,-0.124596830886,-2.63983318187,-0.0669317793897,2.1109640871,-0.901385127198,-0.0143050164579,0.00602625025822,0.00218652454428,-0.00206957135472,-0.000358275973284,0.000480722330974,-0.0134688900681,0.573729524204,0.819010331048,0.0061038999666,0.0,0.819007958206,-0.573637631302,-0.0121069918103,0.0,-0.00641444815,0.0119455112877,-0.999908075582,0.0,0.263533947449,-0.26173607922,0.304915115093,1.0,-0.00223837837838,-0.00294186872588,3.307
-0.654060022444,-0.518292323093,-0.124573351866,-2.6398197982,-0.0669116342161,2.11096743118,-0.901569505139,-0.0134689890197,0.00269219857993,-0.000553400119336,2.77161672208e-06,0.000894253011727,0.000144941894649,-0.0171961665031,0.573718647461,0.819017904775,0.00611000121245,0.0,0.819015598147,-0.573626705272,-0.0121078442678,0.0,-0.00641180482596,0.0119509124268,-0.999908027996,0.0,0.263496906608,-0.261779956579,0.304914691693,1.0,-0.00191837837838,-0.0025212972973,3.323
-0.654215024004,-0.518279125313,-0.124546364533,-2.63980777301,-0.066894134698,2.11096690905,-0.901724325009,-0.0107885397329,0.000176243625476,0.00257607510223,0.000659279357011,0.000502424138815,6.11291264437e-05,-0.00573790698515,0.573707729958,0.819025536419,0.00611213392431,0.0,0.819023255439,-0.573615776705,-0.0121076283954,0.0,-0.00641056381618,0.0119524499479,-0.999908017576,0.0,0.263466184695,-0.261815946048,0.304915893707,1.0,-0.00161837837838,-0.00212701158302,3.338
-0.654393964216,-0.518274167454,-0.124526521944,-2.63980739884,-0.0668706589977,2.1109724432,-0.901878122543,-0.0103643743851,-0.000838229443424,0.0001522018128,-0.000404809740739,0.0037136891547,0.000224872964868,-0.0111419899461,0.573724295415,0.819013847267,0.00612353961455,0.0,0.819011728171,-0.573632313195,-0.0121039365154,0.0,-0.00640075465288,0.0119598034746,-0.999907992488,0.0,0.263426634986,-0.261857186596,0.304915190378,1.0,-0.00125837837838,-0.00165386872588,3.356
-0.654567964049,-0.518273454663,-0.124509067904,-2.63979497575,-0.0668507498869,2.11097087229,-0.901989140005,-0.00669749186329,-0.0004734578537,0.00136502828425,0.000868660966392,0.00352750822312,0.000710988717351,-0.0025803319484,0.573772562491,0.818979974817,0.00613141761682,0.0,0.818978033434,-0.573680675833,-0.012091725672,0.0,-0.00638552832536,0.0119596270256,-0.999908091951,0.0,0.263389259493,-0.261900172604,0.304920860434,1.0,-0.000878378378384,-0.00115444015445,3.375
-0.654658094258,-0.51826522748,-0.124501367148,-2.63978902175,-0.0668354048345,2.11097562257,-0.90202667319,-0.00829947672238,0.000758711000501,-0.000786554376527,-0.000996532858096,0.000288665002848,-0.000354119344667,-0.00287143383842,0.573817030059,0.818948755443,0.00613994087151,0.0,0.818946946022,-0.573725135797,-0.0120878061407,0.0,-0.00637677815739,0.0119647052027,-0.999908087041,0.0,0.263370647682,-0.261922747057,0.304921130441,1.0,-0.000558378378384,-0.000733868725876,3.391
-0.654705016417,-0.518264679197,-0.124497308569,-2.63978731238,-0.066824317725,2.1109750393,-0.902070897456,-0.00235367429341,0.00105492723371,0.000734001909329,-0.00183789095891,0.000158877655454,0.000222976713848,-0.000375814673825,0.573821171253,0.818945795776,0.00614767459437,0.0,0.818944090945,-0.573729249408,-0.012085991097,0.0,-0.00637079352355,0.0119700298093,-0.999908061462,0.0,0.263360530424,-0.261933450395,0.304921757651,1.0,-0.000238378378384,-0.000313297297304,3.407
-0.654698796023,-0.518262091363,-0.124476773857,-2.63978191714,-0.0668094838475,2.11097602812,-0.902088933827,2.83676303464e-05,0.000765967011931,0.0010545722421,0.000327626950538,0.00326606966153,-0.00046193573319,-0.00192293393855,0.57379332346,0.81896529417,0.00614945511563,0.0,0.818963638231,-0.573701448039,-0.0120811702171,0.0,-0.00636623038596,0.0119685053756,-0.999908108773,0.0,0.263369324501,-0.261927327701,0.304923831459,1.0,0.0,0.0,3.424
-0.654693738944,-0.518262425214,-0.124441734291,-2.63978518276,-0.0667952591108,2.11097492943,-0.902093050409,0.000188953473168,0.000205667121969,0.00115350416759,-0.00083059342011,0.000169716762726,-0.000253885553197,-0.000821468225744,0.573766864999,0.81898386614,0.00614479728601,0.0,0.81898213024,-0.573674979377,-0.0120845060568,0.0,-0.00637202171563,0.0119663987167,-0.999908097097,0.0,0.263378691215,-0.261915940164,0.304923208695,1.0,0.0,0.0,3.439
-0.654693497571,-0.518266727887,-0.124397416128,-2.63978378399,-0.0667855166561,2.11097766727,-0.902099763113,0.000217066135723,-0.000977754574572,0.00044814408189,-0.000333356091509,2.24611983819e-05,0.000276862617624,0.00116503229707,0.573733919425,0.81900705369,0.00613046552297,0.0,0.819005196391,-0.573642225937,-0.0120760841338,0.0,-0.00637382691379,0.0119495722673,-0.999908286821,0.0,0.263390185778,-0.261906061928,0.304926709226,1.0,0.0,0.0,3.458
-0.654690267721,-0.518252913682,-0.124377365977,-2.63978140115,-0.0667789623872,2.11097849143,-0.902103838711,-0.00012980139432,0.0019880943674,-0.000557089155627,2.43018214395e-05,0.000327021705355,0.000315422484719,0.00107479397505,0.573716680602,0.819019160939,0.00612628059234,0.0,0.819017185305,-0.573624889486,-0.0120864898757,0.0,-0.00638500270003,0.0119519800514,-0.999908186742,0.0,0.263396380313,-0.261900676624,0.304923247451,1.0,0.0,0.0,3.474
-0.654688100255,-0.51825318458,-0.124362408828,-2.63978418394,-0.0667750673242,2.11097681387,-0.902105800669,0.000641102160208,-0.000663618977659,-0.00113432213292,-0.00165131267547,-3.54998892996e-05,-0.000263430003005,0.00107497046172,0.573703435945,0.819028445569,0.00612534366134,0.0,0.819026477514,-0.57361168877,-0.0120833164993,0.0,-0.00638313410297,0.0119492888966,-0.999908230836,0.0,0.263400619958,-0.261896657389,0.304924382653,1.0,0.0,0.0,3.492
-0.654692066948,-0.518252465999,-0.124362663776,-2.63977958302,-0.0667743439874,2.11097875468,-0.902114825363,7.63275809254e-06,0.000997245723395,0.00063229200819,0.00051488060135,-0.000318730748174,0.000179964715638,-0.00027660079285,0.573700778719,0.819030326207,0.00612275678493,0.0,0.819028318198,-0.573609031699,-0.0120846863626,0.0,-0.00638577896901,0.0119479352039,-0.999908230125,0.0,0.263399992238,-0.261897979977,0.304924278854,1.0,0.0,0.0,3.509
-0.654698071483,-0.518251998362,-0.124364485462,-2.63977416329,-0.0667694709198,2.11098388958,-0.902112183096,-0.00260130099197,-0.000623259800856,0.000907193974984,0.000258939758126,5.80988336408e-05,0.000134830690182,0.00231173342086,0.573711479777,0.819022803528,0.00612635086465,0.0,0.819020906486,-0.573619834931,-0.0120742127737,0.0,-0.00637498196277,0.0119449538935,-0.999908334639,0.0,0.263400497872,-0.261901577347,0.304926967359,1.0,0.0,0.0,3.525
-0.654695287861,-0.518252149629,-0.124364166305,-2.63977564839,-0.0667724095132,2.11098782665,-0.902119448622,-0.000186238472749,0.000774928247401,0.000524890881029,-6.89519172214e-05,-0.000202226639431,0.000196109707951,-0.000920460637279,0.573701697197,0.819029676877,0.00612355525255,0.0,0.819027760329,-0.573610098258,-0.0120718634865,0.0,-0.00637480405531,0.0119412402202,-0.999908380131,0.0,0.263401316889,-0.261901246662,0.304926689897,1.0,0.0,0.0,3.542
-0.654695367804,-0.518252506668,-0.124362746604,-2.63977555636,-0.0667691967235,2.11098939546,-0.902116412714,0.000634579477088,-0.000191120304339,0.00123403832328,0.000582580690316,6.07074486333e-05,0.0046838487226,6.82391931742e-05,0.573704613776,0.81902762071,0.00612532023045,0.0,0.819025740013,-0.573613030651,-0.0120695966678,0.0,-0.00637189221933,0.0119414081384,-0.999908396685,0.0,0.263402172161,-0.261900885219,0.304927032433,1.0,0.0,0.0,3.557
-0.654701290097,-0.518254976896,-0.124367281346,-2.63977006498,-0.0667683491258,2.11098865943,-0.902122078581,0.000504748193183,-0.000733614539543,-0.000809793137729,0.000684963814903,0.000494115707434,0.000322429147377,-0.000316531694418,0.573708644048,0.819024781316,0.00612749833807,0.0,0.81902297401,-0.573617135038,-0.0120622276246,0.0,-0.00636454783806,0.0119389960295,-0.999908472264,0.0,0.263400899254,-0.261904699047,0.304930268779,1.0,0.0,0.0,3.574
