nelsonifechukwu/NELSON_IML_WORK/CNN-GradCAM/train2dof/data_sample_2022-02-22-08-47-27/robot_state.csv
position_joint1,position_joint2,position_joint3,position_joint4,position_joint5,position_joint6,position_joint7,velocity_joint1,velocity_joint2,velocity_joint3,velocity_joint4,velocity_joint5,velocity_joint6,velocity_joint7,ee_T_00,ee_T_10,ee_T_20,ee_T_30,ee_T_01,ee_T_11,ee_T_21,ee_T_31,ee_T_02,ee_T_12,ee_T_22,ee_T_32,ee_T_03,ee_T_13,ee_T_23,ee_T_33,v_x,v_y,time
0.465060575218,0.547781778039,-0.124010889539,-1.35583842266,0.0794670948083,1.89411165682,0.159162837266,0.000106797349255,-0.0014700841547,0.00633430242889,-0.00080226033304,-0.000139556263683,0.000444086864493,0.000145068926398,0.573826758909,0.818962693906,0.00192448756004,0.0,0.818919638482,-0.573768702395,-0.011867972087,0.0,-0.00861538153426,0.00838632207713,-0.999927719789,0.0,0.661688440204,0.260863625593,0.303213024446,1.0,0.0,0.0,0.0
0.465065856183,0.547788555543,-0.124013761258,-1.3558388869,0.0794673502794,1.89411084301,0.159163225426,0.00114102102095,0.000763975734586,-0.000208555476172,-0.000401572724921,8.36001625153e-05,0.000215303723656,0.000787237780458,0.573824857257,0.81896404412,0.0019169072078,0.0,0.81892090056,-0.573766842396,-0.0118708084588,0.0,-0.00862207350821,0.00838172172039,-0.999927700681,0.0,0.661687258377,0.260865298192,0.303208027177,1.0,-0.00032,-0.000420571428571,0.017
0.465059979521,0.547780814253,-0.124013967673,-1.3558415963,0.0794673106438,1.89411119058,0.159164328104,-0.000914487894941,-0.00076450852,4.18918191637e-05,0.000236968428469,-0.000147254180605,6.77218670596e-07,-0.00100203674564,0.573828345608,0.818961587578,0.00192217310196,0.0,0.818918511255,-0.573770307391,-0.0118681583414,0.0,-0.00861684584634,0.00838455023007,-0.99992772203,0.0,0.66168865701,0.260859511021,0.303213708348,1.0,-0.00066,-0.000867428571429,0.034
0.465057305576,0.547732894437,-0.124013684634,-1.3558798026,0.0794661655632,1.89411327153,0.159166755474,-0.000674435815602,-0.00535478954675,0.000557536851868,-0.0046359064419,8.40895508744e-05,-7.11452836952e-05,0.000905606032882,0.573836536539,0.818955821639,0.00193350368875,0.0,0.818912866669,-0.573778425365,-0.011865171334,0.0,-0.00860781416384,0.00839220144809,-0.999927735634,0.0,0.661682117444,0.260855535969,0.303228190145,1.0,-0.00098,-0.001288,0.05
0.465058748799,0.547625837494,-0.124013710941,-1.35601086588,0.0794643714963,1.89415083012,0.159161686069,7.75899343502e-05,-0.00619996404834,-0.000565340356745,-0.0100124630949,0.000114876295213,0.00705577926204,-0.000553572668734,0.573837973356,0.818954777373,0.00194932155423,0.0,0.818911958062,-0.573779728667,-0.0118648562884,0.0,-0.00859846509484,0.00840498963964,-0.999927708661,0.0,0.661662123013,0.260844587248,0.303244908379,1.0,-0.00132,-0.00173485714286,0.067
0.465044720412,0.547483347251,-0.124010918112,-1.35622238696,0.0794645866296,1.89419075827,0.159154902886,-0.00364073703876,-0.0126064561439,0.00126223885589,-0.0162957174446,0.000154756585907,0.00285270480772,-0.00149105354073,0.573853582636,0.818943876519,0.00193383260301,0.0,0.818900672354,-0.573795220987,-0.0118945404483,0.0,-0.00863150334152,0.00840950337788,-0.999927386065,0.0,0.661628355196,0.260816425722,0.303248545603,1.0,-0.00168,-0.002208,0.085
0.465031096832,0.547330661453,-0.124018348435,-1.35640685541,0.0794618260258,1.89430508402,0.159144513694,-0.000155979417138,-0.014237575964,-0.000218979277822,-0.0118799920669,0.000372307391831,0.00915867298258,-0.00230795490138,0.57387128521,0.818931298657,0.00200573965177,0.0,0.818889054017,-0.573812650102,-0.0118535519691,0.0,-0.00855649066173,0.00844505394232,-0.999927731154,0.0,0.661618315301,0.260790552484,0.303279070722,1.0,-0.00198,-0.00260228571429,0.1
0.465017247707,0.547140048506,-0.124015947047,-1.35662447588,0.0794568826186,1.89441332978,0.159133985359,-0.00117703835148,-0.00975738467688,-0.00341000038206,-0.0162675697779,-0.00137912358979,0.00555142513675,-0.00156677809884,0.573883301787,0.818922692495,0.00208003562153,0.0,0.818881366625,-0.573824320012,-0.0118196471553,0.0,-0.00848596562778,0.00848656394049,-0.999927980717,0.0,0.661598377502,0.260766015081,0.303319817964,1.0,-0.00232,-0.00304914285714,0.117
0.46498716002,0.546917518331,-0.12401379311,-1.35693816782,0.0794515380685,1.89455716551,0.159121656417,-0.00265436044371,-0.00932913123163,2.05092868203e-05,-0.0191936581927,1.39840590147e-05,0.00386555319018,-0.00242152045869,0.573912635738,0.818902001727,0.00213190269593,0.0,0.818861255796,-0.573853350874,-0.0118034888272,0.0,-0.00844266366962,0.00852006794027,-0.999928062349,0.0,0.66156864287,0.260721951974,0.3033405354,1.0,-0.00268,-0.00352228571429,0.135
0.464956299178,0.546703007212,-0.124011953287,-1.3572554099,0.0794427165196,1.89466553166,0.159085883932,-0.00230527658124,-0.0139474586189,0.000190739608805,-0.0196386690963,-0.000493628485152,0.00348838280396,0.000188663352178,0.573922663104,0.818894944298,0.00214333393049,0.0,0.818854232635,-0.573863216659,-0.0118110610159,0.0,-0.00844220018754,0.00853387795688,-0.999927948496,0.0,0.661531253371,0.260673689221,0.303350794743,1.0,-0.00298,-0.00391657142857,0.15
0.464909668516,0.546391070645,-0.124013720145,-1.35769177665,0.0794336043386,1.89483256391,0.158940513771,-0.0046183989034,-0.0166133653061,-0.00050814495839,-0.0258224542337,-0.000234810681778,0.00616546109807,-0.00503349632611,0.573865020225,0.818935216248,0.00219021726145,0.0,0.81889496852,-0.573805249841,-0.0118030796733,0.0,-0.00840936134804,0.00856709739399,-0.999927941146,0.0,0.661485735817,0.260603988455,0.303378549814,1.0,-0.00334,-0.00438971428571,0.168
0.464864943976,0.546112769871,-0.124017017545,-1.35818073268,0.0794163535679,1.89499853844,0.158931428345,-0.00188599683403,-0.0183087887951,-0.00187187896415,-0.0281986778686,-0.00298544967219,0.00736616246442,-0.00393590939679,0.573919248469,0.818897301888,0.00215687222905,0.0,0.818856506015,-0.573859485836,-0.0118346936273,0.0,-0.0084538198539,0.00855849210732,-0.999927639953,0.0,0.661427312923,0.260526576159,0.30335738,1.0,-0.00368,-0.00483657142857,0.185
0.464813243481,0.545803650451,-0.124014775997,-1.35869722016,0.079376875474,1.89517142647,0.158862731091,-0.00457703871493,-0.0209844423517,-0.000352160994915,-0.0331646079945,-0.000683587791607,0.0095779371197,-0.0082764732594,0.573922071939,0.818895410561,0.00212339478855,0.0,0.818854211898,-0.573862474789,-0.0118484846161,0.0,-0.00848429643491,0.00853902200897,-0.999927548284,0.0,0.661366507686,0.260441766992,0.303345285092,1.0,-0.004,-0.00525714285714,0.201
0.464753158035,0.545430225703,-0.124017608652,-1.35936438825,0.0792632280767,1.89539693049,0.158747295264,0.000755416894258,-0.0176988748728,1.34788062244e-05,-0.0401733253049,-0.00155334938818,0.00880426061701,-0.01182897718,0.573885749466,0.818921118932,0.00202346965968,0.0,0.818879255918,-0.573827190476,-0.0118265210222,0.0,-0.00852403003277,0.00844421178696,-0.999928015509,0.0,0.661290717106,0.260322992644,0.303311577108,1.0,-0.00436,-0.00573028571429,0.219
0.464685372664,0.545020021359,-0.124014471385,-1.36005295977,0.0792556669404,1.89561930242,0.158689292501,-0.00286518750609,-0.0265098999531,0.00177072074915,-0.038738641842,-4.58245476137e-06,0.0165737936071,0.000310655432437,0.573927827018,0.818891699671,0.00199511552356,0.0,0.818849096452,-0.573869011085,-0.0118853800099,0.0,-0.008588069412,0.00845521165518,-0.999927374593,0.0,0.661204966903,0.260217501529,0.303293411505,1.0,-0.0047,-0.00617714285714,0.236
0.464627876041,0.544611018126,-0.124017240438,-1.3607401463,0.0792357807677,1.89584824651,0.158621324122,-0.00370323747963,-0.0302459027255,-0.000612506519314,-0.0436318157301,-0.00333965617285,0.0117247482502,-0.0112795784415,0.573954118926,0.818873347248,0.0019640357179,0.0,0.818830115948,-0.573895208952,-0.0119280031738,0.0,-0.00864053955336,0.00845450092211,-0.999926928575,0.0,0.661120099278,0.260113996979,0.303275762536,1.0,-0.00502,-0.00659771428571,0.252
0.464554315792,0.544147874932,-0.124019685478,-1.36151675706,0.0792039665654,1.89612368761,0.15848524948,-0.00881811933152,-0.0331155281354,-0.000730344485742,-0.0448489266819,-0.000701558113398,0.0119909435041,-0.00579927256744,0.573941758517,0.818882055683,0.00194515084628,0.0,0.818838444346,-0.573882798315,-0.0119533576915,0.0,-0.00867226847593,0.00845345818186,-0.999926662713,0.0,0.661038193651,0.259994943372,0.303261976144,1.0,-0.00534,-0.00701828571429,0.268
0.464485920802,0.543634463886,-0.124020507316,-1.36234441205,0.0791605782445,1.89641107069,0.158417898528,-0.00278270151844,-0.0323359062549,-6.47778453003e-05,-0.045383270374,-0.00119859404085,0.0145444471561,1.11043484484e-05,0.573975327525,0.818858588325,0.00191901556035,0.0,0.818814527887,-0.573916368365,-0.0119798975025,0.0,-0.00870865518451,0.00844764605611,-0.999926395592,0.0,0.660930769729,0.259866678322,0.303252086144,1.0,-0.0057,-0.00749142857143,0.286
0.464410896148,0.543126110334,-0.124026212464,-1.36315251194,0.0791071903038,1.89669089833,0.158292194973,-0.00235317872942,-0.0322817205596,7.60206864536e-05,-0.0486554034792,-0.00732817014769,0.0178121665598,-0.00584862905164,0.573965016248,0.818865852384,0.00190337156508,0.0,0.818821588977,-0.573906126068,-0.0119879434336,0.0,-0.00872432888711,0.00843934436053,-0.999926329062,0.0,0.660830155922,0.259732526718,0.303253193409,1.0,-0.00604,-0.00793828571429,0.303
0.464329277678,0.542517229621,-0.124023704615,-1.36411254307,0.0790576349087,1.89703828216,0.158162989102,-0.00544803507281,-0.0309057809651,-0.000480854715712,-0.049548964089,-0.00335817427408,0.0239795920491,-0.00102215400512,0.573967858658,0.818863866858,0.00190044298973,0.0,0.818819487426,-0.573908905402,-0.0119984254581,0.0,-0.00873456407826,0.00844299287597,-0.999926208908,0.0,0.660725117109,0.259592004443,0.303255238754,1.0,-0.00638,-0.00838514285714,0.32
0.464252551797,0.541913452587,-0.12402584046,-1.36504365625,0.079009825023,1.89738672061,0.158035150721,-0.00122556200586,-0.0339242347296,-0.000687719238969,-0.0560723023859,-0.00293317761944,0.0171681624752,-0.0141160240856,0.573965951343,0.818865168632,0.00191551591618,0.0,0.818820929164,-0.57390687895,-0.0119969645594,0.0,-0.00872473662422,0.00845447647377,-0.999926197676,0.0,0.660611391017,0.259443736693,0.303265104745,1.0,-0.00674,-0.00885828571429,0.338
0.464171003223,0.541300248603,-0.124029471662,-1.36598032909,0.0789449063697,1.89772960829,0.157910277194,-0.00208661729963,-0.0413525215996,-0.000833314894473,-0.0527733464159,-0.00590744346239,0.0125003567745,-0.00348595779856,0.573968150912,0.818863584549,0.00193353042573,0.0,0.818819648564,-0.573909067996,-0.0119796368392,0.0,-0.00870018522466,0.00845930557671,-0.999926370752,0.0,0.660512896798,0.259307049786,0.303286828335,1.0,-0.00704,-0.00925257142857,0.353
0.464085413132,0.540563280617,-0.124034328956,-1.36710836616,0.0788771532416,1.89814643828,0.157765217559,-0.00887165852719,-0.0439440922674,-0.000697905490537,-0.0639877072037,-0.00701176316394,0.0265451418172,-0.00855241530893,0.573967258081,0.818864160655,0.00195446873788,0.0,0.818820507761,-0.573908096457,-0.0119674471588,0.0,-0.00867819522206,0.00846944497936,-0.999926476012,0.0,0.660382050196,0.259140806097,0.303307130614,1.0,-0.0074,-0.00972571428571,0.371
0.463975718543,0.53982863774,-0.124027597898,-1.36821497068,0.0788144194535,1.89855849504,0.157623296639,-0.00876369977743,-0.0416298101067,6.70846721102e-05,-0.0632772669146,-0.00191733889122,0.0223022986782,-0.00785901120821,0.573980612182,0.818854708025,0.0019927082849,0.0,0.818811477993,-0.573921214107,-0.0119561869157,0.0,-0.00864688886714,0.00849443544542,-0.999926535241,0.0,0.660258237045,0.25896837883,0.303335079417,1.0,-0.00774,-0.0101725714286,0.388
0.463884685468,0.53911723862,-0.124038847095,-1.36931466034,0.0787536865604,1.89897646276,0.157496539986,-0.00950212534489,-0.0455279995248,-0.00193522260463,-0.07202925059,6.67473440725e-06,0.0244385727881,-0.0084020167258,0.574003885476,0.818838333253,0.00201751227908,0.0,0.818795437716,-0.573944392092,-0.0119420627237,0.0,-0.0086208448557,0.00850688403752,-0.999926654289,0.0,0.660135544571,0.258799092476,0.303350889959,1.0,-0.00806,-0.0105931428571,0.404
0.46377927074,0.538398587292,-0.12404207618,-1.37043178551,0.0786945238096,1.8994124437,0.157361088392,-0.00519276246726,-0.0437258108644,-0.0010354689604,-0.07179558651,-0.00822797416783,0.0295657207285,-0.00842179315458,0.57402757672,0.818821639843,0.00205187477052,0.0,0.818779154504,-0.573967901009,-0.0119286068984,0.0,-0.0085898565878,0.00852754578299,-0.99992674498,0.0,0.660014186313,0.258624473461,0.303364716722,1.0,-0.00838,-0.0110137142857,0.42
0.463660553232,0.537612895337,-0.124050905764,-1.37167551686,0.0786139741731,1.89989306092,0.157203221632,-0.00646236615507,-0.0485794422975,-0.00168017063773,-0.0756671711314,-0.0012894766282,0.0288513066253,-0.00692731836283,0.574048897978,0.818806661091,0.0020643119638,0.0,0.818764445609,-0.573989275751,-0.0119096948274,0.0,-0.00856700946873,0.00852709660458,-0.999926944818,0.0,0.659879840778,0.258423262222,0.303369536908,1.0,-0.00872,-0.0114605714286,0.437
0.463559646284,0.53682517977,-0.124051368433,-1.37290539651,0.0785481842886,1.90033719967,0.157053848132,-0.00597009354081,-0.0501775892614,-5.42664833177e-05,-0.0796367436723,-0.00160647090697,0.0300002330495,-0.0019987813355,0.574059576637,0.818799158734,0.00207051409539,0.0,0.818756920923,-0.573999825012,-0.0119185664938,0.0,-0.0085706025007,0.00853737935205,-0.999926826286,0.0,0.659733870358,0.258240259657,0.303378820967,1.0,-0.00904,-0.0118811428571,0.453
0.46344139437,0.535968689685,-0.124059997256,-1.37423951168,0.0784717752381,1.90083719612,0.156886500021,-0.0073203608237,-0.0546066640911,-0.00110767124753,-0.0775549274274,-0.00405939611507,0.0272723786425,-0.00518984499757,0.574078369392,0.818785935688,0.0020890708837,0.0,0.818743939282,-0.574018539261,-0.01190904591,0.0,-0.0085519585332,0.00854730434388,-0.999926901125,0.0,0.659583329014,0.258031689073,0.30339199416,1.0,-0.00938,-0.012328,0.47
0.463318773412,0.535025078973,-0.124063226736,-1.37573427299,0.0783922068025,1.90137259005,0.156705856448,-0.00839135334504,-0.0531027426292,-0.00169109023479,-0.0847418100392,-0.00392525259171,0.031584164428,-0.0124773700839,0.574093775182,0.818775155626,0.00208055982546,0.0,0.818732923735,-0.574033853531,-0.0119281806529,0.0,-0.00857235124062,0.0085514817335,-0.99992669079,0.0,0.659404557212,0.25780735674,0.303392912779,1.0,-0.00974,-0.0128011428571,0.488
0.463203025311,0.534233191964,-0.124071809673,-1.37704398547,0.0783160478615,1.90184325107,0.156550965205,-0.0101062344036,-0.0580508793512,-0.00369877476903,-0.0827724014437,-0.00377557382906,0.0280307868005,-0.00686287632024,0.574119108616,0.818757497535,0.00203868931847,0.0,0.818714694751,-0.574059331733,-0.011953206678,0.0,-0.00861661485597,0.00853183353037,-0.99992647818,0.0,0.659250792285,0.257600599219,0.303369259987,1.0,-0.01004,-0.0131954285714,0.503
0.463083092045,0.533307090454,-0.124070572047,-1.37852498444,0.0782297028143,1.90239615891,0.156353785702,-0.00860705040966,-0.057976800697,-0.00140921852472,-0.0889413986518,-0.00361218777407,0.0342326672133,-0.0112770592161,0.574112926306,0.81876183467,0.00203785124097,0.0,0.818718970063,-0.574053103293,-0.0119594966293,0.0,-0.00862231057922,0.00853469339545,-0.999926404676,0.0,0.659076193333,0.257382165491,0.303365385632,1.0,-0.01038,-0.0136422857143,0.52
0.462947032704,0.532314265138,-0.12407063523,-1.38015292819,0.0781423064859,1.90300909897,0.156154543769,-0.00585769632527,-0.0563649678797,-0.00213852037947,-0.0919996394377,-0.00863548600436,0.0320147760985,-0.0148069387228,0.57412686764,0.81875209667,0.0020226103919,0.0,0.818708921056,-0.574066995674,-0.0119805659919,0.0,-0.00864816615809,0.00853445831194,-0.999926183397,0.0,0.65888519543,0.257139696424,0.303343692026,1.0,-0.01074,-0.0141154285714,0.538
0.462831321725,0.531448004205,-0.124065970847,-1.38154109485,0.0780570904858,1.90351786895,0.155978246646,-0.00896673719942,-0.0548540763522,-0.00059029864277,-0.094309559264,-0.00254503795598,0.0286642648055,-0.0162324071923,0.574126747788,0.818752209279,0.00201101374483,0.0,0.818708841665,-0.574066884494,-0.0119913138737,0.0,-0.00866362513269,0.00853113302034,-0.999926077952,0.0,0.658719144762,0.256933509315,0.303337491033,1.0,-0.01104,-0.0145097142857,0.553
0.462690956799,0.53036216199,-0.124067711882,-1.38328627831,0.0779505579192,1.90412095243,0.155745108063,-0.0109351267138,-0.0623655983694,-0.000227330611241,-0.0982031176071,-0.0010309315156,0.0288265144425,-0.0104722756494,0.574118077939,0.818758405808,0.00196275396694,0.0,0.818714333591,-0.574058347545,-0.0120249943101,0.0,-0.00871899773999,0.00851086528711,-0.99992576937,0.0,0.658502917988,0.256670857731,0.303324276251,1.0,-0.0114,-0.0149828571429,0.571
0.462539178105,0.529314718125,-0.124073496994,-1.3849334236,0.0778447916727,1.90473949413,0.15552532125,-0.0098388024812,-0.0676400151788,-0.00150417976073,-0.0982189871906,-0.00358610020141,0.0398726346641,-0.0163864962862,0.574127510001,0.818751767035,0.00197310366284,0.0,0.818707903497,-0.574067806111,-0.0120112297442,0.0,-0.00870168782079,0.00851153686172,-0.99992591444,0.0,0.658314992488,0.256410659536,0.303331873709,1.0,-0.01174,-0.0154297142857,0.588
0.462416514018,0.52828492028,-0.124071392328,-1.38653087824,0.0777444978629,1.90534876516,0.155305797462,-0.00304813734802,-0.0615630709013,0.00139366178103,-0.103291837596,-0.0083735731013,0.0411397658277,-0.0159805609266,0.574106380301,0.818766502799,0.00200621357892,0.0,0.818723096108,-0.574046562979,-0.0119909270859,0.0,-0.00866627627853,0.00852676530518,-0.999926092233,0.0,0.65812635476,0.256180161741,0.303349389305,1.0,-0.01206,-0.0158502857143,0.604
0.462266380507,0.527155221883,-0.124074422794,-1.38828167571,0.0776428190973,1.90602797216,0.155051417517,-0.00926554287593,-0.065731753381,-0.000501834334007,-0.104086861945,-0.0055967336631,0.0409806105528,-0.0172413344407,0.574090679818,0.818777387667,0.00205613530267,0.0,0.818734626766,-0.574030649932,-0.0119653990586,0.0,-0.0086168794011,0.00855281791772,-0.999926296631,0.0,0.657926202639,0.25591624056,0.303370231904,1.0,-0.0124,-0.0162971428571,0.621
0.462107344288,0.525907941727,-0.124083368936,-1.39020841295,0.0775109039524,1.90673521447,0.154808624086,-0.00800308543549,-0.0708946741864,-0.00343353751734,-0.111461296409,-0.00307438823162,0.0459500942378,-0.0110690062169,0.574096927221,0.818772958065,0.00207561993333,0.0,0.818730577325,-0.574036941279,-0.0119406323559,0.0,-0.008585349652,0.00855461855383,-0.999926552439,0.0,0.657711085807,0.255640292476,0.303394594834,1.0,-0.01274,-0.016744,0.638
0.461974228851,0.524877391318,-0.124086277223,-1.39183773521,0.0774127433595,1.90731904099,0.154581636828,-0.0102227428435,-0.0691859768185,-0.000106532605823,-0.111083901838,-0.0113116292628,0.0426203557352,-0.0156512796859,0.574083019969,0.818782757341,0.0020565420336,0.0,0.818740101558,-0.574023088439,-0.0119535325237,0.0,-0.0086070094217,0.00854625802591,-0.999926437726,0.0,0.657499218975,0.255375431745,0.303392398291,1.0,-0.01306,-0.0171645714286,0.654
0.46180911972,0.523606844243,-0.124089957198,-1.39384250108,0.0772858192921,1.90804426608,0.154314705658,-0.00849927035396,-0.0722837603842,-0.00414076620734,-0.112854245444,-0.0143581277149,0.0379426936796,-0.011477073248,0.574075564047,0.818788013738,0.00204504863016,0.0,0.818745216375,-0.574015689392,-0.0119585072944,0.0,-0.00861775835409,0.0085396250176,-0.999926401814,0.0,0.657255914306,0.255072180459,0.303394508164,1.0,-0.01342,-0.0176377142857,0.672
0.461646448018,0.522387470025,-0.124090404298,-1.39578319839,0.0771694716395,1.9087979327,0.154034144084,-0.0128822874414,-0.0745877559547,-0.000787394806876,-0.115213561498,-0.00697343648203,0.0382010470554,-0.0240810172105,0.574052217338,0.818804317148,0.00207096350405,0.0,0.818761861654,-0.573992242183,-0.0119443173204,0.0,-0.00859150701526,0.00855245243754,-0.999926518082,0.0,0.657029419771,0.254782980664,0.303393183839,1.0,-0.01376,-0.0180845714286,0.689
0.461484655017,0.521222575426,-0.124095756949,-1.39765746123,0.0770599260145,1.90952070019,0.153789740397,-0.00651290779782,-0.0715124844472,-0.000910875039167,-0.118767820124,-0.00431620184663,0.0423639737837,-0.0139084010368,0.574059253879,0.818799358974,0.00208078868607,0.0,0.818757026463,-0.573999232261,-0.0119398443107,0.0,-0.00858213099217,0.00855800324183,-0.999926551107,0.0,0.656810860586,0.254497713355,0.303382374762,1.0,-0.01408,-0.0185051428571,0.705
0.46131705306,0.519922678278,-0.124091766507,-1.39970487064,0.0769282106511,1.91026505448,0.153515990299,-0.0077664948483,-0.0753672065413,0.0007172695103,-0.124017347072,-0.0118185206338,0.0410928215841,-0.0136265981468,0.574042943967,0.818810808471,0.00207492516841,0.0,0.818768390812,-0.573982939867,-0.0119437787373,0.0,-0.0085888888386,0.00855528976545,-0.999926516303,0.0,0.656559200811,0.254193280006,0.303385159081,1.0,-0.01442,-0.018952,0.722
0.461135086399,0.518498671149,-0.124096905044,-1.40189570424,0.0767844132811,1.91104879215,0.153222371674,-0.010840661444,-0.0790554161677,6.85284672786e-05,-0.12460785998,-0.00595312495902,0.0509684869929,-0.0108963186403,0.574032465487,0.818818132369,0.00208364391133,0.0,0.818775875937,-0.573972474231,-0.0119335958162,0.0,-0.00857565549541,0.00855647353576,-0.999926619754,0.0,0.656290390794,0.253859496233,0.303410063729,1.0,-0.01478,-0.0194251428571,0.74
0.460972560025,0.517309775852,-0.124102472869,-1.40379134602,0.0766591456679,1.91172876535,0.152956254423,-0.0122797580837,-0.0851703552989,0.00088502624025,-0.122254118254,-0.00165022401371,0.0525029457062,-0.00987100514928,0.574018049746,0.818828312858,0.00205414917188,0.0,0.818785719602,-0.573958229274,-0.011943338115,0.0,-0.00860071316767,0.00853776403854,-0.999926564463,0.0,0.656057935775,0.253566168518,0.303401148864,1.0,-0.01508,-0.0198194285714,0.755
0.460780511733,0.515866776942,-0.124113765701,-1.40606340326,0.0765200775716,1.9125789542,0.152658155731,-0.00621344369936,-0.0820194537353,-0.00277537758498,-0.1310327835,-0.00464328445856,0.0450325723599,-0.015199197969,0.574021839361,0.818825621713,0.00206786474692,0.0,0.818783241424,-0.573961995821,-0.0119322176061,0.0,-0.00858369498526,0.00854265097075,-0.999926668959,0.0,0.655785764673,0.253218124837,0.30340588788,1.0,-0.01544,-0.0202925714286,0.773
0.460590006846,0.514470152592,-0.124115657363,-1.40828637807,0.0763789207564,1.91340464211,0.152340308611,-0.00642922149412,-0.0897344910761,-0.000806172496885,-0.128370409886,-0.00854264679947,0.045937352233,-0.0164928949155,0.57399792314,0.818842400209,0.00206270516391,0.0,0.818799972294,-0.573938123333,-0.0119324288686,0.0,-0.00858707889222,0.00853829670833,-0.999926677095,0.0,0.655515833933,0.252879874241,0.303398598646,1.0,-0.01578,-0.0207394285714,0.79
0.460412173785,0.513176255927,-0.124115740372,-1.41042469282,0.0762547691281,1.91414066888,0.152042933094,-0.0137425252478,-0.0758661867194,0.00069373992957,-0.128065706217,-0.00803032446043,0.0517659193102,-0.0191703000065,0.573978696143,0.818856096095,0.00197412344341,0.0,0.818812323456,-0.573919082382,-0.0120005306612,0.0,-0.00869388795739,0.00850464928626,-0.999926040891,0.0,0.655240022434,0.25255645547,0.30335144407,1.0,-0.0161,-0.02116,0.806
0.46020670911,0.511648528821,-0.124122332138,-1.41284731472,0.0761140879042,1.91502256752,0.15170054493,-0.00996842116935,-0.0820761172418,0.00125561770232,-0.135832567162,-0.014237503601,0.0601699984883,-0.0218155288122,0.573960154436,0.818869113762,0.00196533652115,0.0,0.818825121149,-0.573900477528,-0.0120170616296,0.0,-0.0087126607844,0.00850674524504,-0.999925859665,0.0,0.654940308697,0.252187714029,0.303345133022,1.0,-0.01646,-0.0216331428571,0.824
0.460019558414,0.510263089648,-0.124128064236,-1.41502811524,0.075986855375,1.91585503277,0.151398006615,-0.01388612097,-0.0864860605858,-0.000675462549129,-0.135348540757,-0.00667075042668,0.0491476733055,-0.01853728498,0.57394949712,0.818876506465,0.0019972022415,0.0,0.81883289809,-0.573889654867,-0.0120039970243,0.0,-0.00868378463153,0.00852522709201,-0.999925953452,0.0,0.654678176875,0.251857134669,0.303349473413,1.0,-0.01678,-0.0220537142857,0.84
0.459834813101,0.508849842678,-0.124133766506,-1.41727161895,0.0758339766869,1.9166644677,0.151083268903,-0.011769690479,-0.0845533914568,-0.00118725689838,-0.137871777806,-0.0129323456658,0.0546854042404,-0.0211196352379,0.573922285628,0.818895645204,0.00196957512216,0.0,0.818851767564,-0.573862653626,-0.0120076822019,0.0,-0.00870294061661,0.00850443022119,-0.999925964005,0.0,0.654397109078,0.251515540404,0.303340964415,1.0,-0.0171,-0.0224742857143,0.856
0.459624673728,0.507327034506,-0.124129027307,-1.4196568797,0.0756792312554,1.91752303054,0.15074301829,-0.0110472389017,-0.0951358030031,-6.62537945931e-05,-0.139693959345,-0.0118252780664,0.0508484110139,-0.0221949926828,0.573893995027,0.818915486892,0.00196333928354,0.0,0.818871501068,-0.573834366986,-0.0120137798184,0.0,-0.00871180652372,0.00850252238148,-0.999925903025,0.0,0.654098050275,0.25115115403,0.303345056903,1.0,-0.01744,-0.0229211428571,0.873
0.459392079919,0.505665224382,-0.124135403609,-1.42223950743,0.075523938022,1.91849884379,0.150390598588,-0.0148445212171,-0.0918822718261,-0.00259895727055,-0.143818743193,-0.0114081174902,0.0545114541385,-0.0187096545144,0.573892132267,0.818916681102,0.00200918818998,0.0,0.818873280475,-0.573832296934,-0.0119913477435,0.0,-0.00866714449141,0.00852717482403,-0.999926081216,0.0,0.653785939464,0.250751864934,0.303362354029,1.0,-0.0178,-0.0233942857143,0.891
0.459202845033,0.50421541666,-0.12413766062,-1.42443484241,0.0753891682655,1.9193381127,0.150091099382,-0.0139701354674,-0.0985627223404,-0.000429213273977,-0.145595585698,-0.00812690610831,0.0619885539768,-0.0250328893067,0.573880234551,0.818924821817,0.00208794254724,0.0,0.818882467317,-0.573820090849,-0.0119480106873,0.0,-0.00858658445938,0.00856667165532,-0.999926438646,0.0,0.65351997798,0.25042062066,0.303403230913,1.0,-0.0181,-0.0237885714286,0.906
0.45894015358,0.502327350785,-0.124140854056,-1.42720609668,0.075211185962,1.92037726078,0.149708832635,-0.0135147375048,-0.100939858601,0.000467294949949,-0.153259138702,-0.00678884075855,0.0517977547069,-0.0117650807611,0.573878523628,0.818925680171,0.00221751571796,0.0,0.818885090484,-0.573817933249,-0.0118716033505,0.0,-0.00844967324469,0.00862891489657,-0.999927069765,0.0,0.653186974672,0.249984984974,0.30349270552,1.0,-0.01848,-0.024288,0.925
0.458717201077,0.500728165474,-0.124141540551,-1.42963245122,0.0750574328593,1.92123028926,0.149359014018,-0.0160539980589,-0.0989842942237,0.00170530725221,-0.15111411876,-0.00739931899371,0.0593737948735,-0.0192907796314,0.57385719297,0.818940566823,0.00223986356997,0.0,0.818900208497,-0.573796455848,-0.0118668732686,0.0,-0.00843320050822,0.00864428175692,-0.999927076102,0.0,0.652879163754,0.24960537598,0.303527858213,1.0,-0.0188,-0.0247085714286,0.941
0.458488983016,0.499132577703,-0.12414431321,-1.43208734628,0.0749062905915,1.92213111167,0.149013952119,-0.017053566918,-0.0948846809089,-0.00101257383845,-0.156921190362,-0.0138848917774,0.059655822379,-0.0241969833069,0.573847655632,0.818947152641,0.00227512811903,0.0,0.818907214998,-0.573786741593,-0.0118530711762,0.0,-0.00840176229961,0.00866514276904,-0.999927160193,0.0,0.652574545792,0.249221370808,0.30355059275,1.0,-0.01912,-0.0251291428571,0.957
0.458217553266,0.497343519964,-0.124142605515,-1.43489822443,0.0747304788446,1.92316240652,0.148604091855,-0.014132251759,-0.103770592855,-0.000384707453183,-0.155201298274,-0.0132344678268,0.0525999563958,-0.0286454761023,0.573828167456,0.818960788819,0.00228199737464,0.0,0.818920887141,-0.573767173821,-0.0118557054588,0.0,-0.00840018443981,0.00867208001623,-0.999927113309,0.0,0.652224996898,0.248777130899,0.303549389631,1.0,-0.01948,-0.0256022857143,0.975
0.457950980774,0.495672540176,-0.124142261986,-1.43759526325,0.0745551806949,1.92409073439,0.148211016647,-0.0187197559726,-0.0980921590438,-0.00534401250877,-0.15858104093,-0.00455231775608,0.048799203953,-0.0219108789354,0.573812799177,0.818971793188,0.00219553294373,0.0,0.818930672905,-0.573752056058,-0.0119112570924,0.0,-0.00849545560336,0.00863298725669,-0.999926646692,0.0,0.651877002858,0.248340590301,0.303510574154,1.0,-0.01982,-0.0260491428571,0.992
0.457703541393,0.494191939292,-0.124146807518,-1.44002284546,0.0744083074089,1.92495222819,0.147864933614,-0.0220815301616,-0.100770822614,-0.00464280182752,-0.163599541692,-0.00933311379857,0.0589871162778,-0.025764911368,0.57381782765,0.818968461353,0.00212294165979,0.0,0.818926269157,-0.573757253158,-0.0119635711244,0.0,-0.00857989945035,0.00860360873275,-0.999926178896,0.0,0.651569619638,0.247943190448,0.303461255755,1.0,-0.0232748571429,-0.0305898122449,1.007
0.457382842392,0.4917193857,-0.124231201791,-1.44377991061,0.0741961472448,1.92635866058,0.147319548732,-0.0219897416747,-0.151220361372,-0.000763179413315,-0.235591897694,-0.0127493116527,0.0815918546409,-0.0377264984327,0.573826146239,0.818962377628,0.0022191943016,0.0,0.818921612427,-0.573765354237,-0.0118936066675,0.0,-0.00846728261181,0.00864237504712,-0.999926804561,0.0,0.651112433706,0.247333125012,0.303518304318,1.0,-0.0331594285714,-0.0435809632653,1.025
0.456956460786,0.488691053681,-0.124253538949,-1.44865335573,0.0739310309844,1.92816452006,0.146594957579,-0.025676532495,-0.193808343793,-0.00150294698206,-0.317017311728,-0.0165980260188,0.10935287201,-0.0448564916529,0.573770339271,0.819001533528,0.00219835202474,0.0,0.81896015257,-0.573709287946,-0.0119443847771,0.0,-0.00852141853848,0.00865386302923,-0.999926245321,0.0,0.650489829143,0.246584472535,0.303461980526,1.0,-0.0424948571429,-0.0558503836735,1.042
0.456449450449,0.485275882601,-0.124321424476,-1.45398149267,0.0736132892388,1.93018378869,0.145794494702,-0.0375118947389,-0.24081130891,-0.00164036993374,-0.374951324301,-0.0235019367837,0.135543630146,-0.0577697921116,0.573757580535,0.819010253424,0.00227825928407,0.0,0.818970068384,-0.573696368412,-0.0118849006511,0.0,-0.00842698866224,0.00868504521816,-0.999926775245,0.0,0.649837443135,0.245714255203,0.303475331028,1.0,-0.050732,-0.0666763428571,1.057
0.455697878117,0.480408522686,-0.124457396478,-1.46169038921,0.0731448104058,1.93288830219,0.144617904182,-0.0474085923753,-0.288777695264,-0.00663746229413,-0.464742736283,-0.0322983608298,0.165292450578,-0.0761821878735,0.573758916694,0.819009682374,0.00214303378344,0.0,0.818967825217,-0.573698340354,-0.0119441380928,0.0,-0.00855307449393,0.00860829718635,-0.999926368357,0.0,0.64885253883,0.244405725006,0.303421190645,1.0,-0.0606165714286,-0.0796674938775,1.075
0.454825560207,0.474945042587,-0.124580469789,-1.47017770756,0.0726383304293,1.93591474517,0.143399921183,-0.0567421484825,-0.334885207552,-0.0065430656881,-0.525025306718,-0.0314861830121,0.186716307765,-0.0762038667501,0.573839581269,0.818953183392,0.00213665224127,0.0,0.818911220691,-0.573778998496,-0.0119507494217,0.0,-0.00856130293133,0.00860770726414,-0.999926303018,0.0,0.647773090452,0.242959060372,0.303430729162,1.0,-0.069952,-0.0919369142857,1.092
0.453873743389,0.469128399635,-0.124665245813,-1.47908599679,0.0721288716733,1.93916735258,0.14205510726,-0.0618658601338,-0.388174271917,-0.00533306457043,-0.568909553914,-0.0283549462545,0.227496234267,-0.0856465532717,0.573869000026,0.818932162458,0.00228713858521,0.0,0.818891855047,-0.573807493133,-0.0119095534019,0.0,-0.00844090157683,0.00870761030879,-0.999926461648,0.0,0.64664157636,0.241454547959,0.303494978175,1.0,-0.0787382857143,-0.103484604082,1.108
0.452643033817,0.46179573408,-0.124709725505,-1.49033731643,0.0714088283813,1.94324691874,0.14024385597,-0.0705464868215,-0.425820281318,0.000518241004458,-0.658329799011,-0.0500700240552,0.23054414515,-0.0987252436624,0.573760389816,0.819007889146,0.00241650504916,0.0,0.818969185633,-0.573698305714,-0.0118521688185,0.0,-0.00832083511528,0.00877951720659,-0.999926839214,0.0,0.645183202872,0.239561612142,0.303550748209,1.0,-0.0886228571428,-0.116475755102,1.126
0.451298175883,0.454151861153,-0.124827262044,-1.50228576711,0.0706226085375,1.94727504645,0.138442220177,-0.0818653466772,-0.460712588865,-0.00902878482709,-0.732343733774,-0.0468894948621,0.243254573881,-0.113695659848,0.573809033483,0.818974526922,0.00215968688287,0.0,0.818932289058,-0.573747779911,-0.0120057438953,0.0,-0.00859344832314,0.00865780831306,-0.999925594732,0.0,0.643570511182,0.237464707962,0.303473958872,1.0,-0.0979582857143,-0.12874517551,1.143
0.449924216163,0.446131404995,-0.124938896784,-1.51416140582,0.069812877317,1.95167403102,0.136575856908,-0.088271157689,-0.503129464447,-0.0027432490837,-0.759573777247,-0.0547815268221,0.27789489602,-0.118022196394,0.57380493468,0.818976187557,0.00257838162124,0.0,0.818940159791,-0.573742856347,-0.0117002723509,0.0,-0.00810307241646,0.00882538418495,-0.99992822383,0.0,0.642042089742,0.235390261438,0.3037060873,1.0,-0.106744571429,-0.140292865306,1.159
0.448283056171,0.437132866355,-0.124977848922,-1.52799984494,0.0689082925825,1.95641492689,0.134388283647,-0.104252650125,-0.544343610614,-0.00296535829012,-0.835958569066,-0.0600724356462,0.284460626603,-0.130611661463,0.573752292071,0.819013311718,0.00249989466532,0.0,0.818975645375,-0.573689840509,-0.0118155017076,0.0,-0.00824304771555,0.00882669397483,-0.999927068159,0.0,0.64013028314,0.232983957105,0.303685336487,1.0,-0.11608,-0.152562285714,1.176
0.446475081758,0.427375847261,-0.125057196494,-1.54261464577,0.0679023550118,1.96163899256,0.131988671647,-0.113758384259,-0.580653702382,0.000829537088513,-0.896331838542,-0.0657106260897,0.313066224357,-0.141404270689,0.573682359265,0.819061397604,0.00277930289481,0.0,0.819027658245,-0.573619242001,-0.0116364572164,0.0,-0.0079368641002,0.00895212852707,-0.99992843023,0.0,0.638152581496,0.23038881621,0.303833503862,1.0,-0.125415428571,-0.164831706122,1.193
0.444572973747,0.417689396594,-0.125137394634,-1.55728398555,0.0668605175727,1.96665626301,0.129541636524,-0.119377478045,-0.616354156058,-0.00287299391181,-0.929171902678,-0.0663545145709,0.323214749773,-0.146364555741,0.573624803868,0.819101728986,0.00277287936349,0.0,0.819067978481,-0.573561797182,-0.0116300620008,0.0,-0.0079359390134,0.00894264090256,-0.999928522468,0.0,0.636102218863,0.22771583961,0.303867298262,1.0,-0.134201714286,-0.176379395918,1.209
0.442397132826,0.406777725684,-0.125259323332,-1.57375164636,0.0657192797997,1.97239095928,0.126807244257,-0.131157031016,-0.640224851024,-0.01004504798,-0.997465216909,-0.0620677113036,0.330029871682,-0.162139806135,0.573617619612,0.819106342234,0.00289369742636,0.0,0.819074222051,-0.573554285231,-0.0115606040634,0.0,-0.00780982191261,0.00900169246295,-0.999928985586,0.0,0.633790396944,0.224692529356,0.303913070744,1.0,-0.143537142857,-0.188648816327,1.226
0.439940928405,0.39515967315,-0.12537023574,-1.59108112221,0.0645334938334,1.97830157478,0.123868184639,-0.146254316103,-0.696500240983,-0.00744979860106,-1.02433454453,-0.0687083111377,0.365802236566,-0.166736674073,0.573667101695,0.819071075035,0.00306224992927,0.0,0.819040790103,-0.573602815941,-0.011521310377,0.0,-0.00768040476533,0.00911767987684,-0.999928937123,0.0,0.631167268622,0.221224723572,0.304006907402,1.0,-0.153421714286,-0.201639967347,1.244
0.437281895748,0.383151807701,-0.125494464288,-1.60928287414,0.0631359255609,1.98433226113,0.120656219363,-0.159373449528,-0.717903850763,-0.00543602538708,-1.06606056219,-0.0789680250354,0.343393571507,-0.204218673845,0.573606209153,0.819114508142,0.00284363744851,0.0,0.819081710408,-0.573543007493,-0.0115895268241,0.0,-0.00786235256433,0.00897716881087,-0.999928794391,0.0,0.6286427018,0.217919751783,0.303928053883,1.0,-0.162208,-0.213187657143,1.26
0.434386596764,0.370429368434,-0.125636864352,-1.62821310565,0.0617311546689,1.99065255276,0.117280543328,-0.173828716147,-0.740497423272,-0.00731237839431,-1.13958830655,-0.0860778181337,0.373613380235,-0.200493892436,0.573621142153,0.819103874316,0.00289400360994,0.0,0.819071789313,-0.573557842307,-0.0115564865058,0.0,-0.00780623469842,0.00899961497427,-0.999929032297,0.0,0.625842409777,0.214216731158,0.303965025503,1.0,-0.171543428571,-0.225457077551,1.277
0.431206281767,0.357173429068,-0.125837315617,-1.6478073231,0.0601862705127,1.99712218575,0.113768303908,-0.193667260256,-0.77606071167,-0.0112244355144,-1.17902054437,-0.0941849429998,0.381155121532,-0.221394910288,0.573751019007,0.819012839201,0.00291278450117,0.0,0.818981708151,-0.573688465667,-0.0114565690927,0.0,-0.00771219479249,0.00895890790426,-0.999930127569,0.0,0.622915355886,0.210243397787,0.304012234768,1.0,-0.180878857143,-0.237726497959,1.294
0.427932397026,0.34420957987,-0.126007771701,-1.66687878565,0.0587868846268,2.00328930096,0.110140836547,-0.208161113532,-0.831688992904,-0.0164967222083,-1.19723956115,-0.0938491741316,0.404211639621,-0.227653301264,0.57383907621,0.818950987714,0.00295655852332,0.0,0.818919880422,-0.573775742959,-0.0115053527632,0.0,-0.00772606719687,0.00902357928536,-0.999929438962,0.0,0.620000093712,0.206312393978,0.304043490698,1.0,-0.189665142857,-0.249274187755,1.31
0.424090962298,0.329160127784,-0.126143635441,-1.68896027017,0.0570698221982,2.01037055275,0.105891731828,-0.217423836667,-0.83912151608,-0.0117133606534,-1.22687975429,-0.0970859323201,0.396951250373,-0.249577404905,0.573824454096,0.818961211864,0.00296247274314,0.0,0.818929849256,-0.57376071646,-0.0115450918726,0.0,-0.00775538126261,0.00905108765974,-0.999928963414,0.0,0.616530595654,0.201780660024,0.304044570802,1.0,-0.199549714286,-0.262265338775,1.328
0.420457563329,0.315258815624,-0.126227282306,-1.70922246178,0.0553371100119,2.01681877751,0.101929615272,-0.23548059977,-0.855568155615,-0.00791358463535,-1.30448480499,-0.0968639247436,0.401242485136,-0.254985933886,0.573724341208,0.819031441634,0.00293680463987,0.0,0.819000326394,-0.573661373495,-0.0114821961263,0.0,-0.00771969689117,0.00899303251056,-0.999929763356,0.0,0.613279347176,0.197587039128,0.304047429024,1.0,-0.208336,-0.273813028571,1.344
0.416561862689,0.300876703688,-0.126320231293,-1.72988767311,0.0536186424059,2.02329599113,0.0976215457662,-0.254559477036,-0.910969961663,-0.00807412387741,-1.30860626294,-0.117740878695,0.403186935932,-0.270755104354,0.573544947402,0.819156671788,0.0030475033342,0.0,0.819127002224,-0.573481680404,-0.011422056278,0.0,-0.00760891276766,0.00904752913056,-0.99993012089,0.0,0.609905989449,0.193226932256,0.3041200528,1.0,-0.217122285714,-0.285360718367,1.36
0.412060060637,0.285159397243,-0.126486109327,-1.75241633546,0.0517882158844,2.03016858406,0.092984661328,-0.270092663475,-0.924010514027,-0.00589714408398,-1.33819618335,-0.109101042152,0.405168122177,-0.271741335963,0.573630655703,0.819096531146,0.00308064987893,0.0,0.819066669205,-0.573566537418,-0.0114876217184,0.0,-0.00764266056154,0.00911308506927,-0.999929268209,0.0,0.606157870587,0.188318804092,0.304146161843,1.0,-0.226457714286,-0.297630138775,1.377
0.407236341067,0.268978115149,-0.1266689861,-1.77546428151,0.0498084619106,2.03708648837,0.0879636092042,-0.287191398186,-0.975683267391,-0.00716939175847,-1.36586906744,-0.11410007739,0.413846287354,-0.29730959944,0.573595348875,0.819121300738,0.00306876653036,0.0,0.819091109203,-0.573531062787,-0.0115161514918,0.0,-0.00767323979348,0.00911938589031,-0.999928976574,0.0,0.602249219409,0.18318680355,0.304158632586,1.0,-0.235793142857,-0.309899559184,1.394
0.402300547291,0.253311774155,-0.126895731579,-1.79752583403,0.0478204266888,2.04361106149,0.083095714186,-0.312907755463,-1.01743385301,-0.0152697784509,-1.38749466899,-0.124448624607,0.428431172258,-0.300485318247,0.573733851831,0.819024222238,0.00308829264378,0.0,0.818994669352,-0.573669947797,-0.0114572889426,0.0,-0.00761228304544,0.00910290498834,-0.999929592655,0.0,0.598466108419,0.178086911217,0.304207081254,1.0,-0.244579428571,-0.32144724898,1.41
0.396790301232,0.236325369459,-0.127062079163,-1.82136562927,0.0456989376028,2.05043615975,0.0775868782209,-0.324945011305,-1.03642199159,-0.010323734199,-1.37660650357,-0.12947181705,0.414665786258,-0.333989265275,0.573722854433,0.819032143184,0.00303012104124,0.0,0.819001231444,-0.573658414089,-0.0115651951366,0.0,-0.0077341610346,0.00911706516178,-0.999928528384,0.0,0.594241626492,0.172569636188,0.304198621888,1.0,-0.253914857143,-0.333716669388,1.427
0.390660467239,0.217866731539,-0.127210905761,-1.84703383859,0.043328490336,2.05776707735,0.071449680204,-0.351957681758,-1.04315708351,-0.0143797045235,-1.42121752171,-0.135316514916,0.406879321857,-0.347452068068,0.57358945341,0.819125416933,0.00307199827948,0.0,0.819094816991,-0.573524623263,-0.0115729940208,0.0,-0.00771801549228,0.00915458143731,-0.999928310368,0.0,0.589600401047,0.16659324051,0.304202098626,1.0,-0.263799428571,-0.346707820408,1.445
0.384767867781,0.201023583196,-0.127394944797,-1.87023052162,0.0411088093575,2.06410619718,0.0657187930251,-0.378916505082,-1.04682683339,-0.00615725029325,-1.44484495129,-0.131631073279,0.376329700891,-0.359308300687,0.573562925737,0.81914426523,0.00299830986092,0.0,0.819112470681,-0.573498058236,-0.0116397798779,0.0,-0.00781528452076,0.00913227502435,-0.999927758831,0.0,0.585308460392,0.161003288839,0.304197463247,1.0,-0.272585714286,-0.358255510204,1.461
0.378048365489,0.182665795483,-0.127672078284,-1.89516767298,0.0386945554425,2.07083038617,0.0592534754723,-0.409206727793,-1.06026216461,-0.0211457057933,-1.45513827209,-0.141256708873,0.384455687066,-0.381313983649,0.573596956122,0.819120211603,0.00305904763425,0.0,0.819089083295,-0.573531740405,-0.0116259741977,0.0,-0.00776875910393,0.00917443257049,-0.999927735473,0.0,0.580635424758,0.15479966057,0.304246714829,1.0,-0.281921142857,-0.370524930612,1.478
0.370852754799,0.16396080431,-0.127946628685,-1.92042954679,0.0361689735156,2.07741614725,0.0525289230444,-0.436738294812,-1.09735768626,-0.0132443059426,-1.49461965066,-0.162176355673,0.38180936443,-0.402276304401,0.573709756668,0.819041358019,0.00301924819966,0.0,0.819009481437,-0.573644385854,-0.0116762491859,0.0,-0.00783150699133,0.00917174756614,-0.999927270628,0.0,0.575787654264,0.148366566992,0.304243099932,1.0,-0.291256571429,-0.38279435102,1.495
0.363798243333,0.145968500888,-0.128157339258,-1.94434567808,0.0336616519445,2.08354442239,0.0458431948915,-0.452872268826,-1.12006371924,-0.0185873222674,-1.51085516764,-0.165771771576,0.37690547988,-0.423861435203,0.573610179582,0.819110806069,0.00309776742061,0.0,0.819080311136,-0.573544991812,-0.0115902190203,0.0,-0.00771711323271,0.00918576477078,-0.999928031355,0.0,0.571092725843,0.142239943446,0.304303285493,1.0,-0.300042857143,-0.394342040816,1.511
0.355300584302,0.125369581848,-0.128457912095,-1.97151485567,0.0308262903118,2.09020221701,0.0379061104203,-0.495152322828,-1.13840964564,-0.020064072733,-1.54351917989,-0.17403297033,0.367808562846,-0.457686895952,0.573599786614,0.819117987726,0.0031231205027,0.0,0.819087390041,-0.573534003646,-0.0116336167866,0.0,-0.00773823795148,0.00923132645931,-0.999927448511,0.0,0.565630516482,0.1350764002,0.304324214515,1.0,-0.309927428571,-0.407333191837,1.529
0.347190214722,0.106638679565,-0.128840133335,-1.99579658039,0.0281408698685,2.09598118276,0.0305137899046,-0.518481340983,-1.17639657597,-0.0275452673461,-1.53377825636,-0.177785241319,0.352356689768,-0.472187335466,0.57373659099,0.819021822642,0.00321326871892,0.0,0.818992925072,-0.573671143949,-0.011521900144,0.0,-0.00759347431236,0.00924235800153,-0.999928456424,0.0,0.560675133174,0.128408339304,0.304407183577,1.0,-0.318713714286,-0.418880881633,1.545
0.338734409614,0.0877139139203,-0.129098214879,-2.02021540614,0.0254817554672,2.10155626364,0.0227299559052,-0.537727543145,-1.17780123939,-0.0150210166198,-1.53662962148,-0.15906859819,0.324339229325,-0.500467784026,0.573688202037,0.819055529255,0.00326094191092,0.0,0.819026631159,-0.573621858572,-0.0115796252601,0.0,-0.00761395512861,0.00931407198821,-0.999927635257,0.0,0.555534470238,0.121719086528,0.304414309634,1.0,-0.3275,-0.430428571429,1.561
0.328643773245,0.0661258369197,-0.129459827332,-2.04778001031,0.0223423300718,2.10757231373,0.0134942773999,-0.571297629987,-1.18444719704,-0.0207906683949,-1.54597135043,-0.179485305573,0.323334589658,-0.520879732381,0.573639603433,0.819089633368,0.00324419230762,0.0,0.819060123105,-0.57357283828,-0.0116387640599,0.0,-0.0076725581174,0.00933382425566,-0.999927003124,0.0,0.549598595851,0.113948925032,0.304396022528,1.0,-0.32998,-0.433688,1.579
0.318515098642,0.0458751263684,-0.129857502784,-2.07329956118,0.0193220267937,2.11276765186,0.00459069740812,-0.601032164298,-1.18538698391,-0.0185308360927,-1.49815124422,-0.173876724826,0.290203031013,-0.514857834053,0.57388248246,0.818919907318,0.00313506374631,0.0,0.81888852849,-0.573815505917,-0.0117511692428,0.0,-0.00782446888276,0.00931123718495,-0.999926036539,0.0,0.54397526668,0.106415944547,0.304367334759,1.0,-0.32998,-0.433688,1.596
0.308827654123,0.0269027989273,-0.130069188926,-2.09665516973,0.0165419546828,2.11733508817,-0.00398048823251,-0.616835269056,-1.17598028389,-0.0167322621527,-1.43821565892,-0.177683151036,0.270657644818,-0.541433073409,0.573909305978,0.818900562776,0.00327470568307,0.0,0.818870602001,-0.573841372381,-0.0117372664359,0.0,-0.00773264136382,0.00941786797154,-0.999925752254,0.0,0.538694937189,0.0995126279347,0.304454088698,1.0,-0.32998,-0.433688,1.612
0.298144748067,0.00701877980359,-0.130370816503,-2.12093112525,0.0134876001323,2.12185379584,-0.0134140047139,-0.639991458531,-1.15118718482,-0.0234065341765,-1.4072019588,-0.165927960362,0.24059884559,-0.556898175178,0.573945040475,0.818875358038,0.00331442522216,0.0,0.818846071826,-0.573877163126,-0.0116986836812,0.0,-0.00767783866633,0.00942858708196,-0.999926073537,0.0,0.53309675499,0.0920856362072,0.304495902424,1.0,-0.32998,-0.433688,1.629
0.286561507534,-0.013864926991,-0.13058070593,-2.14594564546,0.0103825925236,2.12629005943,-0.023694252744,-0.641874793595,-1.15542202502,-0.00574866207598,-1.38355763018,-0.166925021402,0.226694834266,-0.568268216182,0.573864039911,0.818931071929,0.00356511249481,0.0,0.818904819782,-0.573795093268,-0.0116118034611,0.0,-0.00746376629955,0.00958326875751,-0.999926223855,0.0,0.527183752341,0.0843536600274,0.30460195409,1.0,-0.32998,-0.433688,1.647
0.276594427434,-0.0311084979167,-0.130824449581,-2.16632116198,0.00762665886485,2.12961821918,-0.0324520971722,-0.675900057542,-1.1601188823,-0.0209763514994,-1.35747637816,-0.179433473547,0.234157039249,-0.581520689162,0.573829049283,0.818955285931,0.00363438373102,0.0,0.818930689576,-0.573760881719,-0.0114770719449,0.0,-0.00731408234099,0.00956236976294,-0.999927530016,0.0,0.522253088423,0.0778376623752,0.304685387078,1.0,-0.32998,-0.433688,1.662
0.264908897329,-0.0503911491659,-0.131146264404,-2.18891892143,0.00469606140655,2.13299406963,-0.0426299649349,-0.690365205526,-1.15684620645,-0.0132175264379,-1.29815450868,-0.180933337575,0.199324470564,-0.584611396871,0.573970434425,0.81885582501,0.00371821922512,0.0,0.818831573248,-0.573901026999,-0.0115417833333,0.0,-0.00731730756245,0.00966942385803,-0.999926476923,0.0,0.516646235879,0.0704188743522,0.304724152205,1.0,-0.32998,-0.433688,1.679
0.25230769831,-0.0704568487247,-0.131367241292,-2.21226054483,0.00151582022261,2.1362389779,-0.0537750140492,-0.711784604285,-1.11290224284,-0.0136460691661,-1.26787660347,-0.174132475103,0.166906595768,-0.616328226236,0.573816254012,0.818964033668,0.00368308185648,0.0,0.818938935484,-0.573746460819,-0.0116088563915,0.0,-0.00739422303831,0.00967775594958,-0.999925830502,0.0,0.510697029777,0.0626960513607,0.304696916084,1.0,-0.32998,-0.433688,1.697
0.24061445191,-0.0881085008111,-0.131709466352,-2.23256815621,-0.00131279016947,2.13885072153,-0.0639703537539,-0.731078760669,-1.08954234614,-0.0172927449448,-1.26724503271,-0.174352371038,0.145029216383,-0.642725269824,0.573917024708,0.818893570061,0.00364918678471,0.0,0.818867624327,-0.573846792439,-0.0116798774402,0.0,-0.00747064623658,0.00969166801721,-0.999925127705,0.0,0.505415913197,0.0556771878268,0.304649101289,1.0,-0.32998,-0.433688,1.713
0.228097001642,-0.106793406054,-0.13190215912,-2.25351776854,-0.00429103708879,2.14120813055,-0.0750442548287,-0.751274496068,-1.09197729483,-0.0170907298545,-1.22691902923,-0.176749533756,0.130740939296,-0.658507756409,0.573729857191,0.819024382083,0.0037228245451,0.0,0.818999325248,-0.573659330495,-0.0116543846116,0.0,-0.00740973477933,0.00973564665068,-0.999925153706,0.0,0.499804716169,0.0484421413139,0.304705052651,1.0,-0.32998,-0.433688,1.73
0.214974725741,-0.125142121317,-0.132278389792,-2.27405687206,-0.00729127946168,2.14323643264,-0.0864445616682,-0.777361631588,-1.06541339597,-0.0193731603561,-1.20004954766,-0.17399523796,0.105481497871,-0.680478296186,0.573866089822,0.818929411342,0.00361622646217,0.0,0.81890223669,-0.573794940817,-0.011799980463,0.0,-0.00758852470819,0.00973313197947,-0.999923837317,0.0,0.494170552534,0.0409914944245,0.304641182769,1.0,-0.32998,-0.433688,1.747
0.202445472438,-0.142302154045,-0.13251792359,-2.29290234964,-0.0100784060269,2.14483693814,-0.0975543829821,-0.791498802674,-1.08400954876,-0.0226362011215,-1.1484972693,-0.184604434073,0.111997183787,-0.70533939996,0.573714985528,0.819035434311,0.00358045022054,0.0,0.819007208254,-0.573643234956,-0.0118902783216,0.0,-0.00768480617842,0.00975423319383,-0.999922896372,0.0,0.488857822712,0.0341216542584,0.304624229179,1.0,-0.32998,-0.433688,1.763
0.188611415997,-0.160308986223,-0.132946132285,-2.31247677753,-0.0130530730838,2.14625115565,-0.109639815721,-0.82043736559,-1.04069383311,-0.0240532938254,-1.14100759466,-0.180898532552,0.0707382141,-0.714989575323,0.573848519499,0.818942201921,0.00350620641486,0.0,0.818912168168,-0.573775963857,-0.0120312520986,0.0,-0.00784127408918,0.00977557951197,-0.99992147315,0.0,0.483207284984,0.0266631130892,0.304571667309,1.0,-0.32998,-0.433688,1.78
0.174553223557,-0.178148411325,-0.133224981369,-2.3313726332,-0.0159145624224,2.14738403513,-0.122075253996,-0.848671599186,-1.03933488716,-0.0203527093355,-1.09995726393,-0.173490633059,0.0449472268667,-0.731133727685,0.573784473003,0.818986587335,0.00361873004489,0.0,0.818957644761,-0.573711030415,-0.0120323135562,0.0,-0.00777834783157,0.00986773131182,-0.999921059476,0.0,0.477284572842,0.0189399448228,0.304619261032,1.0,-0.32998,-0.433688,1.798
0.159944833158,-0.195833979368,-0.133655107008,-2.34969850873,-0.0188452044262,2.14827763524,-0.134896354173,-0.861478266529,-1.04055813648,-0.0177066743015,-1.07557014681,-0.169406914708,0.0518617542573,-0.769370808401,0.573898537815,0.818905698027,0.00383052655775,0.0,0.818880342229,-0.573825391921,-0.0118385640717,0.0,-0.0074967585073,0.00993106871292,-0.999922583246,0.0,0.472053113251,0.0119211563875,0.304729900443,1.0,-0.32998,-0.433688,1.814
0.144221325832,-0.21414919903,-0.134003821597,-2.36863795899,-0.0217662082097,2.14878552871,-0.148922191191,-0.894034195597,-1.0148328634,-0.0302762158992,-1.0278933575,-0.159671130663,0.0241222409312,-0.792674092967,0.573831892852,0.818952126537,0.00388845557071,0.0,0.818926186924,-0.573756778487,-0.0119919310957,0.0,-0.00758993586036,0.010065904413,-0.999920532063,0.0,0.466098349705,0.0041859411531,0.304720247185,1.0,-0.32998,-0.433688,1.832
0.129801812094,-0.230171077135,-0.134341289552,-2.38495934962,-0.0245445927595,2.14905881941,-0.161650365527,-0.899442426837,-0.996279670955,-0.01093297689,-1.01187462013,-0.171442408361,0.00488358125787,-0.814805446402,0.573838318469,0.818947798571,0.00385154177404,0.0,0.818921759244,-0.573763841756,-0.0119562967629,0.0,-0.00758185348228,0.0100152854202,-0.999921101665,0.0,0.460833053049,-0.00275864002475,0.304719290046,1.0,-0.32998,-0.433688,1.848
0.115061771596,-0.246104395791,-0.134713416486,-2.40079322687,-0.02714050268,2.14916544903,-0.174812101737,-0.938411342632,-0.995860389624,-0.0318848349034,-0.985413536096,-0.170795546526,0.00734825064529,-0.834962460613,0.573842377501,0.818943876455,0.00407429777897,0.0,0.818921141785,-0.573767672025,-0.0118139315114,0.0,-0.00733738778377,0.0101160579007,-0.999921911008,0.0,0.455595921037,-0.00968035652738,0.304801323596,1.0,-0.32998,-0.433688,1.864
0.0990728601985,-0.262668820465,-0.135066315195,-2.41731671371,-0.0299224405508,2.14901309788,-0.189210975456,-0.946645657029,-0.982481096847,-0.0235531854435,-0.964665544574,-0.16696499467,-0.0127024654698,-0.852756847153,0.573706788637,0.819038887984,0.00407032463505,0.0,0.81901559701,-0.57363142354,-0.0118822843763,0.0,-0.00739732928916,0.0101508020066,-0.999921117258,0.0,0.449954282161,-0.0169874811465,0.30474947366,1.0,-0.32998,-0.433688,1.881
0.0815678882162,-0.27985897792,-0.135550720662,-2.43401298599,-0.0328612976434,2.14864665259,-0.204860243918,-0.97754813001,-0.950443525473,-0.02045293559,-0.91903356166,-0.165317625718,-0.0331218381784,-0.887607053213,0.573781615489,0.818985828209,0.00419735884259,0.0,0.818964876401,-0.573706769946,-0.0117396866079,0.0,-0.00720672252733,0.0101737016882,-0.999922276452,0.0,0.444069477544,-0.0248383351647,0.304786255493,1.0,-0.32998,-0.433688,1.899
0.0667281517159,-0.294001968468,-0.135862878641,-2.44752616756,-0.0351472219318,2.14802215563,-0.218319938291,-1.00331020007,-0.934645578727,-0.0239347838588,-0.871747202506,-0.164111240934,-0.0352914258107,-0.914299842193,0.573694892523,0.819045910094,0.00432600879741,0.0,0.819026238679,-0.573619087391,-0.0117435019325,0.0,-0.00713712342133,0.0102804997243,-0.999921683331,0.0,0.439129641798,-0.0312773676774,0.304819943795,1.0,-0.32998,-0.433688,1.914
0.0484098511618,-0.310634241272,-0.136366215528,-2.46319742522,-0.0379859947351,2.14712227606,-0.234812001542,-1.0192060981,-0.915591515095,-0.0152841996727,-0.850311033883,-0.148063035423,-0.0617270400227,-0.924539107079,0.573776145943,0.818988388098,0.00443862686966,0.0,0.818970550157,-0.573700514012,-0.0116492531096,0.0,-0.006994295172,0.0103193669215,-0.999922292231,0.0,0.433210011739,-0.0391118502654,0.304860060803,1.0,-0.32998,-0.433688,1.932
0.0306727359495,-0.326036150681,-0.136865138086,-2.47740911601,-0.0405483779876,2.1460877861,-0.250863656889,-1.05226491763,-0.918798127293,-0.0285030758197,-0.839754186737,-0.152832790798,-0.0668300196029,-0.946615878334,0.573884075723,0.818911566657,0.00465408713004,0.0,0.818896985148,-0.573808489223,-0.0115018395623,0.0,-0.00674856468137,0.0104121409517,-0.999923019135,0.0,0.427637594063,-0.0465154457388,0.304935822542,1.0,-0.32998,-0.433688,1.949
0.0137398353041,-0.340077377996,-0.137219742755,-2.49033591781,-0.0429468391448,2.14491399247,-0.266426186155,-1.0800866799,-0.878006795725,-0.0279284199953,-0.790442690932,-0.155069382603,-0.0802659182191,-0.978215269341,0.573719195186,0.819026896534,0.00468772117681,0.0,0.819012757227,-0.573643550573,-0.0114859604385,0.0,-0.00671835886091,0.0104292202196,-0.999923044549,0.0,0.422380312753,-0.0533790356163,0.304933936699,1.0,-0.32998,-0.433688,1.965
-0.00585155756174,-0.35551442531,-0.137729216019,-2.50418215713,-0.0456027136617,2.14334606336,-0.284343809409,-1.08881680396,-0.861799474756,-0.0274278476132,-0.74572751278,-0.128903234305,-0.0911815860367,-1.0069043726,0.573746823256,0.819006958178,0.00478875351582,0.0,0.818994470838,-0.573671438816,-0.0113966628354,0.0,-0.0065869018609,0.0104609631551,-0.999923587567,0.0,0.416485417997,-0.061195341037,0.304998140508,1.0,-0.32998,-0.433688,1.983
-0.0237019120899,-0.368816193665,-0.138185985572,-2.51620385724,-0.0478984153873,2.14187026859,-0.30074318618,-1.11387790671,-0.806433629798,-0.0202660113906,-0.740823746703,-0.152422689343,-0.0949031646806,-1.02975286288,0.573765328982,0.818993998304,0.00478799560597,0.0,0.818980791092,-0.573688820172,-0.0115042745566,0.0,-0.00667524078557,0.0105222328904,-0.999922358874,0.0,0.411174742781,-0.0681468704436,0.304940419295,1.0,-0.32998,-0.433688,1.999
-0.043010194469,-0.382561760295,-0.138662095766,-2.52828040061,-0.0502651642564,2.14008909201,-0.318514292654,-1.15937694559,-0.802416981482,-0.0361869388995,-0.687959733221,-0.134118430437,-0.0872193781289,-1.05128194334,0.573814091058,0.818959528075,0.0048401630983,0.0,0.81894670141,-0.573736957488,-0.0115304277409,0.0,-0.00666610155456,0.0105803612221,-0.999921806466,0.0,0.405575685693,-0.0755126410494,0.304956067344,1.0,-0.32998,-0.433688,2.016
-0.0626700044496,-0.395858767647,-0.139041783155,-2.53987046377,-0.0525828722886,2.1382838715,-0.3368068695,-1.16273563682,-0.759644662844,-0.020551142628,-0.667060348707,-0.124953645101,-0.114082483606,-1.0765579907,0.573675330875,0.819056618444,0.00485977670812,0.0,0.819044110571,-0.573598266618,-0.0115117493363,0.0,-0.0066413428543,0.0105845818869,-0.999921926548,0.0,0.399983577047,-0.0828202193594,0.304950726502,1.0,-0.32998,-0.433688,2.033
-0.0827800727377,-0.408641993318,-0.139550478606,-2.55091180472,-0.0547562514079,2.13621894485,-0.355531990188,-1.19068511318,-0.736306149233,-0.0263243384292,-0.619308283798,-0.126367527864,-0.112373441296,-1.11662904682,0.573719837874,0.819025303538,0.00488330784124,0.0,0.819011503354,-0.573640162882,-0.011741712153,0.0,-0.00681562907668,0.0107361451932,-0.999919137924,0.0,0.394341082779,-0.0901764327644,0.304907093391,1.0,-0.32998,-0.433688,2.05
-0.100872622443,-0.419648074672,-0.139991517236,-2.56003691445,-0.0566725845829,2.13457435809,-0.372441204418,-1.21460601292,-0.704272930824,-0.0207753005565,-0.608750978448,-0.124895930703,-0.122570783815,-1.11840126596,0.573736443214,0.819012453863,0.00508340900242,0.0,0.819002766188,-0.573658614576,-0.0114459512234,0.0,-0.00645835957607,0.010730491974,-0.999921569991,0.0,0.389463065026,-0.0967040956546,0.305012214463,1.0,-0.32998,-0.433688,2.065
-0.122969916906,-0.432155572028,-0.140487237055,-2.570706412,-0.0589188213568,2.13223560887,-0.393162023822,-1.23847354415,-0.679962343918,-0.0378372959802,-0.57715436165,-0.121180250431,-0.12522025912,-1.1337853883,0.573719604849,0.819024909228,0.00497593970999,0.0,0.8190118116,-0.573638829241,-0.0117852852738,0.0,-0.00679818085804,0.0108370112527,-0.999918168614,0.0,0.383441921736,-0.104478258165,0.304909488554,1.0,-0.32998,-0.433688,2.083
-0.14411597879,-0.443525574182,-0.140872203635,-2.57993704641,-0.0608401801002,2.13017073224,-0.41319947884,-1.25723016712,-0.65851626044,-0.0332233678068,-0.516408348894,-0.11753879618,-0.116281801258,-1.18909563127,0.573600159269,0.819107469592,0.00515339174529,0.0,0.819097392957,-0.573519996897,-0.0116198499212,0.0,-0.0065624589959,0.0108864871076,-0.999919206001,0.0,0.37790437966,-0.111772183122,0.304992862313,1.0,-0.32998,-0.433688,2.1
-0.164482341369,-0.453612452719,-0.141302104997,-2.58817984022,-0.062729513685,2.12820880126,-0.432452126415,-1.2723270419,-0.618805828892,-0.0239135704945,-0.51884408855,-0.101731590211,-0.133340207149,-1.20196360529,0.573573072317,0.819126467859,0.00514852088703,0.0,0.819116495638,-0.573493207818,-0.0115954327867,0.0,-0.00654561016611,0.010868275643,-0.999919514547,0.0,0.372635210386,-0.118719977998,0.304995226768,1.0,-0.32998,-0.433688,2.116
-0.186429376542,-0.463789835911,-0.141747664272,-2.59647005387,-0.0646514416108,2.12600523239,-0.453333515535,-1.29562244969,-0.582576850678,-0.0294249036357,-0.478316119015,-0.110706692414,-0.119283055218,-1.25657180973,0.57349187355,0.819183701822,0.00508729217124,0.0,0.819172032075,-0.57341073538,-0.0117497794907,0.0,-0.00670824906835,0.0109059804935,-0.999918026132,0.0,0.366984621761,-0.126065388519,0.304958038441,1.0,-0.328350285714,-0.431546089796,2.133
-0.209856180855,-0.473699640115,-0.142088561593,-2.60433267082,-0.0663265568048,2.12393921601,-0.475570937608,-1.30382612304,-0.541731444023,-0.000966887155392,-0.41650576717,-0.102169990964,-0.115617072981,-1.20476972559,0.573556664575,0.819137266327,0.00525721764109,0.0,0.81912810297,-0.57347545846,-0.0116531699805,0.0,-0.0065307862428,0.0109902996163,-0.999918277733,0.0,0.361180672127,-0.133755524841,0.304995521639,1.0,-0.318465714286,-0.418554938776,2.151
-0.229388057581,-0.481236385376,-0.142358036082,-2.61019596405,-0.0675642189097,2.122257662,-0.494008856307,-1.29116507004,-0.491539365958,-0.0155734259099,-0.384489065586,-0.0908229526821,-0.110503049794,-1.20889661052,0.573784468774,0.818976568209,0.0054324045908,0.0,0.818969882413,-0.573703023217,-0.0115723702258,0.0,-0.00636103558612,0.0110892355535,-0.999918279701,0.0,0.356440580633,-0.140087206543,0.305046971794,1.0,-0.310228571429,-0.407728979592,2.166
-0.252462736023,-0.489385666953,-0.142412113387,-2.61673773671,-0.0688501118113,2.12022746606,-0.51592174431,-1.28817257492,-0.424852463009,-0.00788098787356,-0.351254485277,-0.0630235854723,-0.114832730055,-1.20125514559,0.573849389282,0.818930786533,0.00547651256986,0.0,0.818922855453,-0.573764635829,-0.0118425668929,0.0,-0.00655613960588,0.0112809082831,-0.999914875448,0.0,0.350837576491,-0.147344178218,0.304979362914,1.0,-0.300344,-0.394737828572,2.184
-0.273912819751,-0.496239293948,-0.142333133326,-2.62208897188,-0.0699495139596,2.11863290948,-0.536365073558,-1.24978418855,-0.386510264833,0.0101689218791,-0.303129957961,-0.0607360140853,-0.0959455543224,-1.19406743057,0.57383555014,0.818940098037,0.00553390680554,0.0,0.818933222682,-0.573751132195,-0.0117797280725,0.0,-0.00647193097212,0.0112917442743,-0.999915301723,0.0,0.345786975635,-0.154011658869,0.304988079442,1.0,-0.291008571429,-0.382468408163,2.201
-0.293688158738,-0.501934418756,-0.142195247361,-2.62651138268,-0.0708176640606,2.11718208852,-0.555200267016,-1.23156418181,-0.33827030507,0.00792105080658,-0.263912466196,-0.0363317541629,-0.0826555137776,-1.15521987332,0.573876152005,0.818911337696,0.00557943136471,0.0,0.818904758057,-0.573791047517,-0.0118143100614,0.0,-0.00647356932527,0.0113491921955,-0.999914640725,0.0,0.341180962044,-0.160073827243,0.30498669466,1.0,-0.282222285714,-0.370920718367,2.217
-0.314322657059,-0.507287138927,-0.141973535833,-2.63057317878,-0.0715662070376,2.11587032229,-0.574929205041,-1.20189455544,-0.298658104133,0.0256473660702,-0.224665862546,-0.0498680419596,-0.0649558732566,-1.14308239602,0.573899364916,0.818894340872,0.00568544960491,0.0,0.818889752763,-0.573814977121,-0.011691524821,0.0,-0.00631184889974,0.0113657339166,-0.999915486757,0.0,0.336473489243,-0.166337690999,0.305026473466,1.0,-0.272886857143,-0.358651297959,2.234
-0.334505044592,-0.512002768707,-0.141774521637,-2.63417126147,-0.0721582088689,2.11461963772,-0.594232711254,-1.17716270478,-0.258063918793,0.0117479969814,-0.205724334816,-0.0314403934342,-0.0736422582067,-1.13656494455,0.574010924088,0.818815141015,0.00582844513175,0.0,0.818812177933,-0.573925601771,-0.0116947766799,0.0,-0.00623088630054,0.0114855525538,-0.999914625425,0.0,0.331869200287,-0.172397312261,0.305037470217,1.0,-0.263551428572,-0.346381877551,2.251
-0.352906513101,-0.515770006808,-0.141375481056,-2.63720316506,-0.0726214429885,2.11349662635,-0.611997387766,-1.152035711,-0.228367656717,0.0226771398419,-0.183072037723,-0.0259572324449,-0.0690815173936,-1.10358126071,0.57387129168,0.818913067786,0.00582021441263,0.0,0.818908501706,-0.573783298132,-0.0119306126937,0.0,-0.00643071663129,0.0116130827692,-0.999911887214,0.0,0.327677251531,-0.177794625844,0.304965674144,1.0,-0.254765142857,-0.334834187755,2.267
-0.37311745598,-0.519329923596,-0.141010534017,-2.64006751651,-0.0730777581778,2.11249198233,-0.63141774748,-1.1048330442,-0.187576554571,0.0221241201762,-0.149757251512,-0.0234685105068,-0.0466532414965,-1.05808072344,0.57389508367,0.818896186982,0.00584934072821,0.0,0.818890973647,-0.573805120132,-0.012083223517,0.0,-0.00653864989455,0.0117247006322,-0.999909884666,0.0,0.323127930956,-0.183732015061,0.304898777891,1.0,-0.244880571429,-0.321843036735,2.285
-0.391653690852,-0.522175539392,-0.140623324482,-2.64222604943,-0.073427293121,2.1116579249,-0.64924380761,-1.06322130003,-0.157306192753,0.0262582991385,-0.124143310417,-0.0227412449666,-0.0497106246385,-1.04025901357,0.573924040833,0.81887567986,0.00587904658488,0.0,0.818870803306,-0.573833855973,-0.0120855340584,0.0,-0.00652307953682,0.0117505843772,-0.999909682521,0.0,0.319013345096,-0.189154905905,0.304902047814,1.0,-0.235545142857,-0.309573616327,2.302
-0.407510245292,-0.524273785412,-0.140257114723,-2.64377371208,-0.0736003742631,2.1110213112,-0.664525780201,-1.06179981007,-0.124363086587,0.0103045420254,-0.0958455615022,-0.016716993326,-0.0402730053,-1.00604495381,0.573968698277,0.818843798821,0.00595931471987,0.0,0.8188400726,-0.573878355894,-0.0120546688955,0.0,-0.00645109334178,0.0117989554784,-0.999909579934,0.0,0.315525128199,-0.193763675062,0.304923272012,1.0,-0.227308,-0.298747657143,2.317
-0.425885723823,-0.526331044124,-0.139773656968,-2.64528910704,-0.0737501256198,2.11041494986,-0.682331493953,-1.00144806905,-0.104805153432,0.0320921669758,-0.0727911246428,-0.00230539941053,-0.0264956004878,-0.987980480773,0.573938763576,0.8188642769,0.00602814928356,0.0,0.818861850773,-0.573848885935,-0.0119779948502,0.0,-0.00634922758343,0.0118110844335,-0.999910088755,0.0,0.311504884994,-0.199071800278,0.30494857953,1.0,-0.217423428572,-0.285756506123,2.335
-0.442684223295,-0.527814181732,-0.139346883273,-2.64641967579,-0.0738854740424,2.10994492533,-0.698506196914,-0.9700046047,-0.0790023889619,0.0272802245888,-0.0569713909822,-0.0080349985723,-0.0314250639786,-0.942852899088,0.574023051519,0.818805039684,0.00604898452499,0.0,0.818802951149,-0.573933194746,-0.0119650348794,0.0,-0.00632543963018,0.0118213598113,-0.999910118093,0.0,0.307824260272,-0.203914521561,0.304947961333,1.0,-0.208088,-0.273487085714,2.352
-0.457766474439,-0.528845054499,-0.13884533138,-2.64721256809,-0.0738980350877,2.10958912541,-0.713136958318,-0.940924877222,-0.0547961482328,0.0282816662973,-0.0503721607005,-0.00114525631107,-0.0216183574785,-0.899206403383,0.573986259564,0.818830685859,0.00606865958373,0.0,0.818828842854,-0.573896310059,-0.0119623707146,0.0,-0.00631249640978,0.0118356577997,-0.99991003075,0.0,0.304548144521,-0.208214219786,0.304946912222,1.0,-0.199301714286,-0.261939395918,2.368
-0.473251950397,-0.529603001707,-0.138327475296,-2.64779010554,-0.0738960364852,2.10929376478,-0.728080015342,-0.879052325887,-0.0369869022143,0.0315761545093,-0.0300858237352,0.00148009237852,-0.0141066113126,-0.872715102916,0.574031671285,0.818798867595,0.00606643943136,0.0,0.818797052391,-0.57394182774,-0.0119545919308,0.0,-0.00630674442475,0.0118297248693,-0.999910137254,0.0,0.301191670923,-0.212627770425,0.304949435518,1.0,-0.189966285714,-0.24966997551,2.385
-0.48889305137,-0.530046095856,-0.137796552339,-2.64815285539,-0.0738865361476,2.10908075686,-0.743216076499,-0.857092379971,-0.0188683719777,0.018549685999,-0.0189562907919,-0.0028890062833,-0.00195081712267,-0.83118649383,0.57405360661,0.818783739671,0.00603251934647,0.0,0.818781467507,-0.573963868079,-0.0119638416774,0.0,-0.0063334728301,0.0118074288367,-0.999910231844,0.0,0.297803722279,-0.217082757033,0.304941933032,1.0,-0.180081714286,-0.23667882449,2.403
-0.502013977892,-0.530201835431,-0.137194502138,-2.64827741781,-0.0738149440143,2.10894318543,-0.756095982819,-0.819514778308,-0.00602841799672,0.0331536328891,-0.00361427344837,0.0097508931463,-0.0020004455045,-0.788436384687,0.573849671926,0.818927222208,0.00595866244414,0.0,0.818924076729,-0.573760438122,-0.0119608988578,0.0,-0.00637638366728,0.0117436761282,-0.999910709915,0.0,0.294992995095,-0.220775650566,0.30494615828,1.0,-0.171295428572,-0.225131134694,2.419
-0.516313897334,-0.53022004957,-0.136633083744,-2.64832026735,-0.0737046122691,2.10885348955,-0.769829172732,-0.787295846568,0.0031229571019,0.0303339642595,-0.00143421567406,0.00873381471885,-0.00364771642966,-0.755801836774,0.573962596958,0.818848251377,0.0059350999365,0.0,0.818844802348,-0.573873440906,-0.0119670544541,0.0,-0.00639332848259,0.0117287932025,-0.9999107764,0.0,0.291893022752,-0.224804297116,0.30494036665,1.0,-0.161410857143,-0.212139983674,2.437
-0.528142307551,-0.530041040119,-0.135999156057,-2.64823108317,-0.0734744564622,2.10884892781,-0.781398865722,-0.72946878961,0.00963271276757,0.0355618856255,0.00435601818825,0.0137769668517,-0.00203410421211,-0.700858138201,0.573830946806,0.818940537044,0.00593196216739,0.0,0.81893704058,-0.573741818153,-0.0119664768941,0.0,-0.00639654140831,0.0117248640482,-0.999910801932,0.0,0.289369204264,-0.228082564823,0.304931838276,1.0,-0.152624571429,-0.200592293878,2.453
-0.539518005361,-0.529771584264,-0.135477363991,-2.64807086463,-0.073259771382,2.10885210993,-0.792347761737,-0.702467602199,0.0171727451566,0.0283109845476,0.0114180846421,0.016732305335,-0.00111444133936,-0.678687518457,0.57391346775,0.81888253438,0.00595594860485,0.0,0.818879196301,-0.573823942579,-0.0119871468769,0.0,-0.00639852249566,0.0117570137982,-0.999910411755,0.0,0.286907572617,-0.231246944512,0.30492026464,1.0,-0.143838285714,-0.189044604082,2.469
-0.55078882425,-0.529314672711,-0.134806379258,-2.64779227241,-0.0729474937725,2.10889602212,-0.803305902709,-0.645237581047,0.0271110277419,0.0368956121813,0.016293799317,0.0264231747304,-0.000409750237861,-0.626614733233,0.573845711061,0.818929909849,0.00597072458199,0.0,0.818926454073,-0.573755569435,-0.0120314696656,0.0,-0.00642731763192,0.011794018647,-0.999909791287,0.0,0.284504817754,-0.234339646961,0.304901375556,1.0,-0.134502857143,-0.176775183674,2.486
-0.562631841628,-0.528660715607,-0.134112649867,-2.64737762643,-0.0725866949691,2.10898476079,-0.814767518717,-0.614555299115,0.0351547793745,0.030918070899,0.0257171236194,0.028544196448,0.000357286382419,-0.592385887504,0.573846515355,0.818929105985,0.00600358951986,0.0,0.818925668636,-0.573755482342,-0.012088946716,0.0,-0.00645552221449,0.0118539217338,-0.999908901237,0.0,0.281977860563,-0.237593364553,0.304876648007,1.0,-0.124069142857,-0.163062302041,2.505
-0.571430860315,-0.528097357702,-0.133596388369,-2.64694237974,-0.0723022802556,2.10909559596,-0.82316369134,-0.568273437978,0.0353012674714,0.0405784976578,0.0309180111676,0.0216439046183,0.00555329872458,-0.550838740094,0.573957911021,0.818850861099,0.00602748336081,0.0,0.818848043406,-0.573867321643,-0.012038515711,0.0,-0.00639889642236,0.011845422347,-0.99990936594,0.0,0.280114796797,-0.240026361381,0.304891480801,1.0,-0.115832,-0.152236342857,2.52
-0.580464312564,-0.527329768818,-0.132917301899,-2.64643721833,-0.0719181828668,2.10921243174,-0.832074588287,-0.527496498454,0.0429606790399,0.039130138976,0.0321543093897,0.0210993598799,0.00663549166345,-0.512566447604,0.573771540946,0.818981310074,0.00604809480991,0.0,0.818978270681,-0.573679995917,-0.0121079039358,0.0,-0.0064466001388,0.0119006580518,-0.999908403647,0.0,0.278228339467,-0.242476647467,0.304867960628,1.0,-0.106496571429,-0.139966922449,2.537
-0.589063091411,-0.526608953445,-0.132333344212,-2.64591547021,-0.071580872379,2.10933356521,-0.84020029249,-0.495046027168,0.0492160949123,0.0313912272303,0.0350200469524,0.02070740838,0.0075521072189,-0.452949537253,0.573919746938,0.818877304319,0.00606889171874,0.0,0.818874462173,-0.573827943303,-0.012118316182,0.0,-0.00644103844483,0.0119248309886,-0.999908151497,0.0,0.276409558945,-0.244823880623,0.304866749425,1.0,-0.0971611428572,-0.127697502041,2.554
-0.596876947398,-0.525826270512,-0.131743508129,-2.64533150385,-0.071203389948,2.10947599,-0.847683307686,-0.440377341078,0.0474773356403,0.0415807112285,0.0347819608599,0.0230630061601,0.0065367022184,-0.425367802773,0.573967489368,0.81884356621,0.0061059091167,0.0,0.818841225213,-0.573875547737,-0.0121099340216,0.0,-0.00641223307742,0.0119507086171,-0.999908027686,0.0,0.274786662349,-0.246953438639,0.304872919628,1.0,-0.0878257142858,-0.115428081633,2.571
-0.603783367696,-0.525045362029,-0.13105248045,-2.64479627628,-0.0707933015361,2.10961066623,-0.85445956822,-0.392661478028,0.0391475207436,0.0429902127677,0.0330808216047,0.0249616860728,0.00158617505081,-0.387964717704,0.573790515017,0.818967497652,0.00611797084007,0.0,0.818964970878,-0.573697918917,-0.0121581744995,0.0,-0.00644740673947,0.0119868798032,-0.999907368539,0.0,0.273384352588,-0.248784992939,0.304859198197,1.0,-0.0784902857144,-0.103158661225,2.588
-0.610246764123,-0.524346624063,-0.130404478437,-2.64427357166,-0.0704334259196,2.10974914538,-0.860435636782,-0.368802505432,0.0413104279504,0.0390263404069,0.0298280603118,0.0217981637338,0.00732782833242,-0.335082608943,0.573913692677,0.81888130088,0.00610207567259,0.0,0.818878706123,-0.573821400233,-0.0121413423275,0.0,-0.00644094060083,0.0119651728073,-0.9999076702,0.0,0.272067281028,-0.250501655892,0.304868832843,1.0,-0.069154857143,-0.0908892408165,2.605
-0.615562592468,-0.523675990672,-0.129795000073,-2.64376753887,-0.0700409185399,2.10989799203,-0.865488995655,-0.319264971264,0.0402425622109,0.0416527772766,0.03455436582,0.0280648068008,0.00236124341453,-0.291875233494,0.57389259454,0.818895925995,0.00612366092951,0.0,0.818893809717,-0.573800578333,-0.0121066763505,0.0,-0.00640047098683,0.0119627902508,-0.999907958574,0.0,0.271021984304,-0.251903350227,0.304880911864,1.0,-0.0603685714287,-0.0793415510205,2.621
-0.620823281093,-0.522993676671,-0.129150461361,-2.64327683363,-0.069615615203,2.11003454064,-0.870426492106,-0.27631359564,0.0377606873921,0.0399293166996,0.0326263999072,0.0299268200286,0.00585169063197,-0.263644211695,0.57390941545,0.818883882898,0.00615760414625,0.0,0.818882154722,-0.573817144059,-0.012109862221,0.0,-0.00638335507083,0.0119925469933,-0.999907711539,0.0,0.269987992583,-0.253268876189,0.304881345399,1.0,-0.0504840000001,-0.0663504000001,2.639
-0.6249813597,-0.522476833153,-0.128430126881,-2.64289753326,-0.0692162680948,2.11014512623,-0.874300861527,-0.230842714595,0.0279263207621,0.0439502931091,0.0219397891079,0.0254206196345,0.00761893502018,-0.218951808977,0.57382275757,0.818944789927,0.00613358354705,0.0,0.818942873381,-0.573730844407,-0.0120927753468,0.0,-0.00638441221804,0.0119623945435,-0.999908065973,0.0,0.26921516151,-0.254290429393,0.304891276619,1.0,-0.0411485714287,-0.054080979592,2.656
-0.628130676273,-0.522115630609,-0.127787241673,-2.64262691348,-0.0688764338059,2.11023511142,-0.877190985966,-0.200174206331,0.0226015880955,0.0396191706708,0.0178945726253,0.0219843580935,0.00786821711147,-0.171525390523,0.57373931585,0.8190035051,0.00609942481405,0.0,0.819001390356,-0.573648030507,-0.0120584655625,0.0,-0.00637712530947,0.0119140825681,-0.999908689286,0.0,0.268649108788,-0.255034295695,0.304905117812,1.0,-0.0329114285715,-0.0432550204083,2.671
-0.631232238768,-0.521738766091,-0.127104484333,-2.64234489032,-0.068480701631,2.11030791488,-0.879882423135,-0.156464017553,0.0261917192295,0.0343393554175,0.0163641766515,0.0161031159138,0.000279735498039,-0.139635076156,0.573767407567,0.818983857309,0.00609511133855,0.0,0.81898188056,-0.573676497826,-0.0120292168085,0.0,-0.00635523461366,0.0118939872857,-0.999909067895,0.0,0.26808289485,-0.255784775625,0.304922191749,1.0,-0.0224777142858,-0.0295421387756,2.69
-0.633488781133,-0.521432662611,-0.126598333675,-2.642145202,-0.0681385557698,2.11039327252,-0.881791071497,-0.121728956764,0.0170670103647,0.021992887776,0.0095594265695,0.0190588925706,0.0031527155746,-0.10469515994,0.573858637072,0.818919718421,0.00612424200917,0.0,0.818918071048,-0.573767490327,-0.0120335720534,0.0,-0.00634076054911,0.0119210512276,-0.999908837491,0.0,0.267720135907,-0.256264443078,0.304915716373,1.0,-0.0197509677419,-0.0259584147465,2.706
-0.635231445285,-0.52120793595,-0.126268854497,-2.64199967385,-0.0679150747786,2.11038951206,-0.883378402365,-0.100765220192,0.0167059682397,0.0253080297278,0.00971938156222,0.0145983185682,-0.00106887793359,-0.0916579479293,0.573855651728,0.818921579157,0.00615508500199,0.0,0.818919914764,-0.573763584517,-0.0120941798307,0.0,-0.00637274390686,0.0119810658067,-0.999907916859,0.0,0.267391630139,-0.256667620119,0.304906961213,1.0,-0.0194309677419,-0.025537843318,2.722
-0.636881901652,-0.520969101802,-0.12599165432,-2.64180456097,-0.0677508748021,2.11041308951,-0.884853505678,-0.0938739333734,0.0171715342948,0.0181261757875,0.0191295809011,0.0146278139103,0.000653435039713,-0.0888591411204,0.57388315772,0.818902329612,0.00615164552717,0.0,0.818900605957,-0.57379107264,-0.0120974965501,0.0,-0.00637703159942,0.0119803664297,-0.999907897903,0.0,0.267085374735,-0.257079469932,0.304916560488,1.0,-0.0190909677419,-0.0250909861751,2.739
-0.638279878842,-0.520696584955,-0.125821256052,-2.64160975148,-0.0676614761114,2.11052152921,-0.886306731709,-0.0868998393932,0.0147948536943,0.00999341215509,0.0139953848616,0.00636653340392,0.00533035765239,-0.0930272906893,0.573754360635,0.818992725186,0.00613161042947,0.0,0.818990965557,-0.573662813091,-0.0120632546851,0.0,-0.00636236343661,0.0119433084708,-0.999908434665,0.0,0.266808795214,-0.2574874858,0.304914564721,1.0,-0.0187509677419,-0.0246441290323,2.756
-0.639660724792,-0.520468120486,-0.125698611245,-2.64145652041,-0.0676339470585,2.11055016178,-0.887686750482,-0.0836525900348,0.0161802165582,0.00991203471397,0.00967981148101,0.00436646246399,-0.000671076610027,-0.0834037043688,0.573699401072,0.819031522122,0.0060917879554,0.0,0.819029080313,-0.573607732972,-0.0120946756235,0.0,-0.00641174735264,0.0119282893045,-0.9999082985,0.0,0.26653470908,-0.257843401055,0.304909245427,1.0,-0.0184509677419,-0.024249843318,2.771
-0.641167036026,-0.520259501327,-0.125626212703,-2.64127840412,-0.0675992770485,2.11055018821,-0.889175654567,-0.0809957318656,0.0123903329323,0.00289913884336,0.00842068299491,0.00137247075826,-0.000170708783345,-0.0830047470276,0.573686444786,0.819040649494,0.0060847716121,0.0,0.819037984541,-0.573594565477,-0.0121161559317,0.0,-0.00643355616073,0.0119347632797,-0.999908081166,0.0,0.266201263466,-0.25826700186,0.304915193769,1.0,-0.0180909677419,-0.0237767004608,2.789
-0.642518194387,-0.520053526854,-0.125586500833,-2.64109420822,-0.0675576296038,2.11060390028,-0.890575393794,-0.076078418277,0.0093292045726,3.12350930681e-05,0.00805713378126,0.00218505051442,0.00105930480824,-0.0761172978575,0.573645808869,0.819069054593,0.00609234574752,0.0,0.819066739005,-0.573554371118,-0.0120750705242,0.0,-0.00639614821023,0.0119170808031,-0.999908532053,0.0,0.265910863824,-0.258664450945,0.304928672498,1.0,-0.0177509677419,-0.023329843318,2.806
-0.643794400543,-0.519855828406,-0.125581387686,-2.64092838651,-0.0675266729941,2.11067318592,-0.891784704454,-0.0780789811561,0.0137847193838,0.00076329753163,0.00779548453873,8.20665478476e-05,0.0059245644702,-0.0839833838562,0.573718810443,0.819017817988,0.00610632977311,0.0,0.819015964851,-0.573627821154,-0.0120299217656,0.0,-0.00635008189079,0.0119032031495,-0.999908990966,0.0,0.265629280729,-0.259047972485,0.30493733563,1.0,-0.0174309677419,-0.0229092718894,2.822
-0.645160118843,-0.519659672632,-0.125582076081,-2.64076077112,-0.0675029404895,2.11068850756,-0.893150727185,-0.0761323283618,0.0143856109707,0.00162625480639,0.0139079077481,-0.00018090634165,-0.00041577426159,-0.0748092451135,0.573737913966,0.819004301169,0.00612434863078,0.0,0.819002634636,-0.573646753643,-0.0120346747214,0.0,-0.00634335977908,0.011920836347,-0.999908823567,0.0,0.265313903909,-0.259449907396,0.304942622165,1.0,-0.0170909677419,-0.0224624147465,2.839
-0.646487338273,-0.519479844137,-0.125583514789,-2.64058965986,-0.0674734639467,2.11073127633,-0.894408786094,-0.0831305048739,0.00503124601619,-0.000444037595458,0.0107057947003,0.000128456614461,0.00335774565207,-0.07848038763,0.573816948987,0.818948794871,0.00614225814022,0.0,0.818947617231,-0.573726178139,-0.0119924830512,0.0,-0.00629737649838,0.0119119070447,-0.999909220639,0.0,0.265013807167,-0.259845850751,0.304957823033,1.0,-0.0167509677419,-0.0220155576037,2.856
-0.647690287114,-0.519287836919,-0.12556405499,-2.64043013064,-0.0674484179045,2.11077270555,-0.895621543079,-0.0721675751189,0.0112732805147,0.000853906365986,0.0124870139688,1.07321242163e-05,0.00275476294085,-0.079159871743,0.573814120619,0.818950735924,0.0061476831985,0.0,0.818949724594,-0.573723508825,-0.0119762644543,0.0,-0.00628102114179,0.0119070223655,-0.99990938169,0.0,0.264746468688,-0.260201076085,0.304963646578,1.0,-0.0164309677419,-0.0215949861751,2.872
-0.648986356215,-0.519075226848,-0.12552055023,-2.64026193355,-0.0674226182802,2.11082172637,-0.89692891516,-0.0700275638581,0.00813991124115,0.00138118034256,0.0062298802324,-0.000146410943737,0.00113093336081,-0.0677999037091,0.573793828432,0.818964999327,0.0061415984822,0.0,0.818963988235,-0.573703396848,-0.0119643353786,0.0,-0.00627503681787,0.011895038805,-0.999909561893,0.0,0.264462438326,-0.260578266882,0.304967029761,1.0,-0.0160709677419,-0.021121843318,2.89
-0.650166067643,-0.518858958508,-0.125443820597,-2.64008805,-0.0673955242227,2.11086777502,-0.898118427374,-0.0687940991987,0.0136745161414,0.00563425350347,0.011934177539,0.00150954503323,0.000742113620127,-0.0656339097777,0.573752023582,0.818994461464,0.00611836808314,0.0,0.818993230316,-0.573661852607,-0.0119546836204,0.0,-0.00628106623414,0.0118701544964,-0.999909819753,0.0,0.264216363002,-0.260918006566,0.304972169156,1.0,-0.0157309677419,-0.0206749861751,2.907
-0.651254026752,-0.518654719132,-0.125390388334,-2.63994361014,-0.0673746705036,2.11089334236,-0.899304568023,-0.0683871261661,0.0119597038882,0.00158859910824,0.00593455613066,0.000960964072057,0.000603966312539,-0.0714742124971,0.57365027225,0.819065815106,0.00610758327486,0.0,0.819064268693,-0.573559837484,-0.0119826323026,0.0,-0.00631162154175,0.011876572172,-0.999909551143,0.0,0.263978470215,-0.26122877393,0.304966041607,1.0,-0.0154109677419,-0.0202544147465,2.923
-0.652413149984,-0.518459832036,-0.125356692713,-2.63978854052,-0.0673529917373,2.11091944525,-0.90046648884,-0.0678519483297,0.0152688611948,0.00203894355631,0.00452025149501,-0.000106637124356,0.000270184685212,-0.064244460069,0.573641435807,0.819072022879,0.00610502765169,0.0,0.819070399095,-0.573550930612,-0.0119899216517,0.0,-0.00631918675434,0.0118785920064,-0.999909479368,0.0,0.263720091776,-0.261565282975,0.304967754834,1.0,-0.0150709677419,-0.0198075576037,2.94
-0.653547872699,-0.518251017676,-0.125365590619,-2.63963024817,-0.0673272200852,2.11096305574,-0.901597013633,-0.0651121526726,0.0130184227962,-0.000395669134132,0.0123679148433,0.000578770111493,0.00534454122117,-0.061457607976,0.573670499068,0.819051520283,0.00612474674418,0.0,0.819050136923,-0.573579874609,-0.0119894766738,0.0,-0.00630708905857,0.0118947127366,-0.999909364111,0.0,0.263461910166,-0.26190703653,0.304966278672,1.0,-0.0147309677419,-0.0193607004608,2.957
-0.654618986789,-0.518064527996,-0.125368822899,-2.63949001818,-0.0673065546673,2.11101579001,-0.902680411721,-0.0686402882012,0.00923351145831,-0.000327934461081,0.00775058800634,-0.000516719197176,0.00261164810876,-0.0667479337138,0.573678910553,0.819045533417,0.0061374813522,0.0,0.819044385067,-0.573588361859,-0.0119763655351,0.0,-0.0062889219046,0.0118976870399,-0.999909443152,0.0,0.263218566668,-0.262228096267,0.304965718232,1.0,-0.0144109677419,-0.0189401290323,2.973
-0.655732245318,-0.517885873056,-0.125367943895,-2.6393363185,-0.0672819209457,2.11103648344,-0.903701167046,-0.0647079071136,0.00988213100322,-0.000106725614232,0.0105965198949,-0.000143910351449,0.0021804383628,-0.0543987495293,0.573772525795,0.818979845148,0.00615213672983,0.0,0.818978896274,-0.57368191268,-0.0119740311601,0.0,-0.00627724147542,0.0119090695379,-0.999909381045,0.0,0.262963237578,-0.262557808483,0.304971519804,1.0,-0.0140709677419,-0.0184932718894,2.99
-0.656797632276,-0.517697685955,-0.125359489986,-2.63918225429,-0.0672635933173,2.11107034346,-0.904746512043,-0.0554602096984,0.0171042927394,-8.40647843192e-05,0.00660183954516,0.00175089173786,0.00513394580837,-0.0617244350601,0.573798777185,0.818961417737,0.00615682223524,0.0,0.81896056282,-0.573708201561,-0.0119684129532,0.0,-0.00626956973693,0.0119098846225,-0.999909419469,0.0,0.262723127046,-0.262875483503,0.304975262628,1.0,-0.0137309677419,-0.0180464147465,3.007
-0.6577524225,-0.517524019612,-0.125351921913,-2.63902546004,-0.0672419759157,2.11111481663,-0.905776516466,-0.0596288638378,0.00968760085444,-0.000530810303264,0.0137239541316,0.00374393366324,0.00285254639326,-0.0644363946963,0.573749092183,0.818996186724,0.00616216287928,0.0,0.818995600067,-0.573658883151,-0.0119348126896,0.0,-0.00623970674066,0.011894601239,-0.999909788191,0.0,0.26251446101,-0.26316623193,0.304986474581,1.0,-0.0134109677419,-0.017625843318,3.023
-0.658812759863,-0.517319309448,-0.125324853429,-2.63887493767,-0.0672212919245,2.11114744458,-0.906840156478,-0.0561878317331,0.0115833086059,0.00672758180393,0.00677654448126,0.0062540527419,0.00207996245755,-0.0540620990991,0.573743925647,0.818999812525,0.0061613123313,0.0,0.818999117141,-0.573653535183,-0.0119505060801,0.0,-0.00625312403096,0.0119028687987,-0.999909605992,0.0,0.262277916689,-0.263476534589,0.304982831703,1.0,-0.0130509677419,-0.0171527004608,3.041
-0.659818076721,-0.51712596977,-0.125287119457,-2.63874599389,-0.0672100339379,2.1111949368,-0.907833034975,-0.0586557193736,0.0103085308702,0.00214083568619,0.00717486149857,-0.000451023063149,0.00544115274979,-0.059647287843,0.573738986476,0.819003376795,0.00614744634921,0.0,0.819002437444,-0.573648533865,-0.0119630245352,0.0,-0.00627140464977,0.0118986562021,-0.999909541641,0.0,0.262054711503,-0.26376756263,0.304975079509,1.0,-0.0127109677419,-0.016705843318,3.058
-0.660732457698,-0.516935461664,-0.125255193358,-2.63861669859,-0.0671913491009,2.11123665159,-0.908747795488,-0.0554940245249,0.0126128904072,-0.000858384971718,0.0122033659947,-0.000432565197083,0.00163297111452,-0.0601775756381,0.57373084207,0.819009120468,0.0061423406963,0.0,0.819008027193,-0.573640246666,-0.0119777167724,0.0,-0.00628648648115,0.0119028410325,-0.999909397127,0.0,0.261853828856,-0.264034426532,0.304967894256,1.0,-0.0123909677419,-0.0162852718894,3.074
-0.661653679476,-0.516754280296,-0.125223101142,-2.6384724456,-0.0671778481137,2.11126036323,-0.909687742224,-0.0526081792548,0.00871920222784,0.00418506871147,0.00728327250069,-0.000210418314757,0.000169066933083,-0.0511314103196,0.573705994984,0.819026599462,0.00613250317982,0.0,0.819025330307,-0.573615355533,-0.0119866222597,0.0,-0.00629978576701,0.0118997015986,-0.999909350792,0.0,0.261651219642,-0.264304894032,0.304969397669,1.0,-0.0120509677419,-0.0158384147465,3.091
-0.662595904107,-0.516568540572,-0.125213164131,-2.6383262628,-0.0671600456195,2.11129541754,-0.910609918351,-0.0564320119335,0.00765833812942,0.000425835104669,0.00661685649065,4.98568727881e-05,0.00601816749153,-0.0436185996503,0.57373057191,0.819009360598,0.00613555300952,0.0,0.819008134056,-0.573639920005,-0.0119860514157,0.0,-0.00629721140931,0.0119020611069,-0.999909338925,0.0,0.261440376011,-0.264587101085,0.304970533797,1.0,-0.0116909677419,-0.0153652718894,3.109
-0.663371863025,-0.516419772879,-0.125188400603,-2.6382047554,-0.0671456337107,2.1113364282,-0.911395587547,-0.0507597019318,0.0100455754601,0.00286027741796,0.0114919005792,0.000246834891508,0.00288628858307,-0.0549593172298,0.573717471826,0.81901859329,0.0061280721079,0.0,0.819017386517,-0.573627075315,-0.0119685399569,0.0,-0.0062873497296,0.0118857869259,-0.999909594565,0.0,0.261272414234,-0.264817919067,0.304974945531,1.0,-0.0113909677419,-0.0149709861751,3.124
-0.664291433975,-0.516247100755,-0.1251766056,-2.63807032201,-0.0671267720035,2.11136626962,-0.912332232885,-0.0528422014883,0.0112916827312,0.000424329841407,0.0102955349981,-0.000535511156783,3.17543760264e-05,-0.0550012245131,0.573710168379,0.819023671419,0.00613312774223,0.0,0.819022505153,-0.573619704554,-0.0119715287823,0.0,-0.00628700357656,0.0118915863912,-0.999909527787,0.0,0.261064364431,-0.265089841092,0.304975146192,1.0,-0.0110309677419,-0.014497843318,3.142
-0.665147559011,-0.516083393523,-0.125169871783,-2.63795490883,-0.0671104386387,2.11139393146,-0.913149214552,-0.0517136961028,0.0109978100367,0.00287949226292,0.0103242549425,0.00367162862115,0.00454526281095,-0.04872558993,0.573750503283,0.818995364652,0.00613999690955,0.0,0.818994185189,-0.573659808183,-0.0119873267798,0.0,-0.00629541682415,0.0119065857776,-0.999909296357,0.0,0.260867079936,-0.265341296098,0.304969698499,1.0,-0.0106909677419,-0.0140509861751,3.159
-0.665924258732,-0.515933189159,-0.125173064259,-2.63785894005,-0.0670970256758,2.11142836169,-0.913909465814,-0.0457254454445,0.00824135390938,-0.000688688463537,0.00172281799486,9.22471734026e-05,0.00199561237889,-0.0505148362952,0.573777088031,0.81897666342,0.00615019717076,0.0,0.818975513087,-0.573686148242,-0.0120024655744,0.0,-0.00630157760803,0.0119238302007,-0.999909052061,0.0,0.260685142319,-0.265570477072,0.304960734803,1.0,-0.0103709677419,-0.0136304147466,3.175
-0.666732114922,-0.515768475821,-0.125168151096,-2.6377519912,-0.0670803725956,2.11145281118,-0.914698307321,-0.0470298684634,0.00764223540909,0.000706160294016,0.00236309988685,-0.000357065549243,0.000205613964809,-0.047893998663,0.573801981057,0.818959150533,0.00615980464987,0.0,0.81895793842,-0.573710641585,-0.0120308658055,0.0,-0.0063189638222,0.0119481855898,-0.999908651606,0.0,0.2604974261,-0.265806762059,0.304950738802,1.0,-0.0100309677419,-0.0131835576037,3.192
-0.66749533185,-0.515597998519,-0.125157084893,-2.63762882489,-0.0670573585628,2.11147433375,-0.91547467112,-0.0484452816572,0.0111755441891,0.00132663504833,0.00618077678704,-7.54698002747e-07,0.00152678280851,-0.0427436701977,0.573799653268,0.818960707096,0.00616968752568,0.0,0.818959482323,-0.573708004389,-0.012051510887,0.0,-0.00633023663619,0.0119681072936,-0.999908342055,0.0,0.260326398679,-0.266033044571,0.304945873277,1.0,-0.00969096774194,-0.0127367004608,3.209
-0.668192501742,-0.515462476327,-0.125142861855,-2.63752987713,-0.0670339959226,2.11150524802,-0.916148285053,-0.038981866363,0.00798611552606,-0.00200801639518,0.00534430810859,-3.64695804081e-05,0.000817905606041,-0.0464267856204,0.573823995189,0.818943589739,0.00617788580283,0.0,0.818942459802,-0.573732282962,-0.0120524653791,0.0,-0.00632595853153,0.011975557398,-0.999908279931,0.0,0.260170279025,-0.266236958456,0.304943778264,1.0,-0.00937096774194,-0.0123161290323,3.225
-0.668940428103,-0.51530863097,-0.125086531912,-2.63742332369,-0.0670131232525,2.11155172153,-0.916857682944,-0.036171939441,0.0135856072418,-0.000948355725555,0.0014869772665,-0.000140628047403,0.00573381401303,-0.0412489549619,0.573830033276,0.818939482617,0.00616146266232,0.0,0.818938172114,-0.573738453968,-0.0120500454507,0.0,-0.00633331186071,0.011960765234,-0.999908410434,0.0,0.260013381894,-0.266449054639,0.304940684575,1.0,-0.00901096774194,-0.0118429861751,3.243
-0.669592432252,-0.515185624194,-0.125036863428,-2.6373230555,-0.0669908459094,2.11157099627,-0.917504957978,-0.0375046456917,0.00331535288198,-2.54540770587e-05,0.0108288021236,-0.000658369251981,2.62651389873e-05,-0.0404393477341,0.573813303556,0.818951279067,0.00615159146046,0.0,0.818949848628,-0.573721786761,-0.0120500509653,0.0,-0.00633922465644,0.0119525545715,-0.999908471146,0.0,0.259875572657,-0.266632422739,0.304943639043,1.0,-0.00869096774194,-0.0114224147466,3.259
-0.670241698532,-0.515057780212,-0.125002409104,-2.63722578494,-0.0669649941116,2.11158517929,-0.918200662698,-0.0371410394805,0.000968362575978,0.00231803011274,0.00541580366279,0.000558918056313,0.00425356233674,-0.0465776669971,0.573766894338,0.818983774442,0.00615427191608,0.0,0.818982296561,-0.573675220572,-0.0120617628066,0.0,-0.00634795694867,0.0119611102217,-0.999908313439,0.0,0.259733723484,-0.266816330249,0.304942650209,1.0,-0.00835096774194,-0.0109755576037,3.276
-0.67087143843,-0.514928708722,-0.124984895912,-2.63713486883,-0.0669449525689,2.11161874106,-0.918847963406,-0.0343074976966,0.0150901986803,-0.000858087905758,0.00809141581699,0.00041674665539,9.76553900155e-05,-0.035122854293,0.573753390692,0.818993203828,0.00615838076348,0.0,0.818991770866,-0.573661685733,-0.0120621920229,0.0,-0.00634614838289,0.0119646170954,-0.999908282963,0.0,0.259594193903,-0.267000416597,0.304939567505,1.0,-0.00801096774194,-0.0105287004608,3.293
-0.671379538087,-0.514840452811,-0.12497554376,-2.63707103647,-0.0669258931009,2.11163985788,-0.91934743149,-0.0292629101034,0.00579612659757,0.000483767671384,0.00794416550262,0.000171888874546,0.000863096407662,-0.0339857127759,0.573765289197,0.818984798343,0.00616764930327,0.0,0.818983481166,-0.573673532064,-0.0120616370113,0.0,-0.00634020226356,0.0119719820427,-0.99990823253,0.0,0.259478003969,-0.26714656446,0.304937998793,1.0,-0.00773096774194,-0.0101607004608,3.307
-0.672013872623,-0.514724688051,-0.124953650974,-2.63698751248,-0.0668990446552,2.11165145845,-0.919955618906,-0.0357338960674,0.00236477678669,0.0036772528872,0.0054853981697,0.00121041462585,-0.000261553924653,-0.0273539070271,0.573786986503,0.818969517173,0.00617826524445,0.0,0.818968229472,-0.57369497283,-0.0120774238029,0.0,-0.00634672442309,0.0119899023998,-0.999907976431,0.0,0.259333850618,-0.26732523655,0.30493469879,1.0,-0.00737096774194,-0.00968755760369,3.325
-0.67262091704,-0.514619138639,-0.124942228905,-2.63691768026,-0.0668750951742,2.11167907031,-0.920549501936,-0.037004224035,0.00819547416146,0.00134393820105,0.0026968718146,0.0022808492327,0.0062141707474,-0.0354041148779,0.573803562381,0.818957807621,0.00619096415222,0.0,0.818956653294,-0.57371142872,-0.012080706996,0.0,-0.00634188452792,0.0120023150749,-0.999907858222,0.0,0.259193900236,-0.267498193697,0.304930067161,1.0,-0.00701096774194,-0.00921441474655,3.343
-0.673154835365,-0.514524066338,-0.124921695302,-2.63683910559,-0.0668519495237,2.11169494106,-0.921076903794,-0.0320173777251,0.00883093461042,0.000238189695485,0.00321136839941,0.000806023120412,0.000112510028972,-0.0310746539633,0.573808233394,0.818954487923,0.0061971687583,0.0,0.81895342996,-0.573716100838,-0.012077338162,0.0,-0.00633549677166,0.0120054998286,-0.999907860482,0.0,0.25907574972,-0.267651040596,0.304932485708,1.0,-0.00667096774194,-0.00876755760369,3.36
-0.673672026947,-0.514429226412,-0.124886675169,-2.63676111787,-0.0668312193527,2.1117123067,-0.921598363834,-0.0289967919732,0.00400384228597,0.00335244178175,0.0052713562161,0.00225844575469,-0.000349470528297,-0.0266501055538,0.57379270838,0.818965389162,0.0061940346397,0.0,0.818964315603,-0.573700640738,-0.0120735863128,0.0,-0.00633444962945,0.0120006601797,-0.999907925213,0.0,0.258965127119,-0.267796700334,0.30493518689,1.0,-0.00633096774194,-0.00832070046084,3.377
-0.674161034034,-0.514357116638,-0.124856112933,-2.63669376079,-0.0668114311526,2.11173290461,-0.922085071457,-0.0262396616588,0.00116691933555,-0.000327331334345,0.00755701102744,-2.72829089896e-05,0.000392074408871,-0.0234534569682,0.57378472728,0.818970997652,0.00619182100229,0.0,0.818970016833,-0.573692901487,-0.0120545930549,0.0,-0.00632028002914,0.0119878879429,-0.999908168085,0.0,0.258859508587,-0.267934146955,0.304941625371,1.0,-0.00599096774194,-0.00787384331798,3.394
-0.674584776979,-0.514267677731,-0.124836102361,-2.63663072497,-0.0667923773341,2.11176186632,-0.922504361006,-0.0306964230275,0.0072593325764,0.00288596821145,0.00360121453435,0.000336786074167,0.00805059933787,-0.0273532433483,0.573785576663,0.818970385793,0.00619403819294,0.0,0.818969466775,-0.573693803514,-0.0120490332438,0.0,-0.00631444164666,0.0119865204217,-0.999908221366,0.0,0.258768823007,-0.268056770234,0.304940161296,1.0,-0.00567096774194,-0.00745327188941,3.41
-0.674995878828,-0.514181621297,-0.12481525511,-2.63656866844,-0.0667691617676,2.11177490315,-0.922917275149,-0.022045351255,0.00129894780385,0.00199428352754,0.00628609386965,0.00567718831242,0.000423820656264,-0.0227658933476,0.573782428273,0.818972535823,0.00620140904031,0.0,0.818971658164,-0.573690519938,-0.0120564239928,0.0,-0.00631631216223,0.0119967734546,-0.99990808659,0.0,0.258679433656,-0.268173008187,0.304938163558,1.0,-0.00533096774194,-0.00700641474655,3.427
-0.675411258429,-0.514108241442,-0.124794526523,-2.63651440009,-0.0667493473504,2.11179072159,-0.923328923146,-0.0235100823285,0.006384884193,0.00310931374792,0.00022312388275,0.000175424881577,9.41306518477e-06,-0.0143565480282,0.573782030464,0.818972778939,0.00620610781286,0.0,0.818971957407,-0.573690092058,-0.0120564570361,0.0,-0.00631364911781,0.0120006377112,-0.999908057038,0.0,0.258587473347,-0.268289265515,0.304937543158,1.0,-0.00497096774194,-0.00653327188941,3.445
-0.675757334434,-0.514052663727,-0.124778666915,-2.63646926264,-0.0667328036522,2.11180466583,-0.923659682643,-0.0194434525913,0.00423146659246,-0.000319362552425,0.00280622057345,0.000557601774757,-0.000830990643389,-0.0189273696384,0.573792682802,0.818965285053,0.00621014836189,0.0,0.818964552184,-0.573700793016,-0.012050280513,0.0,-0.00630611578764,0.0120004852028,-0.999908106407,0.0,0.258510725858,-0.268386589165,0.304939076837,1.0,-0.00467096774194,-0.00613898617512,3.46
-0.676154207686,-0.513989547548,-0.124744198676,-2.63641034714,-0.0667153188974,2.11181567461,-0.924029797273,-0.0184923131045,0.00381190030862,0.00211732601934,0.00848151156212,-1.18238281014e-06,0.000362223811033,-0.0162801530278,0.573800540803,0.818959819657,0.00620484182089,0.0,0.818959081074,-0.573708793051,-0.0120412293163,0.0,-0.00630163200311,0.0119910063135,-0.999908248392,0.0,0.25842703994,-0.268495999079,0.304944267987,1.0,-0.00431096774194,-0.00566584331798,3.478
-0.676504351552,-0.513927482602,-0.124725768747,-2.63637001128,-0.0666998617161,2.11182757661,-0.924376226519,-0.0232330086091,0.00457516004635,0.00197485639448,0.00129563981011,0.00077808827176,0.000132835223619,-0.0187785965371,0.573799210945,0.818960724247,0.00620842663152,0.0,0.818959983444,-0.573707354836,-0.0120483785612,0.0,-0.00630545021147,0.0119980340823,-0.999908140019,0.0,0.258348073695,-0.268592215524,0.304941106165,1.0,-0.00397096774194,-0.00521898617512,3.495
-0.676796291054,-0.513865207907,-0.124704383638,-2.63632709133,-0.0666915271726,2.11183864389,-0.92467504171,-0.0165060944112,0.00368134034969,0.0060411963147,-0.000605314172935,0.00167102048153,-0.000265436865552,-0.0225284025386,0.573784182586,0.818971289558,0.00620367586615,0.0,0.81897044678,-0.573692274157,-0.0120552384921,0.0,-0.00631401486241,0.0119979633579,-0.999908086822,0.0,0.258285164243,-0.268674001059,0.304939033031,1.0,-0.00365096774194,-0.00479841474655,3.511
-0.67708305352,-0.513818315083,-0.124677950198,-2.63629026035,-0.0666742137085,2.11185142296,-0.924951154095,-0.0154165220471,0.0061103030465,0.00218855548996,0.00684179247988,7.68223016651e-05,-0.000378886761158,-0.0151802478313,0.573783396578,0.818971841189,0.00620355155442,0.0,0.81897102796,-0.573691548097,-0.012050307315,0.0,-0.00631005876186,0.0119950261959,-0.999908147034,0.0,0.258224827989,-0.268751385937,0.304940148534,1.0,-0.00331096774194,-0.00435155760369,3.528
-0.677316703505,-0.513781357002,-0.124656450232,-2.63626880251,-0.0666646241563,2.11186329963,-0.925178992895,-0.0155908758368,0.000387284766284,-0.000191247282329,-0.000721766122081,-9.61631398036e-06,0.000176189889099,-0.0156310900535,0.573775686347,0.818977267657,0.00620029999439,0.0,0.818976347955,-0.573683731899,-0.0120608518037,0.0,-0.00632067390868,0.0119983535727,-0.999908040068,0.0,0.258170149996,-0.268816064333,0.304935032836,1.0,-0.00299096774194,-0.00393098617512,3.544
-0.677569552184,-0.513740116052,-0.124642910846,-2.63625089599,-0.0666522758921,2.11187202256,-0.92542003549,-0.0152768916262,0.00346595079847,0.000272840681023,-0.00013924720221,9.83060295198e-05,-0.000230623067573,-0.0107908316071,0.57378442955,0.818971099145,0.00620597076816,0.0,0.818970222738,-0.573692390354,-0.0120649251757,0.0,-0.0063206285195,0.012005402613,-0.999907955746,0.0,0.258114223926,-0.268879264547,0.304931712787,1.0,-0.00265096774194,-0.00348412903227,3.561
-0.677758483013,-0.513720897505,-0.124627660742,-2.63624045037,-0.0666463657871,2.11187684479,-0.925590127342,-0.0145700855328,0.00326018287528,-0.000225604106699,-0.00153569755468,0.000141424675943,-4.72123708773e-05,-0.0151257416607,0.573792100446,0.81896573731,0.00620431137293,0.0,0.818964823575,-0.573700037045,-0.0120678142776,0.0,-0.0063238345065,0.0120057604192,-0.999907931179,0.0,0.25807005791,-0.268927283636,0.304930124882,1.0,-0.00237096774194,-0.00311612903227,3.575
