nelsonifechukwu/NELSON_IML_WORK/CNN-GradCAM/train2dof/data_sample_2022-02-22-11-49-44/robot_state.csv
position_joint1,position_joint2,position_joint3,position_joint4,position_joint5,position_joint6,position_joint7,velocity_joint1,velocity_joint2,velocity_joint3,velocity_joint4,velocity_joint5,velocity_joint6,velocity_joint7,ee_T_00,ee_T_10,ee_T_20,ee_T_30,ee_T_01,ee_T_11,ee_T_21,ee_T_31,ee_T_02,ee_T_12,ee_T_22,ee_T_32,ee_T_03,ee_T_13,ee_T_23,ee_T_33,v_x,v_y,time
0.465070144709,0.54784096442,-0.124004530395,-1.35585900835,0.0795457351576,1.8940923327,0.159161226992,0.00035634523425,0.00305350611939,0.00187386073014,-0.000383698331935,3.75195748715e-05,-0.000374237043785,0.000587286933592,0.573835086935,0.818956950945,0.00188478190874,0.0,0.818912570188,-0.573776413054,-0.0119823667295,0.0,-0.00873176723246,0.00841953615319,-0.99992643112,0.0,0.661669912655,0.260881828554,0.303159555979,1.0,0.0,0.0,0.0
0.465075381696,0.547835852983,-0.124009745244,-1.35585428662,0.0795420848364,1.89409501945,0.159159701059,0.00215387504993,0.000240563593505,0.000125318970871,0.000505996669395,0.000221787289266,0.000158354501093,-0.000179625726864,0.573831977419,0.818959112961,0.00189205964672,0.0,0.818914896762,-0.573773340088,-0.0119705039878,0.0,-0.00871790779116,0.00841865588951,-0.999926559462,0.0,0.661671704921,0.260882497057,0.303165823305,1.0,-8e-05,-0.000105142857143,0.005
0.46507228091,0.547832224332,-0.124007321266,-1.35585750085,0.0795425405281,1.89409672368,0.159160417582,0.00107780629588,0.000335364785185,-0.000193861908353,-1.47605068704e-05,0.000185248916517,-0.000100190286152,0.000657055528513,0.573833711984,0.818957891171,0.00189483005013,0.0,0.81891369359,-0.57377504574,-0.0119710583492,0.0,-0.00871675432664,0.00842126125937,-0.999926547579,0.0,0.661671630965,0.260881704389,0.303166932675,1.0,-0.00038,-0.000499428571429,0.02
0.465067227363,0.547820846334,-0.124007397592,-1.35586675244,0.0795458745175,1.89409476039,0.159159700843,-0.000993254914423,-0.00395857836223,0.000174746036332,-0.00240498340802,0.000302178146998,-0.00044477435713,-0.00112899437746,0.573838671878,0.818954409707,0.00189746693711,0.0,0.81891020423,-0.573779952944,-0.0119745525876,0.0,-0.00871805200554,0.00842547860679,-0.999926500739,0.0,0.661670568566,0.260877775006,0.303170427978,1.0,-0.00074,-0.000972571428571,0.038
0.46507434351,0.547772010364,-0.124004543102,-1.35591410223,0.0795415517991,1.89409938513,0.159157819534,0.00150416910094,-0.00420917856628,0.000100408896413,-0.00720566112143,0.000204587607074,-0.000315653805487,-0.000950784086227,0.573830695228,0.818959984727,0.00190355728566,0.0,0.818915840522,-0.57377193381,-0.0119733460644,0.0,-0.00871365132989,0.00842968900853,-0.999926503611,0.0,0.661659659843,0.260878771627,0.303182787073,1.0,-0.00106,-0.00139314285714,0.054
0.465071263678,0.54763183836,-0.12400461721,-1.3560772975,0.0795393278086,1.8941329732,0.159160396056,0.000143181483972,-0.00462635124338,0.000889298692674,-0.0126035564502,0.000155614502097,0.00162455103543,-0.000280547382045,0.573840625728,0.818953011592,0.00190996605608,0.0,0.81890883407,-0.573781722663,-0.0119834519713,0.0,-0.00871814831861,0.00844084216604,-0.999926370326,0.0,0.661634435587,0.260861300341,0.303199902762,1.0,-0.0014,-0.00184,0.071
0.465054590288,0.547502183323,-0.124012218907,-1.35626912253,0.0795356016924,1.8941732069,0.159157006209,-0.00161014858377,-0.0108006616036,-0.00199130009552,-0.0150422693126,-3.04462179849e-05,0.000379847871702,0.00091862158162,0.573869410842,0.818932856382,0.00190340189388,0.0,0.818888532412,-0.5738104734,-0.0119941236485,0.0,-0.00873035808393,0.0084418971879,-0.999926254891,0.0,0.661607366018,0.260826708618,0.30321161111,1.0,-0.00174,-0.00228685714286,0.088
0.465040357182,0.54733828607,-0.124012305949,-1.35646648345,0.0795362942214,1.89428927558,0.159144463616,-0.000155350702748,-0.0106387383868,-0.00101003555654,-0.0155258757427,0.000262753409877,0.00183520696807,0.000854575639278,0.573882337043,0.818923617219,0.00197972022835,0.0,0.818880236139,-0.573823023524,-0.0119600767622,0.0,-0.00865854698104,0.00848499393403,-0.999926514521,0.0,0.661593293376,0.260803976874,0.303243855454,1.0,-0.00206,-0.00270742857143,0.104
0.465019046076,0.547117681282,-0.124007016251,-1.35671605113,0.0795310493637,1.89442734082,0.159125807893,-0.000870248093586,-0.0131455356756,-0.000246629513928,-0.0171448736049,-6.33694187735e-05,0.00311048296088,-0.00160318400516,0.573894178046,0.818915073745,0.00207877366378,0.0,0.81887292566,-0.573834395344,-0.0119149167935,0.0,-0.00856459803128,0.00854031727913,-0.999926852645,0.0,0.661577917685,0.260775067598,0.303292782568,1.0,-0.0024,-0.00315428571429,0.121
0.464987791039,0.546896716087,-0.124007730473,-1.35701326799,0.079526345601,1.89455888007,0.159117616906,-0.00297518777537,-0.0158813862804,0.000775207483442,-0.0176348852402,0.000195327872035,0.00598461626976,0.00179031105694,0.573928491859,0.818890887205,0.00213260057092,0.0,0.818849370326,-0.573868416081,-0.0118952361138,0.0,-0.00851723232606,0.00857345862338,-0.999926973614,0.0,0.661546547334,0.260729465555,0.303319610211,1.0,-0.00276,-0.00362742857143,0.139
0.464955201244,0.546660927238,-0.124007730582,-1.3573760024,0.0795194028989,1.89469363994,0.159064380787,-0.000323282690605,-0.0200846519836,-6.39771121411e-05,-0.0238010293159,0.000279517591547,0.00855858604312,-0.00483569089421,0.573930052333,0.818889754641,0.00214748109175,0.0,0.818848295558,-0.573869779184,-0.0119034575803,0.0,-0.00851540890535,0.00859037865511,-0.999926843927,0.0,0.661505310352,0.260675969348,0.30332564215,1.0,-0.00308,-0.004048,0.155
0.464911866274,0.546376914999,-0.124007739351,-1.35780876671,0.0795107758449,1.89485102082,0.15894613876,-5.62114589802e-05,-0.01773065358,-0.00191250029258,-0.0301757020763,0.000419978152149,0.00364714422622,-0.00375290591934,0.573890623856,0.818917340227,0.00216532363834,0.0,0.818875945412,-0.57383011363,-0.011913589618,0.0,-0.00851388113172,0.00861039459651,-0.999926684779,0.0,0.661456657887,0.260608944534,0.303334440096,1.0,-0.00342,-0.00449485714286,0.172
0.464867519574,0.546100304258,-0.124010514963,-1.35827372744,0.0794963514716,1.89501276877,0.158929286476,-0.00329174439773,-0.0170356434257,-0.00119674995533,-0.0310292965221,0.000208210623483,0.0105486045531,-0.000318261346649,0.57393723709,0.818884716129,0.00214859795609,0.0,0.818842978205,-0.573876662645,-0.0119373371342,0.0,-0.00854243717446,0.00861081242717,-0.999926437633,0.0,0.661402474297,0.260535082715,0.303323115821,1.0,-0.00374,-0.00491542857143,0.188
0.464802516962,0.545757003967,-0.124005224977,-1.35887890987,0.0794645622305,1.895213526,0.158839721249,-0.00701896177565,-0.0145823960473,0.000676966462517,-0.0359603666911,-0.00405108941213,0.015870144152,-0.00943833445491,0.573938750962,0.818883781123,0.00210001389479,0.0,0.818841295248,-0.573878261625,-0.0119758478934,0.0,-0.00860184089386,0.00859314672399,-0.999926080349,0.0,0.661330080064,0.260436292841,0.303295341203,1.0,-0.0041,-0.00538857142857,0.206
0.464748830852,0.545396674912,-0.124007701723,-1.35949506317,0.0793646245043,1.89541672234,0.158752742055,-0.00397729364947,-0.0159837886812,0.000636666311464,-0.0386072057893,-0.0112343598247,0.0152553139477,-0.00148706460039,0.573920977654,0.818896439527,0.00201981186093,0.0,0.818853444638,-0.573861357391,-0.011955149444,0.0,-0.00863110351299,0.00851540490467,-0.999926493264,0.0,0.661258685419,0.260328547558,0.303274715691,1.0,-0.00442,-0.00580914285714,0.222
0.464689003718,0.544988141737,-0.124008421216,-1.36019363387,0.0793431126793,1.89564603546,0.158684607752,-0.00402785757645,-0.0225735951187,0.000900376885904,-0.0378150500673,-0.000682545116623,0.0154170596071,-0.0111485692323,0.573947835117,0.818877715916,0.00197884884749,0.0,0.818833952219,-0.573888153535,-0.0120038671211,0.0,-0.0086942287699,0.00851010601572,-0.999925991502,0.0,0.661171557165,0.260223085317,0.303251312725,1.0,-0.00476,-0.006256,0.239
0.46461532625,0.54447409161,-0.124014083829,-1.36105487017,0.0793194072673,1.89595560751,0.158580772716,0.000287296372834,-0.0251068745251,0.000410653932052,-0.0439192300181,-0.00194934252012,0.019101344011,0.000508947730317,0.573968863687,0.818863022314,0.00195987375179,0.0,0.81881875569,-0.57390901139,-0.0120432087131,0.0,-0.00873711729439,0.00851737219275,-0.999925555805,0.0,0.661070578446,0.260092778124,0.303232257434,1.0,-0.00516,-0.00678171428571,0.259
0.464550555035,0.544010677056,-0.1240091031,-1.36180454499,0.079289267427,1.89622810484,0.158480668587,-0.00496380276772,-0.0364161408481,0.00252915284903,-0.0509413853687,-0.000352361217934,0.0242463178318,-0.00172778724543,0.573970221727,0.818862076898,0.00195716368822,0.0,0.818817593888,-0.573910204632,-0.0120653164083,0.0,-0.00875676243455,0.00852785658378,-0.999925294596,0.0,0.660982027567,0.259983553506,0.303226827406,1.0,-0.00548,-0.00720228571429,0.275
0.464478410032,0.543493925405,-0.124017707168,-1.36264910867,0.0792500117214,1.89651121203,0.158365593946,-0.00212595204602,-0.0333736621666,-0.000139103028072,-0.0453754953997,-0.00100345473873,0.0167257819117,-0.00533116091471,0.573977531221,0.818857032631,0.00192371129308,0.0,0.818811993634,-0.573917543917,-0.0120962294612,0.0,-0.00880120035245,0.00851828580567,-0.999924986026,0.0,0.660880583403,0.259850267993,0.303215276899,1.0,-0.00582,-0.00764914285714,0.292
0.464403557717,0.543044790031,-0.124014813717,-1.36335906173,0.0792055308188,1.89677474326,0.15828014518,-0.00766325638355,-0.0284801322771,0.000956974572132,-0.0451034101661,-0.000972419808955,0.0160812456914,-0.00547975607694,0.573994510813,0.818845126856,0.00192527475578,0.0,0.818800103942,-0.573934510287,-0.0120960567164,0.0,-0.00879998489926,0.0085196493575,-0.999924985107,0.0,0.66080271302,0.259734784961,0.30321781298,1.0,-0.0061,-0.00801714285714,0.306
0.464329662827,0.542452968477,-0.124021218459,-1.36428341019,0.0791496208132,1.89709986844,0.158161846637,-0.00674346129705,-0.0346013479013,0.000439099719218,-0.0546989091228,-0.000844998172528,0.0201449174225,-0.00525828312416,0.573999022889,0.818841981835,0.00191765702269,0.0,0.818796860001,-0.573939055932,-0.0120999599069,0.0,-0.00880750646089,0.00851570066592,-0.99992495252,0.0,0.66069388912,0.259593307691,0.30322481179,1.0,-0.00644,-0.008464,0.323
0.464240442211,0.541839639082,-0.124022639194,-1.36523409691,0.0790967616374,1.89746202421,0.158026558047,-0.00606621383459,-0.0399032814259,-0.000776022602048,-0.061183505271,-0.00263062070255,0.0254792878193,-0.00667983425358,0.574001086823,0.81884048147,0.00194039516197,0.0,0.81879562902,-0.573940992799,-0.0120913847055,0.0,-0.0087874121331,0.00852941925709,-0.999925012386,0.0,0.660589463328,0.259444764343,0.303237460951,1.0,-0.00678,-0.00891085714286,0.34
0.464166062169,0.54122040691,-0.124028624398,-1.36617914328,0.0790386558453,1.89781125998,0.157914537369,-0.00699780310953,-0.0435082412908,-0.000526668121469,-0.0576630927573,-0.0012071689153,0.0258255895213,-0.00498653567151,0.574004938914,0.81883773757,0.00195870771546,0.0,0.818793107349,-0.573944747735,-0.0120839068913,0.0,-0.00877073783808,0.00854016303829,-0.999925067079,0.0,0.660472994588,0.259298479559,0.303252864617,1.0,-0.00712,-0.00935771428571,0.357
0.464066719926,0.5404872447,-0.124029692432,-1.3673060085,0.0789791491383,1.89822321294,0.157762432586,-0.0054562474731,-0.0490790124305,-0.00111773370204,-0.0606291947007,-0.00249017336678,0.0187660227309,-0.00962806968054,0.574015455805,0.818830317787,0.00197840100215,0.0,0.818785906546,-0.573955140149,-0.0120782134028,0.0,-0.00875466244888,0.00855313270411,-0.999925097098,0.0,0.660351801619,0.259130368119,0.303273525647,1.0,-0.00746,-0.00980457142857,0.374
0.463969443516,0.539791318096,-0.124035393413,-1.36836995589,0.0789088619857,1.89862880081,0.157634902429,-0.00865204378672,-0.0490808271539,-0.00179166033828,-0.0696106891321,-0.00247376479401,0.0325051119307,-0.00571493311123,0.574034864242,0.818816646925,0.00200505703138,0.0,0.818772679787,-0.573974524803,-0.0120536555939,0.0,-0.00871905006854,0.0085610692983,-0.999925340342,0.0,0.660235559135,0.258961821197,0.303294243029,1.0,-0.00778,-0.0102251428571,0.39
0.463869587363,0.539034876375,-0.124040716425,-1.3695367338,0.0788423619015,1.89907229156,0.157496189221,-0.00974765750628,-0.0444061431288,-0.000380832296926,-0.0685573230592,-0.00475593820022,0.0199192275756,-0.00646635661434,0.574053597472,0.818803443767,0.00203337320081,0.0,0.818759845907,-0.57399313384,-0.0120392664307,0.0,-0.00869081788323,0.00857619365232,-0.999925456515,0.0,0.660104845246,0.258783570011,0.30331195058,1.0,-0.00812,-0.010672,0.407
0.463757549021,0.53826010418,-0.124046856785,-1.3707289068,0.0787760157132,1.89953515608,0.157344030365,-0.00960830556666,-0.0476183346346,-0.000879636294643,-0.0682007598388,-0.00295599430041,0.0313723379777,-0.00601416394797,0.574073288977,0.818789539403,0.00207266685635,0.0,0.818746457061,-0.57401265852,-0.012018893876,0.0,-0.00865137413422,0.00859688009917,-0.999925620923,0.0,0.659975690154,0.258595378876,0.303332098901,1.0,-0.00846,-0.0111188571429,0.424
0.463640595437,0.537377228253,-0.124048862618,-1.37213339298,0.0786943258487,1.90006130264,0.157174604672,-0.002152817659,-0.0458576772604,-0.000246816938409,-0.0742962346113,-0.00544937342375,0.0263962366947,-0.0121393525492,0.574087396646,0.818779638504,0.00207641150344,0.0,0.818736579208,-0.574026722913,-0.0120200727945,0.0,-0.00865004170683,0.00860077194094,-0.999925598982,0.0,0.659813706394,0.258384385199,0.30333273843,1.0,-0.00884,-0.0116182857143,0.443
0.463535359021,0.536568346611,-0.124049262227,-1.37337025157,0.078620687116,1.90053211853,0.157017973319,-0.00624119360561,-0.0547886082251,0.00141110606651,-0.0775970524369,-0.00866643420274,0.0247706419558,-0.00569265176879,0.574094034241,0.818774891292,0.00211285109225,0.0,0.81873230967,-0.574033208634,-0.0120011411702,0.0,-0.00861355220276,0.0086198089627,-0.999925750049,0.0,0.659673454454,0.258198550103,0.303355896429,1.0,-0.00916,-0.0120388571429,0.459
0.463417243012,0.535766653534,-0.124049972777,-1.37464831626,0.0785512448032,1.90099470413,0.156860204871,-0.0101097261352,-0.0506276437481,0.00139053532159,-0.0818060290811,-0.00441163582798,0.0281272320843,-0.00523293253308,0.574113697822,0.818761124571,0.00210470067388,0.0,0.818718338391,-0.57405280573,-0.0120168846863,0.0,-0.00863091486441,0.00862238114965,-0.999925578157,0.0,0.659524684727,0.257999187575,0.303353539752,1.0,-0.00948,-0.0124594285714,0.475
0.463299285729,0.534811906013,-0.124058477972,-1.37617274176,0.0784704088797,1.90154847198,0.156685703783,-0.00653125953933,-0.0525651702299,-0.00178021444834,-0.0869203243969,-0.00119971439459,0.0359184428719,-0.00680800662118,0.574135379553,0.818745947339,0.00209441222252,0.0,0.818702931631,-0.574074433091,-0.0120333665724,0.0,-0.00865008814569,0.00862364894294,-0.999925401545,0.0,0.659342953006,0.257772527551,0.303349927003,1.0,-0.00984,-0.0129325714286,0.493
0.463171441858,0.533908425472,-0.124061621341,-1.37765080697,0.0783843735751,1.90208490664,0.15649385343,-0.00611644014826,-0.0492707157921,9.9035281831e-05,-0.0882282614809,-0.00118696055942,0.0260602356514,-0.0103457715595,0.57414310771,0.818740610785,0.0020618004434,0.0,0.818697112627,-0.574082242756,-0.0120566674188,0.0,-0.00868780749107,0.00861040834733,-0.999925188636,0.0,0.659168403775,0.257545298036,0.303330338373,1.0,-0.01018,-0.0133794285714,0.51
0.463049004439,0.533045094191,-0.124059574218,-1.37906062786,0.0783091773307,1.90262150677,0.156313388989,-0.00385304091272,-0.0518048833545,-0.000152751030968,-0.0917827437789,-0.00551852296671,0.0360037715413,-0.0136939517371,0.57415129385,0.818734881645,0.00205724311533,0.0,0.818691219696,-0.574090344121,-0.0120710596294,0.0,-0.00870212171176,0.0086150272456,-0.999925024381,0.0,0.659005175764,0.257333994833,0.30331460387,1.0,-0.0105,-0.0138,0.526
0.462921768621,0.532085657842,-0.124058607025,-1.38061482573,0.0782199376683,1.90318829853,0.156113383759,-0.00528486286143,-0.0550075785088,0.000962804466884,-0.0858344585245,-0.00139878221389,0.0270751461746,-0.0124177765517,0.574151950477,0.818734476288,0.00203519084416,0.0,0.818690437872,-0.574091008602,-0.0120924637639,0.0,-0.00873230034618,0.00860926869457,-0.999924810885,0.0,0.658818740734,0.257102837427,0.303300365929,1.0,-0.01084,-0.0142468571429,0.543
0.462781195871,0.531082684832,-0.124059899132,-1.38223176062,0.0781205930556,1.90377367812,0.155921059575,-0.00818803562942,-0.0536990359812,-0.000767651034852,-0.0925845692421,0.000632637708606,0.0317448989465,-0.00547487328754,0.574171874435,0.818720569314,0.00200870385963,0.0,0.818676159146,-0.574111020183,-0.0121090813862,0.0,-0.00876090365885,0.00859733744328,-0.99992466334,0.0,0.658626594095,0.256854365897,0.303288412308,1.0,-0.01118,-0.0146937142857,0.56
0.462647730392,0.530102557256,-0.12406484427,-1.3837925827,0.078030063786,1.90431833957,0.155705953171,-0.0118683297583,-0.0621230097472,-0.000989070799655,-0.0942005872498,-0.00305964557548,0.0315889891834,-0.0198274262929,0.574168895548,0.818722729229,0.00197962886438,0.0,0.818677850933,-0.574108083289,-0.0121339192375,0.0,-0.0087979639295,0.00858776265265,-0.999924420226,0.0,0.658436896861,0.256613511686,0.30328343818,1.0,-0.0115,-0.0151142857143,0.576
0.462513337032,0.529111531889,-0.124065620441,-1.38534527595,0.0779237607137,1.90490560523,0.155487821906,-0.00698033225848,-0.0646216435274,-0.00197725160327,-0.0973214547555,-0.00343285107785,0.0381259178204,-0.0149802395271,0.574156627057,0.818731299057,0.0019936027765,0.0,0.818686717133,-0.574095865977,-0.0121137425959,0.0,-0.00877355001765,0.00858748703802,-0.999924637103,0.0,0.658257635344,0.256375939393,0.303293315628,1.0,-0.01182,-0.0155348571429,0.592
0.462368175565,0.528020360471,-0.124068996432,-1.38705166579,0.0778157220356,1.90556482445,0.155258892389,-0.00682970503258,-0.0660065128892,-0.00205157164938,-0.100222851088,-0.0160590053565,0.0358794412284,-0.0137317144383,0.574153975296,0.818733078965,0.00202607037218,0.0,0.81868899996,-0.574093150143,-0.0120881431316,0.0,-0.00873397767886,0.0085993425238,-0.99992488165,0.0,0.658062401943,0.256117452004,0.303306654812,1.0,-0.01216,-0.0159817142857,0.609
0.462232364246,0.526920636289,-0.124073742478,-1.38872154573,0.0777174206268,1.90620006066,0.155032439652,-0.00684794605816,-0.070366405167,-0.000981995546752,-0.101330677726,-0.00575165722783,0.0383409516302,-0.0171698071619,0.574147007278,0.818737825798,0.0020817160533,0.0,0.818694481019,-0.574085950756,-0.0120588056888,0.0,-0.00867808349169,0.00862798275685,-0.999925121587,0.0,0.657868050133,0.2558687437,0.303341075493,1.0,-0.01248,-0.0164022857143,0.625
0.462076836265,0.525753547792,-0.124074754656,-1.3905422015,0.0775999296842,1.90686048355,0.154781602288,-0.0138914104707,-0.0667259509104,0.00073804664565,-0.108203255035,-0.0132791816563,0.0331656340492,-0.018918485226,0.57413611908,0.818745456054,0.00208371294013,0.0,0.818702160295,-0.57407507823,-0.0120550481374,0.0,-0.00867397521678,0.00862734494156,-0.999925162736,0.0,0.657649842622,0.255590891151,0.303352907731,1.0,-0.01282,-0.0168491428571,0.642
0.461903801465,0.52443556515,-0.124084020601,-1.39263275831,0.0774734685785,1.90761069561,0.154500468762,-0.0109603044438,-0.0742375161946,-0.000562620507464,-0.112097390724,-0.0105103039958,0.0361397731921,-0.0148802932992,0.574132459464,0.818748075482,0.00206271301851,0.0,0.818704476422,-0.574071480146,-0.0120690873879,0.0,-0.00869756481107,0.00861817313386,-0.999925036919,0.0,0.6573963294,0.255271346664,0.303350154225,1.0,-0.0132,-0.0173485714286,0.661
0.461759420749,0.523311094515,-0.124092833648,-1.39442273037,0.0773576446201,1.90827562617,0.154260307871,-0.0102695159242,-0.0733260200482,-0.000857187747712,-0.11444708286,-0.000207822034345,0.0387578144575,-0.0148594963834,0.574125150006,0.818753220183,0.00205510851691,0.0,0.818709602116,-0.574064283803,-0.0120636796008,0.0,-0.00869757957685,0.008608764682,-0.999925117836,0.0,0.657182720832,0.255000005495,0.30334664799,1.0,-0.01352,-0.0177691428571,0.677
0.46160243166,0.522077569593,-0.124093593395,-1.39637755984,0.0772434447527,1.90903868307,0.15399520521,-0.00609552839896,-0.0781906109169,-3.09398818383e-05,-0.118418194324,-0.00697855823889,0.0445197453334,-0.0138842140884,0.574111387003,0.818762781574,0.00209038839587,0.0,0.818719613464,-0.574050361146,-0.0120467546801,0.0,-0.00866361295861,0.00862778712935,-0.999925248756,0.0,0.656953463776,0.254713843746,0.303349287571,1.0,-0.01386,-0.018216,0.694
0.461452600366,0.520968495038,-0.124094317053,-1.39815454243,0.0771379115862,1.90971453037,0.15375510202,-0.0161924846452,-0.0715826819267,-0.000790264272226,-0.122451099126,-0.00467921514941,0.0421134428591,-0.018404305208,0.574104639537,0.818767497394,0.00209641947562,0.0,0.81872438336,-0.574043564316,-0.0120464625528,0.0,-0.00865998262019,0.0086324859861,-0.999925239649,0.0,0.6567425265,0.254447421982,0.303341268821,1.0,-0.01416,-0.0186102857143,0.709
0.461282867013,0.519657521081,-0.124101811119,-1.40019056011,0.0770128509314,1.91045393099,0.153479786867,-0.00958295745742,-0.0865011636149,-0.00211071452677,-0.124775381308,-0.00417854058886,0.0481185000695,-0.0138145195347,0.574098132976,0.818772033426,0.00210663115296,0.0,0.818729049109,-0.574037011638,-0.0120416077354,0.0,-0.00865021394299,0.0086379909477,-0.999925276664,0.0,0.656495489419,0.254137123617,0.303357111319,1.0,-0.0145,-0.0190571428571,0.726
0.461107150575,0.518314230838,-0.124102501643,-1.40228094147,0.0768724832231,1.91119479358,0.153193943505,-0.0115832413764,-0.0791967083475,-0.00135263027275,-0.122235023005,-0.00942308238483,0.0424876560417,-0.014213916466,0.574081303432,0.818783863007,0.00209514432345,0.0,0.818740768131,-0.574020272281,-0.0120427784016,0.0,-0.00865794399821,0.00862908013097,-0.9999252867,0.0,0.656236807125,0.253818551269,0.303369253584,1.0,-0.01484,-0.019504,0.743
0.460925224685,0.516946871044,-0.124101104207,-1.40442337798,0.0767384188824,1.91196954965,0.152891174233,-0.00786003417969,-0.0785345545583,-0.00140344540027,-0.122754739113,-0.00939630758204,0.0450554701929,-0.0211224614002,0.574058540776,0.818799826065,0.00209368085601,0.0,0.818756673136,-0.573997479928,-0.0120478268888,0.0,-0.00866315781854,0.00863053926022,-0.999925228949,0.0,0.655973190296,0.253494608101,0.303375996934,1.0,-0.01518,-0.0199508571429,0.76
0.460737620583,0.515587408631,-0.124108883514,-1.40659782067,0.0766043627986,1.91280548441,0.152599764242,-0.010698346185,-0.0840597605564,-0.000107415428582,-0.128956760616,-0.00710524725152,0.0533418104066,-0.0144253024873,0.574058027572,0.818800153954,0.00210612584072,0.0,0.818757220496,-0.573996970841,-0.0120348765234,0.0,-0.0086454153484,0.008633289436,-0.999925358768,0.0,0.655716717979,0.253161839546,0.303367190432,1.0,-0.01552,-0.0203977142857,0.777
0.460554234235,0.514195366694,-0.124106800952,-1.4088380004,0.0764667787646,1.91359507411,0.152294049802,-0.0103806935761,-0.080920755598,0.000993997576862,-0.127901125231,-0.0103324596937,0.0430985800905,-0.0201551617493,0.574037018161,0.818815009263,0.0020565231924,0.0,0.818771316816,-0.573976065167,-0.0120728735389,0.0,-0.00870522257122,0.0086142643805,-0.999925003962,0.0,0.655432261343,0.252826643237,0.303345183112,1.0,-0.01586,-0.0208445714286,0.794
0.460372427406,0.512871499825,-0.124112666303,-1.41097709962,0.0763294167025,1.91434148607,0.151994237178,-0.0104090874321,-0.0845813368055,0.000336350983635,-0.136792916421,-0.00715996920315,0.0422156723808,-0.0217916526819,0.574019505697,0.818827442406,0.00199337500694,0.0,0.818782895231,-0.573958799954,-0.0121083993154,0.0,-0.00877074338022,0.00858276399408,-0.999924702277,0.0,0.655161970314,0.252496133867,0.303319598111,1.0,-0.01618,-0.0212651428571,0.81
0.460139950568,0.511180106456,-0.124115324416,-1.41368044183,0.0761632312821,1.91535539636,0.151624747693,-0.0131322317552,-0.0842110841201,0.00559900352384,-0.138287949779,-0.00900885502829,0.0484997081448,-0.0177283834964,0.574005974166,0.818836932117,0.00199176409729,0.0,0.818792350369,-0.573945263975,-0.0121106497861,0.0,-0.00877365266618,0.00858259177633,-0.999924678232,0.0,0.654833069995,0.252085662115,0.303305498049,1.0,-0.01658,-0.0217908571429,0.83
0.459951655667,0.509800357481,-0.124121669454,-1.41588966815,0.0760269710671,1.9161865315,0.151298653784,-0.0151191350054,-0.0903265122449,-0.000807975476663,-0.139596918495,-0.00172981052935,0.0503572816515,-0.0215302730945,0.573976248391,0.818857774764,0.00198944528888,0.0,0.818813175261,-0.573915564416,-0.0121101545037,0.0,-0.00877488949693,0.00858009025681,-0.999924688847,0.0,0.654564331319,0.251749023005,0.303292109396,1.0,-0.0169,-0.0222114285714,0.846
0.459786695601,0.508567241693,-0.124119176826,-1.41783936986,0.0759121124166,1.91686819558,0.151043806272,-0.0108335106078,-0.0866250382447,-0.000254310060572,-0.1391296533,-0.00796487981094,0.0448716138001,-0.0218333742434,0.57397104498,0.818861484107,0.00196373919341,0.0,0.818816394397,-0.573910324698,-0.0121407731405,0.0,-0.00881477102561,0.00857655921756,-0.999924368362,0.0,0.654314072271,0.251455127208,0.303285974245,1.0,-0.01718,-0.0225794285714,0.86
0.459558065863,0.506922967946,-0.124127709565,-1.42037992254,0.0757453138316,1.91779730412,0.150677451168,-0.0127503211376,-0.0945074965666,1.67062046461e-05,-0.135946109901,-0.00941822991226,0.0507595138982,-0.0249107032393,0.573950783377,0.818875636276,0.00198430719126,0.0,0.818830899209,-0.573890056407,-0.0121205840986,0.0,-0.00878664602003,0.00858159600244,-0.999924572686,0.0,0.654003180164,0.251056899753,0.303307485439,1.0,-0.01754,-0.0230525714286,0.878
0.459347784804,0.505423455051,-0.124130898061,-1.42270243386,0.0755964735358,1.918680484,0.150365911206,-0.0123823089455,-0.095286353888,-0.00103060539086,-0.146144468692,-0.00910378058387,0.0583715844279,-0.0189294927798,0.573950001264,0.818876072445,0.00203000689568,0.0,0.81883200674,-0.573889147392,-0.0120887610978,0.0,-0.00873436644557,0.00860074465845,-0.999924866195,0.0,0.653723737173,0.25069757698,0.303326866882,1.0,-0.01786,-0.0234731428571,0.894
0.459105315337,0.503672529021,-0.124134375299,-1.42531954909,0.0754329161608,1.91967807446,0.14999954441,-0.0125878717687,-0.0951165444606,-0.000199355498074,-0.14452116164,-0.0118745981357,0.0560517260811,-0.0261967344721,0.573941622453,0.818881665813,0.00213969917861,0.0,0.818839095132,-0.573880363349,-0.0120254624469,0.0,-0.00861966533385,0.00865414938597,-0.999925400751,0.0,0.653410955127,0.25029086187,0.303390940663,1.0,-0.01822,-0.0239462857143,0.912
0.458876569246,0.501969426007,-0.124136830353,-1.42782651789,0.075275259632,1.9206049081,0.149643313246,-0.0117473216786,-0.101778412257,0.000317514728782,-0.149739487558,-0.0122297092263,0.0536143247716,-0.0178093296945,0.573929929307,0.818889607145,0.00223482806832,0.0,0.818848299026,-0.573868298717,-0.0119743814251,0.0,-0.0085233636207,0.00870260859936,-0.999925805686,0.0,0.653086598424,0.249877502709,0.303461056642,1.0,-0.01858,-0.0244194285714,0.93
0.458621999387,0.500164473119,-0.124136130175,-1.4305698761,0.0751047037504,1.92157108903,0.149254279706,-0.0139920931789,-0.0921644881094,0.00069469239683,-0.154356332874,-0.00423858365768,0.0607289471388,-0.0282278109422,0.573907796684,0.818905021713,0.00227007028157,0.0,0.818864077303,-0.573845926909,-0.0119675383552,0.0,-0.00849777028012,0.00872731060344,-0.999925808223,0.0,0.652756093112,0.249473109439,0.303504596548,1.0,-0.01892,-0.0248662857143,0.947
0.45838737912,0.498579246104,-0.124143309907,-1.43303971128,0.074940906304,1.92249361664,0.148913304929,-0.0136205167525,-0.0926784889923,-0.00164381377027,-0.151492160624,-0.00909327260751,0.0667204345588,-0.023746574575,0.57390721354,0.818905365258,0.00229344684303,0.0,0.818864833188,-0.573845359955,-0.0119429781908,0.0,-0.00846424805145,0.00873235242625,-0.999926048529,0.0,0.652454800332,0.249079906742,0.303514831969,1.0,-0.01924,-0.0252868571429,0.963
0.458128512001,0.496897149806,-0.124138755519,-1.43570125481,0.0747811190852,1.92344271964,0.148510094662,-0.0111064397769,-0.0951761625404,0.000671709093659,-0.157123784411,-0.00789170488974,0.0489025016233,-0.0169321490626,0.573877441376,0.818926289033,0.0022720721906,0.0,0.818885306904,-0.573815501772,-0.0119737614899,0.0,-0.00850204150923,0.00873220626261,-0.999925729174,0.0,0.65211706286,0.248658908955,0.30350276313,1.0,-0.01958,-0.0257337142857,0.98
0.457858270449,0.495225696801,-0.124138756601,-1.43841468632,0.0746136016907,1.92438660375,0.14813000002,-0.0159326732989,-0.0953553565259,0.000559613230845,-0.160379361228,-0.00710358753091,0.0581885818752,-0.0113815052052,0.573879037085,0.818925396418,0.00218924604598,0.0,0.818883168749,-0.573817271789,-0.0120350087947,0.0,-0.00859971272581,0.00869954349087,-0.999925178643,0.0,0.651768417939,0.248220141332,0.303457711157,1.0,-0.01992,-0.0261805714286,0.997
0.457596769736,0.493612643911,-0.124166743811,-1.44098008555,0.0744580938338,1.92530584233,0.14775976156,-0.0200332732042,-0.124144918329,-0.000711998002734,-0.191838430865,-0.00768036458664,0.0756047651352,-0.0298581331296,0.573897170897,0.818912774799,0.00215671232448,0.0,0.818870120034,-0.573835537995,-0.012051918978,0.0,-0.00863203842842,0.00868279665615,-0.999925045668,0.0,0.651451460955,0.247787784901,0.303440496093,1.0,-0.0285851428571,-0.037569044898,1.012
0.457288877878,0.490911288199,-0.124248602056,-1.44502211168,0.0742466711017,1.92685184969,0.14715680282,-0.0219357408737,-0.179959523246,-0.00535166117869,-0.286769614683,-0.0184997513514,0.107289235437,-0.0441429969112,0.573860861588,0.818937731727,0.00233452184573,0.0,0.818897465316,-0.57379856944,-0.0119536566987,0.0,-0.00844991789437,0.00877163863566,-0.999925825871,0.0,0.650954447703,0.24716626829,0.303532674958,1.0,-0.0411017142857,-0.0540193959184,1.028
0.456728230118,0.486844801548,-0.12429058092,-1.451520543,0.0738950917482,1.92932337408,0.146189806883,-0.0356359072523,-0.252213845089,-0.00565918104819,-0.399262781231,-0.025151630088,0.152759282984,-0.0590728329297,0.573788424505,0.818988352158,0.00238114153539,0.0,0.818948381664,-0.573725629274,-0.0119665110078,0.0,-0.00843447359532,0.00881644724884,-0.999925562186,0.0,0.65013615719,0.246170963161,0.30348190365,1.0,-0.0551828571429,-0.0725260408163,1.046
0.456025033205,0.482134240935,-0.124418372274,-1.45898331905,0.0734429004841,1.93200438756,0.145038207798,-0.049320454644,-0.317558218044,-0.0116262596552,-0.512948752571,-0.03079239385,0.176210294853,-0.071516517227,0.573764317742,0.819005510122,0.00228669566205,0.0,0.818964449435,-0.573702056037,-0.011997014701,0.0,-0.00851390306131,0.00875634999562,-0.999925417113,0.0,0.649125457786,0.244832072894,0.303431035541,1.0,-0.0684817142857,-0.0900045387755,1.063
0.455000067892,0.475586163557,-0.124601146628,-1.46932767601,0.0728230861913,1.93558595547,0.143529349158,-0.0620790786026,-0.38256945451,-0.00785343241325,-0.605552631336,-0.0358910605001,0.214028694364,-0.0864680585295,0.573830267234,0.81895980082,0.00210141562962,0.0,0.818916262762,-0.57376871818,-0.0120979139982,0.0,-0.0087021462294,0.00866319944991,-0.999924607971,0.0,0.647853355755,0.243159058458,0.30336439786,1.0,-0.0817805714286,-0.107483036735,1.08
0.45390415214,0.468741399858,-0.124728626365,-1.47985996002,0.072221097367,1.93943081781,0.141935993947,-0.0698945702678,-0.452972062276,-0.00743837341761,-0.669058153979,-0.0397820077025,0.255604592091,-0.111967749357,0.573858755556,0.818939457814,0.00224499612187,0.0,0.818897545744,-0.573796340163,-0.0120547290321,0.0,-0.00858408796951,0.00875630220127,-0.999924817477,0.0,0.646513733073,0.241382643404,0.303419152904,1.0,-0.0942971428571,-0.123933387755,1.096
0.452539565704,0.460466360726,-0.124815714166,-1.49259936013,0.0714184502229,1.94406612087,0.139900366499,-0.0903009796019,-0.49580082178,-0.00427500634095,-0.802243828171,-0.0541581885582,0.270720694333,-0.116830722092,0.573754737598,0.819011955816,0.00237996126046,0.0,0.818971779392,-0.573691752415,-0.0119893566124,0.0,-0.00845422503195,0.00882824123648,-0.999925291327,0.0,0.64486235536,0.239239209991,0.303464352453,1.0,-0.107596,-0.141411885714,1.113
0.451002583266,0.451701914138,-0.124952216696,-1.50611241,0.0705426136967,1.94869220155,0.137801433269,-0.101867146581,-0.578175703493,-0.00768135039376,-0.836732118548,-0.0542221211043,0.307330965947,-0.135513013497,0.573777438543,0.818996395117,0.00225891700803,0.0,0.818954443928,-0.573714749583,-0.0120727703104,0.0,-0.00859174677544,0.00877720233535,-0.999924568458,0.0,0.643052703824,0.236864234357,0.303461652276,1.0,-0.120112571429,-0.157862236735,1.129
0.449182843993,0.441366503858,-0.12509238313,-1.52181426087,0.0694882241479,1.95431237528,0.135362807911,-0.110380438884,-0.624270155362,-0.00543882448275,-0.955428933159,-0.05450649297,0.325645758201,-0.155846732721,0.57379163982,0.818985945455,0.00243354081213,0.0,0.818946685197,-0.573728663629,-0.0119370949519,0.0,-0.00838028222354,0.00884251571436,-0.999925787639,0.0,0.640967849573,0.234112765998,0.303558982491,1.0,-0.133411428571,-0.175340734694,1.146
0.44712095802,0.429996817639,-0.125228676694,-1.5389186481,0.0683638925694,1.96025499425,0.132575074233,-0.125992362347,-0.689580127285,-0.00780182305961,-1.037650857,-0.0652069468577,0.359943933454,-0.162534943535,0.573738172963,0.819022887019,0.0026012162122,0.0,0.8189856099,-0.57367433716,-0.0118773970982,0.0,-0.0082357676393,0.00894504697656,-0.999926076401,0.0,0.638627213191,0.231077488277,0.303694807987,1.0,-0.146710285714,-0.192819232653,1.163
0.444762676011,0.417829407557,-0.12537204446,-1.55728328883,0.0670638317039,1.96660187853,0.129515791021,-0.14889714981,-0.73246239411,-0.0116490270945,-1.08536499967,-0.0746391406932,0.381435630879,-0.178761099726,0.573688904271,0.819057159387,0.00267538292378,0.0,0.819021194063,-0.573625176816,-0.0117977582375,0.0,-0.00812852784579,0.00895961081321,-0.999926823527,0.0,0.636084844474,0.227723593967,0.30377561909,1.0,-0.160009142857,-0.210297730612,1.18
0.442129433293,0.404739754915,-0.125513393248,-1.57692686574,0.0656811520337,1.97347806996,0.126243823891,-0.161757236601,-0.773360410258,-0.00711547851806,-1.18368647966,-0.0729186203617,0.399050760099,-0.201000106502,0.573692595849,0.819053799686,0.00290268656526,0.0,0.819021097613,-0.573628417735,-0.0116458976755,0.0,-0.00787370483351,0.00905870121324,-0.999927969758,0.0,0.633339547414,0.224096173749,0.303879353846,1.0,-0.173308,-0.227776228571,1.197
0.439725753301,0.393221885744,-0.125661448641,-1.59394533049,0.0645442708994,1.97932450727,0.123316714889,-0.171699803456,-0.806233682086,-0.00758801118374,-1.22954610618,-0.0780956334785,0.424611780105,-0.213890836361,0.573734658616,0.819023219985,0.00320211317921,0.0,0.818994078722,-0.573669125786,-0.0115403657001,0.0,-0.00761502062003,0.00924379748015,-0.999928279263,0.0,0.630916554894,0.220879878492,0.304044241707,1.0,-0.183477714286,-0.241142138775,1.211
0.436143339239,0.376871734573,-0.125835354807,-1.61844106832,0.0626501517766,1.98749690374,0.118967357659,-0.194017734472,-0.879807384787,-0.0108742704724,-1.31515638319,-0.0959524417029,0.44049084617,-0.229013543991,0.573629006268,0.819097542293,0.00311869813225,0.0,0.819067964849,-0.573564522431,-0.0114958456773,0.0,-0.00762759119077,0.00914895240991,-0.999929055745,0.0,0.627311577259,0.216165940599,0.304050131261,1.0,-0.199123428571,-0.261705077551,1.23
0.431646794468,0.357592211972,-0.126052408737,-1.64701551454,0.0604775392566,1.99693334378,0.113838026584,-0.221141403224,-0.938843176582,-0.0134565624146,-1.39506212695,-0.118325856123,0.447729245696,-0.262886162776,0.573668038312,0.819070095268,0.0031476591064,0.0,0.819041132329,-0.573603750013,-0.0114502588069,0.0,-0.00757320131224,0.00914688589253,-0.999929488064,0.0,0.622808249875,0.210223293779,0.304097652777,1.0,-0.216333714286,-0.284324310204,1.252
0.428010416754,0.343115682522,-0.126270428489,-1.66837518189,0.058857992922,2.00385048758,0.109777433119,-0.246745843433,-0.994110660209,-0.0170486102833,-1.43254294119,-0.113829903159,0.477625491406,-0.266786596863,0.573761334984,0.819004745915,0.00314699023039,0.0,0.818975570905,-0.57369679099,-0.0114783783874,0.0,-0.00759557441661,0.00916333425017,-0.999929167769,0.0,0.619758690633,0.206097049596,0.30410681286,1.0,-0.227285714286,-0.298718367347,1.266
0.423914646855,0.327111488614,-0.126413026989,-1.69185991728,0.0570706815864,2.01136869717,0.10525661742,-0.259747311799,-1.03849424797,-0.0140474559039,-1.46560003303,-0.121684508566,0.495331178829,-0.289497085327,0.573762891409,0.81900357973,0.00316665949268,0.0,0.818973952088,-0.573697433189,-0.0115614815263,0.0,-0.00765233766549,0.00922713836014,-0.999928148242,0.0,0.616057302764,0.201279488334,0.30409899257,1.0,-0.239802285714,-0.315168718367,1.282
0.419245222599,0.309370124235,-0.126570600157,-1.71765124264,0.0549445180825,2.01948816809,0.100101256127,-0.281231756958,-1.06326200123,-0.0114033294185,-1.51814749471,-0.115591236484,0.487533772847,-0.307590382745,0.573637928984,0.819091178568,0.00314873368747,0.0,0.819061368416,-0.573572603842,-0.0115624302025,0.0,-0.00766480477302,0.00921183199455,-0.999928193881,0.0,0.611891041525,0.195901100467,0.304107475138,1.0,-0.253101142857,-0.332647216326,1.299
0.414734036941,0.293105794089,-0.126731247358,-1.74108193668,0.0529279649126,2.02667289933,0.0952745692854,-0.309828898761,-1.08735162085,-0.00771622862558,-1.51393514052,-0.127131346777,0.468870135842,-0.315780205625,0.573574249802,0.819135913931,0.00311149060328,0.0,0.81910577769,-0.573509238528,-0.0115596357552,0.0,-0.00768459214471,0.0091791260633,-0.999928342777,0.0,0.607768574049,0.19052793584,0.304133401354,1.0,-0.265617714286,-0.349097567347,1.315
0.409199003449,0.274060024949,-0.126935551144,-1.76821576139,0.0506864717305,2.03494152549,0.0894736972969,-0.340031459836,-1.11929060478,-0.00678553615304,-1.54522491189,-0.128292040447,0.478668859295,-0.351998984539,0.573540191684,0.81915941815,0.00320048121185,0.0,0.819129926732,-0.573474291008,-0.011582209925,0.0,-0.00765242998217,0.0092646512143,-0.99992780067,0.0,0.603462426467,0.184911895855,0.304175965322,1.0,-0.278134285714,-0.365547918367,1.331
0.402358599418,0.251907135745,-0.127287518945,-1.79933137538,0.0479002048555,2.04433113465,0.0825840384417,-0.37224955981,-1.16951965675,-0.0170421295088,-1.60251742499,-0.139472253949,0.511126247591,-0.368446704845,0.573660329238,0.819074374778,0.00342668093657,0.0,0.819048705188,-0.573594850279,-0.0113539933298,0.0,-0.00733437965862,0.0093201335774,-0.999929668519,0.0,0.598167555653,0.177775238189,0.304307169368,1.0,-0.292997714286,-0.385082710204,1.35
0.396179168685,0.23274853731,-0.127516041687,-1.82615684618,0.0454836594025,2.05209700247,0.0763531902235,-0.385611497419,-1.22224620548,-0.0111462555837,-1.68032450844,-0.149573205029,0.517259428449,-0.398085134489,0.573621586788,0.819101418542,0.00344792889557,0.0,0.819075796737,-0.573555765547,-0.0113740893034,0.0,-0.00733909448613,0.00934871825353,-0.999929367085,0.0,0.593421041479,0.17156428251,0.304319729742,1.0,-0.305514285714,-0.401533061224,1.366
0.389172290127,0.211747004856,-0.127729955673,-1.85521305308,0.0427682104149,2.06030991874,0.0693281251084,-0.423461052384,-1.2717667164,-0.0146653594552,-1.72356157853,-0.171137217209,0.497697342167,-0.425564001704,0.573471537839,0.819206233987,0.00350547938539,0.0,0.819181226252,-0.573405411403,-0.0113622018712,0.0,-0.00729806626595,0.00938770302421,-0.999929302131,0.0,0.588136604624,0.16474569145,0.304353004425,1.0,-0.318813142857,-0.419011559184,1.383
0.382468941556,0.192764277966,-0.127988567747,-1.88129538891,0.0402575115741,2.06738276634,0.062785187689,-0.456069868441,-1.29335515157,-0.0257110974646,-1.74982912242,-0.169313493885,0.490026384459,-0.443918058666,0.573439121042,0.819229303793,0.00341601606147,0.0,0.819202850431,-0.573372883885,-0.0114443336363,0.0,-0.00741702529743,0.00936121894848,-0.999928675114,0.0,0.583272636833,0.158412083068,0.304331537749,1.0,-0.330547428571,-0.434433763265,1.398
0.374192053427,0.170637924837,-0.128429226736,-1.91123968849,0.0373778507603,2.07526181408,0.0549036891057,-0.496220466818,-1.3137442246,-0.0243879235955,-1.78293183176,-0.173377124046,0.458726528776,-0.467978140036,0.573613054507,0.819107463933,0.00343119945923,0.0,0.819080527079,-0.573545891025,-0.011530305741,0.0,-0.00747675309343,0.00942454400876,-0.999927635448,0.0,0.577589163081,0.150830770794,0.304359919479,1.0,-0.343846285714,-0.451912261224,1.415
0.365396826095,0.147970849186,-0.128779190284,-1.94152803038,0.0342084833763,2.08298668649,0.0465230517886,-0.526076067065,-1.3487408326,-0.0187973244238,-1.79412630555,-0.187095252288,0.449854758891,-0.499599238416,0.573534195777,0.819162811415,0.00340023096387,0.0,0.819135758662,-0.573467495108,-0.0115059913222,0.0,-0.00747550219258,0.00938451093075,-0.99992802132,0.0,0.571663990639,0.143070495269,0.304391095036,1.0,-0.357145142857,-0.469390759184,1.432
0.355907327885,0.124798191019,-0.129201174521,-1.97214490943,0.0309545371196,2.09050579519,0.0376224648717,-0.575409187718,-1.36530924641,-0.0338257803948,-1.8181554222,-0.208562026949,0.436510844201,-0.546173260491,0.573537371914,0.819160700567,0.00337291661609,0.0,0.819133224775,-0.573470666615,-0.0115282914601,0.0,-0.00750939914769,0.00937495454822,-0.999927856974,0.0,0.565520631765,0.134984556491,0.304397000179,1.0,-0.370444,-0.486869257143,1.449
0.346199097558,0.102443229039,-0.129684280513,-2.00109442956,0.0277681974182,2.09731552033,0.0287519976033,-0.623993193457,-1.38040857645,-0.0282233219971,-1.81128894166,-0.194440288295,0.405578582521,-0.566198024078,0.573707812208,0.819040975875,0.00346019520471,0.0,0.81901485759,-0.573641110766,-0.0114580097766,0.0,-0.00739981175759,0.00940768213103,-0.999928366586,0.0,0.559586791855,0.127011553023,0.304485554275,1.0,-0.382960571429,-0.503319608163,1.465
0.336682364444,0.0810872731658,-0.130046994874,-2.02845491046,0.0247361355489,2.10347413009,0.0198813147059,-0.652470969484,-1.41812505797,-0.0316623615613,-1.79333113713,-0.193110502243,0.389847128287,-0.600097936952,0.573587141963,0.81912508079,0.00355520707186,0.0,0.819099729039,-0.573519587479,-0.0114744746296,0.0,-0.0073601907712,0.00949386304382,-0.999927844475,0.0,0.553788111567,0.119479481241,0.304536492111,1.0,-0.38998,-0.512545142857,1.48
0.323785990979,0.0541876384672,-0.13058153417,-2.06257125854,0.0207021247965,2.11079314657,0.00825872099619,-0.702196527602,-1.43504103522,-0.0348597149796,-1.7939878416,-0.21273574037,0.389765597207,-0.613081537241,0.573673657918,0.819064616556,0.00352633223599,0.0,0.819039084159,-0.573606424008,-0.0114628032699,0.0,-0.00736619156318,0.00946429442384,-0.99992808059,0.0,0.546391346808,0.109653911905,0.304527237745,1.0,-0.38998,-0.512545142857,1.499
0.311707830693,0.0302813430242,-0.130970982959,-2.0922855802,0.0171682434293,2.11665538076,-0.0024231609419,-0.720369301119,-1.4374804955,-0.0166892587668,-1.73694188805,-0.221783317919,0.352493170449,-0.647553436381,0.57381276152,0.818967051932,0.00355379630113,0.0,0.818941125098,-0.573744463152,-0.0115529878201,0.0,-0.00742268833488,0.00953978545653,-0.999926945427,0.0,0.539718631116,0.100883038458,0.304556618029,1.0,-0.38998,-0.512545142857,1.516
0.299143416725,0.00679098746862,-0.131421918001,-2.12097992359,0.0134866149115,2.12200492901,-0.0134791883247,-0.756528661995,-1.38040337798,-0.0319832673565,-1.64014653558,-0.214450091433,0.308004141424,-0.657384110537,0.573934391516,0.818881786195,0.0035610916186,0.0,0.818856487396,-0.573866742188,-0.0114787700539,0.0,-0.00735630531096,0.00950426686695,-0.999927774233,0.0,0.533122802004,0.0920614168546,0.304609477142,1.0,-0.38998,-0.512545142857,1.533
0.286177032165,-0.0164458217765,-0.131774485674,-2.14884942042,0.0100285316426,2.12687024955,-0.0249381957645,-0.765252723366,-1.36375371184,-0.0134343525451,-1.61992212748,-0.208929493039,0.279062096088,-0.676737336604,0.573982841596,0.818846849519,0.00377908551572,0.0,0.818823667391,-0.573913629261,-0.0114758341866,0.0,-0.00722822115136,0.00968152297681,-0.999927007802,0.0,0.52652243672,0.0833622776155,0.304692708512,1.0,-0.38998,-0.512545142857,1.55
0.272694530699,-0.0394165142812,-0.13221999703,-2.1760175907,0.00636499049739,2.1311729269,-0.0367237931891,-0.81062578739,-1.34172369885,-0.0301873978165,-1.60658652021,-0.206844245822,0.229038623525,-0.701654440528,0.574089623248,0.818771918422,0.00379433572175,0.0,0.818749149583,-0.574020642594,-0.0114402287884,0.0,-0.00718904945456,0.00967451204478,-0.999927358054,0.0,0.519897400599,0.0745636675849,0.304739847079,1.0,-0.38998,-0.512545142857,1.567
0.259610695775,-0.0607166778301,-0.132582820663,-2.20087731457,0.00305408295859,2.13480002336,-0.0481986828845,-0.819638976652,-1.31856964912,-0.0118180108309,-1.53751566936,-0.198404328777,0.213742769834,-0.725738603959,0.574142957497,0.818734158892,0.00387147540353,0.0,0.818711758503,-0.574072898775,-0.0114939237044,0.0,-0.00718809724222,0.0097689658674,-0.999926446577,0.0,0.513658319575,0.0663592815898,0.304756321374,1.0,-0.38998,-0.512545142857,1.583
0.245254579203,-0.0830907563897,-0.13302692495,-2.22656634755,-0.000521395730751,2.13814633647,-0.0608440755221,-0.857662053831,-1.28775750212,-0.0382574612115,-1.49256194054,-0.201210458829,0.176281093777,-0.750702502362,0.57415228271,0.818727481877,0.00390045891342,0.0,0.818705027856,-0.57408155479,-0.0115409147962,0.0,-0.00720982140368,0.00981975695893,-0.999925792671,0.0,0.507021644248,0.0576193040755,0.304772126822,1.0,-0.38998,-0.512545142857,1.6
0.230520010344,-0.105128536626,-0.133339895035,-2.25150703947,-0.00409051622903,2.14101577485,-0.0738539398154,-0.866547896387,-1.27818957647,-0.014067044913,-1.45333457258,-0.198295337877,0.140162093742,-0.773359489451,0.574001528789,0.818833279757,0.00387966628073,0.0,0.818810088835,-0.573930251027,-0.0116125913762,0.0,-0.00728225864673,0.00984254459463,-0.999925043703,0.0,0.50037052862,0.049010363627,0.304761219036,1.0,-0.38998,-0.512545142857,1.617
0.215181110698,-0.126843649322,-0.133766611827,-2.27576350494,-0.00771341381346,2.1434799721,-0.0872855340959,-0.913871087397,-1.27886983591,-0.0246816304374,-1.41416559935,-0.207470003495,0.138500385571,-0.807714103125,0.574006325233,0.818830291567,0.00379988228183,0.0,0.818805842548,-0.573934996407,-0.0116772860441,0.0,-0.00738097221906,0.00981439082169,-0.999924596648,0.0,0.493724128228,0.0402925261447,0.304712072429,1.0,-0.38998,-0.512545142857,1.634
0.200407656712,-0.147021651447,-0.134057009689,-2.29788578172,-0.0110394100102,2.14535709875,-0.10044403891,-0.939851384423,-1.26894726976,-0.0128996352119,-1.37535128543,-0.211930268442,0.130603019656,-0.836231945563,0.573766400405,0.818998607731,0.00376101078861,0.0,0.818973179823,-0.573694605516,-0.0117548812591,0.0,-0.00746970359949,0.00982491203213,-0.999923834415,0.0,0.487075108444,0.0317063867552,0.304678307555,1.0,-0.38998,-0.512545142857,1.651
0.184057368068,-0.168204476938,-0.134549921622,-2.32071120369,-0.0145318308891,2.14684883442,-0.114786986847,-0.966562023708,-1.27897567835,-0.0256153497175,-1.31067898087,-0.200890787627,0.0886355658327,-0.848401641886,0.573849504281,0.818940521882,0.00373027585887,0.0,0.818913572392,-0.573776336593,-0.0119173579041,0.0,-0.00761940998187,0.00989373394021,-0.99992202627,0.0,0.480806340914,0.023494688339,0.304655977856,1.0,-0.38998,-0.512545142857,1.667
0.167180301549,-0.189023642003,-0.135038236565,-2.34284198659,-0.0180452687859,2.1478959356,-0.129712121444,-1.01102697755,-1.22017778076,-0.0362399027889,-1.25867721675,-0.206867647828,0.0547327593827,-0.886352650845,0.573833670176,0.81895221089,0.0035975202998,0.0,0.818922255622,-0.573759371662,-0.0121354677562,0.0,-0.00787440876911,0.00991002023899,-0.999919889384,0.0,0.474128089509,0.0147748986669,0.304586716341,1.0,-0.38998,-0.512545142857,1.684
0.149789215488,-0.209694509778,-0.135574093781,-2.36428635791,-0.0214234616382,2.14867778302,-0.145192467858,-1.024636979,-1.19431298831,-0.0350293341125,-1.24641392545,-0.192235974305,0.0215894003801,-0.922413624825,0.573839380319,0.818947598391,0.00373411102217,0.0,0.818918484685,-0.573763343623,-0.0122019612099,0.0,-0.00785042194793,0.0100600920872,-0.999918579397,0.0,0.467470928131,0.00607037385154,0.30459637427,1.0,-0.38998,-0.512545142857,1.701
0.131759194242,-0.229998596479,-0.136181607973,-2.3848229527,-0.0249667158799,2.14905606119,-0.161076852127,-1.06038783949,-1.18890737301,-0.033780654697,-1.20796576357,-0.217601017713,0.0131452398883,-0.946393267941,0.573985022915,0.818845084431,0.00382989219267,0.0,0.818818108773,-0.57390974278,-0.0120523353799,0.0,-0.00767113083164,0.0100540386526,-0.999920031832,0.0,0.460875601012,-0.00272721087781,0.304675004219,1.0,-0.38998,-0.512545142857,1.718
0.116549099818,-0.246506351335,-0.136647742518,-2.40117378577,-0.0276625124372,2.14915836663,-0.17465021152,-1.10324713948,-1.18856058637,-0.0379660671008,-1.15726477996,-0.19459963739,0.00585999242554,-0.978395831708,0.57404670774,0.818800434417,0.00411980962739,0.0,0.818777572274,-0.57397082125,-0.0118966548286,0.0,-0.00737647764663,0.0102026396949,-0.99992074372,0.0,0.455465431987,-0.00990189639041,0.304780140617,1.0,-0.38998,-0.512545142857,1.732
0.0953572486023,-0.268288093996,-0.137248665543,-2.42262978901,-0.0314051081666,2.14893393951,-0.1936407103,-1.12749707526,-1.14607551263,-0.0288045150247,-1.08953876036,-0.198529613125,-0.00713255452223,-1.00815233663,0.57401934921,0.818818930284,0.00425359172917,0.0,0.818798236284,-0.573943613072,-0.0117866099017,0.0,-0.00720991631903,0.0102487728715,-0.999921486798,0.0,0.448103616342,-0.0196096354315,0.304807062156,1.0,-0.38998,-0.512545142857,1.751
0.0758054158379,-0.287360683485,-0.137848041908,-2.44113590598,-0.0346626959073,2.14830658927,-0.211310404941,-1.15149500725,-1.10103649285,-0.0304693250041,-1.07509743808,-0.18025108238,-0.0504841925953,-1.05165535295,0.573984938038,0.818842636785,0.00433289634449,0.0,0.818822456708,-0.573908203963,-0.0118281324056,0.0,-0.00719883296803,0.0103372416993,-0.999920655971,0.0,0.441472248389,-0.0283043118371,0.304793833833,1.0,-0.38998,-0.512545142857,1.768
0.0556393097518,-0.30602343934,-0.138429200752,-2.45877838211,-0.0379613450488,2.14740908266,-0.22954457305,-1.19161916406,-1.07979510293,-0.0282048770522,-1.04425974534,-0.200486578958,-0.0682593219038,-1.08310504986,0.573942696004,0.818871668974,0.00444053571884,0.0,0.818853834093,-0.573866999823,-0.0116538322295,0.0,-0.00699485080964,0.0103249803752,-0.999922230397,0.0,0.434894045009,-0.037023083724,0.304853566981,1.0,-0.38998,-0.512545142857,1.785
0.0349148803816,-0.324181718904,-0.139069873948,-2.47575931761,-0.0410047412132,2.14613997957,-0.248311321778,-1.2485512573,-1.07117559844,-0.0554418633657,-0.968881146649,-0.171512870505,-0.0692627918135,-1.11032472523,0.57406614638,0.818784340948,0.00458361215569,0.0,0.818767390497,-0.573988529357,-0.0117420325133,0.0,-0.00698338600422,0.0104938175578,-0.999920552901,0.0,0.428268325374,-0.0457251885014,0.304852396989,1.0,-0.38998,-0.512545142857,1.802
0.0149614945756,-0.340844128764,-0.139560028854,-2.49111730855,-0.0439883495803,2.14472777688,-0.266620310147,-1.26648259065,-1.02839642052,-0.0315490971342,-0.935279799395,-0.195053407475,-0.102122772525,-1.16726998983,0.573854745251,0.81893266866,0.00455658379141,0.0,0.818915471034,-0.573777405634,-0.011734009795,0.0,-0.00699503380515,0.0104652756525,-0.999920770615,0.0,0.421625221927,-0.0543688209755,0.304837903597,1.0,-0.38998,-0.512545142857,1.819
-0.0068937476936,-0.358090719613,-0.140261955308,-2.50660332959,-0.0469983981781,2.14296951229,-0.286628735772,-1.28953722055,-0.990308168187,-0.0338972871491,-0.871731808249,-0.167603236706,-0.102881667039,-1.17967719107,0.573948626328,0.818866055675,0.00470149980636,0.0,0.818850728711,-0.573870793353,-0.0116851840423,0.0,-0.00687067942464,0.0105567251216,-0.999920671513,0.0,0.415408443082,-0.0625927260752,0.304889666998,1.0,-0.38998,-0.512545142857,1.835
-0.0293110637265,-0.374686521168,-0.140879827739,-2.52146641562,-0.0500223220491,2.14102297287,-0.307311020093,-1.31949676991,-0.952032429553,-0.032432514728,-0.844744348866,-0.186289062564,-0.113440965604,-1.22058896382,0.573861654173,0.818927304289,0.00464963021771,0.0,0.818910916556,-0.573783410947,-0.0117581872903,0.0,-0.00696135396267,0.0105554089761,-0.999920058251,0.0,0.408748773715,-0.0712930770286,0.304844548236,1.0,-0.38998,-0.512545142857,1.852
-0.0522716312903,-0.390788292491,-0.141531630464,-2.53531994617,-0.0528404411812,2.13891143887,-0.32851631668,-1.35387446506,-0.94137422726,-0.026552707408,-0.80037263913,-0.163581287195,-0.121819450618,-1.24312152567,0.573921827393,0.818883914225,0.00485983198804,0.0,0.818871074913,-0.573844193537,-0.011565081763,0.0,-0.00668180169989,0.0106172331179,-0.999921310847,0.0,0.402178325533,-0.0799976464066,0.304953402436,1.0,-0.38998,-0.512545142857,1.869
-0.0757706042164,-0.406142714077,-0.142198016128,-2.54861913222,-0.0555336979484,2.1365410497,-0.350409498464,-1.38347806741,-0.893196703112,-0.0262969864673,-0.774754680774,-0.156933684909,-0.156929443154,-1.29608293549,0.573926109252,0.81888067349,0.00490006165813,0.0,0.818866833223,-0.573845937612,-0.0117769365626,0.0,-0.00683215680765,0.0107717967433,-0.999918641705,0.0,0.395506395749,-0.0886686513653,0.304908943188,1.0,-0.38998,-0.512545142857,1.886
-0.098407241679,-0.420052615146,-0.142843089267,-2.56015116246,-0.0580178551511,2.13443980397,-0.371614304171,-1.42338311369,-0.849513509134,-0.0374636946604,-0.715045357933,-0.154596880917,-0.128706143628,-1.31992320333,0.573915323028,0.818886687559,0.00515187680676,0.0,0.818877884956,-0.573837272554,-0.0114254566298,0.0,-0.00639993861678,0.010776210091,-0.999921453956,0.0,0.388981976786,-0.0973899591787,0.305041113858,1.0,-0.38998,-0.512545142857,1.903
-0.124418622312,-0.434700371226,-0.143497894437,-2.5726354951,-0.0606426864225,2.13170465632,-0.396087425435,-1.45246162599,-0.785744251885,-0.0461292422152,-0.671356032364,-0.144703278887,-0.144733779074,-1.36169275808,0.573888051836,0.818906104067,0.00510329131937,0.0,0.818893987029,-0.573805725667,-0.0118479576235,0.0,-0.00677419746408,0.0109786672676,-0.999916786095,0.0,0.382278905336,-0.106029657408,0.304915731337,1.0,-0.38998,-0.512545142857,1.92
-0.148026949964,-0.447216320003,-0.144072591762,-2.58267208832,-0.0629524096914,2.12941518025,-0.418410478518,-1.49373051715,-0.786405019291,-0.0450521287535,-0.610050278449,-0.12912462501,-0.131485149052,-1.41037082261,0.573827475881,0.818947492229,0.00527065430078,0.0,0.818939231273,-0.573747412518,-0.0115407543587,0.0,-0.00642737131997,0.0109389581337,-0.999919510807,0.0,0.376125837033,-0.11421209037,0.305044932826,1.0,-0.38998,-0.512545142857,1.936
-0.167528956557,-0.456718096776,-0.144525067213,-2.59052928584,-0.06483191041,2.12746383571,-0.436938800139,-1.50843331315,-0.731625004511,-0.0292563029095,-0.6021865134,-0.134372329435,-0.161062703237,-1.42832574019,0.573715673308,0.819026474391,0.00516791527769,0.0,0.819016118936,-0.573634670364,-0.0116879758857,0.0,-0.00660839353769,0.0109383914665,-0.999918337029,0.0,0.371029815955,-0.120830500246,0.304983884272,1.0,-0.388373142857,-0.510433273469,1.949
-0.199415325519,-0.470689613881,-0.145066993263,-2.6019115373,-0.0672890036454,2.12447145951,-0.467228267999,-1.52705425607,-0.633527418951,-0.0298910979196,-0.503118243503,-0.102161129975,-0.134681220245,-1.43953925922,0.573723318027,0.819020475446,0.00526897084884,0.0,0.819009738397,-0.573639160079,-0.0119125705388,0.0,-0.00673428083005,0.0111500726057,-0.999915159072,0.0,0.362978372552,-0.131378461407,0.304913733825,1.0,-0.371945142857,-0.488842187755,1.97
-0.223514598711,-0.480227101716,-0.145260281204,-2.60935007526,-0.0688991137048,2.12236997534,-0.489951914844,-1.50897896407,-0.579455102269,-0.0120717476246,-0.452238180014,-0.0875405330775,-0.126808815173,-1.43598007841,0.573869892002,0.818916814294,0.00541712302315,0.0,0.818908646766,-0.573786263399,-0.0117770577062,0.0,-0.0065362856444,0.0111948432536,-0.999915972697,0.0,0.357115026855,-0.139168525484,0.304981234507,1.0,-0.359428571429,-0.472391836735,1.986
-0.2487184289,-0.489244222237,-0.145283959527,-2.61650195028,-0.0703552537776,2.12020523704,-0.513898316128,-1.48807434115,-0.506529149322,0.00525837290193,-0.399075335781,-0.0809020759205,-0.125937454007,-1.39635913327,0.57387485651,0.81891287329,0.00548652234821,0.0,0.818904630744,-0.573789302909,-0.0119074982193,0.0,-0.00660322287943,0.0113265704612,-0.999914049431,0.0,0.351022672653,-0.147106630223,0.304954446818,1.0,-0.346129714286,-0.454913338776,2.003
-0.273430909613,-0.497144575846,-0.14514765885,-2.62265948391,-0.0715172455631,2.11832479027,-0.537377222398,-1.44596436892,-0.447664032308,0.0133013187399,-0.33981756534,-0.0565346079016,-0.103278462404,-1.36509661153,0.573925132589,0.818876674155,0.00562864172185,0.0,0.818870198692,-0.573838898303,-0.0118854276196,0.0,-0.00650289107623,0.0114306926638,-0.999913522097,0.0,0.345204419236,-0.15475055303,0.304965679206,1.0,-0.332830857143,-0.437434840816,2.02
-0.298876187638,-0.504307533916,-0.144864344421,-2.62818492746,-0.0724639387808,2.11651155857,-0.561653259086,-1.40911225457,-0.371599070654,0.0181721047297,-0.286937972929,-0.0518292398019,-0.0924438620063,-1.33278769239,0.573967478372,0.818845814888,0.00579759538622,0.0,0.818841170406,-0.573879942934,-0.0119035980877,0.0,-0.0064202113758,0.0115798109168,-0.99991234059,0.0,0.338998923819,-0.162917531927,0.304977222324,1.0,-0.317967428572,-0.41790004898,2.039
-0.319634651584,-0.509467697163,-0.144612992766,-2.63202652131,-0.0731737081648,2.11525585779,-0.581414126574,-1.37615547073,-0.333983896372,0.0134712323918,-0.244501891698,-0.0431197530062,-0.0800500277591,-1.30037159352,0.574046141835,0.818789811942,0.00591758436321,0.0,0.818787954752,-0.573960406807,-0.011682614144,0.0,-0.006169265087,0.0115518287822,-0.999914244033,0.0,0.334630113659,-0.168770269171,0.305050761585,1.0,-0.307015428572,-0.403505991837,2.053
-0.343775587735,-0.514698587467,-0.14413588231,-2.63609732805,-0.0738685791314,2.11376488856,-0.604491889655,-1.31541193376,-0.267488383813,0.0283423314456,-0.206206070259,-0.0289435885338,-0.0771777823711,-1.24655320613,0.574034193571,0.818798155521,0.00592216417704,0.0,0.818795531169,-0.573946904306,-0.0118142319751,0.0,-0.00627458435914,0.0116310386211,-0.999912670453,0.0,0.329154781806,-0.175919442873,0.3050207318,1.0,-0.292934285714,-0.384999346939,2.071
-0.367035215974,-0.518948169723,-0.143531886946,-2.63952865839,-0.0743641034198,2.11254168395,-0.626789446217,-1.27276375979,-0.215719891003,0.0459168288623,-0.176118959951,-0.0308419869849,-0.0621009213566,-1.22372889965,0.573974663296,0.818839995622,0.00590714523941,0.0,0.818835869865,-0.5738850474,-0.0120215429578,0.0,-0.00645382211332,0.0117372694609,-0.999910288319,0.0,0.323931693442,-0.182699211628,0.304938801185,1.0,-0.278853142857,-0.366492702041,2.089
-0.388166898281,-0.522170389007,-0.14298797286,-2.64203472711,-0.0746350420561,2.11159268998,-0.647051270996,-1.22630733301,-0.171478185656,0.0423418335936,-0.127817408126,-0.0193696037173,-0.0539767132275,-1.18348946576,0.574034029342,0.818797749642,0.00599376673266,0.0,0.818794197615,-0.573943023914,-0.0120919044786,0.0,-0.00646086796453,0.0118490542038,-0.999908924402,0.0,0.319264858022,-0.18884186367,0.304917176107,1.0,-0.265554285714,-0.349014204082,2.106
-0.406056587262,-0.524543045793,-0.142363823529,-2.64382145576,-0.0747791734426,2.11089453337,-0.664299329109,-1.18030863168,-0.146260736901,0.0434459774896,-0.114543259996,-0.0158625153277,-0.0493918394828,-1.12999240996,0.573947608749,0.818858073094,0.00602871811269,0.0,0.818855168096,-0.573856825007,-0.0120542513766,0.0,-0.00641122345573,0.0118553839893,-0.999909168917,0.0,0.315360066808,-0.19397446997,0.30493203583,1.0,-0.25382,-0.333592,2.121
-0.424468605935,-0.52645923476,-0.141766739994,-2.64529540879,-0.0748867275251,2.11030307589,-0.682011916588,-1.12547009601,-0.107730343209,0.0370974154232,-0.0768454176596,-0.000677525068737,-0.0421126681932,-1.09698294509,0.573963194163,0.818846937821,0.00605731524996,0.0,0.818844383485,-0.573872244998,-0.0120527572464,0.0,-0.00639336135439,0.0118780663086,-0.999909014096,0.0,0.311361594967,-0.199264517664,0.304928875761,1.0,-0.241303428572,-0.31714164898,2.137
-0.446376165847,-0.52824229077,-0.140930837472,-2.64671120611,-0.0749151740935,2.1097246969,-0.703045215012,-1.07803524307,-0.0751312268319,0.0439138436492,-0.062707294155,0.00318013220962,-0.0288778588691,-1.03208994926,0.573991539285,0.818827081236,0.00605563908053,0.0,0.818824336,-0.573900277629,-0.0120799425666,0.0,-0.00641617469499,0.0118925184453,-0.999908696185,0.0,0.306619409802,-0.205489658932,0.3049099928,1.0,-0.225657714286,-0.296578710204,2.157
-0.460942507941,-0.529092317755,-0.140367184488,-2.64740896232,-0.0749094850515,2.10940795535,-0.717027963241,-1.03987565327,-0.0487630606447,0.0321012444091,-0.042423930079,-0.00116850923846,-0.0288782428054,-0.98371674254,0.574032452026,0.818798563675,0.00603349363,0.0,0.8187952818,-0.573940819764,-0.0121230693888,0.0,-0.00646360796737,0.0118994604659,-0.999908308103,0.0,0.303469796708,-0.209618452394,0.304891179028,1.0,-0.214705714286,-0.282184653061,2.171
-0.477717229306,-0.52982217961,-0.139551448521,-2.64798303601,-0.0748553758092,2.10911810155,-0.733182926659,-0.969716820551,-0.0362479074815,0.0518410616057,-0.0273989622747,0.000888620422751,-0.0127762534883,-0.937914594024,0.573953350622,0.818854687947,0.00594123206506,0.0,0.818850385873,-0.573862468269,-0.0121103249354,0.0,-0.00650727153365,0.0118159692369,-0.999909015005,0.0,0.299875021528,-0.214323088908,0.304893529233,1.0,-0.201406857143,-0.264706155102,2.188
-0.493615597558,-0.530166446149,-0.138794551607,-2.6482528538,-0.0747583874468,2.10892625171,-0.748435541833,-0.912435682633,-0.0127096179977,0.0492869852231,-0.0138448029148,0.00308314760518,-0.00711463861222,-0.881880667899,0.573973707235,0.818840990521,0.00586195759702,0.0,0.818835852797,-0.573883515194,-0.0120956217245,0.0,-0.00654043596579,0.0117427759753,-0.999909660874,0.0,0.296478932518,-0.218790372018,0.30490017325,1.0,-0.188108,-0.247227657143,2.205
-0.508314334327,-0.530259231746,-0.137888613094,-2.64833703807,-0.0745324492868,2.10882985706,-0.762699497194,-0.846011011957,-0.00358173094926,0.0495369655412,0.000758901365112,0.0137212168573,-0.00533720609502,-0.823242816136,0.57378228157,0.818975724852,0.00577947755122,0.0,0.818969855897,-0.573693085659,-0.0120567616346,0.0,-0.00655867506407,0.0116513984219,-0.999910610353,0.0,0.293379718306,-0.222851806974,0.30491154103,1.0,-0.174809142857,-0.229749159184,2.222
-0.521482929818,-0.530178572905,-0.137117424862,-2.64831795125,-0.0742353674194,2.10880629585,-0.775274153335,-0.795269625943,0.0117168958381,0.0572920504678,0.00461297617461,0.0206110079386,0.0013600143616,-0.764748088907,0.573827739953,0.81894381715,0.005787582686,0.0,0.818938134424,-0.573738645089,-0.0120435052594,0.0,-0.00654252028421,0.0116507938857,-0.99991072323,0.0,0.290429858547,-0.226686015262,0.304906454779,1.0,-0.161510285714,-0.212270661225,2.239
-0.534294102742,-0.529893072591,-0.136190857316,-2.64816452585,-0.0737988791507,2.10882040988,-0.787633348422,-0.743620248064,0.0224430576167,0.0513141235333,0.00685572238998,0.0204140046873,0.00326179507468,-0.704537783295,0.573764651452,0.818987842672,0.00581250382084,0.0,0.818982427217,-0.57367536469,-0.012046026686,0.0,-0.00653118490472,0.0116721475153,-0.999910548297,0.0,0.287907004888,-0.229949499823,0.304900442653,1.0,-0.148993714286,-0.195820310204,2.255
-0.546300340852,-0.529473077396,-0.135366702228,-2.64791828446,-0.0733635026237,2.10883226302,-0.799021525792,-0.680254317411,0.0317992451486,0.0570069968523,0.0171183939641,0.0262949399937,0.00282654398248,-0.645963492048,0.573889586575,0.818899930513,0.00586456542494,0.0,0.818894719432,-0.573799208015,-0.0121100895381,0.0,-0.00655199463126,0.0117525422095,-0.999909470461,0.0,0.285373476497,-0.233202078457,0.304881749098,1.0,-0.135694857143,-0.178341812245,2.272
-0.557730290922,-0.528907410806,-0.134389834781,-2.64759297691,-0.0728459586246,2.10891212848,-0.810040349823,-0.623373179043,0.0373941566881,0.0563388279747,0.0226568075772,0.0258970485226,0.000624899346122,-0.591482104103,0.573776820069,0.81897873855,0.00589350956515,0.0,0.818973462168,-0.573685545825,-0.0121700318886,0.0,-0.00658610291542,0.0118097375041,-0.999908572495,0.0,0.283003798338,-0.236244422579,0.304855383758,1.0,-0.121613714286,-0.159835167347,2.29
-0.567166524945,-0.528374343479,-0.13365613957,-2.6472315663,-0.0724076433415,2.10900900996,-0.818829957698,-0.575156082002,0.0321459449885,0.0470324680298,0.0266818365768,0.0291859658762,0.00748883495034,-0.534494836909,0.573996128859,0.818824628953,0.00595130042338,0.0,0.818820086317,-0.573904519544,-0.0121661658526,0.0,-0.00654660407227,0.0118566047052,-0.999908277243,0.0,0.281036073506,-0.238778698076,0.304852254499,1.0,-0.109097142857,-0.143384816327,2.306
-0.576442303295,-0.527671314001,-0.132684555455,-2.64674553872,-0.0718707900921,2.10916106729,-0.827731722289,-0.487340008752,0.044739258799,0.0493890313486,0.0256321642085,0.0276796291608,0.00637476389031,-0.464271330692,0.5738730301,0.818910863012,0.00595740429407,0.0,0.818906517173,-0.573781632127,-0.0121450264252,0.0,-0.00652757058802,0.0118484884372,-0.999908497886,0.0,0.279176038763,-0.241221252204,0.304854220648,1.0,-0.0950160000001,-0.124878171429,2.324
-0.583452952238,-0.527133086539,-0.13193180178,-2.64636011197,-0.0714477750955,2.10924866003,-0.834258079776,-0.456364286821,0.0355049809377,0.0523095339718,0.0245357187009,0.0338505485979,0.0045197614344,-0.417710921386,0.573937989924,0.818865310352,0.00596105062818,0.0,0.818861020645,-0.573846578111,-0.0121441574129,0.0,-0.00652382632783,0.0118514934744,-0.999908486709,0.0,0.277672055532,-0.243167234442,0.304859854835,1.0,-0.0824994285715,-0.108427820408,2.34
-0.590478979888,-0.526542043477,-0.131042674935,-2.64591388699,-0.0709384260332,2.10936331386,-0.840654270157,-0.389438227647,0.0363536396028,0.047555350765,0.0296428336859,0.036597976724,0.0018892424091,-0.353696545325,0.57406965943,0.818772948059,0.00596930060899,0.0,0.818769000323,-0.573978611251,-0.0121088743515,0.0,-0.00648829279653,0.0118390436056,-0.999908865399,0.0,0.276383505516,-0.244856803237,0.304878267341,1.0,-0.069982857143,-0.0919774693879,2.356
-0.596987911039,-0.525870195592,-0.130016698818,-2.64545378038,-0.0703451461126,2.10951272726,-0.846729983908,-0.311715664202,0.0326744749367,0.0592968713698,0.0231218789112,0.0314936517318,0.00828502785768,-0.291562165237,0.573977995951,0.818837218151,0.00596801778461,0.0,0.818833294665,-0.573887047081,-0.0121012248223,0.0,-0.00648409000515,0.0118328762568,-0.999908965665,0.0,0.275164241433,-0.246478009128,0.304880071399,1.0,-0.0551194285715,-0.0724426775512,2.375
-0.601432091202,-0.525423518755,-0.129089187797,-2.64517834289,-0.0698252745915,2.10957683303,-0.850800689982,-0.261932529981,0.0252830715272,0.0524013325311,0.0155517044635,0.0363966605251,0.00159349085861,-0.240693460073,0.573865291712,0.81891628765,0.00595715454258,0.0,0.8189118802,-0.573773790559,-0.0121538733252,0.0,-0.00653507150162,0.0118532989011,-0.999908391877,0.0,0.274367694766,-0.247503677822,0.304870317989,1.0,-0.042602857143,-0.0559923265308,2.391
-0.605335340565,-0.525068804042,-0.128121796734,-2.64493901337,-0.0693070616418,2.10963501113,-0.854183536787,-0.210944606752,0.0196782213962,0.0531123395759,0.0138393015384,0.0301659155621,0.00500227696306,-0.177505372163,0.573841584187,0.818933152739,0.00592237316971,0.0,0.818928284928,-0.573750228018,-0.0121608756103,0.0,-0.00656110756873,0.0118286427659,-0.999908513354,0.0,0.273702454587,-0.248361655142,0.304878069187,1.0,-0.0293040000001,-0.0385138285716,2.408
-0.607913417956,-0.524783529771,-0.127315408337,-2.64475478474,-0.0688111574053,2.10975088736,-0.856302158011,-0.157668765178,0.0192852213804,0.0570300267398,0.0157190384859,0.0339582942357,0.00360440934003,-0.127734135881,0.573869089512,0.818913775811,0.00593656396109,0.0,0.818909442894,-0.573778299059,-0.0121051546568,0.0,-0.00650693161348,0.0118085097178,-0.999909105339,0.0,0.273327249764,-0.248889528396,0.304887021616,1.0,-0.0199183783784,-0.0261784401544,2.423
-0.610082361517,-0.524553906907,-0.126692563632,-2.64461822485,-0.0684056170606,2.10976547185,-0.858111285242,-0.1137797543,0.009831821125,0.0285524754378,0.00930446290727,0.0179884902288,-0.000980496255509,-0.100561109848,0.573903680013,0.818889256114,0.00597487992395,0.0,0.818885091444,-0.573812114299,-0.0121495430085,0.0,-0.00652079730005,0.0118656359862,-0.999908338742,0.0,0.272980578879,-0.249331392097,0.304881438339,1.0,-0.0195783783784,-0.0257315830116,2.44
-0.611789781208,-0.524392189555,-0.126224924942,-2.64445890646,-0.0681954149808,2.10977965258,-0.859655965374,-0.103222327092,0.0117697805815,0.0200060552866,0.0132667663829,0.00398912336498,0.00153960545395,-0.0980284699121,0.573804106611,0.818959432671,0.00591960945931,0.0,0.818954813693,-0.573713284459,-0.0121172300901,0.0,-0.00652748696885,0.0118010362549,-0.999909059594,0.0,0.272706372413,-0.249708914916,0.304907121343,1.0,-0.0192583783784,-0.025311011583,2.456
-0.613411540062,-0.524211041228,-0.12591893001,-2.64426359184,-0.0680197368064,2.10986983652,-0.861251893863,-0.0859318970869,0.0104387107159,0.0144991056721,0.0146087623797,0.00646961302465,0.00169805819906,-0.0826691126083,0.573693707901,0.819036864416,0.00590687250113,0.0,0.819032877395,-0.573604409293,-0.0119947608091,0.0,-0.00643606708499,0.0117194672211,-0.999910611569,0.0,0.272436977029,-0.250121495284,0.30494459672,1.0,-0.0189183783784,-0.0248641544402,2.473
-0.615100343717,-0.524003104556,-0.12577536772,-2.64407998253,-0.0678949296268,2.10991712148,-0.862890737708,-0.0897596474408,0.00645229687484,0.00466318866639,0.00876471145062,0.00686151765366,-0.000121578949698,-0.0845258739957,0.573695855014,0.819035141331,0.00593717990333,0.0,0.819031757229,-0.573606814417,-0.0119561701719,0.0,-0.00638703964589,0.0117221698468,-0.999910894259,0.0,0.272101496916,-0.250584640728,0.304959330071,1.0,-0.0185383783784,-0.0243647258687,2.492
-0.616520064669,-0.523872202825,-0.125722825441,-2.64393206232,-0.0678731444159,2.10991639795,-0.864220907949,-0.0838782695766,0.00442144647348,0.00243461489447,0.0153350998439,0.0022923983703,-0.000140620369791,-0.0786287227997,0.573748891774,0.818998046784,0.0059292033362,0.0,0.818994729457,-0.573660185413,-0.0119319610956,0.0,-0.00637102760844,0.0117021610404,-0.999911230777,0.0,0.271790338935,-0.250991237471,0.304979749288,1.0,-0.0182183783784,-0.0239441544402,2.508
-0.618036291156,-0.523686509976,-0.125652278195,-2.64375474071,-0.0678332510087,2.1099398171,-0.86564884885,-0.0858098611938,0.014428078324,0.00860456123674,0.00892295677141,0.000325117634518,-5.48147525996e-05,-0.0816054270582,0.573797487842,0.818964039974,0.00592377214623,0.0,0.818960818979,-0.57370909996,-0.011907665625,0.0,-0.00635355028607,0.0116841508661,-0.999911552597,0.0,0.271469302072,-0.251427429614,0.304995925146,1.0,-0.0178583783784,-0.023471011583,2.526
-0.619231013864,-0.52350711742,-0.125632163713,-2.64361290462,-0.0677984222694,2.10999317632,-0.866918567297,-0.0811430210654,0.0141353016909,0.00202956543455,0.00867377398643,0.000121095704267,0.000483153952842,-0.0787465993424,0.573744164147,0.819001287852,0.00593898192142,0.0,0.818998391968,-0.573655962277,-0.0118835095766,0.0,-0.0063257990496,0.0116823358339,-0.999911749754,0.0,0.271214118938,-0.251783133274,0.304999624427,1.0,-0.0175583783784,-0.0230767258687,2.541
-0.620579438,-0.523310668831,-0.125628289833,-2.64348034304,-0.0677707153855,2.11001008737,-0.868254981964,-0.0773576630826,0.01408503577,-0.000298149015683,0.00403373352807,-0.000166599394344,-0.000985949921001,-0.0735613111074,0.57377021854,0.818982873096,0.0059612744489,0.0,0.818979997647,-0.573681425955,-0.0119219071262,0.0,-0.00634408746796,0.0117228254921,-0.999911160012,0.0,0.2709071913,-0.252177060571,0.304989334088,1.0,-0.0172183783784,-0.0226298687259,2.558
-0.621837783892,-0.523139806594,-0.125619074439,-2.6433761322,-0.0677477862575,2.11000847353,-0.869484990132,-0.0783418959514,0.0130936335035,6.10570452119e-05,0.00454106189585,0.000182568647807,0.000632366199218,-0.0770646385204,0.573800027579,0.818961864931,0.00597821374337,0.0,0.818958850671,-0.573710497449,-0.0119755135992,0.0,-0.00637784776348,0.0117676876543,-0.99991041828,0.0,0.270598039979,-0.252559215558,0.304976475586,1.0,-0.0168783783784,-0.022183011583,2.575
-0.62310745449,-0.5229580082,-0.125591432543,-2.64325117854,-0.0677183156338,2.11003721653,-0.870766356635,-0.0655635904754,0.0061737878227,0.00523487776979,0.00920967650026,0.00339025099412,0.000117911925503,-0.0740859628897,0.573792519147,0.818967027952,0.00599157733579,0.0,0.818964001166,-0.573702591633,-0.0120020018505,0.0,-0.00639198340496,0.0117937720915,-0.999910020696,0.0,0.270331566718,-0.252902741614,0.30496726792,1.0,-0.0165583783784,-0.0217624401544,2.591
-0.624481803368,-0.522745780556,-0.125535447686,-2.64311130473,-0.0676876184502,2.11008005658,-0.872120577809,-0.0709908559066,0.0129760116591,0.00223124602597,0.0079690693825,0.000917135651662,-0.000119378795246,-0.0745688882619,0.573790008608,0.818968812952,0.00598801591087,0.0,0.818965609208,-0.573699855718,-0.0120230356372,0.0,-0.00641129079701,0.0118029040626,-0.999909789334,0.0,0.270033288465,-0.2532958002,0.304957930852,1.0,-0.0161783783784,-0.021263011583,2.61
-0.625558288236,-0.522593820192,-0.125439369272,-2.64300464203,-0.0676626846543,2.1101091133,-0.87325718694,-0.0715868095249,0.00690532455651,0.00817174133401,0.000277268592597,0.000359536833152,0.00569568243545,-0.0752177879727,0.573689084566,0.819039707509,0.00596143224919,0.0,0.819036118474,-0.57359899153,-0.0120324748615,0.0,-0.00643572707267,0.0117857547306,-0.999909834636,0.0,0.269809305403,-0.253590611892,0.304955388871,1.0,-0.0158783783784,-0.0208687258687,2.625
-0.626834226099,-0.522393780468,-0.125379900298,-2.64287027368,-0.0676401731914,2.11013918498,-0.874565593004,-0.0664623197396,0.0107493356362,0.000527431319031,0.00882653954938,-0.000265326999149,0.00164035742876,-0.0736942041807,0.573637208646,0.819076121207,0.00595041399389,0.0,0.819072215877,-0.573546856723,-0.012060481869,0.0,-0.0064657359522,0.0117923869696,-0.999909562845,0.0,0.269531982903,-0.25395368155,0.304946988094,1.0,-0.0154983783784,-0.0203692972973,2.644
-0.627819201652,-0.52223902565,-0.125346384165,-2.64276948789,-0.0676125962683,2.11017268952,-0.87561603867,-0.0653515232049,0.0117681076888,-0.000830948137416,0.00904215251747,0.000385465753187,0.00250416607895,-0.0684850157307,0.573577037918,0.819118212277,0.0059567432625,0.0,0.819114287319,-0.573486485466,-0.0120740299185,0.0,-0.0064740706893,0.0118048671089,-0.999909361653,0.0,0.269316795643,-0.254236111074,0.304939626649,1.0,-0.0151983783784,-0.019975011583,2.659
-0.629130819865,-0.522059690137,-0.125345084471,-2.64264943149,-0.0675772628601,2.11020090322,-0.876930237744,-0.0706881506338,0.00369398285124,0.00173903463466,0.00232322984609,0.00485549563257,7.31985187069e-05,-0.068228872212,0.573595520527,0.81910504596,0.00598743815921,0.0,0.819101344441,-0.573504510734,-0.0120958920527,0.0,-0.00647410807035,0.0118426961528,-0.999908914088,0.0,0.269015109802,-0.25461631271,0.304930775259,1.0,-0.0148183783784,-0.0194755830116,2.678
-0.630090596934,-0.521916451232,-0.125345986883,-2.64254705268,-0.0675588353917,2.11022287308,-0.877806517366,-0.069881370816,0.0115067715531,0.000391630658822,0.00236336797936,0.00574350985267,0.00259274591396,-0.0688176382199,0.573677863145,0.819047272614,0.00600178830777,0.0,0.819043664039,-0.573586602063,-0.0121092209348,0.0,-0.00647560369381,0.0118627470713,-0.999908666723,0.0,0.268796314802,-0.254899121682,0.304926546171,1.0,-0.0145383783784,-0.0191075830116,2.692
-0.631217133119,-0.521754038426,-0.125349908904,-2.6424179168,-0.067537085222,2.11026314532,-0.878913025823,-0.0635252779853,0.0129245055066,0.000412430046054,0.00826690622346,1.70345842854e-05,0.00350933471993,-0.0731714948015,0.573713101868,0.819022466762,0.00601852010492,0.0,0.819019150472,-0.573621897312,-0.0120953290966,0.0,-0.00645411561316,0.011868760508,-0.999908734293,0.0,0.26854308956,-0.25523579932,0.304928917866,1.0,-0.0141983783784,-0.0186607258687,2.709
-0.632352075968,-0.521594109286,-0.125338804558,-2.64227648596,-0.0675114521203,2.1102962302,-0.880096118508,-0.0620437687926,0.00765988923072,0.0020029986945,0.00862288180263,0.00202764766837,0.000268429913375,-0.0618724748315,0.573684076012,0.819042706442,0.0060309912099,0.0,0.819039676747,-0.573593052496,-0.012073315403,0.0,-0.00642935005064,0.0118661183419,-0.999908925199,0.0,0.268292621758,-0.255572917934,0.3049375269,1.0,-0.0138383783784,-0.0181875830116,2.727
-0.633382493189,-0.521435028116,-0.125287402957,-2.64215640978,-0.0674817186307,2.11032581321,-0.881101539428,-0.0540594565004,0.00330894566091,0.00602490665287,0.0119341445663,0.00369716926873,0.00247472049975,-0.0523285145746,0.573687160107,0.819040569803,0.00602778955797,0.0,0.819037483552,-0.573596122291,-0.012076254844,0.0,-0.00643354979781,0.0118652063791,-0.999908909009,0.0,0.268071921796,-0.255866579218,0.304937394379,1.0,-0.0134983783784,-0.0177407258687,2.744
-0.634268887963,-0.521277717344,-0.125233180021,-2.6420554442,-0.0674666624773,2.11034784853,-0.882028332514,-0.0564631670852,0.0101077033726,0.000173892895215,0.00905822178959,-0.000127534093273,0.00143650492804,-0.0659563530785,0.573627525746,0.819082445342,0.00601301429305,0.0,0.819078988218,-0.573536235957,-0.012105536131,0.0,-0.00646687505938,0.0118694309253,-0.999908643895,0.0,0.267881478185,-0.256116515474,0.30492863308,1.0,-0.0131983783784,-0.0173464401544,2.759
-0.635234514066,-0.521116035844,-0.125175763239,-2.64195324603,-0.0674453598077,2.11036985186,-0.883052966904,-0.060371920656,0.0144842085808,0.000574004461432,0.00825857147787,0.00166273667748,0.00106603965304,-0.0616255321774,0.573553115995,0.819134623999,0.00600314922868,0.0,0.819130837516,-0.573461517028,-0.0121369855951,0.0,-0.00649937520142,0.011878799266,-0.999908321923,0.0,0.267671910793,-0.256386406669,0.304918894273,1.0,-0.0128583783784,-0.0168995830116,2.776
-0.63628044449,-0.520936396375,-0.125135196262,-2.64183977347,-0.067425896381,2.11039420664,-0.884084008156,-0.0558388040635,0.0104009893816,0.00235980646523,0.00403284076184,-0.000209887056939,-4.41588453196e-05,-0.0536906568536,0.573550994757,0.819136139732,0.00599899146234,0.0,0.819132070056,-0.573458996809,-0.0121728257059,0.0,-0.00653115157739,0.011895931621,-0.999907911195,0.0,0.267440289545,-0.256684393322,0.304907468971,1.0,-0.0124783783784,-0.0164001544402,2.795
-0.637120676912,-0.520807868808,-0.125132606493,-2.64174376808,-0.0674153889296,2.11041669981,-0.884922335359,-0.057980564397,0.00857724354135,-0.000868560614217,0.00272327735647,0.000963814280569,0.00295325518148,-0.0547015964992,0.573560271627,0.819129599625,0.00600505871073,0.0,0.81912556864,-0.573468171045,-0.0121781156576,0.0,-0.00653187072574,0.0119040096447,-0.99990781036,0.0,0.267249049132,-0.256932667129,0.304905826597,1.0,-0.0121783783784,-0.0160058687259,2.81
-0.638121316064,-0.520653094953,-0.125131894251,-2.64162505044,-0.0673998785411,2.11044082554,-0.885933393409,-0.0588264166726,0.00753889134488,-0.000390801768434,0.0105440231537,-0.000327540161286,-0.000125934942772,-0.0554731886917,0.573564098021,0.819126840837,0.00601589413131,0.0,0.819122900396,-0.573471855633,-0.0121840775427,0.0,-0.00653048470734,0.0119163355217,-0.999907672596,0.0,0.267021313362,-0.257229087069,0.304904946419,1.0,-0.0118183783784,-0.0155327258687,2.828
-0.639065890025,-0.520512399371,-0.125131135846,-2.64150252142,-0.0673915696176,2.11046840486,-0.886840806367,-0.0549339779272,0.011476650024,9.92779066482e-05,0.006165001757,-0.000187531950062,0.00296857899115,-0.0574044443212,0.573603898595,0.819098954315,0.00601809416788,0.0,0.81909513652,-0.57351180959,-0.0121699832177,0.0,-0.00651709792551,0.0119103707951,-0.999907831004,0.0,0.266808819178,-0.257512760526,0.304911259142,1.0,-0.0114783783784,-0.0150858687259,2.845
-0.639963314737,-0.520371330745,-0.125133301272,-2.64138297759,-0.0673828152727,2.11051277936,-0.887695732816,-0.0489520287252,0.00965557812506,-0.000190606395767,0.00488381758569,0.00024579263137,0.00148260496701,-0.0572931076422,0.573650182099,0.819066525404,0.00602016956624,0.0,0.819062914684,-0.573558403598,-0.0121427490004,0.0,-0.00649292539577,0.0118968168577,-0.999908149616,0.0,0.266609573897,-0.257785854866,0.304917436333,1.0,-0.0111383783784,-0.014639011583,2.862
-0.640771713537,-0.5202548036,-0.12512763573,-2.6412773586,-0.0673773353755,2.11055123955,-0.888490823223,-0.0459808900494,0.00247843147917,0.000861771303803,0.00619567494546,-0.000386204482713,-1.64930899305e-06,-0.0459119515308,0.573664845767,0.819056281373,0.0060166082246,0.0,0.819052833197,-0.573573463032,-0.0121113928903,0.0,-0.00646907015752,0.0118760289974,-0.999908551352,0.0,0.266430804854,-0.258029741999,0.304925986101,1.0,-0.0108183783784,-0.0142184401544,2.878
-0.641539431322,-0.52013700651,-0.125109216895,-2.64117329275,-0.0673690700442,2.11057066683,-0.889299487196,-0.0492161339327,0.0068421559937,0.000401831585735,0.00802732218833,-0.000125509916538,3.38344013042e-05,-0.053931041687,0.573627162608,0.819082711385,0.00601141661665,0.0,0.819079260349,-0.573535929204,-0.0121016560461,0.0,-0.00646461829532,0.0118658937518,-0.99990870047,0.0,0.266261899036,-0.258256527112,0.304932038168,1.0,-0.0104983783784,-0.0137978687259,2.894
-0.642341887861,-0.520015846162,-0.125103573058,-2.6410880537,-0.0673625787145,2.11059207151,-0.890100294545,-0.0434715741535,0.00689380682981,0.0012360592709,0.005043363127,0.00149602852313,-0.000755910057901,-0.0430919516405,0.573631807551,0.819079443188,0.00601348597969,0.0,0.819075950735,-0.57354043871,-0.0121119359518,0.0,-0.00647178497027,0.0118735220611,-0.999908563556,0.0,0.266076789475,-0.258490858192,0.30492815966,1.0,-0.0101583783784,-0.013351011583,2.911
-0.643225473186,-0.519894748164,-0.125085458725,-2.64100165399,-0.067350488267,2.1106225722,-0.890914971477,-0.0479943990027,0.00748422430859,-0.000940731115136,0.00251296183134,-0.000344779249131,0.0013191736346,-0.0401087567037,0.573685133676,0.819042096649,0.00601317033434,0.0,0.819038608606,-0.573593770706,-0.012111594505,0.0,-0.00647091329631,0.011873488978,-0.999908569591,0.0,0.265875397019,-0.258744882872,0.304925901495,1.0,-0.00977837837838,-0.0128515830116,2.93
-0.643866353852,-0.519804213586,-0.125068340105,-2.64094170403,-0.0673411580706,2.11063863767,-0.891526961016,-0.044345560645,0.0106877251873,0.00126956853122,0.00458431628163,0.00263884772772,0.00194987720573,-0.0412109102568,0.573703844783,0.819028993059,0.00601281223471,0.0,0.819025431279,-0.573612352778,-0.0121226466057,0.0,-0.00647990042805,0.0118796838211,-0.99990843781,0.0,0.265728431916,-0.258926521441,0.304921610217,1.0,-0.00949837837838,-0.0124835830116,2.944
-0.6446992139,-0.519701965231,-0.125054929688,-2.64086113116,-0.0673321043278,2.11066427065,-0.892375330154,-0.0400342883147,0.00510365670579,-0.000723075802129,0.00428464896598,0.000613860150456,0.00213032095994,-0.0385600874278,0.573689707223,0.819038891482,0.00601339900782,0.0,0.819035390672,-0.57359831341,-0.0121140654078,0.0,-0.00647273979448,0.0118751298758,-0.999908538282,0.0,0.265536789999,-0.259166301215,0.304923104728,1.0,-0.00911837837838,-0.0119841544402,2.963
-0.645377066176,-0.519603143764,-0.12503751469,-2.64079859449,-0.0673171766891,2.11068498537,-0.893021083072,-0.0417175561247,0.0092377886676,0.00347917249005,0.00292147437551,0.000311485775936,0.000366463835823,-0.0377047022541,0.573713376746,0.819022281819,0.0060174852354,0.0,0.819018757906,-0.573621820077,-0.0121255363117,0.0,-0.00647944833475,0.0118852444933,-0.999908374659,0.0,0.265381664628,-0.259358095687,0.304917340911,1.0,-0.00879837837838,-0.0115635830116,2.979
-0.646026751776,-0.519522474142,-0.125016635603,-2.6407140008,-0.0673084382924,2.11070071247,-0.893633070044,-0.0427505703255,0.00496258050879,-0.000501526974932,0.00949551060687,0.000176813822244,0.00324714484027,-0.0363524667934,0.573737471769,0.819005450859,0.00601097756838,0.0,0.819001999136,-0.573646226483,-0.0121028572785,0.0,-0.00646425593947,0.0118670938598,-0.99990868857,0.0,0.265238615097,-0.25954744597,0.304927928746,1.0,-0.00847837837838,-0.011143011583,2.995
-0.646652427554,-0.519420752176,-0.125003027739,-2.64062420309,-0.0672952827084,2.11072019636,-0.894232065724,-0.0378436109879,0.0101874492889,-0.0007893444015,0.00412657455131,0.00051640513593,0.00175016066589,-0.0326047641331,0.573759919978,0.81898972292,0.00601122937178,0.0,0.818986347433,-0.573668802916,-0.0120919055562,0.0,-0.00645481589847,0.0118611939158,-0.999908819558,0.0,0.265101809287,-0.259732996759,0.304933281963,1.0,-0.00815837837838,-0.0107224401544,3.011
-0.647361019018,-0.519312509935,-0.124973637543,-2.64052037426,-0.0672825583842,2.11075611896,-0.894941260872,-0.0323928136827,0.000608701985953,0.00379041935169,0.00351683806105,0.000912445463992,-0.000368366721255,-0.0408192934754,0.573749313639,0.818997228115,0.00600102822214,0.0,0.81899395592,-0.573658676637,-0.0120569393912,0.0,-0.00643218187204,0.0118326943596,-0.999909303077,0.0,0.264952408997,-0.259942814056,0.304944382007,1.0,-0.00777837837838,-0.010223011583,3.03
-0.647972771267,-0.519194595704,-0.124961703469,-2.6404428057,-0.0672699393587,2.11078620958,-0.895528335987,-0.0333979904288,0.0045943399055,-0.000528007291447,0.00441144686809,-8.26680112542e-05,0.00376942131642,-0.033099368679,0.573770578728,0.818982318318,0.00600268018232,0.0,0.818979023842,-0.573679849732,-0.0120638061476,0.0,-0.00643655118505,0.0118381541123,-0.999909210337,0.0,0.264817048472,-0.260123030957,0.304939076145,1.0,-0.00743837837838,-0.00977615444016,3.047
-0.648514093676,-0.519127047544,-0.124957235969,-2.64039188317,-0.0672565456515,2.11080157941,-0.896064381418,-0.0306280412016,0.0018564490378,-0.00132979021208,4.21576577606e-05,-0.000526461571977,-0.000365742492276,-0.0381618490447,0.573780116105,0.818975570308,0.00601169705503,0.0,0.818972399247,-0.573689357747,-0.0120613838954,0.0,-0.00642925591504,0.0118442242506,-0.999909185386,0.0,0.264691008051,-0.260278058527,0.304938770652,1.0,-0.00711837837838,-0.00935558301159,3.063
-0.649022665913,-0.519038780273,-0.12495005126,-2.64035172839,-0.0672441778332,2.11081423655,-0.896560738892,-0.0297519313701,0.001641826262,0.00122084033744,0.000287949582,0.00152784199454,-0.000543501538288,-0.034930934912,0.573792572922,0.818966776889,0.00602067379989,0.0,0.818963507659,-0.573701377416,-0.0120933690785,0.0,-0.0064501228288,0.0118700260272,-0.999908745035,0.0,0.264570537762,-0.260420380202,0.304925775062,1.0,-0.00679837837838,-0.00893501158302,3.079
-0.649540459377,-0.518981078376,-0.12493195037,-2.64031058605,-0.0672298317475,2.11082314653,-0.897060455602,-0.0275278552046,-0.00107767441047,0.0037456089499,0.00251045364777,-0.000462321155333,0.000462197186452,-0.0332318492274,0.573802832761,0.818959555975,0.00602508873518,0.0,0.818956313263,-0.573711558952,-0.0120975614252,0.0,-0.00645087468143,0.0118761281252,-0.999908667728,0.0,0.264450460424,-0.260562745549,0.304924419198,1.0,-0.00645837837838,-0.00848815444016,3.096
-0.650110072762,-0.518906432156,-0.124902190347,-2.64026244235,-0.0672124529217,2.11084588064,-0.897605466677,-0.0313738418711,0.00560771962734,0.00434830263578,0.00219033845323,0.000698664667037,0.00201961680292,-0.0366104517839,0.573811854475,0.818953236007,0.00602493140153,0.0,0.818949991502,-0.573720579933,-0.0120977056327,0.0,-0.00645095223924,0.0118761530768,-0.999908666931,0.0,0.264323027407,-0.260719346198,0.304921460506,1.0,-0.00607837837838,-0.00798872586873,3.115
-0.650515993769,-0.518838913156,-0.124889504777,-2.64019958096,-0.0672040664277,2.11085217757,-0.897996139309,-0.0291721398472,0.0057257588853,0.00199975223327,0.00444062329322,-9.23737211269e-05,-0.00058042057529,-0.0250514048257,0.573822147556,0.818946036893,0.00602316628401,0.0,0.818942796666,-0.573730928711,-0.0120939708476,0.0,-0.00644875686857,0.0118726455509,-0.999908722745,0.0,0.264234612038,-0.260838865059,0.304926000618,1.0,-0.00579837837838,-0.00762072586873,3.129
-0.650964900338,-0.518774786322,-0.124876523342,-2.64012115845,-0.0671880108279,2.11086942421,-0.898449100727,-0.0286391545149,0.00562114318575,-0.000739225803435,0.00348258336933,-4.73685432391e-05,1.29495633379e-05,-0.0260385001539,0.573820387978,0.818947257573,0.00602482824562,0.0,0.818944258522,-0.573729567134,-0.0120595244673,0.0,-0.00641961598622,0.0118542277396,-0.999909128779,0.0,0.2641410566,-0.260974457273,0.304939804653,1.0,-0.00545837837838,-0.00717386872587,3.146
-0.651387841147,-0.518702900158,-0.124860701937,-2.64004757363,-0.0671714442154,2.11088716717,-0.898881670814,-0.0252367493406,0.00542929908665,0.00147672644344,0.00100482077668,0.000286732585645,0.000761778097667,-0.019611222885,0.57381207827,0.818953069769,0.00602621345937,0.0,0.818950229042,-0.573721512584,-0.0120372443696,0.0,-0.00640069316019,0.0118425131063,-0.9999093889,0.0,0.264053675029,-0.261101184964,0.304948661499,1.0,-0.00511837837838,-0.00672701158302,3.163
-0.651769023314,-0.518662070538,-0.124834741472,-2.64000229994,-0.067153741433,2.11089611009,-0.899246233531,-0.0166979865339,0.00203842007545,0.00450228301992,0.00385499356938,5.56038444377e-05,-0.00051396528085,-0.0183817391262,0.573817104798,0.818949544673,0.00602664264596,0.0,0.818946812647,-0.573726727168,-0.0120211268116,0.0,-0.00638717334061,0.0118336558039,-0.999909580216,0.0,0.263972269715,-0.261206553856,0.304955580507,1.0,-0.00479837837838,-0.00630644015445,3.179
-0.652187824358,-0.518615906397,-0.124810259541,-2.6399736728,-0.06712724772,2.11090892436,-0.899650972909,-0.0230509846393,0.00253369661905,0.00201019891104,0.00207996735247,0.000685034808597,0.000637347053905,-0.0218387567313,0.573824088499,0.818944567926,0.0060379652187,0.0,0.818941966305,-0.573733630374,-0.0120218177961,0.0,-0.00638114153246,0.0118433797694,-0.999909503599,0.0,0.263878135659,-0.261317434395,0.304953271547,1.0,-0.00441837837838,-0.00580701158302,3.198
-0.652520611006,-0.518577974163,-0.124772889471,-2.63995480673,-0.0671054875004,2.11092518791,-0.899984975032,-0.0190443360641,0.00276507950364,0.00205764128483,0.00339633518262,-0.000157964434697,0.000133546106919,-0.0285045641957,0.573806904915,0.81895660201,0.0060387745441,0.0,0.818954009305,-0.573716443959,-0.012021625296,0.0,-0.0063807679953,0.0118437982571,-0.999909501026,0.0,0.263807325303,-0.26140137583,0.304950153794,1.0,-0.00407837837838,-0.00536015444016,3.215
-0.652789513715,-0.518535010262,-0.124736468496,-2.63993987679,-0.0670842499486,2.11093119835,-0.900276777941,-0.0151169462909,0.00436412333428,0.00174272776168,-0.00169653830816,0.00470073322905,-0.00015228185386,-0.0208644460783,0.573772261495,0.818980857041,0.00604107939391,0.0,0.818978165224,-0.573681558515,-0.0120408142604,0.0,-0.00639566367695,0.0118564256193,-0.999909256212,0.0,0.263750305474,-0.261466168596,0.304942495967,1.0,-0.00377837837838,-0.00496586872588,3.23
-0.653049632501,-0.518485136098,-0.124707675991,-2.63990770474,-0.0670620707977,2.11093608512,-0.900530342128,-0.0154152364359,0.00529127106334,0.00299579457361,0.000750557284771,0.00238803293381,-9.88847494216e-05,-0.0183441341536,0.573768383265,0.818983542571,0.00604535064861,0.0,0.818980835859,-0.573677532237,-0.012050991824,0.0,-0.00640160538467,0.011865732875,-0.999909107785,0.0,0.263697601004,-0.261534357445,0.304939851039,1.0,-0.00345837837838,-0.0045452972973,3.246
-0.653331140607,-0.518421941934,-0.124666131891,-2.63987190612,-0.0670335766243,2.11094615885,-0.900839630421,-0.013145962296,0.00515747393079,0.00302473236153,0.000832551342273,0.00384679656504,0.000119350146532,-0.0145654146897,0.573730257776,0.819010226326,0.00604875080809,0.0,0.819007465538,-0.573639217942,-0.0120650708369,0.0,-0.00641173915957,0.0118762969259,-0.999908917438,0.0,0.263643993096,-0.26160619304,0.304934692828,1.0,-0.00307837837838,-0.00404586872588,3.265
-0.653528374462,-0.518376967296,-0.124637262028,-2.63984395379,-0.0670164051589,2.11095204427,-0.901044024009,-0.0125646523809,0.00489586682684,0.00425899029839,-0.000139265215529,0.00253838471457,0.000446790508511,-0.00823706856487,0.573712734934,0.81902250307,0.0060484825966,0.0,0.819019677916,-0.573621587216,-0.0120743019132,0.0,-0.00641970838773,0.0118812357918,-0.999908807632,0.0,0.263606576363,-0.261657412014,0.304932017359,1.0,-0.00277837837838,-0.00365158301159,3.28
-0.653742660294,-0.518334602444,-0.124608466297,-2.63981845353,-0.0669918354841,2.11095899526,-0.901258502743,-0.0112964505714,0.00339174707854,-9.16932885751e-05,0.00454344492302,0.000367375824236,2.2769387577e-05,-0.0114373078467,0.573704000113,0.819028575165,0.006054768332,0.0,0.819025777436,-0.573612726326,-0.0120815145217,0.0,-0.00642213710038,0.0118904534769,-0.999908682466,0.0,0.263565000859,-0.261711952578,0.304929282231,1.0,-0.00243837837838,-0.00320472586873,3.297
-0.653968822765,-0.518300435737,-0.124571390823,-2.63980659971,-0.0669713239062,2.11096694257,-0.901489594654,-0.0169836903008,0.00154898722043,0.00105940096338,-0.000940811174261,0.000209600693456,0.0046958588151,-0.00970362408861,0.573683109563,0.819043203896,0.00605531619092,0.0,0.819040333474,-0.57359169005,-0.0120934754968,0.0,-0.00643192370387,0.0118975998864,-0.999908534554,0.0,0.263518970025,-0.261764991502,0.304923643652,1.0,-0.00205837837838,-0.0027052972973,3.316
-0.654135754306,-0.518285095385,-0.12454005232,-2.63979630263,-0.0669504894486,2.11096412793,-0.901655047594,-0.0104514163951,-0.000122678733942,0.00242148374833,-0.000502922472819,0.00066473631796,0.000108253005929,-0.0136196827064,0.573671521543,0.819051294173,0.00605886006684,0.0,0.81904842846,-0.573580012358,-0.0120990975737,0.0,-0.00643466438131,0.0119036367123,-0.999908445073,0.0,0.26348557452,-0.261802037841,0.30492318,1.0,-0.00173837837838,-0.00228472586873,3.332
-0.654307674032,-0.51827354324,-0.124523043425,-2.63979099213,-0.0669366953204,2.11096725785,-0.901802413517,-0.00686391294845,0.000791956563946,0.00125821858197,-0.000145043540783,0.000156642715691,3.08584233704e-05,-0.0117878436967,0.57368574577,0.819041298906,0.00606322415968,0.0,0.819038478159,-0.57359419257,-0.0121004316916,0.0,-0.00643304697987,0.0119080883352,-0.999908402474,0.0,0.263446977839,-0.261843845249,0.304922012227,1.0,-0.00139837837838,-0.00183786872588,3.349
-0.654453249519,-0.518266217785,-0.124512398898,-2.63978783718,-0.0669228682033,2.11096811092,-0.90191739847,-0.00469485130053,0.00156334718854,0.000192924895488,-0.000362148210329,0.000755470830401,0.000147784369652,-0.0133345549748,0.573709326603,0.819024725565,0.00607078111608,0.0,0.819021987473,-0.573617706194,-0.0121019865005,0.0,-0.00642964242426,0.0119153551485,-0.999908337804,0.0,0.263413124644,-0.261879286839,0.304921078406,1.0,-0.00109837837838,-0.00144358301159,3.364
-0.654595768283,-0.518275516728,-0.124493555043,-2.6397814098,-0.0669041526066,2.1109708416,-0.901997267255,-0.00884684801276,-0.00288037226134,0.000664162814131,-0.000521233505344,0.000661391851264,-8.07320547907e-05,-0.00488402713688,0.573755499864,0.81899233743,0.00607655395221,0.0,0.818989803137,-0.573664083239,-0.0120817573795,0.0,-0.00640908935912,0.0119088397517,-0.999908547373,0.0,0.263383717812,-0.261913031257,0.30492811162,1.0,-0.000738378378384,-0.000970440154447,3.382
-0.654669776289,-0.518267076753,-0.124491664633,-2.63977019362,-0.0668910895547,2.11097284444,-0.90203885207,-0.00551821485633,-0.000245911769307,0.000195126453536,0.000852016660522,-0.000282408717842,0.000245022376715,-0.00135028802836,0.573786840857,0.818970312985,0.00608560678723,0.0,0.818967929071,-0.573695438795,-0.0120756597833,0.0,-0.00639844520599,0.0119130008282,-0.999908565975,0.0,0.263368615557,-0.261933818282,0.304930321616,1.0,-0.000378378378384,-0.000497297297304,3.4
-0.654686971752,-0.518267635454,-0.124477160603,-2.63977020285,-0.0668747344114,2.11097561286,-0.902060110675,-0.000154941498451,-0.00115879718928,0.00315840498884,-0.000619283351575,0.000114160052517,-0.000279323262432,-0.000404069567992,0.573776142457,0.818977756404,0.00609259907232,0.0,0.818975440723,-0.573684669801,-0.0120778321069,0.0,-0.00639636830398,0.0119198904208,-0.999908497156,0.0,0.263368942846,-0.261934464146,0.304928385691,1.0,-7.83783783837e-05,-0.000103011583019,3.415
-0.65468528649,-0.518261361162,-0.124458582904,-2.63977162472,-0.0668608197834,2.11097374849,-0.902083748232,7.29762512267e-05,0.00267043120688,0.000195177742799,0.000342387183919,9.47897697106e-05,-0.00056181052744,-0.00116792887601,0.573752175146,0.818994524094,0.00609572970921,0.0,0.818992233041,-0.573660663859,-0.0120793981753,0.0,-0.00639620375498,0.011923165822,-0.999908459157,0.0,0.263374210026,-0.261927305581,0.304928438784,1.0,0.0,0.0,3.431
-0.654679024039,-0.51826102873,-0.124417630441,-2.63976637793,-0.0668501190273,2.11097562758,-0.902088994176,-0.000384159241108,-0.000140079988688,0.00515283774516,0.000987299132131,0.000138894208391,-0.00537957555453,-0.000932890660725,0.573718495938,0.819018207617,0.00608357730329,0.0,0.819015812078,-0.573627144618,-0.0120725069565,0.0,-0.0063980211131,0.0119089958237,-0.999908616397,0.0,0.263387272652,-0.261917267887,0.304931828583,1.0,0.0,0.0,3.448
-0.654674485736,-0.518255690537,-0.124381030349,-2.63977133167,-0.0668435186595,2.11098140685,-0.902096102247,0.000776946297357,0.00352995762768,0.00161717680003,-0.00122856377841,0.00285501422212,0.000553183874512,-0.000233850413444,0.573685594156,0.819041344249,0.00607143881209,0.0,0.819038771125,-0.573594266013,-0.0120770978832,0.0,-0.00640922339324,0.0119014299978,-0.999908634736,0.0,0.263396731198,-0.261906884213,0.304928967521,1.0,0.0,0.0,3.466
-0.654674242902,-0.518253994468,-0.124362443879,-2.63976710605,-0.0668380165176,2.11098058783,-0.902102458814,-4.94331970291e-05,-0.00101185445057,0.000155263018571,0.000442776129018,-1.48864384937e-05,-9.49386472961e-06,-0.000711221838169,0.573669549478,0.819052618865,0.0060665009464,0.0,0.819049996921,-0.573578274808,-0.0120752686281,0.0,-0.00641079067394,0.0118962105341,-0.9999086868,0.0,0.263402160648,-0.261903160212,0.304930632208,1.0,0.0,0.0,3.484
-0.654671458842,-0.518249641285,-0.124361736817,-2.63977095391,-0.0668342847668,2.1109810176,-0.902093890804,-0.000635684451255,-0.000154819545397,0.000246323372463,-8.77158531047e-05,-0.000558505902356,-7.9656754253e-05,-0.000677186462133,0.573675221169,0.81904862099,0.00606992357627,0.0,0.819045992794,-0.573583836176,-0.0120826928674,0.0,-0.00641482638602,0.0119033172605,-0.999908576341,0.0,0.26340247074,-0.261900892039,0.304927335813,1.0,0.0,0.0,3.501
-0.654676748556,-0.518246121247,-0.12436631579,-2.63976376054,-0.0668304788139,2.11098307408,-0.902102463116,-0.000233102337866,-9.639549387e-05,-0.00254114663492,0.000223639257999,6.63827172797e-05,0.000115517260207,0.000287126785728,0.573677752025,0.819046815594,0.00607433929043,0.0,0.819044279623,-0.573586411826,-0.0120765511134,0.0,-0.00640722561392,0.0119034307212,-0.999908623724,0.0,0.263402316119,-0.261904979575,0.304929377549,1.0,0.0,0.0,3.516
-0.654680009693,-0.518248600193,-0.124366731185,-2.63976590056,-0.0668282897601,2.11098226198,-0.902104922553,3.04787582089e-05,-0.00137281588572,-0.0014119706961,-0.000764823604256,0.000233110094432,-0.000323626275235,-0.000712637723237,0.573679527829,0.819045554011,0.00607673477801,0.0,0.819043045438,-0.573588169828,-0.0120767567648,0.0,-0.00640599409044,0.0119055246957,-0.999908606684,0.0,0.263401005425,-0.26190508515,0.304929240885,1.0,0.0,0.0,3.534
-0.654681692878,-0.5182518046,-0.124359239481,-2.63976041453,-0.0668296515998,2.11098779174,-0.902107980216,1.18834516006e-05,-0.00104065568028,0.00102440135923,0.000950815649368,9.96881773406e-05,-0.000192542728289,-0.0019721746812,0.573672736892,0.819050358217,0.00607030084413,0.0,0.819047860875,-0.573581584676,-0.0120629273819,0.0,-0.00639845540577,0.0118922684504,-0.999908812702,0.0,0.263404281448,-0.261906280702,0.304933560682,1.0,0.0,0.0,3.551
-0.654680026811,-0.518244009554,-0.124361052822,-2.63976018399,-0.0668288835287,2.11098784415,-0.902105639154,0.00114259815719,0.00207414048906,0.000580356839187,0.000294267092162,0.000431928445695,-3.24338650587e-05,-0.000592408166145,0.573674952432,0.819048792946,0.00607211880101,0.0,0.819046270053,-0.573583700443,-0.0120703354832,0.0,-0.00640344862277,0.0118980244633,-0.999908712263,0.0,0.263404277104,-0.261906092747,0.304930755979,1.0,0.0,0.0,3.567
