nelsonifechukwu/NELSON_IML_WORK/CNN-GradCAM/train2dof/data_sample_2022-02-22-08-05-32/robot_state.csv
position_joint1,position_joint2,position_joint3,position_joint4,position_joint5,position_joint6,position_joint7,velocity_joint1,velocity_joint2,velocity_joint3,velocity_joint4,velocity_joint5,velocity_joint6,velocity_joint7,ee_T_00,ee_T_10,ee_T_20,ee_T_30,ee_T_01,ee_T_11,ee_T_21,ee_T_31,ee_T_02,ee_T_12,ee_T_22,ee_T_32,ee_T_03,ee_T_13,ee_T_23,ee_T_33,v_x,v_y,time
0.465069458568,0.547705390733,-0.124011276566,-1.35581431356,0.079519843502,1.89413640498,0.159125444054,0.00331428889237,0.000484132459214,-0.000747911472021,-0.000521688825736,1.00743899839e-05,5.07942915016e-06,-0.00188709459677,0.573801826671,0.818979830372,0.00206108084928,0.0,0.81893813143,-0.573742804213,-0.0118439184509,0.0,-0.00851756400715,0.00848412308714,-0.999927732768,0.0,0.661695751598,0.260883401251,0.303280873301,1.0,0.0,0.0,0.0
0.46506201671,0.547695160484,-0.124006722638,-1.35581669766,0.0795192375316,1.89413780442,0.159123670378,-0.00236216599762,-0.00635459376575,0.00108763608935,-9.08491228029e-05,-0.000216734216111,-0.000124264280918,-0.00149263656138,0.573803247623,0.818978812141,0.00207006818056,0.0,0.818937212686,-0.57374417161,-0.011841204434,0.0,-0.00851016983538,0.00848994088351,-0.999927746346,0.0,0.661696685354,0.260880962498,0.303286955523,1.0,-0.00026,-0.000341714285714,0.014
0.465069080139,0.54769302665,-0.124004524221,-1.35581738042,0.0795198478831,1.89413758252,0.159127691444,0.0005931377601,-0.00109000960753,0.00165773740731,-0.00186740130145,0.000158928664964,3.73320038707e-05,6.83072654065e-05,0.573799413341,0.818981493572,0.00207203705356,0.0,0.818939902155,-0.573740312383,-0.0118421917659,0.0,-0.00850988855497,0.00849208000873,-0.999927730576,0.0,0.661694159253,0.260886939712,0.303288051262,1.0,-0.0006,-0.000788571428571,0.031
0.465065869198,0.54766648076,-0.12400730825,-1.35584421156,0.0795191192421,1.89414103518,0.159129299367,-7.40087609923e-05,-0.00613257095764,0.000498808098399,-0.00437592816302,-0.000242492179062,-0.000856598263853,0.0013008125867,0.573806553838,0.818976483208,0.00207500004531,0.0,0.818934928747,-0.573747438562,-0.0118408666815,0.0,-0.00850702917858,0.00849382045156,-0.999927740124,0.0,0.66169091704,0.260880484458,0.3032944766,1.0,-0.00094,-0.00123542857143,0.048
0.465068780546,0.547563801982,-0.124004534283,-1.35595436327,0.0795183889597,1.89416594273,0.159125280282,0.0015245967307,-0.0075168440101,0.00122751053188,-0.0113563559133,-0.000279275465505,0.00345185335832,-0.00172903301995,0.573804750698,0.818977695133,0.00209519734257,0.0,0.818936316625,-0.573745468179,-0.0118403529415,0.0,-0.0084950385372,0.00851004780691,-0.99992770409,0.0,0.661671992122,0.260873865454,0.303316855655,1.0,-0.00126,-0.001656,0.064
0.465054560719,0.547423501097,-0.124007318331,-1.35614413879,0.0795184140942,1.89419842883,0.159127318483,-0.0016666408229,-0.0024026616666,0.000496640448613,-0.00910398501614,0.000285953190826,0.000272853011988,0.00197782231486,0.573830356798,0.818959772206,0.00208806754006,0.0,0.818918163565,-0.573770962174,-0.0118604911255,0.0,-0.00851535653588,0.00851603024965,-0.999927480336,0.0,0.661643013238,0.260844367348,0.303328826984,1.0,-0.00162,-0.00212914285714,0.082
0.46504390415,0.547271742514,-0.124009850412,-1.35635252252,0.0795125571102,1.89429872668,0.159120279212,0.000255304321739,-0.0118567641745,-0.00031446612517,-0.0125093711404,-4.11094289435e-05,0.00772769004662,0.000126900794331,0.573845337193,0.818949173852,0.00212756447926,0.0,0.818908064297,-0.573785768028,-0.01184151762,0.0,-0.0084769980618,0.00853764375702,-0.999927621952,0.0,0.661622938048,0.260818977406,0.303345925374,1.0,-0.00194,-0.00254971428571,0.098
0.465029282974,0.547081385623,-0.124008133982,-1.35657123469,0.0795135045627,1.89441689116,0.15910663128,-0.00282621533082,-0.00940079625631,-0.00064970120593,-0.01171739173,0.000415208061336,0.00811897793969,-0.00103111391531,0.573857595073,0.818940361091,0.00221188909281,0.0,0.818900267924,-0.573797611498,-0.0118067410759,0.0,-0.00840000184769,0.00858686993403,-0.999927850214,0.0,0.66160474979,0.260795027022,0.303386866647,1.0,-0.00228,-0.00299657142857,0.115
0.465007984081,0.546873053815,-0.12401290192,-1.35685012705,0.0795051581918,1.89455276092,0.159097227064,-0.000132400147507,-0.01261943614,-0.000963813536434,-0.0163136214974,-0.000120191582976,0.00440293866374,-0.00286534092053,0.573884237605,0.818921532008,0.00227005357886,0.0,0.818882191028,-0.573824022625,-0.0117768916561,0.0,-0.0083418994885,0.00861764485417,-0.999928071868,0.0,0.661580503596,0.260755688671,0.303413621848,1.0,-0.00262,-0.00344342857143,0.132
0.464983504665,0.546634179886,-0.124005333615,-1.35720680239,0.079496189028,1.89468505212,0.159073331036,0.000964313095422,-0.0164103667743,0.000117840188895,-0.0236527142968,-0.00389673049278,0.00533321952579,-0.00179632488703,0.573896998225,0.81891253103,0.00229103707735,0.0,0.818873315718,-0.573836549377,-0.011783645652,0.0,-0.00833525475416,0.00863883432012,-0.999927944439,0.0,0.661536517225,0.260712202203,0.303424252105,1.0,-0.00296,-0.00389028571429,0.149
0.464948372715,0.546367743216,-0.124006773786,-1.35758750792,0.0794910218322,1.89482077331,0.158965043008,-0.00189423843376,-0.0193330408467,0.000537849643931,-0.0308413123015,0.000257191551871,0.00229490751452,-0.00921150239247,0.573857956739,0.818939808109,0.00232014726304,0.0,0.818900809932,-0.573797234238,-0.0117874668041,0.0,-0.00832209194613,0.00866446890607,-0.999927832278,0.0,0.661493037889,0.260654813404,0.303443552645,1.0,-0.00328,-0.00431085714286,0.165
0.46490724093,0.546065535139,-0.124005312618,-1.35809520455,0.0794772500751,1.89499688548,0.158901822679,-0.000278214861107,-0.0177755896134,-0.0031252352732,-0.0306479754269,0.000314160868704,0.0110833311779,0.000754279171205,0.573863568671,0.818935920195,0.00230435839945,0.0,0.81889653865,-0.573802720906,-0.0118170794979,0.0,-0.00835534461937,0.00866858942627,-0.99992751926,0.0,0.661430757316,0.260581873048,0.303431117047,1.0,-0.00364,-0.004784,0.183
0.464850096263,0.545735425031,-0.124010593563,-1.35864141847,0.0794449026593,1.89518207533,0.158868791094,2.75826048694e-05,-0.021024143646,-0.000244969281988,-0.0321077591054,-0.0102454647551,0.0168335612509,0.000692758189191,0.573908893206,0.818904235379,0.00227650597528,0.0,0.818864486264,-0.573848142154,-0.0118325729823,0.0,-0.00838353681515,0.00865513539813,-0.999927399835,0.0,0.661368891983,0.260487841629,0.3034210592,1.0,-0.00398,-0.00523085714286,0.2
0.464779391571,0.545379571906,-0.124008440871,-1.35926294283,0.0793442601096,1.89538384126,0.158765338712,-0.00293523497941,-0.027129677478,-0.00080574592991,-0.0373608704337,-0.0132074785849,0.0123182120018,-0.00632675136575,0.573888456076,0.818918799862,0.00218771948059,0.0,0.818878395173,-0.573828565782,-0.0118193871782,0.0,-0.00842390461745,0.00857465116542,-0.999927753984,0.0,0.661299299224,0.260370611171,0.303394423347,1.0,-0.00432,-0.00567771428571,0.217
0.464714572658,0.544986766562,-0.124010923809,-1.35996370946,0.0793256509641,1.895591006,0.158692978528,-0.00653802902021,-0.0243249135551,0.00118257874631,-0.0411772087065,-3.84739168702e-05,0.00796023760641,0.00136054707309,0.573917956701,0.818898318025,0.0021143823217,0.0,0.818856678649,-0.573858071184,-0.0118912098073,0.0,-0.00852450047268,0.00855611965249,-0.999927060194,0.0,0.661208402551,0.260259320151,0.303356975782,1.0,-0.00466,-0.00612457142857,0.234
0.464643581662,0.544556059118,-0.124013938935,-1.36068241811,0.0793042192513,1.89583960386,0.158612812925,-0.00183071641271,-0.0310949885026,-0.00214586271831,-0.0406691683123,-0.000828440830233,0.0129226986335,-0.013328883896,0.573946903022,0.818878088974,0.00209160473333,0.0,0.818835938499,-0.573886891964,-0.0119284515015,0.0,-0.00856776798641,0.00855914371195,-0.999926664516,0.0,0.661124449082,0.26014437619,0.303341390808,1.0,-0.005,-0.00657142857143,0.251
0.464579947371,0.544147814496,-0.124016661702,-1.36136218002,0.079277551883,1.89607930263,0.158502354692,-0.006263598038,-0.0236898633813,-8.1232653251e-05,-0.0465047468443,-0.0015187829597,0.0105984589985,-0.00716647216175,0.573941254342,0.81888209928,0.002071459602,0.0,0.818839542337,-0.573881183592,-0.0119556649857,0.0,-0.00860167396253,0.00855820716289,-0.999926381438,0.0,0.661045311289,0.260037347514,0.303327615235,1.0,-0.0053,-0.00696571428571,0.266
0.464503696305,0.543609264053,-0.124020103377,-1.36223264444,0.0792340048415,1.89638135084,0.158419334997,-0.00352335411403,-0.0303708480113,0.000371319616657,-0.0522607534888,-0.00569813296015,0.0177329927359,-0.00225389763929,0.57397493443,0.818858547128,0.00204971741518,0.0,0.818815606911,-0.573914850982,-0.0119788398018,0.0,-0.00863277829927,0.00855405909127,-0.999926148879,0.0,0.66094244708,0.259902141661,0.303320636823,1.0,-0.00566,-0.00743885714286,0.284
0.464432568212,0.54310410196,-0.124025689657,-1.36303570255,0.0791866481025,1.89665731273,0.15831034603,-0.00423523542017,-0.0329177004277,0.00125943744509,-0.0505914742602,-0.00114812618281,0.0125645628586,-0.00961481837673,0.573978849529,0.818855835879,0.00203647778355,0.0,0.818812671239,-0.573918769967,-0.0119917387802,0.0,-0.0086508990145,0.00855066286953,-0.999926021319,0.0,0.660843240975,0.259769582281,0.303321364641,1.0,-0.006,-0.00788571428571,0.301
0.464367311595,0.542565680019,-0.12402648856,-1.36387887489,0.0791391951819,1.89695839327,0.158194750061,-0.00782377499174,-0.0369999267967,0.000300452468664,-0.0553462052352,-0.00180835432554,0.02169975478,-0.0105664551972,0.57397333848,0.818859716499,0.00202936200917,0.0,0.818816438314,-0.573913269135,-0.0119977814388,0.0,-0.00865998885431,0.00854824621943,-0.999925963299,0.0,0.660748003668,0.259650411605,0.303325469823,1.0,-0.0063,-0.00828,0.316
0.464281952667,0.541944391412,-0.124025841441,-1.36486105107,0.0790769574853,1.89732392443,0.158074174015,-0.00488850120485,-0.0318982108856,0.000393928102135,-0.0592558879086,-0.00294295267549,0.0220837779083,-0.0101080826228,0.573982059644,0.818853599165,0.00203106924204,0.0,0.818810360437,-0.573921998973,-0.0119949838378,0.0,-0.00865662703498,0.00854813064478,-0.999925993397,0.0,0.660636306575,0.259500690695,0.30332898264,1.0,-0.00666,-0.00875314285714,0.334
0.464196853057,0.541298394237,-0.124030640462,-1.36583238755,0.0790219833608,1.89767271234,0.157938996079,-0.00667254133117,-0.0377394071071,-0.000941593450194,-0.0581829479185,-0.000236181734656,0.0259581792135,-0.00825928909859,0.573983556055,0.818852496196,0.00205274299293,0.0,0.818809509855,-0.573923374031,-0.0119872521086,0.0,-0.0086378404323,0.00856145591106,-0.999926041858,0.0,0.660525031262,0.259349647727,0.303353768255,1.0,-0.007,-0.0092,0.351
0.464116533354,0.540654539518,-0.124035390118,-1.36683022828,0.0789719553217,1.89803959843,0.157820720648,-0.00241145946134,-0.0417850629069,-0.00114417769477,-0.0653417078164,-0.000760868758013,0.0237043266846,-0.0103680949419,0.573997768802,0.818842495222,0.00206792894125,0.0,0.818799626979,-0.57393744195,-0.0119887650702,0.0,-0.00863021461639,0.00857490894024,-0.999925992428,0.0,0.660409493923,0.259200648025,0.303365915001,1.0,-0.00732,-0.00962057142857,0.367
0.464019915392,0.539918049472,-0.124033677941,-1.3679407615,0.078902674136,1.89843969546,0.157678252577,-0.00446042744281,-0.0439124319791,-0.00234760546329,-0.0702979713234,-0.00537618835259,0.0233987120652,-0.00316296603188,0.574001901999,0.81883954174,0.00209004460598,0.0,0.818796951613,-0.573941471939,-0.0119785524188,0.0,-0.00860911484786,0.00858719935389,-0.999926068841,0.0,0.660280616401,0.259031624211,0.303392426661,1.0,-0.00766,-0.0100674285714,0.384
0.463918520685,0.539169641752,-0.124030793979,-1.36908065913,0.0788299245698,1.89887650586,0.157527723372,-0.00942288835141,-0.0451558055862,0.00218158604655,-0.0645635587267,-0.0059399740419,0.0271983365659,-0.0106861024379,0.574003317719,0.818838454996,0.00212668031722,0.0,0.818796377134,-0.573942770309,-0.0119555887629,0.0,-0.00856926802331,0.00860403140853,-0.999926266426,0.0,0.660153531576,0.258858737122,0.303416406383,1.0,-0.008,-0.0105142857143,0.401
0.463810085783,0.538469339859,-0.124038211042,-1.37020965398,0.0787719840543,1.89931779843,0.157407113243,-0.00416691040033,-0.0476336400904,-0.000924493094474,-0.0731757477536,-0.00122657438149,0.0257758602475,-0.0130543348792,0.574045649871,0.818808746803,0.00213890723757,0.0,0.818766795225,-0.573985013552,-0.0119534997589,0.0,-0.00856009426612,0.008613286594,-0.999926265322,0.0,0.660031721678,0.258678592622,0.303412238592,1.0,-0.00832,-0.0109348571429,0.417
0.463703839016,0.537679279059,-0.124045390204,-1.3714278681,0.078694278268,1.89979083959,0.157248068332,-0.0052544604053,-0.0470264665807,0.000655566363123,-0.0731673788722,-0.00493912627215,0.0252900391189,-0.00839299519024,0.574054005824,0.818802801416,0.00217202502083,0.0,0.818761375628,-0.573993328254,-0.0119254266226,0.0,-0.00851800885396,0.00862437516375,-0.99992652914,0.0,0.659898190943,0.25848959466,0.303431585436,1.0,-0.00866,-0.0113817142857,0.434
0.463588717159,0.536797799197,-0.124056657661,-1.37281265681,0.0786207617024,1.9002923973,0.157082795245,-0.00705652801652,-0.0484389311621,-0.00204598549592,-0.0787915499298,-0.00282393079572,0.0296996835008,-0.0154037553019,0.574077415846,0.818786385646,0.00217306203436,0.0,0.818744908468,-0.574016665407,-0.0119327111323,0.0,-0.00852313169297,0.00862964959477,-0.999926439981,0.0,0.659736850291,0.258276419714,0.303438673435,1.0,-0.00902,-0.0118548571429,0.452
0.463485391269,0.536057108998,-0.12405701662,-1.37397605638,0.0785544944575,1.90073194451,0.156940341343,-0.00662523755276,-0.054810293065,0.000337996511982,-0.0784902804259,-0.00336790441603,0.0305645780079,-0.00868286341964,0.574091952285,0.818776152251,0.0021885444815,0.0,0.818734843426,-0.574031103292,-0.0119287683696,0.0,-0.0085108623239,0.00864021389594,-0.999926453259,0.0,0.65960455068,0.258098769068,0.30344586151,1.0,-0.00932,-0.0122491428571,0.467
0.463353344258,0.535048414597,-0.124056413089,-1.37554921827,0.0784656321452,1.90130003846,0.156749586635,-0.00622138190082,-0.0567384950202,-0.000602735382459,-0.0762364150205,-0.00325715646945,0.0235008829896,-0.0164586672564,0.574105950204,0.818766319553,0.00219517810658,0.0,0.818725002375,-0.574044976249,-0.0119366088834,0.0,-0.00851332626728,0.00865029193067,-0.99992634515,0.0,0.659417948604,0.257862700845,0.303458094039,1.0,-0.0097,-0.0127485714286,0.486
0.463230728637,0.534161019326,-0.124064153256,-1.3770227918,0.0783834199265,1.90182656481,0.156577714611,-0.00582430028189,-0.0558120790351,-0.000505962011281,-0.0887859672291,-0.00156920634154,0.0319868707399,-0.0108368890695,0.574129798831,0.818749730178,0.00214483790634,0.0,0.818707679814,-0.574068950216,-0.0119717297275,0.0,-0.00857073065198,0.00862948819036,-0.999926034519,0.0,0.659241694124,0.257636510273,0.303428639679,1.0,-0.01004,-0.0131954285714,0.503
0.463126667072,0.533396337019,-0.124064132959,-1.37822953043,0.0783135489128,1.90227546374,0.156424037154,-0.00721517499411,-0.0551118124478,-0.000101755373072,-0.0878188851165,-0.00213965375244,0.0336274011167,-0.00952266783366,0.574136191673,0.818745245417,0.00214555813288,0.0,0.818703175186,-0.574075309815,-0.0119748278274,0.0,-0.00857278645118,0.00863192349194,-0.999925995876,0.0,0.659090646357,0.257438934534,0.303428177603,1.0,-0.01034,-0.0135897142857,0.518
0.462994615641,0.532403796963,-0.124064283103,-1.3798456737,0.0782299144184,1.90288858605,0.156216393275,-0.00996653590445,-0.0534890568473,0.0016498235078,-0.0924170142701,-0.00697877829594,0.0306004337818,-0.0109997357905,0.574140802756,0.818742005125,0.00214815192809,0.0,0.818699826508,-0.574079766374,-0.0119901132839,0.0,-0.00858376409881,0.00864287127886,-0.999925807133,0.0,0.658911904092,0.257215993993,0.303416237985,1.0,-0.01068,-0.0140365714286,0.535
0.462867991204,0.531428203292,-0.124062336319,-1.38141452234,0.0781352997975,1.90346499652,0.156019437594,-0.00697192089663,-0.0585845263911,0.000352200586935,-0.0892116790402,-0.00503287348547,0.0341826030186,-0.016961810197,0.574142021834,0.818741189125,0.00213328288658,0.0,0.818698772867,-0.574081003308,-0.0120028267211,0.0,-0.00860269707118,0.00863800959124,-0.999925686435,0.0,0.658724103161,0.256984080605,0.303407059912,1.0,-0.01102,-0.0144834285714,0.552
0.462735050589,0.530475980637,-0.124060698903,-1.38296792628,0.0780370220497,1.90399952656,0.155819641329,-0.0114238214826,-0.0574957485168,0.000909237978774,-0.0899436626169,-0.00826749123961,0.0360537281417,-0.0156881233472,0.57414405633,0.818739913047,0.00207467232091,0.0,0.818696672974,-0.574083225683,-0.0120397073334,0.0,-0.00866652121443,0.00861121952473,-0.999925366369,0.0,0.658532392022,0.256745966082,0.303384930105,1.0,-0.01134,-0.014904,0.568
0.462590537715,0.529369719349,-0.124071256517,-1.38470515108,0.0779283582743,1.90464445771,0.155590071016,-0.00510589996695,-0.0595551530877,-0.00102035621454,-0.0917793818462,-0.00401191842401,0.0330139452282,-0.0145439506012,0.574147034097,0.818737807762,0.00208141272354,0.0,0.818694718504,-0.574086236945,-0.0120290209669,0.0,-0.00865387047181,0.00861063409643,-0.999925480977,0.0,0.658329701779,0.256479164465,0.303393544229,1.0,-0.0117,-0.0153771428571,0.586
0.462452002319,0.528341094054,-0.124068075989,-1.38630564453,0.0778306382026,1.90525323058,0.155368593957,-0.00303444576371,-0.0649654537359,-0.000208464971194,-0.102618009675,-0.00652375178054,0.0406650106285,-0.00907922071557,0.574137162812,0.818744659065,0.00210913068673,0.0,0.818701919941,-0.574076238369,-0.0120160612109,0.0,-0.00862745023368,0.00862578270747,-0.999925578718,0.0,0.658129328575,0.256225806335,0.303407343895,1.0,-0.01204,-0.015824,0.603
0.462310340418,0.527211330719,-0.124071201636,-1.3880566248,0.0777233971192,1.9059232292,0.155125524007,-0.0100708351865,-0.0668974814006,-5.64515739165e-05,-0.105288645841,-0.00413003107162,0.0400555508197,-0.0112424686177,0.574122630455,0.818754739458,0.00215144526215,0.0,0.818712594457,-0.574061573292,-0.0119893556426,0.0,-0.00858144492278,0.00864494217331,-0.999925809137,0.0,0.657940176757,0.255978886175,0.303428732157,1.0,-0.01236,-0.0162445714286,0.619
0.462158451831,0.526032095538,-0.124073771107,-1.38986600653,0.0776037306297,1.90659810532,0.154889232884,-0.00948547009426,-0.0721609770649,-0.00125827042716,-0.105839202189,-0.00517105943953,0.0395477769309,-0.0125239233533,0.574120726033,0.818755990598,0.00218327719187,0.0,0.818714350457,-0.57405962847,-0.0119625339165,0.0,-0.00854122945836,0.00865558567217,-0.999926061385,0.0,0.65772758394,0.255704623469,0.303455832587,1.0,-0.0127,-0.0166914285714,0.636
0.462001766446,0.524864440547,-0.124088574225,-1.39172045966,0.0774861603102,1.90725680423,0.154631072645,-0.00539086964467,-0.0653371732915,-0.00281174980337,-0.11238855689,-0.00258695560474,0.0444156975575,-0.0169182647344,0.574116129027,0.818759293199,0.00215339084636,0.0,0.818717308137,-0.574055200248,-0.0119726073579,0.0,-0.0085666832598,0.00863685163395,-0.999926005628,0.0,0.657504176738,0.255413876265,0.303452050054,1.0,-0.01304,-0.0171382857143,0.653
0.46185452768,0.523746359137,-0.124089033267,-1.39349858601,0.0773765431602,1.9079013289,0.154384680444,-0.0164615648945,-0.0676629592586,-0.00100899499351,-0.107386797661,-0.00677664914721,0.0434593891362,-0.0243511895516,0.574101195294,0.818769802576,0.00213889040525,0.0,0.818727594337,-0.574040294106,-0.0119839023187,0.0,-0.00858441333486,0.00863130742092,-0.999925901445,0.0,0.657287884504,0.255146449197,0.303447758944,1.0,-0.01336,-0.0175588571429,0.669
0.461699409145,0.522526825888,-0.124090432654,-1.39542107633,0.0772526108672,1.90864402147,0.154139880272,-0.00993893989151,-0.0709914602848,-0.000399939166971,-0.114073625286,-0.00815744568902,0.0468167307929,-0.0117344627679,0.574098307129,0.818771738129,0.00217290008981,0.0,0.818730046832,-0.574037340137,-0.0119578193608,0.0,-0.00854356324437,0.0086441488709,-0.999926140381,0.0,0.657049553235,0.254842582846,0.303458348632,1.0,-0.01372,-0.018032,0.687
0.461520115081,0.521215162834,-0.124093152557,-1.3975300875,0.0771318405295,1.9094657973,0.153845157783,-0.00689450536546,-0.0783626563243,0.000411251868651,-0.118056534939,-0.0067441160212,0.0403210412623,-0.01940205353,0.574086574689,0.818779926277,0.00218723313813,0.0,0.818738404311,-0.574025532774,-0.0119524027023,0.0,-0.0085310239847,0.00865265228643,-0.999926173894,0.0,0.656816622526,0.25454555453,0.30344339341,1.0,-0.01406,-0.0184788571429,0.704
0.461349284807,0.519924463369,-0.124093603513,-1.39956769762,0.0770056330747,1.91020254218,0.153571959403,-0.0116237925602,-0.0762026426783,7.01590533181e-05,-0.122106023384,-0.00705812418685,0.0421792053299,-0.0098971808038,0.57407754928,0.818786281187,0.00217716650063,0.0,0.81874459065,-0.574016511892,-0.0119618668243,0.0,-0.00854464744356,0.00864974902112,-0.999926082689,0.0,0.656567102613,0.254237809685,0.303443870989,1.0,-0.0144,-0.0189257142857,0.721
0.461173968559,0.518565191149,-0.124102047874,-1.40163946042,0.0768685160028,1.91094659223,0.153296764808,-0.00861509127263,-0.075617727124,-0.00276108445775,-0.113740306093,-0.0125606873642,0.049987025306,-0.0132426560042,0.57407460911,0.818788288665,0.00219736678798,0.0,0.818746942129,-0.574013571398,-0.0119420060072,0.0,-0.00851682027942,0.00865485640179,-0.999926275899,0.0,0.656315597554,0.25391811165,0.303476666143,1.0,-0.01474,-0.0193725714286,0.738
0.460992879316,0.517229802036,-0.124104707657,-1.40377607188,0.076726600589,1.91170140227,0.152999984353,-0.0129688715208,-0.0838722463656,1.48020002708e-05,-0.132854841068,-0.00267646899484,0.0452156372535,-0.0205161102587,0.574056459524,0.81880113637,0.00215110628187,0.0,0.818759209096,-0.573995635975,-0.0119630390882,0.0,-0.00856078920326,0.00862886407452,-0.999926125068,0.0,0.65604989962,0.253590014647,0.303462236795,1.0,-0.01508,-0.0198194285714,0.755
0.460823805462,0.515952348169,-0.12410879538,-1.40578669256,0.0766085460762,1.9124620001,0.152723286427,-0.0176555068979,-0.0830414559909,-0.000230385028745,-0.129874050536,-7.01626798589e-05,0.0532306573798,-0.0224895589665,0.57404584369,0.818808516809,0.00217463654174,0.0,0.818766865862,-0.573984894131,-0.0119543957078,0.0,-0.00854031692125,0.00864305792123,-0.999926177543,0.0,0.655808935517,0.253287382687,0.303467309068,1.0,-0.0154,-0.02024,0.771
0.46064103106,0.51457091242,-0.124119911346,-1.40800902112,0.0764743831825,1.91328925208,0.152419767958,-0.0165204548275,-0.0861139472737,-0.00257037315053,-0.136544465172,-0.00969048011095,0.0482122359508,-0.0179622041683,0.574035952256,0.818815491562,0.00215944370892,0.0,0.818773644706,-0.573975068463,-0.0119618735535,0.0,-0.00855526523844,0.00863480731895,-0.999926121041,0.0,0.655538947432,0.252949894717,0.303450164363,1.0,-0.01574,-0.0206868571429,0.788
0.460449833736,0.513186614367,-0.12411352083,-1.41027267185,0.0763331562485,1.91407508816,0.152109760056,-0.0157901370053,-0.0778636785877,-6.55013059823e-05,-0.137356024174,-0.00338675125189,0.0516241230916,-0.020500339961,0.574014683493,0.818830607758,0.0020798641816,0.0,0.81878758762,-0.573953998489,-0.0120183559464,0.0,-0.00864741783007,0.00860184537268,-0.999925612444,0.0,0.655248596245,0.252608425298,0.303410794355,1.0,-0.01608,-0.0211337142857,0.805
0.460267064919,0.511838758357,-0.124115980532,-1.41241491296,0.0762047603755,1.91484537582,0.151801741386,-0.0112896364,-0.0830352089686,0.000273105589092,-0.136379855374,-0.0017401813337,0.053999254927,-0.0205017377417,0.573991369152,0.818847000373,0.00206034497145,0.0,0.818803636757,-0.573930681792,-0.0120384314801,0.0,-0.00867530533897,0.00859713924485,-0.999925411355,0.0,0.654981427647,0.252282283651,0.303402156105,1.0,-0.0164,-0.0215542857143,0.821
0.460055671089,0.510287929107,-0.124116964014,-1.41487439113,0.0760557943217,1.91578998931,0.151459743615,-0.00945506218971,-0.0833102426193,0.000320160904629,-0.133011700613,-0.0136331595245,0.0476730547478,-0.0217842194258,0.573973661184,0.818859340451,0.00208895304672,0.0,0.818816346802,-0.573912851271,-0.0120239867465,0.0,-0.00864724334386,0.00861208640664,-0.999925525802,0.0,0.654685921808,0.251911783801,0.303399261562,1.0,-0.01676,-0.0220274285714,0.839
0.459863735166,0.508866549345,-0.124124044589,-1.41712459493,0.075908848144,1.91660435995,0.151147817587,-0.0154406611864,-0.0915653527365,-0.000143983129981,-0.139307561724,-0.00715701220211,0.0479420086735,-0.0256267456038,0.573957723027,0.818870560426,0.00206986628035,0.0,0.81882736204,-0.573897040065,-0.0120285277688,0.0,-0.0086620839155,0.00859889511106,-0.999925510878,0.0,0.654406330755,0.251565250836,0.303393734204,1.0,-0.01708,-0.022448,0.855
0.45964506956,0.507352682551,-0.124127008059,-1.41950975208,0.0757601738896,1.91745603314,0.150810796723,-0.0139935792481,-0.0919232083637,-0.000437385233315,-0.141197308321,-0.0170643492797,0.0543549154022,-0.0196896016166,0.573946315594,0.818878601314,0.00205183489373,0.0,0.818835111179,-0.57388565495,-0.0120441954136,0.0,-0.00868538250296,0.00859300147718,-0.999925359443,0.0,0.654109311143,0.251191172262,0.303391295104,1.0,-0.01742,-0.0228948571429,0.872
0.459423556204,0.50578616848,-0.124133765202,-1.42194651026,0.0756110443089,1.9183695329,0.150487981257,-0.0125746235559,-0.0962825650105,-0.000474437076107,-0.145934678978,-0.00505760040473,0.0658131719503,-0.0205369893384,0.573954012072,0.818873119766,0.00208630115018,0.0,0.818830087329,-0.573893211696,-0.012025662386,0.0,-0.00865034415354,0.0086106691093,-0.999925511187,0.0,0.653814274739,0.250811728001,0.303406029885,1.0,-0.01776,-0.0233417142857,0.889
0.459213178988,0.504144972769,-0.12413765764,-1.42442348466,0.0754612752272,1.91931566582,0.150136048672,-0.0133709266641,-0.0997074924625,0.000101284816742,-0.150664975227,-0.0101362524028,0.0521730884044,-0.0255661679909,0.573928218493,0.818890953014,0.00218036482996,0.0,0.818849160325,-0.573867041237,-0.0119757470409,0.0,-0.00855575611839,0.00865877578278,-0.999925909575,0.0,0.653513642335,0.250439614919,0.303455891851,1.0,-0.0181,-0.0237885714286,0.906
0.458999084776,0.502665913864,-0.124142983255,-1.42660193733,0.0753192119229,1.92014898036,0.149830333123,-0.0151220011104,-0.105315105395,-0.00106183637765,-0.148250304091,-0.0135143781179,0.0495011549325,-0.0232321186896,0.573930432981,0.818889104012,0.0022891766804,0.0,0.81884885314,-0.573868941136,-0.0119055034463,0.0,-0.00843576206689,0.00870758809524,-0.999926505213,0.0,0.653257802156,0.250091215099,0.303524211453,1.0,-0.0184,-0.0241828571429,0.921
0.458754859662,0.500855705454,-0.1241449702,-1.42931003851,0.0751498936647,1.9211036493,0.14945927427,-0.0151136703341,-0.102653420132,0.00145346915303,-0.149714428717,-0.0137255173162,0.0495809664757,-0.0226153752807,0.573920354882,0.818896026049,0.0023391610309,0.0,0.818856360097,-0.573858598102,-0.011887716949,0.0,-0.00839261808234,0.00873820785516,-0.999926601149,0.0,0.652914660775,0.249670657618,0.303581436992,1.0,-0.01876,-0.024656,0.939
0.458513703258,0.499154949113,-0.124150347741,-1.43190976413,0.0749779861053,1.92205260922,0.14909151536,-0.0097748319641,-0.10138496493,-0.000842273822766,-0.153359822671,-0.00539532156797,0.0543657702079,-0.0149339686032,0.573906311814,0.818905764591,0.00237505407395,0.0,0.818866637396,-0.573844491245,-0.0118607305158,0.0,-0.00835006965961,0.00875196915143,-0.99992683701,0.0,0.652592528991,0.249260820413,0.303612832278,1.0,-0.0191,-0.0251028571429,0.956
0.458284613777,0.497677488197,-0.124147930115,-1.4342485819,0.0748319079675,1.92292653864,0.148747335343,-0.0110218799111,-0.10152933178,0.00079349240924,-0.15610795149,-0.0130018537949,0.0599750817296,-0.0242231212261,0.573889760427,0.818917337626,0.00238409604598,0.0,0.818878299693,-0.573827877075,-0.0118593711783,0.0,-0.00834394454526,0.00875842482759,-0.999926831615,0.0,0.652305309378,0.248890559391,0.303605483762,1.0,-0.0194,-0.0254971428571,0.971
0.458014502154,0.496011296454,-0.124148012084,-1.43692617644,0.0746697524889,1.92387514881,0.148350854709,-0.0164870026244,-0.100666842205,-0.000223617085322,-0.152524115441,-0.00727249764126,0.0539793958498,-0.0228746305246,0.573877945888,0.818925764672,0.00233282705292,0.0,0.818885906207,-0.573816105026,-0.0119036603517,0.0,-0.00840976233667,0.00874173565192,-0.999926426271,0.0,0.651966562796,0.248457067492,0.303574488243,1.0,-0.01974,-0.025944,0.988
0.457724816167,0.494248741439,-0.124149753085,-1.4398406984,0.0744896522449,1.9248716813,0.14794496655,-0.0177048723419,-0.0985425874168,-0.00141379102826,-0.166070350843,-0.0087209464299,0.0601519133245,-0.0127597230256,0.573881978581,0.818923304223,0.00220076410289,0.0,0.818881521963,-0.573820463909,-0.0119947942394,0.0,-0.00856013786269,0.00868592853986,-0.999925636578,0.0,0.651587322883,0.247983631826,0.303501504883,1.0,-0.0225514285714,-0.0296390204082,1.006
0.457442653446,0.492150877291,-0.124225344341,-1.44300945541,0.0743064054002,1.92604500581,0.147489836814,-0.0168643158111,-0.136188113777,-0.00903945240275,-0.221674788688,-0.0106171508301,0.081970234207,-0.0374722632322,0.573904511032,0.81890729936,0.00227907263406,0.0,0.818866732218,-0.573842872545,-0.0119322838263,0.0,-0.00846376769011,0.0087144160547,-0.999926209072,0.0,0.651203853764,0.247457501543,0.303557403431,1.0,-0.03078,-0.0404537142857,1.022
0.457057541752,0.489338594769,-0.124243604811,-1.44752444733,0.0740681964573,1.92773783671,0.146811999784,-0.0261544865419,-0.182756935125,3.84025838874e-05,-0.293175018127,-0.0140594891318,0.108268185775,-0.0495163902127,0.573840234105,0.818952322146,0.00228619224555,0.0,0.818911486855,-0.573778203411,-0.0119706678736,0.0,-0.00849180246696,0.00874160824909,-0.99992573403,0.0,0.650628555007,0.246774270237,0.303511855629,1.0,-0.0395228571429,-0.0519443265306,1.039
0.456502712177,0.485707980297,-0.12430096854,-1.45323017203,0.0737249847953,1.92987754629,0.145975086713,-0.0346514918461,-0.229720930374,-0.00656040902103,-0.361820873957,-0.0226634807458,0.134824477366,-0.0585241669416,0.573841324478,0.818951429576,0.00233178425171,0.0,0.818911277409,-0.573779201454,-0.0119371106947,0.0,-0.00843814702301,0.00875970048309,-0.999926029925,0.0,0.649925291821,0.245841253267,0.303505755223,1.0,-0.0482657142857,-0.0634349387755,1.056
0.455873526857,0.481632011545,-0.124419040715,-1.45963485695,0.0733451540195,1.9321286692,0.144984023777,-0.0395717093437,-0.272877554149,-0.00806958612087,-0.424268374988,-0.0180558580108,0.141874275329,-0.0584623093445,0.573842376467,0.818950907758,0.0022548955838,0.0,0.818909781737,-0.57378059358,-0.0119727485858,0.0,-0.00851144186781,0.0087171943847,-0.999925780185,0.0,0.649112111613,0.244750008039,0.303484246191,1.0,-0.0564942857143,-0.0742496326531,1.072
0.45502259633,0.476217120632,-0.124537303503,-1.46809990519,0.072828740891,1.93512315868,0.143748742156,-0.0526110147485,-0.31633646843,-0.0086468355779,-0.49720512265,-0.0285967745563,0.17141838366,-0.0717441626666,0.573885013476,0.818921195806,0.0021939164696,0.0,0.81887928712,-0.573823489181,-0.0120026368656,0.0,-0.00857045793914,0.00868485338434,-0.999925557515,0.0,0.648027801488,0.243318016107,0.303469459925,1.0,-0.0657514285714,-0.0864161632653,1.09
0.454066405724,0.470401175497,-0.124631150411,-1.47711047483,0.0722945903518,1.93836719668,0.142426578091,-0.05958491414,-0.356470707767,0.000803190604429,-0.537982092608,-0.0308935626489,0.193335013691,-0.0818589936409,0.573942033948,0.818881116534,0.0022373093502,0.0,0.818839585846,-0.573880131371,-0.0120030983648,0.0,-0.00854532773104,0.00872124806194,-0.999925455825,0.0,0.646876711212,0.241788492484,0.30348598187,1.0,-0.0744942857143,-0.0979067755102,1.107
0.453046485896,0.464215172911,-0.124673493715,-1.48644230634,0.0717171423362,1.94186385298,0.140902536215,-0.0618614862339,-0.398403303085,0.000318827584979,-0.606095613109,-0.0398902514855,0.21794415473,-0.0917227618539,0.57384596944,0.818947568276,0.00253587700364,0.0,0.818909954702,-0.573782923917,-0.0118485953628,0.0,-0.00824849424708,0.00887609450697,-0.99992658595,0.0,0.645697448114,0.240226839969,0.303616497583,1.0,-0.0827228571429,-0.108721469388,1.123
0.451794780736,0.45706105943,-0.12474577706,-1.49764262307,0.0709867543936,1.94565429969,0.139225847619,-0.0723901008202,-0.435620591222,-0.00679974563284,-0.685603651594,-0.0447105042329,0.231289264134,-0.0988450015086,0.573872100151,0.818929932639,0.0023075956506,0.0,0.818888982607,-0.573809571911,-0.0120065086422,0.0,-0.00850853265677,0.00878003402742,-0.999925255144,0.0,0.644186112211,0.238289770032,0.303541497632,1.0,-0.0914657142857,-0.120212081633,1.14
0.450424873904,0.449078615859,-0.124890564055,-1.50960624173,0.0701472434568,1.95000836785,0.137310109943,-0.0815752051882,-0.488161881266,-0.00549696923972,-0.728015440001,-0.0533635896063,0.279663123778,-0.118856385017,0.5738474871,0.818946424037,0.00256183677622,0.0,0.818909762354,-0.573785007977,-0.0117606395681,0.0,-0.00816154731871,0.00884689693865,-0.999927558156,0.0,0.642642944387,0.236178491088,0.303708687567,1.0,-0.100208571429,-0.131702693878,1.157
0.448999516304,0.441090357553,-0.124938567646,-1.52176167778,0.0693793320215,1.95432270005,0.135443947068,-0.0875363659774,-0.51982958578,-0.00504223207926,-0.785979140216,-0.0442594924181,0.271180509328,-0.121289928303,0.573857532278,0.818938955039,0.00269582430657,0.0,0.8189036352,-0.573794128691,-0.0117422756703,0.0,-0.00806951417128,0.00894618590581,-0.999927421716,0.0,0.641005584147,0.234079597374,0.30376764342,1.0,-0.108437142857,-0.142517387755,1.173
0.447208668773,0.431371494898,-0.125009936657,-1.53638382975,0.0683792987748,1.95947065559,0.133028425993,-0.101576685752,-0.563065672512,-0.00315971936497,-0.809025259159,-0.0560879377177,0.313660811976,-0.140468885043,0.573763453666,0.819004247666,0.00287896573371,0.0,0.818971413466,-0.573699547908,-0.0116361314935,0.0,-0.00787853146586,0.00903435156856,-0.999928152036,0.0,0.639019974248,0.231491581636,0.303888974684,1.0,-0.117694285714,-0.154683918367,1.191
0.445338725898,0.421658655523,-0.125072635162,-1.5512000029,0.0673292852964,1.96455924051,0.130568241707,-0.118293315176,-0.590984912458,-0.00575365684985,-0.886265046581,-0.060580581852,0.303269101668,-0.155020570869,0.57366717896,0.819071853547,0.0028307971036,0.0,0.81903841977,-0.573603477774,-0.0116560768185,0.0,-0.00792356193439,0.00900541367473,-0.999928057258,0.0,0.636952114924,0.228832472298,0.303886233157,1.0,-0.126437142857,-0.166174530612,1.208
0.443414680886,0.411915738498,-0.125181751743,-1.56579778208,0.0662746607881,1.96969712057,0.128193853596,-0.115571741443,-0.631380567483,-0.00337352324349,-0.924757348451,-0.0635399220714,0.332048275706,-0.153646792027,0.573692424418,0.819053513278,0.00301520370863,0.0,0.819023036092,-0.573628775326,-0.0114909255582,0.0,-0.00768222324513,0.00906195270884,-0.999929429739,0.0,0.634935306451,0.226148180613,0.303989437194,1.0,-0.134665714286,-0.17698922449,1.224
0.441155729727,0.401148467781,-0.12525545818,-1.58228806207,0.0651906261208,1.97516296334,0.125412496727,-0.139784966502,-0.65839875628,-0.00464236722644,-0.978325318993,-0.0575449025847,0.316996091111,-0.174021058548,0.573686194449,0.81905855793,0.00282416024278,0.0,0.819024450192,-0.573621847125,-0.01173343042,0.0,-0.00799052042664,0.00904453747097,-0.999927171311,0.0,0.632539826265,0.223094854987,0.303888093884,1.0,-0.143408571429,-0.188479836735,1.241
0.438672267188,0.389690141203,-0.125387729267,-1.59936807276,0.0639314247963,1.9810672076,0.122487026304,-0.148529462326,-0.677770879992,-0.00687813669214,-1.01473862976,-0.079437823355,0.343958128886,-0.180896330735,0.573737170017,0.819022214215,0.00300320903894,0.0,0.818990973378,-0.573672837564,-0.0115761767355,0.0,-0.0077584358248,0.00910145920519,-0.9999284825,0.0,0.63011352382,0.219820223385,0.303978752606,1.0,-0.152151428571,-0.19997044898,1.258
0.436190020468,0.378402020361,-0.125520135549,-1.61626214281,0.0626367921195,1.98666893335,0.11946823444,-0.152697864998,-0.719217781337,0.000348258903067,-1.07029233054,-0.0828336389705,0.356626879068,-0.188804642707,0.573667120914,0.819071536242,0.0029325419998,0.0,0.819039740444,-0.573603447159,-0.0115644230707,0.0,-0.00779012355423,0.00903617170064,-0.999928828255,0.0,0.627619780342,0.216556645327,0.303985439205,1.0,-0.16038,-0.210785142857,1.274
0.433078839252,0.365216323578,-0.125673970169,-1.63592218195,0.0611760473455,1.99315854583,0.1159919422,-0.182602623306,-0.75188427725,-0.0162334577796,-1.08990592573,-0.086663019475,0.36811333617,-0.192126453819,0.573784332503,0.818989533927,0.00290344504526,0.0,0.81895727082,-0.573720634321,-0.0115917741295,0.0,-0.00782792607042,0.00902914965075,-0.999928596466,0.0,0.624692581483,0.212645550685,0.303983029627,1.0,-0.169637142857,-0.222951673469,1.292
0.42988664777,0.352239598183,-0.125837383459,-1.65520594459,0.0596870962846,1.99947087315,0.112421387768,-0.192077049026,-0.759402469613,-0.00630693760585,-1.16238282463,-0.0770570944985,0.368936105728,-0.228629869678,0.573842863795,0.818948720043,0.00284754519069,0.0,0.818915891127,-0.573779525325,-0.011600279228,0.0,-0.00786632214913,0.00898881052282,-0.999928658586,0.0,0.621776411974,0.208726546234,0.303961934486,1.0,-0.17838,-0.234442285714,1.309
0.426887020646,0.34023165534,-0.125994249788,-1.67259086614,0.0583914585196,2.00515654762,0.109140659479,-0.201210064225,-0.810483508343,-0.0132579688722,-1.17268189705,-0.0892420815659,0.379968746685,-0.215274084076,0.573941932951,0.818878404832,0.00309234576904,0.0,0.818848599072,-0.573877624516,-0.0114974248348,0.0,-0.0076405119678,0.00913119303822,-0.999929119433,0.0,0.619119700593,0.205143855185,0.304106450532,1.0,-0.186094285714,-0.244581061224,1.324
0.423106748237,0.325513054584,-0.126097307504,-1.69413858189,0.0566260084734,2.01209847237,0.104920394758,-0.212276529381,-0.856501541461,-0.00989620368646,-1.20308480049,-0.104994187633,0.405306853034,-0.237118119313,0.573828947023,0.818957522961,0.00310838302626,0.0,0.818928238276,-0.573764980043,-0.0114470577392,0.0,-0.0075913188827,0.0091143712045,-0.999929647583,0.0,0.615723820655,0.200717247276,0.304116276909,1.0,-0.195351428571,-0.256747591837,1.342
0.419290624398,0.311146006631,-0.126171144451,-1.71510150465,0.0549217750953,2.01865058751,0.100743251706,-0.237683238664,-0.840930830507,-0.00561856838458,-1.2243265456,-0.0899984579986,0.395456692222,-0.258119616898,0.573719123643,0.819034752382,0.00303124691803,0.0,0.819004100595,-0.573654969668,-0.0115328177566,0.0,-0.00770703706104,0.00909937694341,-0.999928898932,0.0,0.612318991832,0.196366268907,0.304084606294,1.0,-0.204094285714,-0.268238204082,1.359
0.414657119892,0.294489825583,-0.12631473631,-1.73919618006,0.0528802577392,2.02602975066,0.0958027140029,-0.249349471406,-0.894545806028,-0.0100594767402,-1.27400021592,-0.107430617661,0.37127842026,-0.264075703387,0.573649790625,0.819083767221,0.00290635373946,0.0,0.819051448223,-0.573585992284,-0.0116009275963,0.0,-0.00783523853791,0.00903549688736,-0.999928481859,0.0,0.60833880602,0.191205351258,0.304060110765,1.0,-0.213865714286,-0.281080653061,1.378
0.410988362119,0.281773459065,-0.126455997417,-1.75721921023,0.051398343094,2.03162881851,0.0920042607592,-0.27360918128,-0.909099836608,-0.0107137095511,-1.29875410799,-0.110288040594,0.393488958392,-0.278875128012,0.573690301321,0.819054587813,0.00312526061873,0.0,0.819025008,-0.573625684475,-0.0115046635391,0.0,-0.0076303645995,0.00915995685313,-0.999928933838,0.0,0.605355123195,0.187249431038,0.304163677244,1.0,-0.221065714286,-0.290543510204,1.392
0.405060795981,0.262199440119,-0.126689904724,-1.78495556433,0.048973468197,2.03989762457,0.0859513407308,-0.292313125218,-0.91956595028,-0.01615097235,-1.34201949243,-0.123673353491,0.396696983709,-0.294098078908,0.573716873653,0.819035946852,0.00313265884265,0.0,0.819006500867,-0.573652276283,-0.0114962756645,0.0,-0.00761895283666,0.00916145167633,-0.99992900716,0.0,0.600630437833,0.18100358,0.3042107828,1.0,-0.231865714286,-0.304737795918,1.413
0.401099586157,0.24981278213,-0.126842471451,-1.80235539992,0.0474443053103,2.04499395669,0.0820752068966,-0.304854047138,-0.959881705509,-0.0159560668714,-1.34529694796,-0.118720573929,0.379525725186,-0.297784835485,0.57383437516,0.818953501598,0.00316528138715,0.0,0.818924323848,-0.573769476537,-0.0115015870731,0.0,-0.00760326954939,0.00919230893167,-0.999928843343,0.0,0.597618807668,0.176972593071,0.304246124202,1.0,-0.238551428571,-0.313524734694,1.426
0.394432424947,0.22928899189,-0.127016319431,-1.83099028551,0.0448937762548,2.05328281901,0.0753931727742,-0.314892222564,-0.984298404001,-0.00459918260205,-1.38114103145,-0.116944543807,0.395787042296,-0.319995109577,0.573767922274,0.818999632929,0.00327406988485,0.0,0.818971344691,-0.573702066801,-0.0115161636141,0.0,-0.00755353854193,0.00928915353062,-0.999928325272,0.0,0.592529658373,0.170361493596,0.304288411095,1.0,-0.249351428571,-0.327719020408,1.447
0.3900543443,0.216271108744,-0.127125471234,-1.84902151597,0.0431302464807,2.05836336593,0.0710084988776,-0.348755203584,-1.0369515734,-0.00864187330227,-1.37071972202,-0.136860758779,0.401848596693,-0.33696057273,0.573628654492,0.819097317888,0.00323998087843,0.0,0.819069021275,-0.573563452029,-0.011473961149,0.0,-0.00754010135583,0.0092357386792,-0.999928921475,0.0,0.589252263301,0.166113879852,0.304300533754,1.0,-0.256037142857,-0.336505959184,1.46
0.38323484662,0.19681284869,-0.127340690652,-1.87571108728,0.0405777345231,2.065640489,0.0643529173884,-0.36971478335,-1.05844811349,-0.00904953941479,-1.41085386783,-0.135986914709,0.394770360482,-0.369031918559,0.573573557711,0.819136012866,0.0032114205581,0.0,0.819107099507,-0.573508147874,-0.0115200156283,0.0,-0.00759483003762,0.00923825159243,-0.999928484075,0.0,0.5842994946,0.159670612569,0.304325751684,1.0,-0.265808571429,-0.349348408163,1.479
0.37777864213,0.182255113584,-0.12755127419,-1.89565205151,0.0386889781035,2.0709466661,0.059165015565,-0.401472432669,-1.02988245213,-0.00894110299458,-1.42212147425,-0.122951865816,0.366472339,-0.376367278256,0.573656039376,0.81907856334,0.00313088889355,0.0,0.819047898709,-0.573590023205,-0.0116521157394,0.0,-0.00774830076542,0.00924883260347,-0.999927208816,0.0,0.580542621816,0.154677497292,0.304276213859,1.0,-0.273008571429,-0.358811265306,1.493
0.368703189276,0.158660856979,-0.127882482907,-1.92719095972,0.0354918309184,2.07918415878,0.0506551002714,-0.424283519449,-1.10288134884,-0.0129672791872,-1.42811092334,-0.149119550406,0.38083242653,-0.395527504779,0.573739904309,0.819019268108,0.00327224273166,0.0,0.818990748926,-0.573673803506,-0.0115441433244,0.0,-0.00757782177917,0.00930345133202,-0.999928008614,0.0,0.574489156364,0.146614841259,0.304396887334,1.0,-0.284322857143,-0.373681469388,1.515
0.363966223422,0.146726214479,-0.128021312993,-1.94322710112,0.033797215119,2.08329981938,0.0462072894131,-0.442471690001,-1.08711531545,-0.0161392290687,-1.47254307105,-0.160289247165,0.371985721109,-0.415265446167,0.573696019178,0.819050237357,0.00321452413149,0.0,0.819021167169,-0.573630343854,-0.0115457022402,0.0,-0.00761270814565,0.00925666493937,-0.999928177835,0.0,0.57133042037,0.142508938541,0.304353925542,1.0,-0.28998,-0.381116571429,1.526
0.356238233854,0.127911420081,-0.128281161381,-1.96796154055,0.0312320317373,2.08937133033,0.0389630123558,-0.466204431261,-1.11425306632,-0.0200740949214,-1.4658860296,-0.163698977253,0.357566043475,-0.434819356302,0.573665323474,0.819071384863,0.00330303532618,0.0,0.819043104185,-0.573598939956,-0.0115497388898,0.0,-0.00756558872656,0.00933119265741,-0.999927842752,0.0,0.566370046077,0.135993165233,0.304418787484,1.0,-0.298722857143,-0.392607183673,1.543
0.347946738093,0.108765821877,-0.128654862702,-1.99298809047,0.0284852492934,2.09533281677,0.0314130673678,-0.496800321644,-1.11927985275,-0.0204133974184,-1.48418693949,-0.164200230524,0.335909558806,-0.453029952476,0.573807788844,0.8189716917,0.00327666859173,0.0,0.818943316279,-0.573741771494,-0.0115313167139,0.0,-0.00756400594481,0.00930034424934,-0.999928142124,0.0,0.56126441768,0.129156778862,0.30442608945,1.0,-0.307465714286,-0.404097795918,1.56
0.339816826898,0.0904636234505,-0.128890211573,-2.01659358875,0.0258651296393,2.10076188732,0.0239264038009,-0.50990254134,-1.14153204018,-0.0102898193621,-1.49093396793,-0.153665237255,0.310976760983,-0.465864656703,0.57373103105,0.81902527314,0.00332458557534,0.0,0.818997424755,-0.573664761933,-0.0115198117182,0.0,-0.00752796428305,0.00933228015448,-0.999928116567,0.0,0.556313969242,0.122702909415,0.304454053473,1.0,-0.315694285714,-0.414912489796,1.576
0.330657142251,0.0706890858069,-0.129195450255,-2.04184405988,0.0230322433741,2.10629847388,0.0155146807981,-0.539608751592,-1.1519075852,-0.00960862054747,-1.49187007735,-0.171799931995,0.318439086987,-0.503014911466,0.573668417593,0.819069064226,0.00334089585424,0.0,0.819040749865,-0.573601267227,-0.0116009998602,0.0,-0.00758582405456,0.00939163789613,-0.99992712355,0.0,0.550575862723,0.115216536592,0.304454195285,1.0,-0.31998,-0.420545142857,1.594
0.320381403356,0.0498666280231,-0.129610325082,-2.06817151943,0.0199260068564,2.11174197101,0.00642973568991,-0.579055042772,-1.14167353022,-0.0123105791736,-1.45732869224,-0.16586905146,0.286203045278,-0.501567824943,0.573880027645,0.818921247298,0.00323287723048,0.0,0.818891394057,-0.573813028643,-0.011672180568,0.0,-0.00770367791429,0.00934598658835,-0.999926650251,0.0,0.545123769906,0.107917230083,0.304426954662,1.0,-0.31998,-0.420545142857,1.611
0.311009905392,0.0314346573684,-0.129831309449,-2.09106415991,0.017221408904,2.11628541783,-0.00186661109843,-0.589061395697,-1.15141032706,-0.0165120388751,-1.42415073837,-0.172651232779,0.289326090696,-0.528470043873,0.573923738931,0.818890387893,0.00328959091584,0.0,0.818860734028,-0.57385589184,-0.011715825567,0.0,-0.00770637418585,0.00941788856963,-0.999925954845,0.0,0.539974581727,0.101183482495,0.304452077023,1.0,-0.31998,-0.420545142857,1.627
0.300763857326,0.0120373763524,-0.130070201043,-2.11466458885,0.0142416476779,2.12079416252,-0.010933730463,-0.609271095449,-1.15654101551,-0.0189120888189,-1.38612197841,-0.184099150653,0.265322959354,-0.535528380801,0.573894997813,0.818909880523,0.00344760326952,0.0,0.818883031139,-0.57382758823,-0.0115424087794,0.0,-0.00747400662292,0.00944749637027,-0.999927439386,0.0,0.534573851812,0.0940325474572,0.304567255932,1.0,-0.31998,-0.420545142857,1.644
0.290167254453,-0.00709115723748,-0.130337829396,-2.13770304961,0.0114221318389,2.12484959657,-0.0202701882651,-0.633188997164,-1.14011957348,-0.00928054082696,-1.34142566366,-0.174846830886,0.257022381637,-0.547997331211,0.573965340729,0.818859973607,0.00358861646643,0.0,0.818834295165,-0.573896654013,-0.0115660915869,0.0,-0.00741165716632,0.00957720232431,-0.999926669578,0.0,0.529159536494,0.0868654747147,0.30464110811,1.0,-0.31998,-0.420545142857,1.661
0.280032981339,-0.0248400846697,-0.130517024286,-2.15898800354,0.00865423847652,2.1283326195,-0.0292759862794,-0.641567719527,-1.10610418211,-0.0112402844017,-1.29562698477,-0.165459003192,0.202500923686,-0.569306318573,0.57382374701,0.818959511936,0.00351739659337,0.0,0.818932556557,-0.573754848519,-0.0116442480311,0.0,-0.00751818908323,0.00956244072758,-0.999926015543,0.0,0.524013583394,0.0802066199182,0.304625989461,1.0,-0.31998,-0.420545142857,1.677
0.268783847114,-0.043591492114,-0.13084214614,-2.18116769079,0.00573668551214,2.13181980407,-0.039055098217,-0.666135946625,-1.08405962883,-0.0161110639765,-1.31415846421,-0.154340053421,0.181551406763,-0.583620956508,0.573963410858,0.818861500621,0.00354861912678,0.0,0.818834717934,-0.573894096877,-0.011662640206,0.0,-0.0075137001534,0.00959984612078,-0.999925690871,0.0,0.518571321367,0.0729782473555,0.304626810584,1.0,-0.31998,-0.420545142857,1.694
0.256682568496,-0.0632937639957,-0.131035764394,-2.2039388701,0.00269540971341,2.13518208431,-0.0497317088425,-0.680761077421,-1.08527593923,-0.00782105417147,-1.27169417258,-0.175418638489,0.173753638914,-0.605467857652,0.573845762659,0.818942958151,0.00377079233389,0.0,0.818919292945,-0.573776091811,-0.0115297445807,0.0,-0.00727875278382,0.00970445650495,-0.999926418934,0.0,0.512845966771,0.0655045186341,0.304726114724,1.0,-0.31998,-0.420545142857,1.712
0.246232595968,-0.0794771013306,-0.131320343246,-2.22247932834,0.000128111482322,2.13760740569,-0.0588851211021,-0.703234557679,-1.07393313688,-0.0246310990617,-1.22523799299,-0.169676619272,0.146105367298,-0.623167185815,0.573882273627,0.818917168836,0.0038149053632,0.0,0.818894010605,-0.5738123819,-0.0115194043012,0.0,-0.00724453750366,0.00973497251256,-0.999926370783,0.0,0.508067405182,0.059164857476,0.304761012767,1.0,-0.31998,-0.420545142857,1.727
0.234140930743,-0.0975882545175,-0.131545653298,-2.24312316189,-0.0027616263337,2.14005535553,-0.0695197197831,-0.707738983908,-1.07940846369,-0.00833647714717,-1.20701016517,-0.175313856799,0.14831421544,-0.626790779994,0.57377013762,0.818996025287,0.00375321743331,0.0,0.818971452671,-0.573699628501,-0.0116293968003,0.0,-0.00737135223013,0.00974656618769,-0.999925331019,0.0,0.502277157036,0.0516583668737,0.30471874674,1.0,-0.31998,-0.420545142857,1.745
0.220963072521,-0.116526536435,-0.131840090479,-2.26450719543,-0.00587629624329,2.14224867585,-0.0810382886016,-0.74668624476,-1.06939514959,-0.0278600846677,-1.15962703487,-0.174169476002,0.114944378965,-0.648268734816,0.573782332276,0.818988331362,0.00356302716482,0.0,0.8189605538,-0.573711490171,-0.0118103457601,0.0,-0.00762853261551,0.00969473308897,-0.999923905925,0.0,0.496787813696,0.0445072655408,0.304640666202,1.0,-0.31998,-0.420545142857,1.762
0.208108068076,-0.134278727046,-0.132120625247,-2.28419680368,-0.00872559710496,2.14406232869,-0.0923036110204,-0.758368875088,-1.02825667903,-0.00909110165837,-1.15675540059,-0.1769470731,0.0965011080409,-0.662698822041,0.573786201251,0.818985820961,0.00351670577459,0.0,0.818956529933,-0.573714373142,-0.0119485158547,0.0,-0.00776822998,0.00973611013107,-0.999922428373,0.0,0.49130903501,0.0373594664612,0.304596132945,1.0,-0.31998,-0.420545142857,1.779
0.195718042203,-0.150873251452,-0.132448816727,-2.30215202901,-0.0113986031231,2.14561384058,-0.103236621486,-0.788703388246,-1.03310751747,-0.0285965995028,-1.12077621509,-0.169630244362,0.0948840417345,-0.69129602704,0.573781708741,0.818988236928,0.00368312212971,0.0,0.81896137153,-0.573709620683,-0.0118444070717,0.0,-0.00758753354868,0.00981262780297,-0.999923067876,0.0,0.486225146219,0.0306234567899,0.304654500013,1.0,-0.31998,-0.420545142857,1.795
0.182162231261,-0.168288580621,-0.132788610535,-2.32074762233,-0.0141857484562,2.14681802123,-0.115082341355,-0.801068335337,-1.03974611176,-0.0116750227046,-1.06549880416,-0.150429256329,0.081405481636,-0.703125539811,0.573892512005,0.818910198519,0.00377071966762,0.0,0.818883930811,-0.573819397724,-0.0118808062579,0.0,-0.0075657469866,0.00990627821793,-0.999922309544,0.0,0.480791926059,0.023454352727,0.304696430968,1.0,-0.31998,-0.420545142857,1.812
0.169125881978,-0.184416963187,-0.133124973019,-2.33791289884,-0.0168449223869,2.14767591511,-0.126615773033,-0.829301052889,-1.00237893416,-0.0336664670519,-1.06320675161,-0.160912989526,0.0404524449238,-0.726606906125,0.573876325816,0.818921880207,0.00369644260777,0.0,0.818893691354,-0.57380224659,-0.012035404839,0.0,-0.0077351782132,0.00993401870129,-0.999920738004,0.0,0.475633503203,0.0167199139939,0.304651337677,1.0,-0.31998,-0.420545142857,1.828
0.154052644763,-0.202388205159,-0.133473710285,-2.3565282637,-0.0198229552022,2.14850460641,-0.139950512798,-0.845099403013,-0.98329171199,-0.0168425307183,-1.03837073844,-0.16622225341,0.0347617661946,-0.752663789247,0.573852283351,0.818938035034,0.00384689067178,0.0,0.818912446323,-0.573778497189,-0.0118906821526,0.0,-0.00753061371642,0.00997395378417,-0.999921902002,0.0,0.469928170739,0.00915229796477,0.304723143879,1.0,-0.31998,-0.420545142857,1.846
0.13943718609,-0.219187057638,-0.133884520946,-2.37365804579,-0.0225569005056,2.14893228339,-0.152875075308,-0.873768318605,-0.993012786502,-0.0311471099498,-0.997143495135,-0.169908153809,0.0237283536736,-0.760252704913,0.573942251518,0.818874269057,0.00399628565018,0.0,0.81885050222,-0.573867771015,-0.0118483461107,0.0,-0.00740910887082,0.0100728208882,-0.999921818636,0.0,0.464506800531,0.00197838960674,0.304787867124,1.0,-0.31998,-0.420545142857,1.863
0.124585888241,-0.235658626129,-0.134118414098,-2.39048339821,-0.0253752989026,2.14907262804,-0.166145349418,-0.890609466272,-0.972145240757,-0.0167586673574,-0.977958296238,-0.164403857571,0.00379183013792,-0.794735937304,0.573735731435,0.819019650617,0.00385607033934,0.0,0.818993614045,-0.573661179678,-0.0119606849994,0.0,-0.00758410420707,0.0100205622667,-0.99992103173,0.0,0.45901259654,-0.00506208683054,0.304728006318,1.0,-0.31998,-0.420545142857,1.88
0.109156250589,-0.251918154616,-0.134538699103,-2.40657983728,-0.0280138921174,2.14910146565,-0.179876132249,-0.914435168799,-0.948745321319,-0.016468905008,-0.949244625382,-0.163838268154,-0.00808749776884,-0.821223773786,0.573840557274,0.818945085349,0.00408765366723,0.0,0.818922322944,-0.573765529172,-0.011836106604,0.0,-0.00734790803354,0.0101397040669,-0.999921594251,0.0,0.453631745092,-0.0122584614082,0.304802757523,1.0,-0.31998,-0.420545142857,1.897
0.093497157893,-0.267900177839,-0.134857419279,-2.42229434945,-0.0306841596818,2.14893879349,-0.193905359401,-0.93999411394,-0.92951020957,-0.0243869756276,-0.877679790886,-0.150700172638,-0.00632350844113,-0.832825501306,0.573773698627,0.818991338968,0.00420432638978,0.0,0.818970577983,-0.57369897366,-0.0117229228946,0.0,-0.00718909299565,0.0101697202401,-0.999922443859,0.0,0.448224613717,-0.0193461804106,0.304826604636,1.0,-0.31998,-0.420545142857,1.914
0.0783698071716,-0.282686403716,-0.135260241113,-2.43664991493,-0.0331535378142,2.14850297412,-0.207535114117,-0.940096486724,-0.916049045911,-0.00913472968389,-0.895422784446,-0.142791996452,-0.031337374209,-0.864350764128,0.573767131987,0.818995519835,0.00428528201858,0.0,0.818975640178,-0.573691907215,-0.0117150882671,0.0,-0.00713631058712,0.010231471168,-0.999922192007,0.0,0.443111786573,-0.0260739368277,0.304831858967,1.0,-0.31998,-0.420545142857,1.93
0.0608804495174,-0.299108227715,-0.135730342913,-2.45221158329,-0.035890651249,2.14783967095,-0.223305172375,-0.986083498659,-0.922268805648,-0.0339411183602,-0.869151256841,-0.160095177789,-0.0352223617644,-0.89023283079,0.573807266344,0.818966259974,0.00449811251765,0.0,0.818949843366,-0.573732419521,-0.0115330716515,0.0,-0.00686461574355,0.0103016871981,-0.99992337321,0.0,0.437393384054,-0.0336765848861,0.304911904699,1.0,-0.31998,-0.420545142857,1.948
0.044070398301,-0.3142081297,-0.136067615173,-2.46650316152,-0.0384253300499,2.14691787955,-0.238504154609,-0.993983612567,-0.892019748436,-0.018521258261,-0.819132050082,-0.146324550006,-0.0576173740712,-0.901499461507,0.573760394262,0.818999025394,0.00451146115418,0.0,0.818982403546,-0.573684948491,-0.0115822907025,0.0,-0.00689786024251,0.0103404660655,-0.999922744159,0.0,0.431940888575,-0.0407577459871,0.304891729567,1.0,-0.31998,-0.420545142857,1.965
0.0288213446145,-0.32724425616,-0.136509636717,-2.47850454727,-0.0406073994936,2.14599978804,-0.252327602196,-1.02174238358,-0.86046613617,-0.0270390485704,-0.776700389224,-0.146734548799,-0.06492652412,-0.923111686274,0.573858976217,0.818929012217,0.00467923781015,0.0,0.818914949855,-0.573783622855,-0.0114632433897,0.0,-0.00670284161349,0.0104103833445,-0.999923344978,0.0,0.42719821433,-0.04711094577,0.304954412292,1.0,-0.31998,-0.420545142857,1.98
0.0112724119659,-0.341691211018,-0.136898052722,-2.49185123235,-0.0430829044844,2.14479654863,-0.268397920255,-1.05512754289,-0.845798271956,-0.0347496362413,-0.757260301192,-0.140181026977,-0.0816188351519,-0.944418155615,0.573758105198,0.818999621907,0.00469072882373,0.0,0.818985547824,-0.573682486717,-0.0114814542565,0.0,-0.00671244695429,0.0104294173531,-0.999923082197,0.0,0.421754806638,-0.0542165326237,0.304925182219,1.0,-0.31998,-0.420545142857,1.997
-0.00666779742014,-0.355797157716,-0.137316607747,-2.50450013319,-0.0454999104169,2.14334126749,-0.28486267625,-1.05236501089,-0.809351692538,-0.0193205171343,-0.73243214651,-0.125652330626,-0.0801427440683,-0.977210934432,0.573707424301,0.819034698038,0.00476462102705,0.0,0.819021878557,-0.573632078967,-0.0114082131095,0.0,-0.00661071019075,0.01044750657,-0.999923571138,0.0,0.416357221164,-0.0613429988637,0.304980381223,1.0,-0.31998,-0.420545142857,2.014
-0.024012811474,-0.368734927953,-0.137772692321,-2.51612703767,-0.0477113887695,2.14190929439,-0.300786626642,-1.09306181538,-0.789881508332,-0.0159784939307,-0.722223230167,-0.14167303304,-0.0957992004319,-1.0044519482,0.573755654895,0.819000648817,0.00480963769883,0.0,0.81898796524,-0.573679471831,-0.0114596375106,0.0,-0.0066263877201,0.0105142696495,-0.999922767577,0.0,0.411215161985,-0.0681031930977,0.304953899719,1.0,-0.31998,-0.420545142857,2.03
-0.042731930409,-0.38205438311,-0.138232681283,-2.52784631084,-0.0499899231001,2.14017108054,-0.318002174943,-1.12246686246,-0.760499801004,-0.0306114710103,-0.661365811633,-0.142626525181,-0.0939439857329,-1.0274882919,0.573817929317,0.818956751918,0.00485483084037,0.0,0.818944312208,-0.57374106643,-0.0114956120108,0.0,-0.00662912088114,0.0105724279357,-0.999922136231,0.0,0.405468828141,-0.0756738829325,0.304965475447,1.0,-0.31998,-0.420545142857,2.048
-0.0618061715727,-0.395008732939,-0.138598778677,-2.53909425853,-0.0522238331753,2.13844963153,-0.335736863922,-1.13318032396,-0.737280727597,-0.0203129591014,-0.651918966475,-0.128141012838,-0.106579358863,-1.05215118828,0.573699188566,0.819039560289,0.00491798953229,0.0,0.819028340074,-0.573622816786,-0.0114100446904,0.0,-0.00652433259128,0.0105741097679,-0.999922807664,0.0,0.400058173805,-0.0827650780809,0.304988884872,1.0,-0.31998,-0.420545142857,2.065
-0.0801578307868,-0.406717463016,-0.139017018129,-2.54926409814,-0.0542098748243,2.13656164617,-0.352791400871,-1.14786032822,-0.71752030175,-0.015862194399,-0.617466394167,-0.125071487482,-0.112789257094,-1.06652638304,0.573735132185,0.819014499839,0.00489837238525,0.0,0.819001296346,-0.573656040129,-0.0116778041357,0.0,-0.00675444005173,0.0107119460711,-0.99991981266,0.0,0.395206209229,-0.0890528741196,0.304923711253,1.0,-0.31998,-0.420545142857,2.08
-0.101166023888,-0.419545895225,-0.139496774164,-2.55990097613,-0.0564444621122,2.13463676703,-0.372458057088,-1.17011729742,-0.68550467184,-0.0135568068382,-0.584923126578,-0.131802314931,-0.110805029657,-1.09492129936,0.573700291496,0.819037620444,0.00510869222999,0.0,0.819028932689,-0.573623526177,-0.011331572497,0.0,-0.00635064039222,0.0106852989143,-0.999922743893,0.0,0.389539293091,-0.096635293299,0.305050295477,1.0,-0.31998,-0.420545142857,2.098
-0.121373762208,-0.431055168498,-0.139924187559,-2.56969629336,-0.0584687578343,2.1324935909,-0.391419865206,-1.2110269301,-0.665010850319,-0.0430463986606,-0.566860226861,-0.121323844709,-0.12741629908,-1.12826828095,0.573668700923,0.819060202337,0.00503521902949,0.0,0.819048847251,-0.573589310163,-0.0116204984814,0.0,-0.0066298676733,0.0107906143624,-0.999919800532,0.0,0.384031178435,-0.103739779576,0.304969914144,1.0,-0.31998,-0.420545142857,2.115
-0.140609191953,-0.441453446319,-0.140239017855,-2.57829446622,-0.0602558043588,2.13055898161,-0.409636333943,-1.20624880559,-0.6479057758,-0.0149635505479,-0.508989854546,-0.102555264721,-0.120060207746,-1.15967590552,0.573518958366,0.819164769881,0.00508242870326,0.0,0.81915377752,-0.573439039242,-0.0116406163132,0.0,-0.00662124723037,0.0108396135101,-0.999919327678,0.0,0.378936764422,-0.110368299489,0.304977541381,1.0,-0.31998,-0.420545142857,2.131
-0.161578328046,-0.451972889845,-0.140716128284,-2.58679069576,-0.0621967764282,2.12860754682,-0.42940537414,-1.22681961358,-0.604099466562,-0.0345914695767,-0.49794552256,-0.112107934276,-0.118979280577,-1.16499552321,0.573564569165,0.819132294549,0.00516874520777,0.0,0.819123504219,-0.573486185018,-0.0114467170811,0.0,-0.00641229511369,0.0107994799614,-0.999921123741,0.0,0.373545510133,-0.117568613824,0.305039121134,1.0,-0.31998,-0.420545142857,2.148
-0.182813426479,-0.461937874162,-0.141128800178,-2.59491730747,-0.0640441792354,2.1264274944,-0.449601298644,-1.2438030127,-0.583752929747,-0.0202046759033,-0.459165603661,-0.120208461383,-0.12322023425,-1.18041913806,0.573482010061,0.81919049243,0.00510569778719,0.0,0.819179805522,-0.573402030543,-0.0116320460759,0.0,-0.00660137117126,0.0108534626479,-0.999919308868,0.0,0.368062524738,-0.124685876679,0.305002727832,1.0,-0.31998,-0.420545142857,2.165
-0.203075267332,-0.470666707885,-0.141558773927,-2.60198205468,-0.0655023032355,2.12462593398,-0.468877388109,-1.27322398419,-0.529680996981,-0.0277301298233,-0.421467598948,-0.0960483614383,-0.107994581108,-1.20885598413,0.573587219049,0.819115716444,0.0052812989375,0.0,0.819106572506,-0.573505436178,-0.0116912126289,0.0,-0.00654772842193,0.0110320892121,-0.999917706744,0.0,0.362976102119,-0.131388386393,0.304977725834,1.0,-0.313122857143,-0.411532897959,2.181
-0.225883367712,-0.479680639826,-0.141806012038,-2.60898768059,-0.0670093175723,2.12263898799,-0.490409581924,-1.28154596454,-0.478192259411,-0.0278219326058,-0.373069805579,-0.0794571753894,-0.111669819818,-1.18255727718,0.573769910572,0.818986729524,0.00543815110195,0.0,0.818980271114,-0.573688716944,-0.0115463621269,0.0,-0.00633663342779,0.0110789069321,-0.999918549132,0.0,0.357432866621,-0.13879257955,0.305052812253,1.0,-0.303865714286,-0.399366367347,2.199
-0.247080946924,-0.487388032912,-0.141830669437,-2.61513880364,-0.0682933174224,2.12079805124,-0.510650758156,-1.24836913793,-0.435896393607,0.0067553006445,-0.358052501885,-0.0814714700328,-0.110634956423,-1.19176550112,0.573670142772,0.819056651856,0.0054327934091,0.0,0.819049321921,-0.57358758956,-0.011671857797,0.0,-0.0064438539562,0.0111457366766,-0.999917121216,0.0,0.352279159168,-0.145483200237,0.305016871138,1.0,-0.295122857143,-0.387875755102,2.216
-0.26568527012,-0.49348353248,-0.141864164701,-2.61996195947,-0.0692653477299,2.11929656837,-0.528270541688,-1.23442403753,-0.391864588331,-0.00525026583208,-0.304789684938,-0.0539361835039,-0.0961790296497,-1.14430439113,0.573797202714,0.818967187506,0.0055011678971,0.0,0.818959954293,-0.573713023928,-0.0117773656211,0.0,-0.00648930926883,0.0112632725112,-0.99991551021,0.0,0.347558123627,-0.151688495545,0.304985607018,1.0,-0.286894285714,-0.377061061225,2.232
-0.287530241149,-0.500063274155,-0.141746494842,-2.62507975094,-0.0703218689375,2.11769569914,-0.549129710202,-1.19239541813,-0.348902937492,0.0125178646473,-0.274645868019,-0.0621832705419,-0.0882929517733,-1.14154801025,0.573779439253,0.818979510318,0.00551939046654,0.0,0.818972628312,-0.573695399687,-0.0117545461367,0.0,-0.00646040790222,0.0112649634935,-0.999915678309,0.0,0.34272981401,-0.158042443246,0.304994828071,1.0,-0.278151428571,-0.36557044898,2.249
-0.307807551584,-0.505501673016,-0.141651363996,-2.62925568823,-0.0710650686456,2.11632250552,-0.568455474537,-1.18469276629,-0.303610145417,0.00758075118352,-0.233929047837,-0.0463155604103,-0.0814594018376,-1.12966645131,0.573931187359,0.818872159242,0.00566797109767,0.0,0.81886701532,-0.573846263786,-0.0117483471305,0.0,-0.00636797294787,0.0113842765764,-0.999914919964,0.0,0.337784189278,-0.164594116398,0.305008135174,1.0,-0.268894285714,-0.353403918367,2.267
-0.327639299572,-0.510371564394,-0.141370456687,-2.63290107847,-0.0716843787166,2.11510685384,-0.587430839206,-1.16436502938,-0.277997041375,0.0144838522808,-0.208491400808,-0.0361151613791,-0.0774199059328,-1.10576622218,0.573948433912,0.818859183917,0.0057947412362,0.0,0.818856432861,-0.573864435808,-0.0115973522257,0.0,-0.006171321286,0.0114015628009,-0.999915956048,0.0,0.333555154871,-0.170197467175,0.305063451123,1.0,-0.260665714286,-0.34258922449,2.283
-0.345819672098,-0.514291899972,-0.141102645332,-2.6359751507,-0.072190875786,2.11394912275,-0.604958089981,-1.1201215862,-0.234232066341,0.023387328912,-0.182495789682,-0.0209151400762,-0.0704804679411,-1.08885208418,0.573894599244,0.818896638622,0.00583361924294,0.0,0.818893238988,-0.573808355526,-0.0117720503054,0.0,-0.00629283411674,0.0115332494999,-0.999913688473,0.0,0.3294000945,-0.175592028977,0.305024412108,1.0,-0.252437142857,-0.331774530612,2.299
-0.365785734084,-0.518073897739,-0.140768819911,-2.63901736532,-0.0727050319702,2.11287272374,-0.624157138524,-1.08638506609,-0.202755806346,0.026259787927,-0.161896941885,-0.0272991314618,-0.0579296544219,-1.04767164826,0.5738863338,0.818902368502,0.00584240030755,0.0,0.818897927306,-0.573797953903,-0.0119515543966,0.0,-0.0064349227525,0.0116433874095,-0.999911507734,0.0,0.324867088061,-0.181468826411,0.304953032421,1.0,-0.24318,-0.319608,2.317
-0.383071899489,-0.520863843585,-0.140487473468,-2.64118119869,-0.0730074354531,2.11208486189,-0.640760828798,-1.08048804491,-0.166992263596,0.0022337696049,-0.123897005749,-0.0187906667228,-0.0508695570474,-1.03006178775,0.573983063246,0.818833911458,0.00593426099559,0.0,0.81883030529,-0.57389363843,-0.01199040494,0.0,-0.00641263900602,0.0117416681632,-0.99991050164,0.0,0.321249396119,-0.186237131084,0.30493534617,1.0,-0.235465714286,-0.30946922449,2.332
-0.399755227552,-0.523278692983,-0.140062473673,-2.64301198658,-0.0732781948773,2.11136895275,-0.656961704468,-1.03140208979,-0.138368457522,0.0273014346786,-0.10600062968,-0.0131007303415,-0.0339327336398,-0.994894902283,0.573843735477,0.8189315333,0.00593783821386,0.0,0.81892798359,-0.573754342674,-0.0119857773062,0.0,-0.00640879391499,0.0117408511451,-0.999910535886,0.0,0.317096133261,-0.191695976438,0.304938186929,1.0,-0.226208571429,-0.297302693878,2.35
-0.418113679032,-0.525483640345,-0.139683338861,-2.6446539362,-0.0735075386238,2.11070129022,-0.67462298837,-0.991778580167,-0.107760414224,0.0322892150031,-0.0840723992604,-0.00607623428012,-0.0322368326504,-0.977669440127,0.573964211046,0.818846565728,0.00601108429605,0.0,0.818844091665,-0.573874721658,-0.0119542581784,0.0,-0.0063392159775,0.0117836840967,-0.999910475558,0.0,0.313280841403,-0.19674130361,0.304954245587,1.0,-0.217465714286,-0.285812081633,2.367
-0.433832817922,-0.527038738285,-0.139297350724,-2.64583625222,-0.0736146425564,2.11022735985,-0.689820368556,-0.974659291166,-0.0899019348208,0.0143840665968,-0.0689050172133,-0.0100148842191,-0.0238255292881,-0.941349416735,0.57400263328,0.81881917517,0.00607307692757,0.0,0.818817547251,-0.573912958258,-0.0119368152523,0.0,-0.00628879675267,0.0118247330047,-0.99991030934,0.0,0.309835663404,-0.201278789232,0.304955401811,1.0,-0.209237142857,-0.274997387755,2.383
-0.44988837857,-0.528321195319,-0.138822758698,-2.64680757958,-0.0736811269125,2.10980262012,-0.705380337547,-0.930967168346,-0.0638827676056,0.0320667078832,-0.0506817671406,-3.00082321653e-05,-0.0210402581382,-0.893396057724,0.573987211541,0.81882979877,0.00609824022621,0.0,0.818828551071,-0.573897537306,-0.0119234024429,0.0,-0.00626359276885,0.0118375216378,-0.999910316222,0.0,0.306333128433,-0.205879745787,0.304958728882,1.0,-0.200494285714,-0.26350677551,2.4
-0.466384380433,-0.529295578043,-0.138380099404,-2.6475406096,-0.0737061549449,2.10944633277,-0.721240063483,-0.898793429946,-0.0475032899758,0.0270515990586,-0.036346195117,-0.000676497306278,-0.0214855555181,-0.859436741145,0.574141622,0.818721195639,0.00614398894323,0.0,0.818720566981,-0.57405177532,-0.011913830401,0.0,-0.00622725760418,0.0118706645689,-0.999910150256,0.0,0.302735495706,-0.210612229833,0.304962483729,1.0,-0.191237142857,-0.251340244898,2.418
-0.479411184491,-0.529802508333,-0.137865135986,-2.64793699174,-0.0736962276461,2.10924373368,-0.734015189062,-0.852483938966,-0.0276867456306,0.0379146353884,-0.024410234053,0.000607205633,-0.00536562385714,-0.849490155761,0.573965357447,0.818845122263,0.00609763051285,0.0,0.818844037729,-0.573876013911,-0.0118957738204,0.0,-0.00624163264615,0.0118209980535,-0.999910649022,0.0,0.299930370617,-0.214306820599,0.304963497573,1.0,-0.183522857143,-0.241201469388,2.433
-0.493743794163,-0.530123748812,-0.137413189917,-2.64818245684,-0.0736937934556,2.10904243375,-0.747849276157,-0.824428130591,-0.0170157417614,0.0362028360766,-0.0118584630565,0.00108487778454,-0.00960201994917,-0.807586876281,0.57404146221,0.818791997028,0.00606730321016,0.0,0.818790470284,-0.573952134109,-0.0119105173979,0.0,-0.00627001541732,0.0118052081584,-0.999910657993,0.0,0.296818453947,-0.218399481811,0.304963725563,1.0,-0.17478,-0.229710857143,2.45
-0.50882779162,-0.530241867716,-0.136755865121,-2.64829940663,-0.0736218716815,2.10892326339,-0.762589440506,-0.78844030453,0.00375430214843,0.0358545412297,-0.0044393502024,0.00315393914772,-0.00634642530098,-0.76315626098,0.5738835294,0.818903310735,0.00598408311625,0.0,0.818900817919,-0.57379478259,-0.0119056619025,0.0,-0.00631607188175,0.0117330597286,-0.999911217332,0.0,0.293569409728,-0.222646353985,0.304960653357,1.0,-0.165008571429,-0.216868408163,2.469
-0.519634867985,-0.530190194575,-0.136339819061,-2.64829117338,-0.073554132654,2.1088650271,-0.772981583676,-0.751790824715,0.0109486492757,0.0374904708127,0.00434369644909,0.0020028864869,-0.00343652572205,-0.735418477148,0.573959525072,0.818850296156,0.00595003911699,0.0,0.818847283923,-0.573870755818,-0.0119259435777,0.0,-0.00635113126427,0.0117174078785,-0.999911178798,0.0,0.291220132689,-0.225693139786,0.304951427013,1.0,-0.157808571429,-0.207405551021,2.483
-0.532558256407,-0.529952479023,-0.135681474674,-2.64817288995,-0.0733369775997,2.10887268992,-0.785640962396,-0.701003215339,0.0174544178597,0.0357370789169,0.00400267750975,0.00994418740041,0.00273992970243,-0.688397681435,0.573811240208,0.818954355226,0.00593056222091,0.0,0.818951038052,-0.573722483595,-0.0119354929374,0.0,-0.0063722497219,0.0117057854646,-0.999911180566,0.0,0.288447171769,-0.229282874895,0.304936330739,1.0,-0.148551428572,-0.195239020408,2.501
-0.544355764596,-0.5296171656,-0.135185001976,-2.64795274522,-0.0731143566139,2.10887809686,-0.79696179137,-0.673172727316,0.020843378755,0.0333562555113,0.0157372383405,0.01321288546,0.000812345629557,-0.657819604848,0.573959189312,0.818850377194,0.00597123722859,0.0,0.818847403241,-0.573869896819,-0.0119590397328,0.0,-0.00636607347044,0.011753759145,-0.999910657136,0.0,0.285883934029,-0.232576336499,0.304927464614,1.0,-0.139808571429,-0.183748408163,2.518
-0.554571260327,-0.529144782078,-0.134571099996,-2.64764810656,-0.0728129515585,2.10894523467,-0.80702261839,-0.636188646404,0.0343845156316,0.0386955423871,0.0197679241157,0.0144658859146,0.00927355367652,-0.624634390334,0.573798994206,0.818962486785,0.0059921939836,0.0,0.818959626016,-0.573709354633,-0.0119772393606,0.0,-0.00637125465482,0.0117801196461,-0.999910313926,0.0,0.283713441739,-0.235382437268,0.304915217124,1.0,-0.13158,-0.172933714286,2.534
-0.565660259228,-0.528528474576,-0.134006859582,-2.64722243074,-0.0725149915666,2.10902133105,-0.817621558661,-0.607046083519,0.0373401584076,0.0278154040959,0.0303535225851,0.0216714507844,0.0038739045778,-0.57590788534,0.573953685233,0.81885382094,0.00602777249828,0.0,0.818851196865,-0.573863447394,-0.0120086651684,0.0,-0.00637434577748,0.0118284940879,-0.999909723147,0.0,0.28132514005,-0.238453851198,0.304904759488,1.0,-0.122322857143,-0.160767183674,2.552
-0.574718761093,-0.527849035411,-0.133434646519,-2.64675134409,-0.07220826607,2.10915735363,-0.826498568341,-0.537635613154,0.0478642608323,0.0417282894373,0.0287074920965,0.0212674172758,0.0040789436217,-0.545876837115,0.573856138242,0.818922098177,0.00603958775599,0.0,0.818919602336,-0.573765823884,-0.0120087948261,0.0,-0.00636908103538,0.0118374853355,-0.999909650292,0.0,0.279415477189,-0.240949119972,0.304897006998,1.0,-0.114094285714,-0.149952489796,2.568
-0.58320319659,-0.527140417085,-0.13288361725,-2.64624367967,-0.0719059558058,2.10926429974,-0.83472662997,-0.522764580458,0.0514546618259,0.0366149863037,0.0367034080345,0.0149420890246,0.00247691818215,-0.497668380263,0.573834699667,0.818937051214,0.00604900896881,0.0,0.818934491302,-0.57374400324,-0.0120359711939,0.0,-0.00638624309156,0.0118606283518,-0.999909266581,0.0,0.277622209862,-0.243279708297,0.304891969882,1.0,-0.105865714286,-0.139137795918,2.584
-0.591729582347,-0.526377603175,-0.132339543425,-2.64568541655,-0.0715732700098,2.10937811818,-0.842801747683,-0.483731067273,0.0482497371164,0.0284657819716,0.0377303364782,0.0139517276477,0.0110493558393,-0.462769557895,0.573993201295,0.818825727345,0.00608111877178,0.0,0.818823409804,-0.573902007674,-0.0120605159599,0.0,-0.00638561742394,0.0119022457283,-0.999908776057,0.0,0.27581254664,-0.245619309089,0.304890307092,1.0,-0.0971228571429,-0.127647183674,2.601
-0.599812305145,-0.525492063479,-0.131687645734,-2.64506948358,-0.0711656224923,2.10954300741,-0.850683425245,-0.425966271257,0.0521944737036,0.0409784167476,0.0269914518718,0.0207251110479,0.0140141359953,-0.414150313597,0.573905659151,0.81888686229,0.00611130623428,0.0,0.818884665014,-0.57381384385,-0.0120964834348,0.0,-0.00639902244445,0.0119469252729,-0.999908157527,0.0,0.274141287242,-0.247810705231,0.304876774972,1.0,-0.0878657142858,-0.115480653061,2.619
-0.60639472952,-0.524755913244,-0.131102708802,-2.64452974611,-0.0708241782386,2.10967114323,-0.8570779093,-0.399823010157,0.0396163453953,0.0309834106012,0.0339367107473,0.017861253592,0.00716812154512,-0.381918844773,0.573821670534,0.818945697146,0.0061141190943,0.0,0.818943445322,-0.573729690494,-0.0121087782861,0.0,-0.00640870360685,0.0119556273233,-0.999907991514,0.0,0.272787312089,-0.249582220168,0.304878167474,1.0,-0.0796371428572,-0.104665959184,2.635
-0.613228728755,-0.523970029123,-0.130429994752,-2.64394379794,-0.0704428982699,2.10983576814,-0.863527047599,-0.358479252406,0.0448444992549,0.0394734282671,0.0334172575392,0.0228096155239,0.0167558256149,-0.355614668363,0.573855998676,0.818921744347,0.00610051814122,0.0,0.818919477583,-0.573764373614,-0.0120863438324,0.0,-0.00639763297825,0.0119318837652,-0.999908346021,0.0,0.271396388127,-0.251406482428,0.30488739074,1.0,-0.0703800000001,-0.0924994285716,2.653
-0.618650910185,-0.523258826405,-0.129910009201,-2.64341898432,-0.0700930076362,2.10997739653,-0.868624652313,-0.320108825128,0.0404683064999,0.0324800823325,0.0311540880892,0.0218702836774,0.00298925153338,-0.300402766283,0.573932234467,0.818868087733,0.0061312343464,0.0,0.81886622368,-0.573840464083,-0.0120820692988,0.0,-0.00637539336586,0.0119551799196,-0.999908209804,0.0,0.270237914322,-0.252943987081,0.304890514848,1.0,-0.0616371428572,-0.0810088163267,2.67
-0.623396403133,-0.522622220286,-0.129327589793,-2.64296833167,-0.0697072940525,2.11011206683,-0.873152472594,-0.286346282534,0.0421921202258,0.0388971156404,0.0244911138317,0.0272325342571,0.00855539822506,-0.264964333064,0.57388721584,0.818899416875,0.00616079851624,0.0,0.818897868499,-0.573795194986,-0.0120872693667,0.0,-0.00636334376422,0.0119820248283,-0.999907965233,0.0,0.269366303693,-0.254093717757,0.304887424221,1.0,-0.053922857143,-0.0708700408165,2.685
-0.628045616391,-0.522051429973,-0.128614067865,-2.64254934005,-0.0693232314488,2.11022828127,-0.877535922055,-0.245526635267,0.0254049429356,0.0423697915307,0.0206049980709,0.0175420844462,-0.000262982539159,-0.231192521461,0.573786256959,0.818970400453,0.00612873625528,0.0,0.818968520342,-0.573694559366,-0.0120773401043,0.0,-0.00637508415627,0.0119492838957,-0.999908282252,0.0,0.268471248069,-0.255258262799,0.304895847633,1.0,-0.0446657142858,-0.0587035102042,2.703
-0.631877451031,-0.521580889059,-0.127985497824,-2.64217622143,-0.0689506939705,2.11033329094,-0.881019861417,-0.213389809962,0.025432090329,0.034657791813,0.0196752754749,0.0215228905175,0.00327035257793,-0.194355245399,0.573804860427,0.818957401395,0.0061240306168,0.0,0.818955769232,-0.573713759715,-0.0120298319348,0.0,-0.0063386013085,0.0119183157034,-0.999908883791,0.0,0.267751413314,-0.256209277976,0.304917025312,1.0,-0.035922857143,-0.0472128979593,2.72
-0.634835634667,-0.521141560852,-0.127474240036,-2.64189325309,-0.0686135441416,2.11043242925,-0.88369490715,-0.172711846808,0.023439127074,0.0361024359616,0.0172616700402,0.0205803920471,0.00343403756665,-0.149292949618,0.57383382209,0.818936913029,0.00615012233036,0.0,0.818935449958,-0.573742281842,-0.012052789299,0.0,-0.00634201094587,0.0119530814821,-0.999908447179,0.0,0.267203413376,-0.256931183117,0.304905205361,1.0,-0.0276942857144,-0.0363982040818,2.736
-0.637352991592,-0.520799084317,-0.12692662707,-2.64166306494,-0.0682605753268,2.1104625973,-0.885821459819,-0.139508107803,0.0157389007579,0.0380457960542,0.00575151503973,0.018897211151,0.001018885086,-0.118389289467,0.573928882881,0.818870093187,0.0061769555765,0.0,0.818868647786,-0.573836579163,-0.0121022720156,0.0,-0.0063657481159,0.0120041898365,-0.999907684078,0.0,0.266755221293,-0.257503360628,0.304899889646,1.0,-0.01994,-0.0262068571429,2.753
-0.639355522241,-0.52054507183,-0.126477951316,-2.64148636605,-0.0679742331655,2.11052467399,-0.887569996642,-0.106850698513,0.0143423045906,0.0267181627071,0.0101839633887,0.0152218538034,0.00323011567005,-0.0980093165042,0.573950538893,0.818854785291,0.00619406258948,0.0,0.818853619137,-0.573858261244,-0.0120910433603,0.0,-0.00634641691531,0.0120119226877,-0.999907714094,0.0,0.266406169257,-0.257958469349,0.304903014503,1.0,-0.0196,-0.02576,2.77
-0.640933130888,-0.52030887074,-0.126156508762,-2.64130035038,-0.0678031339075,2.11056305697,-0.889070983679,-0.0914739191577,0.0112975235987,0.0165183143997,0.0123369468765,0.0131378645284,0.00302282155249,-0.0996221090054,0.573868281544,0.818912581918,0.00617458628214,0.0,0.818911205388,-0.573776189425,-0.0120859025317,0.0,-0.00635458940437,0.0119923849025,-0.999907896707,0.0,0.266127265174,-0.258339129925,0.304911731327,1.0,-0.01928,-0.0253394285714,2.786
-0.642540776702,-0.520034536937,-0.125929239402,-2.64108097863,-0.0676637089616,2.11065165153,-0.890704516553,-0.0874134674559,0.0158275573465,0.00531235480236,0.00880092629784,0.00161008303705,0.00670211962172,-0.0897018031465,0.573756971361,0.81899062272,0.0061680315723,0.0,0.818989467984,-0.573665511983,-0.0120365523816,0.0,-0.00631955821164,0.0119578389615,-0.999908532453,0.0,0.265831754097,-0.258766226006,0.304923560992,1.0,-0.01892,-0.0248662857143,2.804
-0.644040116948,-0.519792232667,-0.125772231473,-2.6409248543,-0.0676164576753,2.11066890354,-0.892102645591,-0.0876891528072,0.010765367028,0.00787553951149,0.00911869924705,0.00484756394765,0.000222253026748,-0.0789859707071,0.57375715807,0.81899077043,0.00613093915054,0.0,0.818988787333,-0.573665210354,-0.0120970886257,0.0,-0.00639042047147,0.0119621919202,-0.999908030016,0.0,0.265515016837,-0.25916346811,0.304910587141,1.0,-0.01858,-0.0244194285714,2.821
-0.645415431624,-0.519590334825,-0.125662228743,-2.6407461978,-0.0675741578717,2.11067210187,-0.893474912683,-0.0882139860794,0.00876487126906,0.00775403542088,0.0121868405264,-0.00035415403207,-5.88030490737e-05,-0.0830053815156,0.573708999524,0.819024664428,0.00610981388011,0.0,0.819022347788,-0.573617046096,-0.0121088873704,0.0,-0.00641290749338,0.0119512818665,-0.999908016509,0.0,0.265223124997,-0.259542708762,0.304920379965,1.0,-0.01826,-0.0239988571429,2.837
-0.646819156829,-0.519390132657,-0.125590433876,-2.64054885745,-0.067545869606,2.11075631619,-0.894849856704,-0.0807512323923,0.0127446986174,0.0054923559402,0.00816190546528,-0.000248616292747,0.00697424781592,-0.0823499602,0.573703821294,0.819028481641,0.00608429075372,0.0,0.819026423527,-0.573613082071,-0.0120206714688,0.0,-0.00635536589044,0.0118797287735,-0.999909236565,0.0,0.264930966111,-0.259955074052,0.304945268503,1.0,-0.01792,-0.023552,2.854
-0.64817323737,-0.519163325235,-0.125570471106,-2.64038286731,-0.0675109174027,2.1108162828,-0.896223503254,-0.0756895497436,0.018482789352,0.000556130476361,0.0075447002832,0.00451101530057,0.00422108875114,-0.0725059807132,0.573697323855,0.819032930061,0.00609811268184,0.0,0.819031086593,-0.573606592573,-0.0120126205523,0.0,-0.0063409362548,0.011886380969,-0.99990924912,0.0,0.264628780445,-0.26035275821,0.304942811461,1.0,-0.01758,-0.0231051428571,2.871
-0.649418212627,-0.518966216855,-0.12557838047,-2.64022181869,-0.0674849308373,2.11081835024,-0.897453466681,-0.0788845439669,0.0089021648011,-0.00441293066037,0.0123470952898,0.000350596292602,0.00469777644738,-0.0820736061256,0.573734754722,0.819006528208,0.00612248956973,0.0,0.819004815102,-0.573643561005,-0.0120384657393,0.0,-0.00634757752161,0.0119214641513,-0.999908789316,0.0,0.264337942241,-0.260719371871,0.304943421468,1.0,-0.01726,-0.0226845714286,2.887
-0.650758818921,-0.518757384054,-0.125583513488,-2.64004543493,-0.0674595445741,2.1108765119,-0.898770943591,-0.0803660342054,0.0120783722558,-0.000208032577756,0.00607648136473,0.00296119078934,0.00365566930098,-0.0784649938641,0.573777335195,0.818976582095,0.0061379554509,0.0,0.818975271823,-0.573686446057,-0.0120046929752,0.0,-0.00631042206846,0.0119150838813,-0.999909100543,0.0,0.264034309387,-0.26112199172,0.304951521818,1.0,-0.01692,-0.0222377142857,2.904
-0.652069877855,-0.518550458502,-0.12557785539,-2.63987531693,-0.0674353159116,2.11091986305,-0.900098744648,-0.0740979132306,0.0104524740666,-0.000390940402904,0.00900121853326,0.00105741480011,0.000293895281148,-0.0752984828612,0.57377881957,0.8189754541,0.00614969067903,0.0,0.818974375445,-0.573688029726,-0.0119901549321,0.0,-0.00629175978703,0.0119163654534,-0.999909202875,0.0,0.263736326693,-0.261510577673,0.304956455721,1.0,-0.01658,-0.0217908571429,2.921
-0.65323147399,-0.51834301434,-0.125563332575,-2.63970802302,-0.0674072246523,2.11095551072,-0.901268368021,-0.0654250931829,0.010580350972,0.000473772893801,0.0103202333897,0.000549002562641,0.00171677385161,-0.074275642401,0.573782672095,0.81897267963,0.00615971780378,0.0,0.81897173856,-0.573691852623,-0.0119873506541,0.0,-0.00628365374814,0.0119229984431,-0.999909174777,0.0,0.263477339653,-0.261855312549,0.304959457464,1.0,-0.01626,-0.0213702857143,2.937
-0.654429262645,-0.518108688737,-0.125540257388,-2.63952445881,-0.0673752424015,2.11101959873,-0.90252106054,-0.0717904757437,0.0156011933292,0.000910288127894,0.0124962896301,0.000900961126313,-0.000403193470101,-0.0721803274382,0.573744584044,0.818999322214,0.00616517601587,0.0,0.818998573469,-0.573653980162,-0.0119663946516,0.0,-0.00626391194877,0.0119151538877,-0.999909392153,0.0,0.263218247844,-0.262214816769,0.304962565997,1.0,-0.01592,-0.0209234285714,2.954
-0.655553151459,-0.517912303123,-0.125502763099,-2.63939333987,-0.0673499602121,2.11103098511,-0.903607560682,-0.0737649950983,0.00763130275868,0.00278155386676,0.012666066915,0.005202615011,9.55615522212e-05,-0.0722807556254,0.573766407993,0.818984009222,0.00616835463652,0.0,0.818983004278,-0.57367522097,-0.0120135943928,0.0,-0.00630043079467,0.0119450044919,-0.999908806562,0.0,0.262961229319,-0.262531855816,0.304951650869,1.0,-0.0156,-0.0205028571429,2.97
-0.656661140125,-0.517702165251,-0.125476771434,-2.6392308306,-0.0673182946611,2.1110611984,-0.904688047994,-0.0730234946157,0.0173490952018,-0.0010319302859,0.00686890826249,0.00042441044649,-6.0345552049e-06,-0.0773994933928,0.573792521503,0.818965654639,0.00617621967939,0.0,0.818964680772,-0.573701160032,-0.0120240395413,0.0,-0.00630409239298,0.0119576399668,-0.999908632459,0.0,0.262715869355,-0.262856857424,0.304951255242,1.0,-0.01528,-0.0200822857143,2.986
-0.657979677687,-0.517465867827,-0.125461833249,-2.6390219438,-0.0672915230995,2.11116557275,-0.906091465333,-0.062906004974,0.00665597636247,2.08236927881e-06,0.00928335065754,-0.000327078985908,0.00783352407292,-0.0719314559983,0.573734566843,0.819006269854,0.00617443531898,0.0,0.819005798356,-0.573644225363,-0.0119395086582,0.0,-0.00623672336066,0.0119072364073,-0.99990965642,0.0,0.262433444724,-0.26326182807,0.304968336903,1.0,-0.01488,-0.0195565714286,3.006
-0.659039240433,-0.517268897369,-0.12544007469,-2.63887379806,-0.067268150184,2.11118602678,-0.907146614874,-0.0650878349956,0.0103214885643,0.00274336418226,0.00945873411316,0.00269043606741,1.12300008606e-05,-0.0686356251928,0.573740504962,0.819002069176,0.00617985046453,0.0,0.819001525257,-0.573649867068,-0.0119615442234,0.0,-0.00625157943433,0.0119243589601,-0.999909359601,0.0,0.262193782603,-0.263570531921,0.304965302788,1.0,-0.01456,-0.019136,3.022
-0.660141124294,-0.517064242075,-0.125422421488,-2.63872461648,-0.0672415361915,2.11119318875,-0.908235212433,-0.0629116490593,0.0127231462535,0.00180475484097,0.00701505087432,0.000862190680099,-0.000569312495733,-0.0538965420626,0.573758098815,0.818989649497,0.0061923309722,0.0,0.818988998159,-0.573666890152,-0.0120027888314,0.0,-0.00627794543626,0.0119583784754,-0.999908788133,0.0,0.261939965226,-0.263888921784,0.304958664622,1.0,-0.01422,-0.0186891428571,3.039
-0.661219503112,-0.516865769739,-0.125401886216,-2.63856811101,-0.0672185374255,2.11122008659,-0.909346101789,-0.0625014007697,0.0129559232639,0.00176405337848,0.00565186363713,-2.94782806559e-05,0.000654326624017,-0.0610549262896,0.57373488461,0.819005878381,0.00619679431228,0.0,0.819005224074,-0.5736435455,-0.012011350733,0.0,-0.00628273675976,0.0119667682385,-0.999908657667,0.0,0.261697177556,-0.264205468862,0.304959371161,1.0,-0.01388,-0.0182422857143,3.056
-0.662181820358,-0.516675274795,-0.125366642474,-2.63841515993,-0.0671967153455,2.1112670688,-0.910300603931,-0.0635940957044,0.0133706036432,0.00101192018469,0.0104149575141,-0.000569235160508,0.00161117437043,-0.0576121340109,0.573733524649,0.819006891401,0.00618881508649,0.0,0.819006231698,-0.573642407414,-0.0119969895475,0.0,-0.00627557115444,0.0119519833337,-0.999908879499,0.0,0.261490380359,-0.264490458544,0.304963453576,1.0,-0.01356,-0.0178217142857,3.072
-0.663175308115,-0.516464139099,-0.125321686139,-2.63826116819,-0.0671744434076,2.11130735175,-0.911302575704,-0.0591942212545,0.0143648312481,0.00514905645431,0.00725284143837,-7.92129444849e-05,0.00189647091487,-0.0565754778307,0.573712254804,0.819021867148,0.00617873145309,0.0,0.819021010378,-0.573621059855,-0.0120087947665,0.0,-0.00629133615486,0.0119503336815,-0.999908800148,0.0,0.261275956572,-0.264780249857,0.304960040846,1.0,-0.01322,-0.0173748571429,3.089
-0.664152332043,-0.516266381201,-0.12528033178,-2.63811159467,-0.0671580777554,2.11133263102,-0.912337715328,-0.0616339908655,0.00824571272517,0.00111914286177,0.00959404053512,0.00466316846012,0.00290811859017,-0.0556961161185,0.573650105295,0.819065480961,0.00616777863554,0.0,0.819064372697,-0.573558763908,-0.0120268293766,0.0,-0.00631329884809,0.0119512297755,-0.99990865101,0.0,0.261061202732,-0.265063886058,0.304958174015,1.0,-0.01288,-0.016928,3.106
-0.665082139169,-0.516085151494,-0.125252627404,-2.63798472018,-0.0671412156852,2.11137022981,-0.913249969312,-0.0612378880494,0.0140640322833,0.00117010847764,0.00848103609094,-0.000141158620667,0.0019294777363,-0.0549385883913,0.573658697205,0.819059493606,0.00616376154224,0.0,0.819058262185,-0.573567237255,-0.0120388701734,0.0,-0.00632534101139,0.0119549125659,-0.99990853088,0.0,0.26085285107,-0.265334073253,0.304952811764,1.0,-0.01256,-0.0165074285714,3.122
-0.666029706273,-0.515902982935,-0.125244432339,-2.6378417719,-0.0671236181487,2.11143662057,-0.914170069612,-0.0561760213802,0.00670430341058,-0.00102758862403,0.00685487479058,-0.000269401205349,0.00155961319469,-0.0553371709073,0.573690301865,0.819037356639,0.00616383624776,0.0,0.81903633188,-0.573599224169,-0.0120068311565,0.0,-0.00629859282986,0.0119368382424,-0.999908915662,0.0,0.26064333313,-0.265621148204,0.304956391423,1.0,-0.01222,-0.0160605714286,3.139
-0.6670347464,-0.515714574513,-0.125245872519,-2.63767687376,-0.0671094896051,2.11147189346,-0.915191220196,-0.0539606064764,0.00738994876724,0.000351058335542,0.00756948652119,0.00251512165861,0.00511159773043,-0.056098024496,0.573692644106,0.819035687241,0.00616765968435,0.0,0.819034815762,-0.573601746082,-0.0119897607632,0.0,-0.00628238253765,0.0119301952609,-0.999909096924,0.0,0.260415724461,-0.265926616511,0.304964744556,1.0,-0.01186,-0.0155874285714,3.157
-0.66790691728,-0.51555477313,-0.125240465947,-2.63753669642,-0.0670930189632,2.11150408519,-0.916018594689,-0.0563678573968,0.00745834312024,0.00234194276866,0.0073562060687,0.000135215962654,0.00256078407888,-0.0557258445319,0.573739727003,0.81900268399,0.00617058970371,0.0,0.819001959997,-0.573649014554,-0.0119726573495,0.0,-0.00626600644099,0.0119231437783,-0.999909283788,0.0,0.260219462653,-0.266189223861,0.304972317812,1.0,-0.01154,-0.0151668571429,3.173
-0.668795589492,-0.515396705175,-0.125235908137,-2.63739075761,-0.067078913378,2.11154526674,-0.916850057604,-0.0528817667415,0.00786614503347,4.26553381593e-05,0.0109973129248,0.000286137834692,0.00120220369861,-0.0452957180043,0.573796814173,0.818962695934,0.00616973385964,0.0,0.818962175669,-0.573706502637,-0.011939453801,0.0,-0.00623847094796,0.0119038284046,-0.999909686096,0.0,0.260020873541,-0.266459222269,0.304983886158,1.0,-0.0112,-0.01472,3.19
-0.669664667461,-0.515227973302,-0.125221076544,-2.63724872638,-0.067058121656,2.11157137871,-0.917688577248,-0.0552942446985,0.00364604539104,-0.000657232549618,0.0066436694784,0.000533078324884,0.00542483534786,-0.0550796709975,0.573827506923,0.818941167759,0.00617275869593,0.0,0.81894071339,-0.573737227101,-0.0119352038866,0.0,-0.00623280835144,0.0119041008917,-0.999909718166,0.0,0.25982669186,-0.266717743384,0.304988694285,1.0,-0.01086,-0.0142731428571,3.207
-0.670492854922,-0.515056947061,-0.125210034695,-2.63711711956,-0.0670442902542,2.1116087287,-0.918574761622,-0.050051787869,0.00796595136643,4.99419713229e-05,0.00041651572242,-0.000118293257749,0.00383372751235,-0.0508125813955,0.573784917911,0.818971008188,0.00617273242141,0.0,0.818970564227,-0.573694667718,-0.0119327307468,0.0,-0.00623141682881,0.0119023362429,-0.999909747845,0.0,0.259641046533,-0.266965866921,0.304988776127,1.0,-0.01052,-0.0138262857143,3.224
-0.671310150125,-0.51489068971,-0.125202210741,-2.63699117654,-0.0670261916955,2.11163686606,-0.91936329483,-0.0491355834852,0.00791930680917,-0.000509180375358,0.00952450861661,0.000250496311869,-0.000540022934265,-0.0511917691688,0.573817211022,0.81894833775,0.00617861892005,0.0,0.818947920636,-0.573726834698,-0.0119402401172,0.0,-0.00623372033891,0.0119117117373,-0.999909621843,0.0,0.25945515602,-0.26720858595,0.304987178326,1.0,-0.01018,-0.0133794285714,3.241
-0.672145151322,-0.514709282045,-0.125175925283,-2.63687525669,-0.0670083492768,2.11166482551,-0.92015891029,-0.0476980338506,0.010918351198,0.00399616056819,0.00453734728426,-0.000251512541418,0.00312126568131,-0.0479105480758,0.57384457963,0.818929165541,0.00617795739692,0.0,0.818928536124,-0.573753811578,-0.0119734423706,0.0,-0.00626089510659,0.0119304303089,-0.999909228893,0.0,0.259265818074,-0.267448915367,0.304975841998,1.0,-0.00982,-0.0129062857143,3.259
-0.672804696658,-0.514571509621,-0.125154999961,-2.63679002656,-0.0669949251385,2.11169463161,-0.920813995339,-0.0446423130927,0.0084779970713,0.00189356487363,0.00419437376231,0.00251270360855,0.000109019214806,-0.0391760802066,0.573843644168,0.818929829428,0.00617684570999,0.0,0.818929066145,-0.573752653686,-0.0119926607385,0.0,-0.00627728685269,0.0119405405229,-0.999909005441,0.0,0.259115985921,-0.267638232841,0.30496670498,1.0,-0.00952000000001,-0.012512,3.274
-0.673570440213,-0.514414451322,-0.125109661793,-2.63668860291,-0.066978495583,2.11172853334,-0.921593790318,-0.0418748748067,0.00637847656679,0.00458644794012,0.00957539008953,0.000177071485936,0.00597412701707,-0.0389423419153,0.573812303754,0.818951873518,0.00616569725744,0.0,0.818950859616,-0.573721166919,-0.0120107894765,0.0,-0.00629898879388,0.0119415717608,-0.999908856648,0.0,0.258947169814,-0.267853926156,0.304958718009,1.0,-0.00916000000001,-0.0120388571429,3.292
-0.674225270593,-0.514268131409,-0.125074490481,-2.63659952826,-0.0669572947116,2.11174591928,-0.922268995616,-0.0401537560825,0.0127689060944,0.00245836126686,0.0103961824461,0.000459553301976,-1.43908867436e-05,-0.0426550122513,0.573784441112,0.818971392712,0.00616603272093,0.0,0.818970154139,-0.57369287519,-0.012046513462,0.0,-0.00632846270961,0.0119621290701,-0.999908424821,0.0,0.258800979715,-0.268037089355,0.304947436898,1.0,-0.00884000000001,-0.0116182857143,3.308
-0.674810605785,-0.514145259099,-0.125060197331,-2.63650533712,-0.0669401606805,2.11177389079,-0.922820009823,-0.0418311434723,0.0111553229262,6.72893586518e-06,0.00382459181113,0.000193453811404,-0.000695981140184,-0.0349787352307,0.573814592256,0.818950253258,0.00616792540957,0.0,0.818949057201,-0.573723045517,-0.0120439052522,0.0,-0.00632480007803,0.0119624155941,-0.999908444567,0.0,0.258671528818,-0.268210357319,0.304947547684,1.0,-0.00854000000001,-0.011224,3.323
-0.675465091989,-0.513988655121,-0.125043440301,-2.63639247617,-0.066920275445,2.11180534943,-0.923479510513,-0.0371415180944,0.012117282659,0.00356938997769,0.0113558760373,-3.60741234275e-05,9.3502300313e-05,-0.0374152900574,0.573812965607,0.818951372036,0.00617070842724,0.0,0.81895015634,-0.573721301486,-0.012052242661,0.0,-0.00633005566655,0.0119694661841,-0.999908326935,0.0,0.2585281859,-0.26840545436,0.304944024162,1.0,-0.00818000000001,-0.0107508571429,3.341
-0.676105282388,-0.513847629541,-0.12503244643,-2.63630193411,-0.0668944118336,2.11183188486,-0.924095602205,-0.0418530194628,0.00176051842,0.000414097102624,0.00305837695306,-0.000273544918603,0.000858992261516,-0.0376412091309,0.573840737182,0.818931809603,0.00618437321832,0.0,0.818930640367,-0.573748758774,-0.0120712457772,0.0,-0.00633737270472,0.0119917761743,-0.999908013275,0.0,0.258382389317,-0.268591129386,0.304935562383,1.0,-0.00784000000001,-0.010304,3.358
-0.676682362607,-0.513734981654,-0.125019026695,-2.63622247068,-0.066872695442,2.11185486168,-0.924681913468,-0.0347789770433,0.00313210763344,0.000788037354956,0.00567884633619,0.00129913292967,0.000844991331722,-0.0391453953628,0.573837073916,0.818934306952,0.00619357719862,0.0,0.81893321077,-0.573744967209,-0.0120770775461,0.0,-0.0063369213889,0.0120026319898,-0.999907885884,0.0,0.258251188444,-0.268757393135,0.304932303791,1.0,-0.00752000000001,-0.00988342857144,3.374
-0.677263473841,-0.513625833126,-0.125008316749,-2.63616147161,-0.0668517023456,2.11187746737,-0.925259526772,-0.0300115314868,0.00337317127643,0.00123522719045,0.000975536908118,0.000361616295871,9.52009772385e-05,-0.0342035739062,0.573844589978,0.818928942954,0.00620643593312,0.0,0.81892786957,-0.573752150626,-0.0120979748086,0.0,-0.00634654794824,0.0120252122725,-0.999907553526,0.0,0.258114022343,-0.268920440373,0.304921853118,1.0,-0.00718000000001,-0.00943657142858,3.391
-0.677852671295,-0.513525799829,-0.124992389356,-2.63609135646,-0.0668264326179,2.11189375872,-0.925812582508,-0.0314783179646,0.00511580431516,-0.000608550970928,-0.000284600321019,0.000336300973126,-0.000185180874833,-0.02903903859,0.573877332096,0.818905905265,0.00621875629329,0.0,0.818904927287,-0.573784707286,-0.0121068844934,0.0,-0.00634629413237,0.0120406685634,-0.999907369135,0.0,0.257977407924,-0.269085610884,0.304918495727,1.0,-0.00682000000001,-0.00896342857144,3.409
-0.678336766161,-0.5134549434,-0.124967119603,-2.63601957617,-0.066806528976,2.11190759216,-0.926302147644,-0.029460589041,0.0029561287408,0.000656803681678,0.0056679946505,0.000264084794728,0.000181829677185,-0.0340924257958,0.573866994684,0.818913145192,0.00621932033716,0.0,0.818912287449,-0.573774583932,-0.0120888047344,0.0,-0.00633131506527,0.0120306755137,-0.999907584378,0.0,0.257871232159,-0.269222739161,0.304926685284,1.0,-0.00650000000001,-0.00854285714286,3.425
-0.678817558769,-0.513354727593,-0.124933058623,-2.63594560569,-0.0667834431609,2.11191906289,-0.926782399497,-0.024529537543,0.00342418601888,0.000718810821463,0.00197478585758,0.000165963118559,0.000229051281567,-0.0282483417847,0.573856927129,0.818920194466,0.00622006296696,0.0,0.818919272448,-0.573764374783,-0.0121001794813,0.0,-0.00634035286601,0.012037733018,-0.999907442171,0.0,0.257767637668,-0.269356498673,0.30492501914,1.0,-0.00616000000001,-0.00809600000001,3.442
-0.679263983633,-0.51325921337,-0.124895534253,-2.63586221266,-0.0667583910654,2.11194758342,-0.927255062927,-0.0285175477173,0.00584088811321,0.00221876386947,0.00517354086526,-8.77515420634e-05,0.00356402804845,-0.0315232773706,0.573823694836,0.818943509475,0.00621630397967,0.0,0.818942662106,-0.573731401153,-0.0120806628293,0.0,-0.00632701343658,0.0120231985942,-0.999907701539,0.0,0.257679029345,-0.269485464181,0.304930904145,1.0,-0.00582000000001,-0.00764914285715,3.459
-0.679663001703,-0.513172849927,-0.124866601703,-2.63580560332,-0.0667375025863,2.11197657555,-0.927669938286,-0.0241115958903,0.00939368007803,0.00382162115421,0.00195399564852,8.25724914024e-05,0.00262794014282,-0.0250375244315,0.573802026089,0.818958690108,0.00621656285704,0.0,0.818957857533,-0.573709757629,-0.0120784306763,0.0,-0.00632535477793,0.0120219624527,-0.999907726896,0.0,0.257595126698,-0.269597611678,0.304927841897,1.0,-0.00550000000001,-0.00722857142858,3.475
-0.680067791665,-0.513093683309,-0.124841192418,-2.63574941131,-0.0667128797967,2.11199681489,-0.928108432822,-0.0249085726004,0.00577257260211,0.00101604174827,0.00170719794357,0.000950468593726,0.000429638371858,-0.0189673248563,0.573769795367,0.818981224181,0.00622280196105,0.0,0.818980469611,-0.573677500062,-0.0120773846113,0.0,-0.00632139146787,0.0120262233114,-0.999907700722,0.0,0.257507884765,-0.269710352826,0.304926422291,1.0,-0.00516000000001,-0.00678171428572,3.492
-0.680495135653,-0.513003060008,-0.124806659529,-2.63569470829,-0.0666921967809,2.11200758953,-0.92852608112,-0.0188912981767,0.00239319292665,0.00249021794441,0.00306096343206,0.000652381180095,0.000398855007928,-0.0158631482324,0.573764926668,0.818984630458,0.00622341542884,0.0,0.818983742696,-0.573672361322,-0.0120995023082,0.0,-0.00633922705183,0.0120393779102,-0.999907429505,0.0,0.257414173451,-0.269825343141,0.304919491442,1.0,-0.00480000000001,-0.00630857142858,3.51
-0.680829255272,-0.512951282603,-0.124794971625,-2.63565804775,-0.0666738632363,2.11201213638,-0.928840582644,-0.0236416435429,0.00159907604227,-0.000231784731127,0.00553739731476,0.00246649888151,0.000230880539063,-0.0202376051125,0.573782430174,0.818972291694,0.00623339086447,0.0,0.81897147919,-0.573689712475,-0.0121068978194,0.0,-0.00633930369091,0.0120519266263,-0.999907277848,0.0,0.257336064329,-0.269916446284,0.30491766367,1.0,-0.00450000000001,-0.00591428571429,3.525
-0.681203347155,-0.51287739527,-0.124767585016,-2.63560915912,-0.0666538092833,2.11202446064,-0.929192721958,-0.0238615680119,0.00304111845056,0.00163942952805,0.00219324595732,-8.43052500576e-05,0.000126667928831,-0.0220955276694,0.573792065961,0.818965521907,0.00623585355442,0.0,0.818964677785,-0.573699214021,-0.0121167352603,0.0,-0.00634580630976,0.0120596625405,-0.99990714333,0.0,0.257254277055,-0.270018253111,0.304914242702,1.0,-0.00414000000001,-0.00544114285715,3.543
-0.681530999213,-0.512824785928,-0.124742054018,-2.63556417697,-0.066634798688,2.11203706279,-0.929495549972,-0.0204837220363,0.0010810622562,0.00129889808067,0.00345574940389,-4.88317001213e-05,0.0010132980387,-0.0117489810414,0.57380464516,0.818956700292,0.00623691752149,0.0,0.818955917722,-0.573711876378,-0.0121092787888,0.0,-0.00633890338929,0.0120563530533,-0.999907227024,0.0,0.257184116897,-0.270107977058,0.304916896034,1.0,-0.00380000000001,-0.00499428571429,3.56
-0.681812603451,-0.512769495698,-0.124711560128,-2.63552120436,-0.0666164431305,2.11204817099,-0.929778970631,-0.0175378527953,0.00407749828027,0.000918879678659,0.00260141215658,-0.000213806681186,0.003730016282,-0.0119365288161,0.573791516372,0.818965909452,0.0062355269062,0.0,0.818965114707,-0.573698767978,-0.0121083200656,0.0,-0.00633910929818,0.0120545624268,-0.999907247307,0.0,0.257126698752,-0.27018405404,0.304917632452,1.0,-0.00348000000001,-0.00457371428572,3.576
-0.682085955741,-0.512726127046,-0.12469384161,-2.63549120181,-0.0666007289313,2.11205648677,-0.930029804933,-0.012731104435,0.0046346901393,-0.000124513605806,0.00201930902378,0.000126172136714,0.000103126269504,-0.0135178541339,0.573805632624,0.818955987658,0.00623964340926,0.0,0.818955226853,-0.573712825226,-0.0121110479388,0.0,-0.00633877381862,0.0120596082928,-0.99990718859,0.0,0.257065299015,-0.270257365011,0.304916348661,1.0,-0.00314000000001,-0.00412685714286,3.593
