nelsonifechukwu/NELSON_IML_WORK/CNN-GradCAM/train2dof/data_sample_2022-02-21-10-37-22/robot_state.csv
position_joint1,position_joint2,position_joint3,position_joint4,position_joint5,position_joint6,position_joint7,velocity_joint1,velocity_joint2,velocity_joint3,velocity_joint4,velocity_joint5,velocity_joint6,velocity_joint7,ee_T_00,ee_T_10,ee_T_20,ee_T_30,ee_T_01,ee_T_11,ee_T_21,ee_T_31,ee_T_02,ee_T_12,ee_T_22,ee_T_32,ee_T_03,ee_T_13,ee_T_23,ee_T_33,v_x,v_y,time
0.465072677326,0.547676668136,-0.123963794235,-1.35574533855,0.0794725969301,1.89409394511,0.159180758578,-0.000423875535962,-0.00124901370079,0.000558881426844,-6.53020990098e-05,-0.00031973992775,0.000431605404704,0.00205949822015,0.573794680712,0.818984754125,0.00209375255295,0.0,0.818943689365,-0.573735738423,-0.011801822134,0.0,-0.00846441469777,0.00848665159784,-0.999928162634,0.0,0.661694767073,0.260911043424,0.303328703345,1.0,0.0,0.0,0.0
0.465072677219,0.547679081427,-0.123966457494,-1.35574283352,0.0794721410035,1.89409395771,0.159172453076,3.46834574717e-05,0.000226996207133,0.000721345793995,-3.79936545643e-06,0.000237802646899,0.0002136132401,-0.000862839256792,0.573789486738,0.818988395293,0.00209288919348,0.0,0.818947338603,-0.573730567827,-0.0117999591864,0.0,-0.00846343808059,0.00848482191918,-0.999928186428,0.0,0.661695917374,0.260909694719,0.303328274466,1.0,-0.00024,-0.000315428571429,0.013
0.465074986828,0.547677023024,-0.123964359805,-1.35574641838,0.0794728530977,1.89409126804,0.159177132925,0.00128447902441,0.00137145105325,0.00112391534943,-0.000878048380007,0.000131749188313,-0.00701314859789,0.000875914643628,0.573790324422,0.818987814694,0.00209042666197,0.0,0.818946702124,-0.573731391192,-0.0118040985641,0.0,-0.00846823253024,0.00848518893166,-0.999928142722,0.0,0.661693488759,0.260911970353,0.303327724513,1.0,-0.00056,-0.000736,0.029
0.465066349913,0.547640332466,-0.1239694013,-1.35577863506,0.0794728530977,1.89409673226,0.159176060326,-0.000495539659115,-0.00117914466434,-0.000972210357748,-0.00467853956143,6.14630405352e-05,0.000219329988167,0.0012368764368,0.573801772657,0.81897977091,0.00209938993686,0.0,0.818938775551,-0.573742803414,-0.0117993360611,0.0,-0.00845907053973,0.00848991522953,-0.999928180153,0.0,0.661691575182,0.260900368143,0.303339023909,1.0,-0.00092,-0.00120914285714,0.047
0.46507331894,0.547506299606,-0.123966948273,-1.35590964913,0.0794672678614,1.89412574968,0.159175492155,-0.00110737666207,-0.0115962937225,-0.000993774846161,-0.00705878915041,-0.000530209922123,0.000319137689723,0.00134924714017,0.573799517774,0.818981270309,0.00213053664073,0.0,0.818940623271,-0.573740369845,-0.0117894218396,0.0,-0.00843310315753,0.00850971140915,-0.999928231216,0.0,0.661668803702,0.260893677889,0.303374042277,1.0,-0.00128,-0.00168228571429,0.065
0.465065224039,0.547392749754,-0.123964394215,-1.35607241669,0.0794699951563,1.89415965842,0.159166029902,-0.00108773225561,-0.00805010954072,-0.00219432398313,-0.0153969651069,-0.000137827401575,0.00244612200914,-0.000605922955286,0.573806255102,0.818976561208,0.00212619341217,0.0,0.81893569811,-0.573746962429,-0.0118106886226,0.0,-0.00845294288724,0.00851842670115,-0.999927989489,0.0,0.661642619972,0.260874711936,0.303379869596,1.0,-0.00158,-0.00207657142857,0.08
0.465049986479,0.547234729285,-0.123972462703,-1.35628439414,0.0794655565291,1.89426580314,0.15915792926,0.000456819767513,-0.0109503859919,-0.000792321268757,-0.0124455206152,9.54822122682e-05,0.0108248897524,0.000435721877905,0.573828580854,0.818960797197,0.00217240660414,0.0,0.818920538956,-0.573769109043,-0.0117858934999,0.0,-0.00840588677398,0.00854227539351,-0.99992818272,0.0,0.661625441075,0.260843371939,0.303400386261,1.0,-0.00192,-0.00252342857143,0.097
0.465030694149,0.547040117234,-0.123967524909,-1.3564863914,0.0794596792884,1.89437509346,0.1591471037,-0.000488550106621,-0.012504150078,-0.00158671584352,-0.00606297301662,-0.000630771842924,0.00729467487069,-0.00455620817059,0.573841921873,0.818951201059,0.00226404199663,0.0,0.818912103352,-0.573782066957,-0.011741103987,0.0,-0.00831648463354,0.00859175448827,-0.999928506363,0.0,0.661610289273,0.260818528671,0.303451407369,1.0,-0.00226,-0.00297028571429,0.114
0.465013066443,0.546833309637,-0.123964775937,-1.35675009123,0.079455497452,1.89451434478,0.159130678927,-0.00106803745858,-0.00648383523307,0.000537038859424,-0.0170635254752,-0.000160367512659,0.0137994696586,-0.00157553066508,0.573854841254,0.818941933747,0.00234034642105,0.0,0.818903767971,-0.57379463856,-0.0117080512008,0.0,-0.00824549461337,0.00863540662414,-0.999928718245,0.0,0.661587247026,0.260788661853,0.303484367438,1.0,-0.0026,-0.00341714285714,0.131
0.464976558667,0.546593081118,-0.123967559985,-1.35711913517,0.0794486487749,1.89464359421,0.159094726154,-0.005284482163,-0.00930727605949,-0.000313790312175,-0.0199605098218,0.000333770779117,0.00766751468255,0.00154631041661,0.573876023958,0.818927066333,0.00234862809225,0.0,0.818888876951,-0.573815650603,-0.01171977943,0.0,-0.00825012387037,0.0086491323644,-0.999928561431,0.0,0.661545250712,0.260729912043,0.303490148653,1.0,-0.00294,-0.003864,0.148
0.464939899674,0.546322315844,-0.123967560962,-1.35752585905,0.0794298046188,1.89479540639,0.158945543662,-0.000303712667088,-0.0187033177977,-0.00157612995301,-0.024309553087,-0.0051910765149,0.00510588467477,-0.0180852822984,0.573801623166,0.818979147546,0.00236644004574,0.0,0.818941131183,-0.573741131981,-0.0117168268038,0.0,-0.00823827144935,0.00866127608271,-0.999928554038,0.0,0.661499962724,0.260668193343,0.303501452507,1.0,-0.00328,-0.00431085714286,0.165
0.464898267701,0.546046001741,-0.123968272038,-1.35796955013,0.0794142036448,1.89494983331,0.158934162485,-0.00452482605593,-0.0160773774467,-0.000487869707791,-0.0231495494845,0.000558500842458,0.00578085778954,-0.000626239213705,0.573847521311,0.818947004203,0.00236082464034,0.0,0.818908808737,-0.573786933675,-0.0117330566065,0.0,-0.0082543001476,0.00866645240098,-0.999928377001,0.0,0.661448103777,0.260599159679,0.303499328487,1.0,-0.0036,-0.00473142857143,0.181
0.464842178885,0.545722203951,-0.123967860982,-1.35850695304,0.0793637052937,1.89513193688,0.15888469316,-0.0085044504767,-0.0206142271915,-0.00344082620663,-0.0352487805092,-0.00992524456085,0.018495113902,-0.00329287602907,0.573869220369,0.818931905008,0.00232374153434,0.0,0.818893357757,-0.573808904226,-0.0117369908144,0.0,-0.00827857205129,0.00863856059479,-0.999928417696,0.0,0.661386926285,0.260506940475,0.30348850248,1.0,-0.00394,-0.00517828571429,0.198
0.464786680865,0.545414168469,-0.123970051338,-1.35904879872,0.0792738365002,1.89530761538,0.158778392005,-0.00729283584593,-0.0256097583873,-0.000455833937078,-0.0357937313702,-0.00253826154123,0.0123403757052,-0.00884268760976,0.57383545825,0.818955790131,0.00224222378473,0.0,0.818916654298,-0.573775939281,-0.0117231274318,0.0,-0.00831434910752,0.00856350547594,-0.999928766449,0.0,0.661325624032,0.260406061529,0.303463835506,1.0,-0.00424,-0.00557257142857,0.213
0.464720518553,0.544993188669,-0.123973269497,-1.35976948379,0.0792635774238,1.89553489854,0.158727396973,-0.00124906495836,-0.0192105608366,-0.00130566467937,-0.0394486184843,-0.00299614046614,0.0155171657743,-0.00779835537283,0.57388745026,0.81891947787,0.0021977489564,0.0,0.818879430287,-0.573827752135,-0.0117871300105,0.0,-0.00839174257743,0.00856434229108,-0.999928112765,0.0,0.66123498642,0.260294188624,0.303438635936,1.0,-0.0046,-0.00604571428571,0.231
0.464647057631,0.544548283725,-0.123971172564,-1.36052149919,0.0792412790829,1.89579749218,0.15860312144,-0.0030752908721,-0.0273094941317,0.00117707564874,-0.0417964496145,-0.0031910048124,0.0117336524272,-0.00776749447362,0.573880362121,0.818924511995,0.0021726773565,0.0,0.818883890199,-0.573820510047,-0.0118297727652,0.0,-0.00844112657768,0.00856820972871,-0.999927663966,0.0,0.661146082364,0.260177619352,0.30341828964,1.0,-0.00496,-0.00651885714286,0.249
0.464584736719,0.544107089791,-0.123979634219,-1.36123951765,0.0792090580277,1.8960547494,0.158544911421,-0.00819292027198,-0.0340003949638,-0.000439374373203,-0.0474636391839,-0.0020197482721,0.0172623502365,-0.00247626866876,0.573921087342,0.818896007114,0.00215915208243,0.0,0.818855136555,-0.573861209822,-0.011845847395,0.0,-0.00846162641897,0.00856677932779,-0.999927502957,0.0,0.661063819604,0.260064325276,0.303411321143,1.0,-0.00528,-0.00693942857143,0.265
0.46451225646,0.54360898565,-0.123975173211,-1.36206325642,0.0791711019466,1.89634183221,0.158428894461,-0.00351902767187,-0.0316828576763,0.000802902398326,-0.0488042023545,-0.000513841613616,0.0134682097053,-0.00489851610314,0.573918032495,0.818898215165,0.0021335599195,0.0,0.818856848665,-0.573858092996,-0.0118784426151,0.0,-0.0085030385396,0.00856449746001,-0.999927171207,0.0,0.660964573621,0.259941098734,0.303396410481,1.0,-0.00562,-0.00738628571429,0.282
0.46444853142,0.543079133201,-0.123988514391,-1.36291255685,0.0791093375101,1.89664072511,0.158321089705,0.000471017299675,-0.032718025832,-0.000865400033982,-0.0449380230879,-0.00338752907991,0.0178556444768,-0.00433215966212,0.573922014667,0.818895493482,0.00210683089478,0.0,0.818853909915,-0.573862313755,-0.011877119585,0.0,-0.00851725283525,0.00854189157427,-0.999927243599,0.0,0.660865651941,0.259807684417,0.303393303835,1.0,-0.00596,-0.00783314285714,0.299
0.464374306078,0.542542891897,-0.123986500894,-1.36377166159,0.0790636118721,1.89693205829,0.158220630842,-0.00244759890905,-0.0367921990542,-0.000153294554796,-0.0534445143284,-0.00358477112504,0.02517369803,-0.00546809743979,0.573934550141,0.818886766071,0.00208408463566,0.0,0.8188447762,-0.573874829593,-0.0119020733772,0.0,-0.008550611288,0.00853771732407,-0.99992699455,0.0,0.660761314164,0.259677235585,0.303388854521,1.0,-0.00628,-0.00825371428571,0.315
0.464285181629,0.541917743687,-0.123984982976,-1.36475554207,0.079011186193,1.89730778987,0.158077722757,-0.00251781890214,-0.0367005592798,0.00076152537297,-0.0534063482275,-0.000870585648132,0.0208904253847,-0.00536090997933,0.573930211293,0.818889761435,0.00210192391533,0.0,0.818847939003,-0.57387035386,-0.0119002795027,0.0,-0.00853894962314,0.00855125063352,-0.99992697856,0.0,0.660651609882,0.259527665565,0.303395156301,1.0,-0.00664,-0.00872685714286,0.333
0.46422160792,0.541316286226,-0.123995182137,-1.36566620337,0.078948391427,1.8976390596,0.157958153297,-0.0056237871405,-0.0361135802105,-0.00111008738014,-0.0600515806715,4.57495216095e-05,0.0246553096303,-0.00447369203459,0.573925208055,0.818893236133,0.00211430264455,0.0,0.81885168114,-0.573865407709,-0.0118812890853,0.0,-0.00851634608539,0.00855043620754,-0.999927178294,0.0,0.660545774529,0.259391879748,0.303415970312,1.0,-0.00696,-0.00914742857143,0.349
0.464129642872,0.540634301278,-0.123992420052,-1.3667084639,0.0788951419351,1.89802876297,0.157843376518,-0.005947235277,-0.0424600703802,0.000621682228895,-0.0639382245677,-0.000533200575719,0.0196188866353,-0.0048708374874,0.573948154513,0.818877073781,0.00214496343377,0.0,0.81883581694,-0.573888126388,-0.0118772971282,0.0,-0.00849524083027,0.00857349071918,-0.999927160417,0.0,0.660427042962,0.259235803883,0.303435655556,1.0,-0.0073,-0.00959428571429,0.366
0.464042104198,0.539906904823,-0.123992728219,-1.36781110849,0.0788323678379,1.89843806974,0.157682002866,-0.00316376674309,-0.0463299418713,0.00134004689996,-0.0648027311175,-0.00135190306224,0.0204682224567,-0.0128174705692,0.573932158935,0.818888202052,0.00217632287931,0.0,0.818847312814,-0.573871966442,-0.0118655522918,0.0,-0.00846779312346,0.008592263613,-0.999927232095,0.0,0.66029935799,0.259074100213,0.303460371594,1.0,-0.00764,-0.0100411428571,0.383
0.463940970771,0.539177261139,-0.123999168658,-1.36895489775,0.0787660310495,1.89888045422,0.157542808119,-0.00756767898777,-0.0461730702762,0.00010151134019,-0.064451192452,-0.000259613204041,0.0223488974251,-0.0106110566269,0.573951166066,0.818874820011,0.00219886878035,0.0,0.818834247881,-0.573890905913,-0.0118511395629,0.0,-0.00844285153119,0.00860265006293,-0.999927353696,0.0,0.660173726164,0.258896683566,0.303470047961,1.0,-0.00798,-0.010488,0.4
0.463835008929,0.538462044983,-0.123996738912,-1.37006143139,0.0786906775699,1.89931588348,0.157411788037,-0.0110595900562,-0.0453213154957,0.000282870140151,-0.0721126934427,-0.00302885805243,0.0248242512165,-0.00151137205585,0.573970044634,0.81886150119,0.0022308367431,0.0,0.818821436259,-0.573909750011,-0.0118237585639,0.0,-0.00840188349212,0.00861330600955,-0.999927607036,0.0,0.660054441958,0.258723542679,0.303486232809,1.0,-0.0083,-0.0109085714286,0.416
0.463717639839,0.537635638255,-0.12400833195,-1.37137729147,0.0786221762786,1.89981782539,0.157240756912,-0.00727458432968,-0.0427309657475,0.000173321811299,-0.0707337045897,-0.000967312925008,0.0272397023768,-0.00605124408271,0.573988631092,0.818848439356,0.00224313246166,0.0,0.818808499568,-0.573928250586,-0.0118216375797,0.0,-0.00839289398246,0.00862234750383,-0.999927604607,0.0,0.659908413552,0.258516977832,0.303487448433,1.0,-0.00866,-0.0113817142857,0.434
0.463609935152,0.536846378362,-0.124011586835,-1.37258961847,0.078558820078,1.90026340441,0.157098652117,-0.0030495176944,-0.0567293421542,-0.000563115837596,-0.0738978740291,-0.0051987872841,0.0289539440132,-0.00290316247178,0.574012515251,0.818831631447,0.00226684325415,0.0,0.818791915382,-0.573951952566,-0.0118195749652,0.0,-0.00837734402972,0.00864082324753,-0.999927575518,0.0,0.659769174884,0.258330458607,0.303506394368,1.0,-0.00898,-0.0118022857143,0.45
0.463494877281,0.536061441566,-0.1240148137,-1.37383074155,0.0784818396161,1.90072942335,0.156945495912,-0.00794149764674,-0.0453927832366,-0.000354644404041,-0.0812940440979,-0.0010682557513,0.0257510230747,-0.00621496580742,0.574029315475,0.818819814806,0.00228095535144,0.0,0.818780324287,-0.573968739574,-0.0118073474428,0.0,-0.00835905391607,0.00864553138576,-0.999927687888,0.0,0.659621305663,0.258122684025,0.303517590582,1.0,-0.00932,-0.0122491428571,0.467
0.46337601105,0.535155840328,-0.124024392463,-1.3752400587,0.0783984387665,1.90124261469,0.156765625059,-0.00575044449682,-0.0528295961902,0.000877047775649,-0.0837249952868,-0.000862286584797,0.0311962111059,-0.0167100814701,0.574043024259,0.818810209936,0.00227888255336,0.0,0.818770684376,-0.573982446274,-0.0118095163323,0.0,-0.00836187495656,0.00864521914552,-0.999927667001,0.0,0.659466066427,0.257916801985,0.30352324751,1.0,-0.00964,-0.0126697142857,0.483
0.463245130074,0.534205605626,-0.124027519736,-1.37677319186,0.0783148762321,1.90180534684,0.156585125621,-0.00541764202683,-0.0557834373583,0.000671461720505,-0.0880778705649,-0.0127652188814,0.0315856209541,-0.0103677358776,0.574066269087,0.818793952901,0.00226457303336,0.0,0.81875414954,-0.574005648931,-0.0118281235568,0.0,-0.00838507976767,0.00864442176045,-0.999927479575,0.0,0.659286074317,0.257683835146,0.303512770333,1.0,-0.01,-0.0131428571429,0.501
0.463114023531,0.533280184294,-0.124028262995,-1.37824611492,0.07822845442,1.90235305833,0.15639529736,-0.0109126074649,-0.0554520727175,0.000761196827315,-0.0910507077274,-0.00597378836426,0.0360232767676,-0.0173893471147,0.57407616643,0.81878701269,0.0022649255055,0.0,0.81874717872,-0.574015507385,-0.0118322238079,0.0,-0.00838813031944,0.00864716553636,-0.999927430266,0.0,0.659115712082,0.257457469653,0.303511858683,1.0,-0.01034,-0.0135897142857,0.518
0.462997434498,0.532396001212,-0.124034009608,-1.37967832592,0.0781536694333,1.90289503941,0.156216285345,-0.00779060886763,-0.0544255486852,-0.00103791333235,-0.0893110134058,0.000275602348733,0.0359003027046,-0.00398383253283,0.574087431901,0.818779119456,0.00226295751514,0.0,0.818739178554,-0.574026695307,-0.0118430348982,0.0,-0.00839799334903,0.00865187604312,-0.999927306732,0.0,0.658948993726,0.257243560324,0.303500756428,1.0,-0.01066,-0.0140102857143,0.534
0.462855849282,0.531423306306,-0.124028289671,-1.38125292714,0.0780568420978,1.90346810856,0.156020926113,-0.00966668673377,-0.0530385710626,7.68965258224e-05,-0.0934848941648,-0.0024198635571,0.0331243514033,0.000325251167422,0.574099204308,0.818770934381,0.00223775061911,0.0,0.818730614164,-0.574038512476,-0.011862315412,0.0,-0.00842812630462,0.00864242717149,-0.999927134915,0.0,0.658762254173,0.257002690214,0.303486377759,1.0,-0.011,-0.0144571428571,0.551
0.462727677268,0.530468544849,-0.124036227326,-1.38281016934,0.0779569684756,1.90400830718,0.155818781628,-0.0110293374049,-0.0593433504414,-0.000402701386284,-0.0994011447591,-0.000645388219711,0.0297988486342,-0.0130625303984,0.574101946776,0.818769168276,0.00217960746826,0.0,0.81872810146,-0.574041496376,-0.0118913085863,0.0,-0.008485215075,0.00861149509148,-0.999926918968,0.0,0.658571932852,0.256761863116,0.303465003622,1.0,-0.01132,-0.0148777142857,0.567
0.462592037906,0.529432091104,-0.124039594084,-1.38445969769,0.0778521591049,1.90461798959,0.155591189896,-0.00603334424158,-0.0642882588616,-0.000189546270653,-0.0943936141128,-0.00143312559362,0.0363411526868,-0.010707560973,0.574090445282,0.818777252053,0.00217233922438,0.0,0.818736123941,-0.574030059299,-0.0118910586715,0.0,-0.00848930377471,0.00860528144241,-0.999926937757,0.0,0.658376783768,0.256512821194,0.303462906642,1.0,-0.01166,-0.0153245714286,0.584
0.462447346844,0.52828841043,-0.124040238742,-1.38623798652,0.0777444566775,1.90529334832,0.155346272613,-0.00863878718006,-0.0581206888065,0.00014134530051,-0.0969333880955,-0.000493367596862,0.0396969951439,-0.0179865134297,0.574076335353,0.81878705533,0.00220592683319,0.0,0.818746368096,-0.574015820652,-0.0118730481326,0.0,-0.00845542400995,0.00862229655031,-0.999927078245,0.0,0.658168816254,0.256249532042,0.303480375867,1.0,-0.01202,-0.0157977142857,0.602
0.462321781261,0.527306841604,-0.124042614311,-1.38777469542,0.0776472602599,1.90587865255,0.155132273484,-0.0139734472074,-0.0633194924761,-0.000627915179244,-0.101248084637,-0.00445609162222,0.0403219170151,-0.022066756973,0.574062645603,0.818796594435,0.00222772659047,0.0,0.818756239822,-0.574002096295,-0.0118558046112,0.0,-0.00842893499014,0.00863010576369,-0.999927234517,0.0,0.657989596568,0.256019990391,0.30349069206,1.0,-0.01232,-0.016192,0.617
0.462163653639,0.526061192149,-0.124038936534,-1.38968735657,0.0775288314936,1.90659245669,0.154874886066,-0.0122768288962,-0.0701778317226,-0.00109212846458,-0.110600687054,-0.0073625307781,0.0406743308614,-0.0127276893408,0.574050070957,0.818805302766,0.00226695769915,0.0,0.818765448,-0.573989358567,-0.0118365668194,0.0,-0.00839079563144,0.00865105521832,-0.999927374259,0.0,0.65776247484,0.255736711071,0.303518568998,1.0,-0.01268,-0.0166651428571,0.635
0.462009987914,0.524897930982,-0.124048920994,-1.3915313045,0.0774161650749,1.90725037965,0.154636496328,-0.00622287841594,-0.0676912121711,-0.000879324543158,-0.10823557226,-0.00716505014343,0.0350427704677,-0.0217204759129,0.574056538355,0.818800829603,0.00224479715059,0.0,0.818760678401,-0.573995903476,-0.0118491012065,0.0,-0.00841371151937,0.00864017200918,-0.999927275799,0.0,0.657539184026,0.255452685272,0.303516484577,1.0,-0.01302,-0.017112,0.652
0.461868596223,0.523791085669,-0.124051757511,-1.3933161974,0.0772961129598,1.90789203805,0.154378673956,-0.00387322620342,-0.0754074166212,6.95717360996e-05,-0.116408362356,-0.00486996860607,0.0358729046936,-0.0140411003519,0.57402659339,0.818821927625,0.00220631431242,0.0,0.818781331597,-0.573966171243,-0.0118622172396,0.0,-0.00844685643572,0.00861588300517,-0.999927205939,0.0,0.657320104938,0.25518490898,0.303500900748,1.0,-0.01334,-0.0175325714286,0.668
0.461697065427,0.522499024008,-0.124054190847,-1.39535391423,0.0771748395644,1.90867238212,0.154105130411,-0.0105866883963,-0.0731186300954,-0.00232731586028,-0.11593837683,-0.00744313568205,0.0417305408629,-0.0170409977368,0.574021477388,0.818825437209,0.00223467608935,0.0,0.818785205433,-0.573960939081,-0.0118479818852,0.0,-0.00841897425175,0.00863088195793,-0.999927311733,0.0,0.65708115882,0.254879180944,0.303506889275,1.0,-0.0137,-0.0180057142857,0.686
0.46153417423,0.521270433753,-0.124056729166,-1.39734776318,0.0770537255233,1.90944224376,0.153845079,-0.00589669045381,-0.0716526324241,-5.10264086422e-05,-0.117266191973,-0.0108490708094,0.0447747014871,-0.0075244060874,0.574017907487,0.818827939591,0.00223475521127,0.0,0.818787728837,-0.573957389814,-0.0118455343684,0.0,-0.00841696228488,0.00862950513987,-0.999927340554,0.0,0.656845890668,0.254582798113,0.303487922736,1.0,-0.01404,-0.0184525714286,0.703
0.461378383523,0.520139964261,-0.124068097545,-1.39913836019,0.0769460197534,1.91009430741,0.153588968471,-0.00944638548273,-0.0750466045104,0.000375533830751,-0.117948714785,-0.00955659574684,0.0452432608634,-0.019850195653,0.574010188035,0.818833375827,0.00222566063253,0.0,0.818793044327,-0.5739497046,-0.0118504874481,0.0,-0.00842631961249,0.00862482202787,-0.999927302149,0.0,0.656631299801,0.254303018879,0.303486497415,1.0,-0.01434,-0.0188468571429,0.718
0.461198776479,0.518714227846,-0.124072056071,-1.40132864243,0.0767996084182,1.91087695317,0.153302574959,-0.0124001733096,-0.0828722889294,0.000492086699664,-0.122601492044,-0.00563891612569,0.0428712640708,-0.0133873432261,0.574002154447,0.818838984218,0.00223417014125,0.0,0.818798828478,-0.573941705242,-0.0118382586775,0.0,-0.00841150623726,0.008624687932,-0.999927428027,0.0,0.656361942068,0.25397105103,0.303512802116,1.0,-0.0147,-0.01932,0.736
0.461049477725,0.517530678983,-0.124075548575,-1.40319134114,0.0766784586464,1.9115494846,0.153048398203,-0.00530573399844,-0.0748094375426,-0.00490587389525,-0.122704936295,-0.00920150236208,0.0434458501925,-0.0166712728911,0.573984655061,0.818851279752,0.0022235791492,0.0,0.818811015106,-0.573924279137,-0.0118401967425,0.0,-0.00841935629352,0.0086169482464,-0.999927428688,0.0,0.656131809976,0.253691590426,0.303515141933,1.0,-0.015,-0.0197142857143,0.751
0.460843773238,0.516015796817,-0.124078837669,-1.40557813775,0.0765321314945,1.91244088769,0.152711571919,-0.0122606630873,-0.0797570195272,-0.000273106014361,-0.128680439788,-0.00247289277842,0.0438385914014,-0.018510623612,0.573966376491,0.818864053177,0.00223785006524,0.0,0.818823967515,-0.573905940129,-0.0118333853392,0.0,-0.00840578027343,0.00862453662295,-0.999927477483,0.0,0.655844831872,0.253328192029,0.303519059104,1.0,-0.01538,-0.0202137142857,0.77
0.460670723407,0.514707052577,-0.124089340221,-1.40764589812,0.0764064832583,1.913220978,0.152429281927,-0.0126918235946,-0.0852413426335,-0.00077726525863,-0.13409700189,-0.00461473421178,0.0429095800134,-0.0193214151156,0.573959598541,0.818868764971,0.00225208740769,0.0,0.818828894831,-0.5738991387,-0.0118222878901,0.0,-0.00838859276659,0.00862975600391,-0.999927576789,0.0,0.655597253386,0.253012997017,0.303520408404,1.0,-0.0157,-0.0206342857143,0.786
0.460502063735,0.513472047518,-0.124084851158,-1.40964294618,0.0762865758736,1.91391316629,0.152153344393,-0.00786978407009,-0.0795900925769,-0.000211104503504,-0.134969177561,-0.00720090834455,0.0442245865851,-0.0162147664392,0.57394093278,0.818882001842,0.00219536786522,0.0,0.818841246236,-0.573880547332,-0.011869193654,0.0,-0.00845975302399,0.00861003960577,-0.999927147245,0.0,0.655341418031,0.252711938209,0.303495289383,1.0,-0.016,-0.0210285714286,0.801
0.460302212541,0.512052386375,-0.124085854113,-1.41192289876,0.0761458917387,1.91472655937,0.151839846265,-0.015415258052,-0.0824309895779,0.000477488216004,-0.140116441857,-0.0061243941913,0.0429258870097,-0.0183287462623,0.573929936442,0.818889817921,0.00215431231069,0.0,0.818848455082,-0.573869643066,-0.0118990452179,0.0,-0.00850787633815,0.00859343902335,-0.99992688175,0.0,0.655056817817,0.252361007677,0.303475178464,1.0,-0.01634,-0.0214754285714,0.818
0.460081499869,0.51041707379,-0.124090819469,-1.41452165699,0.0759852119371,1.91572086592,0.15146427253,-0.011172672356,-0.0907741424046,-0.00120622392069,-0.13698558401,-0.0103416162478,0.0525226629857,-0.00983411418347,0.573899267512,0.818911254663,0.00217592199273,0.0,0.818870208601,-0.573838926939,-0.0118833621649,0.0,-0.00848295360181,0.00860181614972,-0.999927021466,0.0,0.654744309832,0.251968150446,0.303469633867,1.0,-0.01672,-0.0219748571429,0.837
0.45989018577,0.50901442419,-0.124094015703,-1.41675028612,0.0758453205557,1.91653627146,0.151156918122,-0.0131696691386,-0.0854572183762,-5.99349615277e-05,-0.138003527072,-0.00981006066107,0.0524309005512,-0.0207662956692,0.573884698819,0.818921496944,0.00216360943435,0.0,0.818880279657,-0.573824398407,-0.011890932801,0.0,-0.00849637218886,0.00859592698607,-0.999926958182,0.0,0.654468311008,0.251627793437,0.303461293317,1.0,-0.01704,-0.0223954285714,0.853
0.459686832858,0.507488962288,-0.124100232864,-1.41913872968,0.0756936875446,1.91738258615,0.150825763764,-0.00918450762567,-0.0963255180894,-0.00014680686874,-0.14619774484,-0.00386940756331,0.0537833717445,-0.0155773745621,0.573867145889,0.81893384317,0.00214622509729,0.0,0.818892377563,-0.573806895591,-0.0119024132841,0.0,-0.00851593425156,0.00858809666072,-0.999926859055,0.0,0.654166937113,0.251260764246,0.303465061396,1.0,-0.01738,-0.0228422857143,0.87
0.459467020469,0.505916873856,-0.124112077464,-1.42158262406,0.0755430305419,1.91828884567,0.150498655542,-0.0115562110961,-0.095734851449,-0.00135347522183,-0.149355229855,-0.0106912060863,0.0535125101098,-0.0179401203725,0.573873431118,0.818929371127,0.00217188025858,0.0,0.818888264427,-0.573813101841,-0.0118861869229,0.0,-0.00848785765138,0.00859985970178,-0.999926996678,0.0,0.653869846951,0.25087795683,0.303479867899,1.0,-0.01772,-0.0232891428571,0.887
0.459259109344,0.504379375271,-0.124113193388,-1.42390120317,0.0753867512984,1.91919247592,0.150167713313,-0.0116560697797,-0.0923467964414,0.000440062273302,-0.147524233571,-0.0106964166741,0.0500805123345,-0.0196863654287,0.573850770755,0.818944991918,0.00226716071552,0.0,0.818905288081,-0.573790235371,-0.0118170151048,0.0,-0.00837677193772,0.00863795943227,-0.999927605054,0.0,0.653595290202,0.250522579718,0.303528932336,1.0,-0.01804,-0.0237097142857,0.903
0.459018512244,0.502619064351,-0.124119181647,-1.42651858257,0.0752311915332,1.92018230712,0.149815195215,-0.0148151439737,-0.0924865131794,-0.00096222018354,-0.148343079438,-0.002796741151,0.0534215092247,-0.0135396211526,0.573855847977,0.818941107433,0.00238226780753,0.0,0.818902884344,-0.573794857421,-0.0117590182833,0.0,-0.00826316952989,0.0086989948698,-0.999928021168,0.0,0.653280245833,0.250116515988,0.303598406897,1.0,-0.0184,-0.0241828571429,0.921
0.458766166212,0.500818968524,-0.124119440672,-1.429237754,0.0750571539032,1.92113303775,0.149422192253,-0.014249783964,-0.0995420536485,0.000462083906956,-0.158527000392,-0.0139822949401,0.042718123782,-0.0216570168855,0.573832347624,0.818957495687,0.00240914476569,0.0,0.81891956431,-0.57377119905,-0.011751818269,0.0,-0.00824210046442,0.0087166370703,-0.99992804142,0.0,0.652935305994,0.249689220074,0.30364290951,1.0,-0.01876,-0.024656,0.939
0.458552848017,0.499318608172,-0.124117428153,-1.43154010462,0.0749101764905,1.92196781469,0.149101282452,-0.017291148967,-0.0985668141313,0.000989733538737,-0.15056157103,-0.0143670554922,0.0551099934681,-0.0174891964954,0.573820192826,0.818965933885,0.00243563988671,0.0,0.818928322816,-0.573758922224,-0.0117408755827,0.0,-0.00821806524314,0.00873193409502,-0.999928105781,0.0,0.652646957155,0.249330781806,0.303665969796,1.0,-0.01906,-0.0250502857143,0.954
0.458290871421,0.497643475979,-0.124123485285,-1.43419658646,0.0747450465788,1.92294988025,0.148700215128,-0.0168389421937,-0.100946023892,0.000981955287148,-0.157433015896,-0.00758549610714,0.0575057433869,-0.0271873489881,0.573800982381,0.818979400677,0.00243326662756,0.0,0.818941742667,-0.573739705847,-0.0117438900125,0.0,-0.00822210062585,0.00873152734746,-0.999928076159,0.0,0.652321009828,0.248903310151,0.303654915959,1.0,-0.0194,-0.0254971428571,0.971
0.458030834348,0.495976464866,-0.124118474343,-1.43687808344,0.0745817712391,1.92389018564,0.148316340641,-0.0131556688441,-0.101674994644,0.00139416837868,-0.156220590439,-0.00517206141359,0.053346127178,-0.0223817336914,0.573787321678,0.818989147837,0.00237320624004,0.0,0.818950532402,-0.573726085238,-0.0117962493097,0.0,-0.00829958963705,0.00871224454872,-0.999927604183,0.0,0.651976111036,0.248478206004,0.303621736558,1.0,-0.01974,-0.025944,0.988
0.457767771729,0.494412640595,-0.124125698987,-1.4394525729,0.0744244673461,1.92477857845,0.147952753288,-0.016703490694,-0.0992575964024,-0.000421861459049,-0.161376429857,-0.00892637348984,0.0549906390923,-0.0306637694843,0.573797239175,0.818982495288,0.00226883850276,0.0,0.818942377773,-0.573736255172,-0.0118675309255,0.0,-0.00841774725187,0.00866777136059,-0.999927002971,0.0,0.651645994121,0.248052903627,0.303562963046,1.0,-0.0204188571429,-0.0268362122449,1.004
0.45748962549,0.492585628555,-0.124146008653,-1.44235598293,0.0742393184202,1.92585946284,0.147547840553,-0.0182967094868,-0.113338207702,0.000470484930001,-0.176025549273,-0.00954299253061,0.0621137304971,-0.0244609481655,0.573803806707,0.818977909515,0.0022631914927,0.0,0.818937808412,-0.57374293666,-0.0118598266309,0.0,-0.00841460789541,0.00865879345735,-0.999927107178,0.0,0.651288333389,0.247583164423,0.303547223687,1.0,-0.0229057142857,-0.0301046530612,1.021
0.457167002295,0.490440036963,-0.124163821118,-1.445799011,0.0740308551502,1.9270898749,0.147040021246,-0.0222723842334,-0.119482158059,-0.000717187415885,-0.197503109372,-0.0131052762785,0.0655489819151,-0.0249790847331,0.573780647671,0.818994293959,0.00220493129324,0.0,0.818953325306,-0.573719900483,-0.011902674578,0.0,-0.00848337293131,0.00863542640175,-0.999926728213,0.0,0.650847660539,0.247032803427,0.303508390345,1.0,-0.0255388571429,-0.033565355102,1.039
0.456852812499,0.488464434633,-0.124178745995,-1.44896059366,0.0738329994245,1.92821808446,0.146590558696,-0.0207572695004,-0.1347378882,-0.00271432216471,-0.213146320303,-0.011919465604,0.0765064518913,-0.033261036143,0.573784201414,0.818991946056,0.00215160493155,0.0,0.818950229362,-0.573723615791,-0.0119365578224,0.0,-0.00854168261292,0.00861123144281,-0.99992644047,0.0,0.650445441839,0.246515747602,0.303475350323,1.0,-0.0277331428571,-0.0364492734694,1.054
0.456421556864,0.485793978499,-0.124206378432,-1.45301166294,0.0735807741845,1.92979100134,0.145997210092,-0.025276212814,-0.155241779041,-0.00255649545879,-0.229586119511,-0.0104068507693,0.0842108213917,-0.0351512671825,0.573804037011,0.818977627391,0.00230647898538,0.0,0.818938110154,-0.573743019141,-0.0118349747065,0.0,-0.00836941442585,0.00867998692254,-0.999927302722,0.0,0.64996556463,0.245840246221,0.303539213865,1.0,-0.0303662857143,-0.0399099755102,1.072
0.455984606825,0.483108253674,-0.124243653963,-1.45717364827,0.0733270229157,1.93125546856,0.145344943459,-0.0256243197976,-0.162369523753,-0.00325043617281,-0.252194235821,-0.0186560450998,0.0860348998708,-0.0415645053377,0.573790364403,0.818987238753,0.00229507707841,0.0,0.818947497513,-0.573729314259,-0.0118497754116,0.0,-0.00838822334511,0.00867900167915,-0.999927153666,0.0,0.649437800673,0.245135548141,0.303550232338,1.0,-0.0328531428571,-0.0431784163265,1.089
0.455545689105,0.480376145294,-0.12428247349,-1.46145113155,0.0730612057716,1.932762192,0.144716249936,-0.0250763208641,-0.17147462465,-0.00428921553261,-0.271611190104,-0.0172179964336,0.104644858058,-0.0414977617486,0.573799835163,0.818980709314,0.00225695350409,0.0,0.818940430878,-0.57373889136,-0.0118744311657,0.0,-0.0084301903648,0.00866202389145,-0.999926947948,0.0,0.648889642981,0.244416946793,0.303540524825,1.0,-0.0351937142857,-0.0462545959184,1.105
0.454987795851,0.477046957423,-0.124311964912,-1.46649873226,0.0727532098969,1.93461958835,0.143984355534,-0.0340703133195,-0.187717907715,0.00119426295494,-0.283530693451,-0.0147548639286,0.100289182742,-0.0442591747776,0.57384040746,0.8189519486,0.00237477382201,0.0,0.818913178849,-0.573778975007,-0.0118169474653,0.0,-0.00831507695471,0.00872594352948,-0.999927356064,0.0,0.648263136839,0.243560616582,0.303605766073,1.0,-0.0378268571429,-0.0497152979592,1.123
0.454431835047,0.47373158161,-0.124340349981,-1.47159777593,0.072442392809,1.93649759676,0.143243449103,-0.0349677348175,-0.19956918436,0.000365157084896,-0.302895160349,-0.0199617839364,0.106090367432,-0.0443197835588,0.573871228063,0.818930117499,0.00245421204172,0.0,0.818892330098,-0.573809437815,-0.0117825159732,0.0,-0.00824096582254,0.00877155120813,-0.999927570563,0.0,0.647622517385,0.242701494625,0.303636264729,1.0,-0.0403137142857,-0.0529837387755,1.14
0.453907785315,0.470634428102,-0.12434753679,-1.47636422534,0.0721491511378,1.93815045865,0.142528307608,-0.0346472999476,-0.215256055706,-0.000255131711523,-0.32179495178,-0.0202564528673,0.104607182063,-0.0522061510068,0.573867868444,0.818932490537,0.00244794011335,0.0,0.81889434549,-0.573805808718,-0.0118191246255,0.0,-0.00827458222041,0.00878738935709,-0.999927153885,0.0,0.646995757842,0.241900467173,0.303651580328,1.0,-0.042508,-0.0558676571429,1.155
0.453266431113,0.466696173684,-0.124348689071,-1.4822809679,0.0717695118134,1.94040355844,0.141556298072,-0.0377863916667,-0.222153509151,0.000173490861524,-0.333484293225,-0.0180673754321,0.127999791736,-0.0604342865498,0.573775588355,0.818996429493,0.00267760823023,0.0,0.818961358263,-0.573712797548,-0.0116904449532,0.0,-0.00803840933169,0.00890072097077,-0.999928077984,0.0,0.646251880311,0.240929250107,0.303749006807,1.0,-0.0451411428571,-0.0593283591837,1.173
0.452594957392,0.462798611887,-0.124353083265,-1.48832102009,0.071369721447,1.94246610713,0.140653110867,-0.0387330995931,-0.23472079338,-0.00233804047328,-0.361622886586,-0.023882293198,0.122667996287,-0.0576666811898,0.573762737379,0.819005661431,0.00260665310907,0.0,0.818969461129,-0.573699973863,-0.0117519628065,0.0,-0.00812964377177,0.00887777856628,-0.999927544345,0.0,0.645440577633,0.239907234241,0.303739957607,1.0,-0.047628,-0.0625968,1.19
0.451940443422,0.459000443415,-0.124359267729,-1.49423462019,0.0709674229245,1.94452103097,0.139788309398,-0.0400070170736,-0.240023350126,0.000380801250276,-0.372758169277,-0.0199365431405,0.123974653572,-0.0584444483821,0.573759385701,0.819008206628,0.00254395289575,0.0,0.818971124487,-0.573696780479,-0.0117918711824,0.0,-0.00819833952738,0.00884929110586,-0.999927235991,0.0,0.644646924879,0.238908785548,0.303718599146,1.0,-0.0499685714286,-0.0656729795918,1.206
0.451131184203,0.454560555804,-0.124368152237,-1.50117856007,0.0705074335436,1.94699528073,0.138697108848,-0.0517779504011,-0.2557083161,0.000889987547787,-0.387011724792,-0.0304810652502,0.132420033541,-0.0639492669524,0.573728762805,0.819029763783,0.00250991407231,0.0,0.818992134836,-0.573666176905,-0.0118214827368,0.0,-0.00824245209603,0.00883809471017,-0.999926972366,0.0,0.6437282789,0.237716145084,0.303680909174,1.0,-0.0526017142857,-0.0691336816326,1.224
0.450374240476,0.450338619116,-0.124422586374,-1.50752243901,0.0700591166541,1.94935832383,0.137671506224,-0.0505237413388,-0.264019014822,-0.00843957018918,-0.406760807861,-0.0326992524776,0.151063378118,-0.0626373014537,0.57371429179,0.819039358807,0.00268086228768,0.0,0.819004486751,-0.573651671274,-0.0116686600592,0.0,-0.00801936511888,0.00889028644956,-0.999928323726,0.0,0.642922183135,0.236593534002,0.303765639855,1.0,-0.0549422857143,-0.0722098612245,1.24
0.449585022669,0.445983321811,-0.124464391565,-1.51419608302,0.0696170895465,1.95162265144,0.136701852965,-0.0493224555183,-0.274680336021,-0.000548174554075,-0.425778207522,-0.0298491496088,0.134357767631,-0.0649475216858,0.573775997422,0.818996303468,0.0026280391891,0.0,0.818960608336,-0.573713404047,-0.0117131939346,0.0,-0.00808547689554,0.00887318094207,-0.999927943266,0.0,0.6420130419,0.235416997853,0.303771901185,1.0,-0.0572828571429,-0.0752860408163,1.256
0.448650997318,0.440930582086,-0.124485960882,-1.52205371356,0.06907037308,1.95428867288,0.135461305461,-0.0543344497068,-0.282405400512,-0.00235182619754,-0.443581728731,-0.0292591594053,0.149817087185,-0.0736469604717,0.573738917203,0.81902270026,0.00249364119598,0.0,0.818985144554,-0.573676696342,-0.0117952521914,0.0,-0.00823019391362,0.00880981993212,-0.999927322849,0.0,0.640926799152,0.234041922295,0.303721540413,1.0,-0.059916,-0.0787467428571,1.274
0.447754555037,0.436288105795,-0.124490190279,-1.5291964157,0.0685999638571,1.95682294678,0.13429333491,-0.0605642535473,-0.296593768467,0.00513000779044,-0.439989693053,-0.0380131372729,0.166798324777,-0.0726268903283,0.573701584899,0.819048731414,0.00253257893111,0.0,0.819011484526,-0.573639011244,-0.011799148052,0.0,-0.00821144926563,0.00884357143407,-0.999927179021,0.0,0.639900195246,0.232707360066,0.303716195196,1.0,-0.0624028571429,-0.0820151836735,1.291
0.44673858417,0.431126169,-0.124522557471,-1.53690401207,0.0680599853089,1.95966432341,0.13304430747,-0.0651327349822,-0.302531157714,-1.36461665744e-05,-0.46757240413,-0.0324139351489,0.157963542502,-0.077869442892,0.5737226814,0.819033261165,0.00274751785426,0.0,0.818999172078,-0.573659737961,-0.0116450881644,0.0,-0.00796172745142,0.00893143801257,-0.999928417593,0.0,0.638950415728,0.231385549172,0.303811561898,1.0,-0.0647434285714,-0.0850913632653,1.307
0.445685406466,0.425865378055,-0.124610652302,-1.54510750833,0.0674535953619,1.96232013071,0.131726978299,-0.0668974211908,-0.310696126585,-0.0085986795701,-0.493135729321,-0.0335697987721,0.157984745231,-0.0786948860893,0.57375204866,0.819013591547,0.00246382260156,0.0,0.818975965615,-0.573690276537,-0.0117720538664,0.0,-0.00822815946491,0.0087722204094,-0.999927670155,0.0,0.637790457416,0.229854634458,0.303721125364,1.0,-0.0672302857143,-0.0883598040816,1.324
0.444575024304,0.420354234176,-0.124682326054,-1.55349630007,0.0668520866195,1.9651073385,0.130356539531,-0.0617597346641,-0.323109856645,-0.00313572676329,-0.499842298415,-0.0352215764267,0.163549028392,-0.0792457037258,0.573777323586,0.818996187677,0.00236101886823,0.0,0.818957289978,-0.573716005128,-0.0118173411663,0.0,-0.00832396331263,0.00871426377677,-0.999927383984,0.0,0.636612239523,0.228290615204,0.303716030645,1.0,-0.0697171428571,-0.091628244898,1.341
0.443471594054,0.415000360409,-0.124697395475,-1.56137971501,0.0663153140476,1.96804991762,0.129071775857,-0.0703834726336,-0.338485525312,-0.00116292346908,-0.501054783282,-0.0307569031188,0.18646262546,-0.078250752904,0.573819524877,0.81896557231,0.00270021154301,0.0,0.818931282089,-0.573757192,-0.0116183796474,0.0,-0.00796594051356,0.00887831172495,-0.999928857156,0.0,0.635564162163,0.22684306042,0.303848550385,1.0,-0.0720577142857,-0.0947044244898,1.357
0.44224910129,0.409254208428,-0.124714109781,-1.57014685898,0.0657078826817,1.97101805235,0.127573212843,-0.0752399134788,-0.339909278286,-0.000376727343034,-0.521933305834,-0.0430209334426,0.168236792848,-0.0866175536515,0.573794969613,0.818982935762,0.00265154292757,0.0,0.818947722451,-0.573732484922,-0.0116794922474,0.0,-0.0080441834117,0.00887327977881,-0.999928275437,0.0,0.634317921189,0.225216360912,0.303821955896,1.0,-0.0745445714286,-0.0979728653061,1.374
0.440977840391,0.403364790907,-0.124789288733,-1.57927568128,0.0650556692107,1.97399927538,0.126094569952,-0.0787895686548,-0.344864993943,-0.0027159007393,-0.543700917629,-0.0335648906157,0.181642840355,-0.0951084579864,0.573865172548,0.818934488372,0.00241130531111,0.0,0.818895968801,-0.573803360592,-0.0118255044746,0.0,-0.00830085818296,0.00876102204141,-0.999927167471,0.0,0.632993576665,0.223482297014,0.303715106036,1.0,-0.0770314285714,-0.101241306122,1.391
0.439716912308,0.397527593444,-0.124815153528,-1.58780925245,0.0644420719576,1.97707697078,0.124609865141,-0.0803669784222,-0.369928039894,0.000395615946907,-0.53247162851,-0.0385165494986,0.189742471989,-0.0903911444732,0.573866845203,0.818932369557,0.00271384776224,0.0,0.818898079276,-0.573804262383,-0.0116340504343,0.0,-0.00797043653188,0.00889893187163,-0.99992863803,0.0,0.631816227602,0.221866771723,0.303852728915,1.0,-0.079372,-0.104317485714,1.407
0.438243270137,0.390902391488,-0.124840932385,-1.59780871939,0.0636960312368,1.98039418107,0.122920052022,-0.0807013467256,-0.366268923224,-0.00345810409506,-0.55093909614,-0.0407451144411,0.185936135946,-0.0885283611514,0.573885467444,0.818919559981,0.00264034789896,0.0,0.818884261512,-0.57382307691,-0.0116785938509,0.0,-0.00804889134823,0.00886448529943,-0.999928315555,0.0,0.630355018351,0.219959137287,0.303835292607,1.0,-0.0820051428571,-0.107778187755,1.425
0.436810937609,0.384505061948,-0.124875049538,-1.60753859515,0.0629622384586,1.98351891907,0.121190784208,-0.0870075263932,-0.383738707006,-0.000739248317607,-0.56933013706,-0.0415164657591,0.185099433304,-0.100853797598,0.573828609592,0.818960018043,0.00244183596382,0.0,0.818921936138,-0.57376672927,-0.0118046514862,0.0,-0.00826665251844,0.00877368870496,-0.999927339782,0.0,0.628895369502,0.218095639923,0.303766584817,1.0,-0.084492,-0.111046628571,1.442
0.435421302932,0.378246930119,-0.124876188105,-1.61663859409,0.0623307712058,1.98671646486,0.119587662295,-0.0873357027618,-0.385883506701,0.000945640477084,-0.576936901527,-0.0372894994583,0.197560430788,-0.105197120601,0.573817211582,0.818967031576,0.00274877881789,0.0,0.81893277883,-0.573754049792,-0.0116679478048,0.0,-0.00797869521417,0.00894650659794,-0.99992814764,0.0,0.627579407716,0.216372510424,0.303897940232,1.0,-0.0868325714286,-0.114122808163,1.458
0.433837745075,0.371552652065,-0.124902845292,-1.62672188846,0.0615396971776,1.98999926726,0.117787964833,-0.0926169920596,-0.391311956465,-0.00290472218871,-0.603275120035,-0.0533964968962,0.19342524753,-0.0960266606462,0.573801044713,0.818978773265,0.00262238986607,0.0,0.818942924845,-0.573738380734,-0.011726176709,0.0,-0.00809908003319,0.00887625096843,-0.99992780593,0.0,0.62606335255,0.214393849633,0.30385181002,1.0,-0.0893194285714,-0.11739124898,1.475
0.432223783297,0.364645979153,-0.124975081698,-1.63689204907,0.0607498858125,1.99333192849,0.116030030408,-0.0950820024899,-0.417224428275,-0.00387293785947,-0.587041644329,-0.0546270716124,0.214146156157,-0.10978329864,0.573874028843,0.818927565787,0.00264346645456,0.0,0.818892205786,-0.573811516419,-0.0116895606414,0.0,-0.00805620705326,0.00887322017358,-0.999928179167,0.0,0.624536045803,0.212371362276,0.303898476046,1.0,-0.0918062857143,-0.120659689796,1.492
0.430642656785,0.358048744747,-0.124978837775,-1.64661317203,0.0600083199917,1.99660380035,0.114183690935,-0.104047563467,-0.414094688702,-0.000467792719605,-0.616116960507,-0.043508385408,0.195525190719,-0.117687800687,0.573786578232,0.818988488804,0.00275040892241,0.0,0.818954505354,-0.573723693209,-0.0116356741418,0.0,-0.00795166151096,0.00892902534124,-0.999928519238,0.0,0.623069927135,0.210465932912,0.303934787224,1.0,-0.0941468571428,-0.123735869388,1.508
0.428846108748,0.350994458054,-0.125020199697,-1.65726953761,0.0592032573081,1.99996276353,0.11223321327,-0.109553918246,-0.411223962275,-0.00612001501297,-0.636362392316,-0.0593324694951,0.198940520748,-0.116629203487,0.573824094901,0.818962897531,0.00253524732267,0.0,0.818925626073,-0.573761431766,-0.0118061543348,0.0,-0.00821433338034,0.00885100523565,-0.999927089559,0.0,0.621412249307,0.208308288962,0.303827249482,1.0,-0.0966337142857,-0.127004310204,1.525
0.427005872874,0.343655034914,-0.125085673113,-1.66781952956,0.0584141015333,2.00353306457,0.110228047948,-0.106283813087,-0.432816295143,-0.00250458430411,-0.624152849782,-0.0442598133516,0.209836550608,-0.113591431283,0.573864221367,0.818933836852,0.0028236845888,0.0,0.818900447747,-0.573800674588,-0.011644287157,0.0,-0.00791582104114,0.00899472953323,-0.999928214732,0.0,0.619826485214,0.206146795732,0.303961259555,1.0,-0.0991205714286,-0.13027275102,1.542
0.425553167507,0.338008902939,-0.12508373108,-1.67615874872,0.0577435376096,2.00617714198,0.108652413545,-0.109890053854,-0.435551264196,-0.00126094624134,-0.641320954054,-0.0489282205735,0.20490799449,-0.125866047267,0.573837162113,0.818953004456,0.00276310924215,0.0,0.818918695683,-0.573773676401,-0.0116912373349,0.0,-0.00798932841236,0.00897180100542,-0.999927836105,0.0,0.618509029052,0.20445758961,0.303939953014,1.0,-0.101022285714,-0.132772146939,1.555
0.423140306253,0.32867601896,-0.125092531952,-1.6898035033,0.0566042674259,2.01045718614,0.105995302742,-0.120177745756,-0.461366352065,0.00242159653448,-0.637590819364,-0.0591448073631,0.219482236188,-0.132505907081,0.573738697539,0.819022240303,0.00268770112686,0.0,0.81898701397,-0.573675558814,-0.0117205404274,0.0,-0.00805766996763,0.00892589177066,-0.999927698592,0.0,0.616329976505,0.201667606316,0.303944715781,1.0,-0.104094285714,-0.136809632653,1.576
0.421095948532,0.321007641469,-0.125096423421,-1.70096193525,0.0557420302969,2.01408844591,0.103816574029,-0.121801817107,-0.449286694201,0.00070085041693,-0.6624248612,-0.0512841583256,0.211062314127,-0.129315420946,0.573722631869,0.819033112954,0.00280151164534,0.0,0.818999088213,-0.573658785559,-0.0116977843532,0.0,-0.00797391448784,0.00900589250066,-0.999927652677,0.0,0.614560412179,0.199372703567,0.303966567264,1.0,-0.106581142857,-0.140078073469,1.593
0.41908345423,0.313670578795,-0.125157853211,-1.71171125208,0.0548693685032,2.01736058363,0.101691658102,-0.131371538814,-0.454569338792,-0.00491757640358,-0.678708000839,-0.0559435735283,0.202586710436,-0.140360873687,0.573739828862,0.819021530081,0.00266250682522,0.0,0.818985412954,-0.573676159372,-0.0118027300815,0.0,-0.00813943006994,0.0089524229507,-0.999926799222,0.0,0.612807755315,0.197091014885,0.303922638233,1.0,-0.108921714286,-0.143154253061,1.609
0.41689483428,0.305658714466,-0.125214395443,-1.72307095145,0.0538705707,2.02103588266,0.0993346257871,-0.126949705253,-0.472663187356,-0.000520921092659,-0.681794720134,-0.0589118456778,0.214700170782,-0.137647805728,0.573673400983,0.81906736772,0.00286758465551,0.0,0.819034737542,-0.573609947936,-0.0115962593341,0.0,-0.00785339372537,0.00900129027929,-0.999928647945,0.0,0.610996362005,0.194661360028,0.304044165843,1.0,-0.111408571429,-0.146422693878,1.626
0.414847029604,0.298595445715,-0.125230526514,-1.73343550373,0.05304345192,2.02410474313,0.0972419585793,-0.140536813343,-0.46709937678,-0.00130895851374,-0.69073250617,-0.0551510704319,0.204308229426,-0.131910393518,0.573693804838,0.81905371749,0.00267825629417,0.0,0.819017862169,-0.573630146325,-0.0117874329949,0.0,-0.00811836856798,0.00895608946099,-0.999926937608,0.0,0.60925753929,0.19243745023,0.30395821337,1.0,-0.113602857143,-0.149306612245,1.641
0.41245176351,0.290343088771,-0.125335673843,-1.74506421429,0.0521020026559,2.02779095289,0.0948241950107,-0.13944509375,-0.489463772153,-0.0035994235391,-0.682118527458,-0.0592068485372,0.228582732359,-0.142861866206,0.573792710786,0.818983616805,0.0029167370321,0.0,0.818951011196,-0.573728373418,-0.0116508239247,0.0,-0.00786857061785,0.00907399728703,-0.999927871484,0.0,0.607375693082,0.189858301263,0.304076330014,1.0,-0.116089714286,-0.152575053061,1.658
0.409854874327,0.281601206502,-0.12538125038,-1.75768578187,0.0510260712431,2.03157749292,0.0921446624699,-0.146272542521,-0.498244446219,-7.56285812473e-07,-0.717286101237,-0.0637124799413,0.202086050626,-0.155196912044,0.573752935951,0.819011894425,0.00279860317277,0.0,0.818977527886,-0.573688752875,-0.0117375697692,0.0,-0.00800783626428,0.0090266320146,-0.999927194586,0.0,0.60512137483,0.186938007282,0.304028088426,1.0,-0.118869142857,-0.156228016327,1.677
0.407267348909,0.273137444198,-0.125442267917,-1.76967736721,0.0499520358489,2.03519101039,0.0895544860149,-0.153051760059,-0.516669725866,-0.00390254252073,-0.704225855788,-0.0656285823875,0.22408814786,-0.152059305366,0.573782639034,0.818990981097,0.0028289443659,0.0,0.818957283176,-0.573718656553,-0.0116883855779,0.0,-0.00794981726943,0.00902355104641,-0.999927685351,0.0,0.603223434993,0.184392458794,0.304064979296,1.0,-0.121209714286,-0.159304195918,1.693
0.404602472725,0.264613770707,-0.125576028288,-1.78176163827,0.0488952953038,2.03886625651,0.0869113235306,-0.156700447758,-0.508517433009,-0.0100691705027,-0.706014201704,-0.0603427243841,0.210103198966,-0.154029824315,0.573874378985,0.818926532809,0.00287713521051,0.0,0.818893749286,-0.573810550359,-0.0116286963235,0.0,-0.00787226898825,0.00902965276959,-0.999928243801,0.0,0.601188840411,0.181614003566,0.304083210457,1.0,-0.123696571429,-0.162572636735,1.71
0.401641187627,0.255433032022,-0.125689322539,-1.79473670752,0.0477299207192,2.04259495889,0.0840390837237,-0.164270132949,-0.51886693665,-0.00984130243678,-0.709169951542,-0.0552682326466,0.211768079565,-0.161957281163,0.573975825249,0.818855774164,0.002778497742,0.0,0.818821689615,-0.57391229568,-0.01168179712,0.0,-0.00797124647787,0.00898033625735,-0.999927903796,0.0,0.598942149662,0.178590095703,0.304079276123,1.0,-0.126329714286,-0.166033338775,1.728
0.399143066287,0.247695665124,-0.125690528114,-1.80563298441,0.0467297132221,2.04584145015,0.081562007114,-0.163334638632,-0.513081532007,0.000373932491822,-0.73183006846,-0.0598739556005,0.21382833858,-0.161413047271,0.573923578414,0.818892281752,0.00281139277282,0.0,0.818858760612,-0.573860096916,-0.0116475850911,0.0,-0.00792492398244,0.00898713034704,-0.999928210957,0.0,0.597040223953,0.176116586646,0.304083683111,1.0,-0.128524,-0.168917257143,1.743
0.396234429269,0.238833486249,-0.125697843551,-1.8181289963,0.0456576206425,2.04937939964,0.0786617684677,-0.174562935409,-0.535630388199,0.000202562187738,-0.731345682324,-0.0652521124608,0.209773451667,-0.169550247077,0.573869758036,0.818930225638,0.00274467645426,0.0,0.818894975658,-0.573805548257,-0.0117880674013,0.0,-0.00807884966207,0.00901259066581,-0.999926750016,0.0,0.59479833638,0.173267477256,0.304046028122,1.0,-0.131010857143,-0.172185697959,1.76
0.39327180319,0.229796526185,-0.125693006031,-1.83053220769,0.0445293001349,2.05307964504,0.0757677304357,-0.169913778728,-0.518278855558,0.00179478034134,-0.742813482305,-0.0674726563015,0.212504751342,-0.181934992225,0.573818275564,0.818965427621,0.00299364185529,0.0,0.818933612913,-0.573753437256,-0.0116394922168,0.0,-0.00781487987693,0.00913072308734,-0.999927776166,0.0,0.592601243013,0.170422739062,0.304151018898,1.0,-0.133497714286,-0.175454138775,1.777
0.390342613345,0.221221704311,-0.125706064036,-1.84260063115,0.0433863423346,2.05630050646,0.0728733048342,-0.187497034532,-0.540024844996,-0.00391077334208,-0.767874297304,-0.0620253765134,0.208149514524,-0.181409000388,0.573723663583,0.81903259727,0.00274032018715,0.0,0.818996959724,-0.573659120194,-0.011829652641,0.0,-0.00811701773748,0.00903143943724,-0.999926270844,0.0,0.590363522593,0.167606276273,0.304065745756,1.0,-0.135838285714,-0.178530318367,1.793
0.387105575002,0.211931219617,-0.125792490314,-1.85517876287,0.0422425164683,2.05997229017,0.0697936759773,-0.195080096652,-0.529488173423,-0.00729768941245,-0.73936147101,-0.0698115639414,0.210537941677,-0.184673538501,0.573787790641,0.8189866321,0.00303556494104,0.0,0.818955080329,-0.573722487441,-0.0116546432146,0.0,-0.00780357536889,0.00917345992847,-0.999927473292,0.0,0.588115362365,0.164565791471,0.304198392702,1.0,-0.138325142857,-0.181798759184,1.81
0.383581172178,0.202115831424,-0.125852159477,-1.86890614095,0.0409236793977,2.06356857158,0.0663806050263,-0.19446396007,-0.548470673968,-0.000135284129199,-0.768098821579,-0.0712360996707,0.194736840412,-0.190032621327,0.573735186162,0.819024511729,0.00274449421755,0.0,0.818988552039,-0.573670207049,-0.0118740083637,0.0,-0.00815082626497,0.0090604201855,-0.999925733651,0.0,0.585527805548,0.161262242193,0.304083794386,1.0,-0.140958285714,-0.185259461224,1.828
0.380316614448,0.193178752947,-0.125954216475,-1.88092306771,0.0397807260849,2.06697688722,0.0633150689133,-0.207544141756,-0.547535717224,-0.00722668664616,-0.774506410267,-0.0606435264517,0.210208813127,-0.189829685559,0.573803398546,0.818975897063,0.00298106473642,0.0,0.818943399483,-0.573737999153,-0.0117116896102,0.0,-0.0078813931287,0.00916170698164,-0.999926970717,0.0,0.583330151457,0.15827574461,0.304191780683,1.0,-0.143298857143,-0.188335640816,1.844
0.376683208244,0.183658676,-0.126121733618,-1.89403027117,0.038569710636,2.07037703524,0.0599204212557,-0.214740673315,-0.557853279666,-0.00449490297048,-0.78339701116,-0.0747404428136,0.201881817418,-0.197643856073,0.573938772421,0.818881566441,0.00283064594403,0.0,0.818846278173,-0.573872939585,-0.011889862714,0.0,-0.00811211447848,0.00914209312003,-0.999925305076,0.0,0.580846621048,0.154954124298,0.304120914243,1.0,-0.145785714286,-0.191604081633,1.861
0.373396798828,0.175073801499,-0.126212105877,-1.90540553099,0.0374243393505,2.07351744286,0.0568918644761,-0.213941713183,-0.573286973065,-0.00220491434654,-0.76121951571,-0.0830425661092,0.205347126844,-0.19575206347,0.573994238294,0.818841856449,0.00306193310843,0.0,0.818810310294,-0.573928422905,-0.0116870885931,0.0,-0.00781269729873,0.00921564134313,-0.999927014194,0.0,0.57857597644,0.151857105602,0.304243397071,1.0,-0.148126285714,-0.194680261224,1.877
0.369638408342,0.165413768256,-0.126199961688,-1.91867547082,0.0360628304989,2.07685522769,0.0533218369145,-0.227729759427,-0.568180919564,0.00102939871698,-0.804743623848,-0.0742810709698,0.195826571765,-0.206722596501,0.573865973666,0.818932665436,0.00280724984235,0.0,0.818897232199,-0.573800417619,-0.0118806876384,0.0,-0.00811883837583,0.0091169470349,-0.999925480093,0.0,0.57611060666,0.14876676504,0.304126182249,1.0,-0.150466857143,-0.197756440816,1.893
0.365287824999,0.154331556977,-0.126250109692,-1.9332016335,0.0345513467795,2.0807822247,0.0492464092121,-0.225005334914,-0.568332029519,-0.00299918803917,-0.776396424912,-0.0881099441785,0.206791592239,-0.210353896834,0.573795494373,0.818980856802,0.0031358779259,0.0,0.81895061877,-0.573729876008,-0.0116043221732,0.0,-0.00770471920215,0.00922681459082,-0.999927748987,0.0,0.573322359631,0.145051135721,0.304287278606,1.0,-0.153246285714,-0.201409404082,1.912
0.361470406655,0.145013888231,-0.126287821725,-1.94584635676,0.0332757332184,2.08375813957,0.0457454634679,-0.241576149034,-0.585069814984,-0.00341522173482,-0.807115413151,-0.076768495371,0.183493936909,-0.214959862498,0.573790647769,0.818985300032,0.00284916944991,0.0,0.818950273147,-0.573724788464,-0.0118770415292,0.0,-0.00809263908872,0.00914843958768,-0.999925404841,0.0,0.57076163011,0.141812540368,0.304167993588,1.0,-0.155586857143,-0.204485583673,1.928
0.357290130245,0.134882168545,-0.126403964561,-1.95897854663,0.0319562609523,2.08716788315,0.0418728225768,-0.248417282823,-0.580792322365,-0.0067248088719,-0.778352565788,-0.0884760711979,0.195848158726,-0.234307084078,0.573817690741,0.818965182573,0.00316771638378,0.0,0.818934594922,-0.573751050784,-0.0116879367337,0.0,-0.00775468193887,0.00930107647416,-0.999926674754,0.0,0.568185484511,0.138330758736,0.304310388309,1.0,-0.158073714286,-0.20775402449,1.945
0.352948281349,0.124784398078,-0.126541726831,-1.97244499415,0.0304971601983,2.0903115018,0.0379402961707,-0.259027184542,-0.591511925046,-0.0104278020655,-0.772856067863,-0.0896714622437,0.169487523214,-0.232853495446,0.573875943883,0.818925227077,0.00293605015794,0.0,0.818891346752,-0.573809772183,-0.0118344608574,0.0,-0.00800695843153,0.00919599551428,-0.999925658378,0.0,0.565437609671,0.134717308593,0.304226161083,1.0,-0.160560571429,-0.211022465306,1.962
0.348722940212,0.115028416976,-0.126675201142,-1.98492670439,0.0291537313308,2.09344914718,0.0341264206083,-0.268217743051,-0.603177149421,-0.00842310657528,-0.804566856447,-0.077397420075,0.187783334002,-0.247000251169,0.573949270439,0.818872757126,0.00322327485662,0.0,0.818843355322,-0.573882992668,-0.0116024598056,0.0,-0.00765130294081,0.00929875956936,-0.999927492688,0.0,0.562939481236,0.131296112159,0.304368729222,1.0,-0.162901142857,-0.214098644898,1.978
0.344136218395,0.104739967826,-0.126708032383,-1.99848378007,0.0276817458079,2.09648622247,0.029951658334,-0.272927879296,-0.602231577389,0.00038902847939,-0.772363726636,-0.0909341964509,0.177748315515,-0.245494514241,0.573885561114,0.818918192634,0.0030171873089,0.0,0.818885432062,-0.573819172327,-0.0117878551306,0.0,-0.00792212161964,0.00923578840658,-0.99992596736,0.0,0.560087746497,0.127657761436,0.304282979402,1.0,-0.165388,-0.217367085714,1.995
0.339175691049,0.0936453943378,-0.126722977081,-2.01265215029,0.0261480771024,2.09984755972,0.0253878363677,-0.286473895458,-0.610261978896,-0.00252746204184,-0.805892802166,-0.0827106555186,0.17614342915,-0.259969014121,0.573758434527,0.819006457912,0.00322918077796,0.0,0.818976619319,-0.573691540133,-0.0116645055298,0.0,-0.00770089992957,0.00933741176314,-0.999926751758,0.0,0.557131492737,0.12382268421,0.304370338412,1.0,-0.168021142857,-0.220827787755,2.013
0.334590086303,0.0837619386034,-0.126769230792,-2.02553804625,0.0247784049982,2.10254265409,0.0212421404016,-0.290274574677,-0.621414742602,-0.00227465123715,-0.770582034038,-0.0914676209955,0.163093366909,-0.262344576669,0.573726443449,0.819029705334,0.00300944654961,0.0,0.818995647655,-0.573658715218,-0.0119396179673,0.0,-0.00805266158312,0.00931497752071,-0.999924190044,0.0,0.554336845876,0.120297029011,0.304270482843,1.0,-0.170361714286,-0.223903967347,2.029
0.3295636039,0.0730729869693,-0.126916550702,-2.03889238517,0.0232094465483,2.10568510335,0.0167263748261,-0.297351016138,-0.618265239674,-0.00842618182945,-0.816442174998,-0.0936090927973,0.181254172752,-0.267333594298,0.57374004585,0.81901901548,0.00331043366663,0.0,0.81899022942,-0.573672888104,-0.0116261975718,0.0,-0.0076231176153,0.00938180858493,-0.999926932203,0.0,0.551534517243,0.116471436116,0.304416830295,1.0,-0.172848571429,-0.227172408163,2.046
0.324304288683,0.0624087415081,-0.127085634085,-2.05260691248,0.0216582320374,2.10839588759,0.0120519416404,-0.310074363874,-0.630039308381,-0.00993722564381,-0.778648341754,-0.0994866550566,0.148464949866,-0.285333017462,0.573823121088,0.818961872952,0.00303698153049,0.0,0.818928475379,-0.573755627173,-0.0118903070726,0.0,-0.00799537684316,0.00931018301946,-0.999924694385,0.0,0.548509900955,0.112505628652,0.304312713297,1.0,-0.175335428571,-0.23044084898,2.063
0.319221050349,0.0521386177558,-0.127196484658,-2.06527278338,0.0202058329593,2.11117621861,0.00754965277545,-0.316350897916,-0.625986462092,-0.00250760653605,-0.80556681793,-0.0996852282048,0.166542087397,-0.278013395715,0.573871698759,0.818926737098,0.00331956783224,0.0,0.818897592278,-0.573803906211,-0.0116857811258,0.0,-0.00766516519693,0.00942470662604,-0.999926207351,0.0,0.545767111937,0.108794494046,0.304442820087,1.0,-0.177676,-0.233517028571,2.079
0.313761009258,0.0413303230511,-0.127249419722,-2.07902124951,0.0186348356357,2.11383695314,0.00269311641079,-0.327175249973,-0.629969781448,-0.00485571398729,-0.827246912579,-0.0967089364446,0.152689684633,-0.293126156519,0.573830569968,0.818956379589,0.00311001619798,0.0,0.818923363489,-0.573762138638,-0.0119281137985,0.0,-0.00798434907029,0.00939176208554,-0.999924019601,0.0,0.542650696146,0.104861794178,0.304330367001,1.0,-0.17998,-0.236545142857,2.096
0.308098631264,0.0303559432674,-0.127295920964,-2.09242246866,0.0169881390127,2.11663719413,-0.00232677846728,-0.336081500165,-0.640759907775,-0.00136946118675,-0.779182047468,-0.0960142807731,0.161577997618,-0.297965525506,0.573762909569,0.8190028686,0.00334241359096,0.0,0.81897391875,-0.573694931664,-0.01168728761,0.0,-0.00765454371581,0.00944326351286,-0.999926113638,0.0,0.539663522829,0.100886949603,0.304443944786,1.0,-0.17998,-0.236545142857,2.113
0.302655305931,0.0201537303659,-0.127418797969,-2.10514490043,0.0154896401421,2.1189140906,-0.00715878446799,-0.34466201395,-0.627868847966,-0.0145595119459,-0.805968587214,-0.0954760345272,0.143225173035,-0.301032336831,0.573773936007,0.818995848916,0.0031649199097,0.0,0.818963559023,-0.573705323547,-0.011901160815,0.0,-0.00793142260847,0.00942071133506,-0.999924168491,0.0,0.536716061327,0.0970701044617,0.304367865739,1.0,-0.17998,-0.236545142857,2.129
0.296691416554,0.00928976309295,-0.127611774455,-2.11824790701,0.0138285125517,2.12138600285,-0.0123141864747,-0.353874064861,-0.624356631531,-0.0099430346491,-0.792259612559,-0.0945095437729,0.141886159077,-0.307185120154,0.57391783033,0.818894526499,0.00329019766595,0.0,0.818864641429,-0.573849690015,-0.011746454307,0.0,-0.00773117707623,0.00943590777238,-0.999925593505,0.0,0.533718428001,0.0929490312577,0.304458938685,1.0,-0.17998,-0.236545142857,2.146
0.290363268786,-0.00210067344868,-0.127642939005,-2.13210097752,0.0122238255189,2.12378572492,-0.0178970199978,-0.353884967804,-0.634874755234,-0.00110620203801,-0.773146406234,-0.0946574576163,0.136813743388,-0.314000872926,0.57388468217,0.81891772634,0.00329787168771,0.0,0.818886795684,-0.573815125379,-0.0118896863628,0.0,-0.0078444572973,0.00952407582634,-0.999923875337,0.0,0.530438393567,0.0887362271791,0.30444640395,1.0,-0.17998,-0.236545142857,2.164
0.285034347212,-0.0115661098037,-0.127654596848,-2.14331653495,0.0107756908619,2.12587612756,-0.0225783531009,-0.352701494412,-0.618882188505,-0.0021733141771,-0.742560412112,-0.089869652722,0.136521622678,-0.313027940325,0.573803884667,0.818973451515,0.00351205860648,0.0,0.818946321027,-0.573734871487,-0.0116605067424,0.0,-0.00753480002821,0.00956721573952,-0.999925844836,0.0,0.527805927856,0.0852505105219,0.304548957294,1.0,-0.17998,-0.236545142857,2.179
0.278486426344,-0.0227740058072,-0.127729669672,-2.15692639368,0.00904799851327,2.12790351215,-0.0283280162773,-0.372748140229,-0.617899125298,-0.00294577505412,-0.743444944019,-0.094169490594,0.112507984524,-0.321634736528,0.573759643402,0.819005620813,0.00322669820454,0.0,0.818973563933,-0.573690123956,-0.0119452984574,0.0,-0.00793229440722,0.0094964935485,-0.999923444728,0.0,0.524466868915,0.0809813310406,0.304445545777,1.0,-0.17998,-0.236545142857,2.197
0.272122982848,-0.0334009690017,-0.127910298877,-2.16931975907,0.00742135382648,2.13007167744,-0.0337728296448,-0.380031397945,-0.607154001223,-0.00964398956334,-0.730195716546,-0.0988910202442,0.122842783615,-0.327972831661,0.573928644771,0.818886113384,0.00349154975333,0.0,0.818858653359,-0.573859599894,-0.0116795689154,0.0,-0.00756072301803,0.00956250899621,-0.999925694184,0.0,0.521505591337,0.0768807500881,0.304565377937,1.0,-0.17998,-0.236545142857,2.214
0.266103194441,-0.043230060276,-0.127986320222,-2.18112523619,0.00598967733404,2.13175370944,-0.0390723705138,-0.369922654448,-0.607395836012,-8.91464108193e-05,-0.735620947142,-0.0913414094021,0.0982936465763,-0.338559427041,0.573920242345,0.818892670355,0.00333118098731,0.0,0.81886149927,-0.573849739334,-0.0119611279138,0.0,-0.00788343441709,0.0095926939777,-0.999922912871,0.0,0.518546077244,0.0730946018107,0.304461260723,1.0,-0.17998,-0.236545142857,2.23
0.259666029033,-0.0537544565524,-0.128009290932,-2.19312427229,0.00437236084682,2.13366682703,-0.0446569416664,-0.385361871224,-0.608209510959,-0.00263056023348,-0.695372149601,-0.0977149321983,0.104461294331,-0.333562807436,0.573879157222,0.81892023124,0.00362141868696,0.0,0.818894150225,-0.573809310535,-0.0116615938993,0.0,-0.00747205527291,0.00965809020521,-0.999925442062,0.0,0.515580027527,0.0691445804251,0.304617970967,1.0,-0.17998,-0.236545142857,2.247
0.252693603074,-0.0646418699587,-0.128083488376,-2.2060879703,0.00267930037402,2.13535106104,-0.050787193643,-0.38914764598,-0.605358202469,-0.00213045347429,-0.712859577061,-0.0918093421919,0.0897473154131,-0.342658114403,0.573817310339,0.818964734308,0.00334741939477,0.0,0.818933670731,-0.57374663512,-0.0119661411159,0.0,-0.00787942866898,0.0096078783441,-0.999922798659,0.0,0.512242849413,0.064890898167,0.30446756095,1.0,-0.17998,-0.236545142857,2.265
0.246359263231,-0.0744477317624,-0.128240096206,-2.21716193051,0.00116728622448,2.13686882964,-0.0562941103527,-0.397899467796,-0.611631269293,-0.0113655673036,-0.691381396513,-0.0924737904346,0.094371383012,-0.351064647317,0.573884822383,0.81891669622,0.00352167475049,0.0,0.818888541063,-0.57381431012,-0.0118085442503,0.0,-0.00764957395523,0.00966078941836,-0.999924073701,0.0,0.509417683631,0.0610605180035,0.304573428923,1.0,-0.17998,-0.236545142857,2.281
0.239529938782,-0.0846701875624,-0.128356158522,-2.22895503653,-0.000366474069673,2.1383432835,-0.0622325603348,-0.400165701672,-0.603746963311,-0.00384829475573,-0.698540804122,-0.094622350528,0.0872478375664,-0.348096713764,0.573943079585,0.818875976909,0.00349610326138,0.0,0.818846625528,-0.573871563946,-0.0119322611822,0.0,-0.00776487728391,0.00971139806189,-0.999922694726,0.0,0.506335788273,0.0570196620136,0.304529547814,1.0,-0.17998,-0.236545142857,2.298
0.232689417514,-0.0949103959317,-0.128371442082,-2.24051214168,-0.00192082688533,2.13968543573,-0.0682789439699,-0.404219320032,-0.60224939004,-0.00295480285171,-0.663339875714,-0.0978922507,0.0958000646214,-0.36582361223,0.57381707935,0.818964090148,0.00353912346135,0.0,0.818935013536,-0.573745067624,-0.0119493883879,0.0,-0.00775571468078,0.00975526308352,-0.99992233885,0.0,0.503266039966,0.0530779013274,0.304557849946,1.0,-0.17998,-0.236545142857,2.315
0.226093365946,-0.10445013125,-0.128440299023,-2.25120789723,-0.00346511295944,2.14091355023,-0.0739824221114,-0.418472463775,-0.597504186282,-0.00382837405691,-0.665656142887,-0.0841087570066,0.0745073194233,-0.349439243088,0.573814207408,0.81896602571,0.00355682594215,0.0,0.818937663752,-0.573742743453,-0.0118791466232,0.0,-0.00768806244379,0.00972942915335,-0.999923112996,0.0,0.500408321427,0.0493021209745,0.304584163675,1.0,-0.17998,-0.236545142857,2.331
0.218905076931,-0.114531861962,-0.128633021986,-2.2626171544,-0.00505887998733,2.14200087552,-0.0801873514394,-0.433198183795,-0.587815785219,-0.0141105358725,-0.650663605237,-0.100073773315,0.068176292019,-0.366526597393,0.57394357388,0.818876001189,0.00340816370064,0.0,0.818844657639,-0.573871340148,-0.0120771898095,0.0,-0.00793402618107,0.00972256930991,-0.999921258337,0.0,0.497285547201,0.0451931448957,0.304513668112,1.0,-0.17998,-0.236545142857,2.348
0.212115240682,-0.124031446716,-0.128699091352,-2.27294889514,-0.0064766305493,2.14314931182,-0.0861573988139,-0.426718950884,-0.593755537554,-0.000500928270335,-0.664419334434,-0.0779615571732,0.0632286470772,-0.374044382599,0.573913655939,0.818895847866,0.00366780253122,0.0,0.818868523232,-0.573841266518,-0.0118865218902,0.0,-0.00762923385801,0.00982547444749,-0.999922624428,0.0,0.494475800523,0.0414425634739,0.304619117622,1.0,-0.17998,-0.236545142857,2.364
0.205260241268,-0.133412646495,-0.128738706132,-2.28332142784,-0.00793870121609,2.14403329978,-0.0921731278667,-0.428008974183,-0.583660207593,-0.00449704397704,-0.640446749935,-0.0917793434701,0.0610233073256,-0.381710195841,0.573845760569,0.818943659485,0.00361560068895,0.0,0.818915079162,-0.57377283233,-0.011982357965,0.0,-0.00773849162317,0.0098370846386,-0.999921670689,0.0,0.491562459737,0.0377072000241,0.304596783077,1.0,-0.17998,-0.236545142857,2.38
0.196943701549,-0.144531574319,-0.128860070728,-2.29528326689,-0.00970209445193,2.14515019437,-0.0994601730666,-0.445061316268,-0.587434228802,-0.00496084027625,-0.618585886175,-0.0894575143932,0.0552556592654,-0.385186460372,0.573829869494,0.818953960421,0.00379980097193,0.0,0.818928760941,-0.573757573125,-0.0117761915216,0.0,-0.00746413780907,0.00986948676395,-0.999923437008,0.0,0.488208910901,0.0332145718956,0.304689729855,1.0,-0.17998,-0.236545142857,2.399
0.189774898882,-0.153762125925,-0.129030025264,-2.30534564978,-0.0111630480805,2.14587895962,-0.105717157891,-0.449955802979,-0.574657339801,-0.00235230152407,-0.621703802595,-0.0897362121556,0.0403150880239,-0.402619192553,0.573906605015,0.818900383766,0.00375727158085,0.0,0.818874070066,-0.573833704351,-0.0118694576638,0.0,-0.00756399999691,0.00988888281458,-0.999922494947,0.0,0.485311621504,0.0293701030686,0.304659289015,1.0,-0.17998,-0.236545142857,2.415
0.182178078783,-0.163535763057,-0.12907888148,-2.31587855215,-0.0127277408748,2.14650197515,-0.112405921425,-0.450996345548,-0.579852440644,-0.00174376382134,-0.596888895024,-0.0861614997234,0.045594997849,-0.398521597579,0.573815836219,0.818964369456,0.0036734951678,0.0,0.818936481278,-0.573742620967,-0.0119662617391,0.0,-0.00769244935775,0.00987497981694,-0.999921652429,0.0,0.482216502082,0.0254093421258,0.30464077356,1.0,-0.17998,-0.236545142857,2.432
0.174392411433,-0.173261626598,-0.129151218313,-2.32614262644,-0.0141453101296,2.14724628118,-0.119250365199,-0.462410413603,-0.571587475983,-0.00698296002375,-0.61452008939,-0.0858290125701,0.0416595841348,-0.399076506141,0.573830462544,0.818953079881,0.00389873195295,0.0,0.818928173848,-0.573756509841,-0.0118684621928,0.0,-0.00748293489779,0.0100034591859,-0.9999219652,0.0,0.479209090238,0.0214233659121,0.30470110531,1.0,-0.17998,-0.236545142857,2.449
0.166455271109,-0.182883908521,-0.129353241795,-2.33643750292,-0.0157682717308,2.14768919444,-0.126182269105,-0.47319907054,-0.566852866247,-0.0170227388871,-0.604714935752,-0.098651996494,0.0204444265362,-0.402729268646,0.573896558943,0.818907544054,0.00373106247534,0.0,0.81887986617,-0.573822424391,-0.012014031311,0.0,-0.0076975617618,0.00995029474288,-0.999920866458,0.0,0.476095004202,0.0173296411939,0.304640518585,1.0,-0.17998,-0.236545142857,2.466
0.158418036005,-0.192537689248,-0.129440607006,-2.34635506368,-0.0172299720939,2.1482222222,-0.133249912624,-0.467550860756,-0.562524783087,-0.000366693322755,-0.577980991501,-0.0917375271736,0.0396758826793,-0.410961305673,0.573908953362,0.818897765492,0.00396356208997,0.0,0.818873774824,-0.573834863225,-0.0118337463934,0.0,-0.00741634115669,0.0100373433073,-0.999922121779,0.0,0.473096608064,0.0133203108285,0.304744920451,1.0,-0.17998,-0.236545142857,2.483
0.149366785471,-0.203132772191,-0.129527580249,-2.35745181713,-0.0189237963859,2.14857369391,-0.141282228792,-0.481153894669,-0.560544784287,-0.00496887269458,-0.581106891826,-0.0930367139507,0.014024884505,-0.419619798238,0.57382099426,0.818959738749,0.00389355307465,0.0,0.818934231836,-0.573746349719,-0.011941399079,0.0,-0.00754575848523,0.0100409827087,-0.999921116986,0.0,0.469643065203,0.00886693217279,0.304708996677,1.0,-0.17998,-0.236545142857,2.502
0.14256197156,-0.210900816817,-0.129669885796,-2.36553686602,-0.0200961220762,2.14875507954,-0.147312662985,-0.488024697072,-0.561338100684,-0.0134199813545,-0.569324021581,-0.0863011702108,0.0121902393957,-0.434011961288,0.573865477777,0.818928592601,0.00388851355962,0.0,0.818901936619,-0.573789409181,-0.0120863152311,0.0,-0.00766678883341,0.0101204251987,-0.999919395423,0.0,0.467086322917,0.00554049489484,0.304675277533,1.0,-0.17998,-0.236545142857,2.516
0.13418016703,-0.220321694986,-0.129786801786,-2.37493607603,-0.0215649509748,2.14906637622,-0.154626074691,-0.488960150369,-0.545976681325,-0.00153701044304,-0.552008336656,-0.0939973346698,0.016259776661,-0.429344978015,0.573958033461,0.818862515662,0.00413559789544,0.0,0.818840320735,-0.573882747315,-0.0118265960677,0.0,-0.00731114868793,0.0101745600205,-0.999921509636,0.0,0.464116671639,0.00151414005924,0.304800431083,1.0,-0.17998,-0.236545142857,2.533
0.124773593847,-0.230615904725,-0.129847328487,-2.38557099549,-0.0232703496839,2.14916346547,-0.163038430521,-0.504173978709,-0.545345316814,-0.00826971471892,-0.544538696603,-0.0920126133525,0.00325540892378,-0.444789083734,0.573798865854,0.818974838519,0.00397772768178,0.0,0.818949942762,-0.573723272327,-0.0119726747739,0.0,-0.00752334929537,0.0101276620527,-0.999920411671,0.0,0.460650587562,-0.00291472792764,0.304719724853,1.0,-0.17998,-0.236545142857,2.552
0.117652224642,-0.238211294488,-0.129972638249,-2.39323165177,-0.024484244992,2.1491744624,-0.169339910896,-0.513746847945,-0.543640301743,-0.0091493594539,-0.544292445322,-0.0802230552212,0.0004934697897,-0.446124194223,0.573832372318,0.818951356308,0.0039788670575,0.0,0.818926182979,-0.573756376139,-0.0120114350519,0.0,-0.00755402612133,0.0101511441237,-0.999919942277,0.0,0.45811735279,-0.00625257680864,0.304716179965,1.0,-0.17998,-0.236545142857,2.566
0.108381499285,-0.24793614726,-0.130138556343,-2.40275059995,-0.025977421916,2.14925197308,-0.177568186242,-0.512874577464,-0.535408518057,-0.000224833916783,-0.531498836455,-0.0745828331891,0.00138294004846,-0.462744542174,0.57389848543,0.818903795558,0.00422480083082,0.0,0.818882709346,-0.573822838148,-0.0117985446727,0.0,-0.00723772515985,0.0102309802468,-0.999921468105,0.0,0.454952982077,-0.0105386995641,0.304820800977,1.0,-0.17998,-0.236545142857,2.584
0.100129088592,-0.256396445687,-0.130211998948,-2.41134954678,-0.0272921539122,2.14916968583,-0.184987025077,-0.525712271013,-0.525907661613,-0.00700421749294,-0.533844270083,-0.0838147924677,-0.00796841071536,-0.470322393524,0.573816629075,0.818961511014,0.0041553069864,0.0,0.818938391807,-0.573739657492,-0.0119775935107,0.0,-0.00742526663206,0.0102760806,-0.999919630562,0.0,0.452021910216,-0.0142636733145,0.304731643873,1.0,-0.17998,-0.236545142857,2.6
0.0921769280293,-0.264337521497,-0.130358208236,-2.41914450448,-0.0285928731288,2.14904496686,-0.191973228342,-0.533153063227,-0.530240220579,-0.0176820162829,-0.503060876068,-0.0800759183923,-0.0120619625106,-0.473146227146,0.573920150799,0.818888807363,0.00418671515779,0.0,0.818866332344,-0.573843376912,-0.0119354693654,0.0,-0.00737144543279,0.0102785643581,-0.999920003254,0.0,0.449325992516,-0.0178545662246,0.304746479048,1.0,-0.17998,-0.236545142857,2.615
0.0820360445013,-0.27429692738,-0.130528072052,-2.42866744848,-0.0301385799541,2.14888101997,-0.201042589544,-0.528398761997,-0.517946785797,-0.00534773822011,-0.504750061931,-0.0804419174938,-0.0156106383545,-0.476550114729,0.573960105136,0.81885958726,0.00441825381588,0.0,0.818841124205,-0.573883977378,-0.0117107096708,0.0,-0.00705399762596,0.0103395271434,-0.99992166458,0.0,0.445990331795,-0.0223594357154,0.304850471704,1.0,-0.17998,-0.236545142857,2.634
0.0734614537552,-0.282525218083,-0.130607451869,-2.43679916066,-0.0314895945196,2.14855856665,-0.208843686538,-0.545541212606,-0.51005312454,-0.010385489944,-0.503112484106,-0.0857902959677,-0.0222180696339,-0.49208360471,0.573805135112,0.818968797212,0.00430383718392,0.0,0.818948102048,-0.573728331991,-0.011855552467,0.0,-0.00724023361238,0.0103275950166,-0.999920456736,0.0,0.443064797507,-0.0260878187282,0.304777842958,1.0,-0.17998,-0.236545142857,2.65
0.0635114925956,-0.291756321751,-0.130783204672,-2.44565542952,-0.0329081739544,2.14819501703,-0.217705083668,-0.555120538919,-0.50562489729,-0.0151425424185,-0.487343924001,-0.0701178082053,-0.0173898891429,-0.498680984586,0.573922602972,0.818885944616,0.00440481671079,0.0,0.818866329362,-0.573845100303,-0.0118525270301,0.0,-0.00717832351087,0.0104095896732,-0.999920052861,0.0,0.439828673663,-0.0303877447207,0.304789439192,1.0,-0.17998,-0.236545142857,2.668
0.0551959609453,-0.299421559156,-0.130892933432,-2.45273385579,-0.0340982641882,2.14790695303,-0.225203838179,-0.54919425806,-0.512829053864,-0.00177062401249,-0.469985752858,-0.0891056284939,-0.0183756200515,-0.506010156504,0.573915766235,0.818889533395,0.00462301471902,0.0,0.818874046213,-0.57383949291,-0.0115879125229,0.0,-0.0068364834803,0.0104363533954,-0.999922169482,0.0,0.437210360524,-0.0339295338064,0.304904560579,1.0,-0.17998,-0.236545142857,2.683
0.0462645485168,-0.307385052908,-0.131023150129,-2.46042017029,-0.0354384321192,2.14738042037,-0.233273599149,-0.570694003054,-0.493319733402,-0.0132382671508,-0.482888681658,-0.0829364902804,-0.038465703808,-0.499773236793,0.573869295053,0.818922836093,0.00449083761598,0.0,0.818904882837,-0.57379231164,-0.0117440568043,0.0,-0.00704080376583,0.0104173230168,-0.999920950107,0.0,0.434284168857,-0.037690937763,0.304833997874,1.0,-0.17998,-0.236545142857,2.699
0.0347617643904,-0.317281730641,-0.13122538135,-2.46976351809,-0.0369817229338,2.14671911869,-0.24355236869,-0.579801148124,-0.495973907794,-0.0109651477938,-0.453859196563,-0.078713067346,-0.0355467310286,-0.523053417976,0.574020535173,0.818816612604,0.00453067598921,0.0,0.818798519532,-0.57394242186,-0.0118248764674,0.0,-0.00708219449773,0.0104976348226,-0.999919817878,0.0,0.430659265804,-0.0424763042873,0.304811206142,1.0,-0.17998,-0.236545142857,2.719
0.0262341304137,-0.324659624415,-0.131290734472,-2.47641266502,-0.0381323552648,2.14628514377,-0.251415166269,-0.563418518438,-0.49153642376,-0.00516965147555,-0.440224038177,-0.0706665066656,-0.03441130295,-0.522975472782,0.573867294943,0.818922907286,0.00472722095016,0.0,0.818908825252,-0.573790807127,-0.0115409047345,0.0,-0.00673880507629,0.0104943127842,-0.999922225928,0.0,0.428053673959,-0.0459531180107,0.304923348483,1.0,-0.17998,-0.236545142857,2.734
0.0157050469033,-0.33326721836,-0.131425748581,-2.48450573981,-0.0394851043552,2.14555664761,-0.260964942679,-0.598117663615,-0.474310224405,-0.0155753609332,-0.450411626004,-0.0706688886978,-0.0439937439642,-0.524555798467,0.57387921228,0.818914776199,0.00468891634818,0.0,0.818899239218,-0.573801358847,-0.011695447643,0.0,-0.00688720091701,0.0105517274644,-0.999920610604,0.0,0.424784514663,-0.050201850805,0.304860287441,1.0,-0.17998,-0.236545142857,2.752
0.00553667748508,-0.341385359504,-0.131591189762,-2.49193731293,-0.040755779743,2.14477431266,-0.270073129207,-0.589554885161,-0.477890007081,-0.0045953711373,-0.431614280541,-0.0786504623835,-0.0504320128103,-0.533982543854,0.574033373635,0.818806550222,0.00471870405024,0.0,0.818790926366,-0.573954672621,-0.0117558316432,0.0,-0.00691756289892,0.0106120760739,-0.999919762363,0.0,0.421700557659,-0.0542723195001,0.304861181537,1.0,-0.17998,-0.236545142857,2.769
-0.00387077989661,-0.34890408135,-0.131672502111,-2.49874874089,-0.0419523094779,2.14405520501,-0.278833951169,-0.595404580731,-0.468326404419,-0.00951571753799,-0.42174050417,-0.0752379300653,-0.0493042717067,-0.548015519499,0.573834190098,0.818945959835,0.00475226748957,0.0,0.818930925922,-0.573755650626,-0.0117191656656,0.0,-0.00687085533428,0.0106168411609,-0.999920033818,0.0,0.418842072836,-0.0579636418619,0.30487737484,1.0,-0.17998,-0.236545142857,2.785
-0.0142701811449,-0.356785232627,-0.131856338073,-2.50569736099,-0.0431943858785,2.1432969698,-0.288277592456,-0.617052834619,-0.460198230644,-0.0196084325616,-0.422625803721,-0.067077884192,-0.0481386152865,-0.562450754834,0.573935102855,0.818874305339,0.00491087237079,0.0,0.818862203541,-0.573857438469,-0.0115359796643,0.0,-0.00662850431388,0.0106424363459,-0.99992139765,0.0,0.415840132238,-0.0620509989547,0.304959178967,1.0,-0.17998,-0.236545142857,2.802
-0.0246695983544,-0.364500409292,-0.131947925938,-2.51274229184,-0.0444847420311,2.14234984831,-0.29782096537,-0.603971246984,-0.459966856222,-0.00131694245085,-0.411180315936,-0.0787644588807,-0.0569046730664,-0.557778584914,0.5738535872,0.818932203259,0.00478056742812,0.0,0.818917585081,-0.573775028784,-0.011702653138,0.0,-0.00684084101201,0.0106307048906,-0.999920092311,0.0,0.412728472501,-0.0660387327771,0.304894412429,1.0,-0.17998,-0.236545142857,2.819
-0.0344734692392,-0.37168861839,-0.132047420909,-2.51917244492,-0.0455880077399,2.1415082244,-0.306954319234,-0.624463003749,-0.44909409862,-0.00878095456692,-0.405171626968,-0.0621142717931,-0.0561722486511,-0.566199437086,0.573728715452,0.819019467397,0.00481871264236,0.0,0.81900496472,-0.573649463787,-0.0117433965204,0.0,-0.00685395039989,0.0106842790838,-0.999919431527,0.0,0.409844963208,-0.0697510721677,0.304880853583,1.0,-0.17998,-0.236545142857,2.835
-0.0453030217321,-0.379176886946,-0.132240547525,-2.52568258,-0.0467702571833,2.14054868752,-0.316677898528,-0.644892857368,-0.439806463175,-0.00809278521514,-0.368598534204,-0.0703293027209,-0.0543110149037,-0.583372102486,0.57398728733,0.818837748365,0.00490741658619,0.0,0.818824568423,-0.573907974913,-0.0116922786063,0.0,-0.00675780368084,0.0107297391289,-0.999919599162,0.0,0.406803732672,-0.0738636150655,0.304925531549,1.0,-0.17998,-0.236545142857,2.852
-0.0572005495007,-0.387385737384,-0.132351622397,-2.5328055977,-0.0480952525637,2.13954017807,-0.327846471169,-0.631909011282,-0.427668811014,-0.0107740118629,-0.377596522378,-0.0642859637844,-0.0566505761354,-0.593602107189,0.573793239848,0.818973316288,0.00497714932356,0.0,0.818961831526,-0.573715015133,-0.0115475891311,0.0,-0.00660182917197,0.0107022299568,-0.999920935937,0.0,0.403624872756,-0.0780510839259,0.304967884502,1.0,-0.17998,-0.236545142857,2.87
-0.0662388014877,-0.393341947652,-0.132501610206,-2.5381050621,-0.0490821891008,2.13862415284,-0.336163397398,-0.650426015273,-0.423706993571,-0.0123607281023,-0.376345258225,-0.0655110158434,-0.073084210952,-0.600369506941,0.57382057656,0.818954617819,0.00490171092582,0.0,0.818941086029,-0.573740870759,-0.0117327633337,0.0,-0.00679641966929,0.0107469204013,-0.999919152923,0.0,0.400857151208,-0.0816179846941,0.304905456485,1.0,-0.17998,-0.236545142857,2.885
-0.0778850065703,-0.400864718811,-0.132627869265,-2.54459653807,-0.0502942735205,2.13751533817,-0.346938723258,-0.628900451098,-0.415419243364,-0.00120874717311,-0.36176406807,-0.0606041631222,-0.0613282586574,-0.587386212071,0.573809021362,0.818962627433,0.00491617471081,0.0,0.818949225521,-0.573729178636,-0.0117363750917,0.0,-0.006791230455,0.0107607425553,-0.999919039527,0.0,0.397617866847,-0.0858556163628,0.304909757899,1.0,-0.17998,-0.236545142857,2.903
-0.0876331584799,-0.406997365107,-0.13274546193,-2.54983295112,-0.0513018411008,2.13657181986,-0.356086693883,-0.657464750081,-0.408497304972,-0.00644291512456,-0.343226061012,-0.0662063868729,-0.0639262437772,-0.612341770452,0.573710743987,0.819031413362,0.0049267699136,0.0,0.81901824124,-0.573631029908,-0.0117178899148,0.0,-0.00677130220745,0.0107580008955,-0.999919204178,0.0,0.394932863023,-0.0893731385174,0.304921464947,1.0,-0.17998,-0.236545142857,2.918
-0.0990538792216,-0.413801450221,-0.132942204039,-2.55549274019,-0.0523287023539,2.135585338,-0.366555865896,-0.673152385432,-0.390401912857,-0.00704834032814,-0.331217269671,-0.0570587030165,-0.0570065171989,-0.613393401314,0.573928205994,0.818877887088,0.00511539858862,0.0,0.818867911177,-0.573849086251,-0.0115463047788,0.0,-0.00651967237899,0.0108157939822,-0.999920253057,0.0,0.391923514786,-0.0934888832198,0.304992374303,1.0,-0.17998,-0.236545142857,2.935
-0.10959239736,-0.420116482348,-0.133044457103,-2.56085290119,-0.053282501934,2.13450142309,-0.376531894325,-0.66254601948,-0.394024111552,-0.00647563405409,-0.335157479389,-0.0618291611221,-0.0701212799421,-0.623810906091,0.573798911057,0.818968248728,0.00515404176623,0.0,0.818958196949,-0.573718739198,-0.0116201052095,0.0,-0.00655965316318,0.0108887581098,-0.999919199684,0.0,0.389037136062,-0.097186415744,0.304983926317,1.0,-0.17998,-0.236545142857,2.951
-0.12112587937,-0.42662309956,-0.133251360661,-2.56642862747,-0.0544020478326,2.13328904498,-0.387264202702,-0.690218709538,-0.380530378695,-0.0119260167569,-0.322254654722,-0.0662260499306,-0.0591692766889,-0.645862811112,0.573856779968,0.818928195182,0.00507485192013,0.0,0.818916056235,-0.573775120747,-0.0118046835562,0.0,-0.00675549449035,0.0109302858564,-0.999917442665,0.0,0.385911100714,-0.10124497151,0.304927536708,1.0,-0.17998,-0.236545142857,2.968
-0.134009301764,-0.433677867848,-0.133329400224,-2.57232215731,-0.0554967626134,2.13208176458,-0.39936001823,-0.680369670992,-0.365466122298,-0.00605024882929,-0.300451718314,-0.0511206228802,-0.0633123397176,-0.644526338732,0.573799410692,0.818968047662,0.00513031180491,0.0,0.818956720596,-0.573717721866,-0.0117733728869,0.0,-0.00669879437897,0.0109572687171,-0.999917528807,0.0,0.38252746164,-0.105679534308,0.304932886506,1.0,-0.17998,-0.236545142857,2.987
-0.145767861467,-0.439801656573,-0.133517365207,-2.57736047427,-0.0565204042711,2.1309393577,-0.410375121457,-0.701199551792,-0.362782077641,-0.0172228660196,-0.290634575793,-0.0564059097985,-0.070752036431,-0.650414629327,0.573855430115,0.818928594213,0.00516234535472,0.0,0.818917731205,-0.573773702326,-0.0117573355137,0.0,-0.00666652858836,0.0109747582719,-0.99991755264,0.0,0.379481312501,-0.109743139775,0.304949120049,1.0,-0.17998,-0.236545142857,3.004
-0.156892800588,-0.445520864641,-0.133606801365,-2.58190673466,-0.0574870659669,2.12989234606,-0.420842574154,-0.682018345689,-0.357382982636,-0.00228815495882,-0.284341044646,-0.0575581213781,-0.0694982572354,-0.653097927519,0.573813359456,0.818957763283,0.00521127321109,0.0,0.818948774257,-0.573733546609,-0.011552901756,0.0,-0.00647158091776,0.0108971849812,-0.999919681774,0.0,0.376648530444,-0.113533108423,0.305029548857,1.0,-0.17998,-0.236545142857,3.02
-0.170162938509,-0.452062367243,-0.13379047686,-2.58736510006,-0.0585018249908,2.12854131883,-0.433439879519,-0.705691688445,-0.339677729956,-0.0181578067092,-0.285741404246,-0.052369664895,-0.071399107488,-0.666963809458,0.573786335057,0.818976531097,0.00523737688357,0.0,0.818966564874,-0.573704239402,-0.0117455613855,0.0,-0.00661476115252,0.0110288915162,-0.999917300824,0.0,0.373179919678,-0.117984559691,0.304976997966,1.0,-0.17998,-0.236545142857,3.039
-0.180144961216,-0.45671899703,-0.133903951609,-2.59119725831,-0.059261287454,2.12756412476,-0.442792679343,-0.706211932727,-0.3311981172,-0.00262213688863,-0.265483258085,-0.0477013130943,-0.0715519313758,-0.660624632713,0.573861352061,0.818923963351,0.00523810662076,0.0,0.818913447379,-0.573778310661,-0.0118305882493,0.0,-0.0066829689178,0.0110788866218,-0.999916294596,0.0,0.370630870185,-0.121312540279,0.304954740147,1.0,-0.17998,-0.236545142857,3.053
-0.192880847166,-0.46247596768,-0.133988125412,-2.59582900957,-0.0601750592284,2.12643041699,-0.45498896718,-0.713701845915,-0.312671272199,-0.00364670204364,-0.25372380725,-0.0494185876475,-0.0604510472818,-0.677088021982,0.573731397696,0.81901461087,0.00530069621861,0.0,0.819005255425,-0.573648744064,-0.0117582703523,0.0,-0.00658958435853,0.0110876004148,-0.999916817788,0.0,0.367448012989,-0.125514930131,0.304973717394,1.0,-0.17998,-0.236545142857,3.071
-0.205238847338,-0.467732810469,-0.134163304209,-2.60011670514,-0.061117948895,2.12529359823,-0.466598941426,-0.725567543535,-0.308341234175,0.000341486117301,-0.245713539804,-0.057540386186,-0.0725197631668,-0.68386324213,0.573841601811,0.818937621121,0.00526646412369,0.0,0.818927425144,-0.573758383846,-0.0118294638742,0.0,-0.00666604340206,0.0111013041371,-0.999916158941,0.0,0.364353926923,-0.129594207986,0.304944480565,1.0,-0.17998,-0.236545142857,3.088
-0.218900432838,-0.473511868921,-0.134291222304,-2.60457921992,-0.0620146752021,2.12407060916,-0.479692544936,-0.730547420654,-0.304747994452,-0.0132505606898,-0.229793010255,-0.0476728937978,-0.0653883551274,-0.693354185228,0.573777236212,0.818981879362,0.00539549644465,0.0,0.818974183294,-0.57369498853,-0.0116659390391,0.0,-0.00645894776256,0.0111126365066,-0.99991739224,0.0,0.360991591409,-0.134038866961,0.305020405442,1.0,-0.17998,-0.236545142857,3.107
-0.229252651127,-0.477597743441,-0.134461181017,-2.607749749,-0.0627016071516,2.12317208307,-0.489474918953,-0.742005764674,-0.279690606205,-0.00984136664031,-0.225961805409,-0.0547138036703,-0.0596954177391,-0.696129373751,0.573902231505,0.818893819252,0.00546702535335,0.0,0.818887394714,-0.573820328743,-0.0115936189956,0.0,-0.0063569750442,0.0111306962616,-0.99991784486,0.0,0.358464991131,-0.137415401007,0.305056007826,1.0,-0.17998,-0.236545142857,3.121
-0.241609837249,-0.482309106214,-0.134512993689,-2.61152700929,-0.0635019433843,2.12209562763,-0.501458560328,-0.72979037322,-0.270433325568,-0.00134915239948,-0.218954712168,-0.0490701651492,-0.0602738896043,-0.696637624519,0.573698864677,0.819036448108,0.00544575436632,0.0,0.819029498988,-0.573616632859,-0.0116355144417,0.0,-0.00640625847756,0.0111357292927,-0.999917474287,0.0,0.355426221539,-0.141347223687,0.30503561339,1.0,-0.17998,-0.236545142857,3.138
-0.253582943946,-0.486541067292,-0.134674204212,-2.61492102744,-0.0642288247917,2.1210528511,-0.512832429207,-0.746779538124,-0.263594819596,-0.0115147606178,-0.209498119004,-0.0520005953437,-0.0682049320823,-0.711388388962,0.573810378869,0.818958250828,0.00545705092217,0.0,0.818950622764,-0.573726659126,-0.011762014461,0.0,-0.00650186837608,0.011218437215,-0.999915932653,0.0,0.352505132289,-0.145170591642,0.305001679557,1.0,-0.17998,-0.236545142857,3.154
-0.266192684314,-0.490787037653,-0.134744110862,-2.61832848225,-0.0649133101654,2.12002457955,-0.525018983476,-0.741119077644,-0.253004066905,-0.00684204227008,-0.193317395882,-0.0366360894219,-0.0612132338753,-0.722550448783,0.573728120856,0.819015720721,0.00548082580652,0.0,0.819007674303,-0.573643079833,-0.0118656349479,0.0,-0.00657423033727,0.011296704335,-0.999914578335,0.0,0.349462826096,-0.149133240249,0.304964947876,1.0,-0.17998,-0.236545142857,3.171
-0.280563098911,-0.49539118296,-0.134951824594,-2.62191687398,-0.0656947464032,2.1189330058,-0.53875672356,-0.762363409999,-0.235546372894,-0.00868663604612,-0.183238881244,-0.0476894142085,-0.0630342073551,-0.72081216658,0.573863038192,0.818920587402,0.00557062185481,0.0,0.818913601889,-0.573777458645,-0.011861175852,0.0,-0.00651718932119,0.0113687673029,-0.999914135,0.0,0.346027052948,-0.153673073199,0.304965968146,1.0,-0.179760571429,-0.23625675102,3.19
-0.29176327276,-0.49885262812,-0.134957970964,-2.62455449208,-0.0662463563395,2.11805864391,-0.549618824847,-0.746151481709,-0.222550840429,-0.00341416114905,-0.170223590954,-0.0275747237584,-0.0595654321599,-0.715805331966,0.573761199064,0.818991702993,0.00560569155482,0.0,0.81898529213,-0.573675718854,-0.0118324880151,0.0,-0.00647498504127,0.0113802205516,-0.9999142789,0.0,0.343374191872,-0.157135224471,0.304988928377,1.0,-0.177566285714,-0.233372832653,3.205
-0.304637776617,-0.502486302298,-0.135047023735,-2.62732064877,-0.066863038913,2.11713235244,-0.561958462665,-0.759800568998,-0.21341680258,-0.00642958258565,-0.157597486834,-0.036617715879,-0.049809925396,-0.724167881517,0.573844249602,0.818933155101,0.00565787731736,0.0,0.818927508029,-0.573758715699,-0.0118076100303,0.0,-0.00642351058563,0.0114093401548,-0.99991427906,0.0,0.340359686999,-0.161135021748,0.30500754178,1.0,-0.175079428571,-0.230104391837,3.222
-0.315843379922,-0.50544079464,-0.135032191123,-2.62958675259,-0.0673547019072,2.11642349783,-0.5727599601,-0.743334444205,-0.196584373813,0.00309278168458,-0.140694733159,-0.0268885066108,-0.0447631295528,-0.723470431186,0.573827003798,0.818945065069,0.00568304604571,0.0,0.818940097155,-0.573742011991,-0.0117459716494,0.0,-0.00635882567129,0.0113944493775,-0.999914862306,0.0,0.337770354051,-0.16457326952,0.305017999595,1.0,-0.172885142857,-0.227220473469,3.237
-0.328502610795,-0.508604345714,-0.135049802379,-2.6319890086,-0.0678481942751,2.11563857398,-0.584911074769,-0.756797145282,-0.179776416806,-0.00318483788976,-0.134675895361,-0.0324526463554,-0.0538372566576,-0.71072590454,0.573909174806,0.818886966207,0.00575695669491,0.0,0.818883209693,-0.57382436572,-0.011689015789,0.0,-0.00626862134383,0.0114229285089,-0.999915106942,0.0,0.3348484108,-0.168441792702,0.305034244237,1.0,-0.170398285714,-0.223952032653,3.254
-0.342446179471,-0.511876909878,-0.134978096868,-2.6344871957,-0.0683617501913,2.11475741936,-0.598460972107,-0.733832060527,-0.164591161467,0.00535071112444,-0.12905789907,-0.020015991292,-0.0463023293491,-0.713708600597,0.573819471495,0.818949639678,0.00578348561908,0.0,0.818946154048,-0.573734454339,-0.0116927146884,0.0,-0.00625767999484,0.0114460910403,-0.9999149106,0.0,0.331629937921,-0.172642182328,0.305038212697,1.0,-0.167618857143,-0.220299069388,3.273
-0.354136949787,-0.51429118978,-0.134944348295,-2.63640871473,-0.0687492037897,2.114046338,-0.60974871508,-0.736465233174,-0.14950215299,0.00132609332746,-0.121405150295,-0.0141081148549,-0.0412438071587,-0.705617311715,0.573851387141,0.818927170969,0.00579836417428,0.0,0.818923010489,-0.573764729164,-0.011827314207,0.0,-0.0063589345428,0.0115357566084,-0.999913241372,0.0,0.328937628816,-0.17615331596,0.304997668837,1.0,-0.165278285714,-0.217222889796,3.289
-0.366443160737,-0.516675187826,-0.134874437673,-2.63826714655,-0.0691323492243,2.11338228338,-0.621635273995,-0.712209451202,-0.134263794588,0.0103956710276,-0.102716996821,-0.0217939616754,-0.0365105726053,-0.696250789227,0.573876179891,0.818909657177,0.00581811276793,0.0,0.818905416147,-0.573788831096,-0.0118761785209,0.0,-0.0063872721316,0.0115801629727,-0.999912547466,0.0,0.32613054274,-0.179831568422,0.304977821712,1.0,-0.162791428571,-0.21395444898,3.306
-0.378555354529,-0.518782937245,-0.134785599406,-2.63992360253,-0.0694847343623,2.11277735779,-0.633383043034,-0.719934451653,-0.121672534419,0.00169874298621,-0.0946531552807,-0.0156559449309,-0.0365508326065,-0.696602832557,0.573866909518,0.81891612199,0.00582256005974,0.0,0.818911529307,-0.573778804517,-0.0119389093308,0.0,-0.006436227697,0.0116197302795,-0.999911774529,0.0,0.323385502474,-0.183437302989,0.304951919279,1.0,-0.160304571429,-0.210686008163,3.323
-0.390599517169,-0.52077466701,-0.13471883271,-2.64139843452,-0.0698087885301,2.11219955779,-0.645053209079,-0.701411228329,-0.11203696269,0.00868703017661,-0.0863051236095,-0.00491414733043,-0.0313702695625,-0.687209711181,0.573902885072,0.818890648091,0.00585934085461,0.0,0.818886637664,-0.573814816981,-0.0119154257053,0.0,-0.00639537720877,0.0116366571622,-0.999911839794,0.0,0.320666078727,-0.187020374442,0.304966378571,1.0,-0.157817714286,-0.207417567347,3.34
-0.401642408606,-0.522446321031,-0.134584813473,-2.64262397836,-0.0700630581184,2.11172421555,-0.655921619082,-0.691169228297,-0.10093341794,0.00518792269069,-0.0720932831192,-0.0197900880691,-0.0228146392982,-0.680901403604,0.573771824768,0.818982321419,0.00588193913384,0.0,0.818978899599,-0.573684234009,-0.0118620640075,0.0,-0.00634056704676,0.0116235259393,-0.999912341585,0.0,0.318194588409,-0.19027590906,0.30498600057,1.0,-0.155477142857,-0.204341387755,3.356
-0.414181099752,-0.524148864892,-0.134540307562,-2.64382436207,-0.0703465332332,2.11121242559,-0.668005942234,-0.684054958787,-0.0869244695501,0.0056330572364,-0.0625129219788,-0.0178426809726,-0.023932574889,-0.674652455192,0.573922018041,0.818876651888,0.00594079974649,0.0,0.81887439067,-0.573834906627,-0.0117889414829,0.0,-0.00624477089415,0.0116309257903,-0.999912858404,0.0,0.315385275834,-0.19400040874,0.305022145198,1.0,-0.152844,-0.200880685714,3.374
-0.424923293091,-0.525400559219,-0.134394253079,-2.64476298531,-0.0705364599875,2.11084734964,-0.678618621095,-0.672813491277,-0.0794257941436,0.00728236406298,-0.0563913039529,-0.0140639537879,-0.0200441462421,-0.664169105758,0.573789866823,0.818969112542,0.00596056504109,0.0,0.818967241789,-0.573702958685,-0.0117609087125,0.0,-0.00621234677841,0.011630021669,-0.999913070893,0.0,0.312998550466,-0.197148443729,0.30502651094,1.0,-0.150503428571,-0.197804506122,3.39
-0.436454538886,-0.526562689162,-0.134361818719,-2.64565416251,-0.0707391356951,2.11044828297,-0.689761113509,-0.674988474351,-0.0632403888043,-0.00504012665457,-0.0507495624746,-0.0186394086375,-0.0178365088929,-0.65762214252,0.573947808764,0.818858029911,0.00601552711299,0.0,0.818856486223,-0.573859937098,-0.0118141638037,0.0,-0.0062221726828,0.0117067922141,-0.99991211393,0.0,0.310407179375,-0.200548492857,0.305013391565,1.0,-0.148016571429,-0.194536065306,3.407
-0.448228823726,-0.527581570815,-0.134197025019,-2.64644627302,-0.0708791294328,2.11011182536,-0.701401487792,-0.649074626266,-0.0512270133571,0.011138352184,-0.0396349418793,-0.00623895087318,-0.016522037195,-0.645404539121,0.573836048921,0.818936082129,0.00605221002978,0.0,0.818934803933,-0.573747661303,-0.0118387059292,0.0,-0.00622282190945,0.0117500678941,-0.999911602289,0.0,0.307791163348,-0.203974715587,0.305001305831,1.0,-0.145383428571,-0.191075363265,3.425
-0.45804460005,-0.528297310968,-0.134103010059,-2.64700929186,-0.0710174919087,2.1098679521,-0.710939525457,-0.659680830177,-0.041255613088,0.00418260160452,-0.035376133382,-0.00666534377605,-0.0133341059639,-0.634898820767,0.573905991548,0.818886931078,0.00607073936142,0.0,0.818885738797,-0.573817224595,-0.0118611320628,0.0,-0.00622955116057,0.0117786434198,-0.999911224185,0.0,0.305602157253,-0.206841697199,0.30498840704,1.0,-0.143189142857,-0.188191444898,3.44
-0.46962482855,-0.528949166854,-0.133988288323,-2.6475312268,-0.0711429748572,2.1095956826,-0.722263272873,-0.624989543274,-0.0307754319253,0.00922395153233,-0.0216663145528,-0.00284834813929,-0.00903714942986,-0.62862700378,0.573951839967,0.818854563441,0.00610214966961,0.0,0.81885335922,-0.573862143317,-0.011923232034,0.0,-0.00626172083132,0.0118403546832,-0.999910294403,0.0,0.303024926507,-0.210218655466,0.304968806441,1.0,-0.140556,-0.184730742857,3.458
-0.479000146921,-0.529347002833,-0.133862879284,-2.64786831902,-0.0712202078222,2.10942087996,-0.73155950561,-0.62693468785,-0.0245548616455,0.00676424722407,-0.020112451712,-0.00157492322694,-0.00863765110738,-0.614808770821,0.573876152766,0.81890746244,0.00612177649012,0.0,0.818906187375,-0.573785774852,-0.0119702864703,0.0,-0.00629008975496,0.0118828513743,-0.999909612222,0.0,0.300946323843,-0.212940485147,0.304949017493,1.0,-0.138361714286,-0.18184682449,3.473
-0.489715858481,-0.529704160611,-0.133763792884,-2.64811892547,-0.0712957865891,2.1092369018,-0.741925812201,-0.627094719644,-0.0201509697381,0.0037263270742,-0.0130415824854,-0.000857851836143,-0.00807469228021,-0.598773780804,0.574045684442,0.818788304325,0.00616536899458,0.0,0.818787528779,-0.573954960296,-0.0119763587577,0.0,-0.00626757903303,0.0119233338644,-0.999909271665,0.0,0.298569565526,-0.216065953186,0.304952202924,1.0,-0.135874857143,-0.178578383674,3.49
-0.499342310821,-0.529887585743,-0.133578565958,-2.64826418608,-0.0713236395769,2.10912112832,-0.751595393944,-0.592702942582,-0.0102120349016,0.00363942636548,-0.00958473849178,-0.000532973724102,-0.00782863555222,-0.606762346238,0.573859621323,0.818918600467,0.00618123983118,0.0,0.818917950866,-0.573768716418,-0.0119831845383,0.0,-0.00626677132219,0.0119388238571,-0.999909091899,0.0,0.296453499084,-0.218844877233,0.304947894006,1.0,-0.133534285714,-0.175502204082,3.506
-0.510215505281,-0.530034878139,-0.133447747049,-2.64840549345,-0.0713525026726,2.10903658698,-0.762242183867,-0.602988633595,-0.00817547710456,0.00892859660166,-0.00636821651424,-0.00151145978048,-0.00311973386204,-0.580390338589,0.573932631133,0.81886704138,0.00623300597184,0.0,0.818866987149,-0.573841341263,-0.0119882991372,0.0,-0.00624018668162,0.0119847096305,-0.999908709236,0.0,0.294030568459,-0.221987192505,0.304933472676,1.0,-0.130901142857,-0.172041502041,3.524
-0.520898413529,-0.530033848073,-0.133312529301,-2.6483813263,-0.0713821277856,2.10897449459,-0.772731357092,-0.577327402669,0.00360081001081,0.0109304587361,0.00198682549537,-0.000344608469759,0.000257622499567,-0.568790531769,0.57398456284,0.818830407228,0.00626360296091,0.0,0.818830934672,-0.573893485896,-0.0119546714915,0.0,-0.00619432684814,0.0119908596181,-0.999908920653,0.0,0.291660771979,-0.225084588935,0.304942174912,1.0,-0.128268,-0.1685808,3.542
-0.530040471385,-0.529918006944,-0.133169671875,-2.64829743167,-0.0713924623659,2.10896963779,-0.78184763631,-0.578988587171,0.0114837496004,0.00879528688146,0.00614224884451,-0.000403548222779,-0.0032277896554,-0.562037191729,0.573905388461,0.81888578118,0.00627928167983,0.0,0.81888665384,-0.573814536682,-0.0119278060578,0.0,-0.0061644863591,0.0119876829325,-0.999909143155,0.0,0.289634868674,-0.227725807547,0.304941226541,1.0,-0.125927428571,-0.165504620408,3.558
-0.539239287441,-0.529764940464,-0.133046587709,-2.64815641488,-0.071393786283,2.10895933287,-0.790819550434,-0.570258408679,0.0116976381008,0.00353201955091,0.0136481543342,6.39394705981e-05,-0.000867224599007,-0.556437622691,0.574011714067,0.818811049707,0.00630586178162,0.0,0.81881249165,-0.573921165556,-0.0118889085189,0.0,-0.00611581986921,0.0119879219594,-0.999909439137,0.0,0.287581510705,-0.23038085188,0.304951694115,1.0,-0.123586857143,-0.162428440816,3.574
-0.549160277656,-0.529409834764,-0.132825951524,-2.64787023869,-0.0713954464839,2.10897116631,-0.800731419007,-0.538038411048,0.029697183607,0.0188766165971,0.0109233702254,-0.000255850439193,-0.000112786910934,-0.550952107893,0.573879088713,0.818904257141,0.0062734420485,0.0,0.818905373105,-0.573788888555,-0.0118763703382,0.0,-0.00612609683526,0.0119531861241,-0.999909792071,0.0,0.285389698827,-0.233234581566,0.30495872993,1.0,-0.120953714286,-0.158967738776,3.592
