nelsonifechukwu/NELSON_IML_WORK/CNN-GradCAM/train2dof/data_sample_2022-02-21-07-53-56/robot_state.csv
position_joint1,position_joint2,position_joint3,position_joint4,position_joint5,position_joint6,position_joint7,velocity_joint1,velocity_joint2,velocity_joint3,velocity_joint4,velocity_joint5,velocity_joint6,velocity_joint7,ee_T_00,ee_T_10,ee_T_20,ee_T_30,ee_T_01,ee_T_11,ee_T_21,ee_T_31,ee_T_02,ee_T_12,ee_T_22,ee_T_32,ee_T_03,ee_T_13,ee_T_23,ee_T_33,v_x,v_y,time
0.465091840112,0.54751090807,-0.123998116427,-1.35574284246,0.0794133279682,1.89411013095,0.159148476627,-0.00108765196159,-0.00409094045009,0.0040191641019,-0.000612554817082,-0.000230034573628,-9.65528135956e-05,0.000816640627765,0.573760488704,0.819008392338,0.00221399707564,0.0,0.818969609489,-0.573701823756,-0.0116508821267,0.0,-0.00827215534448,0.00849817575954,-0.999929673754,0.0,0.661709166542,0.260897854419,0.30344975501,1.0,0.0,0.0,0.0
0.465090859475,0.547513695858,-0.12400116306,-1.35574366764,0.0794140527928,1.89411037678,0.159146951228,-0.000918076259505,-0.000241636835678,0.00129942973738,0.00106858149334,-0.000368921406343,0.00683053093004,0.000134827467381,0.573762415805,0.819007051124,0.00221072829345,0.0,0.818968233996,-0.573703770988,-0.0116516848676,0.0,-0.00827466821849,0.0084959786781,-0.999929671633,0.0,0.661709867627,0.260895441543,0.303447510789,1.0,-0.00034,-0.000446857142857,0.018
0.465091405526,0.54751291104,-0.124000930098,-1.35575165295,0.0794161272626,1.89411024917,0.159149290891,0.000266865962506,-0.00218772789034,0.000712488524516,-0.00155120492431,-0.000212471813621,0.000276372512056,0.000643597684618,0.573764706369,0.819005459418,0.00220591705831,0.0,0.818966552629,-0.573706051038,-0.0116575974867,0.0,-0.0082822474798,0.00849545385136,-0.999929613343,0.0,0.661707719792,0.260895326547,0.303444250501,1.0,-0.00058,-0.000762285714286,0.03
0.465087642835,0.547464539178,-0.124006634172,-1.35577438269,0.079414248054,1.89411867744,0.159141071826,-0.000686916841911,-0.00391068060036,6.97608472198e-05,-0.00178795625452,0.000425698932558,0.000345430119156,-0.00115120439118,0.573764567738,0.819005499995,0.00222681130785,0.0,0.81896686578,-0.573705837181,-0.0116461169574,0.0,-0.00826085824317,0.00850597770576,-0.999929700811,0.0,0.661703079863,0.260890976445,0.303464201091,1.0,-0.001,-0.00131428571429,0.051
0.465090317578,0.547367151492,-0.124004128614,-1.35587976928,0.0794142349098,1.89413018099,0.159143829461,0.000339581799066,-0.00703800573852,0.00114838905387,-0.0129194701715,0.00018336109619,0.000524730136685,-0.000473258293946,0.573769723751,0.819001843381,0.0022431109101,0.0,0.818963348842,-0.573710858947,-0.0116460499754,0.0,-0.00825139817599,0.00851934052363,-0.999929665159,0.0,0.661687297813,0.260880510822,0.303488356532,1.0,-0.00124,-0.00162971428571,0.063
0.465081834587,0.547195716244,-0.124004129458,-1.35610620971,0.0794094485702,1.8941930977,0.159138047038,-0.000266843708074,-0.00943867167435,-0.000650755118271,-0.0149224332321,-0.000787874604644,0.0126159159239,-0.000118273242377,0.573783156886,0.818992396994,0.00225597880548,0.0,0.818953965573,-0.57372413613,-0.0116518150931,0.0,-0.0082485972922,0.00853332232947,-0.999929569046,0.0,0.661654939399,0.260853765333,0.303507465129,1.0,-0.00166,-0.00218171428571,0.084
0.465063022822,0.547073876654,-0.124007200237,-1.35626912493,0.0794026563931,1.89426685651,0.15913171796,-0.00433968643088,-0.0131725638608,0.000365752348391,-0.012978166611,2.77663383495e-05,0.00502248879798,-0.00102087104432,0.573802903483,0.818978483411,0.00228441798737,0.0,0.818940426589,-0.573743782778,-0.0116359925954,0.0,-0.0082191151947,0.0085477331476,-0.99992968873,0.0,0.661641506777,0.260825715361,0.303522717989,1.0,-0.00192,-0.00252342857143,0.097
0.465032593363,0.546830251032,-0.123999549511,-1.35654181733,0.0794003543004,1.89442288871,0.159118079839,-0.00392908823348,-0.0159153465126,0.000370749668686,-0.016389179441,8.19217115187e-05,0.00698189239643,-0.00144028849538,0.573826183205,0.818961837319,0.00240153775212,0.0,0.818925208431,-0.573766547959,-0.0115844007904,0.0,-0.00810941626116,0.00861427814606,-0.999930013341,0.0,0.661622832932,0.26079107899,0.303578778507,1.0,-0.00234,-0.00307542857143,0.118
0.465008015145,0.546674656066,-0.123998839817,-1.35674396426,0.0793888867912,1.89451842868,0.159112941436,-0.000546760021265,-0.0133440484978,-0.00554582213421,-0.0123926009029,-0.000295684856353,0.0126608215976,0.000505429545526,0.573849961394,0.818945052266,0.00244337443106,0.0,0.818908982827,-0.573790196709,-0.0115600565685,0.0,-0.00806522211577,0.0086348055323,-0.999930193726,0.0,0.661606520306,0.260757911198,0.303601014115,1.0,-0.0026,-0.00341714285714,0.131
0.464959798486,0.546365466996,-0.124004129543,-1.35719149021,0.0793662463979,1.89467588178,0.159074982852,-0.0054824981163,-0.0168033796569,-0.00119841274709,-0.0225192362628,-0.0026587834541,0.00775243603182,0.000552419597111,0.573880995069,0.818923251892,0.00246128250503,0.0,0.818887392259,-0.573821141357,-0.0115535029831,0.0,-0.00804925127042,0.0086460154632,-0.999930225551,0.0,0.661558470888,0.260680910818,0.303620767518,1.0,-0.00302,-0.00396914285714,0.152
0.464936789564,0.546168639704,-0.124006579198,-1.35748797425,0.0793488839343,1.89478759625,0.158980434943,0.000341686288795,-0.0216291730111,-0.000940427700816,-0.0247026904164,-7.77200419605e-06,0.00765298885337,-0.0092329015263,0.573836100756,0.818954679035,0.00247185291395,0.0,0.818918958868,-0.573776219166,-0.0115471220001,0.0,-0.00803843393686,0.00865056922854,-0.999930273185,0.0,0.661525446316,0.260636435921,0.303628775003,1.0,-0.00326,-0.00428457142857,0.164
0.46488587293,0.545808553713,-0.124007318339,-1.35807718788,0.0793028034506,1.89498944346,0.158917585509,-0.000820202879594,-0.020653022988,0.000278737128983,-0.0311126785778,-0.000801162557579,0.0133490862047,-0.003622532459,0.573847954896,0.818946480394,0.00243594201921,0.0,0.818910334511,-0.573788237277,-0.0115615610807,0.0,-0.00807074026431,0.00862956242116,-0.999930194466,0.0,0.661456893622,0.260549152196,0.303616275261,1.0,-0.00366,-0.00481028571429,0.184
0.464844459366,0.545559701047,-0.124007318343,-1.35849082683,0.0792703179572,1.89513343218,0.158878899234,-0.00145716145776,-0.0247262958925,-0.000200431243131,-0.0337909750447,-0.000120974313726,0.0143989682842,-0.00445477944985,0.573864194041,0.818935148292,0.00242003937059,0.0,0.818898878601,-0.573804617073,-0.0115600585205,0.0,-0.00807846400987,0.00861583707424,-0.999930250453,0.0,0.661408900049,0.260474639957,0.303612489697,1.0,-0.00394,-0.00517828571429,0.198
0.464783750067,0.545126731046,-0.124007727172,-1.35921749212,0.0792327654184,1.89536389225,0.158774394738,-0.000824339881677,-0.0258711643199,0.0012904389732,-0.0360309615269,-0.000307611996208,0.0131999783808,-0.000896996963722,0.57385903976,0.818938906413,0.00237001050758,0.0,0.818901881346,-0.573799524409,-0.0116000611015,0.0,-0.00813998717068,0.00859777152208,-0.99992990701,0.0,0.661317376225,0.260363239373,0.303593068775,1.0,-0.00434,-0.005704,0.218
0.464729445649,0.544801041719,-0.124007839094,-1.35978697511,0.0792082369786,1.89554745246,0.158712392961,-0.00213253612525,-0.0242702346622,-0.000602276155024,-0.0354577915797,0.000333871008417,0.0170497382006,-0.00853982835732,0.573877981742,0.818925765395,0.00232373509837,0.0,0.818888017261,-0.573818499825,-0.0116400750592,0.0,-0.00819911304732,0.0085830268595,-0.999929550616,0.0,0.661247243244,0.260272426226,0.303568435291,1.0,-0.00462,-0.006072,0.232
0.464659108729,0.544318888638,-0.124013710795,-1.36062765208,0.0791677383952,1.89583285319,0.15859598963,-0.000646752658363,-0.0241152986323,-0.000107647217648,-0.0426501600221,-0.000491313483707,0.0209569123916,-0.000164911007954,0.57388043122,0.818924213867,0.00226484122797,0.0,0.818885598536,-0.57382105671,-0.0116841040556,0.0,-0.00826894134453,0.00856008934666,-0.999929172231,0.0,0.661145512485,0.260141870428,0.303534433243,1.0,-0.00502,-0.00659771428571,0.252
0.464607969516,0.543950870048,-0.124015841803,-1.36120094035,0.0791358582882,1.8960446866,0.15854880151,-0.000103417955757,-0.0250465424697,-0.000661253409738,-0.0415014502641,0.000311642334972,0.0152301235529,-0.00173370589761,0.573908624805,0.818904439132,0.00227086916761,0.0,0.818865885946,-0.573849207925,-0.0116830774402,0.0,-0.00826434661961,0.00856472109739,-0.999929170555,0.0,0.661081168642,0.260052827009,0.30354039426,1.0,-0.00528,-0.00693942857143,0.265
0.464530904584,0.543355583373,-0.124016907094,-1.36217446979,0.0790856965345,1.89638300299,0.158415956046,0.000733909248941,-0.0284041419103,0.000738139267434,-0.0500652777853,-0.00907124319942,0.0135971965913,-0.00173349882678,0.57390446651,0.818907435324,0.00224111404664,0.0,0.818868386635,-0.573845047864,-0.0117121011466,0.0,-0.00830523441633,0.00855696935206,-0.999928898151,0.0,0.660963366647,0.259908363633,0.303527526449,1.0,-0.00568,-0.00746514285714,0.285
0.464457441433,0.54291233906,-0.124017319463,-1.36288553295,0.0790380881103,1.89663324175,0.158309382101,-0.00230114465568,-0.0295039363315,0.000340910394765,-0.0554307620185,-0.00370668572313,0.021592512636,-0.00471211757116,0.573904460197,0.818907487743,0.00222350737857,0.0,0.818868229545,-0.573845127291,-0.0117191905426,0.0,-0.00832114421878,0.00854661982172,-0.999928854393,0.0,0.660883059243,0.259790263496,0.303524294266,1.0,-0.00596,-0.00783314285714,0.299
0.464377890111,0.542247569769,-0.124022854157,-1.36394676315,0.0789796372951,1.89700789548,0.158187147203,-0.0020915492019,-0.03015736181,-0.00108969220663,-0.0518365064758,-0.00320915260025,0.0277538273353,-0.00323463328516,0.57391670659,0.818898951451,0.00220637938655,0.0,0.818859415302,-0.573857379957,-0.0117350901849,0.0,-0.00834386659896,0.00854184330184,-0.99992870586,0.0,0.660755966573,0.259633210354,0.303521973685,1.0,-0.00636,-0.00835885714286,0.319
0.464300244627,0.541747283861,-0.124018011443,-1.36471373934,0.0789197462556,1.89729294655,0.158074607523,-0.00875233517286,-0.0373020498103,0.000835349473232,-0.0543167642192,-0.00259456798419,0.0172172813158,-0.00917026829126,0.573911339525,0.818902687612,0.00221573659206,0.0,0.818863363354,-0.573852070795,-0.0117192107925,0.0,-0.00832554847557,0.00854033791014,-0.999928871406,0.0,0.660671553607,0.259509898236,0.303535179898,1.0,-0.00664,-0.00872685714286,0.333
0.464209778827,0.541001243804,-0.124032906908,-1.36586240342,0.078864592542,1.89771499038,0.157931585338,-0.00499785116439,-0.0359798652217,-0.000473149029,-0.0650783174111,8.9219009447e-05,0.0247427792439,-0.00764768783835,0.57392771511,0.81889115485,0.00223634480956,0.0,0.818852031614,-0.573868298493,-0.0117163649145,0.0,-0.00831122022151,0.0085557467601,-0.999928858877,0.0,0.660540329738,0.259334662393,0.303552950961,1.0,-0.00704,-0.00925257142857,0.353
0.464125439287,0.540468514783,-0.124025468042,-1.36666711047,0.0788166573524,1.89801862831,0.157827269178,-0.0107634500023,-0.0437224099139,0.000205313252026,-0.0646825584749,-0.00457440918111,0.0250850981933,-0.00482284796786,0.573937935499,0.818883911819,0.00226540500597,0.0,0.818845125272,-0.573878367081,-0.0117058752394,0.0,-0.00828584550992,0.00857362678291,-0.999928916318,0.0,0.660451977208,0.259207592911,0.303572539839,1.0,-0.0073,-0.00959428571429,0.366
0.464015832994,0.539636306234,-0.12403929786,-1.36797068946,0.0787384978187,1.89849733111,0.157672629377,-0.00817036342982,-0.0428795589859,1.5268166349e-05,-0.0655573166484,-0.00253371661391,0.0297311606091,-0.00600720764989,0.573962013746,0.818867028258,0.00226797472112,0.0,0.818828320646,-0.573902479995,-0.0116992163689,0.0,-0.00827866561393,0.00857215275903,-0.999928988425,0.0,0.660304119008,0.259003218653,0.303582097063,1.0,-0.0077,-0.01012,0.386
0.463943946398,0.539063317785,-0.124039276805,-1.36886509303,0.0786767312751,1.89882533763,0.157561157429,-0.00758273019637,-0.0414794242166,-0.000145757304899,-0.0696374044476,-0.00768393035113,0.0297479895419,0.000378306099365,0.573962485572,0.818866694578,0.00226904571197,0.0,0.818828055634,-0.57390300451,-0.0116920324449,0.0,-0.00827216307434,0.00856891127003,-0.999929070023,0.0,0.66019988068,0.25886938928,0.303589611052,1.0,-0.00796,-0.0104617142857,0.399
0.463818015662,0.538171778105,-0.124040367513,-1.37025834226,0.0786123690546,1.89936645582,0.157388074542,-0.00200207759095,-0.0462223646961,0.0018403724886,-0.0720214275629,0.000334967495413,0.0228543058471,-0.00499414444156,0.573984536187,0.81885111947,0.00231154967551,0.0,0.818812883895,-0.573924741403,-0.0116875692544,0.0,-0.00824388233839,0.00860137627686,-0.999929024846,0.0,0.660045318608,0.258658245637,0.303603162511,1.0,-0.00836,-0.0109874285714,0.419
0.463735956225,0.537532389258,-0.124056656789,-1.37129098131,0.0785433940197,1.89975322176,0.157260808127,-0.00448989718989,-0.0459498057798,-0.00146289002245,-0.0717402392096,-0.00960592463265,0.0232096980275,-0.00905725900687,0.573997503928,0.818842069942,0.00229714554184,0.0,0.818803777321,-0.573937895867,-0.0116795905197,0.0,-0.00824547994952,0.00858513254235,-0.99992915127,0.0,0.659928931645,0.258495538157,0.303597214055,1.0,-0.00864,-0.0113554285714,0.433
0.463598849917,0.536504858003,-0.124058333935,-1.37287766029,0.0784545927,1.90034514055,0.157076130921,-0.0059240436234,-0.0498330758072,0.0002662007847,-0.0761330293633,-0.00721468644349,0.0283821987372,-0.00727244842386,0.574023313473,0.818823890479,0.00232784725216,0.0,0.818785933954,-0.573963524853,-0.0116710495844,0.0,-0.00822059308436,0.0086056288256,-0.999929179993,0.0,0.659747002506,0.258255035986,0.303618776093,1.0,-0.00906,-0.0119074285714,0.454
0.463511887034,0.535861105775,-0.12406098353,-1.37389423301,0.078391892313,1.90072724097,0.156946344099,-0.010722562129,-0.0467740515776,-0.00119821701939,-0.0740207183157,-0.00463666062785,0.0280388256485,-0.00830964492419,0.574029239953,0.818819719499,0.0023335681186,0.0,0.818781856743,-0.573969450242,-0.0116656829599,0.0,-0.00821285256168,0.00860729207702,-0.999929229284,0.0,0.659630853196,0.258099692351,0.303622471512,1.0,-0.00932,-0.0122491428571,0.467
0.46337770388,0.534810898194,-0.124059679904,-1.37554661559,0.0783105700618,1.90131743141,0.156742697537,-0.0109420696004,-0.0488916786329,0.000562047133246,-0.0796897237551,-0.00832768281753,0.0303942217948,-0.00727609909598,0.574040237273,0.818812008766,0.00233392221571,0.0,0.818773936132,-0.573980220228,-0.0116916722339,0.0,-0.00823381496674,0.00862261099442,-0.99992892491,0.0,0.659431332072,0.257856480295,0.303628146067,1.0,-0.00972,-0.0127748571429,0.487
0.46329149055,0.534117503229,-0.124070565854,-1.3766794224,0.0782380460806,1.9017315756,0.156601638397,-0.00838978109921,-0.0542335873221,-0.000320112022651,-0.0881832099174,-0.00273825618338,0.0364947230166,-0.0125104813813,0.574045631906,0.818808304705,0.00230641188219,0.0,0.818769939549,-0.573985782957,-0.0116984595004,0.0,-0.00825510709759,0.00860403594796,-0.999928909359,0.0,0.659297611088,0.257684316934,0.303614335214,1.0,-0.00998,-0.0131165714286,0.5
0.463129509404,0.533040997958,-0.12407088173,-1.37841642962,0.07813692089,1.90238015159,0.156394032762,-0.00397239724906,-0.0542729003161,-0.000416638305947,-0.0873407795103,-0.0058375669268,0.030479848455,-0.00936583544765,0.574072305359,0.818789643897,0.00229219710628,0.0,0.818751056832,-0.574012466895,-0.0117107509244,0.0,-0.00827305114546,0.0085997221552,-0.999928798167,0.0,0.659088237862,0.257401555905,0.30359869516,1.0,-0.0104,-0.0136685714286,0.521
0.463030771037,0.532257762229,-0.124068344659,-1.3796715061,0.0780733473804,1.90285388587,0.156235428665,-0.00563204632177,-0.0567925712062,0.00111007765833,-0.0914575507385,-0.00846668925534,0.0390436017943,-0.00722286121724,0.574077278254,0.818786124263,0.00230395493563,0.0,0.818747555294,-0.574017255432,-0.0117208390164,0.0,-0.00827450977254,0.00861519070157,-0.999928652943,0.0,0.658949700623,0.257232492119,0.303598776949,1.0,-0.01066,-0.0140102857143,0.534
0.462869557608,0.531095974587,-0.124073450258,-1.38152350383,0.0779513357681,1.90353678796,0.155990575889,-0.00472696777443,-0.0637385577542,-1.65172526783e-05,-0.0945627442489,-0.00458332295794,0.0322942729086,-0.00955781012106,0.574080546593,0.818783872099,0.00228991594486,0.0,0.818745202879,-0.57402066101,-0.0117183786222,0.0,-0.00828051978437,0.00860231652073,-0.99992871403,0.0,0.658734044144,0.25694533261,0.303595427696,1.0,-0.01106,-0.014536,0.554
0.46275103068,0.530252347883,-0.124074337899,-1.38287214343,0.0778593429768,1.90400758361,0.155820413545,-0.0106513361691,-0.0579680735185,0.000667174848315,-0.0888026691216,-0.011240251555,0.0382330984172,-0.00618980906416,0.574087331242,0.81877921186,0.00225504656802,0.0,0.818740128222,-0.574027615202,-0.0117322770835,0.0,-0.0083118456089,0.00858181398301,-0.999928630299,0.0,0.658571081628,0.256734824364,0.303588711237,1.0,-0.01134,-0.014904,0.568
0.462587800669,0.528972066075,-0.124085825195,-1.38490893904,0.0777422295269,1.90475752268,0.155549330192,-0.00797107729857,-0.0640762757246,-0.00243961794232,-0.095686567251,-0.00870629767096,0.0395784386615,-0.0167297927439,0.574086230201,0.8187800002,0.00224910379387,0.0,0.818740804029,-0.574026500225,-0.011739666052,0.0,-0.00832131880414,0.00858117889044,-0.999928556959,0.0,0.658329364649,0.256427642097,0.303586372333,1.0,-0.01176,-0.015456,0.589
0.462491049081,0.528186618462,-0.12408398382,-1.38610656684,0.0776530040725,1.90522064472,0.155379592885,-0.00702305202865,-0.0673060909706,-5.20807142558e-05,-0.0978525057845,-0.00809629491212,0.0429083895776,-0.0167275218985,0.574066059458,0.818794048214,0.00228317527069,0.0,0.818755441585,-0.57400635662,-0.0117036889739,0.0,-0.00827251302682,0.00858821813714,-0.999928901491,0.0,0.658191544608,0.256250175631,0.303609399048,1.0,-0.012,-0.0157714285714,0.601
0.462321677186,0.526862191844,-0.124081609574,-1.38816780804,0.0775360141691,1.90601371126,0.155100205614,-0.0069808102624,-0.0690774713594,0.0011721099167,-0.104072511733,-0.00494754802935,0.0386035739323,-0.00407543571596,0.574054452204,0.818802041711,0.00233437266857,0.0,0.818764029828,-0.573994489263,-0.0116848901177,0.0,-0.00822785324955,0.00861922951569,-0.999929003136,0.0,0.657951139928,0.255947680503,0.303629177942,1.0,-0.0124,-0.0162971428571,0.621
0.462204432049,0.525984761643,-0.124083723912,-1.38954407038,0.0774464742749,1.90652569445,0.154904935929,-0.00854747246611,-0.0615652095625,0.000318166890645,-0.107962162264,-0.00758487539652,0.0369656326279,-0.02101429448,0.574042174119,0.818810629926,0.0023412719698,0.0,0.818772752789,-0.573982234875,-0.0116756258793,0.0,-0.00821643625515,0.00861943731054,-0.999929095224,0.0,0.657789063174,0.255737740187,0.303635909275,1.0,-0.01266,-0.0166388571429,0.634
0.462007164454,0.524545275824,-0.124090405868,-1.39182424718,0.0773018541659,1.9073465466,0.154602194883,-0.0114790762583,-0.069855322931,-0.000132292185041,-0.111069869842,-0.000422857760713,0.0390740408241,-0.0156929804137,0.574044131448,0.818809320575,0.00231917900133,0.0,0.818771177471,-0.573984294482,-0.0116848419924,0.0,-0.00823664379089,0.00860665759915,-0.999929039054,0.0,0.657515248435,0.255384699754,0.303634411779,1.0,-0.01308,-0.0171908571429,0.655
0.461888145116,0.52362930023,-0.124103200679,-1.39328533198,0.0772103681927,1.90786089951,0.154407346831,-0.0051565764287,-0.0725487681181,-0.00113599498319,-0.10892560135,-0.00344841802874,0.0383870692692,-0.00894693809974,0.574044731146,0.818808985993,0.00228866807723,0.0,0.818770472671,-0.573985033425,-0.0116979223282,0.0,-0.00826486182113,0.00858918988974,-0.999928956414,0.0,0.657336809737,0.255157735326,0.30362796996,1.0,-0.01334,-0.0175325714286,0.668
0.461687938617,0.522136857578,-0.124108768648,-1.39567856866,0.0770624285054,1.90877517072,0.154079095322,-0.0129511894745,-0.0730772232834,-9.54460333838e-05,-0.118207288325,-0.00715502647593,0.0465893484601,-0.0189196533809,0.574032360277,0.818817642179,0.00229458334101,0.0,0.818779251256,-0.573972689663,-0.0116891460202,0.0,-0.00825440973441,0.00858887067187,-0.999929045493,0.0,0.657055598896,0.254796548521,0.303617205101,1.0,-0.01376,-0.0180845714286,0.689
0.461563475536,0.521188229189,-0.124114817395,-1.39719689245,0.0769763627559,1.90937391772,0.153870952666,-0.00764338344235,-0.0767449875536,0.000134498292264,-0.114911196477,-0.00755848986105,0.0481580766413,-0.0183605989562,0.574026356813,0.818821782792,0.00231875195813,0.0,0.818783702573,-0.573966595102,-0.0116766009579,0.0,-0.0082303275063,0.00860139862501,-0.999929136315,0.0,0.656879962299,0.254570171311,0.303613094175,1.0,-0.01402,-0.0184262857143,0.702
0.461365191429,0.519693403687,-0.124121295388,-1.39959781162,0.0768117579243,1.91024811732,0.153545842449,-0.00931503272411,-0.082874703778,-0.00507313846744,-0.12416063641,-0.00682754486217,0.0443616959883,-0.0168777491596,0.574010474658,0.818833028847,0.00227876141172,0.0,0.81879456034,-0.573950997812,-0.011681907736,0.0,-0.00825779349629,0.00857153988142,-0.999929166267,0.0,0.656587987909,0.254203587021,0.303596048106,1.0,-0.01442,-0.018952,0.722
0.461237997821,0.518648631347,-0.124123308797,-1.40118469591,0.0767112925869,1.91080498534,0.153337797471,-0.00983965884,-0.0837881322615,0.000383538770502,-0.123341357403,-0.0102259435553,0.0469046166893,-0.0161708200441,0.574002618547,0.818838503477,0.00229042044835,0.0,0.818800165667,-0.573943078355,-0.0116781168796,0.0,-0.00824807958733,0.00857883148021,-0.999929183909,0.0,0.656389817668,0.253965865974,0.303622415617,1.0,-0.01468,-0.0192937142857,0.735
0.461013658195,0.516990179488,-0.124128430849,-1.40380573362,0.0765466463766,1.91175435214,0.15298633445,-0.0141247466703,-0.079658436035,0.000336265209385,-0.127603887941,-0.00756406816791,0.0351951383185,-0.0157423159666,0.573996465294,0.818842859873,0.00227498726638,0.0,0.81880431733,-0.573936978089,-0.0116868303972,0.0,-0.00826413741872,0.00857113375498,-0.999929117337,0.0,0.656069651902,0.253564198765,0.30362099738,1.0,-0.0151,-0.0198457142857,0.756
0.460876370873,0.515969408982,-0.124134347708,-1.40544566328,0.0764455507372,1.91237166642,0.152755559655,-0.00812518799753,-0.0813062092368,-0.000145383852484,-0.133669760613,-0.00334502719905,0.0485380647499,-0.0195160387512,0.573978248562,0.818855645593,0.00226908784573,0.0,0.818817040019,-0.573918799419,-0.0116881799295,0.0,-0.00826881915019,0.00856689377746,-0.999929114968,0.0,0.655856759998,0.253296642778,0.303608595965,1.0,-0.01538,-0.0202137142857,0.77
0.460648607376,0.514244548316,-0.124130840169,-1.40817168929,0.0762822341364,1.91338682587,0.152387997248,-0.00387146189176,-0.0885253220054,0.00233884141385,-0.131407204426,-0.00455557774855,0.0496845569339,-0.0178053514461,0.573966239501,0.818864024965,0.00228285627234,0.0,0.818825523081,-0.573906663142,-0.0116898098561,0.0,-0.00826237740055,0.00857898235693,-0.999929064575,0.0,0.655539351944,0.252909328168,0.303609688222,1.0,-0.01578,-0.0207394285714,0.79
0.460487177274,0.513103164761,-0.124138351698,-1.41004778313,0.0761617114673,1.91403253208,0.152123297843,-0.01204760188,-0.0871202542756,-0.000432856373556,-0.136733515367,-0.00957122372862,0.0386130031512,-0.0194126385621,0.573952738957,0.818873708242,0.00220233825746,0.0,0.818834144229,-0.573893448439,-0.0117346062768,0.0,-0.00834541373455,0.00853862357049,-0.999928720448,0.0,0.655301286472,0.252615901979,0.303572770301,1.0,-0.01606,-0.0211074285714,0.804
0.460253926983,0.511431241013,-0.124143009935,-1.41275265016,0.07600666007,1.91500553082,0.151749899527,-0.0117999774155,-0.0875502299101,-0.000507538892655,-0.131422324286,-0.00894597350014,0.0494857648585,-0.0247123774058,0.573941060661,0.81888201924,0.00215507636433,0.0,0.818841680601,-0.573881789251,-0.0117788360426,0.0,-0.00840887985991,0.00852518813992,-0.999928303383,0.0,0.654963799737,0.252202346037,0.303540926846,1.0,-0.01646,-0.0216331428571,0.824
0.460106267888,0.510295134889,-0.124144046094,-1.4145267992,0.0759028308541,1.91568260834,0.151496112955,-0.0104729445917,-0.0913350685144,1.48032083322e-05,-0.138469766505,-0.00365559926393,0.0505223337615,-0.0207176782439,0.573919637143,0.818896942864,0.00218951394651,0.0,0.818857010402,-0.57386019344,-0.0117652794853,0.0,-0.00837823781263,0.00854538830279,-0.999928388171,0.0,0.65474888431,0.251938581338,0.303550585091,1.0,-0.01672,-0.0219748571429,0.837
0.45986370399,0.508542473665,-0.12414939302,-1.41729123429,0.0757185296943,1.91669559279,0.151105194217,-0.0155354297732,-0.0844757665764,-0.000477370951052,-0.135323109107,-0.0102020151291,0.040723487878,-0.0174484596782,0.573888079572,0.818919091827,0.00217716988344,0.0,0.818879052617,-0.573828741856,-0.0117651649962,0.0,-0.00838555702681,0.00853489108014,-0.999928416472,0.0,0.654390350753,0.251492380583,0.303545381089,1.0,-0.01714,-0.0225268571429,0.858
0.459703800022,0.507387213506,-0.124147207429,-1.41911999796,0.075598709642,1.91735241883,0.150848326212,-0.0139513825587,-0.0870572200856,-0.00184722870587,-0.140342724529,-0.00702279967616,0.046993306908,-0.0255470000334,0.573877097683,0.81892682578,0.00216279319997,0.0,0.818886632194,-0.573817849687,-0.0117688527706,0.0,-0.00839694156636,0.00852512164574,-0.999928404274,0.0,0.654179522197,0.251230824771,0.303543643152,1.0,-0.01738,-0.0228422857143,0.87
0.459435318988,0.505429334798,-0.124158096147,-1.42213237706,0.0754059673405,1.91849229721,0.150435184254,-0.0127131504581,-0.0955262697946,-0.001852208909,-0.143437457526,-0.011140219345,0.058983442997,-0.0260764591595,0.573870039893,0.818931598086,0.00222752573684,0.0,0.818892348071,-0.573810650874,-0.0117220354562,0.0,-0.00832152745126,0.00855119337287,-0.999928812103,0.0,0.653817185755,0.250763416257,0.303577621937,1.0,-0.0178,-0.0233942857143,0.891
0.459277374444,0.504287593572,-0.124155430431,-1.42387895156,0.0753034656467,1.91917004441,0.150202687729,-0.0121494299375,-0.0984297605926,0.00425342829814,-0.144857115361,-0.00824807975828,0.0548797406747,-0.0166085669743,0.573869570737,0.81893175022,0.00229154206218,0.0,0.818893292048,-0.573809902436,-0.0116926902903,0.0,-0.00826076484238,0.00858677290279,-0.999929011028,0.0,0.653607974597,0.250498909894,0.303602693607,1.0,-0.01804,-0.0237097142857,0.903
0.458989944154,0.502203364796,-0.124154080108,-1.42694759226,0.0751034941556,1.92032444174,0.149770646688,-0.0151135469272,-0.103713087129,0.00191565982958,-0.149721103794,-0.0113665367818,0.0560169837802,-0.0241896708305,0.5738533608,0.818942704256,0.00243194281207,0.0,0.818906142026,-0.573793267125,-0.0116087921208,0.0,-0.00811165937556,0.00865344388485,-0.999929656971,0.0,0.653238191858,0.250021309842,0.303697419196,1.0,-0.01846,-0.0242617142857,0.924
0.458816573995,0.500907801061,-0.124159993567,-1.4289098755,0.0749712825352,1.92100894299,0.149489439269,-0.00521349988389,-0.103582306692,0.000519329564551,-0.154363144494,-0.0140289874264,0.0492486609404,-0.0208764929643,0.573833390287,0.818956667798,0.00244199950268,0.0,0.818920271748,-0.573773302069,-0.0115988471079,0.0,-0.00809795497017,0.00865577530616,-0.999929747872,0.0,0.652988288546,0.249714104063,0.303727089965,1.0,-0.01872,-0.0246034285714,0.937
0.45852403538,0.498906106519,-0.124162525909,-1.43197882406,0.0747841943772,1.92212361384,0.149061656419,-0.0113402698416,-0.0979563473435,-0.00122978526778,-0.153836956701,-0.00639152939616,0.0560288245936,-0.0239734723764,0.573830089369,0.818958854001,0.00248412761954,0.0,0.818922920012,-0.573769764992,-0.0115868357113,0.0,-0.00806397963178,0.00868335119703,-0.999929783357,0.0,0.652607067864,0.249229468483,0.303759320095,1.0,-0.01912,-0.0251291428571,0.957
0.458312040832,0.497536246511,-0.124160046732,-1.43415448693,0.0746569396736,1.92293909156,0.148740566117,-0.015720300723,-0.0963352074623,0.00129093504,-0.154035288529,-0.00981786144334,0.0597299349673,-0.021901048988,0.573815252946,0.818969215179,0.00249539113941,0.0,0.818933329008,-0.573754785628,-0.0115929077315,0.0,-0.00806264716921,0.00869591367859,-0.999929684931,0.0,0.652339476809,0.248887382813,0.303749483904,1.0,-0.0194,-0.0254971428571,0.971
0.457999525455,0.495551927532,-0.124157751925,-1.43732957275,0.0744547687053,1.92403399996,0.148269168177,-0.0157238968524,-0.100873849377,-0.000219290066046,-0.166843251365,-0.0137028466577,0.0466246314746,-0.0237376147049,0.573788883192,0.818987937375,0.00241306031542,0.0,0.818950849467,-0.573728565622,-0.0116527270413,0.0,-0.00815915833993,0.00866254981125,-0.999929191676,0.0,0.651929976802,0.248376417887,0.303715815408,1.0,-0.0198,-0.0260228571429,0.991
0.457791269382,0.494293342501,-0.124160050671,-1.43942833361,0.0743242201106,1.92476509822,0.147985255945,-0.0176758867263,-0.0956849669189,-0.000675018428386,-0.160770442641,-0.0176463646363,0.0567025665695,-0.0214104003575,0.573798883296,0.818981203909,0.00231863601138,0.0,0.818942794096,-0.573738807444,-0.0117144241131,0.0,-0.00826376080623,0.00862071970379,-0.999928694182,0.0,0.651659504429,0.24803573537,0.303656995672,1.0,-0.0201514285714,-0.0264847346939,1.004
0.457451383806,0.49222848179,-0.124163910261,-1.44275099728,0.0741054046585,1.92599755858,0.147516537231,-0.0194668554281,-0.104740028724,-0.000366856363724,-0.172983494925,-0.00814372044362,0.0591094963016,-0.024689564431,0.573803624002,0.81897797298,0.00228642873035,0.0,0.818939209526,-0.57374373474,-0.0117236875074,0.0,-0.00828977727557,0.00859970608645,-0.999928659779,0.0,0.651249852264,0.247493762314,0.303619827431,1.0,-0.0212942857143,-0.0279867755102,1.024
0.457216973006,0.490708607803,-0.124156741968,-1.44519569032,0.0739513912694,1.92685005351,0.147166006163,-0.0164825423163,-0.116817589373,0.00012393796819,-0.172525261652,-0.0140851442861,0.0641878279753,-0.0244299934758,0.573783548686,0.818992204602,0.00222597375307,0.0,0.818952516777,-0.573723747454,-0.0117721609198,0.0,-0.00836437506142,0.00857780422492,-0.999928226677,0.0,0.650929851491,0.247108755854,0.303587280705,1.0,-0.0220942857143,-0.0290382040816,1.038
0.456805293167,0.488225746666,-0.124165608817,-1.44917947393,0.0737028014533,1.92829259953,0.14660190468,-0.0223410549737,-0.120120999174,0.00241161430648,-0.182046206382,-0.0126676432847,0.0725659376792,-0.0282690069328,0.573795895705,0.818983697901,0.00217245168101,0.0,0.818943233361,-0.573736217588,-0.0118101677138,0.0,-0.00842608284495,0.00855590509343,-0.999927896208,0.0,0.65042879737,0.246454220111,0.303542641698,1.0,-0.0233514285714,-0.0306904489796,1.06
0.456587589501,0.486892447023,-0.124173611364,-1.45122892791,0.0735742384345,1.92909757452,0.146310415036,-0.0175875392764,-0.118581632603,0.000731245316733,-0.188067527664,-0.0143387109635,0.0710497723986,-0.0216533261843,0.573808190789,0.818974892359,0.00224338363006,0.0,0.81893542794,-0.573748317036,-0.0117635225897,0.0,-0.00834705277109,0.00858735728087,-0.999928289431,0.0,0.650186273178,0.246116505041,0.303563449215,1.0,-0.02398,-0.0315165714286,1.071
0.456142433726,0.484242227311,-0.124197210912,-1.45524564365,0.0733165172798,1.93055960479,0.145690299621,-0.0194322869941,-0.125981915357,-0.00451511823721,-0.192849067445,-0.0125939043196,0.0694775169481,-0.0263233546461,0.573809746436,0.818973595078,0.00231783545169,0.0,0.818935167342,-0.573749664363,-0.0117158540356,0.0,-0.00826527691868,0.0086209941778,-0.999928679285,0.0,0.649693188793,0.245430226132,0.303618860875,1.0,-0.02518,-0.0330937142857,1.092
0.455864461419,0.482540075542,-0.12422006389,-1.4578690175,0.0731532464675,1.93142958071,0.145298607571,-0.0198104491692,-0.133440908682,-0.00330121715007,-0.204679354422,-0.00527756599371,0.0648617408814,-0.028038511695,0.573816953753,0.81896866732,0.00227429872095,0.0,0.818929578911,-0.573756935044,-0.0117503691394,0.0,-0.00831844964707,0.00860521719602,-0.999928374251,0.0,0.649350071067,0.244981009053,0.303627162172,1.0,-0.0259228571429,-0.0340700408163,1.105
0.455424523317,0.479856353174,-0.124248092595,-1.46203008097,0.0728995730151,1.9329747889,0.144688863906,-0.0230056686572,-0.133567405825,-0.000213239187773,-0.211844786721,-0.0167663675027,0.0793148895586,-0.0226311634657,0.573832784854,0.818957422434,0.0023285548373,0.0,0.818919037705,-0.573772559697,-0.0117220443684,0.0,-0.00826395347895,0.00863355747347,-0.999928581829,0.0,0.648833684766,0.244285691184,0.303641923836,1.0,-0.0270657142857,-0.0355720816327,1.125
0.45511812045,0.478047290739,-0.124267864836,-1.4647731445,0.0727277127019,1.93398536929,0.144279336099,-0.0272071771286,-0.142557809996,-0.00108820631928,-0.211926596206,-0.0191884628807,0.076629639178,-0.0331987285904,0.573852730222,0.818943276751,0.00238754746837,0.0,0.818905694473,-0.573792323975,-0.0116867192739,0.0,-0.00820096166009,0.00866179874681,-0.999928856204,0.0,0.648466518683,0.243778485577,0.303677430884,1.0,-0.0278657142857,-0.0366235102041,1.139
0.454604413725,0.47504187003,-0.124275038833,-1.46939666883,0.0724413524369,1.93566661373,0.143619946201,-0.0262981496144,-0.143994016099,0.000157322352526,-0.226346793982,-0.0212664977452,0.0796568969865,-0.0375741184795,0.57388062158,0.818923561124,0.00244542664148,0.0,0.818886611405,-0.573819876646,-0.0116710637314,0.0,-0.00815463166116,0.00870049195596,-0.999928899183,0.0,0.647910315815,0.243038833271,0.303703054938,1.0,-0.0290085714286,-0.0381255510204,1.159
0.454274512715,0.473123427613,-0.124278959006,-1.47235572874,0.0722385381146,1.93669704968,0.143194306417,-0.0298582698117,-0.151029772661,0.000508434611661,-0.231361668055,-0.0212796386894,0.0766854366176,-0.03614493432,0.573891264171,0.81891615066,0.00242940258197,0.0,0.818879008384,-0.573830592009,-0.0116776797328,0.0,-0.00816913229473,0.00869127249569,-0.999928861,0.0,0.647525624324,0.242535692892,0.303710772221,1.0,-0.0297514285714,-0.039101877551,1.172
0.453766011839,0.47011181952,-0.124279371299,-1.47700031619,0.071955045027,1.93837616804,0.142479156351,-0.0289435425748,-0.150850689398,0.000321739543771,-0.237675890401,-0.0186932995621,0.090832830485,-0.0358798885923,0.573867071384,0.818932966462,0.00247542390943,0.0,0.818896206987,-0.573806007537,-0.0116796745593,0.0,-0.00814461423278,0.00872986396111,-0.999928724827,0.0,0.646925733728,0.241765311987,0.303726675222,1.0,-0.0308942857143,-0.0406039183673,1.192
0.45340422017,0.467915332604,-0.124278515193,-1.48029261921,0.0717315212436,1.93966386636,0.141949071014,-0.0302259775933,-0.157628010989,-0.00198798010023,-0.235267455355,-0.0149644632201,0.0891128894871,-0.0345928702504,0.573823981161,0.818962684384,0.0026281423293,0.0,0.818928090866,-0.573762591964,-0.0115765691915,0.0,-0.00797300193109,0.00879534193948,-0.999929534117,0.0,0.646520596053,0.241222945396,0.303787453813,1.0,-0.0316942857143,-0.0416553469388,1.206
0.452840856234,0.464718923144,-0.124285111811,-1.48527395679,0.0713841190091,1.94133669507,0.141197859675,-0.0310371855749,-0.164048929529,-0.00707628508487,-0.25444053221,-0.0185987398634,0.0778654268587,-0.0339125294172,0.573813400536,0.818970435716,0.00252065265381,0.0,0.81893440452,-0.573752335002,-0.0116381301465,0.0,-0.00808520983649,0.00874253253614,-0.99992909624,0.0,0.64585138634,0.240367069446,0.30376643906,1.0,-0.0328371428571,-0.0431573877551,1.226
0.452439555499,0.462444963055,-0.124283974311,-1.48886978947,0.0711536749122,1.94260713673,0.140663444913,-0.0305477342342,-0.164266686056,0.000418088373901,-0.258994817557,-0.018331611078,0.0882751634747,-0.0434447718805,0.573808897586,0.818973724206,0.00247689549276,0.0,0.818936978238,-0.573747829721,-0.0116790610098,0.0,-0.00814388747209,0.00873013851535,-0.999928728349,0.0,0.645373676823,0.239763451485,0.303732226798,1.0,-0.0336371428571,-0.0442088163265,1.24
0.451835940247,0.459124169355,-0.124286533801,-1.49404857498,0.0708042536166,1.94442079442,0.139889865036,-0.0295060947152,-0.164204346234,0.000116062813143,-0.25766628748,-0.0205787925464,0.0826124744339,-0.0468964569351,0.573816059954,0.818968843922,0.002430828142,0.0,0.818931432232,-0.573755085824,-0.0117114343557,0.0,-0.00819675765871,0.00871105840511,-0.999928462754,0.0,0.644687564953,0.238872580586,0.303710878251,1.0,-0.03478,-0.0457108571429,1.26
0.451420690906,0.456940703542,-0.124300287203,-1.49752933088,0.0705734813559,1.94566379871,0.13935145448,-0.0273495736956,-0.167530652473,-0.00152542620229,-0.274502798114,-0.0163903296921,0.0940877795898,-0.0471989856799,0.573822747411,0.818964316829,0.00237680792769,0.0,0.818926191101,-0.5737619585,-0.0117411842761,0.0,-0.00825204786535,0.00868395607543,-0.999928243732,0.0,0.644231972836,0.238262587121,0.303664370136,1.0,-0.0355228571429,-0.0466871836735,1.273
0.450754998375,0.45344243326,-0.124337780794,-1.50302286047,0.0701932143302,1.94753972611,0.13849500561,-0.0365826964317,-0.183324404773,-0.00316234229548,-0.27019028264,-0.0183851096598,0.0945713544672,-0.0474622921205,0.573838724858,0.818953436226,0.00226584397177,0.0,0.818913939792,-0.573778427642,-0.0117907628349,0.0,-0.00835615422979,0.00862169351845,-0.999927917946,0.0,0.643464589775,0.237229574665,0.303623006495,1.0,-0.0367228571429,-0.0482643265306,1.294
0.450302586162,0.45084961227,-0.124358491406,-1.50683931434,0.0699397125289,1.94900954753,0.137887389625,-0.0349356831896,-0.185703956059,0.000146852516919,-0.274718900257,-0.0150732554987,0.106584186349,-0.0458125863096,0.573832938595,0.818956942816,0.0024558702956,0.0,0.818920110157,-0.573772142404,-0.0116674197241,0.0,-0.00814616126566,0.0087064789458,-0.999928916114,0.0,0.643020811431,0.236617491274,0.303708092173,1.0,-0.0374657142857,-0.0492406530612,1.307
0.44962265305,0.447081796167,-0.124373036794,-1.51249805045,0.0695515780187,1.95092549972,0.137058154314,-0.0320500277142,-0.189332699488,-0.000999148295493,-0.286213375184,-0.0179319586575,0.0943735630044,-0.0439194709246,0.57386871781,0.818931828746,0.00247011870964,0.0,0.818895110834,-0.573807791089,-0.0116689005355,0.0,-0.00813881739197,0.00871935299765,-0.999928863737,0.0,0.642250778486,0.235623926558,0.303764156529,1.0,-0.0386085714286,-0.0507426938775,1.327
0.449161382228,0.44461602828,-0.124371565302,-1.51625020315,0.0692849951091,1.95225467901,0.136471252827,-0.0341611828882,-0.19114416756,2.57841636587e-05,-0.289502146377,-0.0199074965133,0.110855943884,-0.0501684160331,0.573858664765,0.818938795204,0.00249589371562,0.0,0.818902470255,-0.573797710463,-0.0116481148003,0.0,-0.00810711108841,0.00872843318496,-0.999929042084,0.0,0.641748464054,0.23496750146,0.303782075605,1.0,-0.0393514285714,-0.0517190204082,1.34
0.448449569145,0.440840381368,-0.124374478816,-1.52211487677,0.068880604935,1.95434376227,0.135511422896,-0.0325477668861,-0.186688848868,0.000817209885038,-0.294752887677,-0.0205372804401,0.0982432449245,-0.0468940441276,0.573806338361,0.818975496917,0.00248362801298,0.0,0.818939006693,-0.573745427447,-0.0116548145349,0.0,-0.00812019364817,0.00872171423053,-0.999928994557,0.0,0.640956917302,0.233946926584,0.303755127382,1.0,-0.0404942857143,-0.0532210612245,1.36
0.447906860094,0.438105911994,-0.124382957433,-1.52635226867,0.0686013807615,1.95582061228,0.134838808163,-0.0438867244101,-0.200221249066,-0.000508811014102,-0.308488556404,-0.0211364652428,0.105827000619,-0.0469330724077,0.573815774393,0.81896895554,0.0024604512611,0.0,0.81893202519,-0.573754795916,-0.0116841423378,0.0,-0.00815741119107,0.00871965539824,-0.999928709585,0.0,0.640382163425,0.233188350984,0.303735307758,1.0,-0.0412942857143,-0.0542724897959,1.374
0.447113974478,0.434076311177,-0.124400699879,-1.53242375805,0.0681869004301,1.95795233515,0.133881842479,-0.0428917207564,-0.201933387151,-0.00426677194112,-0.305163714778,-0.0275443163838,0.108465723292,-0.0470078660706,0.573844473638,0.818948640173,0.00252818804183,0.0,0.818912578275,-0.573783238746,-0.0116503638232,0.0,-0.00809057345634,0.00875603046423,-0.999928934751,0.0,0.639564523464,0.232089720974,0.303780828643,1.0,-0.0424371428571,-0.0557745306122,1.394
0.446584543956,0.431426988785,-0.124411298673,-1.53648187091,0.0678819537178,1.95939700969,0.133228146232,-0.0394442507062,-0.201248226922,-0.0015715853472,-0.315486111672,-0.0255925971774,0.111628387934,-0.0485352303227,0.573840630303,0.818951308848,0.00253606992479,0.0,0.818915578415,-0.573779616681,-0.011617823012,0.0,-0.00805944130158,0.00874377439409,-0.999929293408,0.0,0.639018094414,0.231353687882,0.303780944924,1.0,-0.04318,-0.0567508571429,1.407
0.445720390286,0.427074169319,-0.124436859479,-1.5432179398,0.0673988783722,1.96159776952,0.132156025164,-0.0387900960687,-0.212409566473,0.00237913028735,-0.318955515378,-0.0190183823444,0.120229572108,-0.051809467164,0.573842010977,0.818950852836,0.00236515933447,0.0,0.818912793469,-0.573781491789,-0.0117210611527,0.0,-0.00824204706082,0.00866306333103,-0.999928507441,0.0,0.638060798718,0.230128639868,0.303730300889,1.0,-0.04438,-0.058328,1.428
0.445167904156,0.424289461085,-0.12444949511,-1.5473630815,0.0671023248415,1.96307917951,0.131453402743,-0.0426116196841,-0.217200844849,-0.000681894213733,-0.317639264021,-0.020560262607,0.111440997942,-0.0469237223168,0.573821463896,0.818964984531,0.00245531785088,0.0,0.818928226848,-0.57376075891,-0.0116575172579,0.0,-0.00813849009845,0.00870023021868,-0.999929032968,0.0,0.637500086618,0.229373744002,0.303779395445,1.0,-0.0451228571429,-0.0593043265306,1.441
0.444282124444,0.419985247917,-0.124463925226,-1.5539177729,0.0666415191132,1.96531742098,0.130402530849,-0.0446655450427,-0.217342523184,0.000185448522266,-0.329628960982,-0.0231757115898,0.109534241358,-0.0427122919669,0.573843433837,0.818949653447,0.00243422721838,0.0,0.818912542801,-0.573782717232,-0.0116785080419,0.0,-0.00816754985662,0.00869522176799,-0.999928839592,0.0,0.636584634009,0.228170530292,0.303777194821,1.0,-0.0462657142857,-0.0608063673469,1.461
0.44364924566,0.416883841141,-0.124477402133,-1.55849249771,0.0663305793185,1.96701411583,0.129671676001,-0.0477634418645,-0.225356911606,0.000341721835097,-0.328059777604,-0.0160094447558,0.119041969548,-0.0492594793135,0.573877510185,0.818925212684,0.00261653115726,0.0,0.818890569004,-0.573816264089,-0.0115705645321,0.0,-0.00797417241432,0.00878290855151,-0.99992963407,0.0,0.635974304971,0.227331748917,0.303850234019,1.0,-0.0470657142857,-0.0618577959184,1.475
0.442729033493,0.41244617092,-0.124486698028,-1.56524822715,0.0658429369374,1.96935241526,0.128504140551,-0.0495395361636,-0.223806102317,-0.00243085870202,-0.344668570061,-0.0246390421892,0.113013302728,-0.0558548623984,0.573822974713,0.818963424821,0.00261713544231,0.0,0.818928810037,-0.573761756581,-0.0115670945784,0.0,-0.00797156863999,0.00878088129243,-0.999929672636,0.0,0.635024423127,0.226093643927,0.303843434736,1.0,-0.0482085714286,-0.0633598367347,1.495
0.442116211767,0.40950809565,-0.12450723,-1.56975384976,0.0655225738934,1.97074931246,0.12776656561,-0.0481586173075,-0.22526123598,-0.00512045342521,-0.346448629924,-0.025694768441,0.113145390732,-0.0512760536665,0.573828845828,0.818959768156,0.00246996717307,0.0,0.818923001774,-0.573767874805,-0.0116743269263,0.0,-0.00814377305006,0.00872194640207,-0.999928800771,0.0,0.634355573437,0.225251548271,0.303808066688,1.0,-0.0489514285714,-0.0643361632653,1.508
0.44109788642,0.404720670937,-0.124510770306,-1.57706973465,0.0650345710737,1.97327996316,0.126582774849,-0.0467665650372,-0.222766305118,0.00151690523618,-0.346896701138,-0.0212473856842,0.11507032875,-0.0575151786334,0.573855085189,0.818941358209,0.00247788603102,0.0,0.818904330594,-0.573793692412,-0.0117150664927,0.0,-0.00817231443227,0.00875207058614,-0.999928304699,0.0,0.633312462184,0.223910458089,0.303779473857,1.0,-0.0501514285714,-0.0659133061224,1.529
0.440427130357,0.401712611131,-0.124527723669,-1.58162627164,0.0647120761056,1.97486651385,0.125799270589,-0.0487817314704,-0.231720218174,-0.00176853633918,-0.354098059763,-0.0325471689812,0.134973797627,-0.0593201836805,0.573866463563,0.81893331269,0.00250165247585,0.0,0.818896591049,-0.573804980387,-0.0117031856019,0.0,-0.00814882479429,0.00876482916838,-0.999928384648,0.0,0.632672803185,0.223042757671,0.303777675922,1.0,-0.0508942857143,-0.0668896326531,1.542
0.439362515537,0.396911151946,-0.124548825618,-1.58865543922,0.0641872979915,1.97732072643,0.1245723496,-0.0560897723525,-0.23826153113,-0.000459170193084,-0.356079566803,-0.0274320228174,0.124780170749,-0.0587481809857,0.573877252869,0.818925220417,0.00267000105744,0.0,0.818890941998,-0.573815464,-0.0115838374022,0.0,-0.00795436184834,0.00883431055498,-0.999929339046,0.0,0.631690972283,0.221688620422,0.303878217205,1.0,-0.0520371428571,-0.0683916734694,1.562
0.438666066894,0.393752400162,-0.12455884744,-1.59343968753,0.063821929521,1.97886531339,0.123811395733,-0.0527475624268,-0.237155227437,-0.000623225075922,-0.366776249143,-0.0297931817067,0.112500876114,-0.0552058813872,0.573913444756,0.818900125658,0.00258631547935,0.0,0.818864737373,-0.573851910343,-0.011630725854,0.0,-0.00804039558732,0.00879304177896,-0.999929014708,0.0,0.630982450052,0.220778491385,0.303859641364,1.0,-0.05278,-0.069368,1.575
0.437558355584,0.388642451304,-0.124564784303,-1.60113488594,0.0632393340353,1.98143915934,0.122467854565,-0.055108436412,-0.243837116162,0.00127124623718,-0.360141342522,-0.0342775403987,0.129926761361,-0.0702888731491,0.573854045892,0.818941850188,0.00255478464375,0.0,0.818906064827,-0.57379264196,-0.0116450815139,0.0,-0.0080708833597,0.0087748747241,-0.999928928682,0.0,0.629847785847,0.219337601407,0.303851558094,1.0,-0.05398,-0.0709451428571,1.596
0.436837083938,0.385481246682,-0.124566584765,-1.60597173357,0.06287940151,1.98305690541,0.121575370653,-0.0590174633506,-0.25076941125,-0.00172482744707,-0.365173861082,-0.0245047677505,0.128903711619,-0.0668376728719,0.573796140684,0.818982604123,0.0024959929254,0.0,0.818945971864,-0.573734861825,-0.0116854779309,0.0,-0.00813832167799,0.00874933394263,-0.999928605889,0.0,0.629132517148,0.218419227776,0.303809564199,1.0,-0.0547228571429,-0.0719214693878,1.609
0.435642681345,0.380201888661,-0.124575699354,-1.61372977748,0.062312760412,1.98576528169,0.120226821768,-0.0550359458096,-0.250467880182,4.59963888486e-05,-0.376796907224,-0.0250808064734,0.132500073788,-0.0597415785247,0.573806480779,0.818974788527,0.00267680294854,0.0,0.81894056975,-0.573744646196,-0.0115832241208,0.0,-0.00795072024016,0.00883884177572,-0.999929327965,0.0,0.628013758748,0.216932637419,0.303885231797,1.0,-0.0559228571429,-0.0734986122449,1.63
0.434916372417,0.377174814781,-0.124586906101,-1.61835196754,0.0619616776191,1.98719838288,0.119423743383,-0.0622756790381,-0.255429183003,-0.00272963402849,-0.387722639298,-0.0304398540692,0.112737919543,-0.0723425058913,0.57382168574,0.818964595832,0.00253192603934,0.0,0.818928306669,-0.573760142073,-0.0116822431917,0.0,-0.00811478156453,0.008777159373,-0.999928553344,0.0,0.627307318247,0.216021541825,0.303833332541,1.0,-0.0566085714286,-0.0743998367347,1.642
0.433819107835,0.372512105889,-0.124608113678,-1.62531286957,0.0614163455506,1.98944662299,0.118166722116,-0.06305094012,-0.25913724008,-0.00303350219942,-0.385952227937,-0.0358886083221,0.124238214395,-0.0700853982854,0.573803161578,0.818977776173,0.00246592769359,0.0,0.818940666708,-0.573741897396,-0.0117118096175,0.0,-0.00817706319556,0.00873989012575,-0.999928372414,0.0,0.626259277226,0.214651321201,0.303827302785,1.0,-0.0576371428571,-0.0757516734694,1.66
0.432820133784,0.368356985265,-0.124635711804,-1.63147022362,0.0609624392661,1.99149553927,0.117116049139,-0.0619234792074,-0.257554162465,0.00200702288569,-0.385960212806,-0.0265401495344,0.124497328788,-0.0657571004581,0.573873555963,0.818928360468,0.00249581430563,0.0,0.818891576655,-0.573812107646,-0.011704601819,0.0,-0.00815325888604,0.00876093145384,-0.99992838266,0.0,0.625344299159,0.21342694704,0.303843080988,1.0,-0.0585514285714,-0.0769533061224,1.676
0.431476923993,0.362763619377,-0.124661294581,-1.63951011018,0.0603208016758,1.99430400775,0.115619052393,-0.0653391054234,-0.274648161795,-0.00147143600922,-0.38105023587,-0.0366540567685,0.134872426174,-0.0750384714362,0.573866005339,0.818932799888,0.00276117439241,0.0,0.818900006947,-0.573804259148,-0.0114977261762,0.0,-0.00783164224655,0.0088594504922,-0.999930085314,0.0,0.624178596516,0.211816348574,0.303978412394,1.0,-0.0597514285714,-0.0785304489796,1.697
0.43069507892,0.359594166721,-0.124679352545,-1.64430915472,0.0599631632648,1.99583452358,0.114726041763,-0.0652978152593,-0.269490362802,-0.000106281741029,-0.407223534213,-0.0335456913677,0.127136165529,-0.0750607702922,0.573853383795,0.818941935986,0.0026732547957,0.0,0.818907808059,-0.573791707363,-0.011568291235,0.0,-0.00794002025664,0.00882782225802,-0.999929510332,0.0,0.623438259315,0.210860764752,0.303932030927,1.0,-0.0604371428571,-0.0794316734694,1.709
0.429282834508,0.353925906629,-0.124700361676,-1.65279352776,0.0593165099835,1.99847797578,0.113189515949,-0.0651175529193,-0.276129616817,0.000511604905858,-0.402380514009,-0.0283592690572,0.12779300956,-0.0727491538274,0.573871808538,0.81892951172,0.0025197421034,0.0,0.818893019942,-0.573810254166,-0.0116944860681,0.0,-0.00813126246074,0.00877470403057,-0.99992844101,0.0,0.622112738566,0.209157772895,0.303880535521,1.0,-0.0616371428571,-0.0810088163265,1.73
0.428389667231,0.350454408259,-0.124708202224,-1.65806009578,0.0589343057971,2.00017854407,0.112221784781,-0.0675727921651,-0.270327909078,0.000348340173503,-0.399409829422,-0.0265440206989,0.133255871484,-0.0839871507412,0.57388550904,0.818920142353,0.00244333041878,0.0,0.818882314168,-0.573823864738,-0.0117760222717,0.0,-0.00824173921034,0.00875905724245,-0.99992767371,0.0,0.621295598847,0.208101671884,0.303818965953,1.0,-0.06238,-0.0819851428571,1.743
0.426975738742,0.344857966906,-0.124718967636,-1.66601433626,0.0583282490646,2.00292829819,0.110692029441,-0.0675431650272,-0.28053002792,-0.000694758052538,-0.406749928497,-0.0360428418918,0.133091185717,-0.0689267343571,0.573888829793,0.818916809287,0.00275996496345,0.0,0.818883296204,-0.573826289238,-0.0115880920888,0.0,-0.00790609516253,0.00891053737053,-0.999929045474,0.0,0.620112235667,0.206481112347,0.303965578738,1.0,-0.0635228571429,-0.0834871836735,1.763
0.426118657064,0.341485352991,-0.124720546814,-1.67096056922,0.0579157011234,2.00444344238,0.10980065909,-0.0692301991887,-0.278316077222,-0.000636393228256,-0.426400531518,-0.0331414879285,0.129105805236,-0.0781011488115,0.573901818415,0.818907930416,0.00269280948786,0.0,0.818873531663,-0.573839486411,-0.0116245377648,0.0,-0.00797433928026,0.00887658467864,-0.999928805544,0.0,0.619324031391,0.205474449328,0.303965838313,1.0,-0.0642085714286,-0.0843884081633,1.775
0.424530969663,0.335295037014,-0.124719145048,-1.68017864913,0.0571576979108,2.00727208969,0.108018095822,-0.0717610547788,-0.28662471337,-0.000402287102537,-0.418237796878,-0.0380929629921,0.129922894847,-0.0773447465172,0.573813830645,0.818970199431,0.00249942127087,0.0,0.818933081298,-0.573751967348,-0.0117488391174,0.0,-0.00818805888919,0.00878867435163,-0.999927854845,0.0,0.617838103152,0.203612360846,0.30389740702,1.0,-0.0654657142857,-0.0860406530612,1.797
0.423582904869,0.331601365691,-0.124714327946,-1.68558434426,0.0567176391896,2.00905077956,0.106991360235,-0.0708055908904,-0.289432791264,-0.00452274871842,-0.414283215826,-0.0392456461642,0.132552642003,-0.0806473355003,0.573787082885,0.818988821379,0.00253788721431,0.0,0.818952275938,-0.573725161319,-0.0117198936546,0.0,-0.00814256890911,0.00880330159286,-0.999928097641,0.0,0.616987870937,0.202523461522,0.303904097983,1.0,-0.0662085714286,-0.0870169795918,1.81
0.421980255228,0.325551159431,-0.124721301367,-1.69423319941,0.0560490349477,2.01197636747,0.105233391083,-0.0761529174358,-0.278738886978,-0.00431818958493,-0.428504313395,-0.0340236336113,0.141365518096,-0.0812812673758,0.573739052201,0.819021608598,0.00280205840823,0.0,0.818988572827,-0.57367631365,-0.0115737477682,0.0,-0.00787182653342,0.00893533692461,-0.999929094537,0.0,0.615654779987,0.200735645813,0.304005291845,1.0,-0.0674085714286,-0.088594122449,1.831
0.421004269028,0.322083564523,-0.124730625144,-1.69941821044,0.0556123095464,2.01351307573,0.104275660198,-0.0842979465666,-0.289814897462,-0.00375216386902,-0.425468192527,-0.0432379640909,0.129670437287,-0.0759251487506,0.573788761724,0.818987344762,0.0026330478306,0.0,0.818951970736,-0.573726430284,-0.0116790291529,0.0,-0.00805448301643,0.00885780592588,-0.99992832972,0.0,0.614806052869,0.199634625894,0.303940041735,1.0,-0.0680942857143,-0.0894953469388,1.843
0.419324425199,0.315882444584,-0.1247916301,-1.70849577848,0.054864806871,2.01626971246,0.10249889281,-0.0811309266177,-0.293123326562,-0.00386123554097,-0.438323652667,-0.0351716458656,0.129003319056,-0.0918129935119,0.573805607293,0.818975941546,0.00250581496674,0.0,0.818938810028,-0.57374361793,-0.0117572622679,0.0,-0.00819137730034,0.00879866154421,-0.999927739836,0.0,0.613326876327,0.197711404599,0.303908633786,1.0,-0.0692942857143,-0.0910724897959,1.864
0.418246781618,0.31198985455,-0.124801129587,-1.71402146615,0.0543919665685,2.0180842964,0.101317353228,-0.0801523420484,-0.298273586625,-0.0006563963289,-0.419714769064,-0.0372509277027,0.14954831929,-0.0879823888148,0.573748380208,0.819015638926,0.00263178737829,0.0,0.818980450723,-0.573686280711,-0.0116541648621,0.0,-0.00803527767202,0.00884211086363,-0.999928623147,0.0,0.612455985085,0.19653308053,0.303971229577,1.0,-0.0700371428571,-0.0920488163265,1.877
0.416361933532,0.305366214161,-0.124820752498,-1.7234551168,0.0536093289964,2.02112822851,0.0993976539674,-0.0871687545828,-0.302606627342,-0.00329618098724,-0.442983453929,-0.038216502012,0.131400755933,-0.0903901030408,0.573772498506,0.818998186503,0.00279952912944,0.0,0.818965380814,-0.573710062512,-0.0115419279972,0.0,-0.00784685114281,0.00891532995186,-0.999929469422,0.0,0.610952526402,0.194498027061,0.304050328136,1.0,-0.0712942857143,-0.0937010612245,1.899
0.415311416139,0.301756807625,-0.12485267343,-1.72877640265,0.0531555894217,2.02266354712,0.0982933621445,-0.0905854254448,-0.298428643999,-0.00474957594577,-0.439840474032,-0.0423953917864,0.131918971011,-0.081005479208,0.573765856546,0.81900338247,0.00263595625161,0.0,0.818968292961,-0.573703789437,-0.0116466309336,0.0,-0.00802652657415,0.00884137398902,-0.999928699947,0.0,0.610058579245,0.193335485688,0.303993780419,1.0,-0.07198,-0.0946022857143,1.911
0.413435843476,0.295390673469,-0.124905267936,-1.73806351106,0.0524284252174,2.02546092845,0.0964790988358,-0.0924958693423,-0.310153850672,-0.00339524694734,-0.442799342653,-0.0450180975734,0.131017521946,-0.0928389750833,0.573897222126,0.818911650844,0.0025364244501,0.0,0.818874698216,-0.573834872612,-0.0117692182092,0.0,-0.00818261865241,0.00883150547684,-0.999927522005,0.0,0.608515933048,0.19130552713,0.303939552178,1.0,-0.07318,-0.0961794285714,1.932
0.412247202532,0.291321140631,-0.124917975038,-1.7436637008,0.051963838358,2.02737390088,0.095244463509,-0.0905950802752,-0.318153357127,2.2997234075e-05,-0.435559482191,-0.0405964009059,0.144508381716,-0.0972753066939,0.573881456078,0.818921707577,0.00283868463195,0.0,0.81888906355,-0.573818484415,-0.0115669980089,0.0,-0.00784372706383,0.00896282602196,-0.999929069332,0.0,0.607638298246,0.190072796259,0.304066940607,1.0,-0.0739228571429,-0.097155755102,1.945
0.410219601835,0.28451764676,-0.124943937235,-1.75351068287,0.0511051332757,2.03023346564,0.0931964604718,-0.0919471119379,-0.310742429734,-0.00111863552857,-0.456177110588,-0.0425338137917,0.12099786253,-0.0917835226762,0.573881967251,0.818921959998,0.00265668952092,0.0,0.818886728348,-0.573819359419,-0.011688275896,0.0,-0.0080474808656,0.00888338958775,-0.99992815914,0.0,0.605958931501,0.187910166984,0.304014308053,1.0,-0.07518,-0.098808,1.967
0.409112694361,0.280740469197,-0.124942218887,-1.75895443658,0.0506115319946,2.03184142878,0.092015923034,-0.0903824377456,-0.312152251293,0.000530059350612,-0.45775155999,-0.0420193939831,0.130520464107,-0.0983184328086,0.573808058937,0.818973981261,0.00258387636863,0.0,0.818937825906,-0.5737457438,-0.0117220165774,0.0,-0.00811769480659,0.0088423919183,-0.999927954973,0.0,0.605023637171,0.186735448103,0.303992032892,1.0,-0.0758657142857,-0.0997092244898,1.979
0.407080568135,0.274057134184,-0.124950054098,-1.76835092808,0.0498222812788,2.03479228618,0.090006119113,-0.0991252463221,-0.323743371105,0.00102165340235,-0.442986227009,-0.0390231099949,0.147282812685,-0.098824899169,0.573829057479,0.818958668622,0.00276745058642,0.0,0.818924922335,-0.573766127195,-0.0116253930185,0.0,-0.00793299971833,0.00893749464966,-0.999928591803,0.0,0.603458052272,0.184655119397,0.304062801818,1.0,-0.0770657142857,-0.101286367347,2.0
0.405892377694,0.270258511677,-0.124971895618,-1.77371473858,0.0493498775157,2.03643828274,0.0887811643842,-0.0951107915606,-0.311870060206,-0.00242134128605,-0.451122983306,-0.0377018226325,0.129768292042,-0.102835192112,0.573802427353,0.81897716353,0.00281547167785,0.0,0.818944162156,-0.573739477892,-0.0115852354453,0.0,-0.00787284759004,0.0089535226973,-0.999928923825,0.0,0.602557571833,0.183438897636,0.304084485727,1.0,-0.0777514285714,-0.102187591837,2.012
0.40376673265,0.263484554582,-0.125046751398,-1.78341847765,0.0484984427517,2.03916519709,0.0867206673782,-0.0956114566,-0.324578927966,-0.00319483454796,-0.461291146332,-0.041058658474,0.125317645948,-0.105043976281,0.573883518556,0.818920979689,0.00262355783855,0.0,0.818885175176,-0.573820871363,-0.0117228139743,0.0,-0.00809476190881,0.00887609324345,-0.999927842296,0.0,0.600862181691,0.181225666383,0.304031455386,1.0,-0.0789514285714,-0.103764734694,2.033
0.402416662426,0.25928376716,-0.12506572611,-1.78942746801,0.0479541663312,2.04091286161,0.085386166975,-0.104481246745,-0.324072870522,-0.00233578623456,-0.45668210881,-0.0448936700505,0.138176562183,-0.10846744365,0.573881647392,0.818922519371,0.00255126516842,0.0,0.818885746028,-0.573819230563,-0.0117631836304,0.0,-0.0081693282434,0.00884004007931,-0.99992755526,0.0,0.599817132466,0.179856707863,0.304000817736,1.0,-0.0796942857143,-0.104741061224,2.046
0.400340982965,0.252676779422,-0.125050879524,-1.7984321998,0.0471470789689,2.04372050583,0.0833616346204,-0.104234816349,-0.326930018886,-0.00095743238096,-0.458744944853,-0.0403322815587,0.136422003123,-0.103455006929,0.573872153,0.818928195354,0.00284776518636,0.0,0.818895676918,-0.573809161875,-0.0115612704631,0.0,-0.0078339274289,0.0089668864124,-0.999929109752,0.0,0.598205599951,0.177708594147,0.304144822044,1.0,-0.0808942857143,-0.106318204082,2.067
0.398949751314,0.248445535934,-0.125053358928,-1.80453546886,0.0466210681875,2.04544388871,0.0819454789683,-0.109046401731,-0.324668682473,-0.000108679494228,-0.479514230147,-0.0402196250746,0.128460132498,-0.0988854424649,0.573818067076,0.818966456658,0.0027414718281,0.0,0.818932109158,-0.573754930566,-0.0116716384129,0.0,-0.00798590112933,0.00894264847375,-0.999928124628,0.0,0.597194808098,0.176439228169,0.304084851297,1.0,-0.08158,-0.107219428571,2.079
0.396670191285,0.241517879124,-0.125056582806,-1.81442283613,0.0457417770521,2.04822251346,0.079708706112,-0.108106325666,-0.330830413058,-0.000313190123402,-0.466139086024,-0.0424665125407,0.126497607653,-0.106580488279,0.573792062758,0.818985198567,0.00258072565032,0.0,0.818948239547,-0.573728932064,-0.0118169520368,0.0,-0.00819742966493,0.00889412525226,-0.999926845666,0.0,0.595416112489,0.174190657711,0.304004573273,1.0,-0.08278,-0.108796571429,2.1
0.395219166666,0.23708401918,-0.125059694377,-1.82037188712,0.0452468189621,2.05001600785,0.0782812377799,-0.111548991586,-0.34323591967,0.00154691929413,-0.453414644073,-0.0316071856049,0.144557799424,-0.10450753983,0.573784481849,0.818989712142,0.00282253365974,0.0,0.818955803368,-0.573720376663,-0.0117076228826,0.0,-0.00796923105243,0.00902935649329,-0.999927478409,0.0,0.594381399904,0.172809242338,0.304124038045,1.0,-0.0835228571429,-0.109772897959,2.113
0.392971605798,0.230329826969,-0.125057954871,-1.82973761757,0.0443383624424,2.0527548306,0.0761155558489,-0.111187299118,-0.340247590485,0.000979628953902,-0.486041781902,-0.043391687465,0.122844123718,-0.110565830381,0.57374809748,0.819015019308,0.00287501076595,0.0,0.818982218927,-0.57368430458,-0.0116271519257,0.0,-0.00787361509845,0.00902581276786,-0.999928267872,0.0,0.592712114682,0.170643389754,0.304154817183,1.0,-0.0846657142857,-0.111274938776,2.133
0.391318958088,0.225574794538,-0.125077112571,-1.83645706792,0.043715807333,2.05455694745,0.0744780491188,-0.121826494331,-0.343512504137,-0.00272747504483,-0.478375965426,-0.0418789091135,0.127756896696,-0.118658152914,0.573708077069,0.819043552921,0.00272903389882,0.0,0.819008524835,-0.573644418682,-0.0117415528915,0.0,-0.00805150314897,0.00897149848801,-0.999927340116,0.0,0.591477287109,0.169055059831,0.304099920117,1.0,-0.0854657142857,-0.112326367347,2.147
0.388924078983,0.21873500419,-0.125144665783,-1.84587073492,0.0428679925646,2.05727770306,0.0722111360518,-0.118218179741,-0.353609760522,-0.00198245556495,-0.462062017097,-0.0381362404826,0.138765087257,-0.12356877598,0.573775306742,0.81899610019,0.00283410434616,0.0,0.818962439386,-0.573711273458,-0.0116895031234,0.0,-0.00794785287849,0.00902834707276,-0.999927657675,0.0,0.58979626273,0.166783987872,0.304138805959,1.0,-0.0866085714286,-0.113828408163,2.167
0.387313639336,0.214258359869,-0.125195641783,-1.85193483642,0.0423164246272,2.059089121,0.0707410418417,-0.122935280707,-0.345676417197,-0.00253440918969,-0.471863041238,-0.0449562167789,0.134808452389,-0.114235850119,0.573865919901,0.818932009373,0.0030028157382,0.0,0.8189007786,-0.573801589731,-0.0115757216584,0.0,-0.00775685789699,0.00910209554759,-0.999928488949,0.0,0.588730373676,0.165285730371,0.30420505829,1.0,-0.0873514285714,-0.114804734694,2.18
0.384791681589,0.207303424242,-0.125259006816,-1.86162319342,0.0413641218683,2.0616023487,0.0683495186179,-0.129275069995,-0.356530603014,-0.00483475603536,-0.484052672114,-0.0515031782912,0.124766313749,-0.120864598528,0.573883174244,0.818920694576,0.00278302265678,0.0,0.818886427574,-0.57381936923,-0.0117088484712,0.0,-0.00799181988458,0.00899866386084,-0.999927574809,0.0,0.586919553697,0.162911453643,0.304146456643,1.0,-0.0884942857143,-0.11630677551,2.2
0.38329926728,0.203164953081,-0.125283742951,-1.86745174893,0.0407814501504,2.06311124051,0.0669170168573,-0.12567371144,-0.341812661654,-0.00110184287123,-0.472530682694,-0.0496676897017,0.128725777702,-0.122378406611,0.573859972636,0.818937520564,0.00261077000255,0.0,0.818900890588,-0.573796654158,-0.011810079299,0.0,-0.00817382333797,0.0089154653139,-0.99992684887,0.0,0.585729161017,0.161391250523,0.304075775536,1.0,-0.0892371428571,-0.117283102041,2.213
0.380435262345,0.195354745179,-0.125313881545,-1.87783479785,0.0398226669287,2.0662009398,0.0642293784149,-0.133104041996,-0.348983412254,-0.00447346482503,-0.481727451371,-0.0451065534056,0.136861869854,-0.125868380569,0.573888485276,0.818916151424,0.00301501342809,0.0,0.818885198324,-0.573824253554,-0.0115544320353,0.0,-0.00773217205266,0.00910008057272,-0.999928698483,0.0,0.583947514847,0.158946798088,0.304238813198,1.0,-0.0904371428571,-0.118860244898,2.234
0.378687054219,0.190817399751,-0.125359766063,-1.88417859075,0.039228516047,2.06785512492,0.0626106822989,-0.135605684882,-0.354899060487,-0.0063539238587,-0.482837297049,-0.0493364513773,0.117817903271,-0.128188804744,0.573937100044,0.818882547399,0.00288542192323,0.0,0.818849519341,-0.573872831483,-0.0116698269898,0.0,-0.0079005045132,0.00906064746102,-0.999927740737,0.0,0.58274680102,0.157358475942,0.304168808332,1.0,-0.09118,-0.119836571429,2.247
0.375830754631,0.183315665216,-0.125443771855,-1.89447905964,0.0382406530686,2.07045989556,0.0599507417147,-0.134954401835,-0.357537261004,-0.00167350899061,-0.484686653729,-0.0481092473688,0.132335104143,-0.122027695747,0.573994521656,0.818842878986,0.00271579517099,0.0,0.818807085836,-0.573930214863,-0.0118241935385,0.0,-0.00812363617793,0.00901090813171,-0.999926402327,0.0,0.580771327696,0.154770484315,0.304116212305,1.0,-0.09238,-0.121413714286,2.268
0.374063100571,0.178561157385,-0.125434292321,-1.90065912501,0.037626304623,2.07223408726,0.0582789892754,-0.137250015885,-0.363589172944,0.00152488832062,-0.479866382721,-0.0426057482971,0.134945349279,-0.120826352115,0.573950154273,0.818873060833,0.0029795221921,0.0,0.818841178757,-0.573885480763,-0.0116329635962,0.0,-0.00781616646637,0.00911667223881,-0.999927894315,0.0,0.579625585267,0.153238208789,0.304245659961,1.0,-0.0931228571428,-0.122390040816,2.281
0.371168055854,0.170995105596,-0.125417305828,-1.91091486501,0.0365883487274,2.07487374355,0.0555426706951,-0.138619192671,-0.357013621109,0.000230520275804,-0.496180725528,-0.0452416915474,0.116666758296,-0.135807148127,0.573858907487,0.818937257929,0.00291011598533,0.0,0.818904313356,-0.57379429251,-0.0116868452475,0.0,-0.00790113717924,0.00908988178681,-0.99992747041,0.0,0.577630296202,0.150710335106,0.304227606205,1.0,-0.0943228571428,-0.123967183673,2.302
0.369480505029,0.166686377136,-0.125417331853,-1.91687644428,0.0359891723699,2.07634158904,0.0539432402783,-0.141608433981,-0.353583066493,0.000232342568787,-0.498858683449,-0.051231023043,0.125621081312,-0.130117813249,0.573807395881,0.818973908752,0.00274883935781,0.0,0.818938472868,-0.573742911358,-0.0118150845542,0.0,-0.00809927481968,0.00903088707854,-0.999926419706,0.0,0.57644661311,0.149236297133,0.304151169621,1.0,-0.0950085714286,-0.124868408163,2.314
0.366306724588,0.158526681944,-0.125422572486,-1.92753185118,0.0349184278532,2.07922551819,0.0509716882122,-0.147562263679,-0.37569292337,-0.00053210711216,-0.475555597453,-0.0651844449081,0.132276172539,-0.126384949247,0.573748224168,0.819014341684,0.003038137801,0.0,0.818983108919,-0.573683253782,-0.0116163047504,0.0,-0.00777114102736,0.00915319399086,-0.999927911605,0.0,0.57440282091,0.146538586913,0.304294164246,1.0,-0.0962657142857,-0.126520653061,2.336
0.364503058251,0.154121754665,-0.125421221141,-1.9334290862,0.0343064775238,2.08073923544,0.0493194994984,-0.150212921261,-0.36897539626,0.00106016583721,-0.501152243926,-0.0514408041898,0.118340331341,-0.14546122725,0.573731833356,0.819025835015,0.00303510672162,0.0,0.818994603793,-0.573666923159,-0.0116123698465,0.0,-0.00776984016908,0.00914829840167,-0.999927966516,0.0,0.573248444799,0.145021038291,0.304292617869,1.0,-0.0969514285714,-0.127421877551,2.348
0.361293380384,0.146371412735,-0.125465180265,-1.94395159513,0.0332391220512,2.08318540736,0.0464275019949,-0.157237849642,-0.364615784979,0.000193091887249,-0.497288098902,-0.0412391442345,0.117406258934,-0.142211395859,0.573779510937,0.818993398237,0.00276285618249,0.0,0.818957793384,-0.57371458646,-0.0118512800832,0.0,-0.0081211856146,0.00906285878088,-0.999925952726,0.0,0.57111974026,0.142296651342,0.304190497227,1.0,-0.0981514285714,-0.128999020408,2.369
0.359279386595,0.141491032556,-0.125498549131,-1.95032116041,0.0326162581182,2.08485564979,0.0445877417098,-0.15827485704,-0.381912649372,-0.0024142775851,-0.481906638008,-0.0443511873562,0.130332181368,-0.143756358498,0.573804096359,0.818975663926,0.00290994837015,0.0,0.818941992276,-0.573738656827,-0.0117776844034,0.0,-0.00797624060181,0.00914133847107,-0.99992640505,0.0,0.569874240021,0.140625827627,0.304246994127,1.0,-0.0988942857143,-0.129975346939,2.382
0.356105303201,0.134027267064,-0.125554190594,-1.96011991853,0.0315934215304,2.08742909611,0.0416518608063,-0.156846234933,-0.372648734289,-0.0039035336505,-0.499717888529,-0.0468212886637,0.115462959962,-0.149499867748,0.573787341562,0.81898682686,0.00306773440066,0.0,0.818955639027,-0.573721868527,-0.0116458482401,0.0,-0.00777791973278,0.00919475571589,-0.999927477586,0.0,0.567953913851,0.138014443868,0.304295104166,1.0,-0.100037142857,-0.131477387755,2.402
0.353986433731,0.129093434327,-0.125635982369,-1.96664856926,0.0308487918188,2.08887036074,0.0397437851444,-0.163212407056,-0.380508004664,-0.0125367720379,-0.503240559189,-0.060006401813,0.115239565521,-0.155253091443,0.573822732662,0.818962640334,0.00290036529889,0.0,0.818929326554,-0.573757877425,-0.0117219069742,0.0,-0.00793584923742,0.00910166612823,-0.999927088327,0.0,0.566613982997,0.136235369402,0.304272131401,1.0,-0.10078,-0.132453714286,2.415
0.350669468979,0.12149502432,-0.125740865629,-1.97662435304,0.0298070560113,2.09131579869,0.0368517604482,-0.169472665636,-0.38430415948,-0.00157826666489,-0.479181789814,-0.0550607075182,0.122199100714,-0.144818546311,0.573977531228,0.818854041527,0.00293244301115,0.0,0.818821154112,-0.573912555846,-0.011706524739,0.0,-0.00790312139095,0.0091206041396,-0.999927174974,0.0,0.56460532876,0.133522935848,0.304278677191,1.0,-0.101922857143,-0.133955755102,2.435
0.348283525514,0.116108508939,-0.125757343683,-1.98349273262,0.0291027934365,2.09310647519,0.0346605881399,-0.174319406264,-0.372112328243,-0.000851997653488,-0.49354394918,-0.0500823427567,0.12355616816,-0.162782726481,0.573958785752,0.818866275707,0.00317516460796,0.0,0.818836837558,-0.573893370574,-0.011549007315,0.0,-0.00763503368719,0.00922877364394,-0.999928265426,0.0,0.563241620646,0.131647837225,0.304371227835,1.0,-0.102722857143,-0.135007183673,2.449
0.344880907048,0.108487021269,-0.125763318834,-1.99359341952,0.0279780162602,2.09532139812,0.0316043747623,-0.171868715744,-0.383025871207,-0.00259339866138,-0.508094788714,-0.0553385418875,0.12192921582,-0.143175642642,0.573918892159,0.818895150812,0.00292986350506,0.0,0.818862106837,-0.573853791492,-0.0117227504042,0.0,-0.00791854263575,0.00912723785516,-0.999926992441,0.0,0.561109102848,0.128943710536,0.304283744328,1.0,-0.103865714286,-0.13650922449,2.469
0.342497056013,0.103060170537,-0.125748978467,-2.00062027966,0.0272035971545,2.09693931653,0.0294069691008,-0.167398881435,-0.396974534416,-0.000255054429124,-0.506286431775,-0.0572924039035,0.125569579129,-0.16341790367,0.573828958436,0.818958187417,0.00292585432137,0.0,0.818925062394,-0.573763850184,-0.0117274595112,0.0,-0.00792570213812,0.00912578700877,-0.99992694896,0.0,0.559631481992,0.127080530555,0.304290557655,1.0,-0.104665714286,-0.137560653061,2.483
0.33903588825,0.0952439377372,-0.125732598969,-2.0105111071,0.0262141792268,2.09931139514,0.0261766765472,-0.180077038558,-0.385791042151,7.53949415327e-05,-0.509536607451,-0.0472490484557,0.117238089512,-0.160628717777,0.573713487869,0.819038074191,0.00319589785861,0.0,0.819008188729,-0.573647174108,-0.0116298467021,0.0,-0.00769211756779,0.00928984528969,-0.999927262406,0.0,0.557569198249,0.12443204873,0.304394596116,1.0,-0.105808571429,-0.139062693878,2.503
0.336677475883,0.0902020098735,-0.125753871034,-2.01711784924,0.0255257664115,2.10070456008,0.0241378275331,-0.182893759317,-0.383832002974,-0.000723937510415,-0.502980284316,-0.0537270006553,0.0975399713412,-0.159819786186,0.573780825186,0.818991369262,0.00307386153052,0.0,0.818959171999,-0.573714047863,-0.0117818837653,0.0,-0.0078858954041,0.00927776470869,-0.99992586512,0.0,0.556145973858,0.12261665616,0.304336326571,1.0,-0.106551428571,-0.140039020408,2.516
0.332953767728,0.0823806491115,-0.125824861323,-2.0272065059,0.0243714621338,2.10289591813,0.0207638594536,-0.186081853436,-0.391355898612,-0.00140915824503,-0.489183107471,-0.0604926419573,0.115719282445,-0.160128089956,0.573750525798,0.819012955648,0.00297649583439,0.0,0.818979444386,-0.573684043512,-0.0118336297902,0.0,-0.00798448167073,0.00922741787526,-0.999925548634,0.0,0.553992772801,0.1197626396,0.304307315957,1.0,-0.107694285714,-0.141541061224,2.536
0.330532630516,0.0771565775891,-0.125860966157,-2.03361978339,0.0236290245819,2.10444106917,0.0185877472709,-0.190269160492,-0.395509862967,-0.00165014791916,-0.49521973635,-0.0571123196088,0.113532739398,-0.162028197948,0.573733780576,0.819023743451,0.00322545987886,0.0,0.818994289001,-0.573667426368,-0.0116097118323,0.0,-0.00765843582633,0.00930269618686,-0.999927401467,0.0,0.552655873652,0.11794203871,0.30443399508,1.0,-0.108437142857,-0.142517387755,2.549
0.326475616214,0.0688775038244,-0.125963344771,-2.04430224877,0.0224396190455,2.10667606857,0.0150158126963,-0.195683609218,-0.388498336043,-0.00561018559983,-0.510764587793,-0.0630516993847,0.104289063012,-0.1742890044,0.573813735103,0.81896827901,0.00308257742267,0.0,0.818936418263,-0.573747185998,-0.0117497362897,0.0,-0.00785419240364,0.0092667733945,-0.999926216564,0.0,0.550333028269,0.114881850286,0.304361798786,1.0,-0.109637142857,-0.144094530612,2.57
0.323902903303,0.0637173427651,-0.126054989328,-2.05091910772,0.021673900823,2.10798067448,0.0127312604551,-0.202504936889,-0.396021408977,-0.00444897195117,-0.502992841084,-0.0579981453864,0.103965997319,-0.181142829241,0.573857862243,0.818937856038,0.00294767549059,0.0,0.8189039086,-0.57379139972,-0.011856010652,0.0,-0.00801813947287,0.00921770537741,-0.999925368889,0.0,0.548876108403,0.112944224566,0.304317790636,1.0,-0.11038,-0.145070857143,2.583
0.319686987963,0.0552729824643,-0.126088596842,-2.0612976844,0.0204704505453,2.11038897482,0.00904608020659,-0.201221459184,-0.396476038434,-0.00204953810781,-0.496004722927,-0.0543585433207,0.111451547093,-0.175350385035,0.573892858387,0.818912054854,0.00328335316251,0.0,0.818883474641,-0.573826450684,-0.0115674697591,0.0,-0.00758881164646,0.00932735151098,-0.999927702612,0.0,0.546662663,0.109903645761,0.304457708643,1.0,-0.11158,-0.146648,2.604
0.317060734095,0.0500510496382,-0.126088943775,-2.06793861945,0.0197187902457,2.11165865219,0.00672623784182,-0.204321508181,-0.394348939078,-0.000918764967919,-0.508957603989,-0.0640985412074,0.0998058638318,-0.180219185466,0.573872054725,0.818927075111,0.0031713336197,0.0,0.818896476816,-0.573805326225,-0.0116942188975,0.0,-0.00775713370412,0.00930815856602,-0.999926589836,0.0,0.54516136014,0.108012466868,0.304412300265,1.0,-0.112322857143,-0.147624326531,2.617
0.312984353254,0.0419869535586,-0.126093262883,-2.07813409605,0.0185671298313,2.11361466582,0.00308141285295,-0.20432565598,-0.403721088778,-0.00056995892061,-0.500103756857,-0.0571844122928,0.0972717156025,-0.189537583518,0.573803815328,0.818975361475,0.00304724683665,0.0,0.818942305124,-0.573736528643,-0.0118593204178,0.0,-0.00796432774205,0.00930062171742,-0.999925031149,0.0,0.542844878734,0.105103977108,0.304353180104,1.0,-0.113465714286,-0.149126367347,2.637
0.310232908562,0.0366067967971,-0.126116250371,-2.08456662656,0.0178140969954,2.11501173352,0.000628959028324,-0.213696135824,-0.415660069061,-0.00246325760323,-0.489841057808,-0.0589067368857,0.112579763179,-0.199898511607,0.573782666067,0.818989181174,0.00330456382147,0.0,0.818960116664,-0.573715272774,-0.0116558998603,0.0,-0.00765032444069,0.00939444014211,-0.999926605822,0.0,0.541434424139,0.103178377813,0.304479915138,1.0,-0.114208571429,-0.150102693878,2.65
0.305498445887,0.0276587133511,-0.12622698436,-2.09573592512,0.0164776320336,2.1171215329,-0.00349455074295,-0.21589448794,-0.417240404514,-0.0056290314764,-0.510696013526,-0.0615754074914,0.0825670482421,-0.189086438541,0.573856345149,0.818937987283,0.00319609406788,0.0,0.818907208841,-0.573788932461,-0.0117469653439,0.0,-0.00778630266265,0.00935855525237,-0.999925892721,0.0,0.538888781035,0.0998261072732,0.304437374277,1.0,-0.115465714286,-0.151754938775,2.672
0.302639796848,0.0223385568634,-0.126274601508,-2.10239493364,0.0156987283979,2.11828511355,-0.00602958186051,-0.225374755975,-0.413985292528,-0.00680528085731,-0.506881145785,-0.0508562233688,0.0814855385051,-0.194207787461,0.573853239649,0.818940653753,0.00306787813479,0.0,0.818907547198,-0.573785498315,-0.0118902467247,0.0,-0.00797725602859,0.00933574490368,-0.999924600784,0.0,0.537338196116,0.0978323630832,0.3043843489,1.0,-0.116208571429,-0.152731265306,2.685
0.298168899006,0.0139926306177,-0.126375280748,-2.11234228773,0.0144518415288,2.12030549107,-0.00994346675369,-0.227945026648,-0.414853807943,-0.00589052138032,-0.494712748791,-0.0637863857889,0.0953436448095,-0.203636423959,0.57388917255,0.818914395247,0.00334331995067,0.0,0.818886048067,-0.573821904872,-0.0116107136284,0.0,-0.00758985643498,0.0094012419018,-0.999927002701,0.0,0.535095575552,0.0947545119099,0.304528452479,1.0,-0.117351428571,-0.154233306122,2.705
0.294948477229,0.00825620971081,-0.126414215616,-2.11950972521,0.0136170372697,2.1215148387,-0.012770382601,-0.228020924284,-0.397920391537,0.000118666078173,-0.513621331099,-0.056360868946,0.0869352046409,-0.210679627738,0.573901985951,0.818906023519,0.00319093512314,0.0,0.818874824737,-0.57383416081,-0.0117950922513,0.0,-0.00782815523019,0.00938238394716,-0.999925342642,0.0,0.533400973944,0.0925698263233,0.304448783239,1.0,-0.118151428571,-0.155284734694,2.719
0.290336851038,-5.0473866067e-05,-0.126414003319,-2.12965451938,0.0124114891335,2.12331493171,-0.0168553357942,-0.230335300002,-0.416785817928,0.00250710469648,-0.497709667313,-0.0613472911588,0.0935330963633,-0.214885891612,0.573830771666,0.818955991269,0.00317439042387,0.0,0.818924079545,-0.573762420197,-0.0118652438773,0.0,-0.00789591864986,0.00940840794714,-0.999924565319,0.0,0.531005049861,0.0895041204938,0.304426655044,1.0,-0.119294285714,-0.15678677551,2.739
0.287562097067,-0.00515807681009,-0.126416140778,-2.13560737387,0.0116860536641,2.12445380418,-0.0193640242419,-0.230102996067,-0.433850866,-0.00061339498132,-0.506043362355,-0.0628284598423,0.10130129734,-0.216807710929,0.573742712723,0.819016796014,0.00339622516478,0.0,0.818988323216,-0.573674286348,-0.0116913010244,0.0,-0.00762719170561,0.00948945021929,-0.999925885394,0.0,0.529617911516,0.0876829782695,0.304535281943,1.0,-0.11998,-0.157688,2.751
0.282523799557,-0.0138926093446,-0.126458527546,-2.14617470075,0.0103512656808,2.12624712645,-0.0237159997231,-0.244968547985,-0.41303854733,-0.0009037089476,-0.508342151152,-0.0618632242157,0.0656958378492,-0.212702459548,0.573763778578,0.819002255214,0.00334353822151,0.0,0.818973009169,-0.573695413711,-0.011727294706,0.0,-0.00768665626046,0.00946714675344,-0.999925641459,0.0,0.527091316689,0.084379102401,0.304512301011,1.0,-0.11998,-0.157688,2.772
0.279334069893,-0.0192724034129,-0.126516216431,-2.15276199587,0.0095293558787,2.12719553551,-0.0265347373014,-0.243047145278,-0.405095144208,-0.00457524403342,-0.511435798305,-0.0611402023674,0.0704485115567,-0.21433258435,0.573753946855,0.819009898541,0.00315300831351,0.0,0.818977337994,-0.573685243876,-0.0119208939222,0.0,-0.00795464893013,0.00942208369751,-0.999923971059,0.0,0.525471497548,0.0822897104211,0.304437067075,1.0,-0.11998,-0.157688,2.785
0.274144735103,-0.0280986087273,-0.126641968236,-2.16296998245,0.00822701500975,2.12902626466,-0.0309688598985,-0.249519605593,-0.425411223208,-0.00756763661935,-0.481372347238,-0.06205764287,0.0834526033121,-0.208266648727,0.573895255461,0.818909594103,0.00347265688281,0.0,0.81888227883,-0.573826768739,-0.0116361418534,0.0,-0.00753638982293,0.00952180710761,-0.999926266291,0.0,0.523051366049,0.0789409480746,0.304590932106,1.0,-0.11998,-0.157688,2.806
0.270619764632,-0.0338589616925,-0.126729331272,-2.16985658589,0.00734503266841,2.13009621724,-0.0340161358419,-0.256934792048,-0.416765093067,-0.00247878610543,-0.496897954613,-0.0495316120757,0.0665789242489,-0.217644060256,0.573958851414,0.818865223407,0.00342486204566,0.0,0.818837083057,-0.573890252243,-0.0116857474212,0.0,-0.00760370362435,0.00951172534534,-0.999925852637,0.0,0.521365261176,0.0766798014524,0.304565182615,1.0,-0.11998,-0.157688,2.82
0.265580935557,-0.0420682857569,-0.126727759308,-2.17968719956,0.00615850053272,2.13148644369,-0.0384454318245,-0.252411530099,-0.409874501878,0.00179715054715,-0.490791507014,-0.0623861795259,0.0719567506576,-0.227415338179,0.573909854879,0.818900082479,0.00329852857685,0.0,0.818869032055,-0.573840136409,-0.0119060105948,0.0,-0.0078571562442,0.00953422327894,-0.999923678929,0.0,0.518897458646,0.0735459465389,0.304492043548,1.0,-0.11998,-0.157688,2.84
0.262573202634,-0.0469936702022,-0.126729605072,-2.18541276766,0.00544047930876,2.13242768884,-0.0410395551845,-0.248947969248,-0.423430466613,-0.000510697260086,-0.470566608488,-0.0559869746249,0.082157518093,-0.221271748291,0.573915442277,0.81889571014,0.0034099754329,0.0,0.818866313883,-0.573845576552,-0.0118305181761,0.0,-0.0077313101165,0.00958221557191,-0.999924201122,0.0,0.517486257038,0.0716969564248,0.304525880989,1.0,-0.11998,-0.157688,2.852
0.257459622157,-0.0552508917033,-0.126730624226,-2.19483371676,0.00414473226648,2.13385132219,-0.0455430851926,-0.2565505687,-0.410627553795,0.000841718170478,-0.474858967787,-0.0678960394421,0.0644111698881,-0.236009159458,0.57380632231,0.818971544385,0.00355821107501,0.0,0.818945063858,-0.573737227304,-0.0116328538438,0.0,-0.00748564224353,0.00958916909934,-0.99992600376,0.0,0.515136949706,0.0685770261365,0.304632953519,1.0,-0.11998,-0.157688,2.872
0.25406206134,-0.0605153187851,-0.126763479488,-2.20110527592,0.0033638516752,2.13462217958,-0.0484459108053,-0.265106042958,-0.40829404939,-0.0014037434937,-0.482953062936,-0.0556819694113,0.059635597173,-0.233635095022,0.573863482628,0.818932115625,0.00341177453093,0.0,0.818902729542,-0.573793601595,-0.0118308587468,0.0,-0.00773116463613,0.00958339378891,-0.999924190955,0.0,0.51351679083,0.066508066456,0.304557645185,1.0,-0.11998,-0.157688,2.885
0.248574630607,-0.0690111836463,-0.126829896225,-2.21097670136,0.00206712119846,2.13598728598,-0.0532677368399,-0.265391471563,-0.409562070393,-0.00603778140652,-0.461747155163,-0.0620631004593,0.0724854670034,-0.2308032423,0.573834840819,0.818952202837,0.00340761387916,0.0,0.818922569536,-0.573764739328,-0.0118573146013,0.0,-0.00775555454182,0.00959489688219,-0.999923891768,0.0,0.510993976981,0.0631969168303,0.304541734467,1.0,-0.11998,-0.157688,2.906
0.245107701695,-0.0742884792615,-0.126915888909,-2.21685172154,0.00124276339371,2.1368675685,-0.0562733962385,-0.265059708587,-0.395523276466,-0.00604855032983,-0.452898363126,-0.055565146175,0.0614786906023,-0.236462386453,0.573880563571,0.818919385651,0.00358963250055,0.0,0.818893078602,-0.573811058102,-0.0116508505581,0.0,-0.0074814805997,0.00962590722234,-0.999925681918,0.0,0.509516192998,0.0611130961908,0.304639592445,1.0,-0.11998,-0.157688,2.919
0.239772652338,-0.0823362587014,-0.126933497969,-2.22618012616,5.31228599475e-05,2.13794147531,-0.0609325949123,-0.266330005493,-0.410384418176,0.00171533967384,-0.458751978155,-0.0629304659726,0.0546342402261,-0.232269455837,0.573854826969,0.818937888375,0.00348129998442,0.0,0.818909074403,-0.57378429053,-0.011843255606,0.0,-0.007701523774,0.00964736328615,-0.999923804554,0.0,0.507053318456,0.057982803874,0.304581704565,1.0,-0.11998,-0.157688,2.939
0.236052865029,-0.0879059641202,-0.126917686465,-2.23268956849,-0.000788033121291,2.1387028903,-0.0641984283368,-0.262252455282,-0.400478510106,0.0013990161689,-0.462610704733,-0.0678574347273,0.053587507498,-0.237144052297,0.573789529225,0.818984094753,0.0033727724478,0.0,0.818953070026,-0.573718407587,-0.0119918635936,0.0,-0.00788627574693,0.00964313377672,-0.999922405302,0.0,0.505320477352,0.0558316503709,0.304507221225,1.0,-0.11998,-0.157688,2.953
0.230592645032,-0.0959751193597,-0.126947420906,-2.24156984102,-0.00202536574649,2.13985019291,-0.0689824139327,-0.275356934839,-0.397245822397,-0.000840487438146,-0.435380161174,-0.0667842514844,0.0577457806032,-0.233106511663,0.573740878102,0.819017208552,0.00360052649701,0.0,0.818990226618,-0.573670308705,-0.011752979007,0.0,-0.00756052247491,0.00969214711138,-0.999924447538,0.0,0.502998686798,0.0526964349903,0.304635197719,1.0,-0.11998,-0.157688,2.973
0.226693229066,-0.10154689718,-0.127008289992,-2.2478658101,-0.00289662520963,2.14051984641,-0.0723095050198,-0.27930235937,-0.401185881163,-0.00604558947307,-0.453481325589,-0.0606971311573,0.0374478282116,-0.24322588913,0.573812368609,0.818967290474,0.00356225567113,0.0,0.818939606134,-0.573741656079,-0.0117974779609,0.0,-0.00761808076362,0.00968699753337,-0.999924060579,0.0,0.501307629165,0.0504553663114,0.304626214484,1.0,-0.11998,-0.157688,2.987
0.220495293646,-0.110267505309,-0.127165505935,-2.25778394942,-0.00424388286772,2.1414871233,-0.0776467648004,-0.282607538082,-0.391073016761,-0.00953117103376,-0.446066531299,-0.0664572617124,0.045202336098,-0.244575700942,0.573944024682,0.818875604712,0.00342745403482,0.0,0.818845117704,-0.573872461581,-0.0119924122737,0.0,-0.00785352357335,0.00968971392562,-0.99992221278,0.0,0.498605085504,0.0469012512713,0.304555983041,1.0,-0.11998,-0.157688,3.009
0.217096175984,-0.115020420626,-0.127219360276,-2.26302493836,-0.00500802066144,2.14205827737,-0.0805802876739,-0.281995796721,-0.396419347233,-0.00244686379564,-0.429234242735,-0.0590441383175,0.043701970712,-0.240144786617,0.57397090941,0.8188565819,0.00346991816105,0.0,0.818827059734,-0.57389969697,-0.0119218692915,0.0,-0.00777106577383,0.00968425549634,-0.999922909895,0.0,0.497186704064,0.0449878028016,0.304586139951,1.0,-0.11998,-0.157688,3.021
0.211446083839,-0.122877941044,-0.127208901342,-2.27156009786,-0.0061674775733,2.14302928942,-0.0855886904087,-0.280801447228,-0.384917795095,-0.000334090393977,-0.435009517712,-0.0606453985991,0.0364551850678,-0.247811142973,0.573871104111,0.818925521055,0.00370050450502,0.0,0.818899675977,-0.573799976235,-0.0117326407183,0.0,-0.00748495362509,0.00976355340191,-0.999924321383,0.0,0.494870436868,0.0419003559606,0.304682027267,1.0,-0.11998,-0.157688,3.041
0.207746219005,-0.127949035658,-0.127209600902,-2.27728690154,-0.00695390711478,2.1434602839,-0.0887801672385,-0.281516704508,-0.391783021625,0.00606037035524,-0.441031220044,-0.0694712235389,0.0326329861424,-0.244741075424,0.573865781581,0.818929876119,0.00355944265013,0.0,0.818901327356,-0.573794021433,-0.01190730548,0.0,-0.00770900971165,0.00974821515996,-0.999922768753,0.0,0.493248789154,0.0398813690007,0.304617535931,1.0,-0.11998,-0.157688,3.054
0.201931137361,-0.135807645806,-0.127234425142,-2.28592187822,-0.0081871195021,2.14421011814,-0.0938726508862,-0.289064784365,-0.389543284762,0.00043909689976,-0.419316350234,-0.0623482160429,0.0408197078273,-0.257011198045,0.573813108419,0.818966856054,0.00354290745472,0.0,0.818938002932,-0.57374130287,-0.0119252520435,0.0,-0.00773382273472,0.00974447511062,-0.999922613601,0.0,0.490822804736,0.0367330498086,0.304616996525,1.0,-0.11998,-0.157688,3.074
0.198115947528,-0.140883781472,-0.127281726314,-2.29131830499,-0.00894757646924,2.1447586889,-0.0972213691303,-0.296825880672,-0.396389302022,-0.00647674250929,-0.405882965434,-0.0577318098484,0.0480155250977,-0.252755281155,0.573818629001,0.818962225641,0.00371495421952,0.0,0.81893624401,-0.57374703791,-0.0117690966955,0.0,-0.00750714617995,0.00979582618561,-0.999923839373,0.0,0.489323835115,0.0346820056619,0.304693590508,1.0,-0.11998,-0.157688,3.087
0.191845651723,-0.148984018654,-0.127441828081,-2.30010816053,-0.0101854565519,2.14547574343,-0.102631555251,-0.300869711318,-0.385728491635,-0.00569480450901,-0.426563270959,-0.0591198217445,0.0265768848189,-0.265647277955,0.573970570763,0.818855490828,0.00377040313254,0.0,0.818830019855,-0.573898497486,-0.0117754010259,0.0,-0.00747866708163,0.00984624249037,-0.999923557602,0.0,0.486824333102,0.0313000933709,0.304703438504,1.0,-0.11998,-0.157688,3.108
0.187980537359,-0.153993193224,-0.127448183323,-2.30562275327,-0.0110053129363,2.14578092889,-0.10606103432,-0.295552240078,-0.387482418836,0.00103297599553,-0.418010290405,-0.0624195049388,0.0304100106228,-0.264027829723,0.573880481888,0.818919283524,0.00362580775432,0.0,0.81889136715,-0.573808188306,-0.0119096071159,0.0,-0.00767263646977,0.00980402249752,-0.999922502893,0.0,0.485206262403,0.0292676921774,0.304652122954,1.0,-0.11998,-0.157688,3.121
0.181731018768,-0.162058917803,-0.127433356243,-2.31428689837,-0.0122582599976,2.14636927655,-0.111549638846,-0.29784157328,-0.383444260099,-0.000495937869004,-0.408548958857,-0.051766601589,0.0284096504801,-0.253010886902,0.573790770718,0.818982126544,0.00362970261127,0.0,0.818954198153,-0.573718396262,-0.0119151172582,0.0,-0.00767598869564,0.00980953337022,-0.999922423117,0.0,0.482677289864,0.0260368851326,0.304658927829,1.0,-0.11998,-0.157688,3.142
0.177761312572,-0.167043797223,-0.127444581095,-2.31942124007,-0.0129527322251,2.14679670857,-0.11504807343,-0.305144280837,-0.389712613447,-3.6956476125e-05,-0.399491906836,-0.054740139511,0.0311019854197,-0.277980049051,0.573788073344,0.81898294826,0.00386319148515,0.0,0.818958653626,-0.573715682243,-0.0117382495069,0.0,-0.00739719506898,0.00989925225766,-0.99992364024,0.0,0.481196329868,0.0240099945992,0.30475789997,1.0,-0.11998,-0.157688,3.155
0.17158474027,-0.174597591326,-0.127491341409,-2.32762325282,-0.0141044376802,2.14719814997,-0.120428289873,-0.318443997983,-0.373400456277,-0.00268353181764,-0.407289870362,-0.0593540364542,0.00756718884891,-0.268960796237,0.573818129341,0.818962439279,0.00374491539994,0.0,0.818935415125,-0.573744569269,-0.0119457938402,0.0,-0.0076346785806,0.00992174794691,-0.99992163223,0.0,0.478738218965,0.0208552680277,0.304680209198,1.0,-0.11998,-0.157688,3.175
0.167168471846,-0.179910868101,-0.12762246201,-2.3332575668,-0.0149832930619,2.14746581535,-0.12426765743,-0.32129552435,-0.380968503348,-0.0100816362965,-0.394917181549,-0.0591821181507,0.0188729929969,-0.27356136724,0.573898833644,0.818906069809,0.003704655655,0.0,0.818878441261,-0.573825304018,-0.0119735461719,0.0,-0.00767953233463,0.00990545754159,-0.999921450262,0.0,0.477044023323,0.0185689082731,0.304673236136,1.0,-0.11998,-0.157688,3.189
0.160593547543,-0.187827365204,-0.127678636756,-2.34152713914,-0.0161804214846,2.14791608085,-0.13005851661,-0.311055444652,-0.373315596823,-0.00131904246536,-0.384179846456,-0.053821374749,0.0236372875867,-0.284126253773,0.573891735768,0.818910560702,0.00380999851704,0.0,0.81888442435,-0.573817984721,-0.0119149850061,0.0,-0.00757120715043,0.00995805159253,-0.999921753954,0.0,0.47455086251,0.0152764452964,0.304708804791,1.0,-0.11998,-0.157688,3.21
0.15683883351,-0.192350110546,-0.127665146858,-2.34613264764,-0.0168830260373,2.14820231985,-0.133390689539,-0.314362709432,-0.368583930011,0.00323426998149,-0.389537726755,-0.0649002546752,0.0255397850713,-0.278968399091,0.573820604707,0.818959786042,0.00394073100653,0.0,0.818936200773,-0.57374755465,-0.0117468931034,0.0,-0.00735938997518,0.00996800849785,-0.999923236147,0.0,0.473163479672,0.0134316704294,0.304776910495,1.0,-0.11998,-0.157688,3.222
0.150082966761,-0.200150172111,-0.12771010224,-2.35438005091,-0.0181545604175,2.14843815601,-0.139332414296,-0.321485757606,-0.362587190139,-0.00536790719488,-0.393555107696,-0.0613630952902,0.00332999665676,-0.28180634016,0.573784200826,0.818985959291,0.0037995088296,0.0,0.818959951465,-0.573710851418,-0.0118829189771,0.0,-0.00755226975661,0.00993006791999,-0.999922175458,0.0,0.470594505123,0.0101057857562,0.304718104685,1.0,-0.11998,-0.157688,3.243
0.146228263255,-0.204608965688,-0.127747008405,-2.35905576138,-0.0188117504539,2.14857686435,-0.142724042001,-0.327070515772,-0.370833613563,-0.00460533820821,-0.389146750727,-0.052504245928,0.0144387947508,-0.277214088207,0.573799479071,0.818975285777,0.00379288885586,0.0,0.818948601831,-0.573725377249,-0.0119635262812,0.0,-0.00762190251062,0.0099710381468,-0.999921239399,0.0,0.469129340347,0.00822909636066,0.304693577525,1.0,-0.11998,-0.157688,3.255
0.139324619335,-0.212375885981,-0.127905809076,-2.36700617751,-0.0199763561511,2.14881185804,-0.148762355645,-0.331243413862,-0.369295438062,-0.00333790888291,-0.371308059023,-0.0631188699852,0.0119935914403,-0.289143948838,0.573933285222,0.818881099434,0.00388278325194,0.0,0.818855312284,-0.573858476293,-0.0119655184482,0.0,-0.00757031457341,0.0100470404413,-0.999920870527,0.0,0.466741240549,0.00501132582025,0.304716288544,1.0,-0.11998,-0.157688,3.275
0.135077425783,-0.217170910735,-0.127916638631,-2.37174405537,-0.0207134466769,2.1489878323,-0.152498831489,-0.31688635974,-0.371024594398,-0.000212907894697,-0.369628623744,-0.0581296759159,0.00529188213104,-0.283586512574,0.573927585521,0.818884274793,0.00405191010364,0.0,0.81886168926,-0.57385354796,-0.0117637688101,0.0,-0.00730810300556,0.0100696992549,-0.999922593398,0.0,0.465137270988,0.00283450500917,0.304810115279,1.0,-0.11998,-0.157688,3.289
0.128522990773,-0.224478159567,-0.127911136604,-2.37930498606,-0.0219040803945,2.14907952338,-0.158400771331,-0.328202627765,-0.364530201626,-0.00042706348987,-0.38567463794,-0.0659233398986,-0.00088274709895,-0.295732190864,0.573747477408,0.819011022734,0.0039400138591,0.0,0.818986636257,-0.573673371395,-0.0118532478958,0.0,-0.00744780304125,0.0100277828425,-0.999921983857,0.0,0.462691166003,-0.000252009748473,0.304761674019,1.0,-0.11998,-0.157688,3.309
0.124127181858,-0.229160869178,-0.127946702436,-2.38415066052,-0.0226288567866,2.14908992588,-0.162251539697,-0.342277229807,-0.367628344617,-0.00368314023388,-0.369879195043,-0.0462258398969,0.00126021180361,-0.298030698502,0.573781167405,0.818987738313,0.00387341267014,0.0,0.818961772991,-0.573706341307,-0.0119747745388,0.0,-0.00758513814236,0.0100432703862,-0.999920796063,0.0,0.461101690866,-0.00231431160848,0.30471682393,1.0,-0.11998,-0.157688,3.322
0.117339988281,-0.2364008417,-0.128052769004,-2.39144683337,-0.0237243250002,2.14911691254,-0.168203036429,-0.342532494517,-0.366199239289,-0.0164219874691,-0.358497885412,-0.0569192418078,0.00357511583324,-0.299097363455,0.57388239496,0.818916522881,0.00393347276207,0.0,0.818891031579,-0.573806924133,-0.011993294734,0.0,-0.00756459895667,0.0101040208069,-0.99992033963,0.0,0.4585830694,-0.00565145670451,0.304733978885,1.0,-0.11998,-0.157688,3.343
0.112487277086,-0.241491867157,-0.128172529293,-2.39634391671,-0.0245598963745,2.14919658655,-0.172482157982,-0.343635730277,-0.362743455799,-0.00582001746696,-0.348531669533,-0.0595121325024,0.00298820963687,-0.30412155106,0.57394404872,0.818872606996,0.00407791029406,0.0,0.81885021572,-0.57386972498,-0.0117732692009,0.0,-0.00730075894673,0.0100965899065,-0.999922375883,0.0,0.45708809547,-0.00777254119881,0.304826127555,1.0,-0.11998,-0.157688,3.356
0.105348937513,-0.249004080501,-0.128166630163,-2.4038819626,-0.0257024937805,2.14920856076,-0.178910224027,-0.336732687948,-0.36004316415,0.000889326644172,-0.360883638499,-0.0456734955637,-0.000325819376475,-0.304697672202,0.573812664711,0.818964523507,0.00410876561702,0.0,0.818942418704,-0.573738100761,-0.0117751213586,0.0,-0.00728619155284,0.0101217510914,-0.999922227759,0.0,0.454562376306,-0.0110001072165,0.304816682367,1.0,-0.11998,-0.157688,3.377
0.100828520188,-0.253565939936,-0.128184016091,-2.40856222973,-0.0263920757283,2.1491768544,-0.182937728762,-0.355355586158,-0.355497015738,-0.000288027133297,-0.355466629945,-0.0485222938931,-0.00439126727917,-0.324195184121,0.573791699874,0.818979432406,0.00406464673701,0.0,0.81895607188,-0.573716347304,-0.0118849513234,0.0,-0.007401718916,0.0101484489372,-0.999921108659,0.0,0.452850017683,-0.0131910343316,0.304756885472,1.0,-0.11998,-0.157688,3.391
0.0938045483092,-0.26060928358,-0.128238521302,-2.4155183643,-0.0274837620506,2.14912268331,-0.18914511158,-0.352116291101,-0.35095741385,-0.00841951115438,-0.347967996566,-0.0507342139333,-0.00436673721247,-0.304061322244,0.573828729269,0.818953263253,0.0041096197845,0.0,0.81893055976,-0.573753314738,-0.0118582891028,0.0,-0.00735361816358,0.0101703160078,-0.999921241385,0.0,0.450587742492,-0.0161805039077,0.3047602777,1.0,-0.11998,-0.157688,3.41
0.0891766537712,-0.265208880285,-0.128360547682,-2.41991271291,-0.0282005007645,2.1490464727,-0.193242843336,-0.357784313087,-0.357591161067,-0.0105835278327,-0.330815822433,-0.0509341391301,-0.0043198810676,-0.31741136761,0.573908185597,0.818896921968,0.00423940996824,0.0,0.818876513217,-0.573833180671,-0.0117253470183,0.0,-0.0071692745068,0.0102010222869,-0.999922267302,0.0,0.448950768147,-0.0184399215616,0.304832501849,1.0,-0.11998,-0.157688,3.424
0.0820418517164,-0.272187831142,-0.128424020004,-2.42659961134,-0.0292832912695,2.14894603386,-0.199624301017,-0.35345571305,-0.347101031917,0.00551197439531,-0.338980299178,-0.0586949230875,-0.011383734685,-0.309326274085,0.573903799752,0.818899375968,0.00435747297229,0.0,0.818881212694,-0.573829461057,-0.0115782563628,0.0,-0.00698111495111,0.0102132547097,-0.999923473803,0.0,0.44672471375,-0.0214280081625,0.304890010067,1.0,-0.11998,-0.157688,3.443
0.07706574577,-0.27704747375,-0.128426133713,-2.43144030233,-0.030032624677,2.14876230734,-0.204171984005,-0.366253075101,-0.348012145953,-0.00162735948861,-0.342935186944,-0.0569172929303,-0.0153533194728,-0.320243146332,0.573778974704,0.818987208283,0.00428809485081,0.0,0.8189674691,-0.573703888297,-0.0116995730762,0.0,-0.00712184111999,0.0102249760938,-0.999922361608,0.0,0.444996244838,-0.0235798278916,0.304837633518,1.0,-0.11998,-0.157688,3.457
0.0697610945296,-0.28388379793,-0.128470159522,-2.4381240343,-0.031121067853,2.14852796937,-0.210695348409,-0.367584820738,-0.339189882828,-0.00194634389355,-0.323928093327,-0.051030509078,-0.0166373795255,-0.328181965522,0.573765631501,0.818996713345,0.00425799723957,0.0,0.818976416875,-0.573690405092,-0.0117343346136,0.0,-0.00716774732195,0.0102201540018,-0.99992208289,0.0,0.442587958547,-0.0267378980314,0.304809439719,1.0,-0.11998,-0.157688,3.477
0.0649822592145,-0.28832693193,-0.128563957837,-2.44238599665,-0.031806547669,2.14836184465,-0.214961120036,-0.368875633847,-0.338524710672,-0.0101251949044,-0.326991133529,-0.0552193295686,-0.0176973599314,-0.331848838087,0.573821947504,0.818957016035,0.00430410867576,0.0,0.818937298844,-0.573746536322,-0.0117200478555,0.0,-0.00712888522802,0.0102502131665,-0.999922053025,0.0,0.441034526357,-0.0288120497502,0.304817900281,1.0,-0.11998,-0.157688,3.49
0.0571660475286,-0.295481064325,-0.128695053603,-2.44904354673,-0.0328456991748,2.14811513942,-0.221924887344,-0.370808434605,-0.341540484806,-0.00296915781251,-0.316829476736,-0.0493145858705,-0.0123049690165,-0.334775852016,0.573948928485,0.818866767977,0.00453769712932,0.0,0.818850803736,-0.573873854345,-0.0115285480915,0.0,-0.00683641079576,0.0103326937019,-0.999923246519,0.0,0.438587327221,-0.0321647392868,0.304912949941,1.0,-0.11998,-0.157688,3.511
0.0523957272388,-0.299887371857,-0.128685678581,-2.45321516046,-0.0335047257341,2.14789433414,-0.226318246282,-0.3669588151,-0.342267548504,0.00122674943095,-0.325824262465,-0.0524147328211,-0.0177563479926,-0.330391517941,0.573822186647,0.818955385507,0.00457400943121,0.0,0.818939961105,-0.573747134379,-0.0115027300368,0.0,-0.00679602875248,0.0103465600111,-0.999923378409,0.0,0.437032648274,-0.0341528354133,0.304926718763,1.0,-0.11998,-0.157688,3.524
0.0448440980021,-0.306527314051,-0.128721505413,-2.45968370301,-0.0346204824181,2.14742309932,-0.233020582166,-0.382279875433,-0.328618593244,-0.00469070487746,-0.32194410637,-0.0485822757017,-0.0159825511813,-0.338282105207,0.573836419109,0.818946429973,0.00438814770982,0.0,0.81892778093,-0.573760705837,-0.0116914054024,0.0,-0.00705702385796,0.0103027286363,-0.999922023058,0.0,0.434564161199,-0.0373046500235,0.304840447593,1.0,-0.11998,-0.157688,3.544
0.0399271058766,-0.310834889451,-0.128778054021,-2.46373416259,-0.0352732074235,2.14719070575,-0.237497921689,-0.379253271411,-0.327990849059,-0.00273196571375,-0.310230465203,-0.0448303300441,-0.0150224705425,-0.349240353516,0.573814589629,0.818961443997,0.00444036887374,0.0,0.818943531266,-0.573738802574,-0.0116630150593,0.0,-0.00700408258404,0.0103290184313,-0.99992212407,0.0,0.433016535668,-0.0393494947931,0.304848719331,1.0,-0.11998,-0.157688,3.557
0.0318235041461,-0.31773705021,-0.128933441052,-2.47015299195,-0.036297942062,2.14674099474,-0.244747442942,-0.37947249607,-0.325889524345,-0.00256385974877,-0.305579544011,-0.0505701182599,-0.0190946394533,-0.346766558071,0.573960140435,0.818858835244,0.00455104765728,0.0,0.818842233684,-0.573883803088,-0.0116414685281,0.0,-0.00692108007411,0.010408529337,-0.999921877532,0.0,0.430514435311,-0.042716771485,0.304874037253,1.0,-0.11998,-0.157688,3.578
0.0265195258218,-0.322293748483,-0.128925022133,-2.47429637572,-0.0370106914271,2.14646032523,-0.249659998524,-0.381416443583,-0.323351595265,7.21107780809e-05,-0.294713981102,-0.0498597501854,-0.0137707363476,-0.358403449374,0.573812683168,0.818961751706,0.00462609751144,0.0,0.818946930452,-0.57373737609,-0.0114932711743,0.0,-0.00675851456835,0.0103837130465,-0.999923247547,0.0,0.428891873548,-0.0448636045493,0.304928295475,1.0,-0.11998,-0.157688,3.592
