nelsonifechukwu/NELSON_IML_WORK/CNN-GradCAM/train2dof/data_sample_2022-02-22-08-08-10/robot_state.csv
position_joint1,position_joint2,position_joint3,position_joint4,position_joint5,position_joint6,position_joint7,velocity_joint1,velocity_joint2,velocity_joint3,velocity_joint4,velocity_joint5,velocity_joint6,velocity_joint7,ee_T_00,ee_T_10,ee_T_20,ee_T_30,ee_T_01,ee_T_11,ee_T_21,ee_T_31,ee_T_02,ee_T_12,ee_T_22,ee_T_32,ee_T_03,ee_T_13,ee_T_23,ee_T_33,v_x,v_y,time
0.465075029286,0.5477430613,-0.124008877107,-1.35581858701,0.0795266805622,1.89412713396,0.159123939535,6.97544423281e-05,0.000536011589905,0.000414098128125,0.00093957645985,2.77169306303e-05,-0.000478030753595,-0.0025687846674,0.573796405372,0.818983727866,0.00202128022582,0.0,0.818941417121,-0.573737451248,-0.011875995147,0.0,-0.00856672754864,0.00846987648946,-0.999927433553,0.0,0.661689531965,0.260887942233,0.303251280547,1.0,0.0,0.0,0.0
0.465073640637,0.547732759298,-0.124008339973,-1.35581631976,0.0795266805622,1.89412758956,0.159130281704,0.000157403851502,-0.00168749116236,-3.82546997435e-06,0.00214656650512,0.000151156325189,-0.000191119285652,-0.000656321094195,0.573802221809,0.818979624606,0.00203264078302,0.0,0.818937463414,-0.573743222461,-0.0118698188256,0.0,-0.00855509060498,0.00847569728491,-0.999927483861,0.0,0.661690655753,0.260887772292,0.303259679576,1.0,-0.00016,-0.000210285714286,0.009
0.46507756731,0.547735659721,-0.124006635146,-1.35582660594,0.0795266805622,1.89412759003,0.159126751968,0.00715008015259,0.000353737351876,0.00276263840256,-0.000400148368992,0.000168247872054,5.37718769601e-05,-0.00207231205154,0.573795491497,0.818984366162,0.00202208322231,0.0,0.818942046945,-0.573736515505,-0.0118777700761,0.0,-0.00856772997048,0.00847154299531,-0.999927410847,0.0,0.661686803302,0.260890095387,0.303252672614,1.0,-0.0005,-0.000657142857143,0.026
0.465072252809,0.547720753847,-0.124006634172,-1.35583871534,0.0795253581338,1.89413484076,0.15913492619,0.000892013505727,-0.000333154008719,0.00113910164455,-0.00287158114513,-0.000435549799381,0.00413428419168,0.00197631615134,0.5738068721,0.818976372304,0.00203028083926,0.0,0.818934170428,-0.573747871889,-0.0118722747999,0.0,-0.00855840801167,0.00847522239679,-0.999927459498,0.0,0.661687329347,0.260885617868,0.30325809593,1.0,-0.00082,-0.00107771428571,0.042
0.465074344591,0.547642959251,-0.12400915344,-1.35591431011,0.0795266805622,1.8941488215,0.159132987582,0.00233312174959,-0.00471642117314,-0.000986616241954,-0.0112102187081,9.58184980357e-05,0.00118652646619,0.00196666255229,0.573809768568,0.818974298865,0.00204797377024,0.0,0.818932269755,-0.573750639196,-0.0118696451809,0.0,-0.00854607261847,0.00848823358711,-0.999927454635,0.0,0.661674805139,0.260878759266,0.30327852597,1.0,-0.00116,-0.00152457142857,0.059
0.465060575236,0.547503858283,-0.124006725874,-1.35610190084,0.07952395787,1.89418455496,0.159124370822,-0.00275799405884,-0.00294034354213,-0.000418992234098,-0.0104696978589,0.0002055120784,0.000192313862966,-0.0015505507839,0.57382181604,0.81896586738,0.00204411466837,0.0,0.818923653876,-0.573762567684,-0.0118874702281,0.0,-0.00856276074519,0.00849542717084,-0.999927250777,0.0,0.661645785417,0.260852595143,0.303290794569,1.0,-0.00152,-0.00199771428571,0.077
0.465046826607,0.547360346011,-0.124014050873,-1.35629539288,0.0795191457245,1.89427059534,0.159117437448,0.000139403598309,-0.011753894742,-0.00122361242902,-0.0103879827939,-0.000143536855416,0.00741226240774,-0.00150526109612,0.573842147144,0.818951540325,0.00207645387251,0.0,0.818909744288,-0.573782761626,-0.0118709760543,0.0,-0.00853048492576,0.00851265859253,-0.999927380098,0.0,0.66162791363,0.26082324488,0.303308064109,1.0,-0.00184,-0.00241828571429,0.093
0.465025333569,0.547159870208,-0.124004533957,-1.35651725707,0.0795183088185,1.89438758794,0.159112446166,-0.000275886911621,-0.00959676130328,0.00149594309437,-0.010398272118,0.000190130666218,0.000742237417935,-0.00229904431873,0.573861347464,0.818937851725,0.00216697958611,0.0,0.818897126451,-0.573801490413,-0.0118360800318,0.0,-0.00844976052197,0.00856696713256,-0.99992760169,0.0,0.661609141457,0.260798654783,0.30335431191,1.0,-0.0022,-0.00289142857143,0.111
0.465002334625,0.546959030906,-0.124007318343,-1.35676216392,0.0795148452704,1.89451165124,0.159097799087,-0.00203041886444,-0.0132599034342,0.000349466112886,-0.0168831528271,-9.88517229583e-05,0.0128690560479,-0.000664182897969,0.573883074036,0.818922429597,0.0022402096913,0.0,0.818882619972,-0.573822890743,-0.011802189173,0.0,-0.00837975516744,0.00860771110936,-0.999927840903,0.0,0.661589856549,0.26076326846,0.303390858039,1.0,-0.00252,-0.003312,0.127
0.464979226352,0.546748580057,-0.124009824311,-1.35708010012,0.0795084152573,1.89463632887,0.159081792117,-0.00323593893288,-0.0102022809934,-0.000690489132905,-0.0223026067497,0.00024790721019,0.0104539163195,-0.00168153866317,0.573906773974,0.818905764311,0.00226072255631,0.0,0.818866131349,-0.573846415878,-0.0118024071278,0.0,-0.00836791280169,0.00862487658917,-0.999927792163,0.0,0.661554308068,0.260718978526,0.303399479214,1.0,-0.00284,-0.00373257142857,0.143
0.464940660132,0.546471401789,-0.124002774138,-1.3574712347,0.0795013242663,1.89478080816,0.159008341044,-0.00223977898856,-0.0131734567865,0.00117487548409,-0.0256415838077,-9.55105161845e-05,0.010933500195,-0.00496399023137,0.57389323963,0.81891514437,0.00229841900472,0.0,0.818875819777,-0.5738325502,-0.011804364338,0.0,-0.00834802581254,0.00865673130731,-0.999927683119,0.0,0.661509528379,0.260663420776,0.303421906248,1.0,-0.00318,-0.00417942857143,0.16
0.464905511982,0.546185527472,-0.124007406178,-1.35793488861,0.0794921155482,1.89494002466,0.158910318924,-0.00323158578676,-0.0206490594954,-0.000734952728255,-0.0299520234709,0.000257540388772,0.00969189994419,-0.00153558445414,0.573876827572,0.818926672683,0.00228876507987,0.0,0.818887078627,-0.573816028381,-0.0118264505214,0.0,-0.00837182687074,0.00866133281407,-0.999927444282,0.0,0.661450300247,0.260589329812,0.303416917361,1.0,-0.00354,-0.00465257142857,0.178
0.464857251195,0.54588377899,-0.124005349801,-1.35844272415,0.0794727223184,1.8951126153,0.158889307219,-0.00551716424458,-0.0234598543616,0.000855544152266,-0.0345663669048,-0.000108003337524,0.0129369377581,0.000150949939006,0.573912515778,0.818901715642,0.0022696374135,0.0,0.818861715189,-0.573851624036,-0.0118554582496,0.0,-0.00840618182969,0.0086626818385,-0.999927144371,0.0,0.661392126805,0.260517036766,0.303404443134,1.0,-0.00386,-0.00507314285714,0.194
0.46479723974,0.545551874919,-0.124006913931,-1.3590329112,0.0794120172908,1.89529782009,0.158811539841,-0.00346775529894,-0.0187979785367,4.8701527071e-05,-0.0370838271276,-0.00321916192477,0.0184514374032,-0.00856679595715,0.573915804814,0.818899619451,0.0021929773607,0.0,0.818858794706,-0.573855393331,-0.0118747117279,0.0,-0.00846590802413,0.00861098932488,-0.999927086974,0.0,0.661321650923,0.260413471334,0.303374539101,1.0,-0.0042,-0.00552,0.211
0.464733293136,0.545154290896,-0.124007651661,-1.35972407086,0.0793432309182,1.89551061548,0.158708785291,-0.00202648789368,-0.024188253479,-0.000239900283431,-0.0458694819374,-0.00206582909063,0.0153786170848,-0.00203558886242,0.573904659732,0.818907649768,0.00210940505125,0.0,0.818865911373,-0.573844761703,-0.0118977123469,0.0,-0.0085328208999,0.00855563716831,-0.999926993355,0.0,0.661236423953,0.26029722831,0.303345399733,1.0,-0.00454,-0.00596685714286,0.228
0.464670108012,0.544753889605,-0.124010514642,-1.36039730816,0.0793297353522,1.89573550009,0.158654550561,-0.00588507059748,-0.0234148969132,-0.000347583190912,-0.0476397594505,0.00054206784035,0.0167554525771,-0.00404741393882,0.573947880705,0.818877427478,0.00208228294794,0.0,0.818835065581,-0.573887818109,-0.0119438060086,0.0,-0.00858568162195,0.00856033325339,-0.999926500682,0.0,0.661154916702,0.260192205828,0.303327974416,1.0,-0.00486,-0.00638742857143,0.244
0.464605697675,0.544309447511,-0.124016099513,-1.36113980219,0.0792988848002,1.89600057639,0.158538344347,-0.00281726733376,-0.0277289055604,-0.00055002086215,-0.0426415621492,-0.00494338256931,0.0148047420156,-0.00378648359465,0.573942585273,0.81888119544,0.00205996737866,0.0,0.818838418425,-0.57388249234,-0.0119698119821,0.0,-0.00861984069038,0.00855693001203,-0.999926235927,0.0,0.661068489891,0.260077077553,0.303312266049,1.0,-0.0052,-0.00683428571429,0.261
0.46453444172,0.543807135502,-0.124013798631,-1.36194851585,0.0792651999085,1.89628881336,0.158470920977,-0.00236707173792,-0.0321816608452,-0.000227983159696,-0.0506708893596,-0.000891352972763,0.0236004594972,-0.0019809916039,0.573980183978,0.818854860149,0.00205263531523,0.0,0.818811817286,-0.573919948205,-0.0119936577571,0.0,-0.00864318299959,0.00856500884162,-0.999925965265,0.0,0.660973000789,0.259956011738,0.303307687126,1.0,-0.00554,-0.00728114285714,0.278
0.464454187565,0.543313895765,-0.124019739613,-1.36274403308,0.0792153100309,1.89655424192,0.158352128007,-0.00701318143648,-0.0330808927597,0.000416123468402,-0.0528320944001,-0.00149003588334,0.0170736300827,-0.00434803731165,0.573983635831,0.818852523264,0.00201936689678,0.0,0.818809041777,-0.573923535613,-0.0120114643303,0.0,-0.00867682274158,0.00854802441767,-0.999925819261,0.0,0.660880777335,0.259821506529,0.303301176046,1.0,-0.00586,-0.00770171428571,0.294
0.464368991205,0.542727569319,-0.124022229421,-1.36367812515,0.0791554327701,1.89688568615,0.158211837682,-0.00496917604788,-0.0363969354573,-0.000640803885129,-0.0557446767693,-0.00419235708441,0.0154389674266,-0.00612981114013,0.573976209375,0.818857768982,0.00200303535356,0.0,0.818814086834,-0.573916191779,-0.0120184407597,0.0,-0.00869198651267,0.00853857702783,-0.999925768281,0.0,0.660773178103,0.259673382022,0.303300097995,1.0,-0.00622,-0.00817485714286,0.312
0.464294807302,0.542168883805,-0.124020429105,-1.3645515736,0.0791115808539,1.8972064364,0.158122996264,-0.011957513186,-0.0331841743312,0.00110916621336,-0.0539657999859,-0.000890122511277,0.0219109449925,0.00115856183498,0.573999797299,0.818841210354,0.00201291546754,0.0,0.818797557678,-0.573939636846,-0.0120249614943,0.0,-0.00869140938861,0.00855066035562,-0.999925670043,0.0,0.660671815905,0.259543733381,0.30330721787,1.0,-0.00654,-0.00859542857143,0.328
0.464212362495,0.541551311234,-0.124025739275,-1.36550409815,0.0790624839812,1.89755202403,0.157987048119,-0.00477069943738,-0.0342680888991,-0.00038774977768,-0.0520511875953,-0.00583090502661,0.0178880151096,-0.00254110848847,0.574002212981,0.818839468882,0.00203238644971,0.0,0.818795965754,-0.573941866226,-0.0120269513359,0.0,-0.00868183792458,0.00856777146424,-0.999925606724,0.0,0.660569275788,0.259405732444,0.303324221224,1.0,-0.00686,-0.009016,0.344
0.464122440313,0.540884644601,-0.124029415569,-1.36652391795,0.0790020265715,1.89792935791,0.157863334291,-0.00894184870336,-0.0389983544279,-0.000561649199808,-0.0569907973641,-0.00412645201213,0.0266526883507,-0.00683901828,0.574014778681,0.81883062687,0.0020457901366,0.0,0.818787337385,-0.573954411686,-0.0120156708337,0.0,-0.00866477583052,0.00857240473847,-0.999925715009,0.0,0.66044760103,0.259238731321,0.303339345858,1.0,-0.00722,-0.00948914285714,0.362
0.464038903249,0.540161484334,-0.124034703292,-1.36761092863,0.0789244949345,1.89832072028,0.157712296918,-0.0053715184131,-0.0479719265684,-0.000488605487057,-0.0655749022672,-0.00953708356102,0.0280675457894,-0.0127718067783,0.574002603632,0.818839120266,0.00206229171275,0.0,0.818796157905,-0.573942279381,-0.0119941085563,0.0,-0.0086377751962,0.00857341113519,-0.999925939988,0.0,0.660320797494,0.259074977235,0.303367126841,1.0,-0.00756,-0.009936,0.379
0.463940249518,0.53946692119,-0.124033604864,-1.36868987095,0.0788703832239,1.89873781255,0.157590829302,-0.00858895491961,-0.0450800973837,-0.000988706515318,-0.0664308365163,-0.00234323379532,0.0268863431168,-0.015213404607,0.574028530499,0.818820861378,0.00209524377787,0.0,0.818778241565,-0.573967978126,-0.0119874153481,0.0,-0.00861310875523,0.00859682394836,-0.999925951746,0.0,0.660201184375,0.25891106177,0.303380500358,1.0,-0.00788,-0.0103565714286,0.395
0.463836544915,0.538711105156,-0.124037551599,-1.36984624361,0.0788046558142,1.89918360505,0.157441394628,-0.000218818926755,-0.0415126522259,-0.000535242192302,-0.0651407728606,-0.00797672564941,0.0265218184768,-0.00820985647842,0.574040297528,0.818812511136,0.00213432002174,0.0,0.818770401522,-0.573979582,-0.011967286258,0.0,-0.00857407267592,0.00861738853675,-0.999926110216,0.0,0.660073892879,0.258732580526,0.30340281534,1.0,-0.00822,-0.0108034285714,0.412
0.463721470341,0.537885558577,-0.124041804975,-1.37114300769,0.0787295728064,1.89968604464,0.157284784453,-0.00688397584933,-0.0435030877223,-9.96474388997e-05,-0.0729737669408,-0.00671734175945,0.0263899243063,-0.00547235333725,0.574060931194,0.81879797796,0.00215996903379,0.0,0.818756215157,-0.574000120034,-0.0119527922998,0.0,-0.00854726424274,0.00863028530871,-0.999926228504,0.0,0.659930508778,0.258533007034,0.30341234728,1.0,-0.00858,-0.0112765714286,0.43
0.463618860974,0.537117899083,-0.124045662043,-1.37233490602,0.0786560035409,1.90011898642,0.157136978239,-0.00637249575936,-0.0516291337009,0.000180578823438,-0.0768363059869,-0.00194603961068,0.0287953130049,-0.0125184269642,0.574072563464,0.818789807681,0.00216555212228,0.0,0.818748128237,-0.574011738665,-0.0119487775296,0.0,-0.00854064935055,0.00863267329909,-0.999926264412,0.0,0.659792352403,0.258349130048,0.303424717132,1.0,-0.0089,-0.0116971428571,0.446
0.463497818431,0.53622649942,-0.124053758638,-1.37374198597,0.0785776561012,1.90065012814,0.156977517698,-0.00281351819875,-0.0474186559662,-0.000881717905628,-0.07967496523,-0.0123438531072,0.032574074989,-0.00232829893167,0.574103350966,0.818768185391,0.00217896819601,0.0,0.81872666202,-0.57404244846,-0.0119443361479,0.0,-0.00852898640454,0.00864142913961,-0.99992628833,0.0,0.659632856602,0.258132607992,0.303430546527,1.0,-0.00926,-0.0121702857143,0.464
0.463386552017,0.535338157734,-0.124065559405,-1.37513601469,0.0784990436153,1.9011535385,0.156809270546,-0.00930761793123,-0.0497189073153,-0.00427070039716,-0.0864788580746,-0.00154487447075,0.0316188189197,-0.00847802246767,0.574120456774,0.818756195906,0.00217708076212,0.0,0.818714622414,-0.574059533963,-0.0119484481087,0.0,-0.00853325624435,0.00864242273343,-0.999926243314,0.0,0.659468767064,0.257919990998,0.30343796119,1.0,-0.0096,-0.0126171428571,0.481
0.463276201527,0.534552549286,-0.124058714298,-1.37640582714,0.0784327852025,1.90160931775,0.156656410666,-0.00805392400185,-0.0491984645367,-0.000481013792099,-0.0825830790227,-0.000167430384357,0.0312673028291,-0.0132743875883,0.574132706244,0.818747652542,0.00215962469282,0.0,0.818705684222,-0.57407168452,-0.0119770846495,0.0,-0.00856659548927,0.0086446994718,-0.999925938564,0.0,0.659315829514,0.257730981665,0.303427134246,1.0,-0.0099,-0.0130114285714,0.496
0.463142385962,0.533581965833,-0.124058451352,-1.37797863049,0.0783423917515,1.90217940426,0.156453304439,-0.00567508703595,-0.0521241695833,0.000988816668539,-0.088927342635,-0.00442690653103,0.024851183438,-0.00668264372077,0.574137672323,0.818744237548,0.00213391739236,0.0,0.81870184692,-0.574076669123,-0.0120004466236,0.0,-0.00860042991724,0.00863711689289,-0.999925713649,0.0,0.659128651585,0.257493015665,0.303412522881,1.0,-0.01026,-0.0134845714286,0.514
0.463004336435,0.532633335608,-0.124056465601,-1.3794979473,0.0782616109573,1.90276206511,0.156266244892,-0.0101448940862,-0.0563275977833,-0.000397821340214,-0.0971055997813,-0.00327521180425,0.03312472608,-0.00473171572437,0.574157734705,0.818730130208,0.00214859699666,0.0,0.818687830431,-0.574096566504,-0.0120048129017,0.0,-0.00859536535893,0.00865185296982,-0.999925629802,0.0,0.658955610496,0.257261739728,0.303408730228,1.0,-0.0106,-0.0139314285714,0.531
0.462889293203,0.53176727573,-0.124064150329,-1.38087045546,0.0781797538332,1.90326222366,0.156086435329,-0.00462073969824,-0.0610491884538,-0.0010259884127,-0.095591784183,-0.00305862713779,0.0337335707767,-0.0150104864519,0.574163013889,0.818726446262,0.00214162885646,0.0,0.818684051885,-0.574101870409,-0.0120088502358,0.0,-0.00860261577209,0.00864852154543,-0.999925596271,0.0,0.658794115585,0.257050616589,0.303409552501,1.0,-0.0109,-0.0143257142857,0.546
0.462745318434,0.530723653585,-0.124064390393,-1.38259915581,0.0780697864198,1.90387345793,0.155868234355,-0.00722537674233,-0.0578997032256,-0.000410931409333,-0.101622046357,-0.0105570905385,0.038805286611,-0.0124910474604,0.574166920898,0.818723878795,0.00207464191074,0.0,0.818680581267,-0.574106030794,-0.0120465000451,0.0,-0.0086718597703,0.00861533675582,-0.999925284619,0.0,0.658583235601,0.256787835682,0.30337517888,1.0,-0.01126,-0.0147988571429,0.564
0.462615063832,0.529750344953,-0.124069107133,-1.3841366333,0.0779815710709,1.90443259047,0.155671335026,-0.00823490837907,-0.0585537883875,-0.00128165854434,-0.0941802752997,-0.00424933762193,0.029424519928,-0.0123815966555,0.574175514232,0.81871786006,0.00207156355096,0.0,0.818674464934,-0.574114579161,-0.0120547650631,0.0,-0.00868030374249,0.00861765302725,-0.999925191393,0.0,0.658400605039,0.25655326362,0.303377675551,1.0,-0.01158,-0.0152194285714,0.58
0.462473786762,0.528675577237,-0.124068039113,-1.38581911714,0.077867210759,1.90506073511,0.155442478812,-0.00772380216397,-0.0719793708637,0.00043512447806,-0.102848851409,-0.00513944844328,0.0396151774282,-0.010518944068,0.574163560246,0.818726217705,0.00208168923749,0.0,0.818683047223,-0.574102675428,-0.0120388187401,0.0,-0.00866155993395,0.00861666061473,-0.999925362484,0.0,0.658203021379,0.256299408627,0.303388139475,1.0,-0.01192,-0.0156662857143,0.597
0.462327042066,0.527563597033,-0.124068128413,-1.38754785189,0.0777617543993,1.90573322152,0.155198895422,-0.0106775237781,-0.0706227763587,-0.00021974795987,-0.103501678287,-0.00163069831298,0.0434605128109,-0.0121993414036,0.574149754049,0.818735782665,0.00212720729372,0.0,0.818693239268,-0.574088711924,-0.0120115660508,0.0,-0.00861325906835,0.00863813423457,-0.999925594434,0.0,0.658005121004,0.256040733856,0.303406424864,1.0,-0.01226,-0.0161131428571,0.614
0.462174444219,0.526414684809,-0.124073742526,-1.38934180677,0.0776521579019,1.90641387334,0.154954695602,-0.0114102261251,-0.0654758733599,-0.000767634900936,-0.106977943586,-0.00477772791808,0.0415365376664,-0.0118758203133,0.574146225782,0.818738185161,0.00215464173801,0.0,0.818696035301,-0.574085105449,-0.0119933475594,0.0,-0.00858262912759,0.0086500984253,-0.999925754381,0.0,0.657796979931,0.255767662312,0.303420261733,1.0,-0.0126,-0.01656,0.631
0.46203392272,0.525295512863,-0.124076931214,-1.39106659935,0.0775393512672,1.90702517701,0.154720921664,-0.0091339326851,-0.071018689849,0.000385446713664,-0.107958528712,-0.00797127554645,0.0408732628524,-0.0161442752254,0.574134440284,0.818746447607,0.00215543763836,0.0,0.818704335096,-0.574073345323,-0.0119896949741,0.0,-0.00857930605049,0.00864852946269,-0.99992579647,0.0,0.657586423594,0.255506613298,0.303439679223,1.0,-0.01292,-0.0169805714286,0.647
0.461871943031,0.524119370305,-0.124088613201,-1.39294498592,0.0774202504119,1.90769289987,0.154458856195,-0.0104372011506,-0.0693001904377,-0.0038837332862,-0.10973739296,-0.00976248881464,0.0394121983131,-0.0192155537106,0.574129502962,0.8187500007,0.00212063302937,0.0,0.818707461952,-0.574068581578,-0.012004261341,0.0,-0.00861126597971,0.00862834480473,-0.999925696122,0.0,0.657359740762,0.255211868855,0.303430968112,1.0,-0.01326,-0.0174274285714,0.664
0.461702689799,0.522834870454,-0.124094896329,-1.39498477718,0.0773000202394,1.9084679304,0.154188438377,-0.0112458431147,-0.0748436568789,-0.00285125991948,-0.114867793219,-0.00479985689914,0.0438190978626,-0.017755232828,0.574128322805,0.818750788279,0.00213601189018,0.0,0.818708444062,-0.574067331227,-0.0119970721586,0.0,-0.00859656315215,0.00863679617321,-0.99992574967,0.0,0.65711940726,0.254904845698,0.303430425164,1.0,-0.01362,-0.0179005714286,0.682
0.461567423074,0.521750618988,-0.124085405403,-1.39670132818,0.0771991389012,1.90914500839,0.153957107327,-0.0090215434236,-0.0676205636055,-0.000859862745078,-0.113286936468,-0.00399949534209,0.0479288140847,-0.0225480073061,0.574107919148,0.818764990983,0.00217568713362,0.0,0.81872312154,-0.574046722485,-0.0119815508751,0.0,-0.00856129315742,0.00866015533742,-0.999925850235,0.0,0.656916458354,0.254661584318,0.303433683651,1.0,-0.01392,-0.0182948571429,0.697
0.461399307087,0.520479549289,-0.124095043361,-1.39872295557,0.0770691581112,1.90990149288,0.153689306637,-0.00856119441614,-0.0768948726964,-3.07232862046e-05,-0.12289417738,-0.00424494456801,0.0428660078223,-0.0102683692148,0.574106031827,0.818766321309,0.00217306484355,0.0,0.818724504632,-0.574044934176,-0.0119727174594,0.0,-0.00855558568676,0.00865291734383,-0.999925961747,0.0,0.656676033268,0.254352604295,0.303430151651,1.0,-0.01426,-0.0187417142857,0.714
0.461225815024,0.519085112395,-0.124102488501,-1.40089938619,0.0769288507193,1.91067932831,0.153384340463,-0.00719022700037,-0.077396576967,-0.000340084478177,-0.120844675682,-0.0132202623947,0.0423041605075,-0.020582568248,0.574081403636,0.818783612727,0.00216435443443,0.0,0.818741712296,-0.574020375148,-0.0119734858493,0.0,-0.00856147529119,0.00864596928017,-0.999925971438,0.0,0.656407228715,0.254024482688,0.30344091951,1.0,-0.01462,-0.0192148571429,0.732
0.461060289573,0.517804415154,-0.124106368103,-1.40289008404,0.0767987976996,1.91138835695,0.153123090994,-0.0103925337289,-0.0812338373915,-0.000859548688787,-0.12879585008,-0.00448656574826,0.0436456706696,-0.0206745053538,0.574076070238,0.818787367245,0.00215863879943,0.0,0.818745418983,-0.574015092957,-0.0119732557018,0.0,-0.00856462415785,0.00864110157749,-0.999925986549,0.0,0.656161463315,0.253721264277,0.303453759118,1.0,-0.01494,-0.0196354285714,0.748
0.460886544336,0.516463250907,-0.124117463781,-1.40501737309,0.0766567326297,1.91218596927,0.152824990804,-0.0138186567699,-0.0739402571576,-0.00105150614399,-0.128564857495,-0.00641984244039,0.0495069100054,-0.0158393209212,0.574056394246,0.81880116505,0.00215760025613,0.0,0.818759343404,-0.573995565148,-0.011957243869,0.0,-0.00855231689096,0.00863085384028,-0.999926180394,0.0,0.655906284591,0.253397114256,0.303451564282,1.0,-0.01528,-0.0200822857143,0.765
0.460709378375,0.515076515617,-0.12412098872,-1.40720208285,0.0765311003656,1.91300127883,0.152524913864,-0.00752529785141,-0.0781012270427,-0.000308624797074,-0.125460996476,-0.00274288621729,0.0423067873171,-0.0186547032038,0.574039787488,0.818812762388,0.00217472592149,0.0,0.818771084615,-0.573978809999,-0.0119575738745,0.0,-0.0085429319771,0.00864489230826,-0.999926139347,0.0,0.655639681165,0.253072799776,0.303454897756,1.0,-0.01562,-0.0205291428571,0.782
0.460528234677,0.513748557779,-0.124117414402,-1.40934401992,0.0763990090232,1.91374183187,0.152241776577,-0.00894627291482,-0.0892832711056,0.0010479688092,-0.138450772362,-0.0120841408836,0.0420971783118,-0.0180162335711,0.574030484027,0.818819446261,0.00211299175546,0.0,0.818776834601,-0.573969633971,-0.0120042201521,0.0,-0.00861666169074,0.00862102298679,-0.999925712793,0.0,0.655365672122,0.252748352824,0.303430275142,1.0,-0.01594,-0.0209497142857,0.798
0.460336350637,0.512351206979,-0.124124868087,-1.41160904355,0.0762561413563,1.91454493039,0.15191587929,-0.0156248115721,-0.0846866601846,-0.000403850413516,-0.137995445112,-0.00790158950221,0.0551060185476,-0.0192513547216,0.574006123602,0.818836674249,0.00205374594433,0.0,0.818793259749,-0.573945497413,-0.0120378856072,0.0,-0.00867849106587,0.00859157880473,-0.999925431503,0.0,0.655081666319,0.252399291288,0.303401061498,1.0,-0.01628,-0.0213965714286,0.815
0.460126453264,0.510821640633,-0.124128064241,-1.41405665084,0.0761148582707,1.91546918281,0.151570581619,-0.00692134869401,-0.0813738976368,-0.000128272963539,-0.134166863562,-0.00668263478742,0.0510407742292,-0.0234017756252,0.573987667898,0.818849593786,0.00206076651662,0.0,0.818806187393,-0.573926931366,-0.012043746981,0.0,-0.00867945502634,0.00860049620319,-0.999925346476,0.0,0.654784408951,0.252029444776,0.303387446274,1.0,-0.01664,-0.0218697142857,0.833
0.459949651009,0.509496705718,-0.124131122624,-1.41615425254,0.0759826204033,1.91624996794,0.15127603358,-0.0125641193937,-0.086720578759,-0.00153426360123,-0.140570849781,-0.00256178414011,0.0482481151867,-0.0264440376646,0.573973406812,0.818859592795,0.00205972352527,0.0,0.818816180259,-0.573912683937,-0.0120432994929,0.0,-0.00867983697584,0.00859923415043,-0.999925354015,0.0,0.654511103877,0.25168429775,0.303381722578,1.0,-0.01696,-0.0222902857143,0.849
0.459720245746,0.507908346074,-0.124139176926,-1.41866109093,0.0758217755822,1.91714835401,0.150936630234,-0.00730695217207,-0.0898939035477,-0.00356203875237,-0.138751460549,-0.00879048515429,0.0454588867701,-0.0155791874307,0.573969334671,0.81886249343,0.00204122803936,0.0,0.818818859322,-0.573908711058,-0.0120504726641,0.0,-0.0086963689717,0.00858816314102,-0.999925305521,0.0,0.654216907944,0.251315667336,0.303380379845,1.0,-0.0173,-0.0227371428571,0.866
0.459503274394,0.506358695079,-0.124139791908,-1.42109637749,0.0756670237596,1.91804531067,0.1505988849,-0.0153823488254,-0.0918760587976,-0.000235225431031,-0.151215844745,-0.0114439885978,0.0565863299495,-0.0193388909571,0.573955101676,0.818872454588,0.00204726118769,0.0,0.818828899082,-0.573894453872,-0.0120472712495,0.0,-0.00869043405571,0.00859111482496,-0.999925331763,0.0,0.653916599271,0.250940709623,0.303382611046,1.0,-0.01764,-0.023184,0.883
0.459289609384,0.504852835491,-0.124149471462,-1.42340403904,0.0755230879721,1.91893754098,0.150282389358,-0.0131558577338,-0.0890793473514,-0.000573892063375,-0.143199044058,-0.014614783374,0.0622314671129,-0.0111625064458,0.573958227396,0.818870080571,0.00211925723115,0.0,0.81882755767,-0.573897367276,-0.0119995639448,0.0,-0.00861001351821,0.00862272068803,-0.999925755421,0.0,0.653644462408,0.250578620809,0.303414266796,1.0,-0.01796,-0.0236045714286,0.899
0.459062303308,0.503190851549,-0.124154335486,-1.42588186146,0.0753698245669,1.91987892827,0.149934083924,-0.0138649780179,-0.0997396842878,-0.00186873922888,-0.146090946789,-0.00982578366073,0.0559815357157,-0.024719202722,0.573948683094,0.818876490061,0.00222488243334,0.0,0.818835389389,-0.573887434747,-0.0119400262032,0.0,-0.00850073834176,0.00867494180857,-0.999926238696,0.0,0.653347239463,0.250194230038,0.303477466434,1.0,-0.0183,-0.0240514285714,0.916
0.458828390017,0.501476671443,-0.124165384695,-1.42840839269,0.0752008619989,1.92079830659,0.149581882075,-0.0124704229785,-0.103955564457,-0.00299995546699,-0.15444306337,-0.0165476271397,0.0552507076693,-0.0220978732565,0.573943082115,0.81888018372,0.00230870196929,0.0,0.818840301938,-0.573881630119,-0.0118819794275,0.0,-0.00840515767228,0.00871020581031,-0.999926740136,0.0,0.653038052705,0.249792978336,0.303551489876,1.0,-0.01864,-0.0244982857143,0.933
0.458607860025,0.499874384727,-0.124162976769,-1.43084958369,0.0750506039082,1.92165622444,0.14923257985,-0.00721719832477,-0.0998988059977,-0.000476718912994,-0.15555528817,-0.0122034728487,0.0537929002367,-0.0196266871558,0.573919589321,0.818896593669,0.00232825511569,0.0,0.818856852214,-0.573857944728,-0.0118853588782,0.0,-0.00839695387178,0.00872791598092,-0.999926654634,0.0,0.652725723941,0.24941596891,0.30358177177,1.0,-0.01896,-0.0249188571429,0.949
0.458339401145,0.49809030502,-0.124157934178,-1.43362886476,0.0748761352339,1.92270385222,0.148838803015,-0.0194355218035,-0.0992633508581,0.00147175274544,-0.154150089163,-0.00644119659295,0.0618801643851,-0.0267660512686,0.573907671025,0.818904823688,0.00237102933568,0.0,0.818865626216,-0.573845847176,-0.0118649392114,0.0,-0.0083558114904,0.00875110253724,-0.99992679663,0.0,0.652386009161,0.248980498419,0.303593721996,1.0,-0.01932,-0.025392,0.967
0.458096549793,0.496507536164,-0.124157934323,-1.43613847391,0.0747169873376,1.92360170353,0.148458904242,-0.0114546443423,-0.100780595995,-0.0010339824037,-0.157811258351,-0.0182949202487,0.0582716230197,-0.0288881584193,0.573884812072,0.818920937147,0.00233839199522,0.0,0.818881274092,-0.573823076269,-0.0118862518874,0.0,-0.00839223882313,0.00873637304924,-0.999926620364,0.0,0.652049634054,0.248550368344,0.303578306142,1.0,-0.01966,-0.0258388571429,0.984
0.457828558419,0.494836465155,-0.124168513714,-1.43888840532,0.0745452357705,1.92453420828,0.148071698814,-0.0190431345325,-0.0956103664571,0.000932657174833,-0.160243800566,-0.00928708033112,0.0578775308811,-0.0212397392165,0.573881388847,0.818923671422,0.00221784143886,0.0,0.818882273176,-0.573819967927,-0.0119672046568,0.0,-0.00852774965649,0.0086840742634,-0.999925929427,0.0,0.6517109698,0.248131446012,0.303516781651,1.0,-0.01998,-0.0262594285714,1.0
0.457543414922,0.492879711183,-0.124209692309,-1.44192626622,0.0743684453972,1.92563545583,0.147648934725,-0.0152262907982,-0.133750020723,-0.0102878962845,-0.202934614027,-0.00647409868216,0.077256464365,-0.0227919427369,0.573903367149,0.818908229258,0.00223251623909,0.0,0.818867024902,-0.573841886104,-0.0119596063086,0.0,-0.00851287259458,0.0086919596082,-0.99992598768,0.0,0.65133437936,0.24763336465,0.303529865754,1.0,-0.0282085714286,-0.037074122449,1.017
0.457176962695,0.490073407053,-0.124251727133,-1.44634929674,0.0741308665459,1.92730980207,0.146985281825,-0.0287119637037,-0.162994103793,-0.000650382677369,-0.27906676092,-0.0098409621808,0.0968316097594,-0.0450664751795,0.573848391584,0.818946597156,0.00228940698744,0.0,0.818905968581,-0.573786516573,-0.0119496829427,0.0,-0.0084726844481,0.00873228350665,-0.999925977682,0.0,0.650779183097,0.24695789673,0.303523408428,1.0,-0.0374657142857,-0.0492406530612,1.035
0.456689197183,0.486867110008,-0.124272337219,-1.45144152095,0.0738410081675,1.92919265598,0.146241598541,-0.033941857105,-0.217974414799,-0.00287100097768,-0.334957226533,-0.0134043105367,0.125370797319,-0.0452405495913,0.573829046857,0.818960137055,0.00229473293932,0.0,0.818919323819,-0.573766890837,-0.0119767673907,0.0,-0.00849201677749,0.0087519866661,-0.999925641426,0.0,0.650137069243,0.24614821831,0.303491928247,1.0,-0.0456942857143,-0.0600553469388,1.051
0.456102450335,0.482983293877,-0.124376488872,-1.4575139219,0.0734726916485,1.93141780905,0.145300417238,-0.0404355855511,-0.25003868714,-0.00425597315181,-0.406338406116,-0.0212674417861,0.14418332437,-0.0668963941046,0.573814061474,0.818970597931,0.00230856673016,0.0,0.81893018671,-0.573752080198,-0.011943477911,0.0,-0.00845697510545,0.00874405890184,-0.999926007766,0.0,0.649383201904,0.245129189385,0.303493657418,1.0,-0.0539228571429,-0.0708700408163,1.067
0.455290035967,0.477809318703,-0.124499586511,-1.46564934086,0.0729892899119,1.93425726627,0.144096389194,-0.0490716201581,-0.307093549913,-0.0028338958766,-0.478627456901,-0.0265263794426,0.172303251193,-0.0621548222197,0.573848523096,0.818946756336,0.00219766404263,0.0,0.818904774607,-0.573786864291,-0.0120146324922,0.0,-0.00857851871132,0.00869442408328,-0.999925405221,0.0,0.648336062711,0.243749614614,0.303457461886,1.0,-0.06318,-0.0830365714286,1.085
0.454444749621,0.472526983243,-0.124602271391,-1.47383937053,0.072490672934,1.93719699741,0.142912492869,-0.0542624600308,-0.3390683585,-0.00897458055738,-0.535460579958,-0.02603703587,0.186775662971,-0.083832761687,0.573905769327,0.818906594091,0.00221472083427,0.0,0.818864850535,-0.573844048206,-0.0120046573684,0.0,-0.0085599535152,0.00870326673227,-0.999925487396,0.0,0.647290851458,0.242361321483,0.303471772298,1.0,-0.0714085714286,-0.0938512653061,1.101
0.453403405253,0.466188947291,-0.124659891755,-1.48341531184,0.0719189674688,1.94078630469,0.141380420223,-0.0601031195222,-0.391167798417,-0.00171846772227,-0.583540280564,-0.0357601172682,0.222452856046,-0.0988490866324,0.573847741637,0.818946371919,0.00252115850629,0.0,0.818908539504,-0.573784722595,-0.0118592978903,0.0,-0.00826568588666,0.00887020032081,-0.99992649629,0.0,0.646086914282,0.240756275783,0.303602617061,1.0,-0.0801514285714,-0.105341877551,1.118
0.452275390606,0.459666625568,-0.124710218415,-1.49355392247,0.0712620447887,1.94429363045,0.139831608169,-0.0720595410875,-0.420229801896,-0.0041826947048,-0.66018022363,-0.0458654383276,0.223750076204,-0.0964431900888,0.573847190059,0.818947091579,0.00241050973768,0.0,0.818907562605,-0.573784331252,-0.0119453764685,0.0,-0.00839968031873,0.00882897535967,-0.999925744525,0.0,0.644648769186,0.238899895071,0.303572193909,1.0,-0.0888942857143,-0.116832489796,1.135
0.45092504751,0.452038098241,-0.124840045305,-1.50530298333,0.0704714364108,1.94833501257,0.137985760339,-0.0794537539115,-0.46976554883,-0.0066081300804,-0.692674879487,-0.0426535652429,0.255695033178,-0.109060660311,0.573847914463,0.818946846132,0.00231973670235,0.0,0.818906294154,-0.573785587502,-0.011971961887,0.0,-0.00847353208454,0.00876990119501,-0.999925641279,0.0,0.643174570502,0.236936743174,0.303580894336,1.0,-0.0971228571428,-0.127647183673,1.151
0.449469980429,0.443659548161,-0.124934097516,-1.51784388149,0.069635780327,1.95295395583,0.136067931755,-0.0863831048403,-0.505329297625,-0.00124947506256,-0.774778156581,-0.0521485161431,0.26516964258,-0.113430989137,0.573875884625,0.81892615656,0.00267694783819,0.0,0.818890732982,-0.573812702947,-0.011734405519,0.0,-0.00807370038026,0.00892639198584,-0.999927564821,0.0,0.641540070299,0.234758989465,0.30375627036,1.0,-0.105865714286,-0.139137795918,1.168
0.447823744881,0.434748363639,-0.124979460654,-1.53143596257,0.0687210576682,1.95762311776,0.133850572671,-0.100267673329,-0.544431316442,-0.00466371572493,-0.773515366276,-0.0560973108313,0.276741365509,-0.128779971942,0.573789485534,0.818986754031,0.00265893090081,0.0,0.818950766705,-0.573726016671,-0.0117833106256,0.0,-0.00812503391873,0.00893884534203,-0.999927037772,0.0,0.639668961235,0.232368753757,0.303781400192,1.0,-0.114608571429,-0.150628408163,1.185
0.446133908073,0.425778958947,-0.125046732162,-1.54497778642,0.0677698525313,1.96244102097,0.131635500686,-0.110399538849,-0.572806035186,-0.00279931348208,-0.878756798125,-0.0719446881153,0.299030082452,-0.142400451074,0.573729924226,0.819027910962,0.00282878311697,0.0,0.818994470479,-0.573666243881,-0.0116552502317,0.0,-0.00792335041261,0.00900389691619,-0.999928072593,0.0,0.637825882166,0.229954773769,0.303863950537,1.0,-0.122837142857,-0.161443102041,1.201
0.444145860181,0.415669993342,-0.125146244306,-1.56023057696,0.0666673551433,1.96770302637,0.12912841402,-0.121198497709,-0.620985201848,-0.00961069852351,-0.913295659401,-0.0713335274512,0.331368404955,-0.147441713495,0.573712055687,0.81904026108,0.00287659358336,0.0,0.819007809882,-0.573648639294,-0.0115841654686,0.0,-0.00783789481863,0.00900210131336,-0.999928762251,0.0,0.635703379399,0.227161478539,0.303924057788,1.0,-0.13158,-0.172933714286,1.218
0.441853251159,0.404377774474,-0.125233301817,-1.57740105385,0.0655145884129,1.97357445034,0.126265421009,-0.134586031056,-0.655278328508,-0.00574271355797,-0.980315188862,-0.0678212913942,0.330578466699,-0.167295643058,0.573691597847,0.819054604015,0.00287282145176,0.0,0.819021500856,-0.573627505445,-0.0116624625539,0.0,-0.00790441643051,0.0090437334344,-0.999927862941,0.0,0.633253712536,0.224018222261,0.303898163941,1.0,-0.140837142857,-0.185100244898,1.236
0.439728038259,0.394382453909,-0.125337501755,-1.59224762004,0.0644939620794,1.97867047369,0.123726647767,-0.141399435977,-0.684496817843,-0.0102576718871,-1.00966736025,-0.0771152614875,0.349590125601,-0.166528424078,0.573734612889,0.819023749836,0.00307214551933,0.0,0.818993074498,-0.573669671512,-0.0115844211064,0.0,-0.00772566804637,0.00916262567214,-0.999928177593,0.0,0.631141582862,0.221204248935,0.304006977015,1.0,-0.148551428571,-0.195239020408,1.251
0.436984452101,0.382027447074,-0.125483222087,-1.61093916287,0.0630615328914,1.98485234573,0.120404512193,-0.161179788957,-0.698422002725,-0.011159359146,-1.04291928372,-0.0715473858456,0.353063920355,-0.190242329704,0.573678499055,0.819063814261,0.0028626546153,0.0,0.819030767412,-0.573614658103,-0.0116435794946,0.0,-0.00789492598587,0.00902444716307,-0.999928112165,0.0,0.628396479648,0.217586722919,0.303936943924,1.0,-0.157808571429,-0.20740555102,1.269
0.434164600098,0.369667660092,-0.125600397814,-1.62933902454,0.061694173586,1.99098824372,0.117147136044,-0.167193564984,-0.722467068183,-0.0132851536486,-1.10744370349,-0.0844711485513,0.362379810562,-0.188998541413,0.573698307397,0.819049796223,0.00290349744699,0.0,0.819017266168,-0.57363431172,-0.0116250177481,0.0,-0.00785607391189,0.00904744173823,-0.999928210373,0.0,0.625665169986,0.21399725305,0.303964698631,1.0,-0.166551428571,-0.218896163265,1.286
0.431267362182,0.357565396061,-0.12577524087,-1.64716243793,0.0602689813668,1.99689970798,0.113939744197,-0.179938406506,-0.776278815207,-0.00941867627634,-1.14446103674,-0.0903295679859,0.367510743308,-0.208106434106,0.573796883545,0.818980502344,0.00296986777954,0.0,0.818949685171,-0.573733651937,-0.0114828870581,0.0,-0.00770049578264,0.00902119077695,-0.999929657767,0.0,0.623008669089,0.210384225789,0.304038244911,1.0,-0.17478,-0.229710857143,1.302
0.427903738526,0.344262694321,-0.125958717091,-1.66675755631,0.058833021741,2.00325515838,0.110210064315,-0.199757846644,-0.803391947694,-0.00820503616204,-1.15747366366,-0.0891750774399,0.396579322188,-0.214354565689,0.57389286265,0.818913087224,0.00301407933395,0.0,0.818882333802,-0.573828882693,-0.0115275181502,0.0,-0.00771061815312,0.00908391160314,-0.999929011939,0.0,0.620019723566,0.206341211197,0.304061835652,1.0,-0.183522857143,-0.241201469388,1.319
0.424185333112,0.32971673933,-0.126078217931,-1.68813170217,0.0571650068326,2.0100906149,0.106114916421,-0.205103370993,-0.846539534618,-0.00876383714433,-1.19220795316,-0.087190209282,0.369007630738,-0.23858043333,0.573882711694,0.818920309239,0.00298449913381,0.0,0.818888827397,-0.573818422699,-0.0115867612858,0.0,-0.00777622326613,0.00909359006229,-0.999928415924,0.0,0.616656751073,0.201958880107,0.304048256211,1.0,-0.19278,-0.253368,1.337
0.420665940169,0.316251770733,-0.126161618987,-1.70770936879,0.0554825658745,2.01635713609,0.102283272846,-0.228724435068,-0.837121441625,-0.00398781836948,-1.24872716022,-0.111973748863,0.382425090862,-0.236463334849,0.57379143384,0.818984172297,0.00301046179412,0.0,0.818953759492,-0.573727935017,-0.0114779482695,0.0,-0.00767321966785,0.00905155166964,-0.999929593078,0.0,0.613530421158,0.197899614134,0.304078337794,1.0,-0.201008571429,-0.264182693878,1.353
0.416669736207,0.301503592165,-0.12625692631,-1.72894596689,0.0537162185137,2.02300465616,0.0978750554637,-0.245914792011,-0.867658306973,-0.00745262481431,-1.2734709432,-0.113655913394,0.381500182178,-0.25007190876,0.573618557943,0.819104972164,0.00308892553848,0.0,0.819075578464,-0.573554847532,-0.0114359318518,0.0,-0.00759570666575,0.00909010122243,-0.999929835188,0.0,0.610064571804,0.193420567817,0.304135192267,1.0,-0.209751428571,-0.275673306122,1.37
0.412319574185,0.286264048944,-0.126405663803,-1.75071823971,0.0519586785915,2.02965735093,0.0933871832927,-0.261365938556,-0.90406647291,-0.00811737412784,-1.29261936352,-0.104580772753,0.399138603099,-0.27106125452,0.573690164999,0.819054555307,0.00315862548604,0.0,0.819025461735,-0.573625511482,-0.0114809628406,0.0,-0.00759181291979,0.0091736867854,-0.99992910141,0.0,0.606232164278,0.188401749284,0.304183592931,1.0,-0.219008571429,-0.287839836735,1.388
0.407950132556,0.271616839447,-0.126564000295,-1.77166404381,0.0501549156446,2.03594034685,0.0888565104483,-0.283352242594,-0.941952563288,-0.015737504982,-1.30344844411,-0.115515305222,0.409313170542,-0.291547238917,0.573672676228,0.819066984532,0.00311163956731,0.0,0.81903709088,-0.573607939253,-0.0115292102646,0.0,-0.00765848177506,0.00916271753706,-0.99992869359,0.0,0.602901182085,0.184027108821,0.304177917883,1.0,-0.226722857143,-0.297978612245,1.403
0.402632551816,0.254646357062,-0.126792090951,-1.79562831673,0.0480253065577,2.0430394358,0.0835677415373,-0.303616211174,-0.959154753061,-0.018415644092,-1.33908368917,-0.122317405711,0.405364744878,-0.305961537051,0.573789086954,0.818985410651,0.00311893171498,0.0,0.818955795402,-0.573724532513,-0.0115027331983,0.0,-0.00763130995828,0.00915458623693,-0.999928975807,0.0,0.598793972278,0.178521820971,0.304211187639,1.0,-0.23598,-0.310145142857,1.421
0.397336740034,0.2382304845,-0.126949550906,-1.81872094127,0.0459653535113,2.04962942356,0.0782683656161,-0.310211357219,-0.963348907317,-0.00785834864546,-1.34670798621,-0.123749281169,0.386555533099,-0.319694008582,0.573774058188,0.818996349878,0.00300930839643,0.0,0.818964706791,-0.573709136685,-0.0116353949292,0.0,-0.00780302848674,0.00914078112402,-0.999927776825,0.0,0.594699135658,0.173196480571,0.304184879394,1.0,-0.244722857143,-0.321635755102,1.438
0.392128828282,0.222366089137,-0.127063922202,-1.84079531043,0.043944195845,2.05601166907,0.0730415840273,-0.333583789623,-0.982081478784,-0.00469781264399,-1.39851132299,-0.136746772818,0.382171373152,-0.327700464878,0.573654046405,0.819080062508,0.00310373101459,0.0,0.819049502076,-0.573588663538,-0.0116062530871,0.0,-0.00772633433528,0.0092002605226,-0.999927826878,0.0,0.590729177399,0.168097017857,0.304202553096,1.0,-0.252951428571,-0.33245044898,1.454
0.38617823519,0.20508559798,-0.127251934318,-1.86450721319,0.0416573034296,2.06261552047,0.0672296812655,-0.361437568232,-1.01537583011,-0.0105134797316,-1.43002128631,-0.142000537777,0.384621908501,-0.345305735522,0.573611280733,0.819109800956,0.00315903370391,0.0,0.819080257198,-0.573546086717,-0.0115397392105,0.0,-0.00764060917451,0.00920700398991,-0.999928423523,0.0,0.586386332092,0.162411698344,0.304267566263,1.0,-0.261694285714,-0.343941061224,1.471
0.379807618527,0.187444520901,-0.127470972476,-1.88854834733,0.0393419814339,2.06908333824,0.0610540626414,-0.389930658817,-1.04907157994,-0.0146461581568,-1.43818787327,-0.13371216908,0.384752459214,-0.37817084799,0.573585953397,0.819127472605,0.00317562440648,0.0,0.819097861369,-0.573520369989,-0.011568301905,0.0,-0.00765477599543,0.00923674047313,-0.999928040926,0.0,0.58161368091,0.156137430705,0.30430769268,1.0,-0.270951428571,-0.356107591837,1.489
0.37333487014,0.170503160272,-0.127737605804,-1.91135839307,0.0371491037393,2.07512070815,0.0550111384979,-0.408385379389,-1.06567843304,-0.00789844325914,-1.43172482289,-0.132446068731,0.361983961739,-0.382209046378,0.573754759752,0.819008830671,0.00327991549143,0.0,0.818980141615,-0.57368830244,-0.0115761040961,0.0,-0.00759942864158,0.00932821007512,-0.999927613971,0.0,0.577559122757,0.150685059518,0.304364033413,1.0,-0.278665714286,-0.366246367347,1.504
0.365756736279,0.1510892301,-0.127969132425,-1.93731708819,0.0344356066688,2.08180517982,0.047851273751,-0.426066001489,-1.08030444006,-0.0118877377119,-1.44127259409,-0.144889437448,0.363115684465,-0.392864062452,0.573687124424,0.819056173204,0.0032886635959,0.0,0.819027997766,-0.573621141409,-0.0115183290695,0.0,-0.00754785688339,0.00930160372701,-0.999928252438,0.0,0.57249930004,0.144046711982,0.304397216983,1.0,-0.287922857143,-0.378412897959,1.522
0.358586188762,0.133443677596,-0.128198301266,-1.96066598904,0.0320050816684,2.08760636069,0.0411556420776,-0.455663079519,-1.11738293797,-0.00990535769453,-1.45890987462,-0.146866276766,0.354783282546,-0.421874810348,0.573671809489,0.819066783713,0.00331748657263,0.0,0.81903878451,-0.573605497074,-0.0115303988081,0.0,-0.00754138332715,0.00933199458826,-0.999928018117,0.0,0.567841745926,0.137949855373,0.304422610361,1.0,-0.296151428571,-0.389227591837,1.538
0.350949117594,0.115514720807,-0.12853577018,-1.98412973624,0.0294389802138,2.09331768731,0.0341325935176,-0.48029574978,-1.15503187229,-0.0287695767676,-1.47716008215,-0.178246342602,0.377615830542,-0.450104829968,0.573751092634,0.819011061381,0.00336332248017,0.0,0.81898416495,-0.573685266907,-0.0114411099027,0.0,-0.00744105027336,0.00931903658086,-0.999928890636,0.0,0.563101195294,0.131595359809,0.304460153511,1.0,-0.30438,-0.400042285714,1.554
0.342394315024,0.0961591185206,-0.128851626015,-2.00917956326,0.026638229843,2.09915334597,0.0262803362432,-0.507344756363,-1.17450683908,-0.0155394012808,-1.49638773706,-0.172139891975,0.356368126358,-0.474031208701,0.573741183873,0.819017883464,0.0033922551318,0.0,0.818991596333,-0.573675571892,-0.0113951854897,0.0,-0.00738694902041,0.00931629502645,-0.999929317318,0.0,0.557583281584,0.124309476022,0.304493741355,1.0,-0.313637142857,-0.412208816326,1.572
0.333396781753,0.0764566187974,-0.129141406455,-2.0344211713,0.0239161443317,2.10468552734,0.0179974585905,-0.543029439524,-1.20314824349,-0.0262217013744,-1.48414740556,-0.180379657134,0.355258376827,-0.497839123145,0.57371217955,0.819038114172,0.00341313221343,0.0,0.819010861718,-0.573644955014,-0.0115507955072,0.0,-0.00750276014576,0.00942240583176,-0.999927460798,0.0,0.552504221904,0.117706646953,0.304497902006,1.0,-0.31998,-0.420545142857,1.588
0.324455674991,0.0580406381016,-0.129460247645,-2.05794546765,0.0211357896479,2.10967768038,0.00998268899094,-0.569608627561,-1.16464001945,-0.0283424995344,-1.43736429138,-0.171434692366,0.314017435762,-0.51177146438,0.573768109678,0.818999633441,0.00324093222575,0.0,0.81897002073,-0.573701264598,-0.0116495083973,0.0,-0.00768176408855,0.00933852253941,-0.999926888576,0.0,0.54738466806,0.110933170082,0.304412191742,1.0,-0.31998,-0.420545142857,1.604
0.314584713417,0.0384495629069,-0.129721565623,-2.08250483371,0.0182706621925,2.1145370444,0.00130179820267,-0.578216890997,-1.15126413668,-0.00438405879378,-1.40490038963,-0.151526937071,0.277760981978,-0.501587025044,0.573904188963,0.818904618267,0.00315515018317,0.0,0.818872800866,-0.573836306575,-0.0118311521212,0.0,-0.00787819706339,0.00937379490487,-0.99992503018,0.0,0.541889497927,0.103741255832,0.304382899559,1.0,-0.31998,-0.420545142857,1.621
0.303855415092,0.0178897519868,-0.129982155434,-2.10774734649,0.0151653090486,2.119423489,-0.00823587589251,-0.598778277971,-1.13296905855,-0.0143030529916,-1.35799614202,-0.16144972871,0.257737752077,-0.525418673435,0.573877185582,0.818923120259,0.00326280170954,0.0,0.818892873532,-0.57380913722,-0.0117593631697,0.0,-0.00775793830967,0.00942049668152,-0.999925531545,0.0,0.536144657792,0.0961737707077,0.304450949801,1.0,-0.31998,-0.420545142857,1.639
0.293917368145,-0.00028060126696,-0.130284573015,-2.12975745709,0.0124033742508,2.12337816205,-0.0169528942278,-0.631324633977,-1.11247694054,-0.0173582404524,-1.36828180571,-0.167465865826,0.237908242793,-0.558734260735,0.573984837671,0.818847425432,0.00332368608858,0.0,0.818817863886,-0.57391643815,-0.0117462634144,0.0,-0.00771102793506,0.00946385285095,-0.999925484992,0.0,0.531015629808,0.0893471922398,0.304508087372,1.0,-0.31998,-0.420545142857,1.655
0.283252515645,-0.0193303993342,-0.130462747828,-2.15250639161,0.00950013111821,2.12734184562,-0.0264462508314,-0.636755547392,-1.10273202889,-0.0153650844717,-1.35758812067,-0.181596401306,0.214141467944,-0.570474030064,0.573836372164,0.81895072058,0.00350458913522,0.0,0.818923703991,-0.573767645938,-0.0116362545013,0.0,-0.00751884391166,0.00954748100279,-0.99992615357,0.0,0.525593303301,0.0822916501743,0.304591650329,1.0,-0.31998,-0.420545142857,1.672
0.272155499973,-0.0381720144891,-0.130752480779,-2.17461885865,0.00653914826748,2.13088600776,-0.0361084645449,-0.659077645879,-1.09710179839,-0.0250598085582,-1.30364310784,-0.178576901493,0.208128184128,-0.58699380892,0.573914306787,0.818895442168,0.00365652318955,0.0,0.818871060916,-0.573845969746,-0.011477608692,0.0,-0.00730082091266,0.00958156933442,-0.999927443139,0.0,0.520212718077,0.0751146436634,0.304707242791,1.0,-0.31998,-0.420545142857,1.689
0.26143389393,-0.0557463289923,-0.130955823758,-2.19505556614,0.00387784206033,2.13394198043,-0.0455205466473,-0.666694926276,-1.08945642226,-0.00717701925921,-1.2612902242,-0.177055143341,0.193274926974,-0.59047511899,0.573905473562,0.818900820987,0.00383401925291,0.0,0.818878445409,-0.573836245958,-0.0114368426809,0.0,-0.00716567860735,0.00970344916176,-0.999927245416,0.0,0.515112280611,0.0684194718435,0.304779503727,1.0,-0.31998,-0.420545142857,1.705
0.249766483194,-0.0741108831681,-0.131215728991,-2.21634292304,0.000957893331462,2.1368357219,-0.0557929413894,-0.699565749688,-1.09542713251,-0.0192654502384,-1.22468996228,-0.179031100966,0.170842863895,-0.618381899341,0.573846821958,0.818942087922,0.00379848128496,0.0,0.818918952607,-0.573777299347,-0.011493768548,0.0,-0.00723338774464,0.00970649774914,-0.999926728317,0.0,0.509660963157,0.0612907813567,0.30475625584,1.0,-0.31998,-0.420545142857,1.722
0.237704877213,-0.0922020242275,-0.13149476924,-2.23718391461,-0.00188701616741,2.13930778379,-0.0663621620452,-0.71012153164,-1.07355333063,-0.00539858242129,-1.19978718709,-0.164447696385,0.134182956273,-0.629097224722,0.573870007948,0.818926554962,0.00364121654223,0.0,0.818899894071,-0.573799017258,-0.0117642757723,0.0,-0.00754489661893,0.00973314426487,-0.999924167344,0.0,0.504169975879,0.0541293384145,0.304655497132,1.0,-0.31998,-0.420545142857,1.739
0.226191669125,-0.109178667708,-0.131688396644,-2.2563141277,-0.00465545209034,2.14145685643,-0.0765054832628,-0.734680171386,-1.04659014618,-0.0113795463589,-1.1966359019,-0.172293692378,0.1267406559,-0.634344080832,0.573727078162,0.819026820722,0.00361297991137,0.0,0.81899980703,-0.573656220819,-0.0117729903558,0.0,-0.00756993220432,0.00971370022712,-0.999924167202,0.0,0.499029152909,0.0474928632774,0.304646138583,1.0,-0.31998,-0.420545142857,1.755
0.212661472288,-0.128056837037,-0.132063240177,-2.27730333172,-0.00771128489137,2.14348136585,-0.0883019829712,-0.757586642946,-1.05019421416,-0.0115925840615,-1.15479939932,-0.164724337164,0.101499712276,-0.666841320859,0.573834577169,0.818951675983,0.00357454206885,0.0,0.818923515245,-0.573763010591,-0.0118756371212,0.0,-0.00767478066818,0.00974211532838,-0.999923091508,0.0,0.493251092972,0.0398517442928,0.304624192168,1.0,-0.31998,-0.420545142857,1.773
0.19965537575,-0.145744212817,-0.132311931395,-2.29657309801,-0.0105529371658,2.14515852531,-0.099796256989,-0.772327204645,-1.03842447609,-0.0180205521394,-1.11823153219,-0.16814141984,0.0991103215,-0.679307021947,0.573729252519,0.819025031199,0.00367287013082,0.0,0.818998080707,-0.573657269927,-0.0118417633253,0.0,-0.00759187809206,0.00980222833221,-0.999923136899,0.0,0.487818128724,0.0327620740614,0.304661597147,1.0,-0.31998,-0.420545142857,1.79
0.186944762377,-0.162097408667,-0.132715638253,-2.31434822981,-0.0132960210201,2.14636401028,-0.110871579996,-0.796068629138,-1.00682048668,-0.016833494989,-1.09082209965,-0.171628820566,0.0651584116995,-0.693048152892,0.573877202306,0.81892199532,0.00353116934753,0.0,0.818892404288,-0.573804695378,-0.0120061926908,0.0,-0.00780608401409,0.00978191636092,-0.999921686516,0.0,0.482659524688,0.0259273110369,0.304594162127,1.0,-0.31998,-0.420545142857,1.806
0.173273384278,-0.179370903387,-0.132979969386,-2.33257270979,-0.0160527983676,2.14743877997,-0.122981367264,-0.810374377772,-1.00621330119,-0.0191309560546,-1.0647504622,-0.175069379558,0.0497679355605,-0.720907565987,0.573799484458,0.818975762173,0.00368775144168,0.0,0.818948059295,-0.573726219209,-0.0119602871812,0.0,-0.00767957347358,0.00988307378465,-0.999921671434,0.0,0.477252459007,0.0188563923648,0.304663826009,1.0,-0.31998,-0.420545142857,1.823
0.159090393068,-0.196524179737,-0.133400176834,-2.35035343607,-0.0188760129112,2.14830162228,-0.13544626438,-0.836553299957,-1.00630383586,-0.0177336216691,-1.03740782154,-0.160555041565,0.0481578188695,-0.732113176745,0.573915303063,0.818893689325,0.00388553677588,0.0,0.81886919117,-0.573842157951,-0.0117971357504,0.0,-0.00743105828074,0.00995249471276,-0.999922860636,0.0,0.471852828973,0.0116349150592,0.304761908599,1.0,-0.31998,-0.420545142857,1.84
0.145558997545,-0.212296612286,-0.133664510905,-2.36678371608,-0.0213866549113,2.14871988414,-0.147533965914,-0.853577826879,-0.988161257475,-0.0255466589881,-1.00477798607,-0.150823130367,0.0260351530924,-0.760150952232,0.573815888591,0.818963534542,0.00384733565339,0.0,0.81893684621,-0.573740647687,-0.0120356973784,0.0,-0.00764957169399,0.0100571929444,-0.999920165275,0.0,0.466681605803,0.00498879939497,0.304701240696,1.0,-0.31998,-0.420545142857,1.856
0.129850651866,-0.229813928807,-0.134021572044,-2.3845616959,-0.0243810779666,2.14903373259,-0.161405234764,-0.872664661933,-0.963516234011,-0.0112424013902,-0.97733006719,-0.166677524316,0.0044438920658,-0.783519676609,0.573827772543,0.818955068092,0.00387695833785,0.0,0.818929356477,-0.573753201603,-0.011946533036,0.0,-0.00755940205903,0.0100304005546,-0.999921120142,0.0,0.460959735943,-0.00258070893074,0.304738415186,1.0,-0.31998,-0.420545142857,1.874
0.113745642875,-0.247223977464,-0.134434024569,-2.40186023779,-0.0272151921915,2.14914546122,-0.175780935973,-0.905359477647,-0.974293380143,-0.036166269297,-0.941018405762,-0.154615567446,0.008409819858,-0.79941190846,0.573842192103,0.818943789716,0.00411761460859,0.0,0.818921664037,-0.57376740553,-0.0117906498122,0.0,-0.00729346681131,0.0101381713329,-0.999922008371,0.0,0.455234781228,-0.0101422993067,0.3048269924,1.0,-0.31998,-0.420545142857,1.892
0.0991059682282,-0.262295417966,-0.134729871688,-2.41694688561,-0.0297596918193,2.14901153438,-0.188925340595,-0.91955038246,-0.938007252145,-0.0215216196785,-0.940006491548,-0.161699930745,-0.00596213775089,-0.826754179268,0.573731709634,0.819021429723,0.00407061624344,0.0,0.818998170669,-0.573656378272,-0.011878678803,0.0,-0.00739389988039,0.0101491973582,-0.999921158911,0.0,0.45008099823,-0.0168189353077,0.304755338399,1.0,-0.31998,-0.420545142857,1.908
0.0840274180751,-0.277202149508,-0.13516740252,-2.43133343052,-0.0322708308687,2.14870652707,-0.202388167781,-0.954075772967,-0.911524217362,-0.0232089279258,-0.889102205006,-0.153951947396,-0.0317597925897,-0.861753369487,0.573838624607,0.818945554379,0.00426131117131,0.0,0.818925651805,-0.573763877508,-0.0116848869819,0.0,-0.00712443699386,0.0101951327908,-0.999922647841,0.0,0.445025349155,-0.0236049628139,0.304837123201,1.0,-0.31998,-0.420545142857,1.924
0.0677858266618,-0.292740765401,-0.135499603388,-2.44631007838,-0.0347737489352,2.14806228175,-0.217100859901,-0.970646990666,-0.892614611267,-0.0289015773279,-0.861109816462,-0.150846863804,-0.0429809875148,-0.873626217943,0.573750329528,0.819006923286,0.00435498295061,0.0,0.818987414585,-0.573674113078,-0.0117632324166,0.0,-0.00713596519718,0.0103160333182,-0.999921325634,0.0,0.439577250241,-0.0306662289103,0.304829259886,1.0,-0.31998,-0.420545142857,1.941
0.0519918347623,-0.30707035176,-0.135916171241,-2.45980104386,-0.0372474016965,2.14738300955,-0.231320459723,-0.989669483306,-0.887100866178,-0.00826867558271,-0.838887964812,-0.147258529709,-0.0486829781531,-0.89248130606,0.573800696573,0.818970958907,0.00448062281827,0.0,0.818954087509,-0.573725560331,-0.0115728508261,0.0,-0.00690731388847,0.0103101327389,-0.999922992124,0.0,0.434518012944,-0.0374481244358,0.304888538194,1.0,-0.31998,-0.420545142857,1.957
0.0338974599732,-0.322863700591,-0.136401710546,-2.47455727798,-0.0398813340594,2.14629372664,-0.247689870133,-1.02210909942,-0.866444121544,-0.0288362237679,-0.762137262241,-0.142540156703,-0.0527606535615,-0.924532577285,0.573886777367,0.818910099617,0.00457847237147,0.0,0.818894095724,-0.573810734002,-0.0115951900982,0.0,-0.00686837392377,0.0104038105764,-0.999922290063,0.0,0.428764810623,-0.04502517526,0.304898724345,1.0,-0.31998,-0.420545142857,1.975
0.0165275960543,-0.337449241855,-0.136737161596,-2.48798044498,-0.0423383347028,2.14517774913,-0.263654534545,-1.02826831822,-0.857482461039,-0.0194907723223,-0.790303023682,-0.150921932033,-0.0699428256694,-0.94917927271,0.573696650556,0.819042744024,0.00467798073903,0.0,0.819028455572,-0.573621001284,-0.011492725999,0.0,-0.00672977541207,0.0104249384636,-0.999923012427,0.0,0.423361607012,-0.0520833506491,0.304922281248,1.0,-0.31998,-0.420545142857,1.992
-0.000349044551841,-0.350800050599,-0.137176462211,-2.50015593068,-0.0446799327494,2.14382959757,-0.278987824825,-1.05396475825,-0.807715051403,-0.0219357514376,-0.743853579501,-0.139225032401,-0.0793420352886,-0.973054543875,0.57377738942,0.818986415152,0.00463746570926,0.0,0.818971213631,-0.573701245968,-0.0115662664855,0.0,-0.00681222642661,0.0104346140081,-0.999922353186,0.0,0.418226005669,-0.0588530521159,0.304903713399,1.0,-0.31998,-0.420545142857,2.008
-0.0185932359886,-0.364692347946,-0.137680537696,-2.51253726468,-0.0469524549788,2.14238082653,-0.295766471127,-1.08888829827,-0.795471402142,-0.0391363243035,-0.740236979483,-0.140314823701,-0.103611660132,-1.00453058909,0.573846455,0.818936783649,0.00485153291041,0.0,0.818924293948,-0.573769585167,-0.0114982964231,0.0,-0.00663284356754,0.0105714983383,-0.999922121372,0.0,0.412820971709,-0.0660166951404,0.304949480051,1.0,-0.31998,-0.420545142857,2.025
-0.0371223318543,-0.378157446447,-0.138055722212,-2.52454707692,-0.0493354934671,2.14065595011,-0.312916021267,-1.0991410289,-0.818748827527,-0.0226894374277,-0.676538924421,-0.140369217132,-0.10164387236,-1.02261662869,0.573692813754,0.819045013647,0.0047505756199,0.0,0.819030605049,-0.573615305976,-0.0116230651878,0.0,-0.00679494152123,0.0105591390925,-0.999921163568,0.0,0.407347430606,-0.0730957637634,0.304905585122,1.0,-0.31998,-0.420545142857,2.042
-0.0550610353562,-0.390485300483,-0.13850104799,-2.53518259302,-0.0514929084582,2.13910719405,-0.329407868553,-1.12066925636,-0.769108092733,-0.0280355431757,-0.663931987619,-0.134500367658,-0.101993523525,-1.03616168034,0.573789416596,0.81897655059,0.00488486308132,0.0,0.818964982969,-0.573713250397,-0.0114109548375,0.0,-0.00654291972714,0.0105482200152,-0.99992295966,0.0,0.402283814022,-0.0798698388306,0.304978289824,1.0,-0.31998,-0.420545142857,2.058
-0.075571098578,-0.403852323846,-0.138943617324,-2.54681186526,-0.0536979743739,2.13702294131,-0.348479146976,-1.14374936996,-0.739462351475,-0.0131756107327,-0.635534157368,-0.125175861577,-0.119746402516,-1.06777619978,0.573795771342,0.81897191632,0.00491527932664,0.0,0.818958976227,-0.573716685615,-0.0116664821443,0.0,-0.00673467313761,0.0107197966354,-0.999919861858,0.0,0.396473869758,-0.087392004568,0.304924988486,1.0,-0.31998,-0.420545142857,2.076
-0.0941078117027,-0.415382909341,-0.139363954176,-2.55640715257,-0.0556716503196,2.13530985943,-0.365866871566,-1.18256038619,-0.719172338257,-0.0425889873735,-0.585114157815,-0.115817532282,-0.108411187697,-1.09885557791,0.573727341195,0.819018604206,0.00511965146646,0.0,0.819009703469,-0.573649946318,-0.0113838312622,0.0,-0.00638680476774,0.0107244659513,-0.999922094243,0.0,0.391439254748,-0.094110970179,0.30503760726,1.0,-0.31998,-0.420545142857,2.092
-0.114146072802,-0.427006750361,-0.139712457756,-2.56632333161,-0.0578011263174,2.13324167399,-0.384706926719,-1.17865500845,-0.673077354359,-0.0111919830227,-0.577056574813,-0.128242467044,-0.133369695525,-1.10921476868,0.573550080946,0.81914364395,0.00497414551342,0.0,0.819131991112,-0.573471697085,-0.0115646305666,0.0,-0.00662068942296,0.0107075826702,-0.999920753932,0.0,0.385973524311,-0.101192645602,0.304970943883,1.0,-0.31998,-0.420545142857,2.109
-0.134593738791,-0.438210231543,-0.140162776157,-2.57573640116,-0.0597369199644,2.13115634645,-0.403900933093,-1.20725921788,-0.651254365461,-0.0331445564293,-0.546778108139,-0.106932631987,-0.119860475096,-1.15872280723,0.573591453716,0.819114511206,0.0050008656595,0.0,0.819101921225,-0.573510911202,-0.0117483734558,0.0,-0.00675534222077,0.0108351938898,-0.99991847864,0.0,0.380493559765,-0.108309534653,0.304921654917,1.0,-0.31998,-0.420545142857,2.126
-0.155414013931,-0.448969394273,-0.140592988045,-2.58429542759,-0.0616488782849,2.12921751535,-0.423567431243,-1.22422215343,-0.620678429368,-0.0195242969169,-0.502492894988,-0.123032716932,-0.117081793413,-1.17659616225,0.573575979305,0.819124210132,0.00518374771786,0.0,0.819115952467,-0.573498124051,-0.011388811389,0.0,-0.00635610391628,0.0107786466172,-0.999921707295,0.0,0.375150371373,-0.115481177575,0.305060739861,1.0,-0.31998,-0.420545142857,2.143
-0.175358212297,-0.458491994357,-0.141050773461,-2.59214034747,-0.0633357078219,2.12716713639,-0.442429502794,-1.25873201282,-0.584349548768,-0.0396902397485,-0.476597571587,-0.105422967332,-0.126082502255,-1.17008807336,0.573650111009,0.819072251431,0.00519075881224,0.0,0.819062419152,-0.573569423164,-0.0116454817928,0.0,-0.00656135677972,0.0109321978718,-0.99991871452,0.0,0.369968556226,-0.122210468204,0.305000997273,1.0,-0.31998,-0.420545142857,2.159
-0.198020159165,-0.468567838538,-0.14145083995,-2.60031934153,-0.0651313214064,2.12505498693,-0.464081294289,-1.27979404262,-0.547270385118,-0.0282890579105,-0.442621683676,-0.0830751599234,-0.11234832297,-1.22235677292,0.573548430643,0.819143143344,0.00523978253534,0.0,0.819133340177,-0.573466589517,-0.0117212891595,0.0,-0.0065967004327,0.0110150196457,-0.999917573046,0.0,0.364222382995,-0.129715153882,0.304969338935,1.0,-0.31518,-0.414236571429,2.177
-0.219550297607,-0.477278074154,-0.141694779512,-2.6070993171,-0.066611202117,2.12319632476,-0.484422765759,-1.25861632216,-0.49773096205,-0.0123884599255,-0.391166963704,-0.0808220123167,-0.107275236955,-1.19863646695,0.5736832853,0.819047756891,0.00538581479952,0.0,0.819040808642,-0.573602593817,-0.011531047071,0.0,-0.00635528325817,0.0110265833711,-0.999919009137,0.0,0.358976677198,-0.136737402913,0.305048329822,1.0,-0.306437142857,-0.402745959184,2.194
-0.238411687783,-0.484304258335,-0.141833062749,-2.61267832699,-0.0678194599945,2.12155228098,-0.502358370261,-1.25235437117,-0.4562962112,-0.00035959159133,-0.364106569359,-0.0736474101022,-0.103933692068,-1.18692581725,0.573706781888,0.81903113858,0.00541011575474,0.0,0.819024030959,-0.573625188956,-0.0115985433235,0.0,-0.00639631262089,0.0110853912063,-0.999918097289,0.0,0.354382572137,-0.142767988011,0.305034297433,1.0,-0.298722857143,-0.392607183674,2.209
-0.260740150592,-0.491898377124,-0.141875888667,-2.61875769113,-0.06905178216,2.11965655787,-0.52360389737,-1.22674964446,-0.401922658039,0.00734623417172,-0.315083032043,-0.0684210089363,-0.0988688149054,-1.17847356065,0.573748195822,0.81900199141,0.00543072348882,0.0,0.818993653039,-0.573663947307,-0.0118244975702,0.0,-0.00656900325779,0.0112322284714,-0.999915339036,0.0,0.348997561526,-0.149766837306,0.304972392903,1.0,-0.289465714286,-0.380440653061,2.227
-0.282768307125,-0.498674112924,-0.141828378472,-2.62399736142,-0.070065268483,2.11807034792,-0.544566207981,-1.20985524599,-0.352152544616,0.00683870082525,-0.275029026068,-0.0552186691893,-0.0973256648621,-1.15955510875,0.573848854273,0.818930504552,0.00557387333352,0.0,0.818924345694,-0.573764640858,-0.0117388173017,0.0,-0.00641530765887,0.011301105013,-0.999915560862,0.0,0.343845672093,-0.156596689833,0.304997511204,1.0,-0.280208571429,-0.368274122449,2.245
-0.300665790101,-0.503659861716,-0.141635141683,-2.62786162856,-0.0707944348528,2.11678449232,-0.56168416811,-1.19356309804,-0.316035834818,0.00884812627,-0.245355761884,-0.0489152886581,-0.0748168099506,-1.13828785965,0.573810756721,0.818956965166,0.00560817079726,0.0,0.818951000057,-0.573725986991,-0.011768528292,0.0,-0.00642048850291,0.0113459436522,-0.999915019834,0.0,0.339696441319,-0.162040376586,0.304997116252,1.0,-0.272494285714,-0.358135346939,2.26
-0.320674710363,-0.508687612956,-0.141474578781,-2.63165143294,-0.0714633137508,2.1155320069,-0.580812357557,-1.16520466084,-0.286982308207,0.0109972750471,-0.213025178366,-0.0314237561495,-0.0750657409937,-1.12585822334,0.573907866467,0.818887851839,0.00576140774585,0.0,0.818884347308,-0.573823396983,-0.011656831028,0.0,-0.00623972688975,0.0114080932877,-0.999915457034,0.0,0.335138158146,-0.168113054096,0.305040746352,1.0,-0.263751428572,-0.346644734694,2.277
-0.341343283545,-0.513376664661,-0.14115227501,-2.63525129896,-0.0721016660356,2.11422235166,-0.600609794006,-1.13448213782,-0.244255216371,0.0252264715687,-0.188703677043,-0.0211929601333,-0.0733593430629,-1.08852186379,0.573905825915,0.818889064704,0.00579220077787,0.0,0.818885533873,-0.573820472078,-0.0117173008139,0.0,-0.0062716068675,0.0114679974219,-0.999914572342,0.0,0.330420914506,-0.174265671545,0.305037306871,1.0,-0.254494285714,-0.334478204082,2.295
-0.358130485827,-0.516679506738,-0.140966985172,-2.63789358066,-0.0724750912617,2.11326050244,-0.616747866575,-1.12459883935,-0.212083325386,0.00430863445488,-0.169063929625,-0.0275381676444,-0.055748485872,-1.06268195062,0.573990271667,0.818829083849,0.00590308187632,0.0,0.818825633703,-0.573901999254,-0.0119089774773,0.0,-0.00636374914862,0.0116694566488,-0.999911659337,0.0,0.326593021455,-0.179233749406,0.304978104115,1.0,-0.24678,-0.324339428572,2.31
-0.376598000845,-0.519887975071,-0.140541584817,-2.64044443187,-0.0728883369886,2.1123754616,-0.634564038076,-1.0733434699,-0.183317793892,0.0237988383319,-0.141251259291,-0.0234032712786,-0.0474223875055,-1.0408477621,0.573894264453,0.818896467493,0.0058903019471,0.0,0.81889239266,-0.573805225077,-0.0119816450572,0.0,-0.00643196461282,0.0116999460922,-0.999910866574,0.0,0.322455367584,-0.184629850732,0.3049353676,1.0,-0.238037142857,-0.312848816327,2.327
-0.395680860528,-0.522689256676,-0.140180364693,-2.64259711672,-0.0732087292152,2.11153972158,-0.652950832348,-1.04994591353,-0.150591180562,0.0177898640443,-0.112194231567,-0.011657121447,-0.0424035299413,-1.00916119363,0.573943494822,0.81886151824,0.00595194070523,0.0,0.818857889278,-0.573853542177,-0.0120256475573,0.0,-0.00643192159445,0.0117760625152,-0.999909973316,0.0,0.318219737318,-0.190216237021,0.304923756445,1.0,-0.22878,-0.300682285714,2.345
-0.412110327166,-0.52482377334,-0.13983959525,-2.64415739389,-0.0734265011233,2.11090286569,-0.668787319913,-1.01746186231,-0.12648291153,0.0235197078801,-0.0912014254194,-0.0134121682188,-0.0351544961658,-0.986311596778,0.574001574751,0.818820323509,0.00601804726663,0.0,0.818817862627,-0.573911905371,-0.0119657686066,0.0,-0.00634410769183,0.0117962817383,-0.999910295994,0.0,0.314594956409,-0.195000901072,0.304951473857,1.0,-0.220551428572,-0.289867591837,2.361
-0.42894781428,-0.526590233619,-0.139371810902,-2.64549209326,-0.0735672457766,2.11035548726,-0.685111437172,-0.980040930838,-0.097685674249,0.0253218210259,-0.0735002606942,-0.0062821621999,-0.0256967268492,-0.947715138996,0.573951705905,0.818855070581,0.00604645137714,0.0,0.81885305693,-0.573862075905,-0.0119472128533,0.0,-0.00631332823618,0.011808505742,-0.99991034652,0.0,0.310912841332,-0.199855281754,0.304956837326,1.0,-0.211808571429,-0.278376979592,2.378
-0.445267905785,-0.527990101722,-0.138959207152,-2.64656150277,-0.0736729924216,2.10990997146,-0.700894025546,-0.931104882679,-0.0725000168432,0.0392240365694,-0.0553286740538,-0.00181261156604,-0.0251117062575,-0.925242891308,0.573991806555,0.818826676199,0.00608500239172,0.0,0.818825187168,-0.573902054701,-0.0119369749258,0.0,-0.00628223907945,0.0118345068757,-0.999910234931,0.0,0.307336532233,-0.20455487744,0.304955212595,1.0,-0.203065714286,-0.266886367347,2.395
-0.460045231715,-0.52894824128,-0.138544840631,-2.64730523806,-0.0736947520948,2.1095892116,-0.715164866712,-0.923252729652,-0.0541428672055,0.0131235179674,-0.0501042473641,-0.000464705973031,-0.0130659629745,-0.878382174329,0.574060755997,0.818778014537,0.00612847743837,0.0,0.818777089782,-0.573970810029,-0.0119303555908,0.0,-0.00625086605238,0.0118668343449,-0.999910048412,0.0,0.304117059621,-0.208790443005,0.30495056897,1.0,-0.194837142857,-0.256071673469,2.411
-0.475133521827,-0.529643611518,-0.138022946492,-2.64782454865,-0.0736820947729,2.10929040119,-0.729781951343,-0.869416849207,-0.028036177003,0.0346178879406,-0.0240975797258,0.00140590051079,-0.00953287829438,-0.841106250873,0.574052979576,0.81878352138,0.00612116468346,0.0,0.818782500603,-0.573963063407,-0.0119316994394,0.0,-0.00625627690243,0.0118615585125,-0.999910077171,0.0,0.300851660924,-0.21308690196,0.304956495409,1.0,-0.186094285714,-0.244581061225,2.428
-0.489640766869,-0.530034729956,-0.137578150844,-2.64813565383,-0.0736864282912,2.10909023408,-0.743804864893,-0.838146587933,-0.0174861636482,0.020732902048,-0.0130452377382,-0.00156504422027,-0.0183848474728,-0.81455604278,0.574115796394,0.818739638682,0.00609944932977,0.0,0.818738319825,-0.574025926258,-0.0119392854006,0.0,-0.00627404495867,0.0118486133648,-0.999910119321,0.0,0.297701362116,-0.21723392508,0.304952307955,1.0,-0.177351428572,-0.23309044898,2.445
-0.502546372694,-0.530190014026,-0.137010795278,-2.64826847462,-0.0736255340535,2.10896345923,-0.756497508988,-0.796444009938,-0.00862469492097,0.0360135998312,-0.00650277241642,0.00441005482957,-0.00921214269558,-0.775586071816,0.57390838715,0.818885540447,0.00603172505026,0.0,0.818883417354,-0.573818979301,-0.011936275726,0.0,-0.00631344684046,0.011789835363,-0.999910566086,0.0,0.29492889807,-0.220870992383,0.30495259645,1.0,-0.169122857143,-0.222275755102,2.461
-0.51665339852,-0.530210922606,-0.136490436691,-2.6483023056,-0.0735693848045,2.10887604689,-0.77005923546,-0.769920072304,-0.00140360142386,0.0286876766705,-9.54444954876e-05,0.00306435693572,-0.00102719978764,-0.748524113954,0.574010115876,0.818814612058,0.00598037237962,0.0,0.818811937461,-0.573921110163,-0.0119296806884,0.0,-0.00633605689828,0.0117447838127,-0.999910953253,0.0,0.291861983465,-0.224860714921,0.304950949471,1.0,-0.159865714286,-0.21010922449,2.479
-0.529030455994,-0.530040656783,-0.135850263159,-2.64821428529,-0.0733796117315,2.10886370174,-0.782188969404,-0.715877013945,0.00824779136627,0.0363788030379,-0.00060540918963,0.00707500782791,-0.00138716360534,-0.708071557209,0.573832239344,0.818939537475,0.00594490959185,0.0,0.818936456528,-0.573743512691,-0.0119251295753,0.0,-0.00635522914471,0.0117117524917,-0.999911219017,0.0,0.289055447486,-0.228500112327,0.304943564966,1.0,-0.150608571429,-0.197942693878,2.497
-0.540293863439,-0.529766144851,-0.135382772487,-2.64805297242,-0.073186337092,2.10886637653,-0.793038858164,-0.693505264542,0.0165879143386,0.0232115798022,0.0108459998351,0.0138970768717,1.78630668841e-05,-0.661922184371,0.573948345974,0.818857929386,0.00597783718078,0.0,0.818855072098,-0.573859085931,-0.0119527107641,0.0,-0.00635725820336,0.0117554471974,-0.999910693377,0.0,0.286758878918,-0.231444970182,0.30493012827,1.0,-0.142894285714,-0.187803918367,2.512
-0.551432464988,-0.529330320623,-0.134740488598,-2.64774616999,-0.0729020678765,2.10891555179,-0.803905054935,-0.635245141071,0.0280639811392,0.0385711151736,0.0184310741499,0.0212144340862,0.00347863761576,-0.629483586417,0.573857253233,0.818921743882,0.00598140533576,0.0,0.818918972309,-0.573768070173,-0.0119442598794,0.0,-0.00634959698283,0.0117528127549,-0.999910773025,0.0,0.284385614035,-0.234515924659,0.304931438724,1.0,-0.134151428572,-0.176313306123,2.529
-0.562031696654,-0.528759685328,-0.134168980905,-2.64738452843,-0.0726201996699,2.10900062566,-0.814196471528,-0.617253517753,0.0333098351312,0.0346796156225,0.0161196541495,0.0187660666281,0.00395371561525,-0.5989818322,0.573847322482,0.818928556566,0.00600138505346,0.0,0.818925749368,-0.573757513075,-0.0119866639531,0.0,-0.00637300434594,0.0117934308272,-0.999910145866,0.0,0.282109898166,-0.237442627789,0.304909552007,1.0,-0.125408571429,-0.164822693878,2.546
-0.571478205298,-0.528147781411,-0.133664442283,-2.64692595374,-0.0723538908477,2.10910785498,-0.823200508326,-0.565184007448,0.0420819533541,0.0392917291827,0.0292484048589,0.0213685665553,0.0131719858767,-0.555927433694,0.573993173011,0.818826209516,0.00601854199939,0.0,0.818823776154,-0.573903542556,-0.01196220502,0.0,-0.00634102650391,0.0117945763847,-0.999910335656,0.0,0.280092896317,-0.24006714258,0.304916652768,1.0,-0.11718,-0.154008,2.562
-0.580588707409,-0.527368331022,-0.133031154696,-2.64641271671,-0.07198652288,2.10922749515,-0.832219204336,-0.531352783334,0.0462164850527,0.0331535158618,0.0342724952815,0.0190224849782,0.00835995261571,-0.516608331656,0.573807315468,0.81895625112,0.00604734389594,0.0,0.818953685077,-0.573716660678,-0.0120333644359,0.0,-0.00638546002072,0.0118575554062,-0.999909308028,0.0,0.278178920413,-0.242553102989,0.304891555551,1.0,-0.108437142857,-0.142517387755,2.579
-0.589305771011,-0.526626807516,-0.132483409968,-2.64587435063,-0.0716784096033,2.10932910007,-0.840480709109,-0.495591223683,0.0380247464931,0.0333214900063,0.0322394281497,0.0180870660602,0.00538507808287,-0.470063579728,0.57395528206,0.818852452372,0.00606154599823,0.0,0.818849847761,-0.573864120717,-0.0120683336154,0.0,-0.00640380410566,0.0118904087693,-0.999908800577,0.0,0.27632098166,-0.244945183584,0.304887743213,1.0,-0.0996942857144,-0.13102677551,2.596
-0.597273554334,-0.525807602067,-0.131917240006,-2.6452775083,-0.0713184359623,2.1094839847,-0.848165101508,-0.447028875896,0.0493218364853,0.0386007525005,0.0331383443148,0.0266059761819,0.0137547291639,-0.437277486193,0.57396293092,0.818846816529,0.00609851554907,0.0,0.818844606878,-0.573871447199,-0.0120755445986,0.0,-0.00638838030466,0.0119248811285,-0.999908488716,0.0,0.274569319716,-0.247244013571,0.304886524761,1.0,-0.0904371428572,-0.118860244898,2.614
-0.604372610672,-0.524978710225,-0.131260874294,-2.64471110005,-0.0709319809294,2.10962538666,-0.855139716338,-0.407672545712,0.0448334853809,0.0352418326431,0.0335869270732,0.0194534510531,0.0128839035227,-0.394019374766,0.573808855424,0.818954764664,0.00610227594384,0.0,0.81895223334,-0.573716697381,-0.0121300270251,0.0,-0.00643308968364,0.0119580196652,-0.999907806312,0.0,0.273203839694,-0.249029501384,0.304869462838,1.0,-0.0822085714287,-0.108045551021,2.63
-0.611062156726,-0.524233778113,-0.130651712346,-2.64415611591,-0.0705859009518,2.10978059481,-0.861423415137,-0.373181723451,0.0444891557989,0.040441792704,0.037289876818,0.0210045343113,0.00388335759385,-0.355120808523,0.573888717072,0.818898874407,0.00609268525741,0.0,0.818896367401,-0.573796862013,-0.0121098101484,0.0,-0.00642086983947,0.0119391911015,-0.999908109851,0.0,0.271828537705,-0.25082639585,0.30487730439,1.0,-0.0734657142858,-0.0965549387756,2.647
-0.616692112328,-0.523516688246,-0.130097704496,-2.64361425489,-0.070221174826,2.10993133856,-0.866751960937,-0.338635681184,0.0443609934474,0.0357145046309,0.0284524783856,0.0224107451392,0.0137078589656,-0.312672459871,0.573928903836,0.818870525742,0.00611737804903,0.0,0.818868481689,-0.573837195584,-0.0120842691665,0.0,-0.00638519571642,0.0119450694109,-0.999908268089,0.0,0.270695954177,-0.25233590317,0.304887409483,1.0,-0.0652371428572,-0.0857402448981,2.663
-0.621999893945,-0.522801435565,-0.129513219571,-2.64310125405,-0.0698374559459,2.11006548564,-0.87181571219,-0.296661800569,0.0413104343523,0.0321458283674,0.0308043956933,0.0225190176579,0.00379206260639,-0.277141993055,0.573906942717,0.818885708911,0.00614522119554,0.0,0.818883878641,-0.573814837886,-0.0121025627554,0.0,-0.00638451949932,0.0119781979752,-0.999907876099,0.0,0.269635616755,-0.253735215523,0.30488418742,1.0,-0.0564942857144,-0.0742496326532,2.68
-0.626570530282,-0.522230237229,-0.12884744936,-2.64268420892,-0.0694519272644,2.11019318197,-0.87614475815,-0.252703887988,0.0222510001522,0.0384078239109,0.0174338772595,0.0219117598529,0.00656817922585,-0.237898002655,0.573807947689,0.81895519407,0.00612994094216,0.0,0.818953316489,-0.573716215569,-0.0120795821958,0.0,-0.0063759128185,0.0119517258409,-0.999908247783,0.0,0.268705544855,-0.254951684632,0.304892266442,1.0,-0.0472371428572,-0.0620831020409,2.698
-0.630385300704,-0.52177973889,-0.128229163353,-2.6423340199,-0.0691127536356,2.1102890317,-0.879641070641,-0.227570687115,0.0308511552436,0.036350579242,0.0212794337853,0.0259786798892,0.00692446371385,-0.206555432919,0.573807058021,0.818955949604,0.00611225605221,0.0,0.81895405004,-0.573715793145,-0.01204987633,0.0,-0.0063617425668,0.0119201904359,-0.999908714479,0.0,0.268027752719,-0.255837325129,0.304908580384,1.0,-0.039522857143,-0.0519443265307,2.713
-0.633804524392,-0.521308465393,-0.127656357517,-2.64199061168,-0.0687391055807,2.11041333229,-0.882749843949,-0.181824831151,0.0249541924117,0.0340288312306,0.0192212682942,0.0259219033536,0.011640343315,-0.169925844097,0.573833422817,0.81893731397,0.0061339666782,0.0,0.818935896935,-0.573742435268,-0.0120150566157,0.0,-0.00632038289921,0.0119181960287,-0.999909000541,0.0,0.26739617791,-0.256684062203,0.304916197509,1.0,-0.0307800000001,-0.0404537142858,2.73
-0.636670321919,-0.520888277015,-0.127080499801,-2.6417223199,-0.0683683004962,2.11045478096,-0.885238213591,-0.146186056763,0.0219723857679,0.0314830508323,0.00928078047441,0.0250739853992,0.00224645704729,-0.122786486131,0.573907338716,0.818885307735,0.00616167558847,0.0,0.818883754761,-0.573815279535,-0.0120899984255,0.0,-0.0063647810227,0.011984465601,-0.999907926835,0.0,0.266875376728,-0.257351480705,0.304901321605,1.0,-0.021522857143,-0.0282871836736,2.748
-0.638701561083,-0.520631082329,-0.126607708584,-2.64155377745,-0.0680738026544,2.11050140412,-0.886988531829,-0.117303318034,0.0163008377525,0.0268016663653,0.00534448139925,0.0188573964823,0.00235953592259,-0.110663698036,0.573937101124,0.818864337246,0.00617640999741,0.0,0.818862868657,-0.573844767746,-0.0121050306495,0.0,-0.00636819994727,0.0120053901494,-0.999907654055,0.0,0.266520653193,-0.257803995941,0.304898856145,1.0,-0.01972,-0.0259177142857,2.764
-0.640567725033,-0.520373850243,-0.126209264452,-2.64135877593,-0.0678481400477,2.11054644523,-0.888687905756,-0.101757846916,0.0186445918657,0.0217291712455,0.0122751241074,0.0123230467037,-0.000178709220403,-0.0953572257117,0.573897913512,0.818891881126,0.00616593822711,0.0,0.818890310341,-0.573805699442,-0.0121006536773,0.0,-0.00637119922084,0.0119939978875,-0.999907771665,0.0,0.266191562585,-0.258241961971,0.304906377837,1.0,-0.01936,-0.0254445714286,2.782
-0.642125317043,-0.520112254379,-0.125963086877,-2.64113802012,-0.0676997297535,2.11061010999,-0.890266772146,-0.0836870421972,0.0124078540286,0.00964131258013,0.0157729800701,0.00883509037798,0.00193096640406,-0.091735566651,0.573780841502,0.818973967718,0.00615897926638,0.0,0.818972547169,-0.573689136803,-0.012061848923,0.0,-0.00634512293484,0.0119651231285,-0.999908283416,0.0,0.265910665695,-0.258647850683,0.304921858835,1.0,-0.01902,-0.0249977142857,2.799
-0.643516928125,-0.519877798255,-0.125809575636,-2.640993068,-0.0676311112247,2.1106705801,-0.891595004351,-0.083293918043,0.0117366924324,0.00562163579406,0.00963192011208,0.00508935315618,0.00169836189382,-0.0913590426717,0.573761053289,0.818987991691,0.00613759694905,0.0,0.818986190744,-0.573669254381,-0.0120810946985,0.0,-0.00637344352762,0.0119584990029,-0.999908182544,0.0,0.265627620109,-0.259018466199,0.304910322083,1.0,-0.0187,-0.0245771428571,2.815
-0.645005018249,-0.519662955479,-0.125674800282,-2.64081973944,-0.0675960191675,2.11067361305,-0.893075087344,-0.0894533369966,0.00801540622155,0.00615533641274,0.015211537496,0.00709863026521,3.83705127815e-05,-0.0855060530467,0.573696140303,0.819033740933,0.00610055047609,0.0,0.819031294567,-0.573604213593,-0.0121116294967,0.0,-0.00642065537469,0.0119451668305,-0.999908039859,0.0,0.265309857036,-0.259421456915,0.304913506318,1.0,-0.01836,-0.0241302857143,2.832
-0.646423180175,-0.519455739267,-0.125597243998,-2.64062592107,-0.0675607236887,2.11072425448,-0.894445590653,-0.0781261764541,0.0159419253577,0.00476865286467,0.014127240154,0.000799521443772,0.00528256892712,-0.0888578794619,0.573705223927,0.819027512557,0.006082484256,0.0,0.819025139261,-0.573613948027,-0.0120667637652,0.0,-0.00639413681027,0.0119047021252,-0.999908692372,0.0,0.265009708676,-0.259830056806,0.30493149414,1.0,-0.01802,-0.0236834285714,2.849
-0.647705850564,-0.519246055787,-0.125557321581,-2.6404574165,-0.0675321629472,2.1107927357,-0.895734344234,-0.077161012679,0.0125886142363,0.00188436683137,0.0144789013839,0.00156417754069,0.000161699245003,-0.0794908975497,0.573692916861,0.819036165649,0.00607810857291,0.0,0.819033960011,-0.57360208093,-0.0120321237621,0.0,-0.00636845139764,0.01188115026,-0.99990913642,0.0,0.264732369905,-0.26020733376,0.304937683557,1.0,-0.0177,-0.0232628571429,2.865
-0.649034502911,-0.519030179707,-0.12555977175,-2.64028554947,-0.0675010858433,2.11080166545,-0.897064498931,-0.0805266044005,0.0103535357952,-0.000777076788646,0.0118397010066,0.000997137019757,-0.000817712729131,-0.0729778776034,0.573715710545,0.819020009261,0.00610367150656,0.0,0.819017943718,-0.573624400479,-0.0120582728116,0.0,-0.00637487453722,0.0119172664848,-0.999908665696,0.0,0.264424721674,-0.260597895236,0.304937022478,1.0,-0.01736,-0.022816,2.882
-0.650374077597,-0.518810616015,-0.125567416485,-2.64011025531,-0.0674726068937,2.11085577241,-0.898368081139,-0.0797901419764,0.0154173412616,-0.0002531248148,0.0133784740825,0.000524072455201,0.00587702520731,-0.0722574543764,0.573771931375,0.81898047314,0.00612391080548,0.0,0.818978770766,-0.573680709111,-0.0120400967369,0.0,-0.00634755683894,0.0119238520735,-0.999908760975,0.0,0.264120138035,-0.260999542804,0.304940276706,1.0,-0.01702,-0.0223691428571,2.899
-0.651600257882,-0.518623410676,-0.125565034115,-2.63994923212,-0.0674482776383,2.11091667412,-0.899647876006,-0.0779280467729,0.0103415903031,0.000817096292245,0.00565314959468,0.000352050462872,0.00220792572988,-0.0786331763829,0.573745053631,0.818999216973,0.00613538375014,0.0,0.818997917028,-0.573654264877,-0.0119976328274,0.0,-0.00630658425754,0.0119086782805,-0.999909201066,0.0,0.263844939924,-0.261366998129,0.304949764712,1.0,-0.0167,-0.0219485714286,2.915
-0.652874118605,-0.518407271441,-0.125553036114,-2.6397662838,-0.0674166400153,2.1109484863,-0.900902805009,-0.0763999043504,0.0101104687035,-0.000285983752169,0.0115516231521,0.000547421807181,-0.000961545875281,-0.0743007464147,0.573775061314,0.818978091218,0.00614914790666,0.0,0.818977000493,-0.573684265072,-0.011990978829,0.0,-0.0062928007115,0.011916364748,-0.999909196333,0.0,0.263559302144,-0.26174495932,0.304956295787,1.0,-0.01636,-0.0215017142857,2.932
-0.654142068016,-0.518180799512,-0.125520737915,-2.63958514181,-0.0673848894195,2.11100474354,-0.902224479021,-0.0700390598418,0.0114675191803,0.0080949208283,0.0108667018105,0.000298278145037,0.00270192297221,-0.0812975093971,0.573731150828,0.819008834496,0.00615162488144,0.0,0.819007886773,-0.573640563405,-0.011972147738,0.0,-0.00627659404636,0.0119072526455,-0.999909406747,0.0,0.263282355757,-0.26211943522,0.304960751845,1.0,-0.016,-0.0210285714286,2.95
-0.655201620981,-0.517976291337,-0.12549339429,-2.63944415086,-0.0673647380001,2.1110333562,-0.90327648201,-0.0693918016953,0.012159208771,3.99388198879e-05,0.00586551692642,0.00253816573454,-0.000235813149036,-0.0663226119542,0.573736050772,0.819005376016,0.00615507944701,0.0,0.81900425062,-0.573645025886,-0.0120070247869,0.0,-0.00630310849606,0.0119301289047,-0.99990896728,0.0,0.263028080923,-0.262446119359,0.304951393575,1.0,-0.01568,-0.020608,2.966
-0.656448562881,-0.517749735994,-0.125459811059,-2.63927162765,-0.0673336038327,2.11106481231,-0.90447000614,-0.0680798761771,0.0124097940091,0.00325626810449,0.00836706177899,0.00035120291403,0.00399256257008,-0.0699822244162,0.573776303992,0.818977169467,0.00615595409432,0.0,0.818975999845,-0.573685161623,-0.012016401841,0.0,-0.00630970072864,0.0119365351103,-0.999908849249,0.0,0.262766416609,-0.262789651812,0.304950952241,1.0,-0.01534,-0.0201611428571,2.983
-0.657590965361,-0.517538412923,-0.125448854758,-2.63909843798,-0.0673062571496,2.11112894135,-0.90567868501,-0.0674351265329,0.0133631991954,0.00127720787748,0.00715113038438,0.00163779422023,0.00902208078598,-0.0752213029605,0.573734913108,0.819006109648,0.00616350079427,0.0,0.819005234812,-0.573644120082,-0.0119831442681,0.0,-0.00627873326371,0.0119233172115,-0.999909201885,0.0,0.262515726094,-0.263134749444,0.304957496876,1.0,-0.015,-0.0197142857143,3.0
-0.658645014192,-0.517348110128,-0.125442002681,-2.63893209894,-0.0672790557247,2.11117772545,-0.906761224758,-0.0623985501502,0.0143682709968,0.00354862112374,0.0116128830592,0.000443844146409,0.000714839321687,-0.0601667451893,0.573726907218,0.819011644128,0.00617329879265,0.0,0.819011082951,-0.573636429166,-0.0119515705174,0.0,-0.00624736662494,0.0119131670843,-0.999909519337,0.0,0.262283453804,-0.263453763521,0.304967258382,1.0,-0.01468,-0.0192937142857,3.016
-0.659762013222,-0.51714387432,-0.125413514041,-2.63877073247,-0.0672567207266,2.11118889274,-0.907861289598,-0.0689476976342,0.0156999260768,-9.59515357222e-05,0.0120245103902,0.00101505746052,0.000558976990692,-0.0588352746887,0.573738528819,0.819003493881,0.00617450080887,0.0,0.819002788911,-0.573647739541,-0.0119770437502,0.0,-0.00626737291236,0.0119288545109,-0.999909207112,0.0,0.262031198501,-0.263778009343,0.304966910613,1.0,-0.01434,-0.0188468571429,3.033
-0.660851543762,-0.516967930684,-0.125396440006,-2.63862495592,-0.0672330361153,2.11121396168,-0.908966061955,-0.0617036454887,0.0107065344953,0.000318030552184,0.0114265744899,0.00118860921126,-0.000329789252334,-0.0637211613401,0.573731604122,0.819008288656,0.00618194517608,0.0,0.819007682085,-0.573640787909,-0.0119753928842,0.0,-0.00626185069045,0.0119339517244,-0.999909180887,0.0,0.261782672568,-0.264095585881,0.304970818031,1.0,-0.014,-0.0184,3.05
-0.661829496606,-0.516770301449,-0.125363761731,-2.63847274047,-0.0672117468812,2.11125604773,-0.909948371028,-0.0595470675154,0.013665414416,0.00426465195268,0.0130713665838,0.00519702514187,0.00377488433356,-0.0605755559814,0.573721876337,0.819015146646,0.00617617009014,0.0,0.819014481542,-0.573631118116,-0.0119735648373,0.0,-0.00626380820437,0.0119280984821,-0.999909238468,0.0,0.261570151047,-0.264384328802,0.30497146215,1.0,-0.01368,-0.0179794285714,3.066
-0.662892941202,-0.516556635285,-0.125326866419,-2.63830429175,-0.0671874234475,2.11128821887,-0.91099505909,-0.0565729076359,0.0115481346029,-0.000118734829417,0.00822347089143,0.000150167940378,0.00492412780157,-0.0613003946338,0.573728567586,0.819010497329,0.00617113459444,0.0,0.819009726217,-0.57363775209,-0.0119810116734,0.0,-0.00627269932148,0.011928297577,-0.999909180356,0.0,0.261337673213,-0.264696558918,0.304972808448,1.0,-0.01332,-0.0175062857143,3.084
-0.663875051626,-0.516355185669,-0.12526840738,-2.63816263928,-0.0671697552202,2.1113160153,-0.912031037233,-0.0541456823985,0.016279141856,0.00181005659995,0.00568251886533,1.20492361737e-05,0.0045166783101,-0.062352209314,0.573657955821,0.819060086471,0.00615397223807,0.0,0.819058930872,-0.573566922291,-0.0120083435195,0.0,-0.00630596137433,0.0119293773956,-0.999908958259,0.0,0.261124093987,-0.264975980872,0.304966605857,1.0,-0.01298,-0.0170594285714,3.101
-0.664795335129,-0.516167430933,-0.125247224331,-2.63803469457,-0.0671510681824,2.11135471786,-0.91296989234,-0.0586421945942,0.0132301283859,0.00470702172458,0.00378318091371,0.00340220345946,0.00126872137661,-0.0543972244626,0.573642452056,0.8190709368,0.00615504583002,0.0,0.819069692009,-0.573551222176,-0.0120242286052,0.0,-0.00631858378193,0.011939249341,-0.99990876075,0.0,0.260917344706,-0.265245280065,0.30495926824,1.0,-0.01266,-0.0166388571429,3.117
-0.665751735941,-0.51597278146,-0.125229598831,-2.63788427406,-0.0671329970762,2.11142649672,-0.913901706553,-0.0559520646881,0.0135401420962,0.000446778463084,0.0114588979128,0.000123537336014,0.003937480603,-0.0560015937813,0.573665600515,0.81905476362,0.00614978683439,0.0,0.819053661396,-0.573574787186,-0.0119920873805,0.0,-0.00629493481696,0.0119166828651,-0.999909179108,0.0,0.260709968888,-0.265535121398,0.304962323389,1.0,-0.01232,-0.016192,3.134
-0.666771527704,-0.515791718258,-0.125236286827,-2.63772828792,-0.0671177914256,2.11146321415,-0.914910039587,-0.0561303450176,0.00807258372635,-0.000704336926478,0.0127155582048,-0.000228996597772,-0.000230373847994,-0.0636038855691,0.573694264427,0.819034626436,0.0061578051561,0.0,0.819033731246,-0.573603605997,-0.011974855698,0.0,-0.00627580304936,0.011913585538,-0.999909336278,0.0,0.260475844286,-0.265843523788,0.304969343295,1.0,-0.01196,-0.0157188571429,3.152
-0.667584803779,-0.515642531131,-0.125228072246,-2.63760236572,-0.0671036104408,2.11149102089,-0.915720011639,-0.0546023043811,0.0104763451147,0.00100204303818,0.0099357239468,0.00183779051889,0.00162788709793,-0.0495515172803,0.573703687354,0.819028013143,0.00615952139953,0.0,0.819027195143,-0.573613123946,-0.0119659748315,0.0,-0.00626740694661,0.0119099687227,-0.999909432026,0.0,0.260292092257,-0.26608630702,0.304974053423,1.0,-0.01166,-0.0153245714286,3.167
-0.668474306905,-0.515473974327,-0.125228777983,-2.63745927611,-0.0670907532657,2.11152880855,-0.916553802412,-0.0488802580169,0.00880416301801,-0.000525936839568,0.00177674313918,-0.000439856021416,0.000378337992114,-0.0388419994725,0.573762680728,0.818986670171,0.0061617519116,0.0,0.818985989073,-0.573672300795,-0.0119493892651,0.0,-0.00625168449309,0.011902731266,-0.99990961663,0.0,0.260090696764,-0.266356419383,0.304980044807,1.0,-0.01132,-0.0148777142857,3.184
-0.669452446556,-0.515285154382,-0.125210051946,-2.63728366445,-0.0670692064848,2.11156569772,-0.917495450551,-0.0509684225617,0.00804053037463,0.00208902926912,0.0144091543604,-6.46021188983e-05,-0.00044429977462,-0.0533441464603,0.573797422445,0.818962351256,0.00615890596019,0.0,0.818961818176,-0.573707399566,-0.0119208621194,0.0,-0.0062294472839,0.0118842975901,-0.999909974676,0.0,0.259877257722,-0.266652382262,0.304993705989,1.0,-0.01094,-0.0143782857143,3.203
-0.67024924645,-0.515128560861,-0.125197632051,-2.637157338,-0.0670549523011,2.11159737353,-0.918312827866,-0.0482923515326,0.00404489764859,0.00203627429924,0.00633198205919,4.53749830351e-05,0.000177888601687,-0.0556998196406,0.57378437099,0.818971498452,0.00615850887509,0.0,0.818970994302,-0.573694417532,-0.0119152291731,0.0,-0.00622525078371,0.0118806411523,-0.999910044263,0.0,0.259698646912,-0.266890106739,0.304996270582,1.0,-0.01062,-0.0139577142857,3.219
-0.6710280408,-0.514963820773,-0.125185100453,-2.63704687178,-0.0670382201925,2.11163297013,-0.919088374629,-0.0498073742039,0.00762881765347,0.00294631863643,0.00660757164815,-1.4985684576e-06,0.00275010674622,-0.0466280179411,0.573791113435,0.818966746242,0.00616227191731,0.0,0.818966199027,-0.573700967607,-0.0119294392153,0.0,-0.00623463269301,0.0118919275759,-0.999909851643,0.0,0.259521757,-0.2671190472,0.304988952597,1.0,-0.0103,-0.0135371428571,3.235
-0.671826950413,-0.514799242037,-0.12517588585,-2.63693076798,-0.0670233271793,2.11165814488,-0.919844976976,-0.0453990418353,0.00648439606382,0.0029428857886,0.00551693261702,-4.79508262075e-05,-0.0003621573683,-0.0416709852347,0.573831681197,0.818938291122,0.00616635141949,0.0,0.818937677995,-0.573741283125,-0.0119484935809,0.0,-0.00624730881904,0.0119065109097,-0.999909598979,0.0,0.259338031614,-0.267353965095,0.304983278515,1.0,-0.00996,-0.0130902857143,3.252
-0.672549328603,-0.514650657724,-0.125152601427,-2.63683710424,-0.067005225234,2.1116766632,-0.920551007494,-0.0443900390565,0.00477201756326,-8.53075843266e-05,0.0080847995938,-0.000191532931838,0.000476122498584,-0.0420987692618,0.573841250863,0.818931562845,0.00616936670773,0.0,0.818930785546,-0.573750450926,-0.0119806280767,0.0,-0.006271758295,0.0119274925671,-0.999909195862,0.0,0.259172317317,-0.267559031513,0.304973077149,1.0,-0.00964,-0.0126697142857,3.268
-0.673283097285,-0.514478159837,-0.12511536987,-2.63674527565,-0.0669912914871,2.11171675032,-0.921302941272,-0.0416691047385,0.0150767062297,0.00406972018003,0.00603137925326,0.00127085529095,0.00487749083014,-0.049124335325,0.573810869598,0.818952910002,0.00616149587383,0.0,0.818951802331,-0.573719676955,-0.0120176800893,0.0,-0.00630706408885,0.0119420735354,-0.999908799752,0.0,0.259008549173,-0.267766572366,0.304955366622,1.0,-0.00930000000001,-0.0122228571429,3.285
-0.674027093182,-0.514324891845,-0.125063747762,-2.63662813875,-0.0669691662222,2.11173788511,-0.922080063348,-0.0431430196593,0.0070975171634,0.00553971988455,0.00755222347729,0.00503501547483,0.00322979254761,-0.0434836102731,0.573762579953,0.818986822438,0.00615088767335,0.0,0.818985512437,-0.573671321495,-0.0120288076606,0.0,-0.00632296884048,0.0119393974806,-0.999908731261,0.0,0.258849014853,-0.267977001845,0.304954974865,1.0,-0.00894000000001,-0.0117497142857,3.303
-0.674619501975,-0.5141874832,-0.125044698371,-2.6365375242,-0.0669503439535,2.11176667871,-0.922638753512,-0.0395392378512,0.0109601805872,0.0047463667894,0.00167345674197,0.00385287358743,0.00613600558497,-0.0355178003001,0.573789481737,0.81896795635,0.00615337472713,0.0,0.818966587192,-0.573698034091,-0.0120433236609,0.0,-0.00633303911289,0.0119499708158,-0.999908541224,0.0,0.258717940178,-0.268149860724,0.304948274511,1.0,-0.00864000000001,-0.0113554285714,3.318
-0.675254223132,-0.514036674021,-0.125024043771,-2.63642511272,-0.066935786896,2.11180615711,-0.923266241382,-0.0345122590867,0.0128783277707,0.000569659854193,0.00313210278267,0.00155421148421,0.0048944296069,-0.0295084717033,0.573792781566,0.818965684969,0.00614797270577,0.0,0.818964277017,-0.573701415998,-0.0120393169904,0.0,-0.00633280876495,0.0119432731512,-0.999908622705,0.0,0.258581599562,-0.26834070258,0.3049474629,1.0,-0.00830000000001,-0.0109085714286,3.335
-0.675926312515,-0.513902346296,-0.12501365466,-2.63631788459,-0.0669124952438,2.11182990714,-0.923924356536,-0.0389041514136,0.00888762045369,0.000870817863386,0.0074444162454,9.74042612945e-05,-0.000309091091069,-0.0420179581169,0.573812328043,0.81895191941,0.00615733559035,0.0,0.818950633672,-0.573720918599,-0.0120380260634,0.0,-0.0063260941164,0.0119503517252,-0.999908580635,0.0,0.258430353151,-0.2685391294,0.304948803966,1.0,-0.00794000000001,-0.0104354285714,3.353
-0.676513939606,-0.513787566186,-0.125008614936,-2.63624775545,-0.0668948074394,2.11185298658,-0.924502347252,-0.0391513133244,0.0028844835901,8.41073897412e-05,0.00157370175651,-0.000326860017698,0.00575295543684,-0.0337267824318,0.573827937433,0.818940895354,0.00616887661291,0.0,0.818939639905,-0.573736248021,-0.012055322539,0.0,-0.00633341044928,0.0119698489163,-0.99990830111,0.0,0.258291978026,-0.268707858311,0.304940328633,1.0,-0.00762000000001,-0.0100148571429,3.369
-0.67709441622,-0.513679325277,-0.125001951929,-2.63617991875,-0.0668694804897,2.11186676505,-0.925097452573,-0.0340868535883,0.00970844563587,-0.00073189251662,0.00428121288186,0.000258015255294,0.000152183389337,-0.029007404241,0.573825654923,0.818942353831,0.00618754837091,0.0,0.818941186999,-0.573733592095,-0.0120766070937,0.0,-0.00634016275429,0.0119973361682,-0.999907928892,0.0,0.258154682671,-0.268871737409,0.304932475037,1.0,-0.00728000000001,-0.00956800000001,3.386
-0.677650264997,-0.513587023101,-0.12497846471,-2.63610541043,-0.0668493175326,2.11188811423,-0.925629839277,-0.0230951846464,0.00215615496381,0.00456362473037,0.00518452422825,0.000173549115672,0.00445520090571,-0.02237191991,0.573840613531,0.818931856665,0.0061896125873,0.0,0.818930761567,-0.573748623344,-0.0120694602505,0.0,-0.00633290571897,0.0119950415668,-0.99990800241,0.0,0.258030235258,-0.269029232333,0.304934578395,1.0,-0.00694000000001,-0.00912114285715,3.403
-0.678160494609,-0.513501031599,-0.124969905622,-2.63604176355,-0.0668304972472,2.11190392585,-0.926125657967,-0.0290430235367,0.00425038537188,-0.00123643186513,0.00436744965651,-0.000261908500329,0.00628051717677,-0.0334015745264,0.573857681241,0.818919820662,0.00619967000941,0.0,0.818918831679,-0.573765596084,-0.0120720658058,0.0,-0.00632901845948,0.0120049053437,-0.999907908646,0.0,0.257911343237,-0.269174683181,0.304933255359,1.0,-0.00662000000001,-0.00870057142858,3.419
-0.678655167861,-0.513408391283,-0.124935958559,-2.63596686787,-0.066801039291,2.11191977032,-0.926613765936,-0.026040951193,0.00090245515549,0.00380741190757,0.0032771343962,0.002418613482,0.004370390901,-0.0315514192644,0.573855352586,0.818921414886,0.00620463128848,0.0,0.818920499217,-0.573763262622,-0.012069852064,0.0,-0.00632439260244,0.0120076801491,-0.999907904597,0.0,0.257805642899,-0.269312442938,0.304935185952,1.0,-0.00628000000001,-0.00825371428572,3.436
-0.679119116655,-0.513307906481,-0.124907239441,-2.63588768306,-0.0667744125006,2.11194636734,-0.927081580302,-0.0259538252148,0.00138151632984,0.00380131794523,0.00313818350649,0.000460113691438,0.004171808255,-0.0244425647731,0.573849804077,0.818925268167,0.00620922050791,0.0,0.818924498623,-0.573757859304,-0.0120553449873,0.0,-0.00630995904623,0.0120030712466,-0.999908051121,0.0,0.257703401935,-0.269452846791,0.30493820118,1.0,-0.00592000000001,-0.00778057142858,3.454
-0.679523147689,-0.513221465716,-0.124872278493,-2.63582200518,-0.0667544808495,2.11197062434,-0.927521395849,-0.0258311819401,0.00245535316862,0.00513349029913,0.00236175403526,0.00035736323018,0.00508281877977,-0.0268693170054,0.573804947647,0.818956740956,0.00620366008253,0.0,0.818955903872,-0.573713046048,-0.0120546757791,0.0,-0.00631325881658,0.0119977876491,-0.999908093704,0.0,0.257626471755,-0.269560144016,0.304937719867,1.0,-0.00562000000001,-0.00738628571429,3.469
-0.679961166724,-0.513128262365,-0.124839060628,-2.63576122389,-0.0667296448241,2.1119879374,-0.927984441743,-0.0216438311977,0.00763668509243,0.00351417831422,0.00850822577765,0.000133733450539,0.00356944898083,-0.0263193592913,0.57377463881,0.818977949971,0.00620711055766,0.0,0.818977078645,-0.573682578167,-0.012066112167,0.0,-0.00632109031956,0.0120069415926,-0.999907934347,0.0,0.25753233528,-0.269680300294,0.30493312835,1.0,-0.00526000000001,-0.00691314285715,3.487
-0.680365349181,-0.513051250997,-0.124806085105,-2.63571217262,-0.0667086203987,2.11200734363,-0.928388889021,-0.0212050147872,0.00395177763894,0.0034483273019,0.00152899067748,0.00142908657389,0.000321392490996,-0.0236116549051,0.573762535011,0.818986427286,0.00620743425236,0.0,0.818985523434,-0.573670405766,-0.0120716550299,0.0,-0.00632562208591,0.0120102934175,-0.999907865434,0.0,0.257444934007,-0.269789638545,0.304929365653,1.0,-0.00492000000001,-0.00646628571429,3.504
-0.680732575143,-0.512972282069,-0.124781779927,-2.63566107175,-0.066689321558,2.1120206773,-0.92873778971,-0.0226651530117,0.00819080054042,0.00171140162672,0.000533204891807,0.00368413374836,0.000119344461342,-0.0190451996809,0.573770963598,0.818980495506,0.00621097523063,0.0,0.818979549488,-0.57367864932,-0.0120851866774,0.0,-0.0063345502518,0.0120210223433,-0.999907679986,0.0,0.257358398195,-0.269897614369,0.304924424673,1.0,-0.00458000000001,-0.00601942857144,3.521
-0.681088899852,-0.512916115478,-0.124761883965,-2.63561366374,-0.0666750170367,2.11203115936,-0.929084637799,-0.0211925623725,0.00252644323965,0.000542095608192,0.00564028072349,0.000889789767903,0.000618915953016,-0.0187528618328,0.573773336364,0.81897883273,0.0062110321405,0.0,0.818977924862,-0.573681092334,-0.0120793124102,0.0,-0.00632967134076,0.0120177169745,-0.999907750615,0.0,0.257285382616,-0.269990146977,0.30492721088,1.0,-0.00426000000001,-0.00559885714286,3.537
-0.68140519256,-0.512864570326,-0.124745211702,-2.63558208105,-0.0666553975185,2.11203281504,-0.929392775477,-0.0208280650617,0.00165183202299,-0.000514105442169,-0.000340397794261,0.000193911162261,3.87828321112e-05,-0.0164041231615,0.573778222403,0.81897533485,0.00622087643561,0.0,0.818974450484,-0.573685734778,-0.0120943816625,0.0,-0.00633629419619,0.0120344633724,-0.999907507256,0.0,0.257211712678,-0.270073682874,0.304923032251,1.0,-0.00394000000001,-0.00517828571429,3.553
-0.681693759765,-0.512813411889,-0.124713712785,-2.63553941804,-0.0666371923954,2.11204397787,-0.929657880711,-0.0155749971959,0.00303486598737,0.000796437524791,-0.000104672438854,-0.0002898918256,8.57056013608e-05,-0.010559442736,0.573784982319,0.81897061761,0.00621839678858,0.0,0.818969733688,-0.573692566459,-0.0120897226824,0.0,-0.00633380158432,0.0120298116886,-0.999907579023,0.0,0.257152666979,-0.270151355755,0.304925185265,1.0,-0.00362000000001,-0.00475771428572,3.569
