nelsonifechukwu/NELSON_IML_WORK/CNN-GradCAM/train2dof/data_sample_2022-02-21-09-58-19/robot_state.csv
position_joint1,position_joint2,position_joint3,position_joint4,position_joint5,position_joint6,position_joint7,velocity_joint1,velocity_joint2,velocity_joint3,velocity_joint4,velocity_joint5,velocity_joint6,velocity_joint7,ee_T_00,ee_T_10,ee_T_20,ee_T_30,ee_T_01,ee_T_11,ee_T_21,ee_T_31,ee_T_02,ee_T_12,ee_T_22,ee_T_32,ee_T_03,ee_T_13,ee_T_23,ee_T_33,v_x,v_y,time
0.465064063783,0.547651819056,-0.123959467999,-1.35577029218,0.079455469241,1.89408685176,0.159159704713,0.000828049908036,-0.00123759263076,-0.00087522052701,0.00033833376028,-3.25613306037e-05,-0.000367527741375,-0.00149500922516,0.573778202877,0.818996330532,0.00208119684109,0.0,0.818955198725,-0.573719408393,-0.0117970257262,0.0,-0.00846786079307,0.00847344633315,-0.999928245446,0.0,0.661690503179,0.260901952304,0.303333638185,1.0,0.0,0.0,0.0
0.465063195951,0.547651819532,-0.123955042583,-1.35576764432,0.0794541504441,1.89408685176,0.159162144653,0.00108664341899,-0.0014010037733,-0.000183387353907,0.000703376546098,-6.31402437018e-05,-0.000232506891769,-0.000470751919073,0.573777325574,0.818996938759,0.00208371346505,0.0,0.81895583223,-0.573718513842,-0.0117965517421,0.0,-0.00846603776971,0.00847522637885,-0.999928245797,0.0,0.661690394456,0.260904040174,0.303334749304,1.0,-0.0001,-0.000131428571429,0.006
0.465060954,0.547648687854,-0.123956498629,-1.35577304913,0.0794547598219,1.89409003068,0.159165196415,0.000188583501164,-0.00190138330043,-0.000672786268076,-0.00175946111995,-0.000108135631474,0.000218617049489,0.00102863586841,0.573783151224,0.818992855269,0.00208453603704,0.0,0.818951760311,-0.573724336423,-0.0117960578171,0.0,-0.00846510099739,0.00847567686634,-0.999928249909,0.0,0.6616907575,0.260901428522,0.303334720766,1.0,-0.00044,-0.000578285714286,0.023
0.465061961157,0.547635142583,-0.123954444737,-1.35578933883,0.0794544045208,1.89409076641,0.159166023377,0.000567025811452,-0.00374526978568,0.00163728565002,-0.000625920455436,2.97330193809e-06,-0.000102958893546,0.000896412926337,0.573782344755,0.818993421783,0.00208394461,0.0,0.818952296394,-0.573723509612,-0.0117990529926,0.0,-0.0084679018021,0.00847690272256,-0.999928215803,0.0,0.66168681318,0.26090151981,0.303336558104,1.0,-0.00084,-0.001104,0.043
0.465056703151,0.54758067546,-0.123955492529,-1.35584368708,0.0794551165435,1.894100621,0.159164840472,-0.00125376792966,-0.00230423481425,0.000521445764265,-0.00695932097852,-4.06069271814e-06,0.00412798031303,-0.000406665225268,0.573789540198,0.818988351748,0.00209527139849,0.0,0.818947330695,-0.573730616587,-0.0117981371471,0.0,-0.00846057843675,0.00848572798424,-0.999928202939,0.0,0.66167933211,0.260892484693,0.303350166471,1.0,-0.0011,-0.00144571428571,0.056
0.465061966029,0.547420885004,-0.123952709479,-1.35601842862,0.0794521607647,1.89413626339,0.159162752823,-0.000440567009773,-0.0119449746314,-0.000264127380113,-0.011268038228,3.11084592947e-05,0.00200723788872,0.00019109669577,0.5737902904,0.818987762497,0.00212000584787,0.0,0.818946944842,-0.573731150811,-0.0117989416669,0.0,-0.00844703807248,0.00850645425325,-0.99992814131,0.0,0.661648755935,0.260880878342,0.303383184748,1.0,-0.00146,-0.00191885714286,0.074
0.465047043148,0.547278840336,-0.123954782251,-1.35621034881,0.0794514830847,1.89422119761,0.15915250365,4.94359120281e-05,-0.00957005656695,-1.33890869435e-05,-0.0124511590541,-0.00174036220412,0.00866130373711,-0.000897494764215,0.573806193181,0.818976529121,0.00215506768437,0.0,0.818936099493,-0.573746846249,-0.0117884802651,0.0,-0.00841818743995,0.00852932992391,-0.999928189747,0.0,0.661629853617,0.260854554233,0.303399898601,1.0,-0.00178,-0.00233942857143,0.09
0.4650277552,0.547097618552,-0.123954897224,-1.35642043541,0.0794440960474,1.89431622029,0.159141250702,-0.0001241385145,-0.0101485487531,-0.000456508867415,-0.0162587449488,-0.000451244026628,0.000194282650165,-0.00234259530816,0.573822685718,0.818964814695,0.00221462115531,0.0,0.818925138382,-0.573763086102,-0.0117594920832,0.0,-0.0083601033441,0.00856163710398,-0.999928400958,0.0,0.661610891891,0.260824435085,0.303436510288,1.0,-0.00212,-0.00278628571429,0.107
0.465010238926,0.546926167077,-0.123954793937,-1.35662469718,0.0794423211129,1.89443327351,0.159135667138,0.00031335257911,-0.0132766574324,-0.00146186062884,-0.017590265773,-0.000155724738533,0.00644194242849,0.000694294669707,0.573843547469,0.818949986174,0.00229130395855,0.0,0.818911270181,-0.573783618615,-0.0117233732364,0.0,-0.00828630321018,0.00860392237351,-0.999928652304,0.0,0.661596568074,0.260798585962,0.303470886264,1.0,-0.00242,-0.00318057142857,0.122
0.464972707043,0.546714337089,-0.123952034278,-1.3569271076,0.0794350557387,1.89456314267,0.159111843176,-0.0011741235356,-0.01256703236,-0.000460636370763,-0.0139864228045,0.000625083738043,0.00542246489023,-0.000546818450346,0.573867926456,0.818932791248,0.00233094489655,0.0,0.818894505416,-0.573807759012,-0.0117128817472,0.0,-0.00825470760399,0.0086306112953,-0.999928683633,0.0,0.661568258778,0.260749885854,0.303488148987,1.0,-0.00276,-0.00362742857143,0.139
0.46492572361,0.546415240944,-0.123954165256,-1.35737359386,0.0794235404022,1.89472360244,0.15903796607,-0.00110051112706,-0.0195559410504,0.000383478689084,-0.0253408329415,0.00054833076282,0.0145290862469,-0.00715229296899,0.573869261115,0.818931799808,0.00235059835691,0.0,0.818893636092,-0.573808881388,-0.0117186735235,0.0,-0.00824815898882,0.0086500430918,-0.999928569763,0.0,0.661519100328,0.260677531909,0.303501431437,1.0,-0.00314,-0.00412685714286,0.158
0.464888846203,0.546146062344,-0.12395448386,-1.35779452489,0.0794061623084,1.89487163514,0.158931102055,0.000416096002125,-0.0197553577855,-0.000118676046859,-0.0244277462498,-0.00103640887966,0.013163896002,-0.00287387607917,0.573831052799,0.818958567649,0.00235249216845,0.0,0.818920342305,-0.57377058037,-0.0117277858945,0.0,-0.00825493887421,0.00865643808197,-0.999928458473,0.0,0.661469782538,0.260613759208,0.303504522599,1.0,-0.00346,-0.00454742857143,0.174
0.464841596673,0.545866007694,-0.123958001922,-1.35827514059,0.0793848583092,1.8950371342,0.158917972651,-0.00590974664249,-0.0208358367061,-0.00280268939245,-0.0311407040106,-0.00137683136318,0.0173218581257,0.00207066657231,0.573882645176,0.818922494012,0.00232492319919,0.0,0.818883842652,-0.573822198299,-0.0117509099547,0.0,-0.00828915153779,0.00864765182533,-0.999928251468,0.0,0.661414156934,0.260534880351,0.303488504475,1.0,-0.00378,-0.004968,0.19
0.464785511368,0.54555282821,-0.123958117477,-1.35880008548,0.0793047892723,1.89521714736,0.158854891626,-0.00391641835981,-0.020558810078,-0.000387510405298,-0.0307257392186,-0.0115061690011,0.00887417383805,-0.0101466368789,0.573885016509,0.81892098419,0.00227076650586,0.0,0.818882030612,-0.573825189679,-0.0117310924965,0.0,-0.00830397466915,0.00859195352012,-0.999928608621,0.0,0.661356887878,0.260438772156,0.303475859829,1.0,-0.0041,-0.00538857142857,0.206
0.464723470777,0.545178873529,-0.123961174679,-1.35946180932,0.0792559522514,1.89543012944,0.158738757331,-0.00331178544659,-0.0201962165279,-0.000862356700938,-0.041192394456,-0.00013548833892,0.00991545701156,-0.00494298192837,0.573866712557,0.818934000479,0.0022013586192,0.0,0.818894186056,-0.57380719329,-0.0117628174062,0.0,-0.00836997685265,0.00855313380432,-0.999928391131,0.0,0.661276787885,0.260328882209,0.303444131079,1.0,-0.00444,-0.00583542857143,0.223
0.464655296803,0.544744208582,-0.123963389518,-1.36019564738,0.0792445777404,1.89568430793,0.158684877235,-0.00264010819432,-0.0239542151257,-0.00111497725807,-0.0433707468173,-0.00272746955924,0.0216557420013,0.00156944689626,0.573917842969,0.81889822687,0.00217955320885,0.0,0.818857820181,-0.573858086985,-0.0118115719353,0.0,-0.00842188322683,0.00856378095609,-0.999927864168,0.0,0.661189154739,0.26021653297,0.303424638417,1.0,-0.0048,-0.00630857142857,0.241
0.464592495818,0.544342642104,-0.123968244486,-1.3608712767,0.0792107644137,1.89592395468,0.158572551705,-0.0113352332243,-0.0245032681861,-0.00246857646235,-0.0436016117847,3.52816173684e-05,0.01862549597,-0.00423305321043,0.573909357049,0.818904245847,0.00215242319366,0.0,0.818863424101,-0.573849645595,-0.0118331661435,0.0,-0.00845522549914,0.00855387008824,-0.999927667618,0.0,0.661111509381,0.260108067718,0.303408171164,1.0,-0.00512,-0.00672914285714,0.257
0.464531962127,0.543812837125,-0.123967979626,-1.36171783201,0.07917182989,1.89622468699,0.158503550383,-0.000138379870787,-0.0305307867715,2.48640388014e-05,-0.0471262661656,-0.000721695660865,0.0229420358385,-0.00097548478246,0.57393898356,0.818883501844,0.00214486789503,0.0,0.81884244966,-0.573879164822,-0.0118530046453,0.0,-0.00847549813468,0.00855937511413,-0.999927448883,0.0,0.661008534091,0.25998878651,0.303406176974,1.0,-0.00548,-0.00720228571429,0.275
0.464468105309,0.543351836709,-0.123974322646,-1.36246125493,0.0791238307263,1.89647408322,0.158377094923,-0.00719298250869,-0.0307820271152,-0.000239677859886,-0.0497180922454,-0.00532258430118,0.0146591528476,-0.0104065605904,0.573920623422,0.818896449713,0.00211413320751,0.0,0.818855011531,-0.57386094384,-0.0118673554788,0.0,-0.00850508054039,0.00854225309163,-0.999927344119,0.0,0.660920015235,0.259869870642,0.303400274859,1.0,-0.00578,-0.00759657142857,0.29
0.464381874404,0.542775819369,-0.123971184863,-1.36338623071,0.0790755970754,1.89680956964,0.158258950751,-0.00661721122605,-0.0314669444491,0.000550089590123,-0.0517033366704,-0.00880790839705,0.0212981054582,-0.00427278307264,0.573930877229,0.818889281592,0.00210702600739,0.0,0.818847648297,-0.573871122016,-0.011883227474,0.0,-0.00852205030605,0.00854564898972,-0.999927170619,0.0,0.660813424668,0.259727434208,0.303396434428,1.0,-0.00614,-0.00806971428571,0.308
0.46431755751,0.542221460859,-0.123979313601,-1.36424903215,0.0790255399724,1.89711931946,0.158140081279,-0.00493209940142,-0.030798041692,-0.000569376747539,-0.0551782039616,-0.00745156099443,0.0239652913028,-0.00862226455511,0.573926434599,0.818892394214,0.00210743173616,0.0,0.818850766939,-0.573866679039,-0.0118828899457,0.0,-0.00852158741301,0.00854574128466,-0.999927173775,0.0,0.66071231006,0.259598012876,0.303404925133,1.0,-0.00646,-0.00849028571429,0.324
0.464238312478,0.541590797396,-0.123982530788,-1.36520383662,0.0789724176234,1.89747602859,0.158013090766,-0.00781704897297,-0.0428795167823,-0.00148006720849,-0.0598808479995,-0.00267660518279,0.0212862752703,-0.00856952792452,0.573928418383,0.818890927459,0.00213691356788,0.0,0.818849657296,-0.573868517225,-0.0118705764463,0.0,-0.00849456348164,0.00856283696901,-0.999927257461,0.0,0.660604141459,0.259454354482,0.30342741783,1.0,-0.0068,-0.00893714285714,0.341
0.464156442556,0.54098448177,-0.123975062906,-1.36615858621,0.0789115732096,1.89783005201,0.157893021242,-0.00653552524867,-0.0422328093849,0.000348517277204,-0.0629440926451,-0.0059786977415,0.0325099707697,-0.0141386677612,0.573928619175,0.818890775732,0.00214112422072,0.0,0.818849543693,-0.573868684308,-0.0118703355416,0.0,-0.00849194763667,0.00856614880256,-0.999927251314,0.0,0.660493308879,0.259313417978,0.30343204176,1.0,-0.00712,-0.00935771428571,0.357
0.464078995545,0.540280655088,-0.12398318716,-1.36720961181,0.0788436604625,1.89821851761,0.157757728582,-0.00499418937964,-0.0433684741741,-0.000790286916466,-0.0608295741828,-0.00590414893597,0.0225706571212,-0.00556793234781,0.573926965696,0.818891852557,0.00217227179992,0.0,0.818851098488,-0.573866980565,-0.0118454220036,0.0,-0.00845368726972,0.00857733939785,-0.999927479581,0.0,0.660372335583,0.259157420741,0.303463160449,1.0,-0.00746,-0.00980457142857,0.374
0.463977989852,0.539551475537,-0.123986017864,-1.36833320022,0.0787914942067,1.89864990369,0.157633887531,-0.00420668765465,-0.0407498785614,-0.0017803152817,-0.0701769867962,-0.002589657948,0.0261407216121,0.000801312038308,0.573958579166,0.818869592415,0.00221063832584,0.0,0.818829226313,-0.573898325689,-0.0118387841035,0.0,-0.00842590090435,0.00860527265129,-0.999927474108,0.0,0.660247638199,0.258986116291,0.303481133839,1.0,-0.0078,-0.0102514285714,0.391
0.463872115557,0.538811384433,-0.123989130735,-1.36950064866,0.0787190205353,1.89910366322,0.157485127648,-0.00686924169233,-0.0374919151875,-0.000101525831624,-0.0688741022479,-0.00110073196504,0.0285350303697,-0.00922149823171,0.573970937453,0.818860878588,0.00222965906814,0.0,0.818820810947,-0.573910660234,-0.0118228816617,0.0,-0.00840183191833,0.00861184752182,-0.999927620032,0.0,0.660119774213,0.258804617437,0.303487740569,1.0,-0.00814,-0.0106982857143,0.408
0.463763731326,0.538074760278,-0.123994803029,-1.37062537522,0.0786507978706,1.8995291855,0.157339031926,-0.00851362719185,-0.0450976159832,-0.00121147676924,-0.0711246549235,-0.00586426086366,0.0306746826415,-0.00785875689876,0.573987884489,0.818848917364,0.0022596221165,0.0,0.818809274145,-0.573927524723,-0.011803213196,0.0,-0.00836835013547,0.00862526698069,-0.999927785135,0.0,0.659996835417,0.258623790139,0.303509742046,1.0,-0.00846,-0.0111188571429,0.424
0.463653613984,0.53728451997,-0.123993209482,-1.37188625684,0.0785776334707,1.90000255328,0.157184113474,-0.00640902339025,-0.0513605480623,-0.000630644846414,-0.0810907836451,-0.00191367576559,0.0290323258587,-0.00782071876878,0.574000060533,0.818840373837,0.00226264957108,0.0,0.818800730825,-0.573939647201,-0.0118064165862,0.0,-0.00836910740582,0.0086297091062,-0.99992774047,0.0,0.659852128209,0.258433036535,0.303508594187,1.0,-0.0088,-0.0115657142857,0.441
0.463544624975,0.536435748577,-0.124002381655,-1.37317905011,0.078512558693,1.90049413389,0.157020033168,-0.00364346891095,-0.0539898246512,-0.00163795468118,-0.0774793945167,-0.00775534591103,0.0301084591435,-0.010224648473,0.574015174054,0.81882965366,0.00230762709879,0.0,0.818790533478,-0.573954522067,-0.0117904956063,0.0,-0.00833009480534,0.00865755329566,-0.999927825541,0.0,0.659706638919,0.25823631498,0.303535372651,1.0,-0.00914,-0.0120125714286,0.458
0.463428835002,0.535583381416,-0.124005912162,-1.374544915,0.0784168310701,1.90099196148,0.156853837124,-0.00853997568353,-0.0489016344491,0.000573266908191,-0.0787354891917,-0.000956076456198,0.0278614547912,-0.0121097782854,0.574025738509,0.818822310494,0.00228522841258,0.0,0.818783004636,-0.573965280261,-0.0117896257824,0.0,-0.00834212746855,0.00863882115652,-0.999927887239,0.0,0.659547388322,0.258025251066,0.303530062916,1.0,-0.00948,-0.0124594285714,0.475
0.463305407331,0.534683785549,-0.124007037631,-1.37597809883,0.0783508283496,1.90151536688,0.156678795388,-0.00355445251752,-0.0500309018915,0.00126677593149,-0.0834850545513,-0.00508242218282,0.0350074169127,-0.0147680294766,0.574045213709,0.818808652782,0.00228684248836,0.0,0.818769165314,-0.573984537076,-0.011813214189,0.0,-0.00836031072996,0.00865388179315,-0.999927605147,0.0,0.659378284196,0.257809721732,0.303528067839,1.0,-0.00982,-0.0129062857143,0.492
0.463179262542,0.533773381273,-0.124017648245,-1.37746844416,0.0782560434275,1.90205119922,0.15649962584,-0.00901803314956,-0.0496923446135,-0.00107023773281,-0.0903164152517,-0.00737204902067,0.034408232124,-0.0136922076813,0.574065415159,0.818794611241,0.00224290496427,0.0,0.818754600974,-0.574004956608,-0.0118304722451,0.0,-0.00839945007146,0.00862801983606,-0.999927500628,0.0,0.659202740475,0.257576472829,0.303507656222,1.0,-0.01016,-0.0133531428571,0.509
0.463057459614,0.532910589309,-0.12401799389,-1.37885754592,0.0781818201091,1.90258485101,0.156317516699,-0.0080985194162,-0.0546596787384,-0.00158975253399,-0.0853293776848,-0.000847015653742,0.0294828763986,-0.0143158198624,0.574073832436,0.818788681189,0.0022533023236,0.0,0.818748678482,-0.57401320097,-0.0118403334857,0.0,-0.00840146751439,0.00864228031182,-0.999927360529,0.0,0.659030661157,0.257357658346,0.303499696301,1.0,-0.0105,-0.0138,0.526
0.46292690045,0.531938083914,-0.12401582931,-1.38042711748,0.0780864970046,1.90316232806,0.156122128783,-0.00533712495385,-0.0618524978541,0.000985922210041,-0.0889024585532,-0.00348070903739,0.028520213422,-0.0255154878592,0.574077978926,0.818785824848,0.00223473515569,0.0,0.818745595789,-0.574017435326,-0.0118482159048,0.0,-0.00841853637282,0.00863164559292,-0.999927308828,0.0,0.658857537306,0.257132071818,0.303489678651,1.0,-0.01082,-0.0142205714286,0.542
0.462802506245,0.530928155093,-0.12401373992,-1.38204661589,0.0779854374822,1.90374028349,0.155924639998,-0.00593626926153,-0.0652890565648,0.000738923164849,-0.0942571375892,-0.00900888987078,0.0301690111029,-0.00576413320003,0.574077591677,0.818786173895,0.00220614449392,0.0,0.818745535635,-0.574017123011,-0.0118674879013,0.0,-0.00845073299993,0.00861929577718,-0.999927143772,0.0,0.658658708397,0.256895247935,0.303480600006,1.0,-0.01116,-0.0146674285714,0.559
0.462667676169,0.529913503284,-0.124023713411,-1.38368831046,0.0778908480742,1.904322555,0.155708689629,-0.00945757077052,-0.0616990740567,-0.00224298559185,-0.0924186380652,-0.00658392352418,0.0377125504657,-0.0189794754829,0.574081921957,0.818783239979,0.00216788221656,0.0,0.818742046448,-0.574021547462,-0.0118941720292,0.0,-0.00849450115172,0.00860333110183,-0.999926910401,0.0,0.658460298328,0.256643325078,0.303464842335,1.0,-0.0115,-0.0151142857143,0.576
0.462538065423,0.528914995501,-0.124021809121,-1.38525379136,0.077783864433,1.90490185975,0.155492525306,-0.0109457838969,-0.0631668209572,0.00786469457832,-0.091974666497,-0.00673498186216,0.0319595922622,-0.0117576960842,0.574065805053,0.818794529849,0.00217169482322,0.0,0.818753462762,-0.574005495097,-0.011883001099,0.0,-0.00848333486632,0.00859987282311,-0.999927034947,0.0,0.658274874688,0.256408406254,0.303473073957,1.0,-0.01182,-0.0155348571429,0.592
0.462399201988,0.527826491189,-0.124019349917,-1.38696402906,0.0776871370067,1.90557035349,0.155260817349,-0.0119836109509,-0.0652387035081,-0.00407891579142,-0.099566132341,-0.00843429518975,0.0403194346664,-0.0162352950865,0.574054877853,0.818802078197,0.00221378721259,0.0,0.818761511933,-0.573994353682,-0.0118665673051,0.0,-0.00844583121862,0.00862479066408,-0.999927137806,0.0,0.658076982149,0.256159418834,0.30348329064,1.0,-0.01216,-0.0159817142857,0.609
0.462255629615,0.526666466158,-0.124019105194,-1.38872534199,0.0775704389615,1.90623445391,0.15499775634,-0.00653988159966,-0.0685499526214,0.00129663304258,-0.101455237746,-0.00747847772178,0.0386356462154,-0.0267051244562,0.57402055118,0.818826011273,0.00226207591586,0.0,0.818786155888,-0.57395992631,-0.0118313489339,0.0,-0.00838963685609,0.0086437602989,-0.999927447069,0.0,0.65787041616,0.255897455045,0.303518885038,1.0,-0.0125,-0.0164285714286,0.626
0.46209445982,0.525506381685,-0.124022306344,-1.3905631252,0.0774558451037,1.90689810689,0.154769257692,-0.00861554866269,-0.0700181691914,0.0010560893213,-0.108064660986,-0.00986453633625,0.0410643354629,-0.0149853408684,0.574035757791,0.818815391697,0.00224722018508,0.0,0.818775336481,-0.573975182233,-0.0118399937285,0.0,-0.00840508231109,0.00863671451886,-0.99992737824,0.0,0.657650427134,0.255613189965,0.303517933544,1.0,-0.01284,-0.0168754285714,0.643
0.461942232682,0.524319809204,-0.12403330279,-1.39242660206,0.0773398680851,1.90756211547,0.154509937944,-0.0092266945732,-0.0754936045819,-0.000748116851318,-0.114196043679,-0.00737002645379,0.0434229996611,-0.0177950819963,0.574024608367,0.818823247897,0.00223262039257,0.0,0.818783015892,-0.573964104925,-0.0118459294458,0.0,-0.00841844053896,0.00862805278598,-0.999927340642,0.0,0.657424138374,0.255327412492,0.303523347933,1.0,-0.01318,-0.0173222857143,0.66
0.461777233415,0.523125918489,-0.12403778779,-1.39432977616,0.0772160016374,1.90827262345,0.154251716622,-0.0111891466253,-0.0683299401595,0.000322567827171,-0.113549784913,-0.00573204097272,0.0478878833845,-0.0125222664397,0.57402017464,0.818826372368,0.00222663916328,0.0,0.818786134582,-0.573959769025,-0.011840450104,0.0,-0.00841743356772,0.00861996447117,-0.999927418878,0.0,0.657199590456,0.255034318098,0.303518527121,1.0,-0.01352,-0.0177691428571,0.677
0.461629334844,0.52196654431,-0.124038432264,-1.39615760062,0.0771026570211,1.9089862994,0.154000429458,-0.0123369461815,-0.0736901296722,-0.000783040561794,-0.113548149805,-0.00604377483767,0.0476845308891,-0.0176508473427,0.574003458854,0.818837995032,0.00226141918522,0.0,0.818798256249,-0.573942967624,-0.0118166145438,0.0,-0.00837812862786,0.00863458994822,-0.999927622789,0.0,0.656986098001,0.254765112452,0.303525156588,1.0,-0.01384,-0.0181897142857,0.693
0.46146604905,0.520724695616,-0.124046660728,-1.39817714729,0.076987342932,1.90975611922,0.153723540312,-0.00917501978557,-0.0711460837596,4.91796068174e-05,-0.120523366666,-0.0100358649691,0.0440676625865,-0.0134117657866,0.573993255288,0.81884516783,0.00225408636933,0.0,0.818805299829,-0.57393275893,-0.0118243858445,0.0,-0.00838880871308,0.00863294179902,-0.999927547477,0.0,0.656745903756,0.254463232612,0.303503317053,1.0,-0.01418,-0.0186365714286,0.71
0.461269829563,0.519244810348,-0.124055283043,-1.40044114256,0.0768383410991,1.91057499881,0.153420103616,-0.00835566699926,-0.0743818308119,0.000362667250795,-0.11527369575,-0.00788434664963,0.0425843530428,-0.0154632405415,0.573991593747,0.818846270403,0.00227654449943,0.0,0.818806778213,-0.573931097103,-0.0118026536379,0.0,-0.00835814015016,0.00863884036353,-0.999927753355,0.0,0.656473576047,0.254111607103,0.30353602582,1.0,-0.01456,-0.019136,0.729
0.461109240646,0.517979529536,-0.124062404436,-1.40243150457,0.0767078050584,1.91129061066,0.153151773007,-0.0142306084664,-0.0755510422602,-0.000555100419657,-0.126956241257,-0.011786260799,0.0377062937077,-0.0119017313649,0.573978626059,0.818855400975,0.00226186260281,0.0,0.818815771088,-0.573918242516,-0.0118038479341,0.0,-0.00836768152712,0.00862737129428,-0.999927772577,0.0,0.656228465789,0.253809939138,0.303538940553,1.0,-0.01488,-0.0195565714286,0.745
0.460925304709,0.516616026416,-0.124068531534,-1.40456355118,0.0765731290382,1.91206662916,0.152858257198,-0.0167560940029,-0.0804876595177,-0.00124538126831,-0.127686819317,-0.00778299981094,0.0532813633636,-0.0119295200127,0.573969602834,0.818861719101,0.00226426927265,0.0,0.818822138622,-0.57390922982,-0.0118003445232,0.0,-0.00836352639171,0.00862723896863,-0.999927808481,0.0,0.655969654968,0.253481472359,0.303548154566,1.0,-0.01522,-0.0200034285714,0.762
0.460733144492,0.515161304897,-0.12406982227,-1.40686144139,0.0764383039422,1.9129407701,0.152548263927,-0.0121522467755,-0.0772174096102,0.00145275094412,-0.129011092948,-0.00464460604164,0.0501225530388,-0.0172437745158,0.573959116102,0.818868994536,0.00229122929084,0.0,0.818829718609,-0.573898593377,-0.0117916641162,0.0,-0.00834105546278,0.00864422617712,-0.999927849471,0.0,0.655693681896,0.253138588222,0.303550356306,1.0,-0.01558,-0.0204765714286,0.78
0.460571721325,0.513932084397,-0.124075449524,-1.40885808208,0.0763170672891,1.91363959201,0.152271132947,-0.012268677376,-0.0796952066374,5.58559985089e-06,-0.134791247949,-0.00533280244969,0.0451706539694,-0.0164066006844,0.573940517454,0.81888219398,0.0022319741659,0.0,0.818842069664,-0.573880146026,-0.0118317304987,0.0,-0.00840806965047,0.00861850980325,-0.999927510199,0.0,0.655439924677,0.252836553188,0.303522404488,1.0,-0.01588,-0.0208708571429,0.795
0.460374545038,0.512529195251,-0.124073102058,-1.41113791987,0.0761825544215,1.9144282661,0.151958747495,-0.0120400700129,-0.0775231805985,0.000143618679041,-0.136657493329,-0.00800890217171,0.0465379967467,-0.0178669179124,0.573923997375,0.818893946525,0.00216713691411,0.0,0.818852864847,-0.573863768691,-0.0118788727538,0.0,-0.00848405897722,0.00859230183422,-0.999927093889,0.0,0.655134151087,0.252470222237,0.303493574065,1.0,-0.01624,-0.021344,0.813
0.460166473359,0.510995185079,-0.124080625581,-1.41356487867,0.0760319303412,1.91534387963,0.151592451179,-0.0130840718331,-0.0836942096655,0.00363461170405,-0.133642282539,-0.0112853636946,0.0527597575823,-0.0261246645073,0.573889715085,0.818917950404,0.00217539130736,0.0,0.818876942578,-0.573829423606,-0.0118782329958,0.0,-0.00847915792939,0.00859833907702,-0.999927083565,0.0,0.654855790916,0.252117700718,0.303487248014,1.0,-0.01658,-0.0217908571429,0.83
0.459990767675,0.509695181543,-0.124084539279,-1.41563611517,0.075902336112,1.91613634317,0.151322231046,-0.0118950593782,-0.0899800012071,-0.00489837785373,-0.141132021343,-0.012226962716,0.0503827175667,-0.0197479664497,0.573887426347,0.818919527613,0.00218542369822,0.0,0.81887868313,-0.573827128376,-0.011869117768,0.0,-0.00846595990668,0.00860129993064,-0.999927169929,0.0,0.654588236147,0.25178129446,0.303479682534,1.0,-0.0169,-0.0222114285714,0.846
0.459767850614,0.508116640735,-0.124087274677,-1.4181526431,0.0757386384971,1.9170278257,0.150964913841,-0.0091903163857,-0.0917276898455,-0.00126883195112,-0.147090976575,-0.00711396921815,0.0540169708765,-0.0189495047858,0.57386637985,0.818934386936,0.00214356559879,0.0,0.818892996758,-0.573806251372,-0.0118908640379,0.0,-0.00850800991577,0.00857928313346,-0.99992700217,0.0,0.654289803699,0.251413297419,0.303464223282,1.0,-0.01724,-0.0226582857143,0.863
0.459576087044,0.506771284278,-0.124091479358,-1.42027414856,0.0756136394238,1.91779300967,0.150670346935,-0.0144381061047,-0.0848661972381,0.00660303677929,-0.143594875077,-0.00616557020544,0.0556983048775,-0.0127262689886,0.573861262151,0.818937992301,0.00213622789103,0.0,0.818896412575,-0.573801069259,-0.011905683084,0.0,-0.00852441047508,0.00858172490259,-0.999926841536,0.0,0.654026062317,0.251083127835,0.303461757342,1.0,-0.01754,-0.0230525714286,0.878
0.459352756137,0.505180249258,-0.124097509774,-1.42273987909,0.0754587357021,1.91873057909,0.150347849696,-0.0136894653076,-0.0928415436363,0.000945187021372,-0.145334523394,-0.0110494108963,0.0574271928205,-0.0163954631748,0.573869915683,0.818931800207,0.0021848079186,0.0,0.818890911136,-0.573809585196,-0.0118736050902,0.0,-0.00847017214301,0.00860318973714,-0.999927117999,0.0,0.653729806444,0.250700538364,0.303481675481,1.0,-0.01788,-0.0234994285714,0.895
0.459129019332,0.503524350267,-0.124101513748,-1.42520399299,0.0752993825624,1.91967386913,0.149991056221,-0.0103468028165,-0.0921899564208,0.000633682662406,-0.137644627095,-0.0086364968948,0.0565058403527,-0.0239201359951,0.573847477161,0.818947223095,0.0022946987338,0.0,0.81890786878,-0.573786827071,-0.0118036618013,0.0,-0.00835006891365,0.008652814989,-0.999927699957,0.0,0.653435620279,0.250319671507,0.303547398165,1.0,-0.01822,-0.0239462857143,0.912
0.45889231611,0.501835398162,-0.124110733831,-1.4277177951,0.0751341071805,1.920601271,0.149648799278,-0.0175916831368,-0.0943027968299,0.000551164209,-0.150561494122,-0.0140419133485,0.0560682521557,-0.02055832531,0.573851509101,0.818944167386,0.00237552263001,0.0,0.818905966767,-0.573790660163,-0.0117491618325,0.0,-0.00825901386787,0.00868777117065,-0.99992815308,0.0,0.65313082417,0.249919945627,0.303610679613,1.0,-0.01856,-0.0243931428571,0.929
0.458655826136,0.500115031498,-0.124111407595,-1.43030198902,0.0749692662608,1.92151816018,0.149289665763,-0.01771450341,-0.101543813786,-0.00176313211624,-0.153980936723,-0.0165101968681,0.0560444432408,-0.0217663785218,0.573838504863,0.818953148405,0.00242032138075,0.0,0.818915493449,-0.5737774531,-0.011730123811,0.0,-0.00821785420781,0.00871340314738,-0.999928269166,0.0,0.652804650265,0.249516942234,0.303660555135,1.0,-0.0189,-0.02484,0.946
0.458421132984,0.498528350856,-0.124114459344,-1.43277367618,0.0748123820787,1.92243642614,0.148922479767,-0.0144103807058,-0.0949540944186,0.000559790669952,-0.152086223629,-0.0125758402965,0.0593875044762,-0.0216230353363,0.573815516382,0.818969182445,0.00244504905265,0.0,0.818931862961,-0.573754391984,-0.0117153065771,0.0,-0.00819177513401,0.00872492125059,-0.99992838272,0.0,0.652500925294,0.249126727284,0.303670405034,1.0,-0.01922,-0.0252605714286,0.962
0.458159090538,0.496852194599,-0.124111783331,-1.43542910757,0.0746469857387,1.92339855136,0.148524439294,-0.0152854992024,-0.0920926787208,0.00140043583657,-0.159602471139,-0.011151971138,0.0526538163198,-0.0232847425501,0.573792034533,0.818985678671,0.00243025512452,0.0,0.8189480862,-0.573730881374,-0.0117326369194,0.0,-0.00821470735401,0.00872251432703,-0.999928215587,0.0,0.65216875037,0.248703175996,0.303658252964,1.0,-0.01956,-0.0257074285714,0.979
0.457895582552,0.495195899092,-0.124114567391,-1.4381447963,0.074483987022,1.92433417209,0.148137265369,-0.020533628323,-0.0921563693045,0.000179397573278,-0.159509209941,-0.0035713183199,0.0557668826631,-0.0225611603966,0.573785653367,0.818990447746,0.00232752920008,0.0,0.818951324122,-0.57372468112,-0.011809567866,0.0,-0.00833672283387,0.00868246089858,-0.999927554338,0.0,0.651816350146,0.248266879725,0.303600940623,1.0,-0.0199,-0.0261542857143,0.996
0.457615881526,0.493469827703,-0.124119767871,-1.44092888228,0.0743103099308,1.92533698655,0.147754355878,-0.0190426355849,-0.101082451226,0.000813406998763,-0.166466253717,-0.00524773458517,0.0542041533352,-0.0240858319437,0.573797883022,0.818982019677,0.00227767130914,0.0,0.818942181973,-0.573737034242,-0.0118433536663,0.0,-0.00839287091223,0.00866113912708,-0.999927269549,0.0,0.65146644706,0.247814344834,0.303564872708,1.0,-0.021324,-0.0280258285714,1.013
0.457332362884,0.491586570899,-0.124130619085,-1.44393335414,0.0741218760252,1.92645159656,0.147331464058,-0.0201215653764,-0.108912530414,1.96433681698e-05,-0.180424320182,-0.00632427732479,0.0699554434958,-0.0227254722196,0.573791182285,0.818986745552,0.00226641639822,0.0,0.8189467712,-0.573730388447,-0.0118479625037,0.0,-0.00840317407895,0.00865449743008,-0.999927240523,0.0,0.651091040798,0.247337262859,0.303542419851,1.0,-0.023228,-0.0305282285714,1.03
0.457007598551,0.489553727471,-0.124139698844,-1.44722587247,0.0739167417243,1.927595304,0.146863818181,-0.0244425830941,-0.125241241668,0.000654814820875,-0.202276914636,-0.0131290987438,0.0727704869763,-0.0331711742476,0.573789058114,0.818988505222,0.00216610321578,0.0,0.81894708236,-0.573728518825,-0.0119167898788,0.0,-0.00851712272127,0.00861181335304,-0.999926644955,0.0,0.650664200135,0.246801838865,0.303488591487,1.0,-0.025132,-0.0330306285714,1.047
0.456670389722,0.487445673023,-0.124155658926,-1.45049360339,0.0737143372299,1.928820721,0.146378336221,-0.0244055068146,-0.139215242502,-0.000381124285671,-0.209297953175,-0.0147164655448,0.0746359390233,-0.029692218823,0.573786682306,0.818990031126,0.00221788780467,0.0,0.818949315986,-0.57372596893,-0.0118860137828,0.0,-0.00846222989233,0.00863654039498,-0.999926897746,0.0,0.650264341555,0.246264200548,0.303504962011,1.0,-0.026924,-0.0353858285714,1.063
0.456281290124,0.485045548562,-0.124178716994,-1.45414284617,0.0734935545843,1.93021829607,0.145831022738,-0.0245680584981,-0.149913041955,0.000373196832648,-0.222653531435,-0.014334027032,0.0819026669744,-0.0297052130384,0.573794589401,0.818984147931,0.00234126294724,0.0,0.818945104977,-0.573733461248,-0.0118142871531,0.0,-0.00833261343168,0.00869650731088,-0.999927466526,0.0,0.649826580417,0.245656172394,0.303556504958,1.0,-0.028828,-0.0378882285714,1.08
0.455883711453,0.482656068072,-0.124214645795,-1.45786428645,0.0732597395227,1.93147268092,0.145262711434,-0.0239998898326,-0.156168373802,-0.00340638030456,-0.237282124506,-0.0116145312184,0.0771694125511,-0.043847459586,0.573799430211,0.818980951857,0.00227184651093,0.0,0.818940923837,-0.573738485956,-0.011860012621,0.0,-0.00840984056337,0.00866594341097,-0.999927085345,0.0,0.649345341209,0.245015325199,0.30355303773,1.0,-0.03062,-0.0402434285714,1.096
0.455411310647,0.479771160657,-0.124244871409,-1.46234401478,0.0729883214779,1.93309948752,0.144597175686,-0.0293755728465,-0.1684967048,-0.000162864998944,-0.249198304276,-0.0161891270694,0.095718594438,-0.0378992615998,0.573808394778,0.818974597827,0.00229806391597,0.0,0.818934842211,-0.573747275597,-0.0118547399879,0.0,-0.00839038454391,0.00868448113656,-0.999927087959,0.0,0.648781466605,0.244265319087,0.303562770299,1.0,-0.032636,-0.0428930285714,1.114
0.454958958859,0.47706828137,-0.124268256964,-1.46645171211,0.0727287056588,1.93460081257,0.144013820823,-0.0261265218231,-0.174366064348,-0.00233161845548,-0.25658199001,-0.0137183589049,0.0971946486756,-0.0379972856989,0.573846744836,0.818947506839,0.00237516008828,0.0,0.818908793134,-0.573785363661,-0.0118106679324,0.0,-0.00830964494874,0.00872272076814,-0.999927429338,0.0,0.64826900416,0.243567798116,0.303610353912,1.0,-0.034428,-0.0452482285714,1.13
0.454422199186,0.473877262834,-0.124277787689,-1.47136657583,0.0724298416927,1.93640337285,0.143313170529,-0.0292340121577,-0.181890595356,0.000654838328696,-0.278236224176,-0.0185232668991,0.102652894348,-0.0421289089244,0.573875375711,0.818927236397,0.00244571893438,0.0,0.81888929781,-0.573813573421,-0.0117918527729,0.0,-0.00825344158631,0.00876999585077,-0.999927481308,0.0,0.647646202229,0.242749211613,0.303635447771,1.0,-0.036444,-0.0478978285714,1.148
0.453919051284,0.470897099749,-0.124288728992,-1.47597660247,0.0721404499102,1.93799716619,0.142615164608,-0.0342896493757,-0.189152339584,-0.000338688811416,-0.28531316389,-0.02771482842,0.108108066296,-0.0381223990762,0.573865095244,0.818934522024,0.00241826353766,0.0,0.818896013649,-0.573803172953,-0.0118315019911,0.0,-0.00830177797192,0.00877016124073,-0.999927079718,0.0,0.647039167796,0.2419731123,0.303639541916,1.0,-0.038236,-0.0502530285714,1.164
0.453310787718,0.467158628293,-0.124290604822,-1.48157932186,0.0717763216437,1.94014640513,0.141704288868,-0.030054567253,-0.198425305477,-0.000333734171216,-0.298245825349,-0.0242859480408,0.113489061547,-0.0458229949452,0.573785674517,0.818989441885,0.00265343184305,0.0,0.81895414553,-0.573723065713,-0.011691804379,0.0,-0.00805328434201,0.00888179987185,-0.999928126538,0.0,0.646339338476,0.241052750332,0.303739853654,1.0,-0.040364,-0.0530498285714,1.183
0.452821681755,0.464289088063,-0.124298862959,-1.4859825419,0.071483160701,1.94165410655,0.141038769355,-0.0372992482119,-0.207908640513,-0.00420855484311,-0.320236744092,-0.0110949565838,0.112141761861,-0.0474434445215,0.573773713574,0.818997905225,0.00262749869755,0.0,0.818962175079,-0.573711091704,-0.0117169085594,0.0,-0.00808885415517,0.00887484705242,-0.999927901165,0.0,0.645751746085,0.240305182825,0.303753770712,1.0,-0.041932,-0.0551106285714,1.197
0.452045894452,0.459875715219,-0.124299995871,-1.49289271703,0.0710102958118,1.94405737722,0.140019324384,-0.0375200978443,-0.215910153231,0.000448750115323,-0.330342099913,-0.0229404538803,0.117603812515,-0.053688111053,0.573767062567,0.819002860291,0.00253370280517,0.0,0.818965833686,-0.573704698027,-0.0117741079415,0.0,-0.00818958855368,0.00883078137798,-0.99992747134,0.0,0.644827763469,0.239134058999,0.303713004308,1.0,-0.044284,-0.0582018285714,1.218
0.45150150206,0.456840781544,-0.124302070672,-1.49764626552,0.0706980882639,1.94575889151,0.139269229373,-0.0388570219329,-0.223772751575,0.000550877804853,-0.341905347745,-0.0238621637077,0.127257812934,-0.0504780931672,0.573734391427,0.819025805812,0.00251483783302,0.0,0.818988439267,-0.573671999219,-0.0117949379361,0.0,-0.00821782471885,0.0088269545968,-0.99992727347,0.0,0.644199076121,0.2383267201,0.303685861547,1.0,-0.045852,-0.0602626285714,1.232
0.450694290736,0.452542971379,-0.124350567749,-1.50433615776,0.070233104405,1.94810213629,0.13820419402,-0.0415587442331,-0.23571279055,-0.0023258011467,-0.355462473825,-0.0228299430544,0.121675588828,-0.0636023022107,0.573736748449,0.819024359361,0.00244727450436,0.0,0.818986298794,-0.573674806793,-0.011807003881,0.0,-0.00826644321578,0.00877856531864,-0.999927298711,0.0,0.643318871779,0.237131453401,0.303658984686,1.0,-0.04798,-0.0630594285714,1.251
0.450135874272,0.449414701576,-0.124392295299,-1.50900397524,0.0699200307574,1.94987114009,0.137505650353,-0.0435657660229,-0.23958254769,-0.000618387988934,-0.369648580369,-0.0207819123559,0.134751875416,-0.0494304728966,0.573778864344,0.818994305732,0.00262467356982,0.0,0.818958865184,-0.573716610007,-0.0116779896015,0.0,-0.00805854331513,0.00885025369441,-0.999928363879,0.0,0.642730283961,0.236308732576,0.303737807888,1.0,-0.049436,-0.0649730285714,1.264
0.4493216839,0.444993152732,-0.124422747577,-1.51579640408,0.0694623545608,1.95210939262,0.136499467611,-0.0391638097277,-0.255201818408,-0.00392615917603,-0.378490161925,-0.0271001138806,0.133347915919,-0.0613069206067,0.573822170611,0.818964333471,0.00250677444518,0.0,0.81892712375,-0.573760078222,-0.011767987351,0.0,-0.00819943267993,0.00880576717006,-0.999927611264,0.0,0.641789702989,0.235106254979,0.303729384492,1.0,-0.051452,-0.0676226285714,1.282
0.4485693087,0.440988147858,-0.124439833499,-1.52199784687,0.0690258220968,1.95426514988,0.135494832558,-0.0475211512364,-0.25485151135,-0.00421648624087,-0.394917227931,-0.027830221142,0.128239711432,-0.0699785940981,0.573782696941,0.818992148565,0.00245442076368,0.0,0.81895429972,-0.573720848838,-0.0117893799125,0.0,-0.00824741600917,0.00877476958072,-0.999927489145,0.0,0.640946158834,0.234014196439,0.303705425333,1.0,-0.053244,-0.0699778285714,1.298
0.447710991407,0.436612400185,-0.124443041886,-1.52872566924,0.068589305861,1.95666324652,0.134400322697,-0.0544060640185,-0.265892191168,-0.00195042314388,-0.394144031548,-0.0246490938893,0.140497975093,-0.0613992849772,0.573767733971,0.819002504719,0.00249632092314,0.0,0.818964968038,-0.573705482481,-0.011796075541,0.0,-0.00822902084846,0.00881277659122,-0.99992730645,0.0,0.640040628651,0.232822981889,0.303700782714,1.0,-0.055148,-0.0724802285714,1.315
0.446817712363,0.432046847181,-0.124473189468,-1.53553973589,0.0681021258856,1.95917428046,0.133303644645,-0.0529567533644,-0.266843333614,-0.0014610925114,-0.411302690415,-0.0278117217732,0.147600880103,-0.0656551596873,0.573784440278,0.818990185702,0.00269048688519,0.0,0.818955588659,-0.573721944096,-0.0116456673172,0.0,-0.00799424978644,0.00888566305064,-0.99992856593,0.0,0.639148808873,0.231586925131,0.303789699083,1.0,-0.057052,-0.0749826285714,1.332
0.445881687082,0.427432883862,-0.12451814924,-1.5427872633,0.067569200184,1.96151056663,0.132152619503,-0.0579683844665,-0.271812085083,-0.00763589524925,-0.433939513918,-0.0327682908863,0.140918032659,-0.0719819829502,0.573802681544,0.818978278428,0.00241019035297,0.0,0.818940007092,-0.573741159121,-0.0117938125769,0.0,-0.00827621025617,0.00874129088392,-0.999927544464,0.0,0.638117518011,0.230249261204,0.303686602911,1.0,-0.058956,-0.0774850285714,1.349
0.444804292408,0.42202247925,-0.124571160216,-1.55101157434,0.0669697899768,1.96428141427,0.130780955846,-0.0596353000728,-0.285538099,-0.00070621523385,-0.440539901654,-0.0340875603195,0.148754733916,-0.0694078461087,0.573780785115,0.818993811471,0.00234399363048,0.0,0.818954833236,-0.573719678722,-0.0118092450237,0.0,-0.0083270636417,0.00869571021341,-0.999927519691,0.0,0.636968014483,0.228733602206,0.303691527286,1.0,-0.061084,-0.0802818285714,1.368
0.444028950092,0.418230574727,-0.124581384758,-1.55669563514,0.0665852251702,1.96631093138,0.129897058474,-0.061404176346,-0.296057322813,-0.00269804359491,-0.432794499989,-0.031191257237,0.162999042718,-0.0735755760897,0.57383063055,0.818958557561,0.00245669332781,0.0,0.818920998809,-0.573769045356,-0.0117570065529,0.0,-0.0082190847852,0.00875853686637,-0.999927864737,0.0,0.636190769362,0.227696177064,0.303735428778,1.0,-0.06254,-0.0821954285714,1.381
0.442783775285,0.412277790271,-0.124602532594,-1.56560373975,0.065976177449,1.96953283033,0.128367062848,-0.0615940518348,-0.294147325579,-0.00183219207551,-0.454048003797,-0.0343638879042,0.155970132837,-0.0801454460687,0.573811822417,0.818971059257,0.00267272430144,0.0,0.818936353157,-0.573749518778,-0.0116398488634,0.0,-0.00799937908429,0.00886804471871,-0.999928681315,0.0,0.634977633275,0.226052697024,0.303807651932,1.0,-0.06478,-0.0851394285714,1.401
0.441816737512,0.407710583571,-0.124638408188,-1.57259439044,0.0654732889455,1.97174722774,0.127231315258,-0.0656063867265,-0.305614581965,0.000209960400101,-0.463334139911,-0.0255695732581,0.149557899129,-0.0742463231182,0.573842277608,0.818950309573,0.00248551424794,0.0,0.818912912074,-0.573780356325,-0.0117682638926,0.0,-0.00821164220672,0.00878871627642,-0.999927661083,0.0,0.633952423497,0.224735961722,0.303761671766,1.0,-0.06646,-0.0873474285714,1.416
0.440693945271,0.402462670602,-0.124686252502,-1.58066638565,0.0649151586432,1.97446277143,0.125885305006,-0.0694160990681,-0.317131989234,-0.000214022335188,-0.465188795121,-0.034101188895,0.158539321656,-0.0882673575107,0.573862691147,0.818936302521,0.00238558665442,0.0,0.818897362345,-0.573800887734,-0.011848969635,0.0,-0.00833486011337,0.00875340075109,-0.999926951373,0.0,0.632790490943,0.223223617115,0.303699058203,1.0,-0.068364,-0.0898498285714,1.433
0.439574979711,0.397282275759,-0.124700034699,-1.5881616647,0.0643733713344,1.9772108949,0.124586869149,-0.0696843530159,-0.324017072661,-1.14888011163e-05,-0.469434121712,-0.0331280708596,0.175409112234,-0.0741611043824,0.573869870816,0.818930185373,0.00273308546642,0.0,0.818896118785,-0.573807193015,-0.0116275012426,0.0,-0.0079540007874,0.00891095728027,-0.999928661811,0.0,0.631766439596,0.22180613629,0.30385852098,1.0,-0.070156,-0.0922050285714,1.449
0.438343506172,0.391760139712,-0.12470382078,-1.59652315785,0.0637391078284,1.97994851032,0.123186832143,-0.0690755049642,-0.324587068412,0.00312457116869,-0.501963172511,-0.0378275770362,0.157642388187,-0.0848247267678,0.57387837844,0.818924578267,0.00262464675246,0.0,0.818889019132,-0.573815981734,-0.0116936030787,0.0,-0.00807027009435,0.00886017096334,-0.999928181477,0.0,0.630534099465,0.220217933663,0.303828912296,1.0,-0.07206,-0.0947074285714,1.466
0.437024367632,0.385801177877,-0.12472357641,-1.60560012116,0.0630609725227,1.98287318627,0.121587204287,-0.0784850170735,-0.335291158308,-0.00115409833192,-0.50653218412,-0.0398119960957,0.169982184823,-0.0825110890652,0.573816353188,0.818968598577,0.00244422978532,0.0,0.818930432236,-0.573754342707,-0.0118172875116,0.0,-0.00827575927243,0.00878277607469,-0.999927184675,0.0,0.629170238318,0.218498187833,0.303760960702,1.0,-0.074076,-0.0973570285714,1.484
0.435820106881,0.380297628567,-0.124719700985,-1.61358579146,0.0624980391139,1.98568302406,0.12015743155,-0.0767122866081,-0.342367856792,-0.000233423475585,-0.508367820377,-0.0349827985032,0.175437758405,-0.0826311028898,0.57376970567,0.819000403027,0.00272242503337,0.0,0.818965789434,-0.573706620531,-0.0116831587085,0.0,-0.00800679258088,0.00893318749162,-0.999928042128,0.0,0.628016269481,0.216996583872,0.303886548479,1.0,-0.075868,-0.0997122285714,1.5
0.434290237551,0.37377731478,-0.124738782703,-1.62341667804,0.061739282784,1.98894506667,0.118398038476,-0.081199524002,-0.352825403593,-0.00291402666891,-0.533500466374,-0.0405945373331,0.168539599678,-0.0922787208092,0.573740020352,0.819021438948,0.00264924337339,0.0,0.818985918698,-0.57367724544,-0.0117145183654,0.0,-0.00807478651192,0.00889095220177,-0.999927871795,0.0,0.626551219858,0.215084138281,0.30384608066,1.0,-0.077996,-0.102509028571,1.519
0.433030980099,0.368499343156,-0.124800971566,-1.63136387446,0.0611327150045,1.9914428807,0.117052842571,-0.0846992002151,-0.361083468202,-0.0067154143863,-0.522828345712,-0.0412024765555,0.167886033735,-0.0869038082933,0.573828881968,0.81895970416,0.00248275697885,0.0,0.81892189147,-0.57376656713,-0.0118156259215,0.0,-0.00825215743997,0.00881350114068,-0.999927109391,0.0,0.625339927614,0.213493265325,0.303799318904,1.0,-0.079676,-0.104717028571,1.534
0.431484461457,0.361975107532,-0.124838511554,-1.64082020349,0.060374381217,1.99471778789,0.115312424515,-0.0900380161447,-0.36977902046,-0.00089110721646,-0.527023774773,-0.0464139801588,0.183630551227,-0.0927188463136,0.573813975256,0.818969386775,0.0027225406574,0.0,0.818935334176,-0.573751509171,-0.0116134001525,0.0,-0.00794911043532,0.00889368728187,-0.999928854454,0.0,0.623955436997,0.211612443743,0.303919820927,1.0,-0.081692,-0.107366628571,1.552
0.430122231205,0.356537307145,-0.124860884091,-1.64897066027,0.0597905797384,1.99731331691,0.113786116951,-0.0923553433581,-0.368535365505,-0.00418184902416,-0.547970327924,-0.0372528581982,0.174348507453,-0.0995085676361,0.573812972559,0.818970380216,0.00263358181856,0.0,0.818934610923,-0.573750194194,-0.0117287934739,0.0,-0.00809467221849,0.00888703625268,-0.999927745824,0.0,0.622698958882,0.209978235828,0.30387389956,1.0,-0.083372,-0.109574628571,1.567
0.428534202208,0.350307912603,-0.124916873887,-1.65838350862,0.0590611152832,2.00027888483,0.112070281279,-0.0978871082987,-0.362356714153,-0.00126490332505,-0.560470882946,-0.03673168281,0.168459066171,-0.104830573447,0.573859735113,0.818938251295,0.00242732009639,0.0,0.818899564153,-0.573797465284,-0.0118625277815,0.0,-0.00832204786377,0.00879532775677,-0.999926690177,0.0,0.621236158235,0.208058607917,0.303776453897,1.0,-0.085276,-0.112077028571,1.584
0.427104179868,0.344567277671,-0.124944063015,-1.66655113597,0.0584597399911,2.0031099387,0.110498538333,-0.093507193085,-0.384637924469,-0.00297465849337,-0.548407936342,-0.0475782901011,0.187206328384,-0.098531911175,0.573879160022,0.818923575292,0.00276304635766,0.0,0.81888937746,-0.573815794658,-0.0116776789372,0.0,-0.00797780054231,0.00896437848325,-0.999927994716,0.0,0.619932624842,0.206284622927,0.303928091048,1.0,-0.087068,-0.114432228571,1.6
0.425332913708,0.337678078791,-0.124939436783,-1.67669626279,0.0576447665797,2.00628886081,0.108587823971,-0.102723554155,-0.379957847763,-0.0067297508012,-0.569100652189,-0.0409622381157,0.17133905716,-0.113581617393,0.573836753728,0.818953630159,0.00266056779325,0.0,0.818917884601,-0.573773515561,-0.0117557655065,0.0,-0.00810101947043,0.00892484869589,-0.999927357641,0.0,0.618322388551,0.204218351211,0.303902394579,1.0,-0.089084,-0.117081828571,1.618
0.423315452679,0.329859667768,-0.124944787843,-1.68816274961,0.0566789535754,2.0098755452,0.10638778824,-0.100782803147,-0.398693601669,0.0010233797658,-0.55988742016,-0.0424739403941,0.184766345447,-0.102486032796,0.573769466927,0.819001031352,0.00257999390597,0.0,0.818964307816,-0.573706607793,-0.0117871794394,0.0,-0.00817370993491,0.00887621748157,-0.999927198965,0.0,0.616575897232,0.20200453973,0.303896517756,1.0,-0.091212,-0.119878628571,1.637
0.421650817712,0.323507035737,-0.124940443301,-1.69730536017,0.0559726909476,2.01294095882,0.104555370972,-0.109819710279,-0.395706671891,-0.00109190356768,-0.582214285774,-0.0494296981189,0.177338828806,-0.112734680194,0.573705351374,0.819045208225,0.00280420908544,0.0,0.819011371751,-0.573641671136,-0.0116770278299,0.0,-0.00795555567349,0.00899602568526,-0.999927887728,0.0,0.615147103215,0.200139416761,0.303969968482,1.0,-0.093004,-0.122233828571,1.653
0.41979221217,0.316693576191,-0.124984948605,-1.70731069886,0.0551518680797,2.01599675689,0.102646701538,-0.11012947339,-0.39621646059,-0.00396381185444,-0.590908726537,-0.0521238560535,0.172011492736,-0.127908533937,0.573756212989,0.819010047381,0.00266406581541,0.0,0.818974197478,-0.573692807488,-0.0117717204817,0.0,-0.00811295815211,0.00893607097423,-0.99992716062,0.0,0.613520025442,0.198028154491,0.303924488044,1.0,-0.094908,-0.124736228571,1.67
0.417994250916,0.310113859665,-0.125033052406,-1.71671927108,0.0543531502872,2.01897503603,0.10067715609,-0.109103568747,-0.421485160547,9.85353553576e-05,-0.587310475925,-0.0552614308123,0.192786258809,-0.119355129697,0.573689824411,0.819056202022,0.00276951205341,0.0,0.819022129917,-0.573626508041,-0.0116673424432,0.0,-0.00796769706394,0.00896189984277,-0.999928097492,0.0,0.611921018961,0.195893470597,0.303999545039,1.0,-0.096812,-0.127238628571,1.687
0.416115751843,0.303522298371,-0.125040749724,-1.72622986647,0.0535620319108,2.02196804128,0.0987072856619,-0.11955747285,-0.403811430484,0.000280290385376,-0.599483754346,-0.0518079725173,0.181732883393,-0.128648092892,0.573656170807,0.819079707811,0.00278870034842,0.0,0.81904577699,-0.573592671205,-0.0116708884371,0.0,-0.00795996306286,0.0089793232942,-0.999928002779,0.0,0.610466175924,0.193984823293,0.304004874035,1.0,-0.098492,-0.129446628571,1.702
0.413914284152,0.296059309876,-0.125110625244,-1.7372053993,0.0526785825979,2.02520318529,0.0965624711946,-0.120817402926,-0.41087805831,-0.00723941431816,-0.608239595716,-0.0436166178416,0.178247795636,-0.120981674952,0.573797908421,0.818981199077,0.00255004941238,0.0,0.818943501986,-0.573734526526,-0.0118735221795,0.0,-0.00826129909524,0.00890151997006,-0.999926254221,0.0,0.608630599176,0.191580090956,0.303898611206,1.0,-0.100508,-0.132096228571,1.72
0.412053160012,0.289610513713,-0.125192428219,-1.74615535204,0.0519292671319,2.02817008127,0.0946251989298,-0.124605401162,-0.431030776153,-0.0047452658952,-0.607906379474,-0.0515434023625,0.201946567172,-0.128492361922,0.573815906801,0.818967410589,0.00290385885795,0.0,0.818934950288,-0.57375196963,-0.0116177211379,0.0,-0.0078485913677,0.00904467883729,-0.999928294128,0.0,0.607211417395,0.18959077656,0.304059790133,1.0,-0.102188,-0.134304228571,1.735
0.409991708008,0.282784910689,-0.125214127734,-1.75603779849,0.0510869138387,2.03105998948,0.0925402320218,-0.132561355865,-0.441215363467,0.00216190235702,-0.629539571576,-0.0497967894996,0.179638585067,-0.130990839546,0.573818560323,0.818966148848,0.00273015963963,0.0,0.818931071929,-0.573754812888,-0.0117499369604,0.0,-0.00805651350136,0.00897831733118,-0.999927238557,0.0,0.605420408538,0.187270752525,0.30399926572,1.0,-0.104092,-0.136806628571,1.752
0.407752369808,0.275387816613,-0.125267067158,-1.76665200524,0.0501362978328,2.0341730837,0.0902849829637,-0.131270787225,-0.451769815247,-0.00404484518428,-0.620219927217,-0.0554212174281,0.194374508265,-0.134386181335,0.573821480478,0.818964472057,0.00261705021302,0.0,0.818927931025,-0.573758151609,-0.0118056829444,0.0,-0.00816703824772,0.00891770167492,-0.999926884369,0.0,0.603716375868,0.185045632358,0.303972974097,1.0,-0.105884,-0.139161828571,1.768
0.405425708157,0.267900549793,-0.125344708464,-1.77714964558,0.0492301503807,2.03749833781,0.0879484090929,-0.139589301471,-0.449669810014,-0.00409435173714,-0.626481842034,-0.0513829258071,0.188300473043,-0.139956972254,0.573855210269,0.818940087464,0.00284212803532,0.0,0.818906898405,-0.573791557521,-0.0116398953226,0.0,-0.00790173995452,0.00900722624917,-0.999928213614,0.0,0.601980698026,0.182653538114,0.304057087133,1.0,-0.107788,-0.141664228571,1.785
0.402729013407,0.259468270249,-0.125447154964,-1.78924307456,0.0481668902328,2.04090740885,0.0853247145976,-0.141203073796,-0.439032535644,-0.00222530128207,-0.63430611757,-0.0565258993878,0.171846227131,-0.149416446062,0.573952361256,0.818872794031,0.00260405553181,0.0,0.818836106227,-0.573889087955,-0.0118107056023,0.0,-0.00817718387806,0.00891124862978,-0.999926858981,0.0,0.599869022606,0.17986699074,0.303978531311,1.0,-0.109916,-0.144461028571,1.804
0.4004322941,0.252190649037,-0.125470665179,-1.79926996869,0.047262653838,2.0439597853,0.0830906400179,-0.144971738129,-0.444922741016,-0.000863095812523,-0.635950813457,-0.0495553766902,0.193765176919,-0.140982899774,0.573968482099,0.818860774604,0.00282139572353,0.0,0.818827269156,-0.573904831233,-0.0116573957072,0.0,-0.00792672405609,0.00900138677938,-0.999928068454,0.0,0.598150935215,0.177580136071,0.304094892069,1.0,-0.111708,-0.146816228571,1.82
0.397930105409,0.244485216813,-0.12545153673,-1.81022206556,0.0463120685554,2.04711868251,0.0805570479456,-0.14802764205,-0.458050430803,-1.87747153965e-05,-0.651678423485,-0.0574124812034,0.189406200084,-0.140871115669,0.573872136688,0.818928544117,0.00274904805032,0.0,0.818893480835,-0.573808055775,-0.0117698375243,0.0,-0.00806138519796,0.00900573272374,-0.999926952755,0.0,0.596199286001,0.17511821548,0.304039053119,1.0,-0.113612,-0.149318628571,1.837
0.395205150171,0.23612933027,-0.125466256888,-1.82175761957,0.045287780998,2.05046086173,0.0778708519426,-0.152727389194,-0.471308275817,3.09957385752e-05,-0.634401719913,-0.0539213872665,0.194029181834,-0.147490816637,0.573836341712,0.818953201569,0.00287288564002,0.0,0.818919562528,-0.573771616843,-0.0117315265367,0.0,-0.00795934421987,0.00908481343283,-0.999927054842,0.0,0.594150366155,0.172466204292,0.304112260769,1.0,-0.115628,-0.151968228571,1.855
0.392900977141,0.229154658238,-0.125443208575,-1.83147481752,0.0443735688041,2.05328383806,0.0756108587508,-0.155550799897,-0.469618058659,0.0013157037107,-0.657909255515,-0.063250213743,0.178946453299,-0.154284345352,0.573758621666,0.819007537214,0.00290601997756,0.0,0.818974415839,-0.573693891809,-0.0117034867706,0.0,-0.00791823041671,0.00909510756075,-0.999927287679,0.0,0.592401428672,0.170252083372,0.304119826718,1.0,-0.117308,-0.154176228571,1.87
0.39012563566,0.221158494486,-0.125481953553,-1.84272599466,0.0433127931924,2.05629400581,0.0728930988166,-0.163604561417,-0.475458266842,-0.00180030224162,-0.661381953577,-0.0533753600161,0.178854522935,-0.154831498357,0.573713049794,0.819040243665,0.00267631359352,0.0,0.819003683429,-0.57364864748,-0.0118719280769,0.0,-0.00818848084537,0.00900316409385,-0.999925943167,0.0,0.590327499564,0.167586477539,0.304041999312,1.0,-0.119212,-0.156678628571,1.887
0.387127186844,0.212547384188,-0.125562556249,-1.85438458102,0.0422700525545,2.05975606609,0.070048251872,-0.170262145271,-0.476466701011,-0.0024887995484,-0.653128707797,-0.0576568089679,0.187730763057,-0.158650362769,0.573786221945,0.8189878509,0.00300307930804,0.0,0.818955791089,-0.573720926801,-0.0116814936084,0.0,-0.00784422292741,0.00916224567631,-0.999927258065,0.0,0.588255678387,0.164774188948,0.304170781033,1.0,-0.121228,-0.159328228571,1.905
0.384533339665,0.20534335686,-0.125587275498,-1.86440631126,0.0413054569056,2.06238946995,0.067560950722,-0.169433345076,-0.47939343935,-0.00249883314137,-0.665206017819,-0.0704099833737,0.172580133708,-0.159282451059,0.573757617543,0.819008607474,0.00280073143054,0.0,0.81897347692,-0.573692535284,-0.0118349466259,0.0,-0.00808632012729,0.00908429043815,-0.999926040812,0.0,0.586245152261,0.162193044764,0.304105770233,1.0,-0.12302,-0.161683428571,1.921
0.381352725286,0.196545481805,-0.125673601503,-1.87630574839,0.0401464097493,2.06570665312,0.0645014416287,-0.175948919428,-0.500453915141,0.0014299718229,-0.666390537974,-0.05963571686,0.1894289958,-0.171055338066,0.57374171752,0.819019189424,0.00295902576025,0.0,0.818986563982,-0.573676585674,-0.0117017079034,0.0,-0.00788655136738,0.00913733625256,-0.999927153044,0.0,0.584187015913,0.159425365532,0.304193414527,1.0,-0.124924,-0.164185828571,1.938
0.378582498685,0.189252977809,-0.125749102957,-1.88634843785,0.0392090304976,2.06843784393,0.0619243272656,-0.189150829253,-0.490935522558,-0.00500788419051,-0.671606620292,-0.0549325057051,0.171590610224,-0.18723963203,0.573813358891,0.818969090748,0.00293333585,0.0,0.818935823632,-0.573747951013,-0.0117538241375,0.0,-0.00794317616391,0.00914689122448,-0.999926617474,0.0,0.5823127658,0.156914751873,0.304157632916,1.0,-0.126604,-0.166393828571,1.953
0.375335785657,0.180835606107,-0.125893312298,-1.89776104937,0.038120134066,2.0714081895,0.058927825273,-0.193103373393,-0.497863792034,-0.0037173273196,-0.652080295163,-0.0529652632358,0.186317675702,-0.17035459081,0.573945450138,0.818876649966,0.00289815581394,0.0,0.818842623644,-0.573879803603,-0.0118099797495,0.0,-0.00800787774061,0.00915159385041,-0.999926058378,0.0,0.580158521933,0.153980206204,0.304165511592,1.0,-0.128508,-0.168896228571,1.97
0.372089970113,0.172344625181,-0.125927869446,-1.90919054602,0.036928731872,2.07453419986,0.0559257892663,-0.193814203562,-0.495643843407,0.00641106005137,-0.683597316157,-0.0620050449555,0.178075382571,-0.180901913961,0.573932239301,0.818885603056,0.00298340425276,0.0,0.818853332429,-0.573867043574,-0.0116868802943,0.0,-0.0078582919358,0.00915062406998,-0.999927254018,0.0,0.577991990499,0.151121345299,0.304201158845,1.0,-0.130412,-0.171398628571,1.987
0.368744897295,0.163833796332,-0.125945442164,-1.92083897538,0.0357829538322,2.07739622945,0.0527631215319,-0.202751416423,-0.505120721817,-0.00782082449093,-0.673782722427,-0.0655861102625,0.166893131585,-0.181355590494,0.57386363567,0.818934477031,0.00275624499435,0.0,0.818898357624,-0.573798247411,-0.0119078986195,0.0,-0.0081704174872,0.00909076951957,-0.999925298304,0.0,0.575686595699,0.148209526365,0.30410388397,1.0,-0.132316,-0.173901028571,2.004
0.365105773181,0.154594007453,-0.125968953035,-1.93289705184,0.0345158246717,2.08071023915,0.049388326203,-0.201563010276,-0.507017738837,-0.00246045975751,-0.678814319279,-0.0717316845325,0.179434372779,-0.191320052899,0.573813584484,0.818968333155,0.00309619969196,0.0,0.818937669445,-0.573748198262,-0.0116122976115,0.0,-0.00773381392416,0.00919906578694,-0.999927780048,0.0,0.573383748986,0.145122803907,0.304264406348,1.0,-0.134332,-0.176550628571,2.022
0.361756543486,0.14640833961,-0.125986067925,-1.94399351967,0.0333940446661,2.08328222031,0.0463200686242,-0.209427585833,-0.505986803181,0.000368127378892,-0.706160042561,-0.0707332447441,0.156874012962,-0.193886552072,0.573798529298,0.818979875679,0.00282097679932,0.0,0.818944636702,-0.573732948543,-0.0118715068237,0.0,-0.00810419387657,0.00912225260767,-0.999925550503,0.0,0.571128787215,0.142286429845,0.304163445479,1.0,-0.136124,-0.178905828571,2.038
0.358114739031,0.137529163704,-0.126066281994,-1.95551804664,0.0322576553775,2.08627081338,0.042980066439,-0.215143883558,-0.527821762862,-0.00354441220451,-0.675850611962,-0.071467842594,0.172561896135,-0.203399635201,0.573841958305,0.818948441079,0.0030991360375,0.0,0.818916900616,-0.573775472747,-0.011728753619,0.0,-0.00782718694463,0.00926856427219,-0.999926411723,0.0,0.568866043944,0.139255945076,0.304286206267,1.0,-0.138028,-0.181408228571,2.055
0.354585633281,0.129195118123,-0.12613665277,-1.96654620479,0.0310664714404,2.08892513771,0.0396747911463,-0.21998454623,-0.526753398874,-0.00417091171691,-0.676047336938,-0.0863356551508,0.154286112791,-0.205530058818,0.573770305852,0.818998923121,0.00302439268001,0.0,0.818966437272,-0.573704118536,-0.0117603528022,0.0,-0.00789676178106,0.00922479492818,-0.999926269438,0.0,0.566635630532,0.136331284145,0.304269934014,1.0,-0.13982,-0.183763428571,2.071
0.350918335454,0.120740134143,-0.126260104143,-1.97761279776,0.0298898861364,2.0915738648,0.0364546340942,-0.230328234925,-0.541286980157,-0.0055155279875,-0.681388799916,-0.0772466215716,0.169510569491,-0.20780920348,0.573919235003,0.818894568276,0.00302401097838,0.0,0.818862084367,-0.573853037111,-0.0117611855728,0.0,-0.00789598512002,0.00922639619629,-0.999926260797,0.0,0.564393976928,0.13332032277,0.304285412786,1.0,-0.141612,-0.186118628571,2.087
0.346933541894,0.111749974272,-0.126349250781,-1.98933791453,0.0286202481306,2.09445790128,0.032792787232,-0.233489633803,-0.527960891645,-0.0055182892925,-0.698180094024,-0.0826086715268,0.153288156334,-0.217612227872,0.573897792739,0.81890929937,0.0031031912773,0.0,0.818878150195,-0.573831687479,-0.0116840266949,0.0,-0.00778759856275,0.00924675069199,-0.999926922785,0.0,0.56201461909,0.130123335876,0.304303690162,1.0,-0.143516,-0.188621028571,2.104
0.342887159117,0.102642856785,-0.126357552794,-2.00120388698,0.0272795804355,2.09710740982,0.0291297352013,-0.239850914367,-0.535762223449,0.00028499256087,-0.695142501902,-0.0795947262198,0.162462476471,-0.218778373951,0.573817418563,0.818966113333,0.00297022998927,0.0,0.81893312518,-0.57375164906,-0.0117613173179,0.0,-0.00792809861758,0.00918144524117,-0.999926420451,0.0,0.559513400206,0.1269341962,0.304279107737,1.0,-0.14542,-0.191123428571,2.121
0.338767362818,0.093460951513,-0.126354061366,-2.01292451798,0.0260704900407,2.0999096844,0.0253402154771,-0.24269107319,-0.533379245445,0.00118306997544,-0.703141330878,-0.0664929352717,0.156515621489,-0.224135728173,0.573723916299,0.819030756069,0.00319927837246,0.0,0.819000526744,-0.57365712215,-0.0116786258291,0.0,-0.00773001374527,0.00932069707221,-0.999926683059,0.0,0.557067162153,0.12377386251,0.304352679047,1.0,-0.147324,-0.193625828571,2.138
0.334730477658,0.0848014026671,-0.126418945155,-2.02422841962,0.0248609608595,2.10225810291,0.021699153496,-0.255482905669,-0.533018023037,-0.00195615922691,-0.710961049577,-0.0725316831926,0.15118961117,-0.227647322246,0.573720621986,0.819033895702,0.00297867438122,0.0,0.818999647542,-0.573653252899,-0.011927684863,0.0,-0.0080606071436,0.00928287077084,-0.999924424606,0.0,0.554618355624,0.12065658213,0.304259227992,1.0,-0.149116,-0.195981028571,2.154
0.32954229293,0.0737899993992,-0.126568120586,-2.0380075962,0.0232590340959,2.1054704529,0.0170387670429,-0.258980318406,-0.539038002347,-0.00696731148927,-0.706598637673,-0.0817083687915,0.159260325653,-0.233859481671,0.573741177919,0.819018420754,0.00326100095783,0.0,0.818989043144,-0.573674240406,-0.0116430239326,0.0,-0.00766524640636,0.00935098635523,-0.999926898854,0.0,0.551722996451,0.116707616389,0.30440091864,1.0,-0.151356,-0.198925028571,2.174
0.325210763174,0.0649695378233,-0.126677678089,-2.04937973933,0.0219868526961,2.10771734509,0.0132238036172,-0.274904462818,-0.546926798364,-0.00780925383598,-0.699902610294,-0.0758914206609,0.130765210946,-0.244032847919,0.573818928976,0.818964866813,0.00302168431463,0.0,0.818931383897,-0.573751624211,-0.0118831428586,0.0,-0.00799833421787,0.00929350335421,-0.999924825897,0.0,0.549212309719,0.113448631288,0.304306461686,1.0,-0.153148,-0.201280228571,2.19
0.320766096014,0.0559927459145,-0.126815589445,-2.0604553712,0.0206743059155,2.11014447207,0.00927080908615,-0.274385812737,-0.553334223336,-0.0090754450837,-0.687694670349,-0.0749680855454,0.156011852954,-0.249567871804,0.573879978699,0.818921245576,0.00324198907023,0.0,0.81889144003,-0.573812863976,-0.0116770493837,0.0,-0.00770243708838,0.00935624208653,-0.999926563902,0.0,0.546679916098,0.109960291943,0.304425774481,1.0,-0.155052,-0.203782628571,2.207
0.315720149683,0.0459797470308,-0.126830870452,-2.0731816022,0.019261537063,2.11272949313,0.00482408805427,-0.280811623466,-0.557792656295,0.000422621717501,-0.718256951275,-0.0726862757568,0.138554909905,-0.250126986363,0.573859953877,0.818935624699,0.00315322631097,0.0,0.818903766287,-0.573792065397,-0.0118336025938,0.0,-0.0078818142443,0.00937320000381,-0.999925007251,0.0,0.543979769428,0.106541516379,0.304350843683,1.0,-0.156956,-0.206285028571,2.224
0.311115904002,0.0368843337915,-0.126865004426,-2.08433863898,0.0179565068817,2.11496055562,0.000705552806958,-0.292788599484,-0.581239513888,-0.00528012687916,-0.687438297491,-0.0759289403626,0.146311498715,-0.270507592515,0.573795041479,0.818980618551,0.00327776040577,0.0,0.818950462321,-0.573726827002,-0.0117649965246,0.0,-0.00775491435984,0.00943520172539,-0.999925416354,0.0,0.541475651849,0.10327992196,0.3044299346,1.0,-0.158748,-0.208640228571,2.24
0.306059993742,0.0272839750957,-0.126974577129,-2.09625518897,0.0164879381647,2.11733667545,-0.00374381490705,-0.299049470727,-0.571728293717,-0.00306261806035,-0.710346120739,-0.0866518409433,0.127810904658,-0.263611215575,0.573811909181,0.818968820572,0.0032727227089,0.0,0.818938960253,-0.573744149386,-0.011720807394,0.0,-0.00772141896203,0.00940588009262,-0.999925951813,0.0,0.538787522494,0.0997050587307,0.304423978073,1.0,-0.15998,-0.210259428571,2.257
0.300870532033,0.0176351086915,-0.127078980575,-2.10811715977,0.0150593948609,2.11949112062,-0.00832486110082,-0.311651540341,-0.577860442705,-0.00654156623108,-0.674949118067,-0.0900843735926,0.137016411482,-0.262329514099,0.573827367673,0.818958201508,0.00321919146002,0.0,0.81892726933,-0.57375933324,-0.0117941497192,0.0,-0.00781202490233,0.00940427062044,-0.999925263188,0.0,0.536050591068,0.0960993069324,0.304421921865,1.0,-0.15998,-0.210259428571,2.274
0.295887126543,0.00859949169709,-0.127205758638,-2.11914399647,0.0137058481962,2.12154371683,-0.0126506407458,-0.312764340823,-0.552613410124,-0.00588042821314,-0.704472809609,-0.0860176754419,0.115626887944,-0.272157342248,0.573917759405,0.818894752343,0.00324606301891,0.0,0.818864237005,-0.573849700965,-0.0117740799311,0.0,-0.00777912974888,0.00941561977023,-0.999925412841,0.0,0.533506082191,0.0926791900722,0.304434286438,1.0,-0.15998,-0.210259428571,2.29
0.290575990404,-0.000952272326787,-0.127230669201,-2.13080072755,0.0123421098204,2.12353891514,-0.0173582348274,-0.317820936671,-0.563596647623,0.0010041695204,-0.670525743846,-0.0845214004017,0.11734703043,-0.287407536021,0.573863766059,0.818932773165,0.00319967845437,0.0,0.818900658843,-0.573794683769,-0.0119213559056,0.0,-0.00792698318374,0.00946163515667,-0.999923817297,0.0,0.530739730985,0.0891386875993,0.304405038281,1.0,-0.15998,-0.210259428571,2.307
0.284906649499,-0.0110701171988,-0.127226065549,-2.14277875527,0.0108250351404,2.12578935545,-0.0223434257477,-0.319745000015,-0.547242100162,-0.000444650747658,-0.675392876771,-0.0813430337348,0.118648609128,-0.275507487596,0.57377143253,0.818996397211,0.00346286990506,0.0,0.818968703014,-0.573702676716,-0.0116725795589,0.0,-0.00757328868056,0.00953355832025,-0.999925875535,0.0,0.527931143301,0.0854377572752,0.304523769221,1.0,-0.15998,-0.210259428571,2.325
0.279741937017,-0.0199354983438,-0.12725231052,-2.15360049068,0.00945702253535,2.12738580603,-0.026910794929,-0.324573670175,-0.549568435442,-0.00705487845665,-0.681537368016,-0.0856841744849,0.0916581802396,-0.291933779123,0.573682978635,0.819059471321,0.00318894408817,0.0,0.819027100005,-0.573613821611,-0.0119390123391,0.0,-0.00794969178544,0.00946122194711,-0.999923640925,0.0,0.52527070539,0.0820760420212,0.304420516972,1.0,-0.15998,-0.210259428571,2.341
0.274459554302,-0.0289012470643,-0.127400091561,-2.1639445288,0.00811762931389,2.12919464684,-0.0314333279918,-0.327252326422,-0.559878235506,-0.0146390419046,-0.643544258623,-0.0833678922815,0.124774046622,-0.285185437201,0.573828395524,0.818956367056,0.00349116745553,0.0,0.818929011207,-0.573759503979,-0.0116641801643,0.0,-0.00754950945587,0.00955244001514,-0.999925875151,0.0,0.522810916359,0.0786586910879,0.304581417476,1.0,-0.15998,-0.210259428571,2.357
0.269087158139,-0.0376701941453,-0.127516416947,-2.17444170476,0.00678802955366,2.13078504748,-0.0360421936699,-0.33622978192,-0.5525825469,-0.0014438996401,-0.651226107756,-0.0863723467159,0.0869701494578,-0.294809847673,0.573943716693,0.818875953377,0.00339557815235,0.0,0.818846728035,-0.57387434055,-0.0117908500893,0.0,-0.00770675681399,0.00954792621023,-0.999924718669,0.0,0.520222841762,0.0752313924435,0.30452598316,1.0,-0.15998,-0.210259428571,2.373
0.263407011704,-0.0469628902534,-0.12753456821,-2.18543440031,0.00545888005261,2.13238766329,-0.0410472773498,-0.330546361196,-0.555767659017,-0.00167402017755,-0.629888686195,-0.0817202054164,0.100021580046,-0.284199182281,0.573892773572,0.818911720144,0.00338022996643,0.0,0.818881222221,-0.573822135933,-0.0119351207803,0.0,-0.00783431034381,0.00961767158381,-0.999923059027,0.0,0.517466837306,0.0717135014634,0.304494179836,1.0,-0.15998,-0.210259428571,2.39
0.256921630843,-0.0573177717307,-0.127556751441,-2.19738231612,0.00378442251111,2.13425663891,-0.0467334641222,-0.346704199382,-0.535419981881,-0.00146815869034,-0.630633464958,-0.0846804091371,0.0884319695597,-0.297381409989,0.573777397337,0.818992022794,0.00350881826492,0.0,0.818964538917,-0.573708003593,-0.0117028847148,0.0,-0.0075716778816,0.00958863307635,-0.999925361119,0.0,0.514495371371,0.0677482481942,0.304570981995,1.0,-0.15998,-0.210259428571,2.409
0.251418344386,-0.0659553854466,-0.127595231449,-2.20764392709,0.00247255971272,2.13550936491,-0.0515670811234,-0.35151015209,-0.536650572893,-0.00343087517712,-0.632722008412,-0.0894830878038,0.0773464716117,-0.308373796111,0.573723497978,0.819030778229,0.00326788652559,0.0,0.818998642684,-0.57365309119,-0.0120042138624,0.0,-0.00795734061817,0.00956367832698,-0.999922605399,0.0,0.5118269098,0.0644113808613,0.304448820998,1.0,-0.15998,-0.210259428571,2.425
0.24537899866,-0.075173541175,-0.12775438489,-2.21798095309,0.00107278694443,2.13702050542,-0.05676656953,-0.358036259785,-0.534247397836,-0.00985484475874,-0.612652342057,-0.076427689976,0.082279515587,-0.311816608114,0.573856805584,0.818936213708,0.00354844536217,0.0,0.818908772436,-0.573786670601,-0.0117484454285,0.0,-0.00758532280701,0.009647964153,-0.999924686997,0.0,0.509216583449,0.0607730896062,0.304586206683,1.0,-0.15998,-0.210259428571,2.442
0.240027896134,-0.0831943443747,-0.127825498733,-2.2272644524,-0.000131120940418,2.13813349611,-0.061435290461,-0.354889281039,-0.533562884196,-0.00496301439134,-0.622980154802,-0.0797169612597,0.0707337470613,-0.304377191079,0.57387272735,0.818925372205,0.00347483298213,0.0,0.818896086695,-0.573801726771,-0.0118964050126,0.0,-0.00774855192107,0.00967273575135,-0.999923196114,0.0,0.506778295701,0.057612314025,0.304535506703,1.0,-0.15998,-0.210259428571,2.457
0.23397424058,-0.0922753039506,-0.12782539439,-2.23764904164,-0.00149542666838,2.13930148733,-0.0667724371008,-0.357513351105,-0.534982223275,-0.00220172487056,-0.594111576409,-0.0752225383595,0.0797997625492,-0.30789370259,0.573768065193,0.81899896593,0.00341292712173,0.0,0.818967994022,-0.573696218545,-0.0120341387711,0.0,-0.00789811588866,0.00970006935396,-0.999921761149,0.0,0.504009188536,0.054117311375,0.304503340915,1.0,-0.15998,-0.210259428571,2.474
0.227011432655,-0.102390365525,-0.127907335566,-2.24890608326,-0.00312079165663,2.14067824354,-0.0728235987136,-0.370109468732,-0.52886076753,-0.00353175956504,-0.600178997143,-0.0852842667645,0.0518418913469,-0.311029702599,0.573753693894,0.819008495481,0.00353977022649,0.0,0.81898023434,-0.573682706678,-0.0118437629141,0.0,-0.00766958514387,0.00969459122212,-0.999923593263,0.0,0.501031535313,0.0501184480262,0.304583486554,1.0,-0.15998,-0.210259428571,2.493
0.221043246159,-0.110845174782,-0.12804487159,-2.25853766197,-0.00443162207961,2.14159271379,-0.0779680100207,-0.377027408909,-0.518151794143,-0.0119308407902,-0.593081948608,-0.0925498643595,0.0651232586707,-0.330725430798,0.573856544199,0.818937088657,0.00338502620201,0.0,0.818905612248,-0.573784619097,-0.0120646598636,0.0,-0.0079380742869,0.0096955876408,-0.999921488196,0.0,0.498396027168,0.0467027816043,0.304504002776,1.0,-0.15998,-0.210259428571,2.509
0.21459284173,-0.119857548788,-0.128147438395,-2.2683043591,-0.00583301514459,2.14271900592,-0.0835427693683,-0.376720160811,-0.526183528154,-0.00199529346695,-0.569515594975,-0.0877739124135,0.0709659125042,-0.32695089732,0.573920995699,0.818890827154,0.00364016495725,0.0,0.818863899359,-0.573849674772,-0.0117988131714,0.0,-0.0075731782077,0.00975257404188,-0.99992376423,0.0,0.495766425859,0.0430961502866,0.304634331636,1.0,-0.15998,-0.210259428571,2.526
0.208203958696,-0.1286873158,-0.128156643871,-2.27815503524,-0.00717495615643,2.14359010348,-0.0892027256578,-0.376365421414,-0.524816336146,-0.00143667692791,-0.573357150229,-0.0915983555593,0.0514833306795,-0.32639853036,0.573804533501,0.818972726417,0.00357457974501,0.0,0.818944074761,-0.573732348358,-0.011939085551,0.0,-0.00772708218344,0.00977827057899,-0.999922335797,0.0,0.493012105615,0.0396069285696,0.304589908981,1.0,-0.15998,-0.210259428571,2.543
0.20199220158,-0.136999533332,-0.128217413113,-2.28734955259,-0.00852172742899,2.14436151566,-0.0946143326148,-0.389228339251,-0.517484843882,-0.00697278028706,-0.561762740884,-0.083616222902,0.0468753848871,-0.344028300446,0.573784395029,0.81898721451,0.00348674503961,0.0,0.81895716575,-0.573712219207,-0.0120082097383,0.0,-0.00783433284557,0.00974580583239,-0.999921818193,0.0,0.490420955919,0.0362283609968,0.304556440433,1.0,-0.15998,-0.210259428571,2.559
0.195344333604,-0.145891292251,-0.128343079821,-2.29675460715,-0.00985584403986,2.14529840788,-0.100442515867,-0.400573192494,-0.513956529514,-0.0109795962236,-0.56099822314,-0.078793715574,0.0530212871888,-0.335920864893,0.573839895455,0.818946855053,0.00381705174953,0.0,0.818922209188,-0.573767977744,-0.0117247564903,0.0,-0.00741199309457,0.00985419121367,-0.999923975747,0.0,0.487639874399,0.0324297761379,0.304700245998,1.0,-0.15998,-0.210259428571,2.577
0.188156281474,-0.155097158285,-0.128492072963,-2.30686084603,-0.0113277838196,2.14594040447,-0.106705530237,-0.389392137976,-0.514736514152,-0.00504560138606,-0.558916650489,-0.0848788025678,0.0364147949648,-0.346027385859,0.573889732529,0.81891266147,0.00365714129302,0.0,0.818884926857,-0.573817035911,-0.0119261379003,0.0,-0.00766808298667,0.00983925540609,-0.999922191751,0.0,0.484860228446,0.0288077722333,0.304627236645,1.0,-0.15998,-0.210259428571,2.594
0.18177642187,-0.163290223763,-0.128507492885,-2.31563965231,-0.0126128998201,2.14649081629,-0.112296777108,-0.40645523778,-0.512080467621,-0.000762761660449,-0.538370240041,-0.0789981878171,0.0357828151406,-0.352718583912,0.573828213444,0.818955814598,0.00364720342909,0.0,0.818927763361,-0.57375532195,-0.0119539044511,0.0,-0.00769726537592,0.00984647335669,-0.999921896484,0.0,0.482287189147,0.0255006497982,0.304636236697,1.0,-0.15998,-0.210259428571,2.61
0.174861597391,-0.171954581544,-0.12854560613,-2.32472117578,-0.0138702711769,2.14717936212,-0.118415210161,-0.405010986558,-0.503488871317,8.49744335557e-05,-0.5482051669,-0.0746934142131,0.0307835077803,-0.369097793898,0.573790460747,0.818981106765,0.00389882270361,0.0,0.818956752365,-0.573717251017,-0.011794089344,0.0,-0.00742245740585,0.00996049490858,-0.999922844857,0.0,0.479636868107,0.021969342909,0.304723084126,1.0,-0.15998,-0.210259428571,2.627
0.16781846134,-0.180513550289,-0.128698614761,-2.33392158272,-0.0152811556933,2.14755514187,-0.124548734214,-0.428784788785,-0.502943593865,-0.0126062299984,-0.534595920546,-0.0838831113131,0.0263189363918,-0.373495107325,0.573857208914,0.818935146172,0.00372519028497,0.0,0.818907652569,-0.573783439157,-0.011982003813,0.0,-0.00767517932176,0.00992673721739,-0.999921272656,0.0,0.476853125347,0.0183420151157,0.304653760169,1.0,-0.15998,-0.210259428571,2.644
0.161099778493,-0.188558958076,-0.128809414051,-2.342331091,-0.0165079177516,2.14797196994,-0.130435658697,-0.40917874402,-0.497362156694,-0.00256133796761,-0.512099575774,-0.0704248784078,0.0348433004832,-0.369960350011,0.573914960132,0.818894279367,0.00381112287873,0.0,0.818867765288,-0.573840686091,-0.0119664890372,0.0,-0.00761245861259,0.00998874506794,-0.999921134613,0.0,0.474308312808,0.014956109755,0.304681184285,1.0,-0.15998,-0.210259428571,2.66
0.153996720333,-0.197081289843,-0.128826548579,-2.35107167371,-0.0178635349873,2.14844008219,-0.136777800551,-0.428700522408,-0.490419975104,-0.00251848038431,-0.521563210761,-0.0848077069383,0.0177878263464,-0.38387095629,0.573766458065,0.818997584805,0.00396920451988,0.0,0.818974248449,-0.573693158866,-0.0117510318386,0.0,-0.00734710267003,0.00999321660561,-0.999923074893,0.0,0.471649065029,0.0114573518749,0.304766693762,1.0,-0.15998,-0.210259428571,2.677
0.147574176713,-0.204473506079,-0.128902286638,-2.35891948705,-0.0190294338656,2.14859543302,-0.142433633551,-0.426279658208,-0.49845739955,-0.00408764672943,-0.525523141275,-0.0744485673288,0.0177343467136,-0.382935744814,0.573766087397,0.818998582808,0.00381381862399,0.0,0.818971904406,-0.573691564544,-0.0119898067514,0.0,-0.00763182610054,0.0100029473977,-0.999920845004,0.0,0.469175918429,0.00830748657059,0.304679259948,1.0,-0.15998,-0.210259428571,2.692
0.14014012217,-0.212858738314,-0.129090553458,-2.36753663469,-0.0202867940822,2.14883575998,-0.148942735252,-0.438551400215,-0.487374164675,-0.00579828407382,-0.492254210857,-0.066492933206,0.0187548967179,-0.386782626996,0.573919919301,0.818890351522,0.00390708526891,0.0,0.818864340047,-0.573844305141,-0.0120271758192,0.0,-0.007607026062,0.0101022030745,-0.999920036127,0.0,0.466459593572,0.00466876098122,0.304691960007,1.0,-0.15998,-0.210259428571,2.709
0.131851526723,-0.222152208543,-0.129147378456,-2.37687573504,-0.0217720541814,2.14909360647,-0.156261227698,-0.435354149843,-0.481898622416,-0.00038872619875,-0.503682383894,-0.0850166342667,0.00390883336061,-0.400546136345,0.573876932518,0.818919803844,0.00404575037,0.0,0.818896635575,-0.573802232357,-0.0118340731753,0.0,-0.00736983818177,0.0101045475233,-0.999921788744,0.0,0.463488718197,0.000720189049243,0.304776252718,1.0,-0.15998,-0.210259428571,2.728
0.124743792154,-0.229868000734,-0.129202026622,-2.38488834172,-0.0230263590343,2.14915098413,-0.162582938197,-0.448625839575,-0.486276187836,-0.00856547397265,-0.48876003532,-0.0756992441874,0.0013525040718,-0.394393638909,0.573808829686,0.818968188731,0.00390892846884,0.0,0.818942388987,-0.573733475293,-0.0120004062386,0.0,-0.0075854138889,0.0100873204904,-0.999920350559,0.0,0.460870894685,-0.00262394620729,0.304694534505,1.0,-0.15998,-0.210259428571,2.744
0.11706600534,-0.238081651352,-0.129325875629,-2.39313838476,-0.0243281742515,2.14917702325,-0.169370190968,-0.454764620864,-0.487212136849,-0.0147982430356,-0.477895441204,-0.0825130814641,0.010417318676,-0.401352218252,0.573846028981,0.818941979668,0.00393901771347,0.0,0.818916464411,-0.573770414922,-0.0120034236022,0.0,-0.00757016140878,0.010114038154,-0.99992019626,0.0,0.458147996641,-0.00621950309169,0.304708972377,1.0,-0.15998,-0.210259428571,2.761
0.109730898058,-0.245780547668,-0.12946851467,-2.4006398227,-0.0255222133201,2.149261758,-0.175861448538,-0.458688315632,-0.479074436907,-0.00250694638285,-0.481829341146,-0.0694439152564,0.00710792567287,-0.407254397288,0.573919857234,0.818889166746,0.00415655632959,0.0,0.818867514205,-0.573844883787,-0.0117809351161,0.0,-0.0072622013767,0.0101651772604,-0.999921961756,0.0,0.45566347283,-0.00962419247072,0.304812281661,1.0,-0.15998,-0.210259428571,2.777
0.10242024004,-0.253318405483,-0.129497459082,-2.40830449406,-0.026672647455,2.14920220208,-0.182422463649,-0.469108786665,-0.470817163836,-0.00188026877479,-0.476562680177,-0.081280372387,-0.00775173406506,-0.414939499201,0.573836280157,0.818948004545,0.00410320953685,0.0,0.818924680076,-0.57376014527,-0.0119336064874,0.0,-0.00741888795656,0.0102083524553,-0.99992037165,0.0,0.453062862884,-0.0129198340976,0.304739684908,1.0,-0.15998,-0.210259428571,2.793
0.0944606847455,-0.261290436342,-0.129598133026,-2.41625585642,-0.0279635135651,2.14907162538,-0.189478414195,-0.465968086028,-0.46289631884,-0.00776360147861,-0.463014154635,-0.0711250195432,-0.0144468884165,-0.409265250242,0.573857104511,0.818933628399,0.004059899097,0.0,0.818909386657,-0.573780638942,-0.0119975715048,0.0,-0.0074958675852,0.0102097776942,-0.999919782987,0.0,0.450322359529,-0.0165071859966,0.304706030625,1.0,-0.15998,-0.210259428571,2.81
0.0863927687195,-0.269313726778,-0.129770191874,-2.42384567166,-0.0291968583504,2.14899726485,-0.196681043925,-0.478372872636,-0.470407369273,-0.00532066072769,-0.445086816227,-0.0701220837154,-0.00649975961361,-0.426578424964,0.573930812716,0.818880569914,0.00433374374412,0.0,0.818861235813,-0.573855287536,-0.0117103523339,0.0,-0.0071025749773,0.0102698645169,-0.999922038617,0.0,0.447691809951,-0.0201303685257,0.304841858069,1.0,-0.15998,-0.210259428571,2.827
0.0783530811609,-0.277154160395,-0.12981402496,-2.43153816689,-0.0304553382256,2.14878629789,-0.203937418344,-0.47512098376,-0.460177950796,-0.00139095165279,-0.454918274697,-0.0843201234179,-0.0168421612877,-0.439116357667,0.573816186923,0.818961000552,0.00431394259176,0.0,0.818941336195,-0.573740637441,-0.0117267097679,0.0,-0.00712877104317,0.0102620393706,-0.999921932538,0.0,0.44496614127,-0.0236412608001,0.304820040147,1.0,-0.15998,-0.210259428571,2.844
0.0705878862812,-0.284442967911,-0.129874554374,-2.4387035742,-0.0316558778318,2.14849053412,-0.210880803884,-0.485705955599,-0.453842734878,7.26909960693e-05,-0.444283680527,-0.0782031564031,-0.013144478832,-0.435473254617,0.573781684555,0.818985668924,0.00421894159436,0.0,0.818964317314,-0.573705808062,-0.0118253821771,0.0,-0.00726452710069,0.010240547491,-0.99992117581,0.0,0.442373835519,-0.0270040505359,0.304766758084,1.0,-0.15998,-0.210259428571,2.86
0.0612561160505,-0.293118986912,-0.130062511537,-2.44691679767,-0.0329204486697,2.14816601194,-0.21922448275,-0.493857876456,-0.461128699312,-0.0130199137091,-0.421481502577,-0.0670818164381,-0.00903781202432,-0.440481642603,0.573915310457,0.818890926019,0.00442883829653,0.0,0.818872322009,-0.5738387479,-0.0117455760805,0.0,-0.00707704290542,0.010367818655,-0.999921208796,0.0,0.43936824771,-0.031031281142,0.304824500703,1.0,-0.15998,-0.210259428571,2.879
0.0533911912432,-0.300346321971,-0.130137411636,-2.45362794658,-0.0340256298575,2.14788198501,-0.226365329626,-0.49031088784,-0.450353390532,0.000699745053031,-0.417004484049,-0.0713927312317,-0.0229528447154,-0.453522241881,0.573855838424,0.81893160459,0.00460983856515,0.0,0.818916322288,-0.573780187119,-0.0115369346769,0.0,-0.0068030573724,0.0103958095175,-0.999922819799,0.0,0.436880034014,-0.0343602887619,0.304913322356,1.0,-0.15998,-0.210259428571,2.895
0.0448542038357,-0.307842506078,-0.130202260072,-2.46091963803,-0.0353148735757,2.14733805372,-0.233965738162,-0.500938213243,-0.446298136625,-0.00495704331262,-0.425166589613,-0.0779598175263,-0.0330434154437,-0.450426826441,0.57385639893,0.818932401695,0.00439337707932,0.0,0.818913410216,-0.57378006747,-0.0117476654611,0.0,-0.00709984838743,0.0103394674705,-0.999921340689,0.0,0.434089977133,-0.0379307693934,0.304816808309,1.0,-0.15998,-0.210259428571,2.912
0.0367448107868,-0.314892870897,-0.130344854766,-2.46758217908,-0.0363624854585,2.14688939182,-0.24129819454,-0.512130377351,-0.439284312573,-0.00950243016783,-0.406533016717,-0.069411854643,-0.02906677682,-0.46757023999,0.573910506566,0.818894111753,0.00446218450305,0.0,0.818875386333,-0.573833021781,-0.0118115059483,0.0,-0.00711196078216,0.010432921287,-0.999920283906,0.0,0.43151741229,-0.0413021606232,0.304802168968,1.0,-0.15998,-0.210259428571,2.928
0.0280821680379,-0.32231734214,-0.130460975223,-2.47434851887,-0.0375412713659,2.14642823154,-0.249188213314,-0.504947027479,-0.438509838047,-0.00458281095921,-0.382506917819,-0.0649310262299,-0.0241890588547,-0.468408845209,0.573871601979,0.818920591027,0.00460401286572,0.0,0.818904745013,-0.573795221455,-0.0116107421014,0.0,-0.00686664740633,0.0104335240294,-0.999921992322,0.0,0.428866755076,-0.0448693235035,0.30488385886,1.0,-0.15998,-0.210259428571,2.945
0.0187724839372,-0.330062067284,-0.130521522278,-2.48148893149,-0.0387452419936,2.14586667815,-0.257652667565,-0.520950751615,-0.4265292163,0.00129743919235,-0.399759366161,-0.0727724780828,-0.0355104661979,-0.467612254303,0.573819722837,0.818956553425,0.00467292063433,0.0,0.818941919763,-0.573743635753,-0.0115377376191,0.0,-0.00676797766507,0.0104476331472,-0.999922517718,0.0,0.426016255908,-0.0486253145692,0.304907366762,1.0,-0.15998,-0.210259428571,2.963
0.010345129518,-0.336840759632,-0.130668336742,-2.48788800207,-0.0397891748959,2.1451764504,-0.265276284142,-0.533185507566,-0.421086872961,-0.0129948738773,-0.38854659151,-0.0621527270036,-0.0388464590379,-0.475274522308,0.573894005206,0.818904936202,0.00459599333285,0.0,0.818887718156,-0.573815732499,-0.0117964864262,0.0,-0.0070230828995,0.0105337381426,-0.999919855122,0.0,0.423383133936,-0.0520112398662,0.304825897045,1.0,-0.15998,-0.210259428571,2.979
0.00141597914007,-0.344047440864,-0.130791666198,-2.49442976709,-0.0408816101264,2.14453381482,-0.273435564673,-0.51647101653,-0.412558706126,-0.00804589746684,-0.37624247043,-0.0562204112787,-0.038170487549,-0.482850089527,0.573889703266,0.818907415538,0.00469043318878,0.0,0.818891426267,-0.573811121569,-0.0117633179967,0.0,-0.00694177926092,0.0105920065273,-0.999919807334,0.0,0.420670037968,-0.0555542383672,0.304849791503,1.0,-0.15998,-0.210259428571,2.996
-0.00716840890322,-0.350689091081,-0.130880670168,-2.50034346519,-0.0419749316991,2.14390103787,-0.281247145894,-0.545212949558,-0.409723074491,-8.49346407847e-05,-0.370727687974,-0.0659822218495,-0.0345805757372,-0.499056112286,0.573879106603,0.818914535354,0.00474359488644,0.0,0.818900072591,-0.573801645944,-0.0116227846777,0.0,-0.00679631561048,0.0105548066967,-0.99992119997,0.0,0.418155997071,-0.0589351222908,0.304906085789,1.0,-0.15998,-0.210259428571,3.012
-0.0164037022097,-0.357652054697,-0.13101841407,-2.5065452632,-0.0430642721081,2.14319128299,-0.289673968063,-0.547715991618,-0.398266062031,-0.0130057682245,-0.37365668887,-0.0598269184517,-0.0474720366434,-0.496075345603,0.573921997121,0.818883969361,0.00483040839981,0.0,0.818870940271,-0.573844753577,-0.0115468122308,0.0,-0.00668372359754,0.010582654353,-0.999921664565,0.0,0.415466229377,-0.0625420147361,0.304944361673,1.0,-0.15998,-0.210259428571,3.029
-0.0250400639257,-0.364121041136,-0.131096060075,-2.51246955463,-0.0441216722428,2.14239362149,-0.29768629171,-0.532376729444,-0.40731197941,0.00164415575729,-0.361356231909,-0.068963434095,-0.0490520982685,-0.50418814925,0.573812113083,0.818961549659,0.00473138043314,0.0,0.818946400253,-0.573733884373,-0.0117034327104,0.0,-0.00687024038793,0.0105905223282,-0.999920317142,0.0,0.413015904972,-0.0656495621305,0.304883678592,1.0,-0.15998,-0.210259428571,3.044
-0.0344225392803,-0.370905728635,-0.131180417253,-2.51853253151,-0.0452052773926,2.14160663,-0.306294709344,-0.558933189836,-0.397890482082,-0.00460869310703,-0.355249524253,-0.0645333209906,-0.0462925095383,-0.510008744385,0.573762876576,0.818996056634,0.00472943785819,0.0,0.818980775472,-0.573684498139,-0.0117189121886,0.0,-0.00688467023754,0.0105973994851,-0.999920145032,0.0,0.41013009193,-0.0694096488123,0.304873920808,1.0,-0.15998,-0.210259428571,3.062
-0.0439942311636,-0.377580357714,-0.131350518945,-2.52438525684,-0.0461887064706,2.14075929794,-0.314939439184,-0.565891644991,-0.394348404602,-0.010971631434,-0.334971772129,-0.0699721725936,-0.0493679513459,-0.505118195104,0.573975566582,0.818846379824,0.00483757348151,0.0,0.818832150437,-0.573896256079,-0.011736420672,0.0,-0.00683419184922,0.0106977853672,-0.999919422359,0.0,0.407415683683,-0.0730372529741,0.30489471274,1.0,-0.15998,-0.210259428571,3.079
-0.0534065144734,-0.384154431001,-0.131426525191,-2.53001092261,-0.04721813699,2.13998839038,-0.323776618417,-0.550750090351,-0.383434707522,-0.00363723382587,-0.336215944217,-0.0676935423592,-0.0480158148067,-0.524127537434,0.573812882715,0.818959655314,0.00496039302955,0.0,0.81894813423,-0.5737349966,-0.0115262317376,0.0,-0.006593694642,0.0106764104308,-0.999921265626,0.0,0.404780422819,-0.076545650928,0.304971508214,1.0,-0.15998,-0.210259428571,3.096
-0.0643083909136,-0.391370637862,-0.13157039419,-2.53644949509,-0.0484259409211,2.13891399163,-0.333778802299,-0.582147236419,-0.379926152295,-0.00590806703232,-0.335819893227,-0.0592112250629,-0.0580392069232,-0.528248730624,0.573851207252,0.818933486782,0.00484593263284,0.0,0.818919455174,-0.573772030516,-0.0117187813197,0.0,-0.00681657308063,0.0106934712018,-0.99991958877,0.0,0.401666271108,-0.0805757794815,0.304899927832,1.0,-0.15998,-0.210259428571,3.115
-0.0746797354144,-0.398142323424,-0.131703769203,-2.54227029618,-0.0494797870396,2.13794088523,-0.34335344516,-0.565949854637,-0.371319888625,-0.00400983431639,-0.321163100236,-0.0516947858972,-0.0527725440387,-0.526077357256,0.573886569267,0.81890834033,0.00490740797515,0.0,0.818895131602,-0.573807228471,-0.0116950798933,0.0,-0.0067614224746,0.0107305083724,-0.999919566443,0.0,0.398782875551,-0.0843693885024,0.304921016077,1.0,-0.15998,-0.210259428571,3.133
-0.0826385716016,-0.403232773745,-0.131750578787,-2.54670334171,-0.0502824845321,2.1371569936,-0.350865118708,-0.580056795126,-0.363749946903,-0.00838446311024,-0.317663513911,-0.0535751944582,-0.061361027866,-0.55058211249,0.573739207369,0.819011721,0.00488566192028,0.0,0.818997819567,-0.573659313773,-0.0117605343196,0.0,-0.00682944147635,0.0107490330508,-0.999918905221,0.0,0.396553074814,-0.0872259911602,0.304897996769,1.0,-0.15998,-0.210259428571,3.147
-0.0933208107501,-0.409706512716,-0.131911401634,-2.55213745916,-0.0513541033798,2.13617728023,-0.360671666285,-0.599696063238,-0.357383604135,-0.00909433302581,-0.292871536104,-0.053671742374,-0.0572327970851,-0.550599157978,0.573861703734,0.818925550267,0.00494317790122,0.0,0.818913083424,-0.573782697373,-0.0116415159705,0.0,-0.00669735386711,0.0107288598097,-0.99992001531,0.0,0.393701952264,-0.0910977305284,0.304948346627,1.0,-0.15998,-0.210259428571,3.165
-0.102786019668,-0.415381028297,-0.13200269674,-2.55688326345,-0.0521667683051,2.13533895741,-0.369470082071,-0.579699851814,-0.353617389477,-0.0040711540275,-0.299739797238,-0.0493598194806,-0.0547166575772,-0.549182556846,0.573903478377,0.818895388251,0.00508797682627,0.0,0.818885192609,-0.57382466837,-0.0115342185276,0.0,-0.00652583738694,0.0107862046846,-0.99992053246,0.0,0.391181882937,-0.0944574308245,0.304992550524,1.0,-0.15998,-0.210259428571,3.181
-0.11340285014,-0.421671524106,-0.132100408363,-2.56228881825,-0.053144113847,2.13418315225,-0.379509231102,-0.597796600081,-0.345966873484,-0.0100860805925,-0.297372482062,-0.0556833054988,-0.0690833913828,-0.550400976492,0.573771929668,0.818987825859,0.00504586175768,0.0,0.818975889395,-0.57369131939,-0.0117264464807,0.0,-0.00670917899152,0.0108609540531,-0.999918509977,0.0,0.388248198537,-0.0981663845749,0.304944775658,1.0,-0.15998,-0.210259428571,3.199
-0.121943543438,-0.426427518273,-0.132257638917,-2.56632401404,-0.0539513917282,2.13333771969,-0.387380600257,-0.613964343298,-0.33369285603,-0.0127130024538,-0.281305828628,-0.0467313207339,-0.0589558512131,-0.562563015586,0.573894925262,0.818901762079,0.00502650216787,0.0,0.81888919873,-0.573813752361,-0.0117900256431,0.0,-0.00677072706139,0.0108825937416,-0.999917859831,0.0,0.385970483934,-0.101177976394,0.304924385879,1.0,-0.15998,-0.210259428571,3.213
-0.132108871106,-0.432010608698,-0.132282410993,-2.57098700259,-0.0548221121213,2.13241056885,-0.396968241301,-0.593877446513,-0.327092692054,0.0044129415465,-0.277412668601,-0.0524545144301,-0.0553074366198,-0.576057951322,0.573784820023,0.818978705937,0.00506028009468,0.0,0.818966916667,-0.573704095416,-0.0117280522469,0.0,-0.00670205067332,0.0108737896885,-0.99991841828,0.0,0.383309667729,-0.104672889236,0.304934175534,1.0,-0.15998,-0.210259428571,3.23
-0.142504092509,-0.437481047371,-0.13239516332,-2.57558819453,-0.0556757838508,2.1313572408,-0.406755180095,-0.617507259412,-0.326787279333,-0.00779406934918,-0.266333898591,-0.0452006800745,-0.0663761986006,-0.584584620701,0.573773265611,0.818986778703,0.0050638801296,0.0,0.818974230641,-0.573691228824,-0.0118461140369,0.0,-0.00679683802125,0.0109443815822,-0.999917008309,0.0,0.380578114987,-0.108238908243,0.30490527608,1.0,-0.15998,-0.210259428571,3.247
-0.152482408576,-0.44262326135,-0.132540024837,-2.57965925359,-0.0565246713961,2.13041749928,-0.416003726293,-0.620147992571,-0.31875708564,-0.00483399151759,-0.251539540693,-0.0488560655269,-0.0524440773904,-0.577796131006,0.573908648361,0.81889137405,0.00515050920682,0.0,0.818881007228,-0.573828022263,-0.011663780189,0.0,-0.00659598946705,0.0109118085762,-0.999918709374,0.0,0.378047950691,-0.111678532045,0.304988119445,1.0,-0.15998,-0.210259428571,3.263
-0.162898837732,-0.447993959979,-0.132605934388,-2.58401507656,-0.0573749821167,2.12942077196,-0.425960353983,-0.617717318793,-0.311197860812,-0.00479016979465,-0.261996617012,-0.0496676791776,-0.0652742929115,-0.584252048421,0.573748970205,0.819002966684,0.00519679256289,0.0,0.818993652826,-0.573668981948,-0.0115776803255,0.0,-0.00650104100016,0.0108990321283,-0.99991947054,0.0,0.375347700694,-0.115179918493,0.305019497146,1.0,-0.15998,-0.210259428571,3.28
-0.173645921382,-0.453121041376,-0.132772854705,-2.58831073322,-0.0581742613008,2.1283369048,-0.436009597571,-0.640682480925,-0.301451243167,-0.0163840797929,-0.250669610224,-0.0539132655731,-0.0651839025036,-0.597340064909,0.5738826961,0.818909201204,0.00520751396462,0.0,0.818898757213,-0.573800534347,-0.0117694145794,0.0,-0.00665013563205,0.0110189022322,-0.999917176315,0.0,0.372564405612,-0.118787729613,0.304965058154,1.0,-0.15998,-0.210259428571,3.297
-0.185524143655,-0.45863776116,-0.132836005514,-2.59275637253,-0.0590185136679,2.12723757271,-0.447389404112,-0.624389196296,-0.285596984357,-0.00245208448847,-0.225088991691,-0.0405626379043,-0.0475340926491,-0.596311208186,0.573746530087,0.819004201247,0.00527109621555,0.0,0.818994737284,-0.573664436774,-0.0117252369947,0.0,-0.00657930458961,0.0110445267418,-0.999917362176,0.0,0.369578898285,-0.122720702332,0.304985836028,1.0,-0.15998,-0.210259428571,3.316
-0.195745124305,-0.463095426451,-0.132957605802,-2.59643071206,-0.0597385368925,2.12630196656,-0.457054619753,-0.648875404415,-0.270745768231,-0.00687050320634,-0.228000269251,-0.0536137938493,-0.0633923831527,-0.609305935564,0.573791878506,0.818972335631,0.00528588043825,0.0,0.818962468416,-0.57370872923,-0.0118116989516,0.0,-0.0066410267894,0.0111066084579,-0.9999162665,0.0,0.367014421139,-0.12610103926,0.30495275912,1.0,-0.15998,-0.210259428571,3.332
-0.207355435073,-0.468067889125,-0.133091311064,-2.60047608513,-0.0605777533664,2.12522013876,-0.46796727488,-0.634258549979,-0.275542585836,-0.00134204070787,-0.2178673513,-0.0478769517677,-0.0616647748931,-0.615203050698,0.57388942089,0.818904030041,0.00527911679115,0.0,0.818893622197,-0.573805522919,-0.0118829413275,0.0,-0.0067019312039,0.0111427439204,-0.999915458114,0.0,0.364100663095,-0.129909557622,0.304929499465,1.0,-0.15998,-0.210259428571,3.35
-0.216261917313,-0.471882112025,-0.133156936533,-2.6033956379,-0.061184478844,2.12442905735,-0.476553963288,-0.64510541053,-0.271660057477,-0.00550599391563,-0.2042664943,-0.0492431814366,-0.0548655202935,-0.61737298669,0.57378411867,0.818977333916,0.00535337238715,0.0,0.818968773252,-0.573701465153,-0.0117270721164,0.0,-0.00653309445684,0.0111132665204,-0.99991690354,0.0,0.361912364779,-0.132808596069,0.304993980568,1.0,-0.15998,-0.210259428571,3.364
-0.227444981026,-0.476369230841,-0.133328658892,-2.60682251647,-0.0619160779754,2.12347969966,-0.487086334021,-0.661041880076,-0.256050327541,-0.0102483509986,-0.203664031821,-0.0413972159184,-0.0587259739165,-0.622523421437,0.573945223846,0.818863707646,0.00546399360144,0.0,0.818857451947,-0.573863687492,-0.0115623730203,0.0,-0.00633254204512,0.011110614563,-0.999918223234,0.0,0.359200740952,-0.136466755854,0.305063773386,1.0,-0.15998,-0.210259428571,3.381
-0.238419842199,-0.48059603583,-0.133336637861,-2.61023512527,-0.0625899822667,2.12250556163,-0.497722614923,-0.641486749097,-0.244325591569,-0.00115320698891,-0.206020253249,-0.0364228282085,-0.053619046513,-0.633447819849,0.573757532006,0.818995320051,0.00545042218622,0.0,0.81898843491,-0.573675280404,-0.0116345622229,0.0,-0.00640200279379,0.0111394649121,-0.999917459934,0.0,0.356497939974,-0.139947941193,0.305036947185,1.0,-0.15998,-0.210259428571,3.398
-0.249632466413,-0.484624578145,-0.13345337985,-2.6135235006,-0.0633036797329,2.12153885838,-0.508411108501,-0.671900980677,-0.236771126104,-0.00993994191741,-0.193195366821,-0.0421996054824,-0.0529859161345,-0.627996412621,0.573789048942,0.818973474409,0.0054150189568,0.0,0.818965296303,-0.573705471248,-0.0117738104144,0.0,-0.00653593825677,0.0111906115385,-0.999916022336,0.0,0.353748905623,-0.143526075886,0.304984030995,1.0,-0.15998,-0.210259428571,3.415
-0.260938479733,-0.488523684162,-0.133547277688,-2.6166276855,-0.0639791931303,2.12055829653,-0.519216802689,-0.650653067207,-0.226888719413,0.000308260555042,-0.176559951158,-0.0292470861152,-0.051543239275,-0.632951920476,0.573809111449,0.818959521232,0.0053993612141,0.0,0.818950502864,-0.573724500682,-0.0118751032285,0.0,-0.00662761064009,0.0112360683425,-0.999914909152,0.0,0.351007632872,-0.14710766871,0.304960337344,1.0,-0.15998,-0.210259428571,3.432
-0.2721834724,-0.492206657832,-0.133638744489,-2.61956936965,-0.064579608226,2.11969248464,-0.530115267851,-0.66689307985,-0.216201661878,-0.00342380928361,-0.171324159968,-0.02847602977,-0.0461422290635,-0.641122013197,0.573744157829,0.819004771733,0.00543802684463,0.0,0.818995882734,-0.573658782825,-0.0119202287649,0.0,-0.00664328028169,0.011293100637,-0.999914162669,0.0,0.34847366288,-0.150432302206,0.30493687206,1.0,-0.15998,-0.210259428571,3.448
-0.283026012223,-0.495655060872,-0.133771425571,-2.62220560055,-0.0651489710489,2.11884452538,-0.54043231252,-0.670076316487,-0.216229163398,-0.00178189173518,-0.160156886904,-0.0340526018043,-0.046030855855,-0.650700983626,0.5738789958,0.818909805947,0.00551133412719,0.0,0.818901873818,-0.573793327904,-0.0119031429558,0.0,-0.00658536052669,0.0113444239857,-0.999913964835,0.0,0.345730749965,-0.154061530579,0.304955810056,1.0,-0.15998,-0.210259428571,3.465
-0.294300770603,-0.499139447482,-0.133787410497,-2.62487009099,-0.0656894875282,2.11797633722,-0.551441127958,-0.67029835199,-0.193387863266,-0.0026714800537,-0.154280318962,-0.0336561347884,-0.0453330576884,-0.649772759869,0.57372976306,0.819014021384,0.00556225289538,0.0,0.819006831731,-0.573644073706,-0.0118757392074,0.0,-0.00653576934912,0.0113692070552,-0.999914008728,0.0,0.343055006847,-0.157543000192,0.304975273378,1.0,-0.15998,-0.210259428571,3.482
-0.305962995035,-0.502449774993,-0.133927118248,-2.62737971874,-0.0662694073177,2.1171559162,-0.562580986579,-0.686442388616,-0.192513549183,-0.00604665029141,-0.141463606264,-0.031143798931,-0.0450247358641,-0.651926853341,0.573870039279,0.818915308875,0.00562510532405,0.0,0.818909176048,-0.573784513024,-0.0118254344132,0.0,-0.00645655526467,0.0113929322265,-0.999914253318,0.0,0.340315654459,-0.161184405475,0.304997479749,1.0,-0.15998,-0.210259428571,3.499
-0.31740918996,-0.505509134891,-0.133941411393,-2.62970801651,-0.0667891819407,2.116430578,-0.573755852913,-0.667831892818,-0.179262092504,-0.00131009150095,-0.137681490223,-0.0292237904887,-0.0394121098176,-0.668276598294,0.57375025756,0.818999005352,0.00565845231551,0.0,0.818993804806,-0.573665521546,-0.011737290118,0.0,-0.00636689251585,0.0113687295027,-0.999915103731,0.0,0.337661407323,-0.164704249001,0.305016658287,1.0,-0.1583,-0.208051428571,3.516
-0.328304621683,-0.508245891955,-0.134002449696,-2.63178205917,-0.0672972040698,2.11576132612,-0.584214124058,-0.691601093073,-0.17140174546,-0.00623619213037,-0.131327575449,-0.0302001633319,-0.0434195935788,-0.648437034022,0.573818387225,0.818951151552,0.00567598062613,0.0,0.818946604685,-0.573734342483,-0.0116666118308,0.0,-0.00629800143712,0.0113430598362,-0.999915831544,0.0,0.335136396382,-0.168058080022,0.305032396091,1.0,-0.156508,-0.205696228571,3.532
-0.340422128313,-0.51112163558,-0.133981145719,-2.63396856296,-0.0677545771614,2.1149889904,-0.595987758072,-0.659884218146,-0.157186642586,0.005761589304,-0.114661846688,-0.0269275568038,-0.0421823916419,-0.654269558571,0.573766439615,0.818987300908,0.00571144686308,0.0,0.81898316231,-0.573682191661,-0.0116648928192,0.0,-0.00627696458238,0.0113707217563,-0.999915649644,0.0,0.33233467386,-0.171726035546,0.305039529782,1.0,-0.154492,-0.203046628571,3.55
-0.351104186821,-0.513433352955,-0.133988025093,-2.6357900341,-0.0681320746897,2.11430708101,-0.606372273182,-0.668216883432,-0.139295215047,1.15320891815e-05,-0.114741281592,-0.0274802777301,-0.0455373761114,-0.650182278991,0.573751488977,0.81899761864,0.00573379981097,0.0,0.818992986217,-0.573665749843,-0.0117831611557,0.0,-0.00636121883174,0.0114567686658,-0.999914134987,0.0,0.329855065768,-0.174944800116,0.305008613132,1.0,-0.1527,-0.200691428571,3.566
-0.362564777837,-0.515686803546,-0.133996186934,-2.63756590227,-0.0685331229921,2.11366491915,-0.617335225964,-0.661948948903,-0.126731150485,0.00453792731358,-0.10389416199,-0.0245430903215,-0.0310488757866,-0.649520364208,0.573893576815,0.818897982984,0.00574481130468,0.0,0.818892952298,-0.573806796572,-0.0118675939358,0.0,-0.00642206060981,0.0115153431277,-0.999913073227,0.0,0.327224022096,-0.178399833448,0.304978649926,1.0,-0.150796,-0.198189028571,3.583
-0.373654110013,-0.517734972644,-0.133952632844,-2.63917775064,-0.0688289266677,2.11306571482,-0.628176661417,-0.656462316712,-0.116295686424,0.00112054371211,-0.0910743549502,-0.0181970317514,-0.025555757119,-0.637813618829,0.573848440988,0.818929237162,0.00579812025641,0.0,0.818924243466,-0.573760286422,-0.0119567591622,0.0,-0.00646513299445,0.0116098123739,-0.999911703258,0.0,0.324689261803,-0.181703294865,0.304951125181,1.0,-0.148892,-0.195686628571,3.6
