nelsonifechukwu/NELSON_IML_WORK/CNN-GradCAM/train2dof/data_sample_2022-02-21-09-16-42/robot_state.csv
position_joint1,position_joint2,position_joint3,position_joint4,position_joint5,position_joint6,position_joint7,velocity_joint1,velocity_joint2,velocity_joint3,velocity_joint4,velocity_joint5,velocity_joint6,velocity_joint7,ee_T_00,ee_T_10,ee_T_20,ee_T_30,ee_T_01,ee_T_11,ee_T_21,ee_T_31,ee_T_02,ee_T_12,ee_T_22,ee_T_32,ee_T_03,ee_T_13,ee_T_23,ee_T_33,v_x,v_y,time
0.465088216677,0.547603526687,-0.123982512664,-1.35575749425,0.0794408482843,1.89409040348,0.15916397765,0.000242871083271,-0.000110479804961,0.00103759274123,0.000320083569853,-9.84732705219e-05,8.6712881078e-05,-4.29376756765e-05,0.573773384303,0.81899959827,0.00212329922083,0.0,0.81895927851,-0.573714692781,-0.0117430120248,0.0,-0.0083995158873,0.00847688655565,-0.999928792728,0.0,0.661695238244,0.260904633169,0.30337498591,1.0,0.0,0.0,0.0
0.465085442334,0.547596365157,-0.123988135873,-1.35576342401,0.0794414586359,1.89408844103,0.159160177309,-0.00110529315576,-0.00191592097646,6.99340783737e-05,-0.00163770592928,0.000108348548538,9.93874881963e-05,-0.00147937906608,0.573776932515,0.818997115508,0.00212212253569,0.0,0.818956794601,-0.573718259352,-0.0117419914941,0.0,-0.00839931842955,0.00847537370787,-0.999928807211,0.0,0.661695657612,0.2608988986,0.303377253447,1.0,-0.00014,-0.000184,0.008
0.465087499291,0.54760134635,-0.123989939429,-1.35575928333,0.0794408482843,1.89409161959,0.159165568199,6.94006920432e-05,0.0017657461739,0.00020874220399,0.000405447880833,-5.12119040136e-05,0.000198443703855,0.000291513952895,0.573780565866,0.818994568072,0.0021228765463,0.0,0.818954279999,-0.573721912616,-0.0117388737175,0.0,-0.0083962946722,0.00847423959312,-0.999928842218,0.0,0.661697021275,0.260899759562,0.303376030448,1.0,-0.00044,-0.000578285714286,0.023
0.465084791614,0.547596563378,-0.123990679898,-1.35576878497,0.0794408482843,1.89409080633,0.159170275311,-0.00389647482947,0.0027907293334,-0.00165616712152,-0.00125505539608,-0.000115994341759,-0.000285983206881,0.000470724006386,0.573787661011,0.818989608906,0.00211836665394,0.0,0.818949255952,-0.573729017874,-0.0117421090749,0.0,-0.00840145865321,0.00847247521788,-0.999928813794,0.0,0.661695683383,0.260896418019,0.303374849829,1.0,-0.00078,-0.00102514285714,0.04
0.465091839032,0.547513725075,-0.123983095841,-1.35583738258,0.0794414581491,1.89410028468,0.159163725776,0.000662711714403,-0.00614042311345,-0.00347478417451,-0.00117882282923,4.93058734536e-05,0.000175214491587,-0.00194153675044,0.57377504786,0.818998376873,0.00214476894795,0.0,0.818958265941,-0.573716202913,-0.0117398493586,0.0,-0.0083845903018,0.0084926723963,-0.999928784045,0.0,0.661680423037,0.260899160761,0.303401454823,1.0,-0.0011,-0.00144571428571,0.056
0.465091892748,0.547368801161,-0.123977568684,-1.35600302498,0.079439532955,1.89413718196,0.159165561664,0.00115575469784,-0.00716738580214,0.000650793576949,-0.00482866511221,0.000287712866461,0.0019429402894,0.00132389535243,0.573781172051,0.818994030128,0.00216612911212,0.0,0.818954067267,-0.573722113315,-0.0117439048702,0.0,-0.00837559306329,0.00851255564055,-0.999928690376,0.0,0.661652460275,0.260886830479,0.303428290996,1.0,-0.00144,-0.00189257142857,0.073
0.465075526133,0.547236503048,-0.123986072608,-1.35619213389,0.0794346376447,1.89418736642,0.159159463837,2.92123999129e-05,-0.0099096377102,-0.000202530999239,-0.0129953302043,0.00012809409625,0.00686501808519,0.00140239999079,0.573804662637,0.818977581066,0.0021628103219,0.0,0.818937534923,-0.573745572934,-0.0117506737352,0.0,-0.00838279689906,0.00851396185204,-0.999928618037,0.0,0.661629101377,0.260852982016,0.303436622172,1.0,-0.00176,-0.00231314285714,0.089
0.465058087148,0.547056391735,-0.123985452553,-1.35640152387,0.0794337929036,1.89431357018,0.159143629953,-0.00145595381109,-0.0118563523145,-0.000317171078719,-0.0157625705552,0.000542493849409,0.00661834948198,-0.00491650305783,0.573817844165,0.818968081725,0.00226047222955,0.0,0.818929269291,-0.573758348292,-0.0117028443244,0.0,-0.00828745071339,0.00856663270624,-0.999928962959,0.0,0.661614224238,0.260829040187,0.303481036771,1.0,-0.00212,-0.00278628571429,0.107
0.465031916566,0.546842837544,-0.123985073087,-1.35664895992,0.0794286421803,1.89445175953,0.159135561431,5.94997959752e-05,-0.0130829014905,-0.000176009152196,-0.0130061445349,3.24737993364e-05,0.00876642087347,0.00130634737405,0.57384452801,0.818949148178,0.00234462658148,0.0,0.818911394954,-0.573784685212,-0.0116622953051,0.0,-0.0082056739656,0.00861255158769,-0.999929242932,0.0,0.661598956389,0.260792663247,0.303520941278,1.0,-0.00246,-0.00323314285714,0.124
0.465005909841,0.546649059278,-0.123987765376,-1.35691851714,0.0794220588492,1.89456283691,0.159116063671,-0.000825097342931,-0.00820809794709,-0.00142452671742,-0.015844034679,0.000428904690193,0.00144688096235,5.16239934211e-05,0.573865112876,0.818934624134,0.00237918486793,0.0,0.818897263757,-0.573805084314,-0.0116509024557,0.0,-0.0081762964687,0.00863452067246,-0.999929294115,0.0,0.661572164875,0.260750926062,0.303539602078,1.0,-0.00276,-0.00362742857143,0.139
0.464965780882,0.546371949582,-0.123980757415,-1.35733423369,0.0794080932235,1.89470368985,0.1590379123,-0.0010949654335,-0.0190361212334,0.00140738995743,-0.0231917209819,0.000237833846425,0.00857146285073,-0.00395537787389,0.573848525492,0.818946216263,0.00238988703167,0.0,0.818908843636,-0.573788300759,-0.0116635598269,0.0,-0.00818069647327,0.00865038278087,-0.99992912103,0.0,0.661521828814,0.260690027305,0.303549945094,1.0,-0.00312,-0.00410057142857,0.157
0.464928593197,0.546094227768,-0.12398353273,-1.35778781353,0.0793895070562,1.89486419635,0.158928084942,-0.00173600118046,-0.0203304620242,0.000782762391762,-0.0325010845057,9.04291948785e-05,0.0105442897722,-0.000111153030918,0.573811397842,0.818972255984,0.00238128891407,0.0,0.818934690723,-0.573751123188,-0.0116776655108,0.0,-0.00819757470767,0.00865106423048,-0.999928976906,0.0,0.661468448064,0.260621511222,0.303544703705,1.0,-0.00346,-0.00454742857143,0.174
0.464882396566,0.545823445101,-0.123983567787,-1.35822360888,0.0793665503223,1.89501730966,0.158915632802,-0.00349227736351,-0.0157359169691,-0.00504554481055,-0.0255518014911,-0.000834483552203,0.0140958803112,-0.00436029975319,0.573857293027,0.818940123592,0.00237236411534,0.0,0.81890240383,-0.573797004415,-0.0116874987444,0.0,-0.0082102643165,0.0086498576051,-0.999928883233,0.0,0.66141941997,0.260549434588,0.303542256692,1.0,-0.00376,-0.00494171428571,0.189
0.4648253094,0.545470550816,-0.123985777575,-1.35882755085,0.0792607506917,1.89522007455,0.158861557598,-0.00466058692685,-0.0191711534932,0.0013387924544,-0.0296025544271,-0.0110825378358,0.00777166424833,-0.00670061755577,0.573866888505,0.818933629246,0.00229173940269,0.0,0.818895447552,-0.573807504692,-0.0116593498299,0.0,-0.00823337492074,0.00856777472891,-0.999929399895,0.0,0.661351782011,0.260439968198,0.303522119376,1.0,-0.00412,-0.00541485714286,0.207
0.464751667384,0.545033666393,-0.123990033724,-1.35957216397,0.0792351007543,1.89545873955,0.15872466052,-0.00478215049147,-0.0245404279419,-0.00042847116742,-0.036863172548,-3.01485848242e-05,0.00973120304935,-0.0110370943582,0.573852656342,0.818943737074,0.00224303741233,0.0,0.818904717404,-0.57379324101,-0.0117101360188,0.0,-0.00830306270607,0.00855689132548,-0.999928916854,0.0,0.661261413064,0.260318194952,0.303497785023,1.0,-0.0045,-0.00591428571429,0.226
0.464700665273,0.544704836328,-0.123989140496,-1.36014808485,0.0792255315752,1.89566147425,0.158667082636,-0.000287992719831,-0.0238237807593,0.000598363345352,-0.0434032994818,-0.000279016803094,0.0171125274735,-0.00240826073997,0.573876248188,0.818927272834,0.00221821453008,0.0,0.818887685331,-0.57381667143,-0.0117530125393,0.0,-0.00835217483351,0.00856140813671,-0.999928469175,0.0,0.66119174408,0.260233151877,0.30347396918,1.0,-0.00478,-0.00628228571429,0.24
0.464634594774,0.544275696023,-0.123995544943,-1.36088144218,0.0791927129074,1.89591638684,0.158607702985,-0.00705930319469,-0.0252898367558,0.000126239913487,-0.0439501189127,-0.00322409893402,0.0134786269409,-0.00672161698712,0.573918344142,0.81889787511,0.00217974727655,0.0,0.818857690953,-0.57385881115,-0.0117853186113,0.0,-0.00840026691873,0.00854887795671,-0.999928173521,0.0,0.661105750814,0.260116328621,0.303450911867,1.0,-0.00512,-0.00672914285714,0.257
0.464557853638,0.54371755737,-0.123996703823,-1.36176653857,0.0791527321503,1.89623793339,0.158456312902,-0.000984917054565,-0.0315612331519,0.00621709001446,-0.0496785918577,-0.00080175180365,0.0119629695749,-0.00673371524545,0.573896682482,0.818913049261,0.00218231245906,0.0,0.818872765199,-0.573837006597,-0.0117996261335,0.0,-0.00841073810091,0.00855896731705,-0.999927999189,0.0,0.661003405641,0.259982544983,0.303452463412,1.0,-0.0055,-0.00722857142857,0.276
0.464486991989,0.543229764534,-0.124001237209,-1.36255446025,0.0791012872461,1.89651119674,0.158388957468,-0.00630334979423,-0.0352912321745,0.000664673899284,-0.0471256863957,-0.000316472619438,0.0236049370558,-0.00216504261114,0.573932798698,0.818887808191,0.00215570771268,0.0,0.818847206103,-0.573873250549,-0.0118106843036,0.0,-0.00843468478415,0.00854389883115,-0.999927926345,0.0,0.660911700968,0.259856176418,0.303446330817,1.0,-0.00582,-0.00764914285714,0.292
0.464409853267,0.542729944124,-0.124002737982,-1.36337626294,0.0790482975319,1.8968001948,0.158257492227,-0.00225857951731,-0.0304199146371,0.000461299183529,-0.0505159421294,-0.00491275687523,0.0170962101174,-0.00856580328981,0.573913702565,0.818901271705,0.00212511385176,0.0,0.818860252898,-0.573854258196,-0.0118289253907,0.0,-0.00846737943567,0.00852911784638,-0.999927776209,0.0,0.660806190294,0.259720925419,0.303435503864,1.0,-0.00616,-0.008096,0.309
0.46433791887,0.542097336422,-0.124008654039,-1.36435180489,0.078995054315,1.89715441794,0.158127284486,-0.00705021041874,-0.036485671045,-0.00104429864215,-0.0532044688194,-0.0034987486877,0.020791868314,-0.00637326690827,0.573917282612,0.818898732715,0.00213662756748,0.0,0.818857848976,-0.5738577775,-0.0118246046203,0.0,-0.00845719621847,0.00853610355208,-0.999927802778,0.0,0.660702031238,0.259581348318,0.30344773453,1.0,-0.0065,-0.00854285714286,0.326
0.464263830447,0.541515463097,-0.124009140394,-1.36525454999,0.0789421426634,1.89748785706,0.158015854477,-0.0018877436926,-0.0350531158145,-0.000603755178004,-0.0588309338573,-0.00400786967105,0.022085445147,-0.00988523861132,0.573923032067,0.818894674058,0.00214778087908,0.0,0.81885391491,-0.573863461618,-0.0118211825959,0.0,-0.00844793314771,0.0085433322249,-0.999927819345,0.0,0.660597952885,0.259446667579,0.303458382567,1.0,-0.00682,-0.00896342857143,0.342
0.464172319151,0.540817563033,-0.12401491239,-1.36633759857,0.0788843290946,1.89788557335,0.15787712854,-0.00589435941078,-0.0400377592395,0.000360380558721,-0.0594225560953,-0.00420344800638,0.0202407841755,-0.012765943711,0.573933017916,0.818887640475,0.00216104706542,0.0,0.818847000853,-0.573873340408,-0.0118205441517,0.0,-0.00843969270157,0.00855393217634,-0.999927798309,0.0,0.660473984834,0.259281109882,0.303470902895,1.0,-0.00718,-0.00943657142857,0.36
0.464091394433,0.54015501333,-0.124017052183,-1.36733936023,0.0788237603752,1.89824959002,0.157754929952,-0.00107104874937,-0.0422441391841,-0.000580265940932,-0.0630699009911,-0.00754630336828,0.0279708438888,-0.00535782249749,0.573939942649,0.818882731562,0.00218199066398,0.0,0.818842359172,-0.573880177063,-0.0118101693797,0.0,-0.00841910466713,0.00856519922608,-0.999927875418,0.0,0.660357517472,0.259131114106,0.303493965139,1.0,-0.0075,-0.00985714285714,0.376
0.464004008102,0.539514141325,-0.124021048491,-1.36834156228,0.0787612078013,1.8986385798,0.15761634723,-0.00921508596778,-0.0421093766908,-0.00122816218757,-0.0699045590746,-0.00471643560902,0.0282456206421,-0.00815274913132,0.573939678296,0.818882862294,0.00220236678206,0.0,0.818842806179,-0.573879885863,-0.0117933147567,0.0,-0.00839361094942,0.00857220851514,-0.999928029678,0.0,0.660247396065,0.258976816927,0.303503634862,1.0,-0.0078,-0.0102514285714,0.391
0.463889068987,0.538721650387,-0.124021107057,-1.36957624944,0.078696007522,1.89911449491,0.157479638048,-0.00946561550499,-0.0405654302687,-0.000225722116761,-0.0760971552786,-0.00398091442566,0.0252735297542,-0.00854854631386,0.573972816013,0.818859547982,0.00223473898139,0.0,0.818819846062,-0.573912826369,-0.0117844951398,0.0,-0.00836746209796,0.00859399395045,-0.999928061835,0.0,0.660111014121,0.258786484511,0.303517081683,1.0,-0.00816,-0.0107245714286,0.409
0.463788886692,0.537945502534,-0.124030401731,-1.37077853573,0.0786246005752,1.89957659888,0.157323477601,-0.00434972861714,-0.0459616576143,-0.000530210871976,-0.0723944015783,-0.000118271515661,0.0308262151925,-0.0125015854362,0.57398084839,0.818853840716,0.00226276996416,0.0,0.818814548991,-0.573920797827,-0.0117643139859,0.0,-0.0083347634176,0.0086054455715,-0.999928236438,0.0,0.659977322767,0.258602240663,0.30353335799,1.0,-0.0085,-0.0111714285714,0.426
0.463678630609,0.537196818019,-0.124033534246,-1.37197868224,0.0785466897777,1.90001933148,0.157184660976,-0.0100632646852,-0.0428250540434,-0.00165314313563,-0.0777080144921,-0.00918839030678,0.0309421794354,-0.00831448751677,0.574004958451,0.81883697403,0.00225045244057,0.0,0.818797570383,-0.57394500145,-0.011765243157,0.0,-0.00834234079202,0.00859613840237,-0.999928253304,0.0,0.659840836516,0.25841246798,0.303529237339,1.0,-0.00882,-0.011592,0.442
0.463569736559,0.536356152869,-0.124041512814,-1.37327482293,0.0784681260146,1.90051599205,0.157025039572,-0.00543551039774,-0.0483861850846,-0.000808982916713,-0.0737196870969,-0.00534929412463,0.0303481852418,-0.0099715539719,0.574019394634,0.818826765483,0.00228245799013,0.0,0.818787828926,-0.573959367622,-0.011742334647,0.0,-0.00830505965174,0.00860934240455,-0.999928450044,0.0,0.659695801959,0.258214158406,0.303549062906,1.0,-0.00916,-0.0120388571429,0.459
0.463440883997,0.535386739544,-0.124042773771,-1.37481529242,0.0784043492092,1.90107171991,0.156842530324,-0.000991670131888,-0.0495881278532,6.04332605265e-06,-0.0799526623189,-0.0052784522079,0.0248518858916,-0.00889777421642,0.57404387002,0.818809600814,0.00228468998315,0.0,0.818770405223,-0.573983533033,-0.0117760027035,0.0,-0.00833109004371,0.00863074487718,-0.999928049002,0.0,0.659511695472,0.257985677908,0.303548239397,1.0,-0.00954,-0.0125382857143,0.478
0.463318788197,0.534536359995,-0.124043128928,-1.376174221,0.0783100436197,1.90156568046,0.156674078818,-0.00972829334899,-0.0486634261337,0.000244256920325,-0.0867878817595,-0.0103184471443,0.032512528124,-0.0080337684534,0.574055350256,0.81880160765,0.00226474134226,0.0,0.818762232265,-0.573995170119,-0.0117770369128,0.0,-0.00834326679929,0.00861512159465,-0.999928082203,0.0,0.659353665714,0.257773079378,0.303544190385,1.0,-0.00986,-0.0129588571429,0.494
0.463199899032,0.5336284938,-0.124052058917,-1.37765275886,0.0782151717202,1.90210436299,0.156493437068,-0.0108230997579,-0.0516010120722,0.00494703934001,-0.0828545850939,-0.00209516720331,0.0336404224675,-0.0160313696333,0.574066570018,0.818793834151,0.00223097412733,0.0,0.818754078509,-0.57400657834,-0.0117878686884,0.0,-0.00837140155006,0.00859380596895,-0.999928030478,0.0,0.65917907651,0.257547130837,0.303527767495,1.0,-0.0102,-0.0134057142857,0.511
0.463070175218,0.532693011955,-0.124045302003,-1.37916131231,0.0781477793923,1.9026747644,0.15630222751,-0.00905968927677,-0.0562788383052,0.00086589712376,-0.0975880431413,-0.000984693775974,0.037234668494,-0.0138155806088,0.574076021138,0.81878717875,0.00224159995034,0.0,0.818747313251,-0.574015732516,-0.0118119757031,0.0,-0.00838494206001,0.00861644184334,-0.999927722226,0.0,0.659001863723,0.257326545485,0.303518638533,1.0,-0.01054,-0.0138525714286,0.528
0.462955133216,0.531846314788,-0.124049893902,-1.38051426637,0.0780761543085,1.90318056817,0.156120841102,-0.00872004684503,-0.054812228782,-0.000282696729261,-0.0892934299327,-0.00826914024817,0.0332313420455,-0.0132866480775,0.574079617535,0.818784648894,0.00224463070463,0.0,0.818744742239,-0.574019233897,-0.0118200285369,0.0,-0.00838975824691,0.00862358308011,-0.999927620266,0.0,0.658844359817,0.257121310297,0.303515538831,1.0,-0.01084,-0.0142468571429,0.543
0.462822105351,0.530833103046,-0.124049973114,-1.38213429285,0.0779601615244,1.9037501075,0.155915932723,-0.010930850417,-0.0607930233691,0.00042309798858,-0.097373951377,-0.00707749975283,0.0361707396118,-0.00526423988338,0.574077655553,0.818786137528,0.00220301787202,0.0,0.818745783409,-0.574017530612,-0.0118306213312,0.0,-0.00842234002165,0.00859557244242,-0.99992758754,0.0,0.658647328868,0.256874539951,0.303507808195,1.0,-0.01118,-0.0146937142857,0.56
0.46268523676,0.529812817898,-0.124057712425,-1.38377160099,0.077860159839,1.90434065355,0.155702672491,-0.00528098606656,-0.0611971985008,-0.000310700528373,-0.0914390716594,-0.000506257005192,0.0312741366515,-0.0142761052926,0.57408261254,0.818782730183,0.00217752946559,0.0,0.818742043263,-0.574022586029,-0.0118441641151,0.0,-0.00844800858624,0.00858252884274,-0.999927483045,0.0,0.65845203504,0.256622848459,0.303498712829,1.0,-0.01152,-0.0151405714286,0.577
0.462550726787,0.528810958646,-0.124053083226,-1.3853394481,0.0777661994097,1.90492742332,0.155495874092,-0.0127087417822,-0.0675897337328,0.00120067592456,-0.0960065292455,-0.00943937850845,0.0360774030324,-0.00675689849074,0.574079971324,0.818784532372,0.00219612710159,0.0,0.818744043913,-0.574019827569,-0.0118395530273,0.0,-0.00843358476145,0.00859508172849,-0.999927496981,0.0,0.658267534852,0.25638864321,0.303508735734,1.0,-0.01184,-0.0155611428571,0.593
0.462408338254,0.527635443502,-0.124050896104,-1.38715044451,0.0776417638085,1.90562763154,0.15523798929,-0.00832011038295,-0.0683520367116,0.000983532676867,-0.0972616715235,-0.00520052709915,0.0392912875981,-0.0116108610923,0.574048493624,0.818806475917,0.00224251342051,0.0,0.8187667269,-0.573988312407,-0.0117987729463,0.0,-0.00837389642599,0.00860932896604,-0.999927876056,0.0,0.658057123066,0.25612405052,0.303534912681,1.0,-0.0122,-0.0160342857143,0.611
0.462258524164,0.526493186313,-0.124054188273,-1.3889152816,0.0775437383719,1.90630111954,0.154999281583,-0.00863470199004,-0.0676728004631,0.000326849513384,-0.0994952581312,-0.00544433108518,0.0468579490983,-0.0153235115694,0.574047097774,0.818807325692,0.00228906791118,0.0,0.818768124154,-0.573986678577,-0.0117812811833,0.0,-0.00833286528506,0.00863739240763,-0.999927976811,0.0,0.657852459013,0.255858896003,0.303557253157,1.0,-0.01254,-0.0164811428571,0.628
0.462121119934,0.525458385279,-0.124059100211,-1.39053567095,0.0774503777761,1.90689108187,0.154783230369,-0.00873783477968,-0.0644629532776,0.000714119346879,-0.107250800979,-0.00885083243015,0.0398261042797,-0.0103425156501,0.574048312053,0.818806459795,0.00229428161439,0.0,0.818767269877,-0.573987814592,-0.0117853035651,0.0,-0.00833315343885,0.00864398273576,-0.99992791746,0.0,0.657658601065,0.255611838235,0.303565279193,1.0,-0.01284,-0.0168754285714,0.643
0.461959595932,0.524266528325,-0.12406524336,-1.39241314394,0.0773265740569,1.90755807912,0.154514830324,-0.00985857845278,-0.0677549733438,-0.000765949998942,-0.117019501019,-0.00984707741349,0.0432443966407,-0.0173035820687,0.574037145136,0.818814371019,0.00226466754275,0.0,0.818774845114,-0.573976813156,-0.011794823778,0.0,-0.00835806547267,0.00862508584508,-0.999927872717,0.0,0.657418353755,0.255301342358,0.303562070218,1.0,-0.0132,-0.0173485714286,0.661
0.461790830145,0.523010285237,-0.124076556102,-1.3944324719,0.0771919924036,1.90830940469,0.154254589475,-0.0103458636795,-0.0668070493841,-0.000635588700739,-0.114803598307,-0.0122671906978,0.0406928874784,-0.0167464102713,0.574037682933,0.818814031408,0.00225109812328,0.0,0.818774457753,-0.57397753563,-0.0117865526972,0.0,-0.00835907591524,0.00860923279971,-0.999928000888,0.0,0.657192467072,0.255008638887,0.303555280561,1.0,-0.01354,-0.0177954285714,0.678
0.461640823182,0.52184751598,-0.12407793089,-1.39626599833,0.0770899243216,1.90903116927,0.154010719431,-0.00613999688574,-0.0680470989398,0.00180227907199,-0.117876983635,-0.00231242172597,0.044435250566,-0.0130599332892,0.574032741862,0.818817368742,0.00229669706928,0.0,0.818778343509,-0.573972375476,-0.011767892378,0.0,-0.00831767414101,0.00863580761569,-0.999928116978,0.0,0.656979392783,0.254739332937,0.303562295083,1.0,-0.01386,-0.018216,0.694
0.461464376015,0.520521300343,-0.124086901292,-1.39840095183,0.0769527147971,1.9098374675,0.153704803676,-0.0127686220006,-0.0738677410536,0.000135172583001,-0.118512097492,-0.0127731855878,0.0521850549888,-0.0101970542624,0.574010149779,0.818833235572,0.00228630153447,0.0,0.818794164827,-0.573949918527,-0.0117623794052,0.0,-0.00831936478049,0.00862390155641,-0.999928205669,0.0,0.656726134749,0.254414741397,0.303547883404,1.0,-0.01422,-0.0186891428571,0.712
0.461291700705,0.5192036912,-0.124093336387,-1.40045329453,0.0768236633587,1.91056849093,0.153439415183,-0.0044605752868,-0.0768527233057,-0.000531979874643,-0.120931885235,-0.00333369197494,0.0454616414863,-0.0184686877262,0.57401296656,0.818831278318,0.00228008101634,0.0,0.818792123658,-0.573952755362,-0.0117660422402,0.0,-0.00832590492598,0.00862093916824,-0.999928176778,0.0,0.656474368183,0.254100093576,0.303559701111,1.0,-0.01456,-0.019136,0.729
0.461137184521,0.518013855724,-0.124093664521,-1.40232150906,0.0766982192009,1.91123754909,0.153193373538,-0.00696928968507,-0.0852582452849,5.97559170138e-05,-0.127710751701,-0.0138073703639,0.039326807905,-0.0186609576357,0.5740033247,0.818838076567,0.00226594341511,0.0,0.81879878093,-0.573943212653,-0.0117682581131,0.0,-0.00833593548708,0.00861053676829,-0.999928182839,0.0,0.656243523521,0.253817538191,0.303563539173,1.0,-0.01486,-0.0195302857143,0.744
0.460942664114,0.516586804576,-0.124102501282,-1.40457305721,0.0765456459778,1.91205611517,0.152871731303,-0.0120051473152,-0.0771792163382,-0.000818661242182,-0.124871217869,-0.0149697491789,0.0428078719633,-0.0176741518631,0.573983297045,0.818852158734,0.00225027782315,0.0,0.818812775838,-0.573923367106,-0.0117623855932,0.0,-0.0083403283868,0.00859413455838,-0.999928287315,0.0,0.655970864342,0.253467203235,0.303564222042,1.0,-0.01522,-0.0200034285714,0.762
0.460764172813,0.515281857722,-0.12410948284,-1.40661558757,0.0764268545778,1.91283866554,0.152590560074,-0.0151797184953,-0.0785273587512,-0.00207379841292,-0.125353305472,-0.0017561548505,0.0491263865783,-0.0176852866786,0.573980140946,0.818854265265,0.00228844018398,0.0,0.818815363495,-0.573920051754,-0.0117440027599,0.0,-0.00830340490868,0.00861480020209,-0.99992841678,0.0,0.655730235393,0.253154662816,0.303575180651,1.0,-0.01554,-0.020424,0.778
0.460593674716,0.513982402029,-0.124112750945,-1.40873565607,0.0763007794344,1.91358561065,0.152313587725,-0.0114589861374,-0.0780401301595,-0.000182254965329,-0.132243441717,-0.0070277029751,0.0434008098649,-0.010882913858,0.573972704262,0.818859649159,0.00222635179285,0.0,0.81881983204,-0.573912740579,-0.0117896463322,0.0,-0.00837649527389,0.00859008157438,-0.999928019822,0.0,0.655460703386,0.252836795237,0.303541843053,1.0,-0.01586,-0.0208445714286,0.794
0.46038089547,0.512499083187,-0.124113114269,-1.41113143437,0.0761597269254,1.91441918715,0.151964823988,-0.0139657775906,-0.0736392341267,0.000456661135189,-0.133599414599,-0.00657842623665,0.0506189450127,-0.0196037027504,0.573949008301,0.818876428289,0.00216285995684,0.0,0.818835616025,-0.573889122822,-0.0118429530701,0.0,-0.00845683612735,0.00856844290417,-0.999927529228,0.0,0.655157723325,0.252466149514,0.303513099537,1.0,-0.01622,-0.0213177142857,0.812
0.460183148319,0.511057992016,-0.124119169886,-1.41343358921,0.0760202096304,1.91528768415,0.151639197704,-0.0143267948953,-0.0808101958184,-0.000106056438655,-0.138599676666,-0.00531260936436,0.0435071894381,-0.0151948734995,0.573931518415,0.818888677038,0.00216649251593,0.0,0.818847907635,-0.573871616278,-0.0118414143629,0.0,-0.00845367433952,0.00857035379489,-0.999927539588,0.0,0.654879371342,0.25211520301,0.303502050909,1.0,-0.01656,-0.0217645714286,0.829
0.459993975566,0.509660793887,-0.124124433094,-1.41563938064,0.0758729775713,1.91612493709,0.151341476348,-0.0113196935365,-0.0884118817884,-0.00251408514968,-0.138862378097,-0.00574097910277,0.0590553080871,-0.011004720505,0.573921648515,0.818895555847,0.00218102755403,0.0,0.818855098048,-0.573861814824,-0.0118191704283,0.0,-0.00842721995733,0.00856938829519,-0.999927771166,0.0,0.6546137974,0.25177791629,0.303502900143,1.0,-0.01688,-0.0221851428571,0.845
0.459785220434,0.508171302006,-0.124119815349,-1.41801186955,0.0757243092708,1.916970021,0.151000850234,-0.0163465131156,-0.0915687216274,0.000594833300692,-0.142223953581,-0.0107729721291,0.0604180143967,-0.0193177094266,0.573893283239,0.818915521118,0.00214840080158,0.0,0.818874552379,-0.573833493981,-0.0118463307935,0.0,-0.00846848286116,0.00855796518547,-0.999927520388,0.0,0.654314250023,0.251415448321,0.303488914807,1.0,-0.01722,-0.022632,0.862
0.45957890855,0.506641760032,-0.124131280653,-1.42041000013,0.0755753988812,1.9178484632,0.150667927774,-0.0140340753616,-0.0913081092545,-0.000503419865887,-0.144622226889,-0.0114215613024,0.0566607786723,-0.0188963862323,0.573880404899,0.818924542657,0.00214969962633,0.0,0.818883606612,-0.573820628049,-0.0118436712615,0.0,-0.00846569407235,0.00855736939806,-0.999927549102,0.0,0.653999704075,0.251019307287,0.303493800446,1.0,-0.01758,-0.0231051428571,0.88
0.459355592068,0.505039782117,-0.124126740597,-1.42287925401,0.075419893009,1.91878356885,0.150332120601,-0.0132003699671,-0.0913966148158,0.000510706733056,-0.141127002697,-0.00744979389138,0.0592392714133,-0.0181091401965,0.573871826838,0.818930397394,0.00220850330947,0.0,0.818890227671,-0.573811821432,-0.0118125150596,0.0,-0.00840652419701,0.00858755671181,-0.999927789503,0.0,0.653718618447,0.250668000369,0.303518866483,1.0,-0.0179,-0.0235257142857,0.896
0.459126668181,0.503391255252,-0.124135389116,-1.42534588591,0.0752559595363,1.91972402792,0.149981936555,-0.0166654737379,-0.0919117129124,5.20028196356e-05,-0.142557109063,-0.0118061549202,0.057202203594,-0.022200756471,0.573861167571,0.818937604007,0.00230390934309,0.0,0.818898828052,-0.573800956879,-0.0117438580441,0.0,-0.00829566129997,0.00862617883062,-0.999928382957,0.0,0.653425591085,0.25027971449,0.303578091903,1.0,-0.01824,-0.0239725714286,0.913
0.458897198033,0.501695475299,-0.124143797843,-1.42785915251,0.0750973314584,1.92065195306,0.149633485369,-0.0172163500208,-0.0993236135195,-0.000785328048671,-0.142787836882,-0.00430512004483,0.0533709356694,-0.0166090696165,0.573855448928,0.818941348339,0.00239554114769,0.0,0.818903801387,-0.573794940913,-0.0116908835467,0.0,-0.00819975641444,0.00867076191732,-0.999928788406,0.0,0.653118793793,0.249886428416,0.303646357443,1.0,-0.01858,-0.0244194285714,0.93
0.458671018374,0.50006807362,-0.12413886468,-1.43029324163,0.0749379548702,1.92150368106,0.149285341316,-0.0148941920926,-0.0981171150415,-0.000252911158452,-0.1495833018,-0.00449707352431,0.0575655972869,-0.0179387826788,0.573832644532,0.818957215919,0.00243340605246,0.0,0.818920118342,-0.573771957487,-0.0116759358503,0.0,-0.00816602898449,0.00869296568535,-0.999928871629,0.0,0.652809154309,0.249506500925,0.303696926079,1.0,-0.0189,-0.02484,0.946
0.458421340639,0.498403523073,-0.124144654886,-1.43291532426,0.074782865588,1.92248389788,0.148913375398,-0.0172830570747,-0.0931453017618,0.000332103122225,-0.151475959482,-0.00281136871482,0.0571949365774,-0.0255675539622,0.573828363696,0.818960155031,0.00245364853207,0.0,0.818923255823,-0.573767535744,-0.0116731700589,0.0,-0.00815219424433,0.0087079135729,-0.999928854454,0.0,0.652487788574,0.249092542355,0.303694975771,1.0,-0.01924,-0.0252868571429,0.963
0.458160119437,0.496724029227,-0.124145060049,-1.43559227387,0.0746224445492,1.92344195319,0.148528697349,-0.0153440040522,-0.097133216217,0.000255802402813,-0.160728513665,-0.00940148746259,0.0533409373359,-0.0158400004259,0.573819831106,0.818966225347,0.00242282308257,0.0,0.818928787222,-0.573758968072,-0.0117061914214,0.0,-0.00819701674791,0.00870153188447,-0.999928543577,0.0,0.652149833375,0.248665746137,0.303674626778,1.0,-0.01958,-0.0257337142857,0.98
0.45791050587,0.49515942069,-0.124140046196,-1.43813447441,0.0744569341422,1.92431282976,0.148151258363,-0.01659120042,-0.0891677907244,0.00148303019764,-0.158778251847,-0.0118035093733,0.0506812102566,-0.02527031269,0.573794704184,0.818984100143,0.00232982053519,0.0,0.818945344475,-0.573734074582,-0.0117678089267,0.0,-0.00830111079793,0.00866046886364,-0.99992804133,0.0,0.651818989577,0.248257676624,0.30363005935,1.0,-0.0199,-0.0261542857143,0.996
0.457613772035,0.493347518271,-0.124140959048,-1.44107636504,0.0742666356657,1.92538596724,0.147749015968,-0.0194245506673,-0.104127510838,0.00133463088299,-0.16557415873,-0.011072953388,0.0604059309235,-0.0221279754966,0.573805368683,0.818976783192,0.002274722997,0.0,0.818937299496,-0.573744935481,-0.0117981102476,0.0,-0.00835742848556,0.00863284071757,-0.99992781112,0.0,0.651451222234,0.247781068629,0.303584592891,1.0,-0.0210497142857,-0.0276653387755,1.014
0.457314219817,0.491381763513,-0.124153330816,-1.44422109059,0.0740672255749,1.92653462784,0.147294471441,-0.0180286698696,-0.109159985383,-0.0014777480042,-0.176992203929,-0.00580009204666,0.0612385985517,-0.026487502838,0.573790817561,0.818987066985,0.00224247542305,0.0,0.818947169108,-0.573730516048,-0.0118142314939,0.0,-0.00838928773793,0.00861553232291,-0.999927693613,0.0,0.651055457648,0.247277710952,0.303555722634,1.0,-0.0225308571429,-0.0296119836735,1.032
0.45703120293,0.489667908879,-0.1241515168,-1.44700292804,0.0738903903087,1.92749842246,0.146902771802,-0.0192096845552,-0.112383769095,0.000318260000177,-0.189232229409,-0.0145290033119,0.0692381396148,-0.0216565601275,0.57379097694,0.81898719638,0.0021526377849,0.0,0.818945996519,-0.573730894261,-0.0118769801641,0.0,-0.00849222338631,0.00857796329972,-0.99992714769,0.0,0.650694388906,0.246824517116,0.303507147481,1.0,-0.0237651428571,-0.0312341877551,1.047
0.456695313167,0.487548392835,-0.124163593021,-1.45029892683,0.0736949225246,1.92873654772,0.14642680648,-0.0229655855146,-0.121610150213,-0.000805665130401,-0.198598607491,-0.0089080385602,0.083631349013,-0.0247657643661,0.573796019213,0.818983521193,0.00220618461997,0.0,0.818942957972,-0.573735661522,-0.0118561877241,0.0,-0.00844441815904,0.00860993844563,-0.999927277737,0.0,0.650289029065,0.246288753439,0.303519092853,1.0,-0.025164,-0.0330726857143,1.064
0.45632662199,0.485307282702,-0.124184181436,-1.45369817421,0.0734846061488,1.93004118151,0.145919410923,-0.0183079081258,-0.1333825436,-0.000394194676656,-0.204254545497,-0.00662981548761,0.0756338206382,-0.0321005083604,0.573808540013,0.81897441813,0.002325673745,0.0,0.818935509934,-0.573747821553,-0.0117819664313,0.0,-0.00831493894599,0.0086653366053,-0.999927884266,0.0,0.649883729017,0.245718339758,0.303571147096,1.0,-0.0265628571429,-0.0349111836735,1.081
0.455960193014,0.483107817978,-0.124221909739,-1.45710781239,0.0732638601665,1.93120066904,0.145393033988,-0.0250985618639,-0.139186166361,-0.00388049534443,-0.217853537764,-0.0134533228264,0.0724883044353,-0.0258250281561,0.573811829763,0.81897225687,0.00227451149283,0.0,0.818932706393,-0.573751330438,-0.0118059358481,0.0,-0.0083638909617,0.00863722379693,-0.999927719234,0.0,0.649447425304,0.245126686652,0.303576212941,1.0,-0.0278794285714,-0.0366415346939,1.097
0.455559157978,0.480630934517,-0.124262208219,-1.46094368037,0.0730276353796,1.93257280271,0.144828798333,-0.0236022565589,-0.14775178458,-0.00202470668024,-0.224957110901,-0.0259629732254,0.0906818362406,-0.0376114697243,0.573830727975,0.818958998707,0.0022805635277,0.0,0.818919535628,-0.573770211982,-0.0118019028345,0.0,-0.00835691600601,0.00864005886802,-0.999927753059,0.0,0.648963872116,0.244476291791,0.303588108496,1.0,-0.0292782857143,-0.0384800326531,1.114
0.455118947887,0.478064056264,-0.124273303967,-1.46488069017,0.0727863888732,1.93402980133,0.144253256597,-0.0271828923477,-0.149761324811,-0.00297120541193,-0.239830738519,-0.0171467252534,0.0872005024778,-0.0347107296429,0.573854059694,0.818942439284,0.00235503986004,0.0,0.818903885121,-0.573793195522,-0.0117704123556,0.0,-0.00828814393148,0.0086832173844,-0.999927951608,0.0,0.648475437345,0.243812017404,0.303619165431,1.0,-0.0306771428571,-0.0403185306122,1.131
0.45469149406,0.475549669967,-0.124288491917,-1.46871897065,0.0725550932466,1.9354436331,0.143707256652,-0.0264187044964,-0.153220221581,-0.000116659700591,-0.24399383856,-0.00862619536055,0.0915761689762,-0.0341127759022,0.573890957565,0.818916352068,0.00243393567108,0.0,0.818878742392,-0.573829709384,-0.0117395395471,0.0,-0.00821719450849,0.00873048186225,-0.999928125617,0.0,0.647995917907,0.243163649096,0.303655708723,1.0,-0.0319937142857,-0.0420488816327,1.147
0.454185587938,0.472576627112,-0.124294572475,-1.47330409647,0.0722574206748,1.93703243725,0.143030574703,-0.0270297788781,-0.166358982809,-0.000291721714702,-0.264377567679,-0.0137051091758,0.0875486601653,-0.038084534993,0.573894027571,0.818914263804,0.00241258331688,0.0,0.818876244091,-0.573832717747,-0.0117667246037,0.0,-0.00825167824509,0.00872862819237,-0.999927857826,0.0,0.647396032781,0.242389524956,0.303667265009,1.0,-0.0334748571429,-0.0439955265306,1.165
0.453702445957,0.469700793934,-0.124293546917,-1.47771104175,0.0719787862662,1.93866039764,0.142363591517,-0.0237143628561,-0.176953992557,0.0020836617792,-0.262399382298,-0.0162478896703,0.10337091554,-0.0394437839429,0.57387720326,0.818925807066,0.00249499527722,0.0,0.818888789484,-0.573815517829,-0.011732384958,0.0,-0.00817644323546,0.00877624089945,-0.999928059098,0.0,0.646834004421,0.241660013996,0.303697597184,1.0,-0.0348737142857,-0.0458340244898,1.182
0.453237811594,0.466857496659,-0.124294029088,-1.48200128667,0.0716944371581,1.94028510295,0.141658228982,-0.0253112405412,-0.177398862931,-0.000720784475379,-0.274744528014,-0.0190854095464,0.103770967227,-0.045527585068,0.573806154731,0.818975141248,0.00263850576046,0.0,0.818940099913,-0.573744090316,-0.0116438173781,0.0,-0.00802232434917,0.00884224248778,-0.99992872599,0.0,0.646292324185,0.240954219104,0.303758696996,1.0,-0.0361902857143,-0.0475643755102,1.198
0.45269545184,0.46375607116,-0.124296761166,-1.48682833636,0.0713716710715,1.94191022396,0.140933057289,-0.0319522621305,-0.182650606545,0.000894139508682,-0.289315310772,-0.0158900725757,0.0956816597739,-0.0473746298372,0.573796290249,0.818982333653,0.00254977681118,0.0,0.818945965192,-0.573734349028,-0.0117110948435,0.0,-0.00812844174329,0.00880808179045,-0.999928170485,0.0,0.645641028184,0.240131979991,0.303740636765,1.0,-0.0375891428571,-0.0494028734694,1.215
0.452135466441,0.460581192047,-0.124296378936,-1.49181525467,0.0710325849595,1.94365844115,0.140203344674,-0.0339863882525,-0.189788385902,0.000234416685597,-0.295031031934,-0.0156450793322,0.102908908649,-0.045683651849,0.573796355907,0.818982484772,0.00248565601551,0.0,0.818945225567,-0.573734585984,-0.0117511390285,0.0,-0.00819802805297,0.00877854589284,-0.999927862132,0.0,0.644976438445,0.239288556804,0.303705498414,1.0,-0.038988,-0.0512413714286,1.232
0.451567742877,0.457525610005,-0.124303190431,-1.4965874279,0.0707103114165,1.94536337824,0.139467914487,-0.038382301006,-0.191957483584,-0.000280704347043,-0.294956322072,-0.0218530557411,0.107216611737,-0.0456512127036,0.57379639606,0.818982517378,0.00246556248618,0.0,0.818944998655,-0.573734702097,-0.0117612792371,0.0,-0.00821786153797,0.00876790851562,-0.999927792659,0.0,0.64435227759,0.23846001573,0.303684581235,1.0,-0.0403045714286,-0.052971722449,1.248
0.450890986889,0.453988799383,-0.124332802425,-1.50220729817,0.0703221810049,1.94728507831,0.138586923615,-0.0441416366297,-0.202242947777,-0.00248427904129,-0.316666299077,-0.0200594822115,0.0989101731135,-0.047735234073,0.573801498864,0.818979393866,0.00231067668657,0.0,0.818939859814,-0.573740390918,-0.0118413149159,0.0,-0.00837222555827,0.00868703674143,-0.999927217967,0.0,0.643600181436,0.237459582032,0.30360825705,1.0,-0.0417857142857,-0.0549183673469,1.266
0.450220804632,0.450190621491,-0.124383018566,-1.50787069947,0.0699445772166,1.94941575956,0.137692591418,-0.0375934956846,-0.210234252076,-0.000824065516627,-0.313609867334,-0.0308247717153,0.122709142634,-0.0448247228786,0.573809156996,0.818973418384,0.00251758398125,0.0,0.818936903451,-0.573747623493,-0.0116944262078,0.0,-0.00813312296907,0.00877228016721,-0.999928447146,0.0,0.642882646501,0.236465510109,0.303705373259,1.0,-0.0432668571429,-0.0568650122449,1.284
0.449578963772,0.446738535962,-0.12440144967,-1.51311169131,0.0695890979021,1.95115643223,0.136926057794,-0.0394455148109,-0.2196392392,-0.000318575751495,-0.33739743763,-0.02027975865,0.103947521062,-0.0496201757044,0.573857981413,0.818939345701,0.00247227281596,0.0,0.81890209958,-0.573796452977,-0.0117357895014,0.0,-0.00819247613349,0.00875939451876,-0.999928075585,0.0,0.642164671452,0.235532668536,0.303728492687,1.0,-0.0445834285714,-0.0585953632653,1.3
0.448934795177,0.443232102109,-0.124405777716,-1.51848700613,0.06921470472,1.95303159812,0.136101316924,-0.0432373413587,-0.221829353682,0.00134254500806,-0.33376197707,-0.0264796928337,0.129693341903,-0.0546608653036,0.573849592429,0.818945242361,0.00246620834471,0.0,0.818907910458,-0.573788079843,-0.0117396985195,0.0,-0.00819924715961,0.00875658732442,-0.999928044673,0.0,0.641434319059,0.234598362345,0.303733426115,1.0,-0.0459,-0.0603257142857,1.316
0.448214786478,0.439495230848,-0.124414370331,-1.52429438215,0.0688150766632,1.95510172016,0.135135646436,-0.0464261600726,-0.219049770557,-0.00440588541733,-0.342790147596,-0.021822779106,0.118452479455,-0.0589708233261,0.573801391386,0.818979054351,0.00245329960339,0.0,0.818941560041,-0.573739938071,-0.0117452799476,0.0,-0.00821174040348,0.00874873542086,-0.999928010883,0.0,0.640653234143,0.233575260414,0.303704546966,1.0,-0.0472988571429,-0.0621642122449,1.333
0.447501209482,0.435856021358,-0.124425239999,-1.52988442672,0.0684409065803,1.95707636497,0.134236001853,-0.0460158852204,-0.231650792853,-0.0019293797274,-0.34218963357,-0.0218300914951,0.121342125755,-0.0530641961769,0.573798806621,0.818980818784,0.0024687823083,0.0,0.81894343117,-0.573737195738,-0.0117487731956,0.0,-0.008205745639,0.00876339381574,-0.999927931737,0.0,0.639897968954,0.232577951104,0.303700728141,1.0,-0.0486154285714,-0.0638945632653,1.349
0.446710565667,0.431826309041,-0.12444821625,-1.53591100181,0.0680098048478,1.95927197919,0.133272701029,-0.0437083955211,-0.239376240703,-0.00318764335381,-0.359241721159,-0.0301823007485,0.133081554037,-0.049919665396,0.573816063407,0.81896827769,0.00261388868599,0.0,0.818933079051,-0.573754261416,-0.011636427465,0.0,-0.008030289795,0.00881793868266,-0.999928876672,0.0,0.639102373759,0.231485065053,0.303771046407,1.0,-0.0500142857143,-0.0657330612245,1.366
0.445893950841,0.427757519858,-0.124503825711,-1.54228651975,0.0675440295023,1.96129568899,0.132265529699,-0.0514404799325,-0.238244142252,-0.00421209555925,-0.369719952629,-0.0303275707606,0.123050479249,-0.0642470016093,0.573843507856,0.818949849599,0.00234930504921,0.0,0.818911186842,-0.573782630995,-0.01177740783,0.0,-0.00829727568715,0.00868242837236,-0.999927882726,0.0,0.638190835911,0.230301857754,0.303684872255,1.0,-0.0514131428571,-0.0675715591837,1.383
0.445113111612,0.423779787322,-0.124529284679,-1.54827787806,0.0671134344926,1.96336206997,0.131251606579,-0.0506804832035,-0.253635341803,0.00527983069063,-0.375440515821,-0.0269353465668,0.126887646767,-0.0630201749279,0.573805225348,0.818976594177,0.00237664784888,0.0,0.818938388847,-0.573744357653,-0.0117504993327,0.0,-0.00825995465971,0.00868899336784,-0.999928134689,0.0,0.637361681876,0.22921211653,0.303717729337,1.0,-0.0527297142857,-0.0693019102041,1.399
0.444220423415,0.419513547991,-0.124537782573,-1.55476715015,0.0666690412706,1.96560298335,0.130228337333,-0.0564986809466,-0.252769741568,0.00131744374115,-0.382294240279,-0.0323816917064,0.131999269256,-0.0539179685582,0.573853281687,0.818942889629,0.00238778637293,0.0,0.818904666584,-0.573792195313,-0.0117648011577,0.0,-0.00826476619346,0.00870680678932,-0.999927939981,0.0,0.6364613236,0.228017899527,0.303720439051,1.0,-0.0541285714286,-0.0711404081633,1.416
0.443259500094,0.414857309859,-0.124566798392,-1.56165070548,0.0661952843306,1.96814596335,0.129087929331,-0.0451837110552,-0.25661351564,9.48293910114e-05,-0.388041990899,-0.0264901936956,0.140608229084,-0.0656651717558,0.573882125673,0.818921900113,0.00264088053631,0.0,0.818887182524,-0.573820366714,-0.0116067197344,0.0,-0.00798975976883,0.00882364209749,-0.99992915103,0.0,0.635542298969,0.22674397854,0.303821261687,1.0,-0.0556097142857,-0.0730870530612,1.434
0.442390628802,0.410667471996,-0.124565862877,-1.56808790781,0.0657467323802,1.97023954882,0.127985044419,-0.0492238545059,-0.264731212135,-0.0011303603611,-0.400761732625,-0.0206757110633,0.128647722336,-0.0714526897332,0.573827331853,0.818960698792,0.00251275815945,0.0,0.818923929326,-0.573765606717,-0.0117206410583,0.0,-0.00815716723227,0.00878355108207,-0.999928152346,0.0,0.634600957592,0.225569530588,0.303775010874,1.0,-0.0569262857143,-0.0748174040816,1.45
0.441379082038,0.405846758749,-0.124594861601,-1.57541149236,0.0652198053431,1.97268616389,0.126810296911,-0.0611169639255,-0.268859151123,0.000379197475756,-0.40398341389,-0.0345475331271,0.136255666508,-0.0689218016481,0.573862880678,0.818935979459,0.00245002638543,0.0,0.818898311273,-0.573801291884,-0.0117635082906,0.0,-0.00822789029112,0.00875713182607,-0.999927804626,0.0,0.633547680052,0.224205422865,0.303759709531,1.0,-0.0584074285714,-0.0767640489796,1.468
0.440439600609,0.401517731918,-0.124589266212,-1.58197998021,0.0647762018714,1.97497613975,0.125681118632,-0.0587788479031,-0.280042006056,-0.000647996382336,-0.407497828331,-0.0226927731788,0.148332844031,-0.0697416046415,0.57384197635,0.81895048236,0.00249810384766,0.0,0.818913148219,-0.573779900987,-0.01177403066,0.0,-0.00820914436139,0.00880233258216,-0.999927561821,0.0,0.632613317623,0.222992796397,0.303752245009,1.0,-0.059724,-0.0784944,1.484
0.439457628741,0.397021781933,-0.124605277136,-1.58851719507,0.0642852551467,1.97732502763,0.124544425496,-0.0639914021211,-0.284146897416,-0.00329937936681,-0.412180236371,-0.0337744822331,0.139644100133,-0.0666730166499,0.57384576786,0.818947076072,0.0027328014206,0.0,0.818913172952,-0.573783281416,-0.0116063789941,0.0,-0.0079371271887,0.00889836986953,-0.999928907986,0.0,0.631711917818,0.22174466166,0.30387172398,1.0,-0.0610405714286,-0.0802247510204,1.5
0.438400633277,0.392199465761,-0.124612069523,-1.5958651077,0.0637261364964,1.97967607807,0.123339675998,-0.055844948692,-0.289169117132,-0.00244567994397,-0.438355752195,-0.0274857446622,0.12697290411,-0.0732142045728,0.573855152947,0.818941039966,0.00256581302981,0.0,0.818904821792,-0.573793083701,-0.0117105441703,0.0,-0.00811815575045,0.00882148261872,-0.999928135914,0.0,0.630612548395,0.220358883339,0.303820924698,1.0,-0.0624394285714,-0.0820632489796,1.517
0.437256839781,0.387028625278,-0.124624067361,-1.60369487241,0.0631452255963,1.98224752759,0.12195879757,-0.0646975325443,-0.286914717259,-0.000363617094771,-0.435676778535,-0.0369393811096,0.139440345265,-0.0780034524343,0.573803938365,0.818977195738,0.00247791836165,0.0,0.818939665492,-0.573742013775,-0.011775942228,0.0,-0.00822270058475,0.00878651683026,-0.999927589537,0.0,0.629448618458,0.218878194351,0.303787836361,1.0,-0.0639205714286,-0.0840098938775,1.535
0.436210031433,0.38231176102,-0.124626582987,-1.61060135863,0.0626496471287,1.98463655684,0.120707859057,-0.0711010040611,-0.303713381647,-0.000971760986226,-0.426368421723,-0.0312043727166,0.155409319641,-0.0731292643143,0.573758650015,0.819008409229,0.00264273442652,0.0,0.818972967793,-0.57369607567,-0.0116977641276,0.0,-0.00806459608859,0.00887619230461,-0.999928085164,0.0,0.628447003467,0.217567551654,0.303866536284,1.0,-0.0652371428571,-0.085740244898,1.551
0.435036590179,0.377314521442,-0.124639378114,-1.61810869087,0.062092008227,1.98719620345,0.119394333462,-0.0787232621827,-0.294718682956,-0.00104263594748,-0.45091915803,-0.0367107917298,0.148690593151,-0.0863923166129,0.573773434425,0.818997970448,0.00266781762433,0.0,0.818962852717,-0.573710767514,-0.0116853758718,0.0,-0.00803989821902,0.00888977293433,-0.999928163407,0.0,0.627348025548,0.216110872309,0.303856958426,1.0,-0.066636,-0.0875787428571,1.568
0.433747702919,0.37187372382,-0.124695554843,-1.62636177337,0.0614289406037,1.989807037,0.117938254323,-0.0707389597939,-0.30647440498,-0.00160940111828,-0.457292265156,-0.0383419347966,0.139926303959,-0.0832476353526,0.573787655677,0.818988670496,0.00245574690227,0.0,0.818950937443,-0.573725906872,-0.0117767884735,0.0,-0.00823628929015,0.00876868090162,-0.999927634269,0.0,0.626096040867,0.214468662334,0.303787786545,1.0,-0.0681171428571,-0.0895253877551,1.586
0.432648997428,0.367258512952,-0.124746444276,-1.63324520607,0.0609048094602,1.99205491052,0.116778978433,-0.0780027293657,-0.316017457769,-0.00253997129577,-0.456270594679,-0.0318524038818,0.153158147336,-0.0789148511426,0.573873001034,0.818928985478,0.00241709124428,0.0,0.81889078965,-0.573811428676,-0.0117926183862,0.0,-0.00827052166421,0.00874696746728,-0.999927541891,0.0,0.6250629866,0.213094384566,0.303781519875,1.0,-0.0693514285714,-0.0911475918367,1.601
0.431374891274,0.361894673103,-0.124762162725,-1.6409305238,0.060301556331,1.99475406714,0.115318211648,-0.0775496920147,-0.315821745447,6.9712843413e-05,-0.456713190306,-0.0305943334812,0.158695015949,-0.0883064820622,0.573829437294,0.818958610957,0.00270505733743,0.0,0.818924607253,-0.573767336317,-0.011587851943,0.0,-0.00793805042019,0.00886485925356,-0.999929198307,0.0,0.62394559301,0.211569351127,0.303921851137,1.0,-0.0707502857143,-0.0929860897959,1.618
0.430015114506,0.356555369248,-0.124781739331,-1.64894832027,0.0597136383769,1.99727694407,0.113832671083,-0.0794805559122,-0.317849236446,0.000123860090664,-0.484229132907,-0.0367948218415,0.149377633366,-0.0894855394575,0.573850653448,0.818944156067,0.00257753408394,0.0,0.818907995543,-0.573788439795,-0.0117161467092,0.0,-0.00811606687805,0.00883425180183,-0.999928040138,0.0,0.622707253161,0.209947113783,0.303867399647,1.0,-0.0721491428571,-0.0948245877551,1.635
0.42873744864,0.351458271088,-0.124820267986,-1.65661941507,0.0591330781683,1.99969503828,0.112448647224,-0.0817024301206,-0.315768540472,-9.34784999317e-05,-0.481048979977,-0.0359453844528,0.151270874057,-0.0901927879835,0.573889264764,0.818917529452,0.00243693373593,0.0,0.81887923818,-0.573827240902,-0.0118253024542,0.0,-0.0082857280348,0.0087821376556,-0.999927107728,0.0,0.621440305863,0.208300312977,0.303799484716,1.0,-0.073548,-0.0966630857143,1.652
0.427238484306,0.345528987846,-0.124844602481,-1.66512133571,0.0585111606308,2.00261226915,0.110802060337,-0.0834683739996,-0.332156195845,0.00063654000252,-0.472864515828,-0.0353771964,0.162708926375,-0.0926056529096,0.57389065034,0.818915649346,0.00272536427151,0.0,0.818881098081,-0.573827566428,-0.0116798164997,0.0,-0.00800104941055,0.00893485879792,-0.999928073167,0.0,0.620241776724,0.206668243384,0.303924259129,1.0,-0.0749468571429,-0.0985015836735,1.669
0.42579276493,0.339904114916,-0.124844619612,-1.673357703,0.0578301283211,2.00521797192,0.109282026774,-0.0856336373339,-0.331041199684,0.000543406751182,-0.493449199711,-0.047251562897,0.160364212679,-0.0952017340107,0.57389859977,0.818910193887,0.00269043306927,0.0,0.818875250881,-0.573835705725,-0.0116898772288,0.0,-0.00802924765684,0.0089121048133,-0.999928050197,0.0,0.618948199135,0.204988145011,0.303936906986,1.0,-0.0763457142857,-0.100340081633,1.686
0.424514072794,0.334917787611,-0.124845748587,-1.68080495777,0.0572179963465,2.00748623414,0.107851817388,-0.0887745750947,-0.333536274287,0.00105954780971,-0.496572861524,-0.0393210439804,0.15667127308,-0.0907845182749,0.573833530728,0.818956368644,0.00250842015291,0.0,0.81891883848,-0.573771063849,-0.0118088599269,0.0,-0.00823184063226,0.00883068232176,-0.999927125269,0.0,0.617741435434,0.203484468342,0.303869337765,1.0,-0.07758,-0.101962285714,1.701
0.422934611317,0.328771554885,-0.124837621664,-1.68960382186,0.0565085885715,2.01038486856,0.106111834882,-0.0878278329285,-0.349759672224,-0.000521280682876,-0.484729011294,-0.0344266214883,0.165492024744,-0.0990942149954,0.573763998267,0.819004494262,0.00269435937553,0.0,0.818969519911,-0.573701016269,-0.0116968495126,0.0,-0.00803417029026,0.00891800104688,-0.999927958088,0.0,0.616364986658,0.201694014889,0.303964560433,1.0,-0.0790611428571,-0.103908930612,1.719
0.421376699633,0.322996754062,-0.124843880803,-1.69806768456,0.0558354798261,2.01315001353,0.104450366021,-0.0949667401329,-0.343609610347,-0.00063955978202,-0.511921118882,-0.0361328771366,0.151102457593,-0.0974962537591,0.573746916665,0.819016305763,0.00274106048401,0.0,0.81898189483,-0.573683725675,-0.0116784304574,0.0,-0.00799247705951,0.00894551460432,-0.999928046451,0.0,0.615029042386,0.199943504838,0.303956854332,1.0,-0.08046,-0.105747428571,1.736
0.419860056701,0.317455391861,-0.124891973339,-1.70624268643,0.0551510715533,2.01562619897,0.102914975339,-0.0951993854904,-0.342399230628,-0.00732213679508,-0.519719127231,-0.0462035501679,0.151226473462,-0.0962966400419,0.573810577489,0.81897223401,0.00257836846738,0.0,0.818935648466,-0.573747891918,-0.0117689036649,0.0,-0.00815922894402,0.00886480993627,-0.99992741843,0.0,0.613697301051,0.198209326007,0.303901878423,1.0,-0.0817765714286,-0.107477779592,1.752
0.417915005867,0.310360898425,-0.124926269033,-1.71639865487,0.0542933151189,2.0188708836,0.100782294242,-0.101208686965,-0.358192595884,0.000370492360334,-0.497331410808,-0.0471592402086,0.174027657706,-0.0950890174026,0.573725219735,0.8190316674,0.00269201368216,0.0,0.818996873789,-0.573662485392,-0.0116713529429,0.0,-0.0080150547167,0.00890107169489,-0.999928262337,0.0,0.612072395289,0.196051165793,0.303971001474,1.0,-0.0834222857143,-0.109640718367,1.772
0.416492265788,0.305380265346,-0.124932563801,-1.72353029387,0.0537091788205,2.02114601097,0.099325710147,-0.107508277828,-0.355752796459,0.00106261438468,-0.517301690791,-0.0375071894806,0.160427364969,-0.109819004083,0.573732828352,0.819026037131,0.00278191896585,0.0,0.818992417302,-0.573669792342,-0.01162482936,0.0,-0.0079252876339,0.00894808904482,-0.999928558207,0.0,0.610925891994,0.194518981213,0.304010244833,1.0,-0.0845742857143,-0.11115477551,1.786
0.4145084645,0.298604461266,-0.125001669021,-1.73352549689,0.0528748365688,2.02406187744,0.0973370409267,-0.107163303598,-0.346993367233,-0.00360754111305,-0.531411444312,-0.0419282789189,0.148960388749,-0.104807314674,0.573811309863,0.818971948442,0.0025050428701,0.0,0.818934333452,-0.573748814658,-0.0118153320982,0.0,-0.00823931880496,0.00883140683277,-0.999927057279,0.0,0.609251680486,0.192329766069,0.303901761349,1.0,-0.0861377142857,-0.113209567347,1.805
0.412907436026,0.293118397903,-0.125060006903,-1.74130979469,0.0522755477971,2.02651383578,0.0957275173269,-0.103514616008,-0.372420294996,-0.00347288639466,-0.51583578763,-0.0441970931912,0.173252821578,-0.111218488525,0.573885355207,0.818919644467,0.00263853863967,0.0,0.818883533809,-0.573822104271,-0.0117769948666,0.0,-0.0081305171923,0.00891947245513,-0.999927166198,0.0,0.607986351458,0.190614087421,0.303957279902,1.0,-0.087372,-0.114831771429,1.82
0.41071739933,0.285724681104,-0.125083511373,-1.75178983177,0.0513773928744,2.02979579567,0.0934788363823,-0.110230037488,-0.371794985563,-0.0014866094231,-0.537061286051,-0.0406712112726,0.149630005448,-0.106485583202,0.573861664417,0.818935813234,0.00276962389636,0.0,0.818901604516,-0.573798170266,-0.0116862663738,0.0,-0.00798125059623,0.00897452251208,-0.999927876191,0.0,0.606260579526,0.18831033664,0.304021394937,1.0,-0.0890177142857,-0.116994710204,1.84
0.409270342408,0.28090535129,-0.12510409699,-1.75879242954,0.0507415536798,2.03180714679,0.0919960425741,-0.112350578599,-0.377790463907,-0.00060849096382,-0.542091769546,-0.0489602929536,0.155126800971,-0.118885696032,0.573833167818,0.818956355253,0.00259434082496,0.0,0.818919814784,-0.573770243869,-0.0117809637057,0.0,-0.00815969662942,0.00888503589554,-0.999927235097,0.0,0.605054657059,0.186767295283,0.303964198813,1.0,-0.0900874285714,-0.118400620408,1.853
0.406862557677,0.272967750157,-0.125132916029,-1.76998069434,0.0497837467993,2.03529078622,0.0895982982098,-0.117312261868,-0.38391523022,-0.000518937607793,-0.529690535629,-0.0426172533877,0.170095808409,-0.109063028928,0.573853016325,0.818941903472,0.00276066896044,0.0,0.818907665166,-0.573789651767,-0.0116798270023,0.0,-0.00798121013907,0.00896340950152,-0.999927976194,0.0,0.603184382273,0.184282147359,0.304032497247,1.0,-0.0918154285714,-0.120671706122,1.874
0.405320557515,0.26803836547,-0.125167459063,-1.77694676961,0.0491727346004,2.03741300582,0.0880266913357,-0.122715510372,-0.389385462336,-0.00172713045536,-0.54083801281,-0.050681948997,0.161890223014,-0.110785914167,0.573837884822,0.818952341965,0.00280899163187,0.0,0.818918842728,-0.573774482675,-0.0116412609806,0.0,-0.00792206274733,0.00898070566058,-0.999928291353,0.0,0.602009147542,0.182700766109,0.304054722292,1.0,-0.0928851428571,-0.122077616327,1.887
0.403024769432,0.260768848259,-0.125258937235,-1.78738851632,0.0482358554443,2.04033649908,0.0857820440464,-0.118175957427,-0.384879277651,-0.00556831250103,-0.553796785171,-0.0623800011925,0.154016558117,-0.118877406126,0.573907733665,0.818904190777,0.00256641146596,0.0,0.818867313085,-0.573844931412,-0.0117925889874,0.0,-0.00818443590597,0.00886957924808,-0.999927170134,0.0,0.600178970965,0.18030773223,0.303979746774,1.0,-0.0944485714286,-0.124132408163,1.906
0.401292461537,0.255304429011,-0.125265230447,-1.79494964743,0.0475707170767,2.04262887634,0.0840865313316,-0.120480566561,-0.394748775273,0.000993382172548,-0.533756150907,-0.0502693221775,0.162395281018,-0.124611965255,0.57391031267,0.818901909302,0.00271345795591,0.0,0.818867027021,-0.573847071241,-0.0117080223244,0.0,-0.0080307665518,0.0089414881536,-0.999927775681,0.0,0.598882893457,0.178588918677,0.304055235026,1.0,-0.0956005714286,-0.125646465306,1.92
0.398787255542,0.247470903,-0.125245516787,-1.80595121769,0.0466104356132,2.04586305399,0.0815583470538,-0.127186150583,-0.394982735456,-0.00117697976754,-0.558658450192,-0.0400723176311,0.157808888954,-0.125145128501,0.573821938665,0.818963677119,0.00276137048427,0.0,0.81892907326,-0.573758155261,-0.0117260027943,0.0,-0.00801896592122,0.00899017731659,-0.999927433816,0.0,0.596945289734,0.176119531804,0.304068727722,1.0,-0.0972462857143,-0.127809404082,1.94
0.396974988769,0.242010181047,-0.125259346198,-1.81377295919,0.0459285930718,2.04808516103,0.0798022950112,-0.132569175818,-0.391169516655,0.00179423182565,-0.558686145408,-0.0432290224547,0.156227010778,-0.12747810125,0.573834224922,0.818955459916,0.00264270367678,0.0,0.81891883788,-0.573770345346,-0.0118437607115,0.0,-0.00818336505452,0.00896068759293,-0.999926366596,0.0,0.595545007075,0.174331978031,0.303994965232,1.0,-0.0983982857143,-0.129323461224,1.954
0.394208733474,0.233527305774,-0.125251910176,-1.82530230752,0.0449120010909,2.0515447377,0.0771270725728,-0.134840059853,-0.409264951701,0.00356529038724,-0.554567209757,-0.0457754127862,0.167804641126,-0.120032180091,0.573822637662,0.818962439008,0.0029750464325,0.0,0.818930240723,-0.573757695156,-0.0116668324224,0.0,-0.00784789284831,0.00913122384927,-0.999927513037,0.0,0.593520480513,0.171682363753,0.304153346974,1.0,-0.100126285714,-0.131594546939,1.975
0.392460727579,0.228306690563,-0.125252381638,-1.8326535071,0.0441857762331,2.0535476011,0.0753567094541,-0.13354194487,-0.408219196956,0.00037806199959,-0.570732276264,-0.0527958611122,0.146461284268,-0.141699555886,0.573716602086,0.819037235967,0.00283081110776,0.0,0.819003180853,-0.573652189102,-0.0117346748112,0.0,-0.00798738841543,0.00905099532062,-0.999927137901,0.0,0.592170485147,0.169983813572,0.304111121461,1.0,-0.101196,-0.133000457143,1.988
0.390200191227,0.221840688334,-0.125292498158,-1.8417711595,0.0433265781411,2.05600572905,0.0731948929768,-0.141084384092,-0.401086845283,-0.00515295266202,-0.570397341882,-0.0546184780042,0.153972130298,-0.122842246026,0.573729105416,0.819029097466,0.00264537416326,0.0,0.818992322458,-0.573665023994,-0.0118643542407,0.0,-0.00819985058551,0.00897363924498,-0.999926115395,0.0,0.590496468642,0.167812931452,0.304041278575,1.0,-0.102512571429,-0.134730808163,2.004
0.38760629781,0.214435291639,-0.125366463614,-1.8517659751,0.0424474291953,2.05904238011,0.0707236279687,-0.147151021914,-0.403587744057,-0.00262038763972,-0.558736920497,-0.0541268518998,0.170530516656,-0.134990784124,0.573795606572,0.818981272218,0.00300408660688,0.0,0.818949460635,-0.57373058167,-0.0116510722375,0.0,-0.00781862414014,0.00914570525128,-0.999927609976,0.0,0.588742718178,0.165389055812,0.304174570931,1.0,-0.103993714286,-0.136677453061,2.022
0.385207637643,0.207869370479,-0.125413517756,-1.86092026196,0.0415758252938,2.06147694614,0.0684587698204,-0.147516107818,-0.424854065036,-0.00637716834792,-0.575740339635,-0.0565514550867,0.145860382996,-0.154033628628,0.573819036135,0.818965429134,0.00284368650803,0.0,0.818931274983,-0.573754262157,-0.0117626702505,0.0,-0.0080017970946,0.0090786027144,-0.999926772427,0.0,0.586936044771,0.163006228205,0.304122530834,1.0,-0.105392571429,-0.13851595102,2.039
0.382800065749,0.201236769113,-0.125482469608,-1.87015658617,0.0406602161726,2.06389332735,0.0661544424856,-0.158601984467,-0.423298057707,-0.00119062521763,-0.566855782283,-0.0487862087536,0.156132997872,-0.142528352218,0.573818545541,0.818966386604,0.00266107254325,0.0,0.818929693708,-0.573754259185,-0.0118723936662,0.0,-0.0081964474425,0.00899200411238,-0.999925978316,0.0,0.585308213421,0.160890135961,0.304057288506,1.0,-0.106626857143,-0.140138155102,2.054
0.379982523935,0.193619721734,-0.125534330575,-1.88036790682,0.0397135568225,2.06687257372,0.0635635324555,-0.159247951341,-0.416309565252,-0.00899783471609,-0.580042394722,-0.0550377916867,0.158855837863,-0.144544037852,0.573904660751,0.818905016721,0.00295987479729,0.0,0.818872526601,-0.57383964861,-0.0116871622805,0.0,-0.00787233387592,0.00913125286231,-0.999927320649,0.0,0.583457953144,0.158355795332,0.304169301072,1.0,-0.108108,-0.1420848,2.072
0.377238576219,0.186457960466,-0.12565898886,-1.89026241475,0.0387879727214,2.06938970604,0.0609668083864,-0.160586006097,-0.418513925178,-0.005846037304,-0.583911336854,-0.0590097280818,0.152784484786,-0.154345644348,0.573974810968,0.818856479899,0.00278003647354,0.0,0.818820995268,-0.573909681369,-0.0118575815727,0.0,-0.00811432388589,0.00908248023976,-0.9999258304,0.0,0.581576762925,0.155841758861,0.304100067702,1.0,-0.109506857143,-0.143923297959,2.089
0.37461513355,0.179563204794,-0.125715841544,-1.89941734953,0.0378928833606,2.07188934688,0.0585355248844,-0.166749849837,-0.432048782871,-0.0018413298457,-0.561609853458,-0.0604201214287,0.160935498324,-0.151723766183,0.574015587619,0.818827293081,0.00295231738356,0.0,0.818794313535,-0.573950133728,-0.0117415082645,0.0,-0.00791993695515,0.0091573257583,-0.999926706306,0.0,0.579865450483,0.153518790179,0.304197029994,1.0,-0.110823428571,-0.14565364898,2.105
0.371831529124,0.172261209458,-0.125690846944,-1.90930011384,0.0368585452428,2.0745281138,0.055941108374,-0.16373368505,-0.428729555427,0.00101021157616,-0.590188288819,-0.0636072465877,0.140733466493,-0.155585021096,0.573939154852,0.818880887543,0.00294710804754,0.0,0.818848149538,-0.573874086699,-0.0117041665261,0.0,-0.00789320130227,0.00913088921338,-0.999927159465,0.0,0.577964223418,0.151089099322,0.304196560457,1.0,-0.112222285714,-0.147492146939,2.122
0.368630666655,0.164089987425,-0.125703484684,-1.92049068415,0.0357555826735,2.07729951472,0.0528899894825,-0.172825566806,-0.427001544007,-0.00332246699815,-0.588419825908,-0.0520903385432,0.155974891918,-0.165133479883,0.573847916842,0.818945548989,0.00273916578302,0.0,0.818909318907,-0.573782719647,-0.0119023082633,0.0,-0.00817581379215,0.00907341787969,-0.999925411797,0.0,0.575751592599,0.148302111431,0.304102288091,1.0,-0.113785714286,-0.149546938775,2.141
0.36621946969,0.157844597923,-0.125693861667,-1.92851101695,0.0349621602544,2.07952612322,0.0506409710315,-0.178349494688,-0.440304428535,0.0020707377498,-0.579616113615,-0.0606442210376,0.159623496798,-0.148989683831,0.573804358136,0.818974804663,0.00309431959929,0.0,0.818943683065,-0.573738464423,-0.0116689892738,0.0,-0.00778142785242,0.00922996809507,-0.999927125879,0.0,0.574224526158,0.14627469854,0.304272716351,1.0,-0.114937714286,-0.151060995918,2.155
0.363002563986,0.149958895223,-0.125707973386,-1.93915464622,0.0338566034693,2.0821047845,0.0476971110203,-0.183843018996,-0.442484977021,-0.000585757603953,-0.597380874672,-0.0607644238063,0.138580789799,-0.159683328992,0.573783895701,0.81898977543,0.00292158796033,0.0,0.818956021875,-0.573718149877,-0.0118010862462,0.0,-0.00798895474746,0.00916410173078,-0.99992609519,0.0,0.572097066948,0.143546256428,0.304213265708,1.0,-0.116418857143,-0.153007640816,2.173
0.359880425747,0.142411659205,-0.125751242312,-1.9492478412,0.0328549692883,2.08454728068,0.0448506539566,-0.179351414497,-0.449713120591,-0.00900598683462,-0.574305465216,-0.0576213526905,0.152452621591,-0.170343188864,0.573811293106,0.818970860828,0.00284181624453,0.0,0.818935424303,-0.573745104258,-0.0119194405588,0.0,-0.00813135289125,0.00916695008433,-0.999924921245,0.0,0.57007199184,0.140925372049,0.304181047717,1.0,-0.117817714286,-0.154846138775,2.19
0.357103364303,0.135677556478,-0.125809178627,-1.95796669532,0.031953142374,2.08691425248,0.0422419703825,-0.189391482771,-0.448677660788,-0.00434930192743,-0.588222492137,-0.0609932687435,0.154788573734,-0.177017391639,0.573765044441,0.819002232199,0.00312479292117,0.0,0.818971166424,-0.573698650121,-0.0116976201495,0.0,-0.00778783747306,0.00927097934349,-0.999926696578,0.0,0.56826510072,0.138470672641,0.304284838326,1.0,-0.119134285714,-0.156576489796,2.206
0.35362537978,0.12759912251,-0.125893793516,-1.96873318764,0.030763523471,2.08938328833,0.0390833591044,-0.190335082762,-0.446587441833,-0.00658125151013,-0.610734775345,-0.0662880826985,0.140195078166,-0.172932694128,0.5737841865,0.818989675918,0.00289222461768,0.0,0.818955420336,-0.573718409285,-0.0118301838711,0.0,-0.00802963054294,0.00915675175194,-0.999925836715,0.0,0.566177017041,0.135738927751,0.304223251663,1.0,-0.120533142857,-0.158414987755,2.223
0.350065149884,0.119368997397,-0.126021542004,-1.97935051409,0.0296369789872,2.09203768922,0.0359375095381,-0.205559809457,-0.467162984961,-0.00496841794277,-0.584572800168,-0.0592154993744,0.161102514752,-0.180729140345,0.573921617401,0.818892716473,0.003072928278,0.0,0.818861274387,-0.573855729016,-0.0116859953066,0.0,-0.00780630923979,0.00922332487072,-0.999926993242,0.0,0.564055080974,0.132831717755,0.304312917576,1.0,-0.122014285714,-0.160361632653,2.241
0.347018315463,0.112576310622,-0.126054974192,-1.98826647668,0.0286936634102,2.09420609299,0.0331619982562,-0.199678937886,-0.456090233519,-0.0012917187904,-0.604763096567,-0.0632400533155,0.128609080598,-0.181427581531,0.573907043434,0.81890285287,0.0030935351875,0.0,0.818871607111,-0.573841003469,-0.0116850633573,0.0,-0.00779388443942,0.00923952618387,-0.999926940592,0.0,0.562235848543,0.130412735254,0.304298992378,1.0,-0.123248571429,-0.161983836735,2.256
0.3433298677,0.104325123089,-0.126069566792,-1.99910064858,0.0274770613302,2.0965992713,0.0298325535248,-0.20513652591,-0.457246848608,-0.00236524105238,-0.597187183411,-0.0670809424219,0.133029742594,-0.195320897612,0.573851273347,0.818942632761,0.00290296846863,0.0,0.818908625351,-0.573785572078,-0.0118121760385,0.0,-0.00800796729828,0.00915587445772,-0.999926018475,0.0,0.55994865272,0.127496450726,0.304241001351,1.0,-0.124729714286,-0.163930481633,2.274
0.340026060807,0.0968527213276,-0.126052251919,-2.00852403138,0.0265061441604,2.09888912247,0.0267738827749,-0.209533225071,-0.460028720645,-5.53640019274e-05,-0.599816048962,-0.0556431448776,0.13815292775,-0.193851439849,0.573742105732,0.819018018584,0.00319816291324,0.0,0.818987865303,-0.573675421985,-0.0116676303513,0.0,-0.00772144069475,0.00931364674045,-0.999926814991,0.0,0.557871672613,0.124806359676,0.304362465148,1.0,-0.126128571429,-0.165768979592,2.291
0.336387397022,0.0889686255435,-0.126088600461,-2.01879813244,0.0254364727327,2.10110678521,0.023520164536,-0.215558568216,-0.458766961317,-0.00241634069185,-0.605354208502,-0.0611299072355,0.118996320735,-0.195465437566,0.573767407771,0.819000773587,0.00307270968285,0.0,0.818968057662,-0.573700044642,-0.011845936336,0.0,-0.00793917019442,0.00931344257747,-0.999925111878,0.0,0.555791264928,0.12215843005,0.304298948132,1.0,-0.127445142857,-0.167499330612,2.307
0.332620841266,0.0809858851316,-0.126190955152,-2.02897106959,0.0242646734639,2.10334880464,0.0200809499658,-0.221522819808,-0.482784879172,-0.0118557370319,-0.584810418984,-0.0637499197066,0.14058814693,-0.203122388019,0.573736470905,0.81902244815,0.00307217866733,0.0,0.818989970469,-0.573669401638,-0.0118149395598,0.0,-0.00791443820265,0.00929492419911,-0.999925480249,0.0,0.553630762587,0.119261780749,0.304323543013,1.0,-0.128844,-0.169337828571,2.324
0.328798848033,0.0729476474456,-0.126237768761,-2.03914555509,0.0231305741494,2.10567988692,0.0167111712213,-0.227388997292,-0.470424115493,-0.00505745705145,-0.607460520008,-0.0637351159346,0.13747706903,-0.200056843505,0.573768553464,0.818999457941,0.00320653221739,0.0,0.818968973553,-0.573701307981,-0.0117207713186,0.0,-0.00775986303079,0.00935124044405,-0.999926166688,0.0,0.551465085162,0.116396494144,0.304366949148,1.0,-0.130242857143,-0.171176326531,2.341
0.325054784551,0.0653457128163,-0.126351770958,-2.04894781914,0.0220107090255,2.10758927817,0.0134166875495,-0.243099131063,-0.472150326532,-0.00920547000083,-0.622424173959,-0.0685217181503,0.117859581056,-0.200014850418,0.573844571658,0.818947109208,0.00296425363622,0.0,0.818912718148,-0.573777291494,-0.0119300763846,0.0,-0.00806943550678,0.00927365312186,-0.999924438929,0.0,0.549298589828,0.113567472432,0.304282384419,1.0,-0.131559428571,-0.172906677551,2.357
0.320764139523,0.0567008178768,-0.126474037145,-2.05959547829,0.0207615280703,2.10999529287,0.00959574980769,-0.237028653782,-0.482910188996,-0.00691606141939,-0.589395941545,-0.0642032296012,0.140432445205,-0.215277058968,0.573886667531,0.818916659602,0.00321626440166,0.0,0.81888650893,-0.573819623616,-0.0116906777757,0.0,-0.00772828395757,0.00934305952039,-0.999926487731,0.0,0.547152175583,0.110584239208,0.304406916934,1.0,-0.132958285714,-0.17474517551,2.374
0.316682482985,0.0485717363771,-0.1264725716,-2.06988531556,0.019598988451,2.11206913323,0.00598702457328,-0.242908336084,-0.476764096133,-0.00669254261311,-0.604537135875,-0.0696982795142,0.117613675424,-0.209173271724,0.573852924146,0.818940468943,0.0031743782137,0.0,0.818909213985,-0.573785353852,-0.0117819291997,0.0,-0.00782743759964,0.00936080231564,-0.999925550529,0.0,0.544722758345,0.107478494849,0.304373823369,1.0,-0.134439428571,-0.176691820408,2.392
0.312764353675,0.0408495338123,-0.126478255137,-2.07961811635,0.0184771708735,2.11393678243,0.00249880249125,-0.243958028557,-0.479761360948,-0.00298965537626,-0.606258645113,-0.0706504896966,0.111636523655,-0.220180203819,0.573792690885,0.818983090893,0.00306457497322,0.0,0.818949761015,-0.5737247592,-0.0119137112537,0.0,-0.00799905953465,0.00934591331839,-0.999924331613,0.0,0.542511945214,0.104687784298,0.304327412509,1.0,-0.135756,-0.178422171429,2.408
0.30845397263,0.0325380252056,-0.126551205868,-2.08972940294,0.017244406845,2.11611915777,-0.00129086777407,-0.251815051538,-0.484617435953,-0.00871314279678,-0.607768337323,-0.0755248386874,0.119268234733,-0.217488394061,0.573807291958,0.818971885325,0.00331506322843,0.0,0.818942861498,-0.573739743671,-0.0116637487568,0.0,-0.00765044607717,0.00940777258333,-0.999926479542,0.0,0.54028351332,0.101648984153,0.304438929199,1.0,-0.137154857143,-0.180260669388,2.425
0.304058144332,0.024215003672,-0.126652265133,-2.10011355232,0.0160108125413,2.11795669867,-0.00519735150681,-0.259498022777,-0.489993704226,-0.00722498770357,-0.612602374314,-0.0743853170397,0.10203958005,-0.233756607113,0.573808181761,0.818971951205,0.00314015666752,0.0,0.81893988871,-0.573740306591,-0.0118434021623,0.0,-0.00789793178828,0.00936762096819,-0.999924932358,0.0,0.537878386685,0.0985460537862,0.304381096569,1.0,-0.138553714286,-0.182099167347,2.442
0.300872464517,0.0183020288444,-0.12672878814,-2.1073145844,0.015174339801,2.11931066993,-0.00797722509623,-0.263774592033,-0.493043168395,-0.00492862503415,-0.589864553969,-0.0690167898063,0.115294670275,-0.22744377529,0.573870390188,0.818928123801,0.00320159556086,0.0,0.81889668252,-0.573802075102,-0.0118384487026,0.0,-0.00785790769737,0.009415692441,-0.999924796183,0.0,0.536229377866,0.0963400917456,0.304411942598,1.0,-0.139541142857,-0.183396930612,2.454
0.295173286846,0.00794088032852,-0.12684959654,-2.11994521732,0.013622696651,2.12164229384,-0.0129775237575,-0.273630340666,-0.494892242756,-0.00187961087907,-0.608254900695,-0.073443768832,0.0964831239426,-0.244108543628,0.573908709349,0.818901175667,0.00322563565408,0.0,0.818870116634,-0.573840387529,-0.0118189942224,0.0,-0.00782773895838,0.00942458181666,-0.999924949064,0.0,0.533307926141,0.0924396870191,0.304430765737,1.0,-0.13998,-0.183973714286,2.475
0.290518928807,-0.00039931413293,-0.12685815555,-2.13017412944,0.0124120910375,2.12339824802,-0.0170799758952,-0.275128814794,-0.485013051471,0.000471573144732,-0.589233139231,-0.0799760100257,0.0969377002585,-0.24584386283,0.573862708979,0.818933724082,0.00314542610164,0.0,0.818900790297,-0.573793694348,-0.011959886197,0.0,-0.00798968230586,0.00943930634842,-0.999923529312,0.0,0.530878731433,0.0893413972395,0.304383323406,1.0,-0.13998,-0.183973714286,2.492
0.286133753963,-0.00830153752421,-0.126848571512,-2.13947125954,0.0112323903718,2.12518612255,-0.0209521263147,-0.276940229854,-0.484044703414,-0.00196938373043,-0.587899418598,-0.0717729105166,0.105177882292,-0.242219731239,0.573772378622,0.818995942352,0.00341333309822,0.0,0.818967543184,-0.573703706908,-0.0117032812623,0.0,-0.0076268448551,0.00951061165784,-0.999925686991,0.0,0.528711467689,0.0864761326004,0.304509335513,1.0,-0.13998,-0.183973714286,2.508
0.281064808635,-0.0170459706529,-0.126867360989,-2.15009961721,0.00989469616709,2.1268543921,-0.025383146112,-0.28933795282,-0.486890118107,-0.00406550556901,-0.602804800853,-0.073228617356,0.0866651530332,-0.249275925029,0.57373480342,0.819022847811,0.00327062831232,0.0,0.818991991792,-0.573665885379,-0.0118455153805,0.0,-0.00782565052225,0.009474985257,-0.999924489073,0.0,0.526276576893,0.0833585565257,0.304458063564,1.0,-0.13998,-0.183973714286,2.525
0.276485952713,-0.0248186230344,-0.126970337601,-2.15931110637,0.00873176648217,2.12832939515,-0.0293867198868,-0.285393448021,-0.485656879462,-0.00753432623063,-0.557545090477,-0.0706719934918,0.106769835399,-0.247008796544,0.573768409476,0.818999311935,0.00326898123113,0.0,0.818968246133,-0.573699264709,-0.0118706528614,0.0,-0.0078467954722,0.00948838011796,-0.999924196349,0.0,0.52390090857,0.0801971082246,0.304473286293,1.0,-0.13998,-0.183973714286,2.542
0.271522988235,-0.0330523289544,-0.127094131814,-2.16895342523,0.00745996980111,2.13003021678,-0.033620772728,-0.296596931477,-0.479639680034,-0.00338991750855,-0.572089780687,-0.0802790312653,0.0865650565484,-0.257627410014,0.573894398379,0.818910291574,0.00344974851008,0.0,0.818882528415,-0.573825795315,-0.0116665414344,0.0,-0.00757444199672,0.0095204848588,-0.99992599136,0.0,0.521596165191,0.0770112955764,0.304548000421,1.0,-0.13998,-0.183973714286,2.559
0.266536242981,-0.0412371981057,-0.127125437229,-2.17875043385,0.00628525189625,2.13138363163,-0.0379942183549,-0.293266473122,-0.480172313617,0.00254681984666,-0.578331287109,-0.0731098322614,0.0892221418617,-0.261019845365,0.573881315242,0.818920030579,0.00331156063239,0.0,0.818889031559,-0.573811409818,-0.0119149845078,0.0,-0.00785735948085,0.00954977152233,-0.999923528959,0.0,0.519132412899,0.0738863994121,0.304476030488,1.0,-0.13998,-0.183973714286,2.576
0.261528705912,-0.049377811265,-0.127128430135,-2.18814645479,0.00507034383797,2.13290226963,-0.0423246508098,-0.297194005226,-0.486391450993,-0.00024917517639,-0.540064520139,-0.0812430380788,0.0967321320757,-0.251416084731,0.573871658804,0.818926007347,0.00350151581622,0.0,0.818898072364,-0.573801825534,-0.0117541053705,0.0,-0.00761671305884,0.00961291757742,-0.99992478592,0.0,0.516816389861,0.0708127565054,0.304557059787,1.0,-0.13998,-0.183973714286,2.593
0.256743530057,-0.0570021620389,-0.127134900468,-2.19701824168,0.00387470223907,2.13417162275,-0.0465790442615,-0.300931905311,-0.475612025907,-0.000250927884884,-0.5658161681,-0.0676366920521,0.0718321936918,-0.262427925746,0.573746224195,0.819013920844,0.00349493737414,0.0,0.818986058896,-0.573676630621,-0.011734807825,0.0,-0.00760615351212,0.00959529140649,-0.999925035596,0.0,0.514577086469,0.0678951065816,0.304568280329,1.0,-0.13998,-0.183973714286,2.609
0.251590291578,-0.0650170887523,-0.127198590586,-2.20654416741,0.00266775519532,2.13534808555,-0.0510494997431,-0.306345327312,-0.475792491766,-0.0075409448573,-0.552928815024,-0.0616300016052,0.0724427836267,-0.269031586372,0.573774778402,0.818994820826,0.00327628307544,0.0,0.818962669738,-0.573704182138,-0.0120168163064,0.0,-0.00796224631341,0.00957828405922,-0.999922426545,0.0,0.511966502451,0.0645673934063,0.304451656232,1.0,-0.13998,-0.183973714286,2.627
0.246325532222,-0.0730968149034,-0.127359895875,-2.21563224992,0.00141410105635,2.13669866914,-0.0555802503484,-0.305383972442,-0.471025684536,-0.00836656190128,-0.533856026961,-0.0759160924602,0.0797683034157,-0.265180399795,0.573897848912,0.818907618626,0.00350971098472,0.0,0.818879625869,-0.573827776984,-0.0117723234618,0.0,-0.00762662255568,0.00963032734314,-0.999924542865,0.0,0.509821477257,0.0615643519619,0.304569984285,1.0,-0.13998,-0.183973714286,2.643
0.241316962815,-0.0806267955217,-0.127438131286,-2.22429771505,0.000308794231439,2.13776736096,-0.0599619568356,-0.307005839917,-0.469662136443,-0.00220335085828,-0.54438448134,-0.0744887966041,0.058010651635,-0.269457550409,0.573924921976,0.818888673051,0.00350313936464,0.0,0.818859882487,-0.573853971848,-0.0118683928279,0.0,-0.00770875043307,0.0096803330926,-0.999923430228,0.0,0.507560550168,0.0585957540577,0.304552774106,1.0,-0.13998,-0.183973714286,2.659
0.236033235184,-0.0885434038101,-0.127427300167,-2.23349838616,-0.000887311692812,2.13880175375,-0.0645838287199,-0.310238520049,-0.463627343793,-0.000402010560565,-0.5306339548,-0.0722734451328,0.06022445559,-0.271856046253,0.573855258396,0.818938116124,0.00335429143898,0.0,0.818906217895,-0.573783426804,-0.0120802449908,0.0,-0.00796848965683,0.00967934858414,-0.999921403603,0.0,0.505107110404,0.0555332662421,0.304467238708,1.0,-0.13998,-0.183973714286,2.676
0.230319222589,-0.0970076397862,-0.12742809984,-2.24279494765,-0.00220760653783,2.14002794592,-0.0696041296245,-0.324544749275,-0.468568970858,0.00139459993089,-0.521196923113,-0.0809515122057,0.0659891834921,-0.284655312431,0.573755606788,0.819006859554,0.00360757310198,0.0,0.81897968876,-0.573684652218,-0.0117871162676,0.0,-0.00758426577775,0.0097176402373,-0.999924020304,0.0,0.502677988696,0.0522687867786,0.304609512529,1.0,-0.13998,-0.183973714286,2.694
0.225179546366,-0.104428546524,-0.127465484755,-2.25119068768,-0.00336324556006,2.14087423334,-0.0740379620705,-0.318047985414,-0.466731659388,-0.00308525818361,-0.524559853685,-0.0761172673675,0.051169605775,-0.275064992717,0.573768568264,0.818998146419,0.00352322816688,0.0,0.818969363675,-0.573697250806,-0.0118908654303,0.0,-0.0077174790188,0.00970820767635,-0.999923092653,0.0,0.500402070666,0.0493398670873,0.304584426806,1.0,-0.13998,-0.183973714286,2.71
0.219223704606,-0.112705894146,-0.127623162707,-2.26060109401,-0.0046852105821,2.14179738318,-0.0791788482898,-0.335504570226,-0.458564672769,-0.00700231892772,-0.516440319881,-0.0789618708086,0.0499060893337,-0.284195603476,0.573876163767,0.818923364817,0.00337907067041,0.0,0.818891952327,-0.573804431594,-0.0120495476844,0.0,-0.00792888306444,0.00968222839148,-0.999921690567,0.0,0.497835312484,0.0459325004723,0.304512542648,1.0,-0.13998,-0.183973714286,2.728
0.213622581842,-0.12059151713,-0.127671994086,-2.26905486073,-0.0058565467959,2.1428326258,-0.0840566065014,-0.32797437058,-0.457019047544,-0.00289757057043,-0.498411893158,-0.0648964412916,0.049492313058,-0.289214219472,0.573888914804,0.818912939026,0.00372272224331,0.0,0.818887315034,-0.573817623357,-0.0117323187084,0.0,-0.00747172781894,0.0097817260027,-0.99992424269,0.0,0.495569104251,0.0428332628456,0.304669856604,1.0,-0.13998,-0.183973714286,2.745
0.20831804144,-0.127846808885,-0.127668782795,-2.27723711469,-0.00694993286398,2.14349835545,-0.0887242592235,-0.334262162995,-0.452387295451,0.000560948694421,-0.513357122979,-0.067758336834,0.0305498042426,-0.294069986842,0.573819103848,0.818962481597,0.00358283362842,0.0,0.818933790979,-0.573746701186,-0.0119547384348,0.0,-0.00773499220279,0.0097941493889,-0.999922119234,0.0,0.493266433447,0.0399420357565,0.304589528554,1.0,-0.13998,-0.183973714286,2.761
0.202543965044,-0.135594081811,-0.127731600786,-2.28581147567,-0.00820442949918,2.14421301027,-0.0937365049267,-0.335033466918,-0.458074909351,-0.00706138432005,-0.502187245527,-0.0859774383785,0.0434748075253,-0.291369545915,0.573820333164,0.818962008001,0.0034930788294,0.0,0.818931896885,-0.573747947979,-0.0120244482543,0.0,-0.00784357049,0.00976065449798,-0.99992160094,0.0,0.490851727181,0.036792628481,0.304558739251,1.0,-0.13998,-0.183973714286,2.778
0.197093873747,-0.142935585787,-0.127801000463,-2.2935702663,-0.00928595685473,2.14501150686,-0.0985504625914,-0.343513036957,-0.461137880948,-0.00576051199264,-0.485074887135,-0.0722452787775,0.0554638111548,-0.295957131203,0.573805036101,0.818971412528,0.00378852324867,0.0,0.818946134309,-0.573732870526,-0.0117715453868,0.0,-0.00746710259943,0.00985735827957,-0.99992353451,0.0,0.488695910577,0.0338663105713,0.304688414058,1.0,-0.13998,-0.183973714286,2.794
0.191496063267,-0.15009947365,-0.127947640515,-2.30141122264,-0.0104132553329,2.14559350937,-0.103361339364,-0.349975893782,-0.450032386335,-0.00654705311649,-0.486932836653,-0.0692427168914,0.037327952309,-0.308165416257,0.573947451762,0.818871810411,0.00374534791291,0.0,0.818845488719,-0.573874778696,-0.0118554157375,0.0,-0.00755885057474,0.00987143695001,-0.999922706268,0.0,0.486448458932,0.0308481992793,0.304658286215,1.0,-0.13998,-0.183973714286,2.81
0.185257822671,-0.158177783134,-0.127958167611,-2.310237931,-0.0117268508719,2.14611116307,-0.108869165525,-0.346924068094,-0.447555556305,-0.000282388820004,-0.483556569751,-0.0695990747076,0.0351912566707,-0.300360011282,0.573826728325,0.818957155634,0.00357910564866,0.0,0.8189280164,-0.573753832519,-0.0120079359386,0.0,-0.00778060927926,0.00982169358097,-0.999921495146,0.0,0.483859938007,0.0275830692247,0.304600907698,1.0,-0.13998,-0.183973714286,2.828
0.179304528796,-0.16579775219,-0.12796413342,-2.31823474986,-0.0128361145088,2.1467178857,-0.114095359542,-0.349543427926,-0.445212918649,-0.000406471815783,-0.461408073121,-0.0600795639817,0.0377958484395,-0.310242148896,0.573797004156,0.818977054747,0.00378532966728,0.0,0.818951014788,-0.573723902494,-0.011868697701,0.0,-0.00754860231186,0.00991041356255,-0.999922398142,0.0,0.481538158118,0.0245271151294,0.304687093575,1.0,-0.13998,-0.183973714286,2.845
0.173929678909,-0.172473236087,-0.127982200773,-2.32528470949,-0.0138344205383,2.14717994269,-0.118852834258,-0.351508818348,-0.440260895565,0.00193195442438,-0.476813089951,-0.0655655080413,0.0300185527231,-0.316648117705,0.573746847078,0.819011859935,0.00385689701344,0.0,0.81898664016,-0.573673358702,-0.0118535925463,0.0,-0.00749577813134,0.0099599002354,-0.99992230383,0.0,0.47931267435,0.0216076783757,0.304704855505,1.0,-0.13998,-0.183973714286,2.861
0.168472762821,-0.179065821189,-0.128125525245,-2.33240639419,-0.0149210019377,2.14746290152,-0.12358101424,-0.366245641561,-0.443069762645,-0.00827381174184,-0.466309898226,-0.0675285400151,0.0204011519391,-0.331149029828,0.573832445409,0.818952574156,0.00370847417693,0.0,0.818924682506,-0.573758508421,-0.0120118814957,0.0,-0.0077095410916,0.00992995955303,-0.999920976317,0.0,0.477442782628,0.0191598657028,0.304644013886,1.0,-0.13998,-0.183973714286,2.874
0.161109767328,-0.187856605885,-0.128247631302,-2.34164682241,-0.0162773421061,2.14794179408,-0.130033998072,-0.359567636618,-0.43392197583,-0.00321294635352,-0.451005226181,-0.0640288953239,0.0255729026875,-0.323101999252,0.573901233371,0.818904015667,0.00378607464544,0.0,0.81887704273,-0.573826879416,-0.0119936754151,0.0,-0.00764926483304,0.00998370693988,-0.999920904044,0.0,0.474515422964,0.0152468482313,0.304664082732,1.0,-0.13998,-0.183973714286,2.895
0.155277716056,-0.194905496378,-0.128245394144,-2.34880558602,-0.0173769401498,2.14834916431,-0.135235435611,-0.366402627565,-0.433196187503,-0.000428669300289,-0.44777121375,-0.0643745276675,0.018412167055,-0.326723247865,0.573779006339,0.818988739835,0.00398030266536,0.0,0.818965525843,-0.573705639287,-0.0117496311871,0.0,-0.00733943486111,0.0100016149348,-0.999923047236,0.0,0.472348226529,0.0123774310835,0.304772171122,1.0,-0.13998,-0.183973714286,2.911
0.148518907626,-0.202661170729,-0.128306262344,-2.35707554453,-0.0186219408436,2.14854067863,-0.141172306471,-0.370309188294,-0.429912128451,-0.00895849687655,-0.454153376003,-0.063481657519,0.0077615869081,-0.327485186669,0.57377027993,0.818995746613,0.00379207064714,0.0,0.818968850825,-0.573695922519,-0.0119898609082,0.0,-0.00764429679457,0.00998520583593,-0.999920927069,0.0,0.469752937438,0.00905878117941,0.304671887382,1.0,-0.13998,-0.183973714286,2.929
0.142058175301,-0.210002523498,-0.128450796613,-2.36469791528,-0.0197282829009,2.14874984118,-0.146863656597,-0.383981395148,-0.428038290301,-0.00914498391619,-0.455919344014,-0.0646039558425,0.0154019094974,-0.328586034378,0.573854390832,0.818936698838,0.00381684697566,0.0,0.818909378992,-0.573778952363,-0.0120784819293,0.0,-0.00770163393942,0.0100571353073,-0.999919766213,0.0,0.467353378823,0.00589305142641,0.304653652559,1.0,-0.13998,-0.183973714286,2.946
0.136291360939,-0.216483661354,-0.128543794078,-2.37112187182,-0.0207040918523,2.14898469022,-0.151887795852,-0.380911544335,-0.427925212451,-0.00101629565107,-0.431529737353,-0.0655134379976,0.0149745378369,-0.335106573702,0.573953957376,0.81886583315,0.00404339135965,0.0,0.818842428668,-0.573878971902,-0.0118637904161,0.0,-0.00739457771546,0.0101203647082,-0.999921446134,0.0,0.465335686673,0.00311122461713,0.30476586933,1.0,-0.13998,-0.183973714286,2.961
0.129416922099,-0.224134378565,-0.128540504479,-2.37897677016,-0.0219556973489,2.14912587106,-0.15803788011,-0.384557385722,-0.425877419512,-0.00613290978114,-0.440806388162,-0.0775631554514,0.00251068143218,-0.342785667774,0.573799689159,0.818974206435,0.00398908725664,0.0,0.818950178742,-0.573725028193,-0.0118719696866,0.0,-0.00743434088825,0.0100791902934,-0.999921567173,0.0,0.462807366441,-0.000129872148629,0.30474780077,1.0,-0.13998,-0.183973714286,2.979
0.122747808703,-0.231297553832,-0.128583631025,-2.38638123206,-0.0231020611485,2.14913938156,-0.163933353294,-0.392068309238,-0.422650650232,0.000254937822364,-0.425969836144,-0.0633959754808,0.000186715314581,-0.362279855385,0.573774491236,0.818992446058,0.00386696355983,0.0,0.818965950878,-0.573699100839,-0.012035775839,0.0,-0.0076388830495,0.0100729265825,-0.999920088615,0.0,0.460375601206,-0.00325396290632,0.304680423716,1.0,-0.13998,-0.183973714286,2.996
0.116422626865,-0.238091424081,-0.128719606419,-2.39315870153,-0.0241262829683,2.14916456774,-0.16953107412,-0.403510798234,-0.431918514191,-0.0103273392712,-0.4233874859,-0.0727711426794,0.00393313942573,-0.357119856629,0.573849517945,0.818939440193,0.00395865527678,0.0,0.818913957986,-0.573773532815,-0.0120253630994,0.0,-0.00757681837861,0.0101427421579,-0.999919855091,0.0,0.458138449672,-0.00622213019168,0.304711935208,1.0,-0.13998,-0.183973714286,3.012
0.109573642038,-0.245217967159,-0.128836563542,-2.40009810222,-0.025249482766,2.14925912743,-0.17556603179,-0.396896897052,-0.416504087115,-0.00104461181025,-0.420224425009,-0.0612310472866,0.00267886949011,-0.35634794243,0.57392590099,0.818884943635,0.00415405366682,0.0,0.81886320974,-0.573850866565,-0.0117887055621,0.0,-0.00726992616189,0.0101676409389,-0.999921880574,0.0,0.455844008088,-0.00939827050626,0.304811975117,1.0,-0.13998,-0.183973714286,3.029
0.102381967657,-0.252661706202,-0.128848702294,-2.40766974601,-0.0263784757444,2.1492015544,-0.182010259569,-0.402604083404,-0.400948412762,-0.00163872893535,-0.423695984058,-0.0645284720897,-0.00485973747714,-0.359448791598,0.573840774395,0.818944879498,0.0040984004003,0.0,0.818921468438,-0.573764622928,-0.0119387147446,0.0,-0.0074257751168,0.0102073859122,-0.999920330395,0.0,0.453277484741,-0.0126356870816,0.304741114214,1.0,-0.13998,-0.183973714286,3.047
0.0958515688042,-0.259257649975,-0.128902443236,-2.41426228885,-0.0274245146715,2.14911169712,-0.18783092137,-0.412077884872,-0.405568221737,-0.00416204599549,-0.40530706646,-0.0644577820608,-0.0101791096488,-0.358606369276,0.573815116259,0.818962993874,0.00407110780762,0.0,0.818938911164,-0.573738634074,-0.0119910989565,0.0,-0.00748465857144,0.0102148591047,-0.999919815055,0.0,0.451014209622,-0.0155699591816,0.304712177904,1.0,-0.13998,-0.183973714286,3.063
0.0888226398239,-0.266239782224,-0.129059610801,-2.42095467297,-0.0284959323139,2.14903058342,-0.194064135189,-0.418293952732,-0.408726579148,-0.0117047814277,-0.390699305381,-0.058437061561,0.000456622765502,-0.375509537614,0.573921615258,0.818887444356,0.00425204863398,0.0,0.818866424414,-0.573845465451,-0.0118282564361,0.0,-0.00724613136714,0.0102705496407,-0.999921001575,0.0,0.448698372695,-0.01874021514,0.304795299672,1.0,-0.13998,-0.183973714286,3.08
0.0813223198657,-0.273564328721,-0.1291346723,-2.42798546894,-0.0296407013359,2.1489192919,-0.200750022375,-0.412011989849,-0.396526574591,-0.000352218692329,-0.396380542385,-0.0628483304021,-0.0129913005802,-0.370951727422,0.573930665012,0.818880378545,0.00438911082731,0.0,0.818861971965,-0.573855270013,-0.0116596247493,0.0,-0.0070292588845,0.0102860901725,-0.999922389923,0.0,0.446235488563,-0.0220494111519,0.304860147979,1.0,-0.13998,-0.183973714286,3.098
0.0754965366656,-0.279157977255,-0.129138681455,-2.43363291896,-0.0305551907512,2.14868320066,-0.206065544398,-0.426851640142,-0.39616648206,-0.00286569326332,-0.399545977863,-0.0706881436022,-0.0134150126508,-0.378561628743,0.573782519651,0.818985067263,0.00422216120568,0.0,0.818963417731,-0.573706153548,-0.0118708340014,0.0,-0.00729989646374,0.0102692703302,-0.999920623649,0.0,0.444067034348,-0.024751180502,0.304757014439,1.0,-0.13998,-0.183973714286,3.113
0.0678231256423,-0.28636022553,-0.129200332395,-2.44057984447,-0.0317051454026,2.14843250087,-0.212909108785,-0.426067983541,-0.401017981765,-0.00307645749153,-0.377480038343,-0.0626651103721,-0.00815199917882,-0.385154609915,0.573776407539,0.818989226193,0.00424599030106,0.0,0.818968148085,-0.573700330208,-0.0118258379625,0.0,-0.00724944741856,0.0102629152288,-0.999921055925,0.0,0.441695055194,-0.0278801397117,0.304767106256,1.0,-0.13998,-0.183973714286,3.13
0.0604459228374,-0.293139498406,-0.129377040591,-2.44695245432,-0.0326653765568,2.14818353135,-0.219474984256,-0.436824550168,-0.395800270837,-0.00325271479108,-0.362339479992,-0.0613959846204,-0.00645277187105,-0.37949757682,0.573950529776,0.818866077146,0.00445914459162,0.0,0.818847858902,-0.573873852159,-0.0117359567828,0.0,-0.00705132616801,0.0103874196043,-0.999921187051,0.0,0.439356983056,-0.0310705608547,0.304830624675,1.0,-0.13998,-0.183973714286,3.147
0.0531425966294,-0.299872906125,-0.129427217719,-2.4532250276,-0.0336852412739,2.14789663879,-0.226120734638,-0.427247915933,-0.383920435255,-0.00141771170435,-0.376178941645,-0.0620537600359,-0.0189998537941,-0.396292929738,0.57387080375,0.818921148309,0.00460438452685,0.0,0.818905545512,-0.573794784898,-0.0115758047108,0.0,-0.00683783110665,0.0104137728736,-0.999922395689,0.0,0.437029036475,-0.034152662489,0.304903420766,1.0,-0.13998,-0.183973714286,3.164
0.0452471570811,-0.306840700769,-0.129454619525,-2.45999924588,-0.034861835401,2.14739604981,-0.233167236643,-0.440277079329,-0.389413991553,0.000598261331632,-0.371094598502,-0.0626413162531,-0.0296248156333,-0.390503853477,0.573839533077,0.818944123582,0.00441130707617,0.0,0.818925190617,-0.573762891704,-0.0117653379792,0.0,-0.00710424687454,0.0103641460826,-0.99992105396,0.0,0.434443121817,-0.0374429020461,0.304818175137,1.0,-0.13998,-0.183973714286,3.182
0.037709434966,-0.313398813897,-0.129572982795,-2.46619274808,-0.035836118544,2.14700742753,-0.23997888125,-0.45046441858,-0.383381435474,-0.0119226839073,-0.364332166569,-0.0511354511853,-0.0209889460318,-0.410683025331,0.573883740377,0.818912745048,0.0044850227953,0.0,0.818894395817,-0.573806300494,-0.0117917307687,0.0,-0.00708300064457,0.0104400435944,-0.999920415129,0.0,0.432062460122,-0.0405787685224,0.304811869531,1.0,-0.13998,-0.183973714286,3.199
0.0305330214063,-0.319534148981,-0.129691559987,-2.47185935269,-0.0367843844803,2.14661028232,-0.246444642182,-0.444537421692,-0.375805607501,-0.00578973844284,-0.346546158025,-0.0565295507225,-0.021964674077,-0.400446778707,0.573939997064,0.818872808268,0.00457717710686,0.0,0.81885594334,-0.573862675384,-0.0117183940286,0.0,-0.00696933730765,0.0104739053672,-0.99992085969,0.0,0.429847481798,-0.0435473104464,0.30484807118,1.0,-0.13998,-0.183973714286,3.215
0.0229382763738,-0.32600281541,-0.129693053287,-2.47767919509,-0.0378216702727,2.14621400348,-0.253427530275,-0.456088939566,-0.377356288073,-0.000493546639195,-0.340249781136,-0.0678086686519,-0.0320356686366,-0.406906150855,0.573774786221,0.818987862793,0.00470342375741,0.0,0.818974165991,-0.573699461531,-0.0114450941176,0.0,-0.00667517001159,0.0104190895794,-0.999923439408,0.0,0.42755392722,-0.046619738359,0.304947194658,1.0,-0.13998,-0.183973714286,3.232
0.0151718016642,-0.33232572694,-0.12974306609,-2.48369232225,-0.0387998471057,2.14561376943,-0.260439348176,-0.460345487612,-0.37425788569,-0.000647127712032,-0.354365353101,-0.0596107287896,-0.0326179854926,-0.422577267831,0.573781557997,0.81898371014,0.0045992530838,0.0,0.818967420876,-0.573704628255,-0.0116666175092,0.0,-0.00691629007177,0.0104609298123,-0.999921363848,0.0,0.425114995516,-0.0497282834831,0.30486539339,1.0,-0.13998,-0.183973714286,3.249
0.00774369715255,-0.338267603306,-0.129917799573,-2.48919065001,-0.039698247983,2.14507217573,-0.26714008645,-0.467451207384,-0.367020330983,-0.0101873456044,-0.338612454293,-0.0574662593895,-0.0287860567606,-0.418307153294,0.573912175886,0.818891963799,0.00463819964811,0.0,0.818875483736,-0.573834046758,-0.011754821038,0.0,-0.00696450569846,0.0105445459148,-0.999920150918,0.0,0.422848746537,-0.052727604917,0.304845392786,1.0,-0.13998,-0.183973714286,3.265
-0.000540356303821,-0.344892521738,-0.129961154274,-2.49521179161,-0.0406939004333,2.14446948821,-0.274768158623,-0.457946452857,-0.361250965603,-0.000736495418624,-0.325709114588,-0.052349517115,-0.0334949168788,-0.435851725753,0.573816068316,0.818958961069,0.00469965185971,0.0,0.818943309457,-0.573737801944,-0.0117276347601,0.0,-0.00690821665564,0.0105784573841,-0.999920183206,0.0,0.420344890075,-0.0559814237959,0.304862103245,1.0,-0.13998,-0.183973714286,3.283
-0.00807697013898,-0.350695552335,-0.130012670088,-2.50035049625,-0.0416516766371,2.14390706046,-0.281579973204,-0.46740731329,-0.36150901852,-0.0051267326663,-0.319623035959,-0.0617573623771,-0.0310232969006,-0.429753102913,0.573827960956,0.818950389509,0.00474105998764,0.0,0.818936188072,-0.57375097374,-0.0115795897717,0.0,-0.00676305197912,0.0105275206685,-0.999921713154,0.0,0.418153896394,-0.0589407494706,0.304923163583,1.0,-0.13998,-0.183973714286,3.299
-0.0151779642853,-0.356121669927,-0.130136150454,-2.50516705586,-0.042464969341,2.14338367595,-0.288087456361,-0.47389009724,-0.357760478968,-0.00780815802785,-0.32615557754,-0.058532078335,-0.0401510670507,-0.429368200551,0.573862039628,0.818925832891,0.00485660363225,0.0,0.818913417418,-0.573785166478,-0.0114954079034,0.0,-0.00662736696545,0.0105741196879,-0.999922129968,0.0,0.416077603946,-0.0617196534829,0.304964211253,1.0,-0.13998,-0.183973714286,3.314
-0.0237552033116,-0.36248536034,-0.130255138212,-2.51103781858,-0.0434701340843,2.14258073693,-0.295966853445,-0.471548352027,-0.355315940367,-0.00184963466074,-0.321700239337,-0.0607624040446,-0.0478406157473,-0.433995364721,0.573849393845,0.818935264014,0.00475956291065,0.0,0.818920215369,-0.573770659133,-0.0117327950148,0.0,-0.00687763445045,0.0106307642664,-0.999919839285,0.0,0.413488839147,-0.0650222582022,0.304884183547,1.0,-0.13998,-0.183973714286,3.332
-0.0319183436744,-0.368477031047,-0.130288870529,-2.51638458973,-0.044443756539,2.14191575074,-0.30345900196,-0.487728907175,-0.352157437439,-0.00226175261627,-0.30766224024,-0.0560514892244,-0.0378776304652,-0.445465609723,0.573779811589,0.818984070104,0.00475053998936,0.0,0.818969224482,-0.573701612523,-0.0116882864787,0.0,-0.0068472598116,0.0105972528945,-0.999920403464,0.0,0.411109268165,-0.0681200533755,0.304888178507,1.0,-0.13998,-0.183973714286,3.349
-0.0397249270671,-0.373973002543,-0.130371659522,-2.52126213714,-0.0452775719401,2.1412231232,-0.310552147753,-0.488163917501,-0.335582305837,-0.00428642165757,-0.307331085636,-0.0483097508391,-0.0464651180776,-0.444688703364,0.573860421627,0.818927434783,0.00477702326451,0.0,0.818912603357,-0.573781613857,-0.0117283657972,0.0,-0.00686384454867,0.0106426144025,-0.999919807983,0.0,0.40887465925,-0.0710719641853,0.304885918975,1.0,-0.13998,-0.183973714286,3.365
-0.0490498755263,-0.380464342128,-0.130526281342,-2.52680918383,-0.0462318750573,2.14043841322,-0.319148210362,-0.489851051619,-0.337632768123,-0.00750229845063,-0.289163130933,-0.0482514839949,-0.0372006760274,-0.446157539039,0.573923557025,0.818882115212,0.0049577192277,0.0,0.818870262763,-0.573845180534,-0.011573609718,0.0,-0.00663258641911,0.0107023021562,-0.999920731621,0.0,0.406279309961,-0.0745953585286,0.304969423315,1.0,-0.13998,-0.183973714286,3.384
-0.056922345548,-0.385830904378,-0.1305608947,-2.53156405144,-0.0470949963067,2.13973372773,-0.3264736226,-0.499243111575,-0.334165889443,-0.00436258812354,-0.299700424031,-0.0502493368526,-0.0469577295208,-0.461064722162,0.57381765114,0.818956519836,0.00492633332415,0.0,0.818944152294,-0.573739212935,-0.011599045871,0.0,-0.00667281210815,0.0106903349473,-0.999920592006,0.0,0.40403538742,-0.0775006546944,0.304948950373,1.0,-0.13998,-0.183973714286,3.4
-0.064447857079,-0.390828757654,-0.130615401674,-2.53602353366,-0.0479455219339,2.13898536362,-0.333394827603,-0.501720295568,-0.329096693279,-0.00263206644813,-0.294000053707,-0.0492044825855,-0.0531243715384,-0.465746664385,0.573789322205,0.818977020237,0.00481673625598,0.0,0.81896265851,-0.573710326655,-0.0117205783238,0.0,-0.00683560458679,0.0106700752538,-0.999919708779,0.0,0.401880378263,-0.0802642079761,0.304899101905,1.0,-0.13998,-0.183973714286,3.415
-0.0734896435365,-0.396768860711,-0.130778719479,-2.54109357943,-0.0488332415548,2.13816203444,-0.341769761691,-0.495911716887,-0.327319582782,-0.00532032858614,-0.269891711581,-0.0497624886242,-0.0475974290427,-0.471419168675,0.573848836426,0.818934605433,0.00493678609925,0.0,0.818921942628,-0.573769671327,-0.0116603194493,0.0,-0.00671659028505,0.0107343098798,-0.999919827789,0.0,0.399375571353,-0.0835929221956,0.304937552858,1.0,-0.13998,-0.183973714286,3.433
-0.0820271738148,-0.402161075446,-0.130818596392,-2.54578569637,-0.0496679284378,2.13734453942,-0.34970642817,-0.50549042404,-0.313047232228,-0.00404377162788,-0.279696272818,-0.0544902739654,-0.0505411441446,-0.463372569402,0.573798563356,0.818969901939,0.00492496806722,0.0,0.818956730445,-0.573718878281,-0.0117161966532,0.0,-0.0067697956086,0.0107562796452,-0.999919232896,0.0,0.397014075785,-0.0866650720873,0.304918428807,1.0,-0.13998,-0.183973714286,3.45
-0.0902970278989,-0.407238004558,-0.130873901305,-2.5501191213,-0.0505006218773,2.13654367649,-0.357327446658,-0.515948388855,-0.315198414196,-0.00498768660151,-0.271544338515,-0.0466617133599,-0.0484730045197,-0.469413392701,0.573812931015,0.818959950078,0.00490584028848,0.0,0.818946646028,-0.57373348884,-0.0117056244439,0.0,-0.0067719231263,0.0107346667973,-0.999919450749,0.0,0.394769494489,-0.0896362963224,0.304927127492,1.0,-0.13998,-0.183973714286,3.466
-0.0990922926227,-0.412568811801,-0.131036221761,-2.55456290256,-0.051354080209,2.13578268657,-0.36549899441,-0.511539792029,-0.310520498606,-0.00922826480329,-0.262617977197,-0.0485049674345,-0.0446373435735,-0.483919196117,0.573870601941,0.818918895234,0.00501220099208,0.0,0.818907775732,-0.573792116095,-0.0115502923388,0.0,-0.00658291796974,0.0107331102286,-0.999920729626,0.0,0.392424295846,-0.0928133074408,0.304980378498,1.0,-0.13998,-0.183973714286,3.483
-0.108884170268,-0.41841738835,-0.131103458781,-2.55954732606,-0.0521882166495,2.13478183454,-0.374732510302,-0.522625206618,-0.304715684964,-0.00262830092394,-0.260981659751,-0.0503466390498,-0.0492505869132,-0.49374353386,0.573785766701,0.818978037514,0.00506111667215,0.0,0.818966825341,-0.573705960745,-0.0116428732685,0.0,-0.0066317923802,0.0108256100452,-0.999919409501,0.0,0.389751736571,-0.0962440297522,0.304967392899,1.0,-0.13998,-0.183973714286,3.502
-0.116272497665,-0.422676995814,-0.13115488936,-2.56315403697,-0.0528451004037,2.13400088214,-0.381552033361,-0.525277874269,-0.306109425767,-0.00443726771746,-0.258107049905,-0.037645386704,-0.0602176715724,-0.483214167309,0.573835904469,0.818942981218,0.00504927296538,0.0,0.818931138062,-0.573755351325,-0.0117189948239,0.0,-0.00670027017475,0.0108599959387,-0.999918580119,0.0,0.387758106816,-0.0988218263539,0.304957256138,1.0,-0.13998,-0.183973714286,3.516
-0.126820559472,-0.42850291144,-0.131301830038,-2.56807889743,-0.0537735554362,2.13302370293,-0.391397826951,-0.517782420077,-0.286226573419,-0.00646791984426,-0.247321428894,-0.0420116790048,-0.0456794883651,-0.490043504579,0.573884691717,0.818908587232,0.00508264408989,0.0,0.818897011286,-0.57380375093,-0.0117340200402,0.0,-0.00669277838699,0.0108963463165,-0.999918234834,0.0,0.384974130951,-0.102513165974,0.304943985566,1.0,-0.13998,-0.183973714286,3.536
-0.134704907111,-0.43280609949,-0.131338496445,-2.57169131535,-0.054446893754,2.13226619598,-0.398894271031,-0.533132724249,-0.28470402135,-0.00893344380479,-0.243203355629,-0.0476289033238,-0.0443719691181,-0.504089266366,0.573764856108,0.818992520011,0.00508811967325,0.0,0.818980929343,-0.573683778505,-0.0117433621067,0.0,-0.00669888297977,0.0109052114071,-0.999918097311,0.0,0.382895210115,-0.105219510802,0.304937318676,1.0,-0.13998,-0.183973714286,3.551
-0.145000328747,-0.438180826041,-0.131427763098,-2.57619633433,-0.0552901903152,2.1312143596,-0.408463328002,-0.543959402468,-0.285211620069,-0.011783223115,-0.230895073956,-0.0387227686398,-0.0553277528379,-0.496277989427,0.573842729096,0.818938041852,0.00507471893994,0.0,0.818925572042,-0.573760541181,-0.0118530898843,0.0,-0.00679540356699,0.0109578375306,-0.999916870688,0.0,0.380201568059,-0.108742883128,0.304913961124,1.0,-0.13998,-0.183973714286,3.57
-0.153104814256,-0.442392367248,-0.131540817635,-2.5795190506,-0.055938955526,2.1304686177,-0.416079513093,-0.529802725716,-0.284085235892,-0.00617638222338,-0.217807855226,-0.0475275681423,-0.047395300602,-0.509090535334,0.573881936128,0.81890984653,0.00518975370352,0.0,0.81889978462,-0.573800850091,-0.0116822123559,0.0,-0.00658892049777,0.0109543097395,-0.999918291274,0.0,0.378146108115,-0.111527718683,0.304989115509,1.0,-0.13998,-0.183973714286,3.585
