nelsonifechukwu/NELSON_IML_WORK/CNN-GradCAM/train2dof/data_sample_2022-02-22-08-57-50/robot_state.csv
position_joint1,position_joint2,position_joint3,position_joint4,position_joint5,position_joint6,position_joint7,velocity_joint1,velocity_joint2,velocity_joint3,velocity_joint4,velocity_joint5,velocity_joint6,velocity_joint7,ee_T_00,ee_T_10,ee_T_20,ee_T_30,ee_T_01,ee_T_11,ee_T_21,ee_T_31,ee_T_02,ee_T_12,ee_T_22,ee_T_32,ee_T_03,ee_T_13,ee_T_23,ee_T_33,v_x,v_y,time
0.465061638055,0.547793033157,-0.123997775438,-1.35584513582,0.0795269223115,1.89411065759,0.159151749405,-0.000110792029286,0.000725029912405,-0.000236737901988,0.00117511779081,0.000299523399177,0.000300919797659,-0.000663926525379,0.57382387763,0.81896466514,0.00194463769775,0.0,0.818921246221,-0.573765128209,-0.0119296705442,0.0,-0.00865437996809,0.00843819739883,-0.999926946598,0.0,0.661679753911,0.260880598912,0.303201445718,1.0,0.0,0.0,0.0
0.4650637281,0.547793114065,-0.123992538633,-1.35585046488,0.0795259288257,1.89410431714,0.159153279669,-0.000415500585387,-0.000815372473907,0.00147212184877,-0.000939442273308,-0.000152755913713,-0.000105183792135,0.000339809213444,0.573819743438,0.818967582836,0.00193577020613,0.0,0.818924016063,-0.573761000169,-0.0119380693976,0.0,-0.00866638924353,0.00843571104381,-0.999926863564,0.0,0.661675571547,0.260883784805,0.30319812619,1.0,-0.00012,-0.000157714285714,0.007
0.465065946589,0.547790918163,-0.123999872316,-1.35585106764,0.0795265092165,1.89410560612,0.159150937063,0.00129107813387,0.0020644925733,0.00530227684719,-0.00061326195642,-6.57913204408e-05,-0.000248392718968,-0.00120589815645,0.57382132399,0.818966472998,0.0019367864461,0.0,0.818922952842,-0.573762608758,-0.011933691873,0.0,-0.00866220467343,0.00843404812768,-0.99992691385,0.0,0.661676821979,0.260881148048,0.303199750737,1.0,-0.00048,-0.000630857142857,0.025
0.465065864931,0.547774654262,-0.123994945417,-1.35585796606,0.0795206172204,1.89410850328,0.159150121961,0.00117924486604,-0.00462065385278,0.000429271660693,7.17947660189e-05,-0.000541671458214,-0.000189502017094,-0.00130203193077,0.573816088207,0.818970120269,0.00194574492212,0.0,0.818926742834,-0.573757361506,-0.011925891584,0.0,-0.00865072994554,0.00843685344414,-0.999926989522,0.0,0.661675471118,0.260882584645,0.303208066467,1.0,-0.00078,-0.00102514285714,0.04
0.46506276405,0.547709523692,-0.123994971044,-1.35592990229,0.0795224927402,1.89412459869,0.159150533418,0.000645698283781,-0.00504862802931,-0.00102572484886,-0.00595943572537,-0.000145879558557,0.00105033147978,-0.000797230142361,0.573823404318,0.818964965152,0.00195790975763,0.0,0.818921676666,-0.573764558092,-0.0119275422836,0.0,-0.0086450264673,0.0084478403069,-0.999926946087,0.0,0.661664623108,0.260874233829,0.303221369522,1.0,-0.00114,-0.00149828571429,0.058
0.465059466413,0.547588804902,-0.123997729782,-1.35609884127,0.0795241592353,1.89416021834,0.159152819876,-0.000543823238094,-0.0082525441229,-0.000824392514074,-0.0126663987006,0.000249367789767,0.000251370883195,-0.00226155735366,0.573839603665,0.818953623526,0.00195414449463,0.0,0.818910156263,-0.573780644496,-0.0119446587115,0.0,-0.00866103799778,0.0084547497745,-0.999926749131,0.0,0.661637584406,0.260854673957,0.303229666716,1.0,-0.00148,-0.00194514285714,0.075
0.465047096264,0.547454638204,-0.123994945422,-1.35630008262,0.0795204486186,1.89423120312,0.159147615823,-0.00216921317462,-0.00580033376583,9.95622106849e-05,-0.0199666362432,0.000152442896806,0.0105059973655,0.00161738412788,0.573853785774,0.818943665345,0.00196276468661,0.0,0.818900214733,-0.573794695217,-0.0119512740988,0.0,-0.008661363009,0.0084657553018,-0.999926653199,0.0,0.661611939514,0.260830194775,0.303234990398,1.0,-0.0018,-0.00236571428571,0.091
0.465032930949,0.547289987816,-0.123999886659,-1.35648822117,0.0795183027607,1.89434298438,0.15914416826,-0.00255822995776,-0.015145459205,0.000591070014954,-0.0148542990709,0.000303114648801,0.00638184689967,0.00128574283073,0.57387620286,0.818927765467,0.00204098983475,0.0,0.81888533797,-0.573816788711,-0.0119097922842,0.0,-0.00858227058499,0.00850624679512,-0.999926991533,0.0,0.661600401792,0.260805052826,0.303271940008,1.0,-0.0021,-0.00276,0.106
0.465010248107,0.547060795636,-0.123993422309,-1.35676064959,0.0795161362592,1.89448082963,0.159127253685,-0.00225451589839,-0.0122696811119,0.000565591521025,-0.0203113046428,-0.00100877924174,0.00832050388416,0.00144205384055,0.573891248566,0.818916993228,0.00213070965246,0.0,0.81887562865,-0.57383136314,-0.0118751160169,0.0,-0.00850222997272,0.00855997616999,-0.999927216798,0.0,0.661576029652,0.260773485352,0.303316366,1.0,-0.00248,-0.00325942857143,0.125
0.464984653444,0.546856668823,-0.123994947604,-1.35706663944,0.0795082400068,1.89459592694,0.159113245078,-0.0026818501308,-0.0109801535439,-0.00126987893476,-0.0219050353302,0.000112521816402,0.00596188062038,0.000886871423169,0.573916840604,0.818899015002,0.002147137954,0.0,0.818857780962,-0.573856802097,-0.0118765376369,0.0,-0.00849369878258,0.00857451066423,-0.999927164771,0.0,0.661541650345,0.260728565506,0.303325331944,1.0,-0.0028,-0.00368,0.141
0.464950121592,0.546586936897,-0.123998062712,-1.35744666027,0.0794997409915,1.89473399232,0.159049703385,-0.00159060489959,-0.0200362271583,-0.00085192922047,-0.0247359854311,-2.76120426568e-05,0.00835451392389,-0.0120903311814,0.573914215175,0.81890077128,0.00217883407217,0.0,0.818859832314,-0.573853931281,-0.0118738147728,0.0,-0.00847330671498,0.00859887634447,-0.999927128544,0.0,0.661499309483,0.260670351273,0.303347558416,1.0,-0.00314,-0.00412685714286,0.158
0.464913303841,0.546298462131,-0.123998247158,-1.35789432231,0.0794895850225,1.89490214409,0.15892694659,-0.00296799701001,-0.0189529679744,-0.00300728588222,-0.0273649539143,0.000676381218461,0.00260327720935,-0.000952561701418,0.573869413528,0.818932136703,0.00219056903887,0.0,0.818891177389,-0.573808912524,-0.0118877417605,0.0,-0.0084784489589,0.00861601493664,-0.999926937426,0.0,0.661443443297,0.260603300444,0.303351368446,1.0,-0.0035,-0.0046,0.176
0.464858629444,0.545995966366,-0.123998141689,-1.35839512311,0.0794737888497,1.89506832529,0.158905656462,-0.00794046812344,-0.0193475222992,-0.000575888075815,-0.0310121355508,0.000587863230236,0.00951762515717,-0.00119152683715,0.573917334538,0.818898591643,0.00217637850211,0.0,0.818857307746,-0.573856742764,-0.0119119787441,0.0,-0.0085059369046,0.00861880046935,-0.99992667997,0.0,0.661389178788,0.260523449379,0.303343585955,1.0,-0.00382,-0.00502057142857,0.192
0.464803614309,0.545662619187,-0.123995645146,-1.35898089759,0.0794211150065,1.89526622478,0.158813909485,-0.00567832556803,-0.0195784265208,-0.000782542745674,-0.0350208162655,-0.0122491173608,0.00883542656881,-0.00980624932966,0.573904217689,0.818907930892,0.00212050492623,0.0,0.818866023603,-0.573843960059,-0.0119286124436,0.0,-0.00855176103833,0.00858245566842,-0.999926601725,0.0,0.661319608918,0.260428246849,0.303317798696,1.0,-0.00416,-0.00546742857143,0.209
0.464737544461,0.545289168551,-0.123998150474,-1.35961579177,0.0793228586535,1.89547274993,0.15874554244,-0.00638695037685,-0.0286079613637,-0.000248599754688,-0.0407831833428,-0.00458272358917,0.0150272667924,-0.000648519333334,0.573913300685,0.818901770266,0.00203981711651,0.0,0.818859319746,-0.573853879082,-0.0119116257554,0.0,-0.00858405972263,0.00850672749109,-0.999926972086,0.0,0.661248043159,0.260310743883,0.303297826788,1.0,-0.00448,-0.005888,0.225
0.464668461779,0.544873978654,-0.123998830979,-1.36031230308,0.0793096420957,1.89570053905,0.158655462565,-0.00336136345512,-0.0238421501309,7.39240228492e-05,-0.0410048612023,3.58900638333e-05,0.0138998602192,-0.00360789564673,0.573935649961,0.818886197476,0.00200304460331,0.0,0.818842954397,-0.573876068867,-0.0119674774749,0.0,-0.0086506693123,0.00850890474651,-0.99992637952,0.0,0.661166079272,0.260209970311,0.303274112602,1.0,-0.0048,-0.00630857142857,0.241
0.464600971094,0.544437877889,-0.124002293195,-1.36104869543,0.0792905978127,1.89596919823,0.158564210866,-0.00913828228288,-0.0233430036228,4.6378001871e-05,-0.0474989998035,-0.00156441032324,0.0183958081007,-0.00440019184766,0.573950824721,0.818875581247,0.00199502885125,0.0,0.818832008507,-0.573891054337,-0.011997770509,0.0,-0.00867991920373,0.00851988779403,-0.999926032522,0.0,0.661078316449,0.260087595321,0.303261555907,1.0,-0.00516,-0.00678171428571,0.259
0.464529815086,0.543945096135,-0.124002265392,-1.36184632951,0.079259438705,1.89625208614,0.158453326136,-0.00310324531344,-0.0303201023459,8.24678255868e-05,-0.0479526800067,-0.000542394293419,0.0181724205258,-0.00687669646194,0.5739543958,0.818873101539,0.00198545192201,0.0,0.818829220778,-0.573894486258,-0.0120238406444,0.0,-0.00870672740157,0.0085270464145,-0.999925738431,0.0,0.660984423977,0.259966515921,0.303255138668,1.0,-0.0055,-0.00722857142857,0.276
0.464460613828,0.543461983341,-0.124007703828,-1.36263702814,0.0792155254035,1.89651669609,0.158387797769,-0.00751242866704,-0.032895335051,0.000324999317897,-0.0546855977591,-0.00451230519383,0.0211389871785,-0.00568684041734,0.573993402895,0.818845846512,0.00194935504745,0.0,0.818801440268,-0.573933590733,-0.0120491387415,0.0,-0.00874775529193,0.00851242475919,-0.999925504926,0.0,0.660889569987,0.259840957336,0.303243698744,1.0,-0.00582,-0.00764914285714,0.292
0.464378945267,0.5429114361,-0.124013768348,-1.36350564731,0.0791645499751,1.89683353074,0.158235915809,-0.00194852202824,-0.032761822766,-0.000334218454671,-0.0496274047901,-0.00380410861087,0.0244272208456,-0.00830090934749,0.573974894186,0.818858824197,0.00194776268389,0.0,0.818814396357,-0.57391509045,-0.0120499034605,0.0,-0.00874948783723,0.00851136206007,-0.999925498814,0.0,0.660792628575,0.259700845339,0.303247360272,1.0,-0.00616,-0.008096,0.309
0.46430585202,0.542282498378,-0.124013757486,-1.36449446922,0.0791052712661,1.89718631792,0.15811656645,-0.00535949311688,-0.0365411567325,0.000577494115333,-0.0536303043223,-0.00913474180705,0.0240931082221,-0.00332278014965,0.573976093393,0.818857997604,0.00194187426467,0.0,0.818813460436,-0.573916283486,-0.0120566770164,0.0,-0.00875840176477,0.00851044101189,-0.999925428616,0.0,0.660673916215,0.259557785077,0.303252089071,1.0,-0.00652,-0.00856914285714,0.327
0.464221242875,0.541695079877,-0.12401230828,-1.36538895212,0.0790544591516,1.897512265,0.158002995383,-0.00110729360236,-0.0429905501053,-0.00143197385155,-0.0589744161136,-0.00986965046242,0.026057581442,-0.011172061847,0.573987424933,0.818850010741,0.00196031361896,0.0,0.818805665003,-0.573927485692,-0.0120528430983,0.0,-0.00874456119392,0.00852346037254,-0.999925438857,0.0,0.660572547271,0.259418163694,0.303269906267,1.0,-0.00684,-0.00898971428571,0.343
0.464139343412,0.541049317732,-0.124020428461,-1.36640581137,0.0789996911335,1.89789484227,0.15787402924,-0.000971108842741,-0.043184274622,-0.000388453570058,-0.0546752405793,0.000248131831739,0.0301386979631,-0.00314959220952,0.573996434998,0.818843669459,0.00197091294128,0.0,0.818799441537,-0.573936428751,-0.012049779768,0.0,-0.00873587533917,0.0085304772831,-0.999925454941,0.0,0.660457321746,0.25926423041,0.3032758769,1.0,-0.00718,-0.00943657142857,0.36
0.464032972165,0.540261119435,-0.124023346567,-1.36761474914,0.0789269831186,1.89833175761,0.157706563615,-0.00812132903165,-0.0393546011995,-0.00482606420999,-0.0673306886531,-0.000574788290995,0.0209401449791,-0.00903584034189,0.573995927532,0.81884399202,0.00198464378359,0.0,0.818799930122,-0.573935849226,-0.0120441814348,0.0,-0.00872341534413,0.00853850167798,-0.999925495231,0.0,0.660318271726,0.259077020261,0.303295512729,1.0,-0.00756,-0.009936,0.379
0.463951107266,0.53965196104,-0.124028994287,-1.3685648237,0.0788626876348,1.89869997194,0.157601153918,-0.00587406794164,-0.0397735428576,-0.00132575236044,-0.0686083485272,-0.00311113885242,0.0290922900659,-0.00318254071494,0.574016116843,0.818829798396,0.00200144066632,0.0,0.818786064651,-0.573956070804,-0.0120231452982,0.0,-0.00869633805128,0.0085403953322,-0.999925714917,0.0,0.660214222921,0.258929494292,0.303305849645,1.0,-0.00784,-0.010304,0.393
0.463848106857,0.538886424717,-0.124026905411,-1.36973742123,0.0788022072849,1.89914250946,0.157454963427,-0.0118747828521,-0.0422362049844,-0.000104157387603,-0.0720277175321,-0.00343870588372,0.035747539698,-0.00829978609141,0.57402797655,0.818821395637,0.00203742133259,0.0,0.818778030528,-0.573967676565,-0.0120162341968,0.0,-0.00866990258936,0.00856601535013,-0.999925725327,0.0,0.660080952871,0.258753809481,0.303326871926,1.0,-0.00818,-0.0107508571429,0.41
0.463733407249,0.538047818738,-0.124034693929,-1.37102243892,0.0787311474415,1.89963876372,0.157288801591,-0.00419614589988,-0.0441023205519,0.00102708948154,-0.0745225154537,-0.00496828732137,0.0331670995279,-0.00789226214147,0.574043355358,0.818810505433,0.00208068834436,0.0,0.81876770494,-0.573982871156,-0.0119939929528,0.0,-0.00862669405259,0.00858883774094,-0.999925903263,0.0,0.659939918068,0.258554232101,0.303350831786,1.0,-0.00854,-0.011224,0.428
0.463638338745,0.53729338319,-0.124042764038,-1.37220816231,0.0786608596916,1.90007484988,0.157152128891,-0.0033929313108,-0.0537031203018,0.00116132693031,-0.0713651717137,-0.0109883876149,0.0223603423142,-0.0154926694438,0.574061496051,0.818797781581,0.00208291382951,0.0,0.818755022455,-0.57400101253,-0.0119915687327,0.0,-0.00862324125297,0.00858945941965,-0.999925927705,0.0,0.659802331824,0.258374185724,0.303357254631,1.0,-0.00886,-0.0116445714286,0.444
0.46352054759,0.536454849685,-0.124042970112,-1.37352874167,0.0785817413936,1.90058004108,0.156979736766,-0.00960286031753,-0.0459994140122,-0.000232196526472,-0.078156442273,-0.00535928182663,0.0277034235798,-0.0169590219037,0.574068558012,0.8187927826,0.00210161007942,0.0,0.818750271106,-0.574007999309,-0.0119815355625,0.0,-0.00860421950388,0.00859908222438,-0.999926008858,0.0,0.659653773113,0.258172077535,0.303364460059,1.0,-0.0092,-0.0120914285714,0.461
0.463399038034,0.535577059112,-0.124048854011,-1.37490185685,0.0785080581022,1.90107695255,0.156817612945,-0.00565894381673,-0.0487411489332,0.000120487772186,-0.0888735935845,-0.00403159527675,0.0363530839132,-0.00637549781656,0.574095098618,0.818774161454,0.00210646142113,0.0,0.818731628631,-0.574034431774,-0.0119890916804,0.0,-0.00860734282027,0.00860767108489,-0.999925908079,0.0,0.659494038057,0.257958838457,0.303373681765,1.0,-0.00954,-0.0125382857143,0.478
0.463290720691,0.534725659702,-0.124049028507,-1.37626657984,0.078433967794,1.90155818612,0.156644198989,-0.00958967127927,-0.0507342001893,0.000564469198444,-0.0839101644931,-0.0051120280604,0.0315025573583,-0.018232043469,0.574096830128,0.818773005762,0.00208364420415,0.0,0.818730044948,-0.574036128746,-0.0120159599985,0.0,-0.0086424230259,0.00860443232099,-0.999925633369,0.0,0.659327409697,0.257757154647,0.303366567265,1.0,-0.00986,-0.0129588571429,0.494
0.463154584593,0.533818256311,-0.124052059079,-1.37775350545,0.078349860926,1.90209892449,0.156460534857,-0.00772807100426,-0.0519781816832,-0.00103546378811,-0.0905011406053,-0.00158549222675,0.0388061693275,-0.0115164844015,0.574118963434,0.818757566905,0.0020516730073,0.0,0.818714112204,-0.574058318815,-0.0120414275976,0.0,-0.00868139714836,0.00859311101933,-0.99992539311,0.0,0.659153738217,0.257524132379,0.303345884962,1.0,-0.0102,-0.0134057142857,0.511
0.463022048821,0.532888574022,-0.124055236448,-1.37925039606,0.0782703935042,1.90268119899,0.156278086053,-0.0113772024272,-0.0552831818641,-0.000865449949225,-0.0893549805097,-0.00595187791496,0.0372506578962,-0.0065834362256,0.574141136875,0.818741979143,0.00206722962041,0.0,0.818698663138,-0.574080359345,-0.012041050257,0.0,-0.00867192435647,0.00860586609996,-0.999925365613,0.0,0.658985092645,0.257296084526,0.303339599367,1.0,-0.01054,-0.0138525714286,0.528
0.462894495246,0.531972494012,-0.124052481686,-1.38070594783,0.0781863932507,1.90320531539,0.156093523157,-0.011511302607,-0.0595859413358,-0.000355755676564,-0.0946092903743,-0.00856613086406,0.0321560167093,-0.0119193565407,0.574149347508,0.818736247755,0.00205676211085,0.0,0.818692702057,-0.574088521415,-0.0120572003554,0.0,-0.00869107078833,0.00860665555163,-0.999925192586,0.0,0.65881133781,0.257074863003,0.303337948405,1.0,-0.01086,-0.0142731428571,0.544
0.462753493981,0.530905237984,-0.124052834231,-1.38243600998,0.0780779983569,1.90382006551,0.155874829037,-0.0100532952129,-0.0598325877276,0.000314076015894,-0.0964244202852,-0.000870231619634,0.0293507284609,-0.0134891511572,0.574150987142,0.818735206398,0.00201312415126,0.0,0.818691057012,-0.574090315658,-0.01208344063,0.0,-0.00873759140446,0.00858601141241,-0.999924964637,0.0,0.658600690457,0.256814615994,0.303319931312,1.0,-0.01122,-0.0147462857143,0.562
0.462627332989,0.529875478067,-0.124060957283,-1.38406847557,0.0779797401487,1.90441182181,0.155648701772,-0.00512338154436,-0.0600912940053,-0.00116937411832,-0.0932451289321,-0.00468464224725,0.0301467957572,-0.0137654027168,0.574137147876,0.818744938545,0.00200198331808,0.0,0.818700633698,-0.574076516821,-0.0120901661904,0.0,-0.00874963922228,0.0085806037483,-0.999924905707,0.0,0.658404175797,0.256570818192,0.303319956348,1.0,-0.01156,-0.0151931428571,0.579
0.462493785753,0.528882456337,-0.124061705058,-1.38563168877,0.0778842177032,1.90500016751,0.155430779232,-0.00475199606086,-0.0632989545968,-0.000687823507906,-0.100144121668,-0.0034491439878,0.0361045071212,-0.0236702523271,0.574127797479,0.81875146119,0.00201590237305,0.0,0.818707341059,-0.574067109967,-0.0120826260142,0.0,-0.00873557264172,0.00858757087032,-0.999924968884,0.0,0.65822182699,0.256334410917,0.303326297143,1.0,-0.01188,-0.0156137142857,0.595
0.462382134168,0.527973535708,-0.12406484326,-1.38704479247,0.0777911382066,1.90555529562,0.155243603277,-0.00900629627048,-0.0626002783291,-0.000362538269486,-0.105868289237,-0.01066127931,0.0383537795807,-0.0154401598694,0.574119845866,0.818756945366,0.00205277844256,0.0,0.818713420782,-0.57405911296,-0.0120505751069,0.0,-0.00868824316822,0.00859927714653,-0.99992528064,0.0,0.658060180006,0.25612589805,0.303341842535,1.0,-0.01216,-0.0159817142857,0.609
0.462213826776,0.526611511464,-0.124062399013,-1.38913674304,0.0776628067963,1.9063474136,0.154956788511,-0.00856580938585,-0.0693349826251,0.000793213721731,-0.113620033542,-0.0085863237465,0.0338708420369,-0.0104216548782,0.574099655792,0.818770970038,0.00210493305401,0.0,0.818728130231,-0.574038707901,-0.0120232067519,0.0,-0.00863610587648,0.0086260528396,-0.999925501669,0.0,0.657813385486,0.255819131579,0.303373295633,1.0,-0.01256,-0.0165074285714,0.629
0.462062872161,0.525500590717,-0.124063151939,-1.39085358008,0.077557257648,1.90697216327,0.154718412463,-0.0110166110852,-0.0733932899031,-0.00205796038808,-0.112072361268,-0.00855713167826,0.0407699903898,-0.0149727312789,0.574092624242,0.818775860125,0.00212051140792,0.0,0.818733202318,-0.574031590361,-0.012017636631,0.0,-0.00862267624656,0.00863553590704,-0.999925535715,0.0,0.65760895217,0.2555555354,0.303391853856,1.0,-0.01288,-0.016928,0.645
0.461900003107,0.524324766829,-0.124071156817,-1.39271641695,0.0774402215711,1.90763316434,0.154466201229,-0.0120174527882,-0.0748043267495,-0.000425968691757,-0.103585684358,-0.00249526180719,0.0355584061695,-0.0186969246044,0.57409360445,0.818775239393,0.00209465706461,0.0,0.818732245882,-0.574032681187,-0.0120306850689,0.0,-0.0086481919409,0.00862186863577,-0.999925433299,0.0,0.657383929215,0.255264060363,0.303389670644,1.0,-0.01322,-0.0173748571429,0.662
0.461748359436,0.523125555905,-0.124072319473,-1.39464193737,0.0773224547026,1.90836003679,0.15421010772,-0.00908549455996,-0.0706099704493,0.00126243196696,-0.111549477212,-0.00811846990115,0.0497170372117,-0.0117165139159,0.574080627556,0.818784343891,0.00209240662809,0.0,0.818741319843,-0.574019714304,-0.0120318607377,0.0,-0.0086505830956,0.00862056389988,-0.999925423864,0.0,0.657152934988,0.254981170682,0.303379297526,1.0,-0.01356,-0.0178217142857,0.679
0.461600649377,0.521952123577,-0.124078864378,-1.3964786439,0.0772094374469,1.90908419418,0.153957818882,-0.0179261591922,-0.0763187744538,-0.000697126069554,-0.121257740983,-0.00457030550563,0.0449361152885,-0.0124389092915,0.574067774374,0.818793233777,0.00213954393328,0.0,0.818750908645,-0.574006748616,-0.0119978763724,0.0,-0.00859583283315,0.00863951406318,-0.999925732469,0.0,0.65694099731,0.254708530792,0.303392675946,1.0,-0.01388,-0.0182422857143,0.695
0.461427384013,0.520707551211,-0.124084100991,-1.39849742181,0.0770858278528,1.90983928474,0.153689490387,-0.0113239081278,-0.0754304549781,0.000143008140924,-0.122533385269,-0.00201081558233,0.0448492208894,-0.0216618583944,0.574061813986,0.8187974714,0.00211694432482,0.0,0.818754893999,-0.574000926091,-0.0120044700398,0.0,-0.00861426756252,0.0086247324261,-0.999925701432,0.0,0.656684385475,0.254385386056,0.303373540882,1.0,-0.01424,-0.0187154285714,0.713
0.461250480598,0.519308250052,-0.124087256991,-1.400674091,0.0769489005899,1.91061251631,0.153394382358,-0.0144407923691,-0.0760860704818,-0.00544090893295,-0.12337179526,-0.00409898201594,0.0447704014628,-0.0147370639941,0.574052360329,0.818804107344,0.0021138352395,0.0,0.818761425386,-0.573991422625,-0.0120134072239,0.0,-0.00862346991029,0.00862721762685,-0.999925600674,0.0,0.656430457307,0.254072043394,0.303385336684,1.0,-0.01458,-0.0191622857143,0.73
0.461079020991,0.518042194264,-0.124093625889,-1.40264556115,0.0768210834415,1.91132790031,0.153118108163,-0.0150251108037,-0.0723475388771,0.000287835024234,-0.125522910972,-0.00213863275727,0.0556903394628,-0.0225865944116,0.574041072819,0.818812012632,0.00211697606877,0.0,0.818769420358,-0.573980172109,-0.0120060490314,0.0,-0.00861576076298,0.00862544660165,-0.999925682407,0.0,0.65619216365,0.253766341098,0.303397761342,1.0,-0.0149,-0.0195828571429,0.746
0.460901797671,0.516685461583,-0.124094252069,-1.40479125033,0.0766852089731,1.91211074113,0.152828469804,-0.00781623463568,-0.073516496513,-0.00119268567138,-0.123002209497,-0.00396743737091,0.0495976797494,-0.0171117454621,0.574026310999,0.818822383584,0.0021083938856,0.0,0.818779673193,-0.573965442013,-0.0120110383277,0.0,-0.00862492786092,0.00862112806257,-0.999925640621,0.0,0.655928339558,0.253444041225,0.303396195746,1.0,-0.01524,-0.0200297142857,0.763
0.460708183812,0.515311343086,-0.124105579537,-1.40697375807,0.0765504897773,1.91292857195,0.152530607759,-0.0164066400242,-0.0779194931394,0.000366427978828,-0.128461720182,-0.00168991277873,0.0437858920912,-0.0199799012625,0.574027960914,0.818821219243,0.00211137574471,0.0,0.818778592399,-0.573967123847,-0.01200434396,0.0,-0.00861771721173,0.00861974430252,-0.99992571472,0.0,0.655668941479,0.253103197894,0.303392272577,1.0,-0.01558,-0.0204765714286,0.78
0.460533296023,0.514000546252,-0.124108513046,-1.40909902281,0.0764186544264,1.91367315662,0.152231670825,-0.0149469724302,-0.0860121455065,-0.00614059313617,-0.136949232004,-0.0025901513765,0.0391500328918,-0.0243351764627,0.574004530652,0.818837799582,0.00205028486352,0.0,0.818794296444,-0.573943876427,-0.0120446554006,0.0,-0.00868603791574,0.00859261375686,-0.999925357081,0.0,0.655399209989,0.252781109066,0.303364202752,1.0,-0.0159,-0.0208971428571,0.796
0.460329888301,0.512517898484,-0.124112090666,-1.41151694985,0.0762772590751,1.91451394104,0.151898887038,-0.0114307000451,-0.0806418159585,-0.00238434197491,-0.135095661789,-0.0115258195188,0.050202865778,-0.0264575811597,0.573989650318,0.818848420869,0.00197278203922,0.0,0.818803724336,-0.573929155641,-0.0121050493299,0.0,-0.0087801324431,0.00856365918997,-0.999924783679,0.0,0.65509059689,0.252412529508,0.3033252262,1.0,-0.01626,-0.0213702857143,0.814
0.460126750093,0.511064120567,-0.124115286482,-1.41381120603,0.0761340553863,1.91538510125,0.151575437653,-0.0097142607707,-0.0853278800402,-0.000715245102474,-0.135796582917,-0.00725705799979,0.0488458206158,-0.0225667769809,0.573974899776,0.81885870697,0.00199483053802,0.0,0.818814331791,-0.573914343074,-0.0120898208532,0.0,-0.0087551617776,0.00857281459981,-0.999924924178,0.0,0.654815760418,0.252060419411,0.303326949774,1.0,-0.0166,-0.0218171428571,0.831
0.459948160637,0.509758245407,-0.124117681236,-1.41588430559,0.0760094713448,1.91617798162,0.151288616255,-0.0122140616147,-0.0878089382642,-0.00121464803586,-0.143130475354,-0.00628930400725,0.0521618520831,-0.0206103058797,0.573962694716,0.818867211816,0.00201528877794,0.0,0.818823093593,-0.573902040538,-0.0120804042129,0.0,-0.00873583676541,0.00858403161612,-0.999924996966,0.0,0.654565941693,0.251746898054,0.303323161656,1.0,-0.0169,-0.0222114285714,0.846
0.459741236904,0.508260709914,-0.124116274391,-1.4182618747,0.0758545237429,1.91701121542,0.150959167901,-0.00967251031375,-0.0939390693379,0.00156465509961,-0.139635831545,-0.00779020151976,0.0517440819805,-0.0174946005765,0.573942442751,0.818881507644,0.00197376539945,0.0,0.818836814653,-0.573881940658,-0.0121052078151,0.0,-0.00878019155403,0.00856404920046,-0.99992477982,0.0,0.654246922541,0.251359152564,0.303312341071,1.0,-0.01726,-0.0226845714286,0.864
0.45952593417,0.506733656238,-0.124119233166,-1.42066926643,0.0757027573834,1.91789346791,0.150622100374,-0.0172614414653,-0.0775427897683,-8.85233101619e-05,-0.143172747423,-0.0101328689817,0.0563239324954,-0.0190040459709,0.573932510542,0.81888847236,0.00197232871394,0.0,0.818843716122,-0.573871972649,-0.0121109238718,0.0,-0.00878580093239,0.00856604683923,-0.999924713438,0.0,0.653948629581,0.250986219637,0.303309293559,1.0,-0.0176,-0.0231314285714,0.881
0.459315160632,0.505208804057,-0.124124819375,-1.42298271811,0.0755556239854,1.91877949983,0.150309828822,-0.0126169695608,-0.0913395008949,0.000607788492975,-0.141757920231,-0.0144153385031,0.0542870725903,-0.0139894669538,0.5739259664,0.818892839335,0.00206147479905,0.0,0.818849351644,-0.573865144945,-0.0120532830002,0.0,-0.00868750586636,0.00860589508694,-0.999925230111,0.0,0.653674472932,0.250632759882,0.303355765539,1.0,-0.01792,-0.023552,0.897
0.459082497877,0.503449430665,-0.124131833269,-1.42560349908,0.0753947442961,1.91977634884,0.149949569272,-0.0130423372748,-0.092827559371,0.00013106918547,-0.14318864531,-0.00902448406972,0.0530933933943,-0.0152681127481,0.573921408901,0.818895773859,0.00216214285244,0.0,0.818853663307,-0.573860226884,-0.0119943732754,0.0,-0.00858153901866,0.00865447282983,-0.999925725886,0.0,0.65337538977,0.250247257928,0.303419932621,1.0,-0.01826,-0.0239988571429,0.914
0.458850357364,0.501756416528,-0.124137387157,-1.42810834519,0.0752369844937,1.92069940966,0.1495951582,-0.00851224990146,-0.088022997784,-0.00040240577354,-0.14914458422,-0.00611603838493,0.0534886130617,-0.0127763263649,0.573910814808,0.818902946549,0.00225558902801,0.0,0.818862087478,-0.573849284699,-0.0119426564101,0.0,-0.00848567174903,0.00870120353639,-0.999926138488,0.0,0.653069459991,0.249854683703,0.303489791477,1.0,-0.0186,-0.0244457142857,0.931
0.458611335706,0.500026422886,-0.124138243066,-1.43071975177,0.0750621704971,1.92161769888,0.149228554076,-0.00887129745691,-0.0947587436105,0.00234612292285,-0.152134763355,-0.0112132819487,0.0564852131066,-0.0196203183403,0.573892453622,0.818915740323,0.00228228577187,0.0,0.818875252173,-0.573830842001,-0.0119261497622,0.0,-0.00845702861954,0.00871340244625,-0.999926274925,0.0,0.652738289522,0.249445352078,0.303533531782,1.0,-0.01894,-0.0248925714286,0.948
0.458362146577,0.498358998322,-0.124134018822,-1.43333444021,0.0749085133468,1.92259857731,0.148849133795,-0.0122773992124,-0.0927312738861,0.00118173635371,-0.155762132121,-0.0164403254278,0.0604232046198,-0.0225600313221,0.573874541044,0.818928201619,0.00231487276917,0.0,0.818888025889,-0.573812685459,-0.0119226659771,0.0,-0.00843566645965,0.00873790428947,-0.99992624156,0.0,0.652416280144,0.24903877027,0.303536838143,1.0,-0.01928,-0.0253394285714,0.965
0.45810328366,0.496675054474,-0.124138492943,-1.43600513771,0.074742985431,1.92355387953,0.14845379645,-0.0192643777389,-0.0970555400442,0.00038843221176,-0.152977814458,-0.0135806070238,0.0580109606234,-0.0191182350725,0.573856483101,0.818940933208,0.00228727357212,0.0,0.818900317524,-0.573794657611,-0.0119460352293,0.0,-0.0084708349725,0.00872852686937,-0.999926026151,0.0,0.652079812168,0.248610946844,0.303522431144,1.0,-0.01962,-0.0257862857143,0.982
0.457854051365,0.495099289861,-0.124136133831,-1.43857045869,0.0745848062159,1.92443774541,0.148087295372,-0.017985814851,-0.102402830978,0.000208524638848,-0.15870223361,-0.00385114414669,0.0568807313777,-0.0286831896347,0.573845259556,0.818949039626,0.00219897274657,0.0,0.818907089274,-0.573783610213,-0.0120122724325,0.0,-0.00857586956314,0.0086941073517,-0.999925430699,0.0,0.651746181553,0.248201016785,0.303475868608,1.0,-0.01994,-0.0262068571429,0.998
0.457562349658,0.493193643249,-0.124177676611,-1.44156264767,0.0744028778714,1.92550672269,0.147674200719,-0.0105476171355,-0.130679609958,-0.000835697204968,-0.199253499008,-0.0123319902058,0.0751357815315,-0.0321166462908,0.573876954556,0.81892688798,0.00217717092641,0.0,0.818884699646,-0.573815439163,-0.0120182097372,0.0,-0.00859290624796,0.0086799926801,-0.999925407063,0.0,0.651375035826,0.247700220303,0.303472490469,1.0,-0.028172,-0.0370260571429,1.015
0.457229815439,0.490502479167,-0.124246014832,-1.44573865024,0.0741776197042,1.92711277888,0.147042880096,-0.0245578241907,-0.169478544151,-0.00138855199,-0.273268675023,-0.0094726385009,0.100406321202,-0.0419296948544,0.573830776681,0.818958964534,0.00228057965637,0.0,0.818918160577,-0.573768877551,-0.0119611175606,0.0,-0.00848730222934,0.00873143358415,-0.999925861136,0.0,0.650860500408,0.247056458185,0.303498548286,1.0,-0.0381194285714,-0.0500998204082,1.032
0.45674332332,0.48723562451,-0.124260552621,-1.45094368169,0.0738863395789,1.9290499081,0.146277582382,-0.035572992116,-0.221559009955,0.000317838656915,-0.351343609328,-0.0209711933928,0.129166707401,-0.045182059459,0.573793959762,0.818984730673,0.00229119332503,0.0,0.818943748549,-0.573731696286,-0.0119926765465,0.0,-0.0085074525334,0.0087578524298,-0.999925458858,0.0,0.650202208666,0.246241947713,0.303460326308,1.0,-0.0474817142857,-0.0624045387755,1.048
0.456052745793,0.482626031172,-0.124394542056,-1.45816741576,0.0734465205111,1.93167562914,0.145161522731,-0.0474194836212,-0.26997226241,-0.00723863442172,-0.437391450414,-0.0295395581664,0.147163342837,-0.0708720234378,0.573779671099,0.818994778047,0.002278040014,0.0,0.818953910266,-0.57371775722,-0.0119655677498,0.0,-0.00849294901134,0.00873137741127,-0.999925813681,0.0,0.649301288597,0.24502679921,0.303453526696,1.0,-0.0580142857143,-0.0762473469388,1.066
0.455233363476,0.477380702178,-0.124537245453,-1.46643108003,0.0729544706252,1.93455269142,0.143943444101,-0.0550057947635,-0.325957751246,-0.00866854395819,-0.512707340833,-0.0253645481689,0.184002248982,-0.0734145347705,0.573826094838,0.818962607852,0.00214632798249,0.0,0.818919964846,-0.57376466299,-0.0120395008932,0.0,-0.00862858002406,0.00866641747269,-0.999925217611,0.0,0.648237463079,0.243618208869,0.303409166272,1.0,-0.0679617142857,-0.0893211102041,1.083
0.454376679706,0.472088707829,-0.1246355915,-1.47468116554,0.0724700195072,1.93751832421,0.142740121278,-0.0571089688918,-0.369219522999,-0.00428686898997,-0.572443727599,-0.0253338073975,0.212805088114,-0.0774828312328,0.57388005955,0.818924762515,0.00215812219867,0.0,0.818882094627,-0.573818391146,-0.0120547079337,0.0,-0.00863369484923,0.00868537135367,-0.999925009007,0.0,0.647110511871,0.242128122473,0.303401979097,1.0,-0.077324,-0.101625828571,1.099
0.453185537302,0.464853865334,-0.124702000298,-1.48560681621,0.0718106212538,1.9415943131,0.140985460632,-0.0673961390196,-0.416498978571,0.000837265799282,-0.634258138503,-0.0381322594807,0.227897768181,-0.0968014764711,0.573808601316,0.81897390262,0.00248652069877,0.0,0.818935457975,-0.573745548199,-0.0118957342644,0.0,-0.00831582583907,0.00886234523473,-0.999926150212,0.0,0.645803675461,0.240386600802,0.303551807029,1.0,-0.0872714285714,-0.114699591837,1.116
0.451878326411,0.457304983719,-0.124774586937,-1.49744445105,0.0710523960571,1.9456290909,0.139201856537,-0.0832612068433,-0.456033745525,-0.00391692987287,-0.737539975215,-0.0423376388307,0.236862686435,-0.111804443224,0.573816175949,0.81896923535,0.00226598121533,0.0,0.818927433025,-0.573753510127,-0.0120629994875,0.0,-0.00857927596776,0.00877778741594,-0.999924670399,0.0,0.644207656394,0.238355194736,0.303467328295,1.0,-0.0972188571428,-0.127773355102,1.133
0.450497459619,0.449326571174,-0.124914720941,-1.50944910501,0.0702133163069,1.94994416436,0.13730050116,-0.0909282184854,-0.518349158897,-0.00850556847643,-0.769377533673,-0.0582247385943,0.293562735632,-0.122050911165,0.573811122013,0.81897223623,0.00245345474574,0.0,0.818933724468,-0.573748582989,-0.0118686708327,0.0,-0.00831260575252,0.00881976196778,-0.999926553495,0.0,0.642648235405,0.236232153143,0.303609325359,1.0,-0.106581142857,-0.140078073469,1.149
0.448891479505,0.440257953132,-0.124986860627,-1.52326551471,0.0693191856876,1.95481132921,0.135164938005,-0.0972998939261,-0.551355480503,-0.00196957902771,-0.821280541853,-0.0595994302836,0.291037516209,-0.130061973088,0.573804954928,0.818976256582,0.00255181448125,0.0,0.818938739223,-0.573741734384,-0.0118537136015,0.0,-0.00824398624796,0.00889167052508,-0.999926484741,0.0,0.640779497197,0.233839553015,0.303665421363,1.0,-0.116528571429,-0.153151836735,1.166
0.447079504073,0.430393344498,-0.125070265143,-1.53804564393,0.0683257135495,1.96003671448,0.132712728764,-0.11171440053,-0.598726556862,-0.00607881958975,-0.879682045617,-0.0631225533512,0.318403400468,-0.138600637368,0.573715087039,0.819038409901,0.00279801918366,0.0,0.819004150479,-0.573651040269,-0.0117231564929,0.0,-0.00799678280042,0.00901751468733,-0.999927365309,0.0,0.6387758608,0.23122101076,0.303815801754,1.0,-0.126476,-0.1662256,1.183
0.445187532564,0.420580120073,-0.125154978958,-1.55297888717,0.0672576723468,1.96515061807,0.130233810484,-0.127387069568,-0.629350806275,-0.00261850862582,-0.960473046556,-0.0661842472083,0.308788335667,-0.151177788057,0.573635813976,0.819094097884,0.00274929757315,0.0,0.819059360742,-0.573572123763,-0.0117272896687,0.0,-0.00802898788682,0.00897920414511,-0.999927451992,0.0,0.636691555154,0.228522209824,0.303825863633,1.0,-0.135838285714,-0.178530318367,1.199
0.442831414099,0.408793156991,-0.125269448497,-1.57064719596,0.0659959992584,1.97137669103,0.127324663332,-0.142327528755,-0.657850713517,-0.00704702740684,-0.998324449295,-0.0733447027422,0.343848712902,-0.167036407801,0.573647503317,0.819085077396,0.00298744478071,0.0,0.819053927828,-0.573583579583,-0.0115450181129,0.0,-0.00774295185926,0.00906982382025,-0.999928889968,0.0,0.634243191762,0.225271261212,0.303941357596,1.0,-0.146370857143,-0.192373126531,1.217
0.440350411227,0.396962147451,-0.125396485983,-1.58840914966,0.064817481791,1.9773843703,0.124305250127,-0.155510116427,-0.727666492574,-0.0105765553825,-1.05133318345,-0.06763714822,0.366337430681,-0.192452729343,0.573686296021,0.819057614476,0.00306672911211,0.0,0.819026791542,-0.573621286789,-0.0115965934775,0.0,-0.00773928609545,0.00916471651297,-0.999928053123,0.0,0.631697026295,0.221936884841,0.303989348699,1.0,-0.156318285714,-0.205446889796,1.234
0.437985062835,0.38610786437,-0.125516995626,-1.60488627181,0.063564789766,1.98290430267,0.121478002602,-0.164424093302,-0.729637321139,-0.0106879180386,-1.12244038496,-0.0825866612362,0.363402914653,-0.19988948716,0.573681000679,0.819061895304,0.00290998670518,0.0,0.819029373604,-0.573616898213,-0.0116312578252,0.0,-0.00785765381559,0.009056170576,-0.999928118942,0.0,0.629291699295,0.218786922522,0.303917933599,1.0,-0.165095428571,-0.216982563265,1.249
0.434890824437,0.37232161286,-0.125664879897,-1.62533239295,0.0620448430456,1.98971593806,0.117782491187,-0.180819773088,-0.792385606471,-0.0136730882088,-1.15250309229,-0.0836786812555,0.381583956785,-0.205196016861,0.573630602681,0.81909690191,0.00299062700328,0.0,0.819065514591,-0.573566344268,-0.0115792241263,0.0,-0.0077693331948,0.00909189180666,-0.999928484925,0.0,0.626271049678,0.214806311204,0.303994469615,1.0,-0.175628,-0.230825371429,1.267
0.431643495293,0.358736355423,-0.125849867325,-1.64543040226,0.0604789563449,1.99638854154,0.1142060284,-0.197067162168,-0.791893038515,-0.00850198356109,-1.20271136077,-0.0941374332054,0.381860433944,-0.217518420264,0.573768847669,0.818999881157,0.00304154719153,0.0,0.818969753012,-0.573705116932,-0.0114773410929,0.0,-0.00765513718899,0.00907645067519,-0.999929505974,0.0,0.62327776037,0.210753528792,0.304043931388,1.0,-0.185575428571,-0.243899134694,1.284
0.428297824792,0.345437065753,-0.126040755466,-1.66510285103,0.0590145709807,2.00269099139,0.110459545029,-0.211285362033,-0.854591912025,-0.0164494563562,-1.2257891998,-0.0892499868868,0.406282176767,-0.23636870065,0.57383820309,0.818951578122,0.00296247662789,0.0,0.818919942657,-0.573774145391,-0.0115803497702,0.0,-0.00778410309219,0.00907145294708,-0.999928555688,0.0,0.620262028533,0.206698775806,0.304028430524,1.0,-0.194937714286,-0.256203853061,1.3
0.424558808999,0.330843245996,-0.126162716252,-1.68659213839,0.0573656248187,2.0096062617,0.106373647233,-0.221856165694,-0.860026782603,-0.00168868811602,-1.27104780847,-0.0918740664699,0.400969788767,-0.243300660764,0.573869201264,0.818929883567,0.0029550875785,0.0,0.818897656827,-0.573804587662,-0.0116477346043,0.0,-0.00784318613948,0.00910436573492,-0.999927794871,0.0,0.6168947795,0.202294828766,0.304003149019,1.0,-0.204885142857,-0.269277616327,1.317
0.420614098653,0.315586162935,-0.126291470809,-1.70871294318,0.0554694173631,2.01667792192,0.102021420422,-0.237798740454,-0.893327485628,-0.011325294957,-1.32393894154,-0.113628459932,0.413468071922,-0.260819407579,0.573750893581,0.819012566171,0.00301255213745,0.0,0.818981974702,-0.573687150923,-0.011503255192,0.0,-0.00769319621924,0.00906740341954,-0.999929295964,0.0,0.613363098859,0.197707309288,0.304065642925,1.0,-0.214832571429,-0.282351379592,1.334
0.416605534084,0.300762013832,-0.126380565527,-1.73002849186,0.0536971817666,2.02336299507,0.0975920626772,-0.259969629054,-0.937312947294,-0.00947943432507,-1.34367113885,-0.117446715589,0.417731548999,-0.274194965836,0.573565466962,0.819142023147,0.00312216654377,0.0,0.819112849743,-0.573501412217,-0.0114462427318,0.0,-0.00758567755456,0.00912275193374,-0.99992961397,0.0,0.609881816171,0.193219498696,0.304134346712,1.0,-0.224194857143,-0.294656097959,1.35
0.411681267052,0.28359314688,-0.12656270697,-1.75466164079,0.0516887512923,2.03086357338,0.0924793768953,-0.28405220645,-0.959426034149,-0.0146674076932,-1.37867386749,-0.119069917119,0.411518539328,-0.291980082165,0.573622093688,0.819102336235,0.0031310234513,0.0,0.819072597114,-0.57355718713,-0.0115317235954,0.0,-0.00764998802023,0.00917956367756,-0.999928604098,0.0,0.6057756516,0.187851645129,0.304147223399,1.0,-0.234727428571,-0.308498906122,1.368
0.406660922298,0.266813910954,-0.126739359089,-1.77848570666,0.0496445715487,2.03799555296,0.0872883303582,-0.302456752366,-0.995754032687,-0.00520342411252,-1.41530217882,-0.124237367062,0.40268884983,-0.313503028075,0.573598966007,0.819118441586,0.00315463960448,0.0,0.819088758346,-0.573533687983,-0.0115525582279,0.0,-0.00765376876409,0.00921064262431,-0.999928289372,0.0,0.601725025934,0.182539238689,0.304183096862,1.0,-0.244674857143,-0.321572669388,1.385
0.401513739494,0.250595397534,-0.126973153043,-1.8013512317,0.0475644916875,2.04475543997,0.0822358352213,-0.328860301496,-1.02548273211,-0.0128972556417,-1.44851769472,-0.131172192366,0.422956671031,-0.323838264317,0.573747922573,0.819014135322,0.00314871203332,0.0,0.818984863166,-0.573683231033,-0.0114930952629,0.0,-0.00760679064034,0.00917306363468,-0.999928993299,0.0,0.597794068735,0.177240244634,0.304210560181,1.0,-0.254037142857,-0.333877387755,1.401
0.395776056094,0.232910453805,-0.127156080295,-1.82603572176,0.0453397801605,2.05190561682,0.0764744023341,-0.341776521785,-1.07526322015,-0.0171211386655,-1.46011318269,-0.140647446569,0.447291170714,-0.354051982324,0.573705229408,0.819043764152,0.00322010177662,0.0,0.819015229949,-0.573640100752,-0.0114819345767,0.0,-0.00755717290689,0.00922473591217,-0.999928894164,0.0,0.593427543872,0.17151507708,0.304253933005,1.0,-0.263984571429,-0.34695115102,1.418
0.38973162411,0.214803130446,-0.127324430226,-1.85114570098,0.0429858530344,2.05901267591,0.0704387738376,-0.369286860367,-1.10676201633,-0.0175921220502,-1.48988168431,-0.149352726632,0.441048377372,-0.360017241635,0.573582574477,0.819129605476,0.00323521107537,0.0,0.81910121017,-0.573517347198,-0.0114807169724,0.0,-0.00754889083017,0.00923528231266,-0.999928859373,0.0,0.588866932532,0.165632421334,0.304266315165,1.0,-0.273932,-0.360024914286,1.435
0.383597637486,0.19741777299,-0.127488971358,-1.87504687735,0.0407325822524,2.06548010888,0.0644591284467,-0.38923817965,-1.10339512798,-0.00953666006336,-1.49248469569,-0.148005087519,0.417323254483,-0.392289951758,0.573528649563,0.819167644609,0.00316307713645,0.0,0.81913762578,-0.573462818849,-0.011605702515,0.0,-0.00769325698134,0.00924737642699,-0.999927647296,0.0,0.584415970877,0.159866239611,0.304257854739,1.0,-0.283294285714,-0.372329632653,1.451
0.37653811236,0.178436119007,-0.127819580275,-1.90079657605,0.0382602263564,2.07239150569,0.0577526319311,-0.429205233817,-1.1220342485,-0.0215324146322,-1.50245528162,-0.147534017326,0.405899088502,-0.399520606773,0.573687384188,0.819056013735,0.00328306097414,0.0,0.819027405132,-0.573620974813,-0.0115686558489,0.0,-0.00759229068261,0.00932588837529,-0.99992768985,0.0,0.579301507039,0.152987153901,0.304325184796,1.0,-0.293826857143,-0.386172440816,1.469
0.368620255532,0.157818027205,-0.128097371154,-1.92844327284,0.035436668257,2.07955931557,0.0502652524003,-0.446363858535,-1.16002776542,-0.015104909014,-1.5134842119,-0.157340885041,0.416122501996,-0.420502977876,0.573664205708,0.819072337549,0.00326065210435,0.0,0.819043424905,-0.57359785318,-0.0115809260851,0.0,-0.00761545977368,0.00931435776118,-0.999927621137,0.0,0.574238502647,0.14635307546,0.304349570288,1.0,-0.303774285714,-0.399246204082,1.486
0.361663438947,0.140408375382,-0.128311262134,-1.95167982769,0.0329893184157,2.08537313174,0.0437446994001,-0.46867136919,-1.16579961566,-0.0127082591566,-1.54183245329,-0.152050039776,0.390595053035,-0.438307710023,0.573631554413,0.819095411825,0.00320827212536,0.0,0.819065707472,-0.573565236505,-0.0116203793642,0.0,-0.00767819388958,0.00929378088976,-0.999927332847,0.0,0.569319257703,0.139948002665,0.30433427245,1.0,-0.313136571429,-0.411550922449,1.502
0.353235790451,0.120203500412,-0.128647727717,-1.97818065307,0.0302188663077,2.09183369616,0.0358890113581,-0.509116211558,-1.21300513266,-0.0248739214065,-1.55519091386,-0.159999893085,0.386385438916,-0.45917684342,0.573671047573,0.819067247881,0.00333459523701,0.0,0.819039084256,-0.573604204421,-0.0115733328303,0.0,-0.00756674570546,0.00937063021164,-0.999927465194,0.0,0.563969423708,0.13286369008,0.304412315315,1.0,-0.323084,-0.424624685714,1.519
0.343640253245,0.098345063096,-0.129080086537,-2.00644242275,0.0270324190191,2.09851211278,0.027096319237,-0.535691660055,-1.22355959525,-0.0202951765324,-1.56228939589,-0.177743139893,0.377044845292,-0.504999678877,0.573716666241,0.819035181238,0.00336239092093,0.0,0.819008040468,-0.573650557197,-0.0114723483757,0.0,-0.00746756327951,0.00933588240813,-0.999928535846,0.0,0.558469561236,0.12549373773,0.304457441436,1.0,-0.333031428571,-0.43769844898,1.536
0.334688679926,0.0786100497453,-0.129391091396,-2.03177257816,0.0242921603016,2.10407035359,0.0188474768512,-0.569894275451,-1.24424858968,-0.0132159532383,-1.57668498159,-0.164878490863,0.34402646135,-0.519945929814,0.573685540398,0.819057011404,0.00335554904159,0.0,0.819028496885,-0.573617857731,-0.0116456637531,0.0,-0.00761380628602,0.00942942073679,-0.999926555292,0.0,0.553057900474,0.118482390891,0.304453333439,1.0,-0.33998,-0.446830857143,1.552
0.324591352116,0.0576876157542,-0.129805452615,-2.05841507625,0.021114410384,2.10980324015,0.00978849574983,-0.609531584443,-1.23185403903,-0.0284368869371,-1.52334619228,-0.17003134537,0.331637360761,-0.530707505168,0.573775068893,0.818994707884,0.00325356356948,0.0,0.818965230027,-0.573708146383,-0.0116473894856,0.0,-0.00767270214808,0.00934771711414,-0.999926872239,0.0,0.547288154092,0.110790901519,0.304405001913,1.0,-0.33998,-0.446830857143,1.569
0.313461380649,0.0356498312456,-0.130124103314,-2.0859843407,0.0178908231933,2.11529858539,-2.56484623172e-05,-0.620361643296,-1.22717358543,-0.017317633262,-1.51184232057,-0.176814576751,0.318682738593,-0.554641816346,0.573923980942,0.818890476111,0.00322476921259,0.0,0.818859578594,-0.573855868163,-0.0117974582192,0.0,-0.00781042381678,0.00941165854825,-0.999925206185,0.0,0.541124205149,0.102691376253,0.304389805345,1.0,-0.33998,-0.446830857143,1.587
0.30392466867,0.0175190967357,-0.130378213069,-2.10826976005,0.0151043858398,2.11953825488,-0.00845172927868,-0.637683786249,-1.19334380893,-0.00937676074907,-1.44909647997,-0.174246153628,0.275538957205,-0.559783914759,0.573943814955,0.818876556735,0.00322939723221,0.0,0.818845853859,-0.573875845563,-0.0117783020041,0.0,-0.0077918523393,0.0094046431885,-0.999925417081,0.0,0.536035018958,0.0959659273212,0.304423022706,1.0,-0.33998,-0.446830857143,1.602
0.292082409346,-0.0041052748635,-0.130721085088,-2.13438004187,0.0118568000944,2.12421629762,-0.0188806315428,-0.653835289954,-1.18386792432,-0.00643404931415,-1.41580312828,-0.169705553585,0.251488289744,-0.59015361947,0.574035124904,0.8188119716,0.00337304635011,0.0,0.818782813063,-0.573966257871,-0.0117552864438,0.0,-0.00768950252529,0.00950992279664,-0.999925213663,0.0,0.529934893202,0.0878715729461,0.304512289539,1.0,-0.33998,-0.446830857143,1.62
0.280679292664,-0.0242771602429,-0.130932366931,-2.15848008487,0.00871572556863,2.12827233803,-0.0290377803256,-0.672448945487,-1.1603296502,-0.0150711637351,-1.37385278237,-0.174160946809,0.211372811687,-0.591206516253,0.573857655038,0.818936125286,0.00342948343649,0.0,0.818907770564,-0.573788711739,-0.0117185533427,0.0,-0.00762909466922,0.00953339572428,-0.999925452862,0.0,0.524139870519,0.0803553283849,0.304555462509,1.0,-0.33998,-0.446830857143,1.637
0.26944854561,-0.0430819010679,-0.131272084029,-2.18068619913,0.0057607901551,2.13178506838,-0.0388098455974,-0.710636821639,-1.15261090529,-0.0215888313422,-1.38912077872,-0.179453584743,0.210131906213,-0.627418059243,0.573984401372,0.818847064926,0.00348398394801,0.0,0.818819463468,-0.573915318619,-0.011689320004,0.0,-0.00757239941081,0.0095624253183,-0.999925606627,0.0,0.518698328681,0.0731208838751,0.304576927627,1.0,-0.33998,-0.446830857143,1.653
0.257339732676,-0.0628800430617,-0.131471431881,-2.2035495674,0.00273018651079,2.13509750437,-0.049493427813,-0.723094892505,-1.14751169042,-0.0173291530304,-1.34708181615,-0.1918342822,0.188824373074,-0.631496628885,0.573876476717,0.818921774029,0.00369653790348,0.0,0.818896779073,-0.573806539986,-0.0116132163339,0.0,-0.0073893603661,0.00969182125353,-0.999925730219,0.0,0.51293650075,0.065634333156,0.304681792945,1.0,-0.33998,-0.446830857143,1.67
0.244741628582,-0.0823459614512,-0.131823870266,-2.22582521671,-0.000372528797752,2.13800814887,-0.0605316360687,-0.752325805089,-1.13201233038,-0.0255915403358,-1.28506729616,-0.180823158396,0.157296798503,-0.664795208412,0.573918397331,0.818892099266,0.00376163071015,0.0,0.818867933127,-0.573848235053,-0.011586980834,0.0,-0.00733002304106,0.00973044757625,-0.999925791823,0.0,0.507189205705,0.0580010302097,0.304726636276,1.0,-0.33998,-0.446830857143,1.687
0.232643773815,-0.100494703274,-0.132029244101,-2.24637171616,-0.00328178342839,2.14046399984,-0.0712039560567,-0.762409868347,-1.12928163138,-0.0152888771603,-1.26947492624,-0.190672779511,0.144917468728,-0.677022564481,0.573777908269,0.818990367197,0.00379964761612,0.0,0.818966620607,-0.573707553434,-0.0115786167568,0.0,-0.0073030296575,0.00975552689516,-0.99992574497,0.0,0.50174293959,0.0509347384383,0.304739711543,1.0,-0.33998,-0.446830857143,1.703
0.218556822035,-0.120595571723,-0.132405317567,-2.26890426509,-0.00656260134927,2.14278378468,-0.0835057272863,-0.796685715614,-1.13253341735,-0.028285176653,-1.24185896014,-0.180573615772,0.134531205599,-0.699870835481,0.57383254467,0.818952447698,0.00372101965553,0.0,0.818927131589,-0.573761699311,-0.0116881329717,0.0,-0.00743718973441,0.00975446284231,-0.999924766502,0.0,0.495606532882,0.0428774067903,0.304698250433,1.0,-0.33998,-0.446830857143,1.721
0.205714119084,-0.138177059314,-0.13267246514,-2.28851414761,-0.00940405347755,2.14443142323,-0.0948436417338,-0.810770254768,-1.09066927609,-0.0202351316854,-1.19716781706,-0.172934374339,0.0932848240964,-0.718041345299,0.573742198111,0.81901662556,0.00352194039437,0.0,0.818986988556,-0.57366983847,-0.0119989960987,0.0,-0.00780709662853,0.00976894183665,-0.999921805452,0.0,0.489755993404,0.0353326779409,0.3045820418,1.0,-0.33998,-0.446830857143,1.738
0.192419678774,-0.15576261036,-0.133079549519,-2.30755213242,-0.0123321438794,2.14598016552,-0.106519757465,-0.849006710935,-1.08831952088,-0.0383235832374,-1.18716972624,-0.184525712064,0.0741199860192,-0.734399513519,0.573798895482,0.818976687171,0.003572158193,0.0,0.818947905527,-0.573726595443,-0.0119527660489,0.0,-0.00773974359688,0.00978408380113,-0.999922181009,0.0,0.484655623876,0.0285638470167,0.304591797107,1.0,-0.33998,-0.446830857143,1.753
0.177143877738,-0.175251404605,-0.133411886986,-2.32833048774,-0.0154386356353,2.14722457183,-0.119978044966,-0.860783557499,-1.05656672363,-0.0205449474907,-1.1517781898,-0.176747322617,0.0590952385006,-0.756830797781,0.573794453354,0.818979485164,0.00364349856039,0.0,0.818950574552,-0.573720546069,-0.0120597827609,0.0,-0.00778651460754,0.00990387237648,-0.999920638602,0.0,0.478521545355,0.0205824495818,0.30460689382,1.0,-0.33998,-0.446830857143,1.771
0.162157078193,-0.193453178077,-0.133883767983,-2.34733708193,-0.0185245880978,2.14816650941,-0.133119555831,-0.882994790958,-1.0614702863,-0.0269574157124,-1.10606415734,-0.177136139892,0.0697022879173,-0.778687467135,0.573919914058,0.818891155097,0.00373567292115,0.0,0.818864081812,-0.573846464567,-0.0119414204852,0.0,-0.00763516791665,0.00991261824372,-0.999921719041,0.0,0.472773539482,0.012888311849,0.30467047478,1.0,-0.33998,-0.446830857143,1.788
0.14785178052,-0.210316222492,-0.134163222706,-2.36485116689,-0.0212073131527,2.14868192365,-0.145891457383,-0.901965189626,-1.04886573064,-0.0127763048895,-1.08179709539,-0.163422742081,0.0199990874646,-0.796035416555,0.573808102795,0.818969338964,0.00377225465254,0.0,0.818941337517,-0.573732712297,-0.012108156224,0.0,-0.00775209205732,0.0100372066691,-0.999919576542,0.0,0.467292672704,0.00583562786315,0.304648388504,1.0,-0.33998,-0.446830857143,1.804
0.132114036826,-0.227938594182,-0.134618567804,-2.382734638,-0.0242178703843,2.14905234509,-0.1597508924,-0.928449269039,-1.01407521481,-0.0171332214165,-1.05271042569,-0.178215166832,0.00144854962251,-0.820127142389,0.57392474157,0.818887203274,0.00385826773082,0.0,0.818860935257,-0.57384980954,-0.0119963203284,0.0,-0.00760971351135,0.0100445631557,-0.999920596353,0.0,0.461561977754,-0.00181208460477,0.304700080545,1.0,-0.33998,-0.446830857143,1.821
0.115073883501,-0.246414138109,-0.135047476691,-2.40108252861,-0.0272582546799,2.14917025552,-0.17498744669,-0.963709126522,-1.03945174647,-0.0357239300122,-1.00532581329,-0.166731786642,0.0102023317886,-0.839467687042,0.57389309619,0.81890818913,0.0041035133777,0.0,0.818885751748,-0.573818170687,-0.0118143757871,0.0,-0.00732035948138,0.0101406925769,-0.999921786287,0.0,0.45549976852,-0.00982832364404,0.304805676072,1.0,-0.33998,-0.446830857143,1.839
0.100570749914,-0.261435899954,-0.13536244368,-2.41611228131,-0.0297919593673,2.14902741582,-0.188047702388,-0.968397862751,-1.00187231498,-0.014804150713,-1.00031382656,-0.16737108093,-0.0154517226387,-0.877440275978,0.573760669906,0.819001157044,0.00406759531213,0.0,0.818977604364,-0.573684995943,-0.0119145239331,0.0,-0.00742463343392,0.0101675504546,-0.999920744727,0.0,0.450369386561,-0.0164587696318,0.304739912692,1.0,-0.33998,-0.446830857143,1.854
0.0825634383115,-0.279173320253,-0.135871156752,-2.43335507081,-0.0328334165561,2.14868645057,-0.204142179972,-1.0078717021,-0.959053935324,-0.0209135887605,-0.960789576097,-0.170221983514,-0.034396526053,-0.904310065376,0.573839614896,0.81894512225,0.00421070294432,0.0,0.818924236374,-0.573764565372,-0.0117501278331,0.0,-0.00720689648504,0.0101911317348,-0.999922097704,0.0,0.444307954717,-0.0245511316209,0.304779324562,1.0,-0.33998,-0.446830857143,1.872
0.0652456552833,-0.295650877979,-0.136290186635,-2.44911096446,-0.0355639253143,2.14794809174,-0.219861120696,-1.03271746483,-0.959584661308,-0.0393024806228,-0.902969911934,-0.171295301933,-0.0418733820509,-0.937635417854,0.573741706281,0.819013155501,0.0043188529712,0.0,0.818993323656,-0.573665819907,-0.0117562654765,0.0,-0.00715109543479,0.0102823695307,-0.999921564279,0.0,0.438539179663,-0.0320891907257,0.304808294155,1.0,-0.33998,-0.446830857143,1.889
0.0484808731962,-0.31087671249,-0.136726319363,-2.46348381042,-0.0381530755751,2.14709705876,-0.234978337902,-1.05175705837,-0.94626725173,-0.0236536046145,-0.889243809055,-0.157747866596,-0.0763419728415,-0.941657528285,0.573777502657,0.818987645339,0.00440012813693,0.0,0.818968918542,-0.573701420098,-0.0117191270941,0.0,-0.00707359673213,0.010327938504,-0.999921645888,0.0,0.433098783823,-0.0392336067979,0.304826134359,1.0,-0.33998,-0.446830857143,1.905
0.0302099004183,-0.326739561996,-0.137256753824,-2.47810974086,-0.0407902481977,2.1460229771,-0.25151922448,-1.07924612497,-0.944864606379,-0.0270012142954,-0.851981386649,-0.152228095248,-0.0624978535401,-0.990537929434,0.573895708171,0.818903526632,0.00463434081893,0.0,0.818888260656,-0.573819518201,-0.0115725534361,0.0,-0.00681766086619,0.0104366469799,-0.999922294931,0.0,0.427357057678,-0.0468592529571,0.304905426814,1.0,-0.33998,-0.446830857143,1.922
0.0104605909947,-0.343023079443,-0.13775946454,-2.49308343332,-0.0435705409752,2.14463442398,-0.269580735522,-1.12299017253,-0.903437338255,-0.0438748695932,-0.850259530177,-0.151157410096,-0.0800381006236,-0.998450659959,0.573852176514,0.818933656503,0.00470028277258,0.0,0.818918998304,-0.573775418098,-0.011584071137,0.0,-0.00678980974529,0.0104968973925,-0.999921853761,0.0,0.421234334033,-0.0548744526492,0.304897174528,1.0,-0.33998,-0.446830857143,1.94
-0.00748398569388,-0.357087730414,-0.138162689708,-2.50560816778,-0.0459812441114,2.14316630888,-0.286064625017,-1.11575997478,-0.876617966779,-0.0217763588218,-0.757922576502,-0.134955539066,-0.0870548274277,-1.03733091308,0.57378002605,0.818983558719,0.00481239596725,0.0,0.818970966588,-0.573703919891,-0.0114505497265,0.0,-0.0066170489325,0.0105115116764,-0.999922858417,0.0,0.415866612284,-0.0619851952446,0.30498401246,1.0,-0.33998,-0.446830857143,1.956
-0.0270462320282,-0.371593161182,-0.138649393808,-2.51868820618,-0.0485357430258,2.14152841103,-0.3040808085,-1.15949312414,-0.847136357218,-0.0202061724418,-0.752449335693,-0.155025399063,-0.102691932015,-1.06508221548,0.573735226312,0.81901514675,0.00477769647193,0.0,0.81900154874,-0.573658347346,-0.01154602025,0.0,-0.00671572930584,0.0105375022306,-0.999921926966,0.0,0.410054361038,-0.0695769024092,0.304921830443,1.0,-0.33998,-0.446830857143,1.973
-0.0470192705046,-0.385690250944,-0.139148720876,-2.53092963724,-0.0509930551804,2.13969796729,-0.322489011553,-1.18636844394,-0.855022680377,-0.0246118576045,-0.705084275416,-0.146039400827,-0.101216399101,-1.09211760778,0.573770608729,0.81898976475,0.0048785956416,0.0,0.818977951336,-0.573694197524,-0.0114380878474,0.0,-0.00656898133689,0.0105585041748,-0.999922680248,0.0,0.404320540361,-0.0771762119103,0.304988959582,1.0,-0.33998,-0.446830857143,1.99
-0.0661604205776,-0.398457867651,-0.13958327284,-2.54209538088,-0.0531598835485,2.13790215334,-0.340303455082,-1.21278997453,-0.77472137042,-0.0409515395427,-0.695251519792,-0.125214635453,-0.116497520367,-1.12710683931,0.573721380707,0.819023955498,0.00492793476559,0.0,0.819011949195,-0.573643500383,-0.0115459276762,0.0,-0.00662964124783,0.0106603882713,-0.999921198885,0.0,0.398875170592,-0.0842702713636,0.304948417142,1.0,-0.33998,-0.446830857143,2.006
-0.0869001812685,-0.411518125882,-0.140071217113,-2.55327964791,-0.055461813376,2.13579843112,-0.359695904959,-1.22606387329,-0.75174689321,-0.0247726948459,-0.628992229748,-0.132905098379,-0.10933677676,-1.16415813946,0.573650243511,0.819073781801,0.00492798003774,0.0,0.81906106416,-0.573571234566,-0.0116515645701,0.0,-0.00671707278663,0.0107204458286,-0.999919973285,0.0,0.393100881543,-0.0918278039895,0.304937070755,1.0,-0.33998,-0.446830857143,2.023
-0.108171328221,-0.424119035976,-0.140578308135,-2.56386575279,-0.0577685957739,2.13377998573,-0.379583644605,-1.2468090731,-0.730600922823,-0.0249791468926,-0.613793760975,-0.130829033516,-0.13283409928,-1.18925150893,0.57363263283,0.819085843541,0.0049729632648,0.0,0.819074440956,-0.573554668625,-0.0115260215559,0.0,-0.00658866164353,0.0106851349191,-0.99992120561,0.0,0.387346323186,-0.0994539826956,0.304968015307,1.0,-0.33998,-0.446830857143,2.04
-0.128503777956,-0.435375535301,-0.141038681409,-2.5734732607,-0.0597284873247,2.13160439814,-0.398648844318,-1.28168397223,-0.685694903513,-0.0222108369802,-0.590114185227,-0.123888342633,-0.136317645541,-1.2072817592,0.573672802315,0.819058071854,0.00491301505888,0.0,0.819043312347,-0.573590922031,-0.0119270098805,0.0,-0.00695098670614,0.0108663825203,-0.999916799296,0.0,0.381825488907,-0.106551845444,0.304853121498,1.0,-0.33998,-0.446830857143,2.056
-0.150478632492,-0.446980563789,-0.141568452295,-2.58270462114,-0.0617643528175,2.12955899879,-0.419412577145,-1.30635482574,-0.655690125508,-0.032080808132,-0.530326906382,-0.129268103214,-0.112517384758,-1.24376528532,0.573688143558,0.819045668684,0.00518203172989,0.0,0.819036530604,-0.573608825875,-0.0115248998618,0.0,-0.00646708468903,0.0108561807111,-0.999920156891,0.0,0.376149399374,-0.114165512177,0.305013992816,1.0,-0.33998,-0.446830857143,2.073
-0.172857076353,-0.457835094677,-0.142023899196,-2.59163684913,-0.0637418906346,2.12725858514,-0.44066078031,-1.33234615131,-0.637257789442,-0.04279597265,-0.503957954118,-0.112515788159,-0.143544185813,-1.26722343462,0.573613604745,0.819098113233,0.0051439528066,0.0,0.819087074544,-0.573532085203,-0.0117498280387,0.0,-0.00667416849642,0.0109534173596,-0.999917735678,0.0,0.370318514525,-0.121715185361,0.304959166522,1.0,-0.33998,-0.446830857143,2.09
-0.19416201903,-0.467409941581,-0.142392501216,-2.59942227696,-0.0654536927695,2.12523420951,-0.46103148986,-1.33862195738,-0.573683811631,-0.012455802352,-0.471898907875,-0.0927257740058,-0.115803447291,-1.27488949479,0.573482264132,0.819189853339,0.00517917108137,0.0,0.81917850443,-0.573399388123,-0.0118518555946,0.0,-0.00673931607,0.0110397071497,-0.999916349744,0.0,0.364893990885,-0.128772318726,0.304924264664,1.0,-0.333397142857,-0.438179102041,2.106
-0.219594181572,-0.477754084573,-0.142711212715,-2.60746141907,-0.0672235482654,2.12303085622,-0.485020937178,-1.33666299746,-0.52490897139,-0.00736450225456,-0.400160446591,-0.0875494019335,-0.110694428326,-1.28127909133,0.573681515337,0.819049111244,0.00536835469566,0.0,0.819041422454,-0.573599990023,-0.0116166540513,0.0,-0.00643544587875,0.0110613775313,-0.999918112129,0.0,0.358690481665,-0.137081339428,0.305024120117,1.0,-0.322279428572,-0.42356724898,2.125
-0.240767451441,-0.485610018887,-0.142855696921,-2.61365686699,-0.0685370706172,2.12118670547,-0.505109012035,-1.30609674493,-0.46949378655,-0.00960735508097,-0.379011351804,-0.0737361888967,-0.113621557364,-1.22225433904,0.573756913167,0.818995833108,0.00543845989858,0.0,0.818988611367,-0.573674385504,-0.0116662234484,0.0,-0.00643480714192,0.0111478277046,-0.999917156166,0.0,0.353544619327,-0.143834573434,0.305025077498,1.0,-0.312917142857,-0.411262530612,2.141
-0.26169886932,-0.49263049871,-0.142836137885,-2.61924785824,-0.0696692589786,2.11942471878,-0.524991756107,-1.28689282681,-0.425122890794,0.0107866577235,-0.332487732316,-0.0790817893738,-0.0934299446161,-1.23595865867,0.573793342072,0.818970229557,0.00545074246062,0.0,0.818961968009,-0.573708699696,-0.0118477740028,0.0,-0.00657596243305,0.0112623414488,-0.999914954575,0.0,0.348524468531,-0.150372192193,0.304979445808,1.0,-0.303554857143,-0.398957812245,2.157
-0.283536073497,-0.499286132858,-0.142771186619,-2.62441426671,-0.0706646370409,2.11786333776,-0.545749484658,-1.26836246992,-0.373165855223,0.00953400626236,-0.291581034657,-0.0659914161194,-0.10155623273,-1.21167609321,0.57390263477,0.81889273674,0.00558555455963,0.0,0.818886430736,-0.573817844269,-0.0117831259325,0.0,-0.00644414943561,0.0113365201186,-0.99991497451,0.0,0.3434187764,-0.157127573043,0.304993901923,1.0,-0.293607428572,-0.38588404898,2.174
-0.306108575755,-0.505385565114,-0.142591882849,-2.62912125644,-0.0714778158742,2.11630333385,-0.567277070046,-1.25854148879,-0.321056383192,-0.00644579821347,-0.245489193449,-0.0481938156083,-0.0821975720284,-1.19624455473,0.574004654771,0.818820177284,0.00573763666354,0.0,0.818815460842,-0.573918611451,-0.0118074306382,0.0,-0.00637534872673,0.0114758067009,-0.999913826682,0.0,0.338215585983,-0.164001300606,0.305000163689,1.0,-0.283074857143,-0.372041240816,2.192
-0.325685300073,-0.510164576063,-0.142280687704,-2.63271887926,-0.0721387249486,2.11513639733,-0.586034143881,-1.21563772519,-0.285389612482,0.0208628933121,-0.2169168527,-0.0431260380432,-0.0780801335353,-1.15715709535,0.57395715926,0.818853004749,0.0058036927313,0.0,0.818850077574,-0.573872590428,-0.0116424788701,0.0,-0.00620301805104,0.0114348584987,-0.999915379709,0.0,0.333785961931,-0.169887780319,0.305047571401,1.0,-0.273712571429,-0.359736522449,2.208
-0.344834405342,-0.514276380353,-0.141981101678,-2.63595628539,-0.0726522301331,2.11392178182,-0.604433970388,-1.18285516739,-0.241456220583,0.017372564286,-0.192878468283,-0.019020751378,-0.076869727225,-1.12162050107,0.573933996813,0.818868860994,0.00585685050975,0.0,0.818865180673,-0.573846593005,-0.0118596154697,0.0,-0.00635065837058,0.0116028308485,-0.999912517901,0.0,0.329153213016,-0.175903463066,0.304994866085,1.0,-0.263765142857,-0.346662759184,2.225
-0.365745970683,-0.518193048142,-0.141568450193,-2.63913325006,-0.0731989157242,2.11279736399,-0.624550758845,-1.14197615284,-0.206156962594,0.0297613397764,-0.17002163263,-0.03362557906,-0.0559119957878,-1.11147127614,0.573881386176,0.818905998981,0.00581947898954,0.0,0.818900653822,-0.573792010385,-0.0120496841976,0.0,-0.00652851382055,0.0116808895131,-0.999910463655,0.0,0.324678574654,-0.181703407923,0.304916129724,1.0,-0.253817714286,-0.333588995918,2.242
-0.383835710929,-0.52107459609,-0.141224061175,-2.64140823632,-0.0734955059288,2.11196964612,-0.6418904047,-1.13402198876,-0.170015040751,0.010202714953,-0.137229765432,-0.00642410271248,-0.0504431783016,-1.0801777843,0.573989232244,0.818829790407,0.00590614183348,0.0,0.818824883417,-0.573898227075,-0.0121401053646,0.0,-0.0065512817366,0.0118046129312,-0.999908861757,0.0,0.320646750707,-0.186999573959,0.304880106654,1.0,-0.244455428572,-0.321284277551,2.258
-0.402291696672,-0.523684663141,-0.140688924724,-2.64337266317,-0.0737468047033,2.11119576057,-0.659780674452,-1.07118858587,-0.14478441747,0.0349849189138,-0.102631106216,-0.0150838746635,-0.0454119003499,-1.03751468115,0.573848456663,0.818928323539,0.00592423768469,0.0,0.818923771459,-0.573757617355,-0.0121161036406,0.0,-0.00652326953674,0.0118045337165,-0.999909045833,0.0,0.316583189411,-0.192335422981,0.304892949009,1.0,-0.234508,-0.308210514286,2.275
-0.420318397188,-0.525779204614,-0.140248074171,-2.64491907579,-0.0739407132701,2.11056363427,-0.677075342796,-1.04422890415,-0.114698031767,0.0353296724169,-0.0878353173958,-0.00142126515134,-0.0287469424926,-1.00299559211,0.573960528335,0.818849413381,0.00597469832277,0.0,0.818845819261,-0.573869997712,-0.01206220985,0.0,-0.00644855750165,0.0118158165724,-0.999909397188,0.0,0.312633507326,-0.197563585206,0.304914797373,1.0,-0.224560571429,-0.295136751021,2.292
-0.436603828461,-0.527327962735,-0.139855549407,-2.64605863212,-0.0740121255634,2.11009039167,-0.692797388812,-1.01663570899,-0.0881079976714,0.0239270761769,-0.0660511978056,-0.00386446541375,-0.0310744857666,-0.971423779436,0.574045665645,0.818789002798,0.00607367694416,0.0,0.818786938487,-0.573955146262,-0.0120077618144,0.0,-0.00634592736178,0.0118662794368,-0.99990945621,0.0,0.30907723461,-0.202268004783,0.304933225081,1.0,-0.215198285714,-0.282832032653,2.308
-0.454079445138,-0.528636199018,-0.139240502028,-2.64705421263,-0.0740620484678,2.10965198469,-0.709751202804,-0.950431003451,-0.0665090616817,0.0360277903982,-0.0468788947678,-0.00204732483898,-0.0217467422046,-0.929152968271,0.573958047513,0.818850499174,0.00606354667948,0.0,0.818848426435,-0.573867819483,-0.0119886274401,0.0,-0.00633734126594,0.0118463229334,-0.999909747297,0.0,0.30528309908,-0.207246098597,0.304937426318,1.0,-0.204665714286,-0.26898922449,2.326
-0.470061072293,-0.529479266525,-0.138716089914,-2.64770418334,-0.0740643677843,2.10933387999,-0.725091139291,-0.910175232901,-0.0403159625291,0.0335970688294,-0.0296992786809,0.000391079328012,-0.0119064064569,-0.892134887621,0.574073900961,0.818769243693,0.00606866695787,0.0,0.818767249393,-0.573983649557,-0.011987838182,0.0,-0.00633207950549,0.0118509589495,-0.999909725696,0.0,0.301815178505,-0.211802889018,0.304936391697,1.0,-0.194718285714,-0.255915461225,2.343
-0.484276413637,-0.52995976715,-0.138134272986,-2.64807484818,-0.0740505826331,2.10911931784,-0.738937771271,-0.885646886121,-0.0314489887679,0.0265469665846,-0.0194609235699,-0.00162893514941,-0.00626853920047,-0.850799710456,0.573949443392,0.818856980369,0.00600241883203,0.0,0.818854280991,-0.573859783436,-0.0119734020948,0.0,-0.0063600795643,0.0117874607699,-0.999910298555,0.0,0.298755500293,-0.215827633753,0.304940196484,1.0,-0.185356,-0.243610742857,2.359
-0.498738609239,-0.530172307032,-0.137533605392,-2.64826860387,-0.0739881680305,2.10894397518,-0.752971847381,-0.835738058496,-0.0076947977208,0.0361462372649,-0.0063168743588,0.00178305377345,-0.0122404300224,-0.813786056054,0.573891849293,0.818897795738,0.00594073664291,0.0,0.818894110006,-0.573802116695,-0.0120130918369,0.0,-0.0064288109393,0.0117592761385,-0.999910190874,0.0,0.295641380988,-0.21991185695,0.304930454638,1.0,-0.175408571429,-0.230536979592,2.376
-0.512492704929,-0.530245390817,-0.136937449631,-2.64832541252,-0.0738739088891,2.10886716424,-0.766253845014,-0.803125483931,-0.00149054111396,0.0288344807242,0.00196691537228,0.00780986122448,-0.00667180204886,-0.768388656929,0.573903447106,0.818889933333,0.00590401445866,0.0,0.818886118476,-0.573814499137,-0.0119663047224,0.0,-0.0064114008162,0.0117024443211,-0.999910969405,0.0,0.292682161497,-0.223780219007,0.304940380541,1.0,-0.165461142857,-0.217463216327,2.393
-0.52474147088,-0.530115139713,-0.136317860983,-2.64827944006,-0.0736799646314,2.10885281334,-0.778130338249,-0.741040450532,0.010328057557,0.0385045545514,0.00605649519518,0.0193630508765,0.00831650941965,-0.729331389226,0.573857038394,0.818922585052,0.00588609198389,0.0,0.818918542702,-0.573768182286,-0.0119683046781,0.0,-0.00642398638898,0.0116885507877,-0.999911051134,0.0,0.290057323437,-0.227186324618,0.304928799835,1.0,-0.156098857143,-0.205158497959,2.409
-0.537016271911,-0.529838776476,-0.13569678339,-2.64811578871,-0.0734029460532,2.10884840433,-0.789990849268,-0.713491940213,0.0238791558194,0.0314713251704,0.0111062075747,0.0244697741463,0.0020488090917,-0.681745931936,0.57388606043,0.818901980137,0.00592313033065,0.0,0.818898229119,-0.573796700862,-0.0119909685818,0.0,-0.00642087889471,0.0117321165383,-0.999910560878,0.0,0.287421555176,-0.230586097854,0.304918272498,1.0,-0.146151428572,-0.192084734694,2.426
-0.548569907429,-0.529416258325,-0.135038058615,-2.64784815149,-0.073098052654,2.10887744397,-0.801135280024,-0.649261786106,0.0297759872205,0.0388275809758,0.0194715953091,0.0329082739719,0.00669805553795,-0.63241171133,0.573902166719,0.818890550899,0.00594269172035,0.0,0.818886805261,-0.57381226783,-0.0120261531184,0.0,-0.00643823769524,0.0117684537486,-0.999910022248,0.0,0.284952376678,-0.233764502508,0.30490540848,1.0,-0.136204,-0.179010971429,2.443
-0.558665947718,-0.52888618467,-0.134369380034,-2.64752681204,-0.0727551792774,2.10895931324,-0.810976344003,-0.618023058151,0.0358187249777,0.0389143963518,0.0187341648185,0.0123886418005,0.0101199801981,-0.599753256862,0.573804187084,0.818959043878,0.00596542002491,0.0,0.818955269918,-0.573713620192,-0.0120704093069,0.0,-0.00646285257665,0.0118116909784,-0.999909353638,0.0,0.282817884825,-0.23651584759,0.304882327911,1.0,-0.126841714286,-0.166706253061,2.459
-0.568889455416,-0.528274345473,-0.133770018989,-2.64708439334,-0.07242264068,2.10904671769,-0.82063645356,-0.586414677029,0.0366837955914,0.0334628599527,0.0256988563107,0.013542841999,0.0027348354979,-0.544826510451,0.573993991554,0.818825781024,0.00599874080674,0.0,0.818822463877,-0.573903285564,-0.0120639285053,0.0,-0.00643568252917,0.0118367540983,-0.999909232502,0.0,0.280524758556,-0.239485807297,0.304885804773,1.0,-0.116309142857,-0.152863444898,2.477
-0.578545950615,-0.527471591422,-0.132976854103,-2.64655193301,-0.0719849582571,2.10919241964,-0.830146446924,-0.52159270921,0.043644649317,0.0467242017155,0.0273785294779,0.0197752408311,0.0156832887337,-0.505370038606,0.573786730542,0.818970928149,0.00601278657077,0.0,0.818967423615,-0.573695326925,-0.0121151897274,0.0,-0.00647260523603,0.0118760400808,-0.999908528343,0.0,0.278647490117,-0.241935061816,0.304864414645,1.0,-0.106361714286,-0.139789681633,2.494
-0.587114624366,-0.526755964474,-0.132327265535,-2.64604245302,-0.071635774442,2.10931493055,-0.838309106803,-0.495358731943,0.0418110139385,0.0388865290998,0.0327186008259,0.0282890948924,0.0058498653432,-0.466188340933,0.573838131981,0.818934917484,0.00601216358664,0.0,0.818931316338,-0.57374655805,-0.0121298453072,0.0,-0.00648422054279,0.0118843456228,-0.999908354407,0.0,0.276852318083,-0.244258164854,0.304861342382,1.0,-0.0964142857144,-0.126715918367,2.511
-0.594973399145,-0.525996879669,-0.131718104562,-2.64550232522,-0.0712346169222,2.10944555039,-0.845730175997,-0.443613186726,0.043437153996,0.0357286978743,0.0337537150179,0.027300650882,0.00884836917796,-0.425141009771,0.573967564863,0.818843823291,0.00606419368981,0.0,0.818840709238,-0.57387538251,-0.0121525776581,0.0,-0.00647109626771,0.0119410239689,-0.999907764176,0.0,0.275216699964,-0.246384156829,0.304855756661,1.0,-0.086466857143,-0.113642155102,2.528
-0.601802558048,-0.52525139548,-0.130993647656,-2.64498362257,-0.0708045073709,2.10956994784,-0.852374032979,-0.383545364844,0.0425667463715,0.0384549029524,0.0284646426217,0.0319565150727,0.0102232058915,-0.375915073764,0.573819710111,0.818947342053,0.00607767499582,0.0,0.818944118344,-0.573726972221,-0.0121917708525,0.0,-0.00649761736033,0.0119733851321,-0.999907205203,0.0,0.27384111297,-0.248182449369,0.304847507455,1.0,-0.0765194285715,-0.100568391837,2.545
-0.607400183096,-0.52469011135,-0.130389100757,-2.6445444089,-0.0704577607936,2.10968530449,-0.857626608036,-0.360268306305,0.0369695769416,0.0398832319542,0.027693329043,0.0201139699225,0.00598526726222,-0.335124732025,0.573846805868,0.818928376209,0.00607494324019,0.0,0.818925402181,-0.573754601023,-0.0121486776565,0.0,-0.00646349467359,0.0119466352146,-0.999907746316,0.0,0.272713393649,-0.249654979469,0.304866552729,1.0,-0.0677422857144,-0.0890327183675,2.56
-0.613014241004,-0.524057005621,-0.129698138835,-2.64405427828,-0.0700371627684,2.10983678367,-0.862827420749,-0.310977880481,0.0367837686706,0.0388213030249,0.028749229595,0.0240739490192,0.00822566151973,-0.292597198862,0.573902632951,0.818889195031,0.00608284916298,0.0,0.818886718159,-0.5738111123,-0.0120870643987,0.0,-0.00640768335935,0.0119181919333,-0.999908444956,0.0,0.271614507287,-0.251116191469,0.304887484207,1.0,-0.057794857143,-0.0759589551022,2.577
-0.617845270555,-0.523444444519,-0.129061674071,-2.64360169776,-0.0695996882042,2.10996810669,-0.867289560131,-0.277270337357,0.0369403272464,0.0374524425933,0.0256795721524,0.0302534120703,0.0114607513291,-0.242640679793,0.573965657867,0.818844673156,0.00612957862359,0.0,0.818842897232,-0.573874093414,-0.0120657143233,0.0,-0.00636246202293,0.0119446975506,-0.999908417445,0.0,0.270683983486,-0.252359256863,0.304895615959,1.0,-0.0478474285715,-0.0628851918369,2.594
-0.621694574833,-0.522981074495,-0.128389228488,-2.6432627043,-0.0692113651929,2.11005522349,-0.870883192442,-0.221532157624,0.0271814520875,0.0465987379067,0.0198989506502,0.0263077531121,0.00649516911378,-0.204857163281,0.573882935684,0.818902714846,0.0061210006775,0.0,0.818900898685,-0.573791559993,-0.0120544893922,0.0,-0.00635939800005,0.011930588417,-0.999908605382,0.0,0.26993162681,-0.253350937465,0.304906799623,1.0,-0.0379000000001,-0.0498114285716,2.611
-0.625167371115,-0.52258554752,-0.127560790414,-2.64297286104,-0.0687714658209,2.11014173109,-0.87397602517,-0.179026517746,0.0183643131226,0.0463568332581,0.0138629583458,0.0303852883996,0.00144616961652,-0.161456634654,0.573811104011,0.818953344619,0.00608137747284,0.0,0.81895115567,-0.573720181113,-0.0120376622222,0.0,-0.00636939738374,0.0118879242382,-0.999909049881,0.0,0.269375266462,-0.254083855521,0.304918031877,1.0,-0.0279525714287,-0.0367376653063,2.628
-0.627729238055,-0.522300967584,-0.126833410333,-2.64276837636,-0.0683856919317,2.11022295862,-0.876224132873,-0.13826439658,0.0181138378065,0.0411680089127,0.0126530121333,0.0191113544093,0.0019629277823,-0.122072783877,0.573728522456,0.819011475176,0.00604424939936,0.0,0.819009061429,-0.573638255003,-0.012002357901,0.0,-0.0063629786789,0.0118366179837,-0.999909699411,0.0,0.268966259804,-0.254630010633,0.304931170207,1.0,-0.0199125,-0.0261707142857,2.645
-0.629637062296,-0.522062301421,-0.126390078253,-2.64259671354,-0.0680858292368,2.11024392013,-0.877838484845,-0.111079059971,0.0183779199703,0.0220408518942,0.00974644445398,0.0179642272779,0.00553214702195,-0.10340991425,0.573791986824,0.818966768645,0.00607738537318,0.0,0.818964631802,-0.573701279182,-0.0120216897051,0.0,-0.00635888303699,0.0118753415325,-0.999909266319,0.0,0.268638730367,-0.25505580532,0.304934136357,1.0,-0.0195925,-0.0257501428571,2.661
-0.631402200161,-0.521836792298,-0.126077632484,-2.64241183214,-0.0678932319838,2.11028858081,-0.879457447261,-0.102841752507,0.0126109668165,0.0162511567478,0.0116924764888,0.0150433594965,0.00744155309159,-0.0946934113076,0.573782273861,0.818973547706,0.00608089317666,0.0,0.818971601125,-0.573691823875,-0.011998111141,0.0,-0.00633769896994,0.0118646107442,-0.999909528199,0.0,0.268316897838,-0.255489713835,0.304946714975,1.0,-0.0192525,-0.0253032857143,2.678
-0.633132702577,-0.521579121566,-0.125874923262,-2.64220547999,-0.0677481626063,2.11036116201,-0.881080923566,-0.0899252841653,0.0169213203649,0.0093592744571,0.011804021345,0.0115970568494,0.00399624354723,-0.0866183982069,0.573799060453,0.818961688305,0.00609411292252,0.0,0.818960139909,-0.573708976536,-0.0119601999753,0.0,-0.0062988195484,0.011853815303,-0.999909901909,0.0,0.267984404855,-0.255951818739,0.304956935335,1.0,-0.0188925,-0.0248301428571,2.696
-0.634444381904,-0.521327745591,-0.125763878007,-2.64204527239,-0.0676996477829,2.11041550244,-0.882376662171,-0.0850511554304,0.0224127883906,0.00259879719837,0.0130091066732,0.000765164559624,0.00264541023742,-0.0890003807738,0.573762820897,0.818987220847,0.00607489477785,0.0,0.81898526227,-0.573672523688,-0.0119884382297,0.0,-0.00633349942916,0.0118539976559,-0.999909680683,0.0,0.267716858644,-0.256317459986,0.30494466888,1.0,-0.0185925,-0.0244358571429,2.711
-0.635957359535,-0.52107834181,-0.125658361261,-2.6418910246,-0.0676669987281,2.11041241746,-0.883876588344,-0.081576505983,0.0144140892018,0.00798267351025,0.00792953166893,0.000234083405145,0.00012352096622,-0.0775338468219,0.573721095001,0.819016606506,0.00605395073046,0.0,0.81901382485,-0.573629870641,-0.0120777942636,0.0,-0.00641931068912,0.01188778357,-0.999908732361,0.0,0.267384027952,-0.256730095624,0.304925354711,1.0,-0.0182325,-0.0239627142857,2.729
-0.637327191527,-0.520861694758,-0.125571035868,-2.64172465608,-0.0676269726018,2.11043020385,-0.885233548352,-0.0767878742231,0.00990250068209,0.000669838936426,0.0114265915092,0.00155855209996,0.00446129894408,-0.0779189626416,0.573695629449,0.81903453047,0.00604231339969,0.0,0.819031453408,-0.573604195036,-0.012101762927,0.0,-0.00644598950822,0.0118918021796,-0.999908512945,0.0,0.267091021955,-0.257113830313,0.304924925468,1.0,-0.0178925,-0.0235158571429,2.746
-0.638586862427,-0.520661195798,-0.125542971664,-2.64155167413,-0.0675985582804,2.11050663905,-0.886557201853,-0.0842860397482,0.0105852448976,0.00311232845173,0.0102255345194,0.000900142153873,0.00424418206209,-0.0746382889326,0.573644440068,0.819070380731,0.00604273846466,0.0,0.819067666899,-0.573553675872,-0.0120451166696,0.0,-0.00640008665926,0.0118592542308,-0.999909194367,0.0,0.266823347305,-0.257492155003,0.304937014253,1.0,-0.0175725,-0.0230952857143,2.762
-0.63993394997,-0.520464635538,-0.12555308832,-2.64137943154,-0.0675670556407,2.11055887717,-0.887893404942,-0.0813709210315,0.0106139117366,0.00025913385616,0.0111632607952,0.000544692148644,0.000237809156311,-0.0747583433615,0.573682904927,0.819043259001,0.00606723828244,0.0,0.819041073762,-0.573592419055,-0.0120084634373,0.0,-0.00635545150802,0.0118585958608,-0.999909486874,0.0,0.266520709537,-0.257898117871,0.304947234429,1.0,-0.0172325,-0.0226484285714,2.779
-0.641274549305,-0.520279941991,-0.125561814502,-2.64122383557,-0.0675465755981,2.1105653011,-0.889193856847,-0.0834214256996,0.0112994876053,-0.00125832624881,0.0118796113987,0.00557911098145,0.00183040475397,-0.0862411242478,0.573740948783,0.819002428446,0.00609038504797,0.0,0.819000466199,-0.573650206933,-0.0120176267766,0.0,-0.00634883710587,0.0118832615721,-0.999909236062,0.0,0.266188475746,-0.258317872329,0.304953083565,1.0,-0.0168725,-0.0221752857143,2.797
-0.642486670127,-0.520108821153,-0.125565798764,-2.64107045707,-0.0675171108269,2.11059544108,-0.89041916698,-0.0737121959922,0.00838817046817,-0.00043680388147,0.0102707262265,0.000105162916195,-0.000360982883236,-0.0631987923361,0.573751384873,0.818994968999,0.00611032006797,0.0,0.818993340689,-0.573660696379,-0.0120025096522,0.0,-0.00632486632852,0.0118909969186,-0.999909296015,0.0,0.265932477043,-0.25865319538,0.304959602221,1.0,-0.0165725,-0.021781,2.812
-0.643876917672,-0.519898644922,-0.1255416335,-2.64088226052,-0.0674896153938,2.11064980878,-0.891763303953,-0.0722078954981,0.0131832099625,0.00225053605073,0.00795257090623,0.00126024395889,0.00501764591897,-0.0740058621569,0.573793485357,0.818965459008,0.00611228387944,0.0,0.818964112173,-0.573703261859,-0.0119623244647,0.0,-0.00629021445314,0.0118698735201,-0.999909765581,0.0,0.26562769899,-0.259066629857,0.304973021145,1.0,-0.0161925,-0.0212815714286,2.831
-0.645096846033,-0.519688442578,-0.125481824538,-2.64072771044,-0.0674613769025,2.11070418019,-0.893043039281,-0.0702102995235,0.011983552638,-0.000814237059004,0.00524225881962,0.00159030511051,0.000559221129851,-0.0698336180671,0.573722313906,0.819015402669,0.006101116179,0.0,0.819013953144,-0.573632231762,-0.0119563431124,0.0,-0.00629275343367,0.0118567483958,-0.999909905327,0.0,0.265366516036,-0.259418035493,0.304971973507,1.0,-0.0158525,-0.0208347142857,2.848
-0.646136879643,-0.519510104777,-0.125420103613,-2.64058540525,-0.0674397564222,2.11071855612,-0.894086199488,-0.0652407798249,0.0124910160004,0.00399444883792,0.0105864835881,0.000695760658509,0.000288101098009,-0.0688476203735,0.573692675763,0.819036279209,0.00608555795963,0.0,0.81903454021,-0.573602500393,-0.0119724845647,0.0,-0.00631532953852,0.0118530370786,-0.999909806995,0.0,0.265142973518,-0.259713559798,0.304973703387,1.0,-0.0155525,-0.0204404285714,2.863
-0.647288982893,-0.519304122169,-0.125367735061,-2.64044538174,-0.0674174586197,2.11075051926,-0.895251515407,-0.0624077790995,0.0131038597646,0.00285375982672,0.00468500882397,0.000348218038718,0.00605770719315,-0.0653628591803,0.573661703556,0.819058042709,0.00607613750099,0.0,0.819056013804,-0.573571260461,-0.0120000969197,0.0,-0.00634380018799,0.0118609213622,-0.99990953328,0.0,0.264889644527,-0.260041967937,0.304965489257,1.0,-0.0152125,-0.0199935714286,2.88
-0.648439120151,-0.51910468661,-0.125338681078,-2.6402995726,-0.067390754897,2.11079369354,-0.896412271982,-0.0643616900002,0.0183658045467,0.000282117140462,0.0103927709208,-0.000552180986372,0.000355118850506,-0.0704423366179,0.573651491209,0.819065168781,0.00607970596955,0.0,0.819063159235,-0.573560984644,-0.0120035402947,0.0,-0.00634472177073,0.0118657404207,-0.999909470257,0.0,0.264635001664,-0.260377426454,0.304962708907,1.0,-0.0148725,-0.0195467142857,2.897
-0.649474788806,-0.518927284312,-0.125332303313,-2.64015933041,-0.0673693307993,2.1108211799,-0.897433980881,-0.0623567655526,0.00738079752205,0.00125068300447,0.00834622121505,0.000126119366721,-0.00031589193355,-0.0589231414045,0.573674885238,0.819048706357,0.00609012020301,0.0,0.819046801329,-0.573584271941,-0.0120069611363,0.0,-0.00634121091122,0.0118764141817,-0.999909365808,0.0,0.264401099578,-0.260684612162,0.3049636214,1.0,-0.0145525,-0.0191261428571,2.913
-0.650587620366,-0.518747109777,-0.125334394325,-2.64000926639,-0.0673453587422,2.11087477709,-0.898547824604,-0.0590168204827,0.0132350202764,-0.000150793645291,0.00852063112421,0.000192555067462,0.00848025137294,-0.0680819413156,0.573693558811,0.819035525566,0.00610371533839,0.0,0.819033976447,-0.573603220714,-0.0119765401148,0.0,-0.00630822250383,0.0118702427044,-0.999909647752,0.0,0.264151408606,-0.261019708191,0.304969995613,1.0,-0.0142125,-0.0186792857143,2.93
-0.6516886278,-0.518577324725,-0.125333622721,-2.63985817437,-0.0673274691851,2.11090964058,-0.899683783158,-0.0629973102259,0.0102652983426,-0.00116040594128,0.00705479955016,0.00114813897442,0.0001188759838,-0.0709557660262,0.573679817992,0.81904508457,0.00611250939893,0.0,0.819043781392,-0.573589694228,-0.0119538169895,0.0,-0.00628476365121,0.0118643047914,-0.999909865947,0.0,0.263901978648,-0.261349250288,0.304979118925,1.0,-0.0138725,-0.0182324285714,2.947
-0.652692799213,-0.518402318785,-0.125324068839,-2.63972146989,-0.0673079374417,2.11093066245,-0.900651944841,-0.0612628233164,0.017561612197,1.23269968471e-05,0.00691189390036,7.57918163027e-05,0.00550479092393,-0.0635957517559,0.573718031669,0.819018259533,0.00612026057653,0.0,0.819016980374,-0.573627722771,-0.0119653010374,0.0,-0.00628916997914,0.0118775349753,-0.999909681173,0.0,0.26367395949,-0.261645209752,0.304978800366,1.0,-0.0135525,-0.0178118571429,2.963
-0.653718983065,-0.518214002945,-0.125325768988,-2.6395692191,-0.0672895884876,2.11097652597,-0.901680064846,-0.059309062409,0.0152123719276,5.87982422161e-05,0.00831436970875,0.000517351125606,0.00228993827413,-0.0599686580845,0.573733411437,0.819007422995,0.00612866878143,0.0,0.819006344149,-0.573643236463,-0.0119495775664,0.0,-0.00627124407445,0.0118755191561,-0.999909817705,0.0,0.263444452504,-0.261956621253,0.304982485472,1.0,-0.0132125,-0.017365,2.98
-0.654779665905,-0.518013361896,-0.125310609553,-2.63942492454,-0.067268665779,2.11100851118,-0.902759938949,-0.0562664018212,0.00959948184762,-0.000201986348805,0.00954633357618,0.00468393605512,0.00522557931794,-0.0529460547878,0.573723491542,0.81901432557,0.00613487282513,0.0,0.819013206294,-0.573633063591,-0.0119675884293,0.0,-0.00628258143189,0.0118908574176,-0.999909564251,0.0,0.263205191321,-0.262268770984,0.304977218949,1.0,-0.0128525,-0.0168918571429,2.998
-0.655640582973,-0.517851059193,-0.125295597885,-2.63932193807,-0.067259868339,2.11103044774,-0.903567553086,-0.0589757448091,0.0109605317963,0.00048423066331,0.00494324560885,0.00127344811607,0.000364865436831,-0.0567835371593,0.573763298403,0.818986487308,0.00612845118389,0.0,0.81898514026,-0.573672616404,-0.0119923359909,0.0,-0.00630595791183,0.0119001018199,-0.999909307123,0.0,0.262995243909,-0.262537516073,0.30496974099,1.0,-0.0125325,-0.0164712857143,3.014
-0.656654757234,-0.517671950931,-0.125261152782,-2.63918462236,-0.067242281018,2.11106651199,-0.904535680421,-0.0504166886975,0.00717537479274,0.0044438680742,0.00772139325454,4.71170422835e-05,0.00177253253342,-0.0542734600226,0.573793741978,0.818965179053,0.00612568906223,0.0,0.818963743619,-0.573702966298,-0.0120016665711,0.0,-0.00631474260511,0.0119034275963,-0.999909212097,0.0,0.262782516963,-0.262812830848,0.304966711903,1.0,-0.0121925,-0.0160244285714,3.031
-0.657569824205,-0.517499509312,-0.12524386612,-2.6390507397,-0.0672300205493,2.11110688382,-0.90551875624,-0.0557194993709,0.00984374067512,-0.000998440804338,0.0085817891447,0.000344595936186,-0.00391769261558,-0.0524335996184,0.573737998408,0.819004261164,0.00612178732784,0.0,0.819002815363,-0.573647327074,-0.0119949768539,0.0,-0.00631231174991,0.0118959641018,-0.999909316267,0.0,0.262579834225,-0.263085544691,0.304967837633,1.0,-0.0118525,-0.0155775714286,3.048
-0.658402015435,-0.517328880499,-0.125205154321,-2.63892642316,-0.0672178198432,2.11114458975,-0.906366290202,-0.050508729637,0.0130789651046,0.00719112724621,0.00916249342196,0.00172533775979,0.00194790705888,-0.0533723157235,0.573709696768,0.819024194443,0.00610734419416,0.0,0.819022542585,-0.573619058099,-0.0119999093238,0.0,-0.00632504881996,0.0118867457664,-0.999909345407,0.0,0.262400862536,-0.263328895972,0.304965554772,1.0,-0.0115325,-0.015157,3.064
-0.659338353305,-0.517155914662,-0.125159735883,-2.63880444232,-0.067203529221,2.1111849916,-0.907273627954,-0.0539254865345,0.00661461165281,0.00323156866771,0.00586244043319,-9.51190959569e-05,0.000440923768533,-0.0562900502742,0.573713736733,0.81902147697,0.00609224486947,0.0,0.81901960491,-0.573623116307,-0.0120064196111,0.0,-0.00633898508077,0.011878144537,-0.999909359367,0.0,0.262195730361,-0.263597509042,0.304961729458,1.0,-0.0111725,-0.0146838571429,3.082
-0.660206101107,-0.51699799979,-0.12514636092,-2.63870188996,-0.0671894121648,2.11120738853,-0.908115903949,-0.0503313568635,0.0108680145269,0.000873821330893,0.00844152919114,-0.000403539165712,-0.000293078124856,-0.0485335800374,0.573736604869,0.819005425405,0.00609658036222,0.0,0.819003428583,-0.573645622,-0.0120345847845,0.0,-0.00635923603206,0.0118980311085,-0.999908994345,0.0,0.261994433024,-0.26384763154,0.304952326131,1.0,-0.0108325,-0.014237,3.099
-0.660986386607,-0.516845069781,-0.125141162603,-2.63859745408,-0.0671745569123,2.11124028595,-0.908926462784,-0.0500008228118,0.00893980175287,0.000550398455783,0.00751372567928,3.5303215664e-05,0.00402007204663,-0.0457035035761,0.573719991294,0.819017012603,0.0061034054034,0.0,0.819015026287,-0.573628836133,-0.0120454129669,0.0,-0.00636443134072,0.0119097042581,-0.999908822322,0.0,0.261816441026,-0.264078467657,0.304946313068,1.0,-0.0105125,-0.0138164285714,3.115
-0.6617978145,-0.516682455668,-0.125140823993,-2.63847367502,-0.0671622286898,2.11127507784,-0.909715193977,-0.0492317536473,0.00509340065739,-0.000414510929877,0.0113742628952,0.00425938067876,0.000407561186585,-0.0491424800562,0.573750069334,0.8189959121,0.00610743838464,0.0,0.818993978259,-0.573658890472,-0.0120452421386,0.0,-0.00636154022379,0.0119131431367,-0.999908799755,0.0,0.261633182328,-0.264323758793,0.304945553994,1.0,-0.0101725,-0.0133695714286,3.132
-0.662560768164,-0.516523757976,-0.125140073841,-2.63835256006,-0.0671434101155,2.11129568745,-0.910446212711,-0.0428001471855,0.00785406693836,-1.23623507082e-05,0.00914278702134,0.00210720079068,0.00144266543435,-0.0411964430242,0.573804759471,0.818957519921,0.00611763637262,0.0,0.818955647624,-0.573713391711,-0.0120556334133,0.0,-0.00636340424388,0.0119278823371,-0.999908612179,0.0,0.261447082076,-0.264567547421,0.304942572451,1.0,-0.0098125,-0.0128964285714,3.15
-0.663268850668,-0.516384520747,-0.125129430533,-2.63824920148,-0.0671292271481,2.11132245778,-0.911134065738,-0.0461323407164,0.00924505673827,-0.0011342130303,0.00755428687234,0.00195215968013,-0.000581264601903,-0.0462951851132,0.573810535228,0.818953452298,0.00612041921334,0.0,0.818951568284,-0.573719064334,-0.0120627909477,0.0,-0.00636758570233,0.0119343132159,-0.999908508825,0.0,0.26130123219,-0.264762466147,0.304941957741,1.0,-0.0095125,-0.0125021428571,3.165
-0.664017632183,-0.516236685033,-0.125092425391,-2.63814656841,-0.0671110028214,2.11136194606,-0.911930286878,-0.0410018424888,0.00239284262281,5.29416125019e-05,0.000853948123272,0.000512994448504,0.00261006690003,-0.0465396426033,0.573758587522,0.818989899411,0.00611349405882,0.0,0.818987917194,-0.573667142573,-0.0120643244457,0.0,-0.00637357190737,0.0119291171918,-0.999908532689,0.0,0.261138898809,-0.26497796681,0.304938291192,1.0,-0.0091525,-0.012029,3.183
-0.664716407394,-0.51610568053,-0.125063706505,-2.6380666562,-0.0670893976708,2.11139114991,-0.91262589475,-0.0381828922325,0.00898797358595,0.00323100535111,0.00587516640879,0.000568796689548,-3.63491514686e-05,-0.0407257567022,0.573754291411,0.818992887581,0.00611637803427,0.0,0.818990828536,-0.573662620845,-0.0120816853741,0.0,-0.0063861998923,0.0119414062539,-0.99990830543,0.0,0.260981750092,-0.265174689266,0.304929436611,1.0,-0.0088125,-0.0115821428571,3.2
-0.665306951033,-0.515997046791,-0.125035126536,-2.63799970692,-0.0670720589375,2.11140112878,-0.91320440261,-0.0392319298616,0.00695761487088,0.00277085578034,0.005429535017,0.00182076979232,-0.000715042712277,-0.0441886574988,0.573753605498,0.818993354705,0.00611817199208,0.0,0.818991115022,-0.57366154616,-0.0121132520046,0.0,-0.00641103632333,0.0119609807996,-0.999907912536,0.0,0.260837391728,-0.265346558019,0.304920310567,1.0,-0.0084925,-0.0111615714286,3.216
-0.665995229565,-0.515878410075,-0.12501547868,-2.63791476848,-0.0670495690867,2.11142174464,-0.913876757854,-0.0364826503211,0.00256833648868,0.00143388799565,0.00340282852471,0.000920006109997,-0.000225999073288,-0.0305783044833,0.573767991434,0.818983223994,0.00612517129172,0.0,0.818981038632,-0.573675829234,-0.0121180945297,0.0,-0.00641077683396,0.0119696043566,-0.999907811007,0.0,0.260690825462,-0.265533797575,0.304918335358,1.0,-0.0081525,-0.0107147142857,3.233
-0.666614546425,-0.515761780177,-0.125009769846,-2.63783150342,-0.0670247769193,2.1114474016,-0.914504470526,-0.0394286876236,0.0070345697303,-3.11252070612e-05,0.00777398361387,0.00237000235209,-0.000337345759702,-0.0323537649514,0.573772016722,0.818980289473,0.0061404545989,0.0,0.818978270496,-0.573679724583,-0.0121207656125,0.0,-0.00640413712636,0.0119836857403,-0.999907684891,0.0,0.260550069612,-0.265714817973,0.30491545248,1.0,-0.0078125,-0.0102678571429,3.25
-0.667172110504,-0.515661789412,-0.124999505672,-2.63775609308,-0.0670023666846,2.11146110299,-0.915079341721,-0.0347580015465,0.00610580482641,0.00238787372663,0.00415273754949,0.00140637388533,0.0015400996782,-0.0287671952883,0.573764057257,0.818985773477,0.0061527508682,0.0,0.818983860448,-0.573671610372,-0.012127105144,0.0,-0.00640239135346,0.0119973316944,-0.999907532433,0.0,0.260423140105,-0.265875472106,0.304914225163,1.0,-0.0074925,-0.00984728571429,3.266
-0.667762308405,-0.515600273627,-0.124983902252,-2.63768408711,-0.0669803103718,2.11147710971,-0.915652774725,-0.0371072871693,0.00430161275288,8.45657632234e-05,0.00541315076433,-0.000117988731916,0.000943264212175,-0.0307827877252,0.573779711211,0.818974750461,0.00616019573961,0.0,0.818973125349,-0.573687586334,-0.012096286339,0.0,-0.00637264795398,0.0119858692051,-0.999907859904,0.0,0.260289029536,-0.266043557095,0.304925972483,1.0,-0.00715250000001,-0.00940042857144,3.283
-0.668309938953,-0.515518890696,-0.124958610334,-2.63760016421,-0.0669551306169,2.11149662984,-0.916165172701,-0.031230738324,0.00262250708447,0.00126118999429,0.00487034258392,0.000321814027692,-9.33105858446e-05,-0.0333207917488,0.57380557667,0.818956603832,0.0061634505701,0.0,0.818955185338,-0.573713741265,-0.0120703932116,0.0,-0.0063491941875,0.0119738792757,-0.999908152756,0.0,0.260171383267,-0.266201367666,0.304936327443,1.0,-0.00681250000001,-0.00895357142858,3.3
-0.668788444059,-0.515425638242,-0.124921491816,-2.6375136353,-0.0669318826894,2.11151732803,-0.91662435856,-0.0327392740229,0.00682517828828,0.000606968464521,0.00494538793858,0.00111906363094,0.00547148137355,-0.021762609977,0.573809353405,0.818953993434,0.00615869170447,0.0,0.818952625647,-0.573717750481,-0.0120534904084,0.0,-0.00633802538081,0.0119603125525,-0.999908385982,0.0,0.260075027324,-0.26633943722,0.304943859413,1.0,-0.00649250000001,-0.00853300000001,3.316
-0.669286211109,-0.515334727884,-0.124864003825,-2.63743140614,-0.0669099554387,2.11154329838,-0.917110241362,-0.031425021347,0.00628538027816,0.00241197381911,0.00605705045807,-0.000128518794045,0.00746700366621,-0.0298462158491,0.573791783904,0.818966421318,0.00614299440468,0.0,0.818964988586,-0.573700515431,-0.0120338259069,0.0,-0.00633118217633,0.0119360375825,-0.999908719403,0.0,0.259977800502,-0.266477899454,0.304951227727,1.0,-0.00615250000001,-0.00808614285715,3.333
-0.669775446913,-0.515246316516,-0.124817434788,-2.63735085173,-0.0668827695211,2.11158057217,-0.917622407939,-0.0283716222076,0.00535082630062,0.000883261663882,0.00407483776399,0.00547423835463,-0.000235726336777,-0.0254681866092,0.573755604412,0.818991820574,0.00613605241239,0.0,0.818990508051,-0.573664770427,-0.0120010747338,0.0,-0.00630886641184,0.0119112818992,-0.999909155658,0.0,0.25988225521,-0.266617164869,0.304959465854,1.0,-0.00579250000001,-0.00761300000001,3.351
-0.670155073706,-0.515158167519,-0.12478402873,-2.63729681288,-0.0668654958425,2.11160214992,-0.918027664434,-0.0264583202817,0.00493856210967,0.00561613501969,0.00359003834966,0.000402314236811,-0.00030373152846,-0.0332391760981,0.573721129265,0.819015998884,0.00613239826982,0.0,0.819014575798,-0.573630199169,-0.0120110837697,0.0,-0.00631966260352,0.0119137654885,-0.999909057893,0.0,0.259803632761,-0.266722568312,0.304954098862,1.0,-0.00549250000001,-0.00721871428572,3.366
-0.670593344625,-0.515077648722,-0.124763668899,-2.63725003107,-0.0668441635501,2.1116157613,-0.918479585673,-0.0201638234602,0.00456750130887,-3.43826235183e-05,-0.000302784300024,0.000223250096139,-9.78878372114e-05,-0.0198122212419,0.573707107506,0.819025756712,0.00614097224864,0.0,0.8190243311,-0.573615928677,-0.0120273993305,0.0,-0.00632831217817,0.0119300398592,-0.999908809149,0.0,0.25970407383,-0.266842677622,0.304947267142,1.0,-0.00513250000001,-0.00674557142858,3.384
-0.670991759978,-0.515012129535,-0.124761925536,-2.63721948487,-0.0668217920341,2.11162459959,-0.918869943541,-0.0225743746954,0.00120747525972,0.000790887323642,0.000685288501532,0.00218195896959,0.000418753774881,-0.0278580996626,0.573729841445,0.819009670791,0.00616239298744,0.0,0.81900833296,-0.573638204955,-0.0120543460849,0.0,-0.00633776398865,0.0119632196047,-0.999908352863,0.0,0.259600528145,-0.266957088392,0.304936386954,1.0,-0.00477250000001,-0.00627242857144,3.402
-0.67135439504,-0.514974321309,-0.124758673042,-2.6371939687,-0.0668053233516,2.11163032504,-0.919202526009,-0.0225808270571,0.000930030036433,-0.00101887956418,2.80536273245e-05,0.00032508122839,0.000386284338606,-0.0179263967253,0.573754411097,0.818992365082,0.00617483481049,0.0,0.818991191672,-0.573662719888,-0.0120523307115,0.0,-0.0063286161474,0.0119724437362,-0.9999083004,0.0,0.25951817169,-0.267050261286,0.30493595669,1.0,-0.00447250000001,-0.00587814285715,3.417
-0.671744061874,-0.514924063678,-0.12473336356,-2.6371605305,-0.06678902466,2.11163272074,-0.919566740509,-0.0235139731132,-0.000586238144743,0.00137863780341,0.00178476061934,0.00158740965641,0.00104796172036,-0.0199941620721,0.573765997221,0.818984227112,0.00617762707921,0.0,0.818983015099,-0.573674149589,-0.0120639120698,0.0,-0.00633633073529,0.0119814648709,-0.999908143487,0.0,0.2594280246,-0.267152518841,0.304933392412,1.0,-0.00411250000001,-0.00540500000001,3.435
-0.672076146871,-0.514882868461,-0.124716215021,-2.6371257433,-0.0667696785629,2.11163783076,-0.919874969689,-0.0172505063167,0.0042767369461,0.000208468170359,0.0025579399939,0.0041840385058,0.000480195843127,-0.0235214241748,0.573783393437,0.818971982253,0.00618519203101,0.0,0.818970873749,-0.573691518481,-0.0120621920117,0.0,-0.00633032697218,0.0119868083699,-0.999908117472,0.0,0.259352600508,-0.267242165322,0.304934829,1.0,-0.00377250000001,-0.00495814285715,3.452
-0.672336903682,-0.514828916938,-0.124690311268,-2.63707413698,-0.066758226438,2.11164497168,-0.920127967343,-0.0148864192072,0.00846458755704,0.00255827278994,0.00360605602449,0.00208439949816,0.00116015456117,-0.0118005863122,0.573778840732,0.81897522016,0.00617880184843,0.0,0.818974072929,-0.573687078844,-0.0120561327936,0.0,-0.00632909708047,0.0119780630285,-0.999908230057,0.0,0.259301259852,-0.267316667321,0.304939566892,1.0,-0.00347250000001,-0.00456385714286,3.467
-0.67261357809,-0.51477174324,-0.124674632118,-2.63702541803,-0.0667454801461,2.11165778145,-0.920392937772,-0.0132451923348,0.00655640052677,0.00329899932147,0.00351620571879,-5.895069839e-05,0.0047439618639,-0.0119837661437,0.573785217751,0.818970753915,0.00617859402417,0.0,0.818969643788,-0.573693530768,-0.0120499879322,0.0,-0.00632409003891,0.0119744164413,-0.999908305414,0.0,0.259243630503,-0.267397358202,0.304942046559,1.0,-0.00313250000001,-0.00411700000001,3.484
-0.67286824313,-0.514721314687,-0.124647571399,-2.63698623477,-0.0667310887519,2.11166915311,-0.920654288551,-0.0127164915478,0.0046886052633,0.000141592425471,0.000384898738366,0.00112008858321,-0.000324984507629,-0.0174293558546,0.573768676155,0.818982366126,0.00617552738061,0.0,0.818981229375,-0.573677031201,-0.012048099679,0.0,-0.00632454473569,0.0119706936822,-0.999908347113,0.0,0.259192353754,-0.267467139923,0.304942830601,1.0,-0.00277250000001,-0.00364385714286,3.502
-0.673082046421,-0.514696086325,-0.124618155337,-2.63696202948,-0.0667182066371,2.11168661073,-0.920862235566,-0.0163436372248,-0.00252823868211,0.000414394434798,0.00139453940835,-0.000143455172067,0.00320340189203,-0.0100070228399,0.57375927389,0.818988998245,0.00616954451941,0.0,0.818987901117,-0.573667879268,-0.0120303374982,0.0,-0.00631356609138,0.0119555302054,-0.999908597913,0.0,0.25915051906,-0.267523362558,0.304946692822,1.0,-0.00245250000001,-0.00322328571429,3.518
-0.673305065039,-0.514662123516,-0.124585526903,-2.63694497207,-0.0667052489805,2.11170291121,-0.921068318163,-0.0131867052956,0.000650039073885,-0.000738707615453,0.00156442713857,0.00101439874437,0.000323012861792,-0.0132424478783,0.573756409555,0.818991047175,0.00616393080259,0.0,0.818989887453,-0.573665059529,-0.0120295730269,0.0,-0.00631620248608,0.0119504717063,-0.999908641733,0.0,0.25910496136,-0.267579078495,0.304944057893,1.0,-0.00209250000001,-0.00275014285715,3.536
-0.673495449872,-0.51464301681,-0.124555365473,-2.63692693184,-0.066696154335,2.11171249619,-0.921243812051,-0.00945314829129,0.00238896365936,0.00306921859471,0.00178765352165,-0.000258961978752,0.0021444514994,-0.0146491483062,0.573751953018,0.81899423099,0.00615572205946,0.0,0.818993031782,-0.573660766557,-0.0120202207335,0.0,-0.00631331675155,0.0119383484441,-0.999908804776,0.0,0.259066723456,-0.267626795344,0.304946723975,1.0,-0.00177250000001,-0.00232957142858,3.552
-0.673668092379,-0.51463208423,-0.124542164887,-2.63691250893,-0.0666833189791,2.11172203178,-0.92138895972,-0.0083784049795,0.00016215752147,0.000589112911134,0.000548758062315,1.59671806358e-05,0.0001251794981,-0.00577432025989,0.573771270801,0.818980674739,0.00615874251001,0.0,0.818979606182,-0.573680240237,-0.0120055621217,0.0,-0.00629929576529,0.0119325608894,-0.999908962288,0.0,0.259029124723,-0.267672370258,0.304950367128,1.0,-0.00145250000001,-0.00190900000001,3.568
