nelsonifechukwu/NELSON_IML_WORK/CNN-GradCAM/train2dof/data_sample_2022-02-21-09-29-12/robot_state.csv
position_joint1,position_joint2,position_joint3,position_joint4,position_joint5,position_joint6,position_joint7,velocity_joint1,velocity_joint2,velocity_joint3,velocity_joint4,velocity_joint5,velocity_joint6,velocity_joint7,ee_T_00,ee_T_10,ee_T_20,ee_T_30,ee_T_01,ee_T_11,ee_T_21,ee_T_31,ee_T_02,ee_T_12,ee_T_22,ee_T_32,ee_T_03,ee_T_13,ee_T_23,ee_T_33,v_x,v_y,time
0.46508927865,0.54760457863,-0.123993843477,-1.35575500408,0.0794472192411,1.89408579206,0.159153394093,0.00060926613549,0.000279016521065,-0.00133642806213,6.69611546285e-05,0.000379978853535,0.000381284721038,-0.00172880299544,0.573773286057,0.81899967169,0.00212152802032,0.0,0.818959324461,-0.573714596858,-0.0117444937098,0.0,-0.00840174665927,0.00847628509806,-0.999928779086,0.0,0.661696828805,0.260899778987,0.303375412109,1.0,0.0,0.0,0.0
0.465088586463,0.547607084283,-0.123991415773,-1.35575500406,0.0794473142633,1.89408331527,0.159162752817,-0.000766442386163,0.00097344134397,0.000502633977026,0.000275718068691,-2.28019423843e-05,0.000103794009903,0.00176205130414,0.573779834053,0.818995093765,0.00211785852833,0.0,0.818954683576,-0.573721142769,-0.0117483398555,0.0,-0.00840693434599,0.00847555383429,-0.999928741682,0.0,0.66169588592,0.260900539325,0.303373341602,1.0,-8e-05,-0.000105142857143,0.005
0.465085433586,0.547606722249,-0.123991642762,-1.35576326992,0.0794450211752,1.89408685176,0.159156295117,-0.000582094870935,0.00184598668939,-0.00274590886267,-0.00179084181618,-0.000487975252845,-5.60449104677e-05,-0.00036620003644,0.573777154623,0.818996983512,0.00211299132534,0.0,0.818956527378,-0.573718499855,-0.0117488761091,0.0,-0.00841019380194,0.00847184785142,-0.999928745679,0.0,0.66169570926,0.260897213155,0.303369974121,1.0,-0.00038,-0.000499428571429,0.02
0.4650875048,0.547601106227,-0.123989205095,-1.3557648957,0.0794440253889,1.89408522415,0.159157007138,-0.000255751504118,0.00248410185003,0.000913464278681,0.000707517810301,0.000247247119019,-0.000272005684638,-0.000787332146206,0.573774141623,0.818999088352,0.00211532159902,0.0,0.818958655465,-0.573715471153,-0.0117484339617,0.0,-0.00840852586658,0.008473471685,-0.999928745947,0.0,0.661694116075,0.260899603487,0.30337295479,1.0,-0.00072,-0.000946285714286,0.037
0.465087507232,0.547503744221,-0.123994533183,-1.35583408269,0.0794436291722,1.89409462353,0.159158350019,-0.000972774000901,-0.0122268773643,-0.00129377130727,-0.00800167215439,0.000179944740374,8.60681570996e-05,0.000541123228033,0.573782521993,0.818993126555,0.00215011920792,0.0,0.818953119115,-0.573723690132,-0.0117329865507,0.0,-0.00837582227337,0.00849319296567,-0.999928853106,0.0,0.66168394909,0.260890166324,0.30340998671,1.0,-0.0011,-0.00144571428571,0.056
0.465090081327,0.547381003895,-0.123987059953,-1.35598489964,0.0794442052239,1.89413038099,0.159149319893,-0.00260067288049,-0.00983133097091,0.00172117436185,-0.0122430699274,-0.000131510134449,0.000620874345971,-0.00141274153602,0.573772804354,0.818999891266,0.00216656230612,0.0,0.818959932974,-0.573713743908,-0.0117437275214,0.0,-0.00837528624121,0.0085127230908,-0.999928691521,0.0,0.661657082656,0.260888479814,0.303428437267,1.0,-0.0014,-0.00184,0.071
0.465072751758,0.547224633158,-0.123991749087,-1.35619741855,0.0794394144949,1.89420583755,0.159147630584,-0.00543773172911,-0.00969541669981,6.17613266016e-05,-0.0145126404827,-0.000157839502039,0.0185423296511,-0.00410537919715,0.573802868098,0.818978778825,0.00218524534232,0.0,0.818939027763,-0.573743696586,-0.0117382424676,0.0,-0.00835976169237,0.00852518402664,-0.99992871527,0.0,0.661633648093,0.260849422646,0.303444316705,1.0,-0.00178,-0.00233942857143,0.09
0.465058179046,0.547060389479,-0.123991995052,-1.35638486655,0.0794375247979,1.89430996904,0.159135329469,0.000207541161891,-0.0142690786975,-0.0012988329816,-0.0165750617593,0.000197771184056,0.00864122123291,9.48849889727e-06,0.573815042902,0.818970048817,0.00225888941443,0.0,0.818931218212,-0.573755555722,-0.0117033763327,0.0,-0.00828882392076,0.008565613367,-0.99992896031,0.0,0.661619738338,0.260826322042,0.303480483526,1.0,-0.00208,-0.00273371428571,0.105
0.465037774742,0.546858545453,-0.123986843982,-1.35661452216,0.0794310489595,1.89443413173,0.159122638717,-0.000792361394031,-0.00769494112659,0.000343881862115,-0.0151806373345,2.66624566143e-05,0.00691756269362,-0.00177811111914,0.573829050017,0.818959989834,0.00234591331887,0.0,0.818922251691,-0.573769202759,-0.0116616702137,0.0,-0.00820458646868,0.00861309158641,-0.999929247204,0.0,0.661601667369,0.260798588233,0.303524739725,1.0,-0.00242,-0.00318057142857,0.122
0.465002782947,0.546632852444,-0.123986737779,-1.35691658496,0.0794225906106,1.89455855931,0.159112887804,-0.000768193243347,-0.0135011808329,0.000871173924634,-0.0179782705703,4.79164681114e-05,0.0110425224332,0.000108988966231,0.573864326604,0.818935137315,0.00239215877334,0.0,0.818897933106,-0.573804238755,-0.0116454988139,0.0,-0.00816443451702,0.00864203659595,-0.999929326109,0.0,0.661572730786,0.260749690803,0.303551595472,1.0,-0.00276,-0.00362742857143,0.139
0.464959803051,0.546376255712,-0.123989322359,-1.35730550003,0.0794132012028,1.89470345249,0.159066529142,-0.00245822439041,-0.0139542246028,0.000270448924905,-0.026743026068,-0.00140044032696,0.0105564556795,-0.00337220759838,0.573882629073,0.818922259543,0.00240993251076,0.0,0.818885176834,-0.573822359727,-0.0116496154215,0.0,-0.00815741327915,0.00865913665122,-0.999929235477,0.0,0.661531499356,0.260685283025,0.303560846207,1.0,-0.0031,-0.00407428571429,0.156
0.464917132488,0.546082318559,-0.123986173696,-1.35777105616,0.0793934710824,1.8948749018,0.158929419149,-0.00277921524774,-0.0172147533129,0.00290027791744,-0.0245986404976,-0.00258073667283,0.00444832287566,-0.00291815943736,0.573823901397,0.8189633943,0.00241575755552,0.0,0.818926288288,-0.573763513446,-0.0116581254531,0.0,-0.00816166158685,0.00866820528865,-0.999929122237,0.0,0.661478114929,0.260615920102,0.303562139602,1.0,-0.00346,-0.00454742857143,0.174
0.464869679608,0.545778574248,-0.123992439839,-1.35828831305,0.0793645796663,1.89504559092,0.158913044635,-0.00251897365199,-0.0159591099794,0.000548173203197,-0.0264366138556,-0.0083724028425,0.00721340662788,-0.00102345461977,0.57387490801,0.818927762839,0.00237825756478,0.0,0.818890152426,-0.573814630393,-0.011680543952,0.0,-0.00820100063655,0.00865086934177,-0.9999289505,0.0,0.661416848552,0.260530396914,0.303545974153,1.0,-0.0038,-0.00499428571429,0.191
0.464810697574,0.545464243099,-0.123990644363,-1.35883203051,0.0792541768559,1.89522249673,0.158840854578,-0.00206288093878,-0.014220695609,0.00172860663314,-0.0341064230989,-0.00465454364619,0.00885835926846,-0.0114852653093,0.573863807761,0.818935790193,0.00229097894684,0.0,0.818897677556,-0.573804509228,-0.0116501409658,0.0,-0.00822630172923,0.00856183643635,-0.999929508974,0.0,0.661356693073,0.260426137785,0.303524811618,1.0,-0.00412,-0.00541485714286,0.207
0.464748715176,0.545079816598,-0.123995311204,-1.35948896635,0.0792331679207,1.89543770643,0.158742849116,-0.00384887685978,-0.0231614099092,0.000278198433176,-0.0412926910642,-0.00103325947925,0.0154360900863,-0.0027143296968,0.573868555644,0.818932573205,0.00225128600155,0.0,0.81889376253,-0.573809212745,-0.0116935862501,0.0,-0.00828460953402,0.00855431021299,-0.999929091997,0.0,0.661277209074,0.260320717021,0.303503062406,1.0,-0.00446,-0.00586171428571,0.224
0.464689358489,0.544690339258,-0.123995661421,-1.36013174411,0.0792275909933,1.8956624308,0.158691017473,-0.00364707187293,-0.0249539408935,0.00078678547161,-0.0392475103891,-0.000448279586075,0.0182506406989,-0.00479973624208,0.573909304811,0.818904035408,0.00224444746109,0.0,0.818864825167,-0.573849662009,-0.0117350082172,0.0,-0.00832203039253,0.00857289454049,-0.999928622097,0.0,0.661200398418,0.260224430629,0.303492308542,1.0,-0.00478,-0.00628228571429,0.24
0.464630291771,0.544258611068,-0.124004128371,-1.36087503808,0.0791952476285,1.8959139945,0.158568658376,-0.00651445017577,-0.0276534137915,-0.00117239541003,-0.0411744023378,-0.00170945966846,0.0099201230422,-0.00752950270203,0.573897062823,0.818912744172,0.00219672860527,0.0,0.818872756415,-0.573837442048,-0.0117790409444,0.0,-0.00838560306866,0.00855896299555,-0.99992821033,0.0,0.661104467126,0.260101343945,0.303464959449,1.0,-0.00514,-0.00675542857143,0.258
0.464560441598,0.543776677648,-0.124005481642,-1.36166634142,0.0791600748,1.89619852876,0.158483359788,-0.00630096392905,-0.0337661547367,-0.000835818992235,-0.0497701238098,-0.000134160497023,0.0212704276854,-0.00464600108139,0.573919206966,0.818897263305,0.00218241357194,0.0,0.818857012526,-0.573859560445,-0.0117959664293,0.0,-0.00840744760333,0.00855718110838,-0.999928042149,0.0,0.661017977801,0.259988801912,0.303455203916,1.0,-0.00546,-0.007176,0.274
0.464493288571,0.543294707199,-0.124007720461,-1.36245887708,0.0791157407567,1.8964677657,0.158377296835,-0.00449273299498,-0.0273099346581,-0.000411249434602,-0.0502435122987,-0.000133195720747,0.024035190309,-0.0050696844135,0.573921121626,0.818896010906,0.00214857486066,0.0,0.818855258444,-0.573861544607,-0.0118211776367,0.0,-0.00844749336306,0.0085439598487,-0.999927817698,0.0,0.66092237837,0.259866464883,0.303442351096,1.0,-0.00578,-0.00759657142857,0.29
0.464418484392,0.542748082987,-0.124003104106,-1.36333505812,0.0790582776323,1.89677523386,0.158290966273,-0.00598744143281,-0.0336976786172,-0.00024763358728,-0.054194770913,-0.00504220490229,0.0165865950428,-0.0117029794928,0.573941789431,0.818881579357,0.00212796538315,0.0,0.818840547574,-0.573882279868,-0.0118335709954,0.0,-0.00846925473999,0.00853440956584,-0.999927715176,0.0,0.660817876603,0.25973444247,0.303438435614,1.0,-0.00612,-0.00804342857143,0.307
0.464346699816,0.542129398134,-0.12401065765,-1.36430294145,0.0789978549257,1.89713810961,0.158142979998,-0.0057669150295,-0.0336995286416,0.000417961387336,-0.0551696399908,-0.00672228986632,0.0220180247765,-0.00737254780839,0.573922395532,0.818895150238,0.00213628751193,0.0,0.818854276786,-0.573862905979,-0.0118230889333,0.0,-0.00845609683479,0.00853500801414,-0.999927821427,0.0,0.660707223435,0.259590714312,0.303446973533,1.0,-0.00648,-0.00851657142857,0.325
0.464273142037,0.54154849827,-0.124011617489,-1.36520207854,0.0789570579346,1.89746556474,0.15802606858,-0.00258084023522,-0.0378988985051,-0.000822957515758,-0.0577821436757,-0.00166606588979,0.0182956723705,-0.00884017850545,0.57392656309,0.818892189968,0.0021513462553,0.0,0.818851381337,-0.5738668812,-0.0118306739425,0.0,-0.00845362288608,0.00855173553514,-0.999927699426,0.0,0.660602061058,0.259458076853,0.303458172534,1.0,-0.0068,-0.00893714285714,0.341
0.464195118617,0.540895399656,-0.124011480801,-1.36621110184,0.0788900289137,1.8978445958,0.15789995526,-0.00531729430898,-0.040233232601,0.00102668094677,-0.0637771678849,-0.01080382052,0.0276178195586,-0.00726507157695,0.57392517593,0.818893120423,0.0021671775036,0.0,0.818852570072,-0.573865485016,-0.011816111635,0.0,-0.00843262651301,0.00855632755336,-0.999927837431,0.0,0.660485950997,0.259310293901,0.303472427101,1.0,-0.00714,-0.009384,0.358
0.464111627103,0.540282015305,-0.124009440273,-1.36715661014,0.0788351483268,1.89818409057,0.157784797744,-0.00410676665746,-0.0385644512314,0.000214265179828,-0.0672177189398,-0.000201170255228,0.0241166798247,-0.00560075547441,0.573935449796,0.818885898116,0.00217537041481,0.0,0.818845402839,-0.573875673246,-0.0118179865914,0.0,-0.00842935269364,0.00856421840141,-0.999927797482,0.0,0.660375706469,0.259166312013,0.303485273836,1.0,-0.00744,-0.00977828571429,0.373
0.464012981385,0.539554652653,-0.124017319474,-1.36827015705,0.0787690093091,1.89860947171,0.157639311314,-0.00691118700297,-0.0464761188423,-0.000442686467144,-0.0672187873335,-0.00944559527516,0.0235703526656,-0.00237208224934,0.573946628578,0.818877978854,0.00220685154268,0.0,0.818837930473,-0.573886766255,-0.0117970350971,0.0,-0.00839401097211,0.00857808742606,-0.999927975904,0.0,0.660253419306,0.258992135461,0.303506358524,1.0,-0.00778,-0.0102251428571,0.39
0.46388664999,0.538716335016,-0.124017993765,-1.3695758269,0.0787016767641,1.89911165252,0.157478104774,-0.003787045221,-0.0457406219061,1.36966210839e-06,-0.0731806904899,-0.00520980796499,0.0320148952649,-0.00795978097615,0.573972825173,0.818859523436,0.00224137072948,0.0,0.818819839614,-0.573912740039,-0.0117891465556,0.0,-0.00836746481309,0.0086020941931,-0.999927992161,0.0,0.660110282786,0.258787537075,0.303520697489,1.0,-0.00816,-0.0107245714286,0.409
0.463780826284,0.538032636963,-0.124019642216,-1.37063295386,0.0786395375663,1.89951805933,0.157339912615,-0.00781399460823,-0.0465397728704,-0.00170530089225,-0.0701890346534,-0.00359223851903,0.0170738190095,-0.0113328176234,0.573992675398,0.818845528192,0.00227078197879,0.0,0.818806281088,-0.573932531434,-0.0117673410059,0.0,-0.00833251933878,0.00861386393708,-0.999928182656,0.0,0.659989239725,0.258606742722,0.303535617949,1.0,-0.00848,-0.0111451428571,0.425
0.463668994923,0.537189007525,-0.12403078215,-1.37197154841,0.0785527984374,1.90002144449,0.157182360958,-0.00829777761239,-0.0441425560634,0.00131115272804,-0.0783265545072,-0.00669617133973,0.0329992144697,-0.00998655194294,0.574010289573,0.818833185786,0.00226896894433,0.0,0.818793967471,-0.573950204432,-0.011762166795,0.0,-0.00832913768073,0.00860958861325,-0.999928247651,0.0,0.65984463998,0.258409785584,0.303538248559,1.0,-0.00882,-0.011592,0.442
0.463551202195,0.53635035124,-0.124039602815,-1.37327422645,0.0784779319833,1.90051807365,0.157020836228,-0.00734716172896,-0.0454412513909,0.000253458321136,-0.0786944034153,-0.00547021177339,0.0380668761116,-0.00476044910968,0.574032400854,0.8188176107,0.00229566492949,0.0,0.818778755343,-0.573972228755,-0.0117463747071,0.0,-0.00830065036926,0.00862260736002,-0.999928372358,0.0,0.659700314352,0.258204909831,0.303553576545,1.0,-0.00916,-0.0120388571429,0.459
0.463440664642,0.535534516263,-0.124054521309,-1.37456407107,0.0784098533293,1.90098108502,0.156859793846,-0.00380373974643,-0.0495439829785,-0.00179018721422,-0.0810993167011,-0.00623689501169,0.0295339885795,-0.00431578110182,0.574054106311,0.818802415296,0.00228793225128,0.0,0.818763411077,-0.573993910451,-0.0117564598462,0.0,-0.0083131185909,0.00862228527045,-0.999928271556,0.0,0.659550500363,0.258001338592,0.303556045188,1.0,-0.00948,-0.0124594285714,0.475
0.463322342138,0.534634391224,-0.124060944208,-1.37600185054,0.0783245327843,1.90150466214,0.15669323208,-0.00734486597563,-0.0496735549851,-0.000298719776532,-0.0942223403862,-0.00103551238131,0.0328051672914,-0.00233375797473,0.574075108913,0.818787728067,0.00227433371781,0.0,0.818748535564,-0.574014949973,-0.0117651868264,0.0,-0.00832784937356,0.00861637420151,-0.999928199933,0.0,0.659381332794,0.257782450637,0.303552376269,1.0,-0.00982,-0.0129062857143,0.492
0.463196834343,0.533669032839,-0.124061726845,-1.37755962942,0.0782314218347,1.90207470742,0.156498577403,-0.00649309286825,-0.0602565106825,0.000127464682434,-0.093538951128,-0.00229891842624,0.0321737331754,-0.0135486520229,0.574079387396,0.81878478323,0.00225446656925,0.0,0.818745296224,-0.57401926618,-0.0117800198031,0.0,-0.00835135450464,0.00860866619462,-0.999928070285,0.0,0.65919586467,0.257550625473,0.303541263266,1.0,-0.01018,-0.0133794285714,0.51
0.463079825427,0.532805393896,-0.124064835182,-1.37895051088,0.078164548574,1.90260683619,0.156322183038,-0.00457255184187,-0.0523772621532,-0.000606843389973,-0.0912537054453,-0.0034770105997,0.0377968426345,-0.010445399796,0.574091251351,0.818776434652,0.00226540988995,0.0,0.818736957351,-0.574030950002,-0.0117902506065,0.0,-0.00835332479139,0.00862362055632,-0.999927924969,0.0,0.659035507921,0.257343200219,0.303534490835,1.0,-0.0105,-0.0138,0.526
0.462948509873,0.531828771441,-0.124057048903,-1.38051389147,0.0780735584451,1.90317976043,0.156125448382,-0.00848267841993,-0.0593496022234,0.000436568048471,-0.0936724745674,-0.00427397063313,0.0306641875789,-0.00871126800017,0.574093091862,0.818775168777,0.00225649557001,0.0,0.818735476555,-0.57403272247,-0.0118067719759,0.0,-0.00837195060795,0.00862582527826,-0.999927750181,0.0,0.658848228063,0.257112590982,0.303528231164,1.0,-0.01084,-0.0142468571429,0.543
0.462821259085,0.530830726325,-0.124054238542,-1.38212459615,0.0779609367855,1.90374783664,0.155911723766,-0.00719994871478,-0.0586030601825,0.00314835344086,-0.091700568033,-0.00448116287974,0.0331422844704,-0.0156369254934,0.574077585716,0.818786165817,0.00221068909287,0.0,0.818745933228,-0.574017452976,-0.0118240180582,0.0,-0.00841253025532,0.00859806198409,-0.999927648715,0.0,0.658650350588,0.256872655887,0.303514035963,1.0,-0.01118,-0.0146937142857,0.56
0.462699252239,0.529921246359,-0.124059929338,-1.3835902823,0.0778769498969,1.90427136601,0.155724435097,-0.00779561506673,-0.0596462990379,-0.00103082508421,-0.0995954585914,-0.00476576651151,0.0385474101406,-0.0125960051576,0.574085182866,0.818780911699,0.00218365560332,0.0,0.818740263947,-0.57402509064,-0.0118457759996,0.0,-0.00844578477468,0.00858849660115,-0.999927450591,0.0,0.658473708277,0.256648898038,0.303502713141,1.0,-0.01148,-0.015088,0.575
0.462544713739,0.528802045727,-0.124062060228,-1.38533335302,0.0777770476368,1.90492337617,0.155485258922,-0.00989580092843,-0.0584152434587,-0.000529997315653,-0.094793116515,-0.00450488243984,0.0424015329207,-0.016209302834,0.57408513984,0.818780872099,0.00220966095629,0.0,0.818740509136,-0.574024890644,-0.0118385186059,0.0,-0.00842491440544,0.00860562223065,-0.999927479412,0.0,0.658271380343,0.256381774946,0.303517863967,1.0,-0.01184,-0.0155611428571,0.593
0.462431075059,0.527830133382,-0.124059215213,-1.3868495565,0.0776735019202,1.90551404448,0.15527059457,-0.0104520935885,-0.0632698140328,0.000392889186127,-0.10354864049,-0.0177477599252,0.0439398679068,-0.0130462171665,0.574054778368,0.818802071475,0.00224189251405,0.0,0.81876223578,-0.57399451797,-0.0118085351326,0.0,-0.00838218039769,0.00861448880119,-0.999927762208,0.0,0.658094128519,0.25616474549,0.303531535433,1.0,-0.01214,-0.0159554285714,0.608
0.46227950491,0.526673811473,-0.124065019747,-1.38860741292,0.0775572346941,1.90619279148,0.155035016951,-0.00804058286646,-0.0607880179819,-0.000186138037252,-0.10055918779,-0.0075734971055,0.0378201859064,-0.0172669735553,0.574053843963,0.818802565225,0.00230006826812,0.0,0.818763617674,-0.573993497373,-0.0117622382196,0.0,-0.00831088660793,0.00863553654054,-0.999928175757,0.0,0.657894637214,0.255895402059,0.303567636906,1.0,-0.01248,-0.0164022857143,0.625
0.46210620357,0.525373159915,-0.12406569822,-1.39065075766,0.0774383945896,1.90692816864,0.154765465418,-0.00759855448992,-0.0720245748501,0.000732798832101,-0.111413667215,-0.00528351647252,0.0454588382338,-0.0153782731971,0.574053529524,0.818802795272,0.00229664908169,0.0,0.818763703759,-0.573993092577,-0.0117759917211,0.0,-0.00832411449439,0.0086406288784,-0.999928021735,0.0,0.657647195888,0.255586233938,0.303573855001,1.0,-0.01286,-0.0169017142857,0.644
0.4619528457,0.524259235355,-0.124071613955,-1.39241492424,0.0773234329285,1.90756154895,0.154522806294,-0.0100333654289,-0.0698350896239,0.000195430119107,-0.113474585195,-0.00164751458589,0.0416883355033,-0.0106825874999,0.574048325183,0.818806499958,0.00227659473105,0.0,0.818767190081,-0.573988009127,-0.0117813720051,0.0,-0.00834008647144,0.00862724403997,-0.999928004217,0.0,0.657435277294,0.255311584564,0.303572598502,1.0,-0.01318,-0.0173222857143,0.66
0.461786624912,0.523008659598,-0.124086616291,-1.39442844208,0.0771967833154,1.90831515695,0.154238568949,-0.0102386784577,-0.0682585057762,-0.00299461439881,-0.114694905481,-0.00403989089631,0.0380314798253,-0.0169624387586,0.574036284502,0.818814984737,0.00226091702755,0.0,0.818775556151,-0.573976117735,-0.0117792962252,0.0,-0.00834751259635,0.00861309286455,-0.999928064245,0.0,0.657197708104,0.255001667853,0.303559170453,1.0,-0.01354,-0.0177954285714,0.678
0.461623768462,0.521769187828,-0.124091104379,-1.39637646862,0.0770804509354,1.90907386704,0.153977104833,-0.0098770336615,-0.0769379369685,-0.000102926130006,-0.109774685196,-0.00549538002613,0.0464459169613,-0.0231678892301,0.574031853566,0.818817978429,0.00230134597487,0.0,0.81877910061,-0.573971560096,-0.0117549779369,0.0,-0.00830444001743,0.00863219195767,-0.999928258196,0.0,0.6569717963,0.254709736689,0.303568858062,1.0,-0.01388,-0.0182422857143,0.695
0.46148248454,0.520672502427,-0.124093840243,-1.39816183885,0.0769674389627,1.9097535147,0.15374606997,-0.0146195903464,-0.0766661906221,-0.00030975165786,-0.117222614351,-0.00918033376936,0.0448550426113,-0.0235468367335,0.574025293665,0.818822614829,0.00228792035269,0.0,0.818783607498,-0.573965098352,-0.0117565670256,0.0,-0.00831351658398,0.00862204452045,-0.999928270323,0.0,0.656757999361,0.254445664527,0.303548452744,1.0,-0.01418,-0.0186365714286,0.71
0.461312779726,0.519352358719,-0.124099658603,-1.40020031169,0.0768402211642,1.91048314245,0.15346076757,-0.00958885574772,-0.0792369668794,0.00109589166821,-0.122136017874,-0.00906101026064,0.0389355421832,-0.0187738036018,0.574013851447,0.81883063659,0.00228775666603,0.0,0.818791674082,-0.573953706864,-0.0117509034749,0.0,-0.00830909332975,0.00861854340572,-0.999928337271,0.0,0.656494699022,0.254110518254,0.303568090761,1.0,-0.01454,-0.0191097142857,0.728
0.461140388725,0.518013912113,-0.124106380286,-1.40230744712,0.0766983791256,1.9112371261,0.15318379151,-0.0108591339192,-0.0782726263319,-0.000466972428178,-0.123364426817,-0.0145081617652,0.0431924490533,-0.0160458250578,0.573998598895,0.818841342507,0.0022827983757,0.0,0.818802350236,-0.573938510838,-0.0117492095573,0.0,-0.00831071263399,0.00861335633297,-0.999928368509,0.0,0.656233100115,0.253797557833,0.30357966344,1.0,-0.01488,-0.0195565714286,0.745
0.460970682875,0.516729178845,-0.124106550938,-1.40430047272,0.076571157905,1.911958495,0.152899985114,-0.00967988728672,-0.0831060827067,-6.89404079326e-05,-0.121342471193,-0.00706570619555,0.0429513868129,-0.016457510868,0.573978884446,0.818855161565,0.00228286851173,0.0,0.818816155285,-0.573918783099,-0.0117507936827,0.0,-0.00831217697654,0.00861412291573,-0.999928349733,0.0,0.656004664845,0.25351118051,0.303585752681,1.0,-0.01518,-0.0199508571429,0.76
0.460770847137,0.515273092909,-0.124116975639,-1.40661433213,0.076421807775,1.91283756012,0.152580582948,-0.0112126850828,-0.084499885926,-0.00138550805303,-0.129262350034,-0.00610791983074,0.0496617197202,-0.016318417805,0.573970341108,0.81886112493,0.0022918351295,0.0,0.818822345911,-0.573910322016,-0.0117326476488,0.0,-0.00829226086663,0.00861096337797,-0.999928542307,0.0,0.655730825789,0.253154049897,0.303582045775,1.0,-0.01554,-0.020424,0.778
0.460579334479,0.513887282382,-0.124117771839,-1.40886554605,0.076295910455,1.91363484883,0.152273776113,-0.0125740741675,-0.0799401995497,0.000130116959656,-0.137767851925,-0.0122137287426,0.0420990073972,-0.0127533585315,0.573960950118,0.818867851647,0.00223968294799,0.0,0.818828203763,-0.573900932438,-0.0117830119113,0.0,-0.00836353454149,0.0085970697974,-0.999928068253,0.0,0.655447191664,0.25281284638,0.303551095964,1.0,-0.01588,-0.0208708571429,0.795
0.460400900536,0.512572358529,-0.124116271468,-1.41099699285,0.0761708845601,1.91436872598,0.151983247397,-0.0110005530224,-0.0812769324668,0.00137254080086,-0.140423950727,-0.00547618737008,0.0486683764075,-0.0119875781267,0.573945936412,0.818878553828,0.00217325996993,0.0,0.818837868451,-0.573886001688,-0.0118384609929,0.0,-0.00844722097779,0.00857434922438,-0.999927559873,0.0,0.655172786433,0.252490777033,0.303521477658,1.0,-0.0162,-0.0212914285714,0.811
0.46020549072,0.511129952503,-0.124120524772,-1.41328868006,0.076035250363,1.91524316705,0.151658466657,-0.00988050627539,-0.0867155701494,0.00143633417348,-0.134638158728,-0.0143641771819,0.0545419564052,-0.0222897738135,0.573926553724,0.818892083439,0.00219397180327,0.0,0.818851641347,-0.573866513305,-0.0118305228372,0.0,-0.00842903683037,0.00858655393066,-0.999927608595,0.0,0.654897006331,0.252144677073,0.303516809495,1.0,-0.01654,-0.0217382857143,0.828
0.459985154616,0.509567871971,-0.124122862687,-1.41577629051,0.0758765206188,1.91617704041,0.151303525289,-0.0121141266252,-0.0897899350621,-0.00071010299671,-0.141224132944,-0.0146684404604,0.0492220478502,-0.0225373210883,0.573900462391,0.818910382285,0.00218905323099,0.0,0.818869919694,-0.573840488787,-0.0118277195592,0.0,-0.00842983727026,0.00858064877162,-0.999927652538,0.0,0.654575444952,0.251743245212,0.30350759636,1.0,-0.01692,-0.0222377142857,0.847
0.45980894361,0.508242913991,-0.124120297058,-1.4178752384,0.0757411820381,1.91691321881,0.151013662413,-0.0113719137192,-0.0896140053551,0.000289341233223,-0.140208520449,-0.0110265764892,0.0458595588803,-0.0147390228114,0.573882193615,0.818923259977,0.00216079173721,0.0,0.818882374031,-0.573822277238,-0.0118489893596,0.0,-0.00846366551033,0.00856952326326,-0.999927462188,0.0,0.6543269348,0.25144481893,0.30349893731,1.0,-0.0172,-0.0226057142857,0.861
0.459591655927,0.506721982089,-0.124125261008,-1.42027129703,0.0755897199287,1.91778196069,0.150688780112,-0.016720874367,-0.0874241378764,0.00032113196751,-0.136674402269,-0.00131659087166,0.0535486663373,-0.0173109465566,0.573879604607,0.818925085421,0.00215656796729,0.0,0.818884169506,-0.573819730599,-0.0118482323115,0.0,-0.00846549639483,0.00856560315751,-0.999927480277,0.0,0.654014764997,0.251047797516,0.303498642058,1.0,-0.01756,-0.0230788571429,0.879
0.459353112858,0.505028739701,-0.124134536361,-1.42287154381,0.0754236683999,1.91878655721,0.150315951,-0.0156310446727,-0.0903637153301,-0.000600470842174,-0.1432527554,-0.00854781143002,0.0577694864774,-0.022143206997,0.573866875377,0.818933816014,0.00222738294373,0.0,0.818893908535,-0.573806814427,-0.0118005586,0.0,-0.00838595042948,0.00859610551775,-0.999927888803,0.0,0.653723538977,0.250663673968,0.303530737743,1.0,-0.0179,-0.0235257142857,0.896
0.459142524963,0.50346465118,-0.124133353473,-1.42519911032,0.0752756629249,1.91966910584,0.150000364748,-0.0138588907182,-0.0959154415838,0.00099276716703,-0.140779894327,-0.0127770855696,0.0552376986631,-0.0205016282848,0.57385970801,0.818938562553,0.00232662596984,0.0,0.818899984446,-0.573799310946,-0.0117436422797,0.0,-0.00828246461249,0.00864464353631,-0.999928332891,0.0,0.653442483235,0.250307138552,0.303591853418,1.0,-0.01822,-0.0239462857143,0.912
0.458910769536,0.501775401098,-0.12414404316,-1.42770871501,0.0751150441434,1.92059648242,0.149648019649,-0.01368950441,-0.0963215986526,-0.00060701280817,-0.151107383204,-0.00787610118345,0.0489005025815,-0.0233686456249,0.573853595612,0.818942594292,0.00241349490085,0.0,0.818905214045,-0.57379295226,-0.0116895358586,0.0,-0.00818837010916,0.00868467294871,-0.999928760988,0.0,0.653137543135,0.249911011634,0.303657359519,1.0,-0.01856,-0.0243931428571,0.929
0.458670696356,0.50006017824,-0.12414473685,-1.43029814178,0.0749554578691,1.92150513328,0.14928842267,-0.0163343177358,-0.0929494373699,-0.000688393946798,-0.147454407173,-0.0120075825444,0.0537242149168,-0.0264449433383,0.573844894681,0.818948595353,0.00244579605087,0.0,0.818911533623,-0.573784028267,-0.0116848579568,0.0,-0.00816609652287,0.00870835434131,-0.999928737177,0.0,0.652808941843,0.2495052501,0.303700435084,1.0,-0.0189,-0.02484,0.946
0.458434913797,0.498487967177,-0.124144162579,-1.43276996767,0.0747997911968,1.92242605046,0.14893819454,-0.0191413658803,-0.0923058208336,0.00102633092294,-0.155065524224,-0.0142950425187,0.0610597352813,-0.0194562533768,0.573834495327,0.818955836108,0.00246117421412,0.0,0.818918963404,-0.573773563513,-0.0116780174708,0.0,-0.00815178080968,0.00871691932568,-0.999928779357,0.0,0.652504724449,0.249116603065,0.303700250752,1.0,-0.01922,-0.0252605714286,0.962
0.45817042812,0.49680394893,-0.124142643325,-1.43542043491,0.0746389773986,1.92338437263,0.148532781605,-0.0176553767565,-0.0965987390822,0.00136153860683,-0.152963438375,-0.0131658139966,0.0529535269017,-0.0297834169041,0.57380884378,0.81897382289,0.00245664861573,0.0,0.818936778506,-0.573747810803,-0.0116939860868,0.0,-0.00816772897925,0.00872212046678,-0.99992860386,0.0,0.652173821923,0.248691934751,0.303695611082,1.0,-0.01956,-0.0257074285714,0.979
0.457891698406,0.495046103132,-0.124145148766,-1.43830976251,0.0744608493633,1.92438320339,0.148126189724,-0.0101080560311,-0.0987650459274,0.000738470851519,-0.164486526516,-0.0158017093279,0.05699868782,-0.0269059003015,0.573803442152,0.818977938462,0.00234371234334,0.0,0.818939264001,-0.573742655227,-0.0117726102037,0.0,-0.00829698003455,0.00867468933413,-0.999927952348,0.0,0.651799156115,0.248228488779,0.303631835323,1.0,-0.01992,-0.0261805714286,0.997
0.457642495014,0.493545133054,-0.124149243451,-1.44075766283,0.0743035423044,1.92526115546,0.147782936573,-0.0143824008656,-0.093992112308,0.00224870177326,-0.170087095424,-0.0084375496028,0.0581256287362,-0.0284476556947,0.573809835424,0.818973639275,0.00227987826416,0.0,0.81893410663,-0.573749261977,-0.0118093302028,0.0,-0.00836361268761,0.00864354630469,-0.999927666929,0.0,0.651491258228,0.247827544045,0.303588179417,1.0,-0.0210422857143,-0.0276555755102,1.012
0.457339754552,0.491567752378,-0.124153651395,-1.44389764936,0.0741041351157,1.9264204869,0.147333529813,-0.0198550769142,-0.110065067315,0.000202760123849,-0.182150539271,-0.0138829988848,0.0691516825493,-0.0330030382731,0.573796264075,0.818983169675,0.00227200885669,0.0,0.818943528415,-0.573735716234,-0.0118140630679,0.0,-0.00837214737921,0.00863967854219,-0.999927628933,0.0,0.651098270284,0.247328170432,0.303570387276,1.0,-0.0227805714286,-0.0299401795918,1.03
0.457015488308,0.489595109378,-0.124157521336,-1.44711624919,0.0739056416925,1.92754105413,0.146875497391,-0.023608447521,-0.12191102899,0.00121405680418,-0.196011340793,-0.0164025301568,0.0675477617607,-0.0332846528505,0.573796066406,0.818983596699,0.00216550582389,0.0,0.81894239305,-0.573735758249,-0.0118904782438,0.0,-0.00849584208403,0.00859629967098,-0.999926959482,0.0,0.650681620413,0.246803575729,0.303507742831,1.0,-0.0244222857143,-0.0320978612245,1.047
0.456693081426,0.487546708856,-0.12417854189,-1.45029267246,0.0737064833349,1.92872925209,0.146415293774,-0.0174699302882,-0.130426541393,-0.00111710321791,-0.205034468247,-0.0136579519815,0.0737841687197,-0.0357261680238,0.573802236778,0.818979154501,0.00221008203469,0.0,0.818938604298,-0.573741824444,-0.0118586750995,0.0,-0.00844415378384,0.00861462165233,-0.999927239633,0.0,0.650292428982,0.246280632033,0.303523072496,1.0,-0.0259674285714,-0.0341286204082,1.063
0.456317837788,0.485244490183,-0.124197575422,-1.45381431189,0.0734906544913,1.9300947557,0.145898490986,-0.0230667929791,-0.141316718097,-0.000770142200462,-0.207517219694,-0.0174321851254,0.0793497970098,-0.0362718071003,0.573816043829,0.818969149888,0.00232943708212,0.0,0.818930245755,-0.57375526337,-0.0117854675127,0.0,-0.00831556762382,0.00867050375902,-0.999927834246,0.0,0.649872491972,0.245696377378,0.303564571932,1.0,-0.0276091428571,-0.0362863020408,1.08
0.455940217308,0.482951133923,-0.124232699852,-1.45734998618,0.0732659741485,1.93129788228,0.145360241319,-0.0242125198456,-0.140716968616,0.000185781955161,-0.227454653111,-0.0106262185803,0.0711583048083,-0.0348091045804,0.573822039752,0.81896505662,0.00229120727945,0.0,0.818925628626,-0.573761376977,-0.0118086396627,0.0,-0.00835641789335,0.00865255264806,-0.999927649189,0.0,0.649418747205,0.245087617591,0.303578422088,1.0,-0.0291542857143,-0.0383170612245,1.096
0.455542077182,0.480509779153,-0.124264684092,-1.46113154981,0.0730395150809,1.93264243057,0.144803450602,-0.0248844822585,-0.155558939938,0.000516948221814,-0.243605706833,-0.0166166574801,0.0910167350009,-0.0384479189865,0.573838691733,0.818953376724,0.00229554432158,0.0,0.818913911368,-0.573777913044,-0.0118177481446,0.0,-0.00836121309739,0.00866150107435,-0.999927531632,0.0,0.648938871833,0.244449656252,0.303588815403,1.0,-0.0306994285714,-0.0403478204082,1.112
0.455024179315,0.477464369242,-0.124282859066,-1.46575727338,0.0727559548283,1.93435167873,0.144123963629,-0.0301873578517,-0.160986126676,0.000704219510902,-0.250130624705,-0.0195075328267,0.0865792315759,-0.0295259205788,0.573867463446,0.818932899699,0.00240563728202,0.0,0.81889482375,-0.573806218908,-0.0117659542518,0.0,-0.0082553163407,0.00872223016952,-0.999927883626,0.0,0.648366125133,0.2436659611,0.30364532849,1.0,-0.0325342857143,-0.0427593469388,1.131
0.454567778447,0.47478939498,-0.124304575142,-1.46986676807,0.072492912731,1.93586762924,0.143544086055,-0.0250382701707,-0.170429783173,-0.00164292211281,-0.264295292145,-0.0219732683545,0.0987309984864,-0.0417458297512,0.57390897089,0.818903628666,0.00246718273956,0.0,0.818866420112,-0.573847565528,-0.0117262292143,0.0,-0.00818702247092,0.00875024970793,-0.999928200319,0.0,0.647853676845,0.242966988062,0.303672582806,1.0,-0.0340794285714,-0.0447901061224,1.147
0.454069935901,0.471841498855,-0.1243120147,-1.47444521754,0.0722117597143,1.93743950095,0.14285884464,-0.0282334846188,-0.173692207259,-0.00196727065715,-0.274391407584,-0.0118770339017,0.094314751015,-0.0491048026573,0.573903602296,0.818907517768,0.00242477143454,0.0,0.818869463853,-0.573842041699,-0.0117838554516,0.0,-0.00825861103081,0.00874853681362,-0.999927626605,0.0,0.647247950801,0.242199363548,0.303668070826,1.0,-0.0357211428571,-0.0469477877551,1.164
0.453616115306,0.46910086635,-0.124306623625,-1.478568,0.0719513379069,1.93899109084,0.14220736762,-0.027644684314,-0.178696218832,-0.000705992291741,-0.272288186761,-0.0181138773337,0.103661752265,-0.0436747248628,0.573863492718,0.818935182239,0.00257019818333,0.0,0.818898989723,-0.573801372649,-0.0117122277384,0.0,-0.00811692838779,0.00882612254337,-0.999928104933,0.0,0.646727948956,0.241520944815,0.303732914583,1.0,-0.0371697142857,-0.0488516244898,1.179
0.453073634441,0.465882518982,-0.124302417356,-1.48344884955,0.0716250092961,1.94079135788,0.141428286232,-0.0342239551431,-0.19004339241,0.000629363075011,-0.293377592135,-0.0215480015265,0.102045371991,-0.0461593498797,0.573808198333,0.818973574906,0.00267993152675,0.0,0.818938865721,-0.573745763139,-0.0116481926925,0.0,-0.00800211671715,0.00887869948994,-0.99992856486,0.0,0.646103064428,0.2407081901,0.303786252621,1.0,-0.0388114285714,-0.0510093061224,1.196
0.452498756174,0.462573012857,-0.124318446009,-1.48864774697,0.0712735886284,1.94256676068,0.140648316868,-0.0342689693578,-0.197288633819,-0.00363095688467,-0.306191463108,-0.0202315826317,0.112661369829,-0.0512586040405,0.573798935372,0.81898040886,0.00257265834602,0.0,0.818944227821,-0.573736792378,-0.0117128856942,0.0,-0.00811675144006,0.00882787500805,-0.999928090899,0.0,0.645405165873,0.239821751115,0.30374736862,1.0,-0.0404531428571,-0.0531669877551,1.213
0.451894483214,0.459167222788,-0.124318759981,-1.49397385168,0.0709118007748,1.94441851206,0.139868587975,-0.0371849850161,-0.199925879889,-0.000523740646315,-0.312912736476,-0.0260873159004,0.109111946068,-0.0498794060897,0.573803518303,0.818977407004,0.00250521494909,0.0,0.81894026423,-0.573741527701,-0.0117579723892,0.0,-0.00819232561448,0.00879855671689,-0.999927732989,0.0,0.644692424272,0.238916095641,0.303717741946,1.0,-0.0420948571429,-0.0553246693878,1.23
0.451169970733,0.455259766955,-0.124332712411,-1.50017250476,0.0704959690647,1.94661519996,0.138908453683,-0.0355926848142,-0.203467914766,-0.000979216764209,-0.327256524301,-0.0172200333294,0.115177609154,-0.0524734876024,0.573792329841,0.818985525918,0.00241193973939,0.0,0.818947114003,-0.573730629622,-0.0118125357817,0.0,-0.00829065174507,0.0087533620456,-0.999927319232,0.0,0.643871197647,0.237844230704,0.303645415672,1.0,-0.0439297142857,-0.0577361959184,1.249
0.450608920388,0.452204504849,-0.124377474197,-1.5048226832,0.0701737187337,1.94826869378,0.138158211218,-0.0386435867759,-0.223368143493,-0.0031566429727,-0.329781171917,-0.0209842643587,0.128256860073,-0.0541629016456,0.573793696365,0.818984478331,0.00244236894209,0.0,0.818946685886,-0.573732118492,-0.0117698253477,0.0,-0.00823819737596,0.00875379008025,-0.999927749022,0.0,0.643267168923,0.237009749198,0.303674837197,1.0,-0.0452817142857,-0.0595131102041,1.263
0.449911992693,0.448357680027,-0.124416408551,-1.51061459546,0.0697794255415,1.95038312315,0.137294883776,-0.0466318819645,-0.22873993354,0.000495476223401,-0.350757387861,-0.0247367403447,0.111882622314,-0.0534948903196,0.573839909333,0.818951716319,0.0025674299632,0.0,0.818915789639,-0.573778130394,-0.0116761920957,0.0,-0.00808925813592,0.00880294343315,-0.999928533491,0.0,0.642517022838,0.235987621776,0.303740881268,1.0,-0.0469234285714,-0.0616707918367,1.28
0.449090363876,0.443926366043,-0.124439466087,-1.51741451493,0.0693258864263,1.95263729996,0.136271912509,-0.041356213526,-0.232403029595,-0.00247114078343,-0.359679294784,-0.0276622191032,0.128838636863,-0.0557931891548,0.573870941909,0.818930273668,0.00246896810901,0.0,0.818892780482,-0.57380920593,-0.0117624897413,0.0,-0.00821610049817,0.00877214011764,-0.999927770017,0.0,0.641575894459,0.234786066945,0.303735616206,1.0,-0.0487582857143,-0.0640823183673,1.299
0.448389294847,0.440153312491,-0.124444861081,-1.52323615133,0.0689102770414,1.95471130064,0.135302290682,-0.0420439709092,-0.23696077397,-0.000702765598868,-0.368009849961,-0.0255385671302,0.130436198514,-0.0677866765983,0.573797835163,0.818981492939,0.00247092846243,0.0,0.818944150181,-0.57373623462,-0.0117455893809,0.0,-0.00820191704686,0.00876331489025,-0.99992796384,0.0,0.640789689269,0.233773318457,0.303725380857,1.0,-0.0503034285714,-0.066113077551,1.315
0.447575341194,0.436032457679,-0.124450211016,-1.5295699422,0.0684941041526,1.95696901634,0.134281755957,-0.0442601093837,-0.246879796257,-0.000187609234788,-0.372640439189,-0.0169092782878,0.133867424847,-0.0577854283883,0.573801911294,0.818978517359,0.00251029888662,0.0,0.818941478608,-0.57373994298,-0.0117507167816,0.0,-0.00818348342508,0.00879854102952,-0.999927805531,0.0,0.639887201184,0.232576869135,0.303720721485,1.0,-0.0520417142857,-0.0683976816326,1.333
0.446730216312,0.43173295473,-0.124478768904,-1.53600366688,0.0680315746769,1.95932195066,0.133254098832,-0.0526649961024,-0.247996999534,-0.00115975348651,-0.3917590413,-0.0294740225515,0.139040717967,-0.0603824450632,0.573818567298,0.818966355247,0.00266602676607,0.0,0.818931754095,-0.573756498437,-0.0116193604715,0.0,-0.00798636887595,0.00885086916134,-0.999928937489,0.0,0.63909193724,0.231476521532,0.303795640677,1.0,-0.0535868571429,-0.0704284408163,1.349
0.445905580909,0.427637516713,-0.12451890225,-1.54240936156,0.0675614196752,1.96136309464,0.132245560272,-0.0521058035411,-0.259098455469,-0.00502481121603,-0.39932621689,-0.0304450771024,0.129794052549,-0.0644542050213,0.573840003757,0.818952114238,0.00241486551759,0.0,0.818914192597,-0.57377876459,-0.0117567584763,0.0,-0.00824278235654,0.00872423394233,-0.999927969546,0.0,0.638175445417,0.230294609257,0.303714168019,1.0,-0.055132,-0.0724592,1.365
0.445009693031,0.423112094071,-0.124568614473,-1.54927366596,0.0670620232153,1.96370466802,0.13109808934,-0.0538961055421,-0.266857244525,-0.00301818827086,-0.406397299418,-0.0314040643244,0.133812345321,-0.065167557356,0.573821876007,0.818964888187,0.00239027877845,0.0,0.81892684218,-0.573760936719,-0.0117457036097,0.0,-0.00824802905258,0.00869757258754,-0.999928158543,0.0,0.63722374761,0.229030281852,0.303728185296,1.0,-0.0567737142857,-0.0746168816326,1.382
0.444060370712,0.418504842458,-0.124578712785,-1.55623368936,0.0665920692318,1.96614661442,0.129995612883,-0.0587542109845,-0.276177410137,0.000787902890594,-0.404899921854,-0.0268268279523,0.148711254954,-0.068811431957,0.57386516696,0.818934335604,0.0024639438353,0.0,0.818897089408,-0.573803783679,-0.011726964502,0.0,-0.00818995126959,0.00874758129513,-0.999928199682,0.0,0.636263151295,0.227758159549,0.303754748432,1.0,-0.0584154285714,-0.0767745632653,1.399
0.443130156012,0.414063817066,-0.12459999213,-1.56282831157,0.0661478920178,1.96857450421,0.128880552078,-0.0600312875144,-0.2766256629,0.00214206172731,-0.420251199701,-0.0282738521361,0.143421664699,-0.070833662764,0.573865896919,0.818933089297,0.00269712993572,0.0,0.818898945604,-0.573803776519,-0.0115969755987,0.0,-0.00794967676658,0.00886395632264,-0.999929113946,0.0,0.635319882082,0.226462298297,0.303838455353,1.0,-0.0600571428571,-0.078932244898,1.416
0.442058637095,0.408976952946,-0.124617956533,-1.57063217517,0.0655891416505,1.97106794423,0.127580340465,-0.0634156736987,-0.287518392777,-0.00621289276046,-0.433830225011,-0.0263234414717,0.13380617753,-0.0670882657571,0.573860088019,0.818937786297,0.00249969100798,0.0,0.818900774833,-0.573798328657,-0.0117365203194,0.0,-0.00817731888537,0.00878228857307,-0.99992799884,0.0,0.634301244583,0.225168563836,0.303779243444,1.0,-0.0616022857143,-0.0809630040816,1.432
0.441021115618,0.404091236837,-0.124655541004,-1.5781304008,0.0650633564136,1.97359507139,0.126366763355,-0.0618967514701,-0.294121792754,0.00054394516171,-0.43980973497,-0.0357843782858,0.150495810252,-0.0754304281963,0.573904950071,0.818906616721,0.00241003639424,0.0,0.818868234424,-0.573843300254,-0.0118079763942,0.0,-0.0082868063078,0.00875032682091,-0.999927377674,0.0,0.633158112627,0.223686747535,0.303731198728,1.0,-0.0633405714286,-0.0832476081633,1.45
0.43999529022,0.399312071388,-0.124666228667,-1.58512863824,0.0645764571881,1.97613870547,0.125138992423,-0.0640504600078,-0.308161870072,-0.00286331247257,-0.435758828575,-0.0311093858385,0.163573296878,-0.0715532057605,0.573889510395,0.818916605376,0.00267772273769,0.0,0.818881809059,-0.573827007663,-0.0116573998145,0.0,-0.0080100428758,0.00888296893629,-0.999928463479,0.0,0.632193937751,0.222376413508,0.303841817645,1.0,-0.0648857142857,-0.0852783673469,1.466
0.438864715539,0.394166771159,-0.124672872612,-1.59280203549,0.0639825552346,1.97876087126,0.123839115477,-0.0671474404637,-0.308247201725,-0.00136580619446,-0.461567217152,-0.0334171198879,0.145639785858,-0.0691441699462,0.573886377935,0.818918645849,0.00272462896315,0.0,0.818884712789,-0.573823999103,-0.0116013841795,0.0,-0.00793728515189,0.00888920449649,-0.999928988253,0.0,0.631093271034,0.220921320084,0.303878697632,1.0,-0.0665274285714,-0.0874360489796,1.483
0.437854745375,0.389568611532,-0.124689069873,-1.59981841769,0.0634600007221,1.98097259512,0.122658528104,-0.0677429478031,-0.30965256969,-0.00245720122463,-0.473456146337,-0.0365186510011,0.14931978994,-0.0781146284446,0.573879832373,0.818923830002,0.00253880932249,0.0,0.818887211105,-0.573817803367,-0.0117307684485,0.0,-0.0081499487499,0.00881121955975,-0.999927967778,0.0,0.630032976608,0.219592967529,0.303820078442,1.0,-0.067976,-0.0893398857143,1.498
0.436681267255,0.38427406338,-0.124694407836,-1.6078135092,0.0628587265385,1.98361422414,0.121207130157,-0.0700521023999,-0.317152349435,-0.00163758437807,-0.464576250972,-0.0385461544448,0.166428187169,-0.0836990329417,0.573787883409,0.818988461446,0.00247219994867,0.0,0.818950861061,-0.573725986633,-0.0117782142658,0.0,-0.0082280146402,0.0087829760101,-0.999927576931,0.0,0.628842313532,0.218083224052,0.30379357432,1.0,-0.0696177142857,-0.0914975673469,1.515
0.43531004883,0.378213734507,-0.124699730225,-1.61669255241,0.0622417638939,1.98675282308,0.119654210278,-0.0733535007006,-0.313068115284,-3.09201132923e-06,-0.475290319648,-0.0376132591368,0.157335137046,-0.0848592034704,0.573801064239,0.818978358276,0.00274485970444,0.0,0.818944184134,-0.573738063192,-0.0116535410447,0.0,-0.00796932085645,0.00893487316881,-0.999928326415,0.0,0.627564852501,0.21639048945,0.303893011856,1.0,-0.0714525714286,-0.0939090938775,1.534
0.43399663063,0.372708514644,-0.124732600697,-1.62502765558,0.0615704350958,1.98942459516,0.11814296714,-0.078794720006,-0.328488382937,-0.00540988906405,-0.49808609542,-0.0384608914073,0.153469254319,-0.0916450548027,0.573774289166,0.818997681735,0.00257085712334,0.0,0.818961385339,-0.573712055805,-0.0117248986486,0.0,-0.00812788957346,0.00883304816244,-0.99992795474,0.0,0.626307647094,0.214739972843,0.303833565266,1.0,-0.0730942857143,-0.0960667755102,1.551
0.432655891335,0.367085775085,-0.124808160871,-1.63344753719,0.0609258212065,1.99212312983,0.116743233447,-0.078354175341,-0.335047908199,-0.00969042923421,-0.496208019803,-0.0348241466525,0.164247743596,-0.0794846538045,0.573900298838,0.818909729968,0.00245927994838,0.0,0.818872005306,-0.573838482624,-0.011780563933,0.0,-0.00823614752665,0.00877487360806,-0.999927581111,0.0,0.625036165724,0.213048846828,0.303807337733,1.0,-0.074736,-0.0982244571428,1.568
0.431441953789,0.361992656033,-0.124826108896,-1.64077231829,0.0603423945255,1.99468991479,0.115357225936,-0.085005154022,-0.340809755806,-0.000861292889111,-0.495405470415,-0.0345545642732,0.170773067489,-0.093007067063,0.573849100455,0.818944788938,0.00271835985318,0.0,0.818910877318,-0.573786862442,-0.0115913070718,0.0,-0.00793303408776,0.00887792651607,-0.999929122184,0.0,0.623896673433,0.211500055753,0.303929981311,1.0,-0.0762811428571,-0.100255216327,1.584
0.429915699802,0.355907753689,-0.124845580692,-1.64990519097,0.0596765604452,1.9975960764,0.11365024228,-0.0880921989176,-0.342596394375,-0.00170246568902,-0.514019813304,-0.0351847489399,0.160791863597,-0.0967715039997,0.573855794526,0.818940503699,0.00259333584561,0.0,0.818904450087,-0.573793416261,-0.0117202382295,0.0,-0.00811029491312,0.00884959126784,-0.99992795133,0.0,0.622560297666,0.209762586711,0.303870318507,1.0,-0.0779228571429,-0.102412897959,1.601
0.428604161341,0.350765903566,-0.124881356227,-1.6576525549,0.0590854848837,2.00004065672,0.112236136658,-0.0923569881331,-0.340017579534,-0.002092211881,-0.51846123349,-0.0438275922248,0.163049790492,-0.10147583803,0.573891544828,0.818915904114,0.00244615308644,0.0,0.818877653047,-0.573829401006,-0.0118302486346,0.0,-0.00828446369774,0.00879254904684,-0.999927026709,0.0,0.621355720137,0.208187836218,0.303799671388,1.0,-0.0793714285714,-0.104316734694,1.616
0.427081154459,0.344697962439,-0.124901073133,-1.66629175459,0.0584460648957,2.00300832256,0.11058135436,-0.0907010338548,-0.353071850579,0.000151969772641,-0.508878085608,-0.0305179930885,0.175655009286,-0.0852428976784,0.573903476205,0.818906491015,0.00277594573276,0.0,0.818872591673,-0.573840210767,-0.01165495668,0.0,-0.00795152348481,0.00896213857911,-0.999928224097,0.0,0.620064688938,0.206432145,0.303950765057,1.0,-0.0810131428571,-0.106474416327,1.633
0.425342768915,0.337937973466,-0.1249085546,-1.67628019028,0.0576360781035,2.00613205084,0.108689182166,-0.0936508540454,-0.348786511401,-0.00228876711485,-0.529013701698,-0.0376105680305,0.157734029686,-0.113574564419,0.573870662256,0.818929867436,0.00266122615796,0.0,0.818894330685,-0.573807638102,-0.0117310071489,0.0,-0.00807999579814,0.00891151542918,-0.999927646663,0.0,0.618480898739,0.204400326984,0.303920830503,1.0,-0.082848,-0.108885942857,1.652
0.42384933629,0.332164332215,-0.124909938788,-1.68488034015,0.0569139574003,2.00878569033,0.107072624656,-0.100848427276,-0.362525502363,-0.00167488281319,-0.530694892619,-0.0393314956382,0.169356730963,-0.104267759841,0.57383047142,0.818958590278,0.0024828170894,0.0,0.818920661188,-0.573768031028,-0.0118297992494,0.0,-0.00826371374591,0.00882169933762,-0.999926941659,0.0,0.617093180203,0.202655488649,0.303852225895,1.0,-0.0843931428571,-0.110916702041,1.668
0.422236762271,0.325842075135,-0.124899356355,-1.69381011215,0.0562181334205,2.01180271543,0.105262608347,-0.100345438649,-0.36546941224,0.000377566737745,-0.535532170219,-0.0401572841938,0.173735162612,-0.0996058620567,0.573735622885,0.819023956144,0.00281801299838,0.0,0.818990505736,-0.573672125889,-0.0116443287864,0.0,-0.00792052121628,0.00898886518356,-0.999928230248,0.0,0.615707361355,0.200845391708,0.304005329686,1.0,-0.0860348571428,-0.113074383673,1.685
0.420405179516,0.319182435621,-0.124934752307,-1.70362006446,0.0554094229125,2.01486865284,0.103400892198,-0.0998034709444,-0.371060444483,-0.00215375145618,-0.547585883124,-0.0476444108254,0.171694583888,-0.107489936129,0.573796532639,0.818981632695,0.00271502140083,0.0,0.818946805164,-0.573733338681,-0.0117018502522,0.0,-0.00802605665867,0.00893811128866,-0.999927843687,0.0,0.614132691143,0.198774995193,0.303957432247,1.0,-0.0877731428571,-0.115358987755,1.703
0.418862240247,0.313527132027,-0.124978307755,-1.71192839436,0.0547301633034,2.01735840392,0.101713901414,-0.105110508659,-0.38004616489,-0.00130139253049,-0.549499415023,-0.0456719009782,0.173129156463,-0.11292274155,0.573756548615,0.819010137863,0.00256201114007,0.0,0.818973039694,-0.573693605376,-0.0118133105474,0.0,-0.00820556967471,0.00887635323579,-0.999926936821,0.0,0.61276418602,0.197019571489,0.30390856446,1.0,-0.0892217142857,-0.11726282449,1.718
0.416934653833,0.3065857697,-0.124993299374,-1.72173167361,0.053885181447,2.02058488427,0.0996965703233,-0.109077589919,-0.386041734537,0.000524583527332,-0.548916155859,-0.0391352717104,0.170436396032,-0.111110844935,0.573724679656,0.819031619313,0.00281876211227,0.0,0.818998476255,-0.573661519592,-0.0116061937259,0.0,-0.00788897617191,0.00896749430433,-0.999928671507,0.0,0.61121421986,0.194924735399,0.304035700972,1.0,-0.09096,-0.119547428571,1.736
0.415040095291,0.300043578446,-0.125035132019,-1.73132370052,0.0531029660801,2.02344961858,0.0977387386442,-0.113303055945,-0.389384355757,-0.00296040374903,-0.573425085933,-0.0475778333733,0.168291215331,-0.108687454461,0.573741683237,0.819020262593,0.00265278697432,0.0,0.818984530707,-0.57367861177,-0.0117446056455,0.0,-0.00809737875069,0.00891113287414,-0.999927509457,0.0,0.609618776801,0.192848937823,0.303964366372,1.0,-0.0926017142857,-0.121705110204,1.753
0.413313103833,0.294196523678,-0.125123730468,-1.7398116899,0.0524268270535,2.02601186961,0.0960418620671,-0.1150343527,-0.39842870701,-0.00289511141722,-0.55548399371,-0.0479804788667,0.178824645563,-0.115024856613,0.573867055534,0.818932656484,0.0025794608266,0.0,0.818895655915,-0.573803892682,-0.0118213521582,0.0,-0.00820094455644,0.00889636510358,-0.999926796919,0.0,0.608217949895,0.190962248353,0.303932026586,1.0,-0.0940502857143,-0.123608946939,1.768
0.411197127526,0.286992496722,-0.125158699532,-1.7499278807,0.0515644019916,2.02928056776,0.0938652534041,-0.120272383034,-0.39465666933,-0.0009986488327,-0.566321274114,-0.0522808149242,0.172627444724,-0.116390881322,0.573854301982,0.818940726012,0.00284152731529,0.0,0.818907571824,-0.573790700015,-0.0116347877679,0.0,-0.00789791165355,0.00900379459823,-0.999928274765,0.0,0.606580210444,0.188735312955,0.30404748733,1.0,-0.0957885714286,-0.12589355102,1.786
0.409152943314,0.280202679005,-0.125182608089,-1.75980250328,0.0506900179312,2.03210184518,0.091770136963,-0.119837395487,-0.398410122926,-0.000367792841184,-0.581607228751,-0.0574906110536,0.170467606684,-0.126494785602,0.573818330623,0.818966761544,0.00259110569617,0.0,0.818930053463,-0.573755283892,-0.0117978236301,0.0,-0.00817552223145,0.00889191298358,-0.999927044699,0.0,0.604876234054,0.186562010882,0.303962086713,1.0,-0.0974302857143,-0.128051232653,1.803
0.407156331032,0.273659583283,-0.125231436483,-1.7689670859,0.0499107544048,2.03496228708,0.0898022287625,-0.126942653375,-0.414482207503,-0.00215524924693,-0.569358148298,-0.0522758369492,0.18295677779,-0.12162821857,0.573873331947,0.818927644443,0.00276748038086,0.0,0.818893410208,-0.57380984634,-0.0116871666073,0.0,-0.00798309002706,0.00897339745443,-0.999927871605,0.0,0.603355680364,0.184498338265,0.30404495591,1.0,-0.0989754285714,-0.130081991837,1.819
0.404978071535,0.26672060955,-0.125299988853,-1.77882173001,0.049048469974,2.03797134327,0.0876167053788,-0.132250995087,-0.408613396043,-0.00734663835981,-0.583898560905,-0.0519022832262,0.17098004258,-0.121693393478,0.573896602479,0.81891119121,0.00281024488871,0.0,0.818877684927,-0.573833162095,-0.0116441448695,0.0,-0.00792306137842,0.00898395497688,-0.999928254252,0.0,0.601695602085,0.182252205687,0.304055156579,1.0,-0.100617142857,-0.132239673469,1.836
0.402734506031,0.259665789354,-0.125373271904,-1.78894224307,0.0481391008781,2.04079244186,0.0854316335003,-0.132811732479,-0.412929930677,-0.00437950702599,-0.594635255814,-0.0506896352238,0.162834735909,-0.133397483424,0.573957615382,0.818869201462,0.00257556653319,0.0,0.818832365014,-0.573894688418,-0.0117979452885,0.0,-0.00818302763284,0.00888064875981,-0.99992708341,0.0,0.599916598696,0.179931807531,0.303984355853,1.0,-0.102258857143,-0.134397355102,1.853
0.400456150177,0.252455534269,-0.125370075239,-1.79883872356,0.0472600563603,2.04381997136,0.0832186697898,-0.130132346214,-0.423312114176,0.00296847933478,-0.588627660683,-0.043507894594,0.178997865405,-0.133854952477,0.573960712457,0.818866171921,0.0028354790407,0.0,0.818832955095,-0.573897135212,-0.0116368701452,0.0,-0.00790191814695,0.00900106325967,-0.999928267702,0.0,0.598222226486,0.177685975971,0.304117486719,1.0,-0.103900571429,-0.136555036735,1.87
0.398139180728,0.245317464244,-0.125364870429,-1.80902926893,0.0463795722347,2.04675181892,0.0808643893969,-0.131609129437,-0.42254988217,-0.000602280601193,-0.605539444468,-0.0409903868995,0.171466075056,-0.126867345284,0.573876496991,0.818925532805,0.00273584035484,0.0,0.818890411074,-0.573812589404,-0.0117623889432,0.0,-0.00806281622839,0.00899068509434,-0.999927076629,0.0,0.59640560567,0.175393558829,0.304046668403,1.0,-0.105542285714,-0.138712718367,1.887
0.395890571138,0.238455761465,-0.125369042791,-1.81861389118,0.0455227076687,2.04947909362,0.0786243055099,-0.137741748931,-0.445500719235,0.00185713464624,-0.584986432552,-0.0469475914911,0.16916237775,-0.139568007091,0.573820299929,0.818964931972,0.00272955879555,0.0,0.818929422936,-0.573756082081,-0.0118027719631,0.0,-0.00810011132976,0.00900815959217,-0.999926617936,0.0,0.594691116796,0.173197372718,0.304056140399,1.0,-0.107087428571,-0.140743477551,1.903
0.393612212336,0.231465276418,-0.125350951104,-1.82815093728,0.0446594451963,2.05236625892,0.0764341601132,-0.140174494555,-0.42996630971,0.00244704554623,-0.610602636231,-0.0653815357755,0.169139478926,-0.137056378068,0.573800323334,0.818978016272,0.00299077024525,0.0,0.818946149028,-0.573735479095,-0.011642676716,0.0,-0.00781933582785,0.00913002722039,-0.999927747685,0.0,0.593010770373,0.171020513848,0.304167355065,1.0,-0.108632571429,-0.142774236735,1.919
0.390934782031,0.223634266314,-0.125380427207,-1.83923141677,0.0435916040211,2.0553332621,0.0737704594665,-0.156409340301,-0.43694861057,-0.00103439785934,-0.62157099372,-0.0586734538334,0.163087310253,-0.146434156862,0.573707762765,0.819043817848,0.00271556417838,0.0,0.819008079154,-0.573643558023,-0.011814462342,0.0,-0.00811895276009,0.00900229108206,-0.999926517981,0.0,0.590965089418,0.168425214632,0.304069117863,1.0,-0.110370857143,-0.145058840816,1.937
0.388330277003,0.216065927844,-0.125458167597,-1.84948144028,0.0426766094333,2.05834912854,0.0712579756337,-0.150056275291,-0.442214399768,-0.00965865931084,-0.595171678959,-0.0481198447371,0.175771313413,-0.148351962858,0.573746487537,0.819015776577,0.00297870085193,0.0,0.818983621809,-0.573681538183,-0.0116647699358,0.0,-0.00784495596076,0.00913230381575,-0.99992752622,0.0,0.589142319666,0.165960754707,0.304184912131,1.0,-0.112012571429,-0.147216522449,1.954
0.385774672537,0.208968812395,-0.125491524485,-1.85928589303,0.0417576968057,2.06107115745,0.0688505473061,-0.158187564334,-0.450084313693,-0.0017678717468,-0.612006466316,-0.0583933937987,0.163041511472,-0.165705539615,0.573773672728,0.818996763944,0.00296985423166,0.0,0.818964363455,-0.573708597542,-0.0116860343141,0.0,-0.00786714484739,0.00913751953399,-0.999927304242,0.0,0.587347157164,0.163586144188,0.304179722897,1.0,-0.113557714286,-0.149247281633,1.97
0.383008368745,0.201380359472,-0.125571870445,-1.86989845516,0.0406969967421,2.06382614268,0.0662169938803,-0.166075885251,-0.445425586961,-0.00285035606507,-0.617547970041,-0.066507461494,0.170429983739,-0.163988783703,0.573779311653,0.818993753346,0.00269822176233,0.0,0.818957669713,-0.573715029627,-0.0118383655676,0.0,-0.00814769393974,0.00900251197958,-0.999926282214,0.0,0.58534968318,0.160984839238,0.304085757299,1.0,-0.115199428571,-0.151404963265,1.987
0.379795482048,0.192721021799,-0.12564070684,-1.88156716211,0.0396052810108,2.06719517678,0.0632410184232,-0.17696981824,-0.448145593229,-0.00821040314083,-0.618729429372,-0.0640935798917,0.179182785762,-0.159566021443,0.573862973272,0.818934195988,0.002969419249,0.0,0.818901947366,-0.573798070836,-0.0116671078705,0.0,-0.00785089772098,0.00912716014373,-0.99992752655,0.0,0.583226671344,0.158084208392,0.304182824657,1.0,-0.117034285714,-0.153816489796,2.006
0.377157926139,0.185872339143,-0.125768377614,-1.89101028387,0.0387286624133,2.0695956051,0.0607713449662,-0.174164171356,-0.45588349545,-0.00777172797274,-0.633594748019,-0.0639307253113,0.158840433706,-0.163097874757,0.573961261478,0.8188658705,0.00281129036946,0.0,0.818830912074,-0.573896152668,-0.0118275224342,0.0,-0.00807192113638,0.0090906861777,-0.999926099026,0.0,0.581433544675,0.155671105412,0.304123393603,1.0,-0.118482857143,-0.155720326531,2.021
0.374135067363,0.177982838353,-0.125855949633,-1.90153473844,0.0376837208927,2.07248328408,0.0579845720108,-0.174554648701,-0.462005651784,-0.00136031005373,-0.622057300456,-0.0637265789588,0.171015385798,-0.163752725337,0.574031051882,0.818816357126,0.00297853636525,0.0,0.818784007814,-0.573965841627,-0.0116922236959,0.0,-0.00786435729492,0.00915065358797,-0.999927206062,0.0,0.579470049724,0.152984017861,0.30421195253,1.0,-0.120124571429,-0.157878008163,2.038
0.371103437304,0.170085936291,-0.125834657578,-1.9122611372,0.0365847244676,2.07524681744,0.0551360990349,-0.179625924062,-0.466252965733,-0.000803473307246,-0.642616077654,-0.0649810163915,0.159948988325,-0.170738426101,0.573941158411,0.818879690572,0.00288893603987,0.0,0.818846054222,-0.573876128188,-0.0117505694909,0.0,-0.00796456462217,0.00910990473665,-0.999926784993,0.0,0.577381221183,0.150339780988,0.30418165746,1.0,-0.121766285714,-0.160035689796,2.055
0.367970133336,0.162125183007,-0.125856188679,-1.92304426552,0.0355302357768,2.07798860412,0.0521471573016,-0.1792976197,-0.470732861229,-0.000362915326424,-0.619817447049,-0.0605233358942,0.156407843867,-0.176448796158,0.57386182144,0.818935531543,0.00281992398555,0.0,0.818900451564,-0.57379643064,-0.0118513085305,0.0,-0.00808755104372,0.00911042592883,-0.999925793075,0.0,0.575268402206,0.147630639884,0.304143874772,1.0,-0.123408,-0.162193371429,2.072
0.36497055955,0.154453360885,-0.125843438085,-1.9330329303,0.0344845567876,2.08072711475,0.0493805248492,-0.186621501449,-0.476854972391,-0.000248011620988,-0.633656570828,-0.0751656367622,0.164042255637,-0.177742046372,0.573805993533,0.818973577549,0.00311576050717,0.0,0.818943131414,-0.573740501867,-0.0116073652466,0.0,-0.00771863605247,0.00921218377717,-0.999927776556,0.0,0.573350359281,0.145103022269,0.304284388878,1.0,-0.124953142857,-0.164224130612,2.088
0.361652284603,0.146363722616,-0.125861141883,-1.94399756273,0.0333703814914,2.08324795694,0.0463298103329,-0.201996865803,-0.469643262633,-0.00379319823857,-0.64994737325,-0.0667158093638,0.144903156888,-0.178763758804,0.573780827702,0.818992260662,0.00282588720567,0.0,0.818957061451,-0.57371520384,-0.0118719536505,0.0,-0.00810193969195,0.00912635538462,-0.999925531333,0.0,0.571119434215,0.142293282894,0.304183395258,1.0,-0.126594857143,-0.166381812245,2.105
0.358471172974,0.138607785264,-0.125943034626,-1.95407589132,0.032373518087,2.08588542237,0.0434308419585,-0.194956669714,-0.488039728154,-0.00211015237547,-0.624412594129,-0.0672935403889,0.167485335868,-0.187114169687,0.573842674929,0.818948027317,0.00307569248094,0.0,0.818916245374,-0.573776344135,-0.0117318742699,0.0,-0.0078431867083,0.00925116276492,-0.9999264475,0.0,0.569148128123,0.139637872048,0.304288907095,1.0,-0.12814,-0.168412571429,2.121
0.354775920674,0.129874183263,-0.125989909554,-1.96560807346,0.0311356030229,2.08868964275,0.0399810666952,-0.209541169387,-0.487087615059,-0.00502561507319,-0.641275493862,-0.0737525622541,0.152459180969,-0.194588437527,0.573759808414,0.819006221926,0.00303934145499,0.0,0.818974021488,-0.573693677211,-0.0117415398121,0.0,-0.00787289476307,0.00922614295895,-0.999926445202,0.0,0.566821908829,0.136592019221,0.304287260983,1.0,-0.129878285714,-0.17069717551,2.139
0.351593242461,0.122572498117,-0.126113201849,-1.975317552,0.0301061696755,2.09096138979,0.037194644439,-0.210354770761,-0.490809293196,-0.00882169716523,-0.633444092698,-0.0692083024743,0.164848900498,-0.18063920798,0.573908412873,0.81890258637,0.00290423326242,0.0,0.818868345845,-0.573842414166,-0.0118432587469,0.0,-0.00803205763429,0.00917530717133,-0.99992564713,0.0,0.564841987198,0.13395563985,0.30423197891,1.0,-0.131326857143,-0.172601012245,2.154
0.347675493131,0.113663602146,-0.126200477934,-1.98678470363,0.0288844006338,2.09388649474,0.033622997783,-0.218899101721,-0.488321623783,-0.00015896917087,-0.654040405258,-0.0691182489287,0.150689827935,-0.199829556228,0.573923312141,0.818891182456,0.00316385477594,0.0,0.81886093185,-0.573857135505,-0.0116408427475,0.0,-0.00771713142214,0.0092718866084,-0.999927236353,0.0,0.562548049846,0.130820395341,0.304330866095,1.0,-0.133065142857,-0.174885616327,2.172
0.343693611507,0.104754073135,-0.126216582729,-1.99849315846,0.0275754196867,2.09646617441,0.0300225545712,-0.222006196321,-0.496980893321,0.00102108502493,-0.644220097005,-0.072424705106,0.149461131186,-0.203994365711,0.573861736283,0.818935130892,0.00295057998626,0.0,0.818901728996,-0.573795847386,-0.0117911267842,0.0,-0.00796329073089,0.00918288834044,-0.999926127553,0.0,0.560076752463,0.127668938192,0.304265201898,1.0,-0.134803428571,-0.177170220408,2.19
0.340120349686,0.0966965779098,-0.12622239461,-2.00869884531,0.0264852466783,2.09893268636,0.0267130509817,-0.225922470839,-0.495121503442,-0.000261309668303,-0.652229923687,-0.0623691816288,0.147783223244,-0.210346001221,0.573755715773,0.819008491219,0.00319637782627,0.0,0.818978541889,-0.573689310133,-0.0116391694677,0.0,-0.00769899906431,0.00929598383693,-0.999927152396,0.0,0.557961911128,0.124909719312,0.304373440159,1.0,-0.136348571429,-0.179200979592,2.206
0.337126941365,0.090169655029,-0.126231144135,-2.01719796275,0.0256156416179,2.10080316266,0.024050361931,-0.235062455002,-0.503093714239,-0.00243224278439,-0.653311625513,-0.0678850322194,0.137655098474,-0.206267421976,0.573769415343,0.818999105302,0.00314172452506,0.0,0.818967627198,-0.573702209996,-0.011770588308,0.0,-0.00783783789258,0.00932675382024,-0.999925787226,0.0,0.556142176938,0.122611442368,0.304329457917,1.0,-0.137604,-0.180850971429,2.219
0.332333512265,0.0800101654892,-0.126364864355,-2.03014073883,0.024144217983,2.10363855986,0.0196816151406,-0.24260750282,-0.517597843279,-0.0078064856481,-0.631502004974,-0.0698193995865,0.156685719514,-0.215339037778,0.573750176712,0.819012498756,0.0031636222649,0.0,0.818981490743,-0.573683119952,-0.0117363794815,0.0,-0.0077974749198,0.00932487741293,-0.999926120294,0.0,0.553257052401,0.118742655932,0.30436903228,1.0,-0.139632,-0.183516342857,2.24
0.3279454919,0.0708229208257,-0.126457249983,-2.04184245676,0.0228463323455,2.10624181309,0.0158091675195,-0.249317793494,-0.508712008074,-0.00340383562854,-0.653308643851,-0.0650900341052,0.133379404134,-0.232955826222,0.573813121341,0.818968263752,0.00319869425726,0.0,0.818937584926,-0.57374578484,-0.0117368340805,0.0,-0.00777700701321,0.00935446045068,-0.999926003378,0.0,0.550880497557,0.115614513579,0.304368067885,1.0,-0.141273714286,-0.18567402449,2.257
0.324120192763,0.0631088883082,-0.126575673365,-2.05174022228,0.0217132032449,2.10815639674,0.0124068225459,-0.260694388702,-0.521329459979,-0.0106578770198,-0.649913587136,-0.0747956980921,0.135669810606,-0.230109603274,0.57386346984,0.818933822352,0.00297648993137,0.0,0.818899502795,-0.573796039997,-0.0119354809816,0.0,-0.00806662623374,0.00928696145799,-0.999924338082,0.0,0.548690321479,0.112737263439,0.304297606688,1.0,-0.142722285714,-0.187577861224,2.272
0.319453047938,0.0537587745018,-0.126671950618,-2.06326536575,0.0203568918844,2.1107826824,0.00832643539144,-0.264095021621,-0.510546052818,-0.00291099031733,-0.649902795289,-0.0666543657686,0.142818652881,-0.222968008254,0.573938615188,0.818879989504,0.00328263403891,0.0,0.818850746189,-0.573871401639,-0.0116540442785,0.0,-0.00765960133055,0.00937687390066,-0.999926699685,0.0,0.546223393187,0.109335379216,0.304430633613,1.0,-0.144460571429,-0.189862465306,2.29
0.315557396125,0.045973705271,-0.126659716463,-2.07317043688,0.0192523887889,2.11270613418,0.00484943238212,-0.26191142903,-0.515358398706,0.00150407518744,-0.658507915327,-0.0701407688168,0.127393833511,-0.229446948974,0.573869840646,0.818928714993,0.0031484374407,0.0,0.818896766621,-0.573801934996,-0.0118394220264,0.0,-0.00788921506251,0.00937271292551,-0.999924953453,0.0,0.5439780846,0.10654492914,0.304356705392,1.0,-0.145909142857,-0.191766302041,2.305
0.311003189693,0.036984049741,-0.126687687878,-2.08419819776,0.017962138115,2.11494217045,0.000774325127694,-0.272425668559,-0.537621223171,-0.00414290516568,-0.637916422122,-0.0795171701313,0.145492138749,-0.2364491429,0.573800194636,0.818976950578,0.00329210566816,0.0,0.81894705567,-0.573732021828,-0.0117487888343,0.0,-0.00773334970234,0.00943769926868,-0.999925559797,0.0,0.541509336582,0.10332331405,0.304437563597,1.0,-0.147550857143,-0.193923983673,2.322
0.306591343652,0.0285830454964,-0.126789072102,-2.09461961426,0.0166786651421,2.11702169309,-0.00309264437118,-0.275628613785,-0.543127692535,-0.00999698004224,-0.663635667081,-0.0788062927665,0.124421469821,-0.242865639867,0.57383254827,0.818954283012,0.0032917750721,0.0,0.818924726504,-0.57376479076,-0.0117048753055,0.0,-0.00769720132307,0.00941253564484,-0.9999260759,0.0,0.539160741298,0.100197028655,0.30443720353,1.0,-0.149096,-0.195954742857,2.338
0.301773091969,0.0195687985201,-0.126896564841,-2.10580043842,0.0153745259018,2.11901314754,-0.0074051869638,-0.286152958523,-0.535368365686,-0.00639515166598,-0.642279855817,-0.0738253579299,0.122117809514,-0.251466572908,0.573819553418,0.818963854886,0.00317354797573,0.0,0.818931860458,-0.573751121084,-0.0118745897837,0.0,-0.0079041852956,0.00941297258361,-0.999924457048,0.0,0.536568808708,0.0968304391344,0.304392815281,1.0,-0.14998,-0.197116571429,2.355
0.29681727805,0.0105138562713,-0.127019299031,-2.11669209074,0.014000614465,2.12112507286,-0.0116671880986,-0.296699302125,-0.528227706116,-0.00903922302489,-0.655244804552,-0.0809906692954,0.113462038994,-0.2600108107,0.57392973907,0.818885987209,0.00333788330951,0.0,0.818856982933,-0.573861758505,-0.0116906171208,0.0,-0.00765794639556,0.00944302369737,-0.999926089849,0.0,0.534086914691,0.0934275321962,0.304487853795,1.0,-0.14998,-0.197116571429,2.372
0.291843927974,0.00158910764734,-0.127059465585,-2.12773221547,0.0127342508893,2.12298260658,-0.0160426922278,-0.28512869942,-0.52029438186,-0.00359933247842,-0.642725557385,-0.0764738617796,0.102821192178,-0.253865569815,0.573927864449,0.818887898505,0.00318794475608,0.0,0.818855518593,-0.573858682093,-0.0119415057124,0.0,-0.00794947779361,0.00946421124372,-0.999923614337,0.0,0.53146010513,0.0900884802086,0.304398349016,1.0,-0.14998,-0.197116571429,2.389
0.286846082289,-0.00738633657567,-0.12704421807,-2.13835027113,0.0113926837427,2.12497361567,-0.020492685349,-0.291283136567,-0.52553090189,0.00100346247579,-0.617882789254,-0.0746702633112,0.11503713159,-0.254301037037,0.573794333636,0.818980513989,0.00342451374833,0.0,0.818952092471,-0.573725412853,-0.0117204004102,0.0,-0.00763419596991,0.00952979552128,-0.999925448246,0.0,0.5289761441,0.0868173549702,0.304515357821,1.0,-0.14998,-0.197116571429,2.406
0.281752024877,-0.0162601545782,-0.127055123143,-2.14910464663,0.0100242127481,2.12672761029,-0.0249490466386,-0.307137569363,-0.515395573023,-0.00137284636381,-0.629559377678,-0.08675229867,0.0870660364572,-0.26370443409,0.573731797484,0.819024802431,0.00330824110083,0.0,0.818994529534,-0.573662861566,-0.0118164611988,0.0,-0.0077803095372,0.0094890935819,-0.999924709109,0.0,0.526376572932,0.0834950753647,0.304471069245,1.0,-0.14998,-0.197116571429,2.423
0.276530093722,-0.0251149712974,-0.127157430875,-2.15962224574,0.0086929887412,2.12836758725,-0.0295042788797,-0.309692392169,-0.51901414145,-0.0109752335414,-0.602130205804,-0.0793077772039,0.105009073445,-0.272850253663,0.573771648847,0.818996953606,0.00329117998249,0.0,0.818966168358,-0.573702414193,-0.0118617846645,0.0,-0.00782675829243,0.00950150373826,-0.99992422877,0.0,0.523822507321,0.0801051402263,0.30449040365,1.0,-0.14998,-0.197116571429,2.44
0.271514582116,-0.0333982188193,-0.127298303264,-2.169373387,0.00740310785468,2.13008369274,-0.0337774156877,-0.309799714584,-0.520624533386,-0.00651570894734,-0.623715452927,-0.079261638159,0.0847971408135,-0.268779720477,0.573914627311,0.818896183226,0.0034334468317,0.0,0.818868058177,-0.573845885906,-0.011693991075,0.0,-0.00760604175905,0.00952307581824,-0.99992572682,0.0,0.521335784528,0.0766775805537,0.304543462068,1.0,-0.14998,-0.197116571429,2.457
0.266191439065,-0.0421530140917,-0.12733395146,-2.17983827006,0.00615014621398,2.13153457715,-0.0384708871,-0.315610155338,-0.511642833141,0.000163391253122,-0.618151396729,-0.0746923094234,0.0863352494095,-0.285277700202,0.573881204206,0.818920135464,0.00330485874659,0.0,0.818888861753,-0.573811095802,-0.0119417474584,0.0,-0.00788312460207,0.00955964048172,-0.999923231864,0.0,0.518857387382,0.0735431290065,0.304469878582,1.0,-0.14998,-0.197116571429,2.473
0.260812758597,-0.0508948191862,-0.127348111444,-2.18986086245,0.00483594909194,2.13317806204,-0.0431068638443,-0.315515561358,-0.508857012211,-0.000767403130283,-0.577105831858,-0.0840985040893,0.100815686784,-0.271326582498,0.57388697868,0.818915024677,0.00355878631885,0.0,0.818888003126,-0.573817168999,-0.0117064853749,0.0,-0.00754466932741,0.009632632403,-0.999925142377,0.0,0.516393511417,0.0702430179773,0.30458512893,1.0,-0.14998,-0.197116571429,2.49
0.255023632002,-0.060033395692,-0.127365054896,-2.20061165744,0.00341769502234,2.13461589244,-0.048199673051,-0.321773626516,-0.50959178447,-0.00162974296717,-0.596619029523,-0.0768391597457,0.0732148212872,-0.274382147537,0.573796248632,0.818979162388,0.00342688356182,0.0,0.818949828672,-0.573726145469,-0.0118420870269,0.0,-0.00773247869153,0.00960157567795,-0.999924006371,0.0,0.513648008008,0.0667181169811,0.304531508968,1.0,-0.14998,-0.197116571429,2.508
0.249809984368,-0.0681417789396,-0.127432088942,-2.21010850777,0.00217935441649,2.13583694185,-0.0527721453813,-0.330834822245,-0.509471580377,-0.0081454495851,-0.580271028588,-0.0768506832375,0.0825873198148,-0.286249766509,0.573776132948,0.818993695772,0.00332000687052,0.0,0.818962194881,-0.573705468397,-0.0119877348665,0.0,-0.00791332554155,0.0095974210483,-0.999922631401,0.0,0.511197660891,0.0635607429208,0.304476289485,1.0,-0.14998,-0.197116571429,2.524
0.243770419679,-0.0772613810949,-0.127606632196,-2.22036192661,0.000788969909878,2.1373282644,-0.0579683555555,-0.334111354431,-0.503274395727,-0.00732988485308,-0.57200729558,-0.0723356738922,0.075253794906,-0.300594961703,0.573927102031,0.818886836982,0.00357444729098,0.0,0.81885961258,-0.573856716176,-0.0117537690733,0.0,-0.00757393201616,0.00967296338057,-0.999924531819,0.0,0.508602989908,0.0599270336709,0.304593528674,1.0,-0.14998,-0.197116571429,2.542
0.238796528074,-0.0848024202183,-0.12763307559,-2.22910675513,-0.000333664674559,2.13832025021,-0.0623351909973,-0.328584883255,-0.503404965688,8.55530004721e-05,-0.578255853744,-0.0743182737871,0.0637948630983,-0.287460552194,0.573882790579,0.818918377625,0.00346126655959,0.0,0.818888559871,-0.573811394693,-0.0119480849937,0.0,-0.00779854233289,0.00969137853563,-0.999922626966,0.0,0.506282391083,0.0570108584403,0.304529529115,1.0,-0.14998,-0.197116571429,2.557
0.233073199527,-0.0933310277742,-0.127638554178,-2.23874515779,-0.00161634751917,2.1394611379,-0.0673623391991,-0.342726262692,-0.506830644084,-0.000799748188789,-0.552003102266,-0.0715866663506,0.0721965661887,-0.292431494721,0.573807047707,0.818971259505,0.00350642381143,0.0,0.818941808011,-0.573735220903,-0.0119565165356,0.0,-0.00778043436386,0.00973247789028,-0.999922368844,0.0,0.50372940487,0.053716394991,0.30455157813,1.0,-0.14998,-0.197116571429,2.574
0.226535731529,-0.10279235646,-0.127696519048,-2.24932685014,-0.00313951923112,2.14070785054,-0.0730367490175,-0.340057766934,-0.501764382942,-0.000280084922683,-0.562514253494,-0.0808855098819,0.0516061431478,-0.29035214373,0.573784340039,0.818986939288,0.00355967743457,0.0,0.818958871185,-0.573713195674,-0.0118441258721,0.0,-0.00765809792211,0.00971139033482,-0.999923518292,0.0,0.500915307448,0.0499731332426,0.304597358692,1.0,-0.14998,-0.197116571429,2.593
0.221279100065,-0.110220863615,-0.127816330625,-2.25779635144,-0.00427890694906,2.14151609049,-0.0775632936896,-0.352168520064,-0.490666276062,-0.00975672975952,-0.563862886395,-0.0748716129129,0.0582140785306,-0.305150287609,0.57388483093,0.818917084364,0.00342879960374,0.0,0.818886189126,-0.57381274666,-0.0120452451054,0.0,-0.00789672012011,0.00972056724263,-0.999921573117,0.0,0.498599092025,0.0469669400348,0.304525108139,1.0,-0.14998,-0.197116571429,2.608
0.214886581911,-0.119152786249,-0.12793160405,-2.26749716184,-0.00568404449055,2.14263684073,-0.0831056946303,-0.348430736585,-0.494880337639,-0.00126892463663,-0.527987476677,-0.0740775005134,0.0677833883966,-0.316348902521,0.573938839418,0.818878231348,0.00366029132833,0.0,0.818851604264,-0.573867498331,-0.011785221837,0.0,-0.00755028475254,0.00976141990726,-0.999923851041,0.0,0.495989514048,0.043380089013,0.304646891899,1.0,-0.14998,-0.197116571429,2.626
0.209257656863,-0.126935337378,-0.12792738179,-2.27620077232,-0.00682851813502,2.14343414382,-0.0881120311319,-0.35173529638,-0.482108509401,-0.0016285520539,-0.548040645138,-0.0749975298167,0.0499223493807,-0.312795148522,0.573828458517,0.8189557197,0.00362991307515,0.0,0.818927753593,-0.573756026068,-0.011920731847,0.0,-0.00768001489222,0.00981328067659,-0.999922355432,0.0,0.493563123666,0.0403114899359,0.304603944841,1.0,-0.14998,-0.197116571429,2.642
0.203446426195,-0.13475914375,-0.127972154575,-2.28487455581,-0.00809711814632,2.14413152322,-0.0931563369012,-0.371686668596,-0.482015389485,-0.00562298445587,-0.541683664511,-0.0834083364782,0.0430004035558,-0.320742297623,0.57381218669,0.818967633203,0.00351241686043,0.0,0.818937747545,-0.573739696753,-0.0120196887554,0.0,-0.00782867379373,0.0097736828139,-0.999921590421,0.0,0.491115440299,0.0371452048047,0.304566280507,1.0,-0.14998,-0.197116571429,2.658
0.19688470975,-0.143579968308,-0.128070360798,-2.29425491054,-0.00944167350357,2.14506690793,-0.0989275268998,-0.367034219496,-0.48828353001,-0.0105260494743,-0.520049149356,-0.0817296077459,0.0582657301141,-0.320092855466,0.573806123613,0.818970647433,0.00378920149508,0.0,0.818945474621,-0.573734083194,-0.0117583281376,0.0,-0.00745587511047,0.0098503397552,-0.999923687455,0.0,0.488501474281,0.0336079714737,0.304693620204,1.0,-0.14998,-0.197116571429,2.676
0.190881902936,-0.15127164694,-0.128225654545,-2.30267248826,-0.010654334731,2.14567123548,-0.104086975445,-0.376086276893,-0.477830439314,-0.00482635384533,-0.534669399263,-0.0822178067144,0.0264859610726,-0.332745007982,0.573953744179,0.818867468139,0.00373042449626,0.0,0.818840937434,-0.573881102572,-0.0118636501165,0.0,-0.00757408283541,0.00986400060814,-0.99992266439,0.0,0.486081499773,0.0303757019993,0.304657634739,1.0,-0.14998,-0.197116571429,2.692
0.184929161913,-0.158968066781,-0.128255335521,-2.31104982548,-0.0119075768384,2.14615687277,-0.109350597959,-0.36983551615,-0.479387283194,-0.00173738968501,-0.515865958802,-0.0754902554174,0.0248635417831,-0.323309090094,0.573847453489,0.818942585063,0.0035901804104,0.0,0.818913676327,-0.573774622397,-0.0119925109925,0.0,-0.00776137297475,0.00982210883856,-0.999921640564,0.0,0.483623087944,0.0272555625614,0.304614123102,1.0,-0.14998,-0.197116571429,2.708
0.177773393067,-0.168100157623,-0.128258489244,-2.32056941577,-0.0132373651197,2.14689166171,-0.115665074642,-0.382246427595,-0.478144459829,-0.00428256963845,-0.497409231614,-0.0669050028705,0.0382579321089,-0.337847025641,0.573782706869,0.818986614302,0.00388301359829,0.0,0.818962284837,-0.573709859892,-0.0117694341011,0.0,-0.00741142849222,0.00993333069273,-0.999923196885,0.0,0.480860068157,0.0235934743028,0.304742474139,1.0,-0.14998,-0.197116571429,2.727
0.171626096338,-0.175641493072,-0.128313030765,-2.32873037611,-0.0144080600722,2.14731743039,-0.121044651775,-0.392751424852,-0.468001777036,-0.0101117555389,-0.515026038011,-0.0755940162396,0.0209471411166,-0.333473019838,0.573785879343,0.818984830443,0.00378933663132,0.0,0.818958369667,-0.573712145026,-0.0119293881777,0.0,-0.00759614575635,0.00994841497308,-0.999921660736,0.0,0.478417948721,0.0204524263637,0.304676550833,1.0,-0.14998,-0.197116571429,2.743
0.164922093552,-0.183655760571,-0.128496486712,-2.33727625998,-0.0157448763681,2.14769346909,-0.126870197929,-0.39474342139,-0.464513309491,-0.00563132083798,-0.498315223987,-0.0785068426722,0.0193254814017,-0.343540389808,0.573893588979,0.818909858529,0.0036795425495,0.0,0.818881562587,-0.573819715713,-0.0120277685292,0.0,-0.00773841315337,0.00991595971411,-0.999920892223,0.0,0.475832875176,0.0170004737576,0.304635830025,1.0,-0.14998,-0.197116571429,2.76
0.157895032648,-0.192163545842,-0.128534495819,-2.34598722448,-0.017011096924,2.14820827679,-0.133121439765,-0.386537906627,-0.470289304204,-7.6781116746e-05,-0.484097381926,-0.0800004533715,0.0348459092477,-0.348195474211,0.573820272037,0.818960053403,0.00393360288046,0.0,0.818935923066,-0.573746634276,-0.0118110316759,0.0,-0.00741601450005,0.00999897062635,-0.999922508655,0.0,0.473208256446,0.0135151291679,0.304745317924,1.0,-0.14998,-0.197116571429,2.778
0.151920692738,-0.199149118765,-0.128566990217,-2.35328911838,-0.0181467423679,2.14847216203,-0.138430498323,-0.404637210494,-0.46082295612,-0.00198657776037,-0.498215796725,-0.0749063929024,0.0104040930764,-0.349179524876,0.573731644827,0.819022331746,0.00389444828835,0.0,0.818997678793,-0.573658134777,-0.0118276555592,0.0,-0.00745317559079,0.00997563644865,-0.99992246542,0.0,0.470949307573,0.0105745791228,0.304736427565,1.0,-0.14998,-0.197116571429,2.793
0.144667750105,-0.207460387244,-0.128695000411,-2.3620534356,-0.0194169924535,2.14866651018,-0.14480953201,-0.403623314143,-0.465656605806,-0.0120527245963,-0.478224020773,-0.0704397831073,0.0103229433239,-0.359586972432,0.573792668495,0.818980025396,0.00379980060555,0.0,0.818952684571,-0.573717566735,-0.0120582318357,0.0,-0.00769558682144,0.0100309750565,-0.999920075547,0.0,0.468185718692,0.0070172534979,0.304659501293,1.0,-0.14998,-0.197116571429,2.811
0.138054308631,-0.214881216208,-0.128853798401,-2.36950855975,-0.0205250817714,2.14891402599,-0.150562820981,-0.417609736592,-0.463373584694,-0.00516229937369,-0.453421384905,-0.0740604282846,0.0215064208676,-0.369602763303,0.573946391591,0.818871233936,0.00402351992628,0.0,0.818847409271,-0.573871255474,-0.0118932490493,0.0,-0.00743020014739,0.0101209311032,-0.999921176333,0.0,0.465701166316,0.0036039640918,0.304759605619,1.0,-0.14998,-0.197116571429,2.828
0.131534160656,-0.222185996904,-0.12886295352,-2.3769093508,-0.0216902405836,2.14909784368,-0.15636207368,-0.40535065954,-0.456868779863,0.00303790573129,-0.473018991731,-0.0730348440102,0.0157003273432,-0.367637496397,0.57386328447,0.818929289635,0.00406155353112,0.0,0.818906303558,-0.573788500802,-0.0118308597403,0.0,-0.00735830652153,0.0101155225727,-0.999921762704,0.0,0.463478710876,0.000710903707686,0.3047808342,1.0,-0.14998,-0.197116571429,2.843
0.124017258556,-0.230308062693,-0.128903908961,-2.38534802029,-0.0230148447295,2.1491487288,-0.163012999993,-0.41703990259,-0.453393380795,-0.00135928477,-0.458489361775,-0.0649631734951,0.000829558674061,-0.371615551633,0.573808138019,0.818968705284,0.00390223144054,0.0,0.818942757908,-0.573732728177,-0.0120109446145,0.0,-0.00759789615286,0.0100878761659,-0.999920250184,0.0,0.460718772389,-0.00281756086652,0.304691831819,1.0,-0.14998,-0.197116571429,2.861
0.116389865863,-0.238475342778,-0.12904334848,-2.39352423518,-0.0242873396514,2.14917370917,-0.169765996498,-0.430127003611,-0.451280081021,-0.0106379113082,-0.444619536931,-0.0692143121577,0.00626961326879,-0.378143812021,0.573859597348,0.818932355596,0.00396312887948,0.0,0.818907081944,-0.573783795471,-0.0120039201021,0.0,-0.00755656492249,0.0101341941771,-0.999920095025,0.0,0.4580191973,-0.00639230196651,0.304717251212,1.0,-0.14998,-0.197116571429,2.879
0.109492059501,-0.245685650357,-0.129165011719,-2.40054435665,-0.0254130146772,2.1492429106,-0.175863186472,-0.428715594043,-0.441271983081,-0.00280037398259,-0.442858376772,-0.0628441100404,0.00212296959581,-0.383370712022,0.573924716424,0.818885766708,0.00415546166885,0.0,0.818864019212,-0.573849632896,-0.0117925300878,0.0,-0.0072722649028,0.0101709783532,-0.999921829626,0.0,0.455691455757,-0.00958912608602,0.304815423658,1.0,-0.14998,-0.197116571429,2.895
0.102206972615,-0.253199279362,-0.129181720809,-2.40820440115,-0.0265522438168,2.14918728567,-0.182395808286,-0.43613972377,-0.451492654048,-0.00814618791512,-0.44125346077,-0.0715202872392,-0.00334511949266,-0.391646252344,0.573841808848,0.818944097684,0.00410976733244,0.0,0.818920788513,-0.573765553302,-0.0119406401603,0.0,-0.00742081672811,0.0102178091774,-0.999920260748,0.0,0.452945078421,-0.0130681380544,0.304744914386,1.0,-0.14998,-0.197116571429,2.913
0.0947578215192,-0.260705233922,-0.129269064542,-2.41566483025,-0.027749396853,2.14909763921,-0.189018722428,-0.44053769764,-0.43644295865,-0.0076287474585,-0.432981240688,-0.0695891459719,-0.0103677279614,-0.391002216895,0.573842971679,0.818943352835,0.00409580319952,0.0,0.818919641554,-0.573766463441,-0.0119755171004,0.0,-0.00745737918705,0.0102263968981,-0.999919900943,0.0,0.450531387123,-0.0162220678015,0.304718963681,1.0,-0.14998,-0.197116571429,2.929
0.0880854791266,-0.267333238,-0.129425602031,-2.42196441883,-0.0287662443953,2.14901698811,-0.194922596205,-0.450393850511,-0.435730068064,-0.0116440893081,-0.417775941169,-0.0593262159406,-0.00342691871618,-0.395353682964,0.57396061303,0.818859873574,0.00429756216655,0.0,0.818839661267,-0.573884612975,-0.0117816394168,0.0,-0.00718134522577,0.0102814092799,-0.99992135736,0.0,0.448347245038,-0.0192298314016,0.304818723941,1.0,-0.14998,-0.197116571429,2.944
0.0800811852567,-0.275154571873,-0.129489955299,-2.42952844439,-0.0299888605169,2.14885587095,-0.202112919418,-0.443879293995,-0.434597801097,0.00364868281983,-0.429271805062,-0.0670882620617,-0.00536221605825,-0.402105659689,0.573908987963,0.818895571596,0.00438899263302,0.0,0.818877002482,-0.573833361319,-0.0116822576869,0.0,-0.00704813438909,0.0102987961012,-0.999922126268,0.0,0.445684319953,-0.0227449725079,0.3048556097,1.0,-0.14998,-0.197116571429,2.962
0.0737952739917,-0.28113322036,-0.12951620223,-2.43549199874,-0.0309651317715,2.14859883984,-0.20780618263,-0.455898206422,-0.431018704382,-0.00295661102134,-0.416225658278,-0.0633485549822,-0.0169883785628,-0.409883492102,0.573799255209,0.81897316464,0.00425643304044,0.0,0.818952046195,-0.573722889477,-0.0118464772564,0.0,-0.00726007368456,0.010283512364,-0.999920767213,0.0,0.443534462398,-0.025464816176,0.304777310016,1.0,-0.14998,-0.197116571429,2.976
0.065548624736,-0.288840020025,-0.129605691116,-2.44292578913,-0.0321646994526,2.14833957142,-0.215178110313,-0.463457571913,-0.427088520234,-0.0156571939845,-0.4048674699,-0.0570205077867,-0.00719207563789,-0.417526416482,0.573820242199,0.818958160863,0.00431361788846,0.0,0.818937827655,-0.573743739017,-0.0118196140607,0.0,-0.00720499685573,0.0103151172639,-0.999920840055,0.0,0.440838839155,-0.0290189306105,0.30477941844,1.0,-0.14998,-0.197116571429,2.994
0.0567215494104,-0.296922731875,-0.129773373343,-2.4504282344,-0.0333513472425,2.14805672294,-0.223088338969,-0.461160229707,-0.416694442234,0.00170908710761,-0.392692807663,-0.0686850511629,-0.0175146356084,-0.415198022484,0.573933290287,0.818877446532,0.00458832885933,0.0,0.818861569694,-0.573857208914,-0.011592254204,0.0,-0.00685972200024,0.0104105872052,-0.999922278924,0.0,0.438075924026,-0.0328084509206,0.304891864565,1.0,-0.14998,-0.197116571429,3.013
0.0493215435191,-0.303641338238,-0.129795736002,-2.45682919855,-0.0344635308695,2.14767296333,-0.229797804784,-0.473747099182,-0.420556788924,-0.00273839072813,-0.398256841775,-0.075304648967,-0.0256791711939,-0.421895917692,0.573810504389,0.818963778053,0.00453676010787,0.0,0.818947374198,-0.573734810279,-0.011589334272,0.0,-0.0068884804053,0.0103656490927,-0.999922548079,0.0,0.435667160415,-0.0359069984584,0.30488397905,1.0,-0.14998,-0.197116571429,3.029
0.0412880047564,-0.310654121765,-0.129871470999,-2.4636204563,-0.0355873712624,2.14715986516,-0.236986965048,-0.468293177127,-0.422587470585,-0.00680332631645,-0.397031472335,-0.0534276375951,-0.0215913341358,-0.428169152319,0.573833199751,0.818948574036,0.00440895107366,0.0,0.818929355255,-0.573756195347,-0.0118019618263,0.0,-0.00713567419879,0.0103831768865,-0.999920632746,0.0,0.433054561622,-0.0392469605957,0.304800089884,1.0,-0.14998,-0.197116571429,3.046
0.0341017098636,-0.31687011409,-0.130047564447,-2.46940794759,-0.0365228159689,2.14676941582,-0.243485368709,-0.479845060243,-0.416432012645,-0.0107229277438,-0.38855788045,-0.0659551650618,-0.0268057653248,-0.43666922177,0.573918700931,0.818888059382,0.00451860869287,0.0,0.81887013736,-0.573841130606,-0.0117814203725,0.0,-0.00705483677195,0.0104619326209,-0.999920385453,0.0,0.430806950452,-0.0422490492111,0.304821163451,1.0,-0.14998,-0.197116571429,3.061
0.0259832795399,-0.323803310646,-0.130083340665,-2.47566610949,-0.0376120713581,2.14635953704,-0.250892611814,-0.483735347626,-0.410237073993,8.93293840483e-05,-0.368454810156,-0.0713585922713,-0.0241678620823,-0.439042411407,0.573823955968,0.818953552211,0.00467907893448,0.0,0.818939153704,-0.573748090676,-0.0115125096013,0.0,-0.0067437278657,0.0104382357136,-0.999922779703,0.0,0.428353083707,-0.045556193549,0.304924147778,1.0,-0.14998,-0.197116571429,3.078
0.0167182206364,-0.331421633162,-0.130123134602,-2.48281501401,-0.0388103615488,2.14569936417,-0.259272037469,-0.490419099353,-0.386249705189,-0.00268378204123,-0.382671389701,-0.0670277516713,-0.0412574905289,-0.449358358027,0.573791392525,0.818976735771,0.00461422057765,0.0,0.818960851132,-0.573714734106,-0.0116307817052,0.0,-0.00687822573074,0.0104527096894,-0.999921712371,0.0,0.425472845456,-0.0492730889689,0.30487847866,1.0,-0.14998,-0.197116571429,3.097
0.00929896828728,-0.337415027982,-0.130284343935,-2.48836426215,-0.0397091744513,2.14513173341,-0.266004318086,-0.495677776234,-0.412841833411,-0.0125583775273,-0.364770227581,-0.0513344675216,-0.0299031597332,-0.441020508588,0.573876365685,0.818917028229,0.00464377926827,0.0,0.818900688519,-0.573798327151,-0.0117426148485,0.0,-0.00695176832262,0.0105418061354,-0.999920268442,0.0,0.423188988627,-0.0522646695205,0.304856862738,1.0,-0.14998,-0.197116571429,3.112
0.000412785722526,-0.34450931558,-0.130369298595,-2.49482691256,-0.040786977531,2.1445042556,-0.274135376434,-0.493929846692,-0.383441838031,-9.4939549067e-05,-0.361914939264,-0.0643431615286,-0.0338357851186,-0.465883060632,0.57384039743,0.818941824712,0.00471517928686,0.0,0.818926425018,-0.573762154294,-0.0117152723888,0.0,-0.00688886775365,0.0105842852606,-0.999920255024,0.0,0.420506023449,-0.0557752389699,0.304870109486,1.0,-0.14998,-0.197116571429,3.13
-0.00815209178458,-0.351129453319,-0.130444272013,-2.50069930904,-0.0418622865707,2.14386504959,-0.281914509031,-0.504759724459,-0.393639458249,-0.0066119634523,-0.344276798581,-0.0602007430004,-0.0391022631489,-0.46775965494,0.573839556123,0.818942049166,0.00477816258444,0.0,0.818928340978,-0.573762476397,-0.0115645977984,0.0,-0.0067293345823,0.0105493995342,-0.999921710048,0.0,0.41800483192,-0.0591405663503,0.304934951425,1.0,-0.14998,-0.197116571429,3.147
-0.0157660630122,-0.356887001829,-0.130580667349,-2.50584407697,-0.0427607880973,2.14329421483,-0.288883042399,-0.513250597106,-0.377645083472,-0.00962555633093,-0.344789089041,-0.0663790298612,-0.0439145342264,-0.464804448544,0.573874666623,0.818916988873,0.00485584644753,0.0,0.818904494057,-0.573797682643,-0.0115063421214,0.0,-0.00663659337912,0.0105798764227,-0.99992200788,0.0,0.415779102435,-0.0621226743504,0.304960447801,1.0,-0.14998,-0.197116571429,3.162
-0.0249145799177,-0.363704917754,-0.130693122042,-2.51211318173,-0.043848700609,2.14245707475,-0.297330061323,-0.504367594513,-0.375654590136,-0.00151302946527,-0.341596704427,-0.0664536279645,-0.0456758238992,-0.471728628502,0.573806253101,0.818965477049,0.00476216388785,0.0,0.818950567982,-0.57372768086,-0.0117159002727,0.0,-0.00686286474402,0.0106228381805,-0.999920025,0.0,0.413016935037,-0.0656347617248,0.304884074569,1.0,-0.14998,-0.197116571429,3.18
-0.0342510095366,-0.370476934547,-0.130753677513,-2.51814229808,-0.0449419812258,2.14166074088,-0.305856469218,-0.52346001792,-0.373044057495,-0.00108269656541,-0.328734619835,-0.0633377662418,-0.051296022089,-0.468443483933,0.573788933803,0.818977671033,0.0047519149399,0.0,0.818962755429,-0.573710592968,-0.0117007536743,0.0,-0.00685656406573,0.0106056085191,-0.999920251119,0.0,0.410307676647,-0.0691774853224,0.304887068422,1.0,-0.14998,-0.197116571429,3.198
-0.0421231393288,-0.375984687321,-0.130880954943,-2.52301495462,-0.0457365473914,2.14095450476,-0.312989618415,-0.528423180578,-0.365097037301,-0.0100303138201,-0.309150971595,-0.042279701572,-0.0429054749878,-0.483413068331,0.57394040942,0.818871091087,0.0048259215004,0.0,0.818856549957,-0.573860892408,-0.011763233289,0.0,-0.00686329619891,0.0107033384326,-0.999919163589,0.0,0.408058256487,-0.0721558318751,0.304886266168,1.0,-0.14998,-0.197116571429,3.213
-0.0510079642929,-0.382198760124,-0.130999850252,-2.52827218807,-0.0466700766017,2.14023807753,-0.321277253182,-0.517350537256,-0.36435125993,-0.00655844333758,-0.31545759355,-0.0542991455366,-0.0428192510459,-0.498559952211,0.573887627759,0.818906943132,0.00501558538542,0.0,0.818896040969,-0.573809412328,-0.0115229904958,0.0,-0.00655839308956,0.0107203510956,-0.999921027658,0.0,0.405596297378,-0.0754965361529,0.304989893445,1.0,-0.14998,-0.197116571429,3.23
-0.0590127756828,-0.387554387447,-0.131052761921,-2.53305017246,-0.047600789904,2.13949065166,-0.328643447894,-0.542859741524,-0.357418776816,-0.000934195005055,-0.323672840815,-0.0705818777322,-0.0496362107893,-0.490723922736,0.573838150615,0.818942272463,0.00490695146693,0.0,0.81892972202,-0.573759876981,-0.0115957259431,0.0,-0.00668094691365,0.010672723814,-0.999920725815,0.0,0.403316322419,-0.0784571438274,0.304947339383,1.0,-0.14998,-0.197116571429,3.245
-0.0687074212461,-0.393956940574,-0.131189923678,-2.53870564791,-0.0486065546622,2.13851334334,-0.337530716582,-0.537823058942,-0.354516382705,-0.00864569837441,-0.308043874091,-0.0547736216213,-0.0456014740167,-0.492892868988,0.573917300368,0.818887026389,0.00487003601812,0.0,0.818872966197,-0.57383749756,-0.0117617399806,0.0,-0.0068370586308,0.0107384136447,-0.999918967268,0.0,0.400552812785,-0.0820189231728,0.304901534717,1.0,-0.14998,-0.197116571429,3.263
-0.0772399227813,-0.399521093317,-0.131277109948,-2.5434587322,-0.0494346083253,2.13775154859,-0.345572466142,-0.52069673551,-0.342769003755,0.00138673414058,-0.299002481809,-0.0555720560451,-0.0528396919676,-0.505455104756,0.573813034857,0.818959490277,0.00497003158291,0.0,0.818946996176,-0.573733350112,-0.0116879136369,0.0,-0.00672058431635,0.010777077123,-0.999919340925,0.0,0.398195230832,-0.0851191081606,0.304932711106,1.0,-0.14998,-0.197116571429,3.279
-0.0865468207103,-0.405282080686,-0.131335181953,-2.5484520514,-0.050411868474,2.13684561114,-0.354185231688,-0.55474206507,-0.336386824335,0.000967149899607,-0.290188582238,-0.0557076962114,-0.0583323775928,-0.509923679755,0.573774294267,0.8189870821,0.00489545633409,0.0,0.818973485715,-0.573694642987,-0.0117317178525,0.0,-0.0067997592146,0.0107408138634,-0.999919195831,0.0,0.395640233832,-0.0884715701399,0.304912544856,1.0,-0.14998,-0.197116571429,3.296
-0.0971060648019,-0.411680090639,-0.131493086701,-2.55377946033,-0.0514242688707,2.13591267308,-0.363889810338,-0.559912210303,-0.333082763195,-0.00773567038631,-0.281302928652,-0.0528812772621,-0.0462324653993,-0.518111605429,0.573907992811,0.818892670894,0.00501560019613,0.0,0.818881549835,-0.573829416177,-0.0115566159082,0.0,-0.00658565592953,0.0107398234764,-0.999920639515,0.0,0.392834285683,-0.0922822613371,0.304981025589,1.0,-0.14998,-0.197116571429,3.315
-0.105849715803,-0.416967654316,-0.131561780271,-2.55828336841,-0.0521718239781,2.1350470414,-0.372200226262,-0.546832802325,-0.329855505416,-0.00331758637417,-0.278775037154,-0.0465862888117,-0.05580565795,-0.523731975077,0.573781484062,0.818980884826,0.00508583704412,0.0,0.818970175373,-0.573701900463,-0.0116072458415,0.0,-0.00658848494076,0.0108253800229,-0.999919698283,0.0,0.390442061495,-0.0953528647458,0.304975438359,1.0,-0.14998,-0.197116571429,3.331
-0.115448855915,-0.422539428034,-0.131671946492,-2.56302431124,-0.0530411638573,2.13402160214,-0.381103525871,-0.567467642559,-0.320076779459,-0.00999432528434,-0.279014589237,-0.0486210802669,-0.0587498647,-0.526847366015,0.573833819754,0.818944316119,0.00506964529397,0.0,0.818932568178,-0.573752925493,-0.0117378092585,0.0,-0.00670401743047,0.01088745918,-0.99991825635,0.0,0.387832135104,-0.0987186548459,0.304951684069,1.0,-0.14998,-0.197116571429,3.348
-0.125688029126,-0.428196462571,-0.131807601108,-2.56777646276,-0.0539599432181,2.13306210033,-0.390563113701,-0.56253024485,-0.311400494792,-0.00383563774798,-0.261772719928,-0.0492085015301,-0.0450930580609,-0.52329002583,0.573953618889,0.81886019969,0.00509545170312,0.0,0.818848832569,-0.57387269328,-0.0117246837325,0.0,-0.00667686482052,0.0109020392352,-0.999918279169,0.0,0.385286621914,-0.102108753693,0.304954751201,1.0,-0.14998,-0.197116571429,3.365
-0.134058829387,-0.432790033896,-0.131837405687,-2.57162959642,-0.0546575491536,2.13227256187,-0.398586962216,-0.570834806178,-0.310258023744,-0.00528397756279,-0.260630324302,-0.0476612690691,-0.0557086643204,-0.529131217026,0.573767802448,0.818990237298,0.00512318124057,0.0,0.818979160497,-0.573686704405,-0.0117237691053,0.0,-0.00666267975686,0.0109227102035,-0.9999181482,0.0,0.382931510087,-0.105173830094,0.304948168003,1.0,-0.14998,-0.197116571429,3.381
-0.144500467882,-0.438227002511,-0.131964762798,-2.57619380278,-0.0555184143597,2.13120646672,-0.408283602569,-0.58754156493,-0.307657639715,-0.00852846590239,-0.243314732215,-0.0378279102542,-0.0614080458669,-0.53635608927,0.573877893959,0.818913139954,0.00511653563945,0.0,0.818901164373,-0.573795473389,-0.0118484010885,0.0,-0.00676709663702,0.0109896840416,-0.999916713156,0.0,0.380197507958,-0.108760645062,0.304920228115,1.0,-0.14998,-0.197116571429,3.399
-0.153219606649,-0.442760202284,-0.132067836514,-2.57975470358,-0.0562590198563,2.13039266932,-0.416435457554,-0.573143844558,-0.304885862384,-0.00610291781532,-0.23390274845,-0.0490084590779,-0.0509974900221,-0.555824668072,0.573921718813,0.818881885429,0.00520243143289,0.0,0.818872215713,-0.57384096475,-0.0116442435775,0.0,-0.00655001797074,0.0109432215337,-0.999918668276,0.0,0.377988085171,-0.111755569937,0.305007228694,1.0,-0.14998,-0.197116571429,3.414
-0.162989451316,-0.447778377011,-0.132130827776,-2.58382157373,-0.0570369601114,2.12947563868,-0.42576557418,-0.585726038367,-0.287563757847,-0.00930061452942,-0.236205378299,-0.0523048786327,-0.055653293268,-0.548735900648,0.573789944671,0.818973834157,0.00526357884094,0.0,0.818965423404,-0.57370981037,-0.0115514352115,0.0,-0.00644068036949,0.0109389970545,-0.999919424744,0.0,0.375465320078,-0.115041264355,0.305039282677,1.0,-0.14998,-0.197116571429,3.431
-0.173688824929,-0.452843210528,-0.132288765942,-2.58808448141,-0.0578737199519,2.12840458463,-0.435741862145,-0.594849344553,-0.274555259678,-0.00715218462405,-0.229829567943,-0.0426140458725,-0.0590620202905,-0.547446200434,0.573923808469,0.818880268798,0.00522631291428,0.0,0.818870213021,-0.573841815408,-0.0117427431838,0.0,-0.00661695120099,0.0110193240155,-0.999917391815,0.0,0.372700030265,-0.118639897594,0.304977253461,1.0,-0.14998,-0.197116571429,3.449
-0.183044636212,-0.457225993159,-0.13230896449,-2.59164205325,-0.0585321376431,2.12751003223,-0.444720694997,-0.578167880345,-0.274730064626,0.00090449452151,-0.2161035191,-0.037965750654,-0.0496209880032,-0.568338282736,0.573783161336,0.818978627111,0.00525728103774,0.0,0.818968852805,-0.57370088825,-0.0117497173975,0.0,-0.00660678782316,0.0110475521131,-0.999917147541,0.0,0.370333266499,-0.121725376223,0.304982195096,1.0,-0.14998,-0.197116571429,3.465
-0.193143832239,-0.461719826841,-0.132391277549,-2.59530928995,-0.0592415345294,2.12659895701,-0.454328973141,-0.59785308886,-0.261554143566,-0.00579853960649,-0.213526591522,-0.037900859924,-0.0471718776217,-0.556569879038,0.573752546114,0.818999884432,0.00528696783975,0.0,0.818990310143,-0.573669867234,-0.0117686966143,0.0,-0.00660571420883,0.0110825084504,-0.999916767809,0.0,0.36780542884,-0.125061734881,0.304971317529,1.0,-0.14998,-0.197116571429,3.482
-0.204100529567,-0.466403034774,-0.132545403445,-2.59915282965,-0.060013784306,2.12557265732,-0.46454954166,-0.598455210119,-0.260808870149,-0.00254568799734,-0.206178687756,-0.0478603834017,-0.0569045958912,-0.561155184534,0.573937484769,0.818870263554,0.00529168636215,0.0,0.818859992514,-0.573853488245,-0.0118841739454,0.0,-0.00669507287408,0.0111541379094,-0.999915377023,0.0,0.365054114155,-0.128672980284,0.304935229645,1.0,-0.14998,-0.197116571429,3.5
-0.213589469519,-0.470497896005,-0.132594785076,-2.60236693979,-0.0606248796015,2.12471259255,-0.473727558862,-0.601900733364,-0.253799310526,-0.00433892910811,-0.195712343135,-0.0407466214175,-0.0576071440809,-0.583235209691,0.573797528887,0.818967840951,0.00536826148375,0.0,0.818958902403,-0.573713851844,-0.0118101345422,0.0,-0.00659240133797,0.0111732266679,-0.999915846084,0.0,0.362699798137,-0.131747988594,0.304969880818,1.0,-0.14998,-0.197116571429,3.516
-0.224014428762,-0.474778918043,-0.132734824491,-2.60561035221,-0.0613441737304,2.12380559787,-0.483588802887,-0.613526493834,-0.245327560791,-0.0148019673909,-0.185767238632,-0.0330972905943,-0.0556175896872,-0.580357076321,0.573880075873,0.818909455473,0.00545061044133,0.0,0.818902678117,-0.573797984669,-0.0116199597364,0.0,-0.00638826860787,0.0111321971922,-0.999917628712,0.0,0.36016612229,-0.13516259312,0.305050755232,1.0,-0.14998,-0.197116571429,3.533
-0.233203889481,-0.478337042887,-0.132797188794,-2.60843361674,-0.0619346768465,2.12301137607,-0.49232375165,-0.605891232337,-0.228305190522,0.00128635561126,-0.186181847676,-0.0351599122978,-0.0485073303068,-0.575843114874,0.573894460424,0.81889930761,0.00546069512293,0.0,0.81889269145,-0.573812387542,-0.0116125231769,0.0,-0.00637619544453,0.0111363004574,-0.999917660082,0.0,0.357923022124,-0.138120347917,0.305053643567,1.0,-0.14998,-0.197116571429,3.548
-0.243535410201,-0.482226243053,-0.132831743551,-2.6116232802,-0.0625683112495,2.1221039531,-0.502338809272,-0.620254262539,-0.228591363784,-0.00353423261802,-0.18727154735,-0.0385227507786,-0.0538969010151,-0.598443380794,0.573737623541,0.819009368325,0.00543514776553,0.0,0.819001647248,-0.573654322246,-0.0117374304772,0.0,-0.0064952945677,0.0111858158031,-0.999916340837,0.0,0.355368530233,-0.141391412322,0.305002731409,1.0,-0.14998,-0.197116571429,3.565
-0.25420465466,-0.4859909182,-0.132985900759,-2.61463505233,-0.0632281625565,2.12116529258,-0.512425014883,-0.626178018685,-0.213887222655,-0.0130348715441,-0.171408349065,-0.0365725320973,-0.0496549673665,-0.602423952855,0.573882070758,0.818908170309,0.00543363276288,0.0,0.818899705753,-0.573797506614,-0.0118507477252,0.0,-0.00658699602532,0.011250748527,-0.999915012459,0.0,0.352766751952,-0.144806662365,0.304975292031,1.0,-0.14998,-0.197116571429,3.582
