nelsonifechukwu/NELSON_IML_WORK/CNN-GradCAM/train2dof/data_sample_2022-02-22-16-24-27/robot_state.csv
position_joint1,position_joint2,position_joint3,position_joint4,position_joint5,position_joint6,position_joint7,velocity_joint1,velocity_joint2,velocity_joint3,velocity_joint4,velocity_joint5,velocity_joint6,velocity_joint7,ee_T_00,ee_T_10,ee_T_20,ee_T_30,ee_T_01,ee_T_11,ee_T_21,ee_T_31,ee_T_02,ee_T_12,ee_T_22,ee_T_32,ee_T_03,ee_T_13,ee_T_23,ee_T_33,v_x,v_y,time
0.465079046049,0.547756840486,-0.123963700171,-1.35584414696,0.0795786291907,1.89409915045,0.159156512697,-0.0003783184568,-0.000822050605319,-0.000791447618192,-0.000898987557656,-5.1238994452e-05,-0.000318207043982,-0.00118251002634,0.573803217106,0.81897899568,0.00200488756398,0.0,0.818935701684,-0.573743571038,-0.0119740594892,0.0,-0.00865637852627,0.00851279175832,-0.999926297028,0.0,0.661663377216,0.260920035778,0.303225524199,1.0,0.0,0.0,0.0
0.465075945663,0.547761352947,-0.123960564099,-1.35583913562,0.0795812126006,1.89410301246,0.159162474354,-0.000388947449768,0.00281170011986,0.000244988565322,0.000955754659395,-7.52384235782e-05,-9.87383580535e-05,0.000213692928092,0.573808893398,0.818975005389,0.0020103001673,0.0,0.818931753671,-0.573749196026,-0.0119745476119,0.0,-0.00865361369907,0.00851756454503,-0.999926280315,0.0,0.661665121073,0.260921016729,0.303224949163,1.0,-0.00018,-0.000236571428571,0.01
0.465075837248,0.547757960473,-0.12395832053,-1.3558447393,0.0795812111943,1.89410382567,0.159162383638,9.80657192364e-05,0.00132736933437,0.00123346088803,-9.58320061915e-05,-0.000330066808766,3.10849875386e-05,-0.000396244079074,0.573807645611,0.818975880656,0.00200988624884,0.0,0.818932607144,-0.573747933997,-0.0119766477216,0.0,-0.00865558417906,0.00851841742319,-0.999926255994,0.0,0.661663601158,0.260921677484,0.303224681754,1.0,-0.00038,-0.000499428571429,0.02
0.465072707553,0.547744536039,-0.123963729524,-1.35584783538,0.0795818215452,1.8941031047,0.159159049592,-6.05562863441e-05,-0.000591392958065,-0.0017138338144,0.000803045472029,-0.000201548928715,0.00397066731368,-0.000662036535251,0.573811559198,0.818973119636,0.00201760860013,0.0,0.818929966013,-0.573751833568,-0.0119704279074,0.0,-0.00864601851563,0.00852121410395,-0.999926314922,0.0,0.661665129017,0.260916337287,0.303232835649,1.0,-0.0007,-0.00092,0.036
0.465075741547,0.547708462968,-0.123963297797,-1.35588315484,0.0795788461237,1.89410767147,0.159163566619,0.000124137090706,-0.00645668850752,-0.00600603237226,-0.00189151961498,0.000284816768285,-0.000209844045399,0.00112473092725,0.573813579479,0.818971692333,0.00202239045791,0.0,0.818928596573,-0.573753829131,-0.0119684658093,0.0,-0.00864164680769,0.00852402570021,-0.999926328749,0.0,0.661658173934,0.260914704969,0.303241956466,1.0,-0.001,-0.00131428571429,0.051
0.465075161449,0.547587114844,-0.12395815108,-1.3560228368,0.0795797168049,1.89413162314,0.159159139037,-0.000100668629872,-0.00399147447148,0.00164910514602,-0.0128268431009,0.000572631781615,-0.000372951956947,0.00180188946022,0.573814640351,0.818970916787,0.00203540586593,0.0,0.818927844415,-0.573754690839,-0.0119786177643,0.0,-0.00864248230354,0.00854052121414,-0.999926180774,0.0,0.661633056846,0.260904081659,0.303263347845,1.0,-0.00134,-0.00176114285714,0.068
0.465063040606,0.547447555605,-0.12396117775,-1.35621654826,0.0795756488167,1.89417563572,0.159157129831,-0.000563248490579,-0.00532252702312,-0.00103351298731,-0.0174091649929,0.000235360470196,0.00846761790482,0.00161494402963,0.57383459209,0.818956947006,0.00203144587538,0.0,0.818913732575,-0.573774567431,-0.0119912997485,0.0,-0.00865493288852,0.00854476603736,-0.99992603682,0.0,0.661605192938,0.260875476545,0.303273923898,1.0,-0.00168,-0.002208,0.085
0.465040072034,0.547280132293,-0.123966052358,-1.35642085292,0.0795734472044,1.89428865602,0.159141415459,-0.00233629196072,-0.016520730703,-4.66642784881e-05,-0.0111383359792,0.00025081097086,0.00265883857445,-0.00258436139608,0.573854997904,0.818942475728,0.00209993584137,0.0,0.818900146295,-0.573794676726,-0.0119568499498,0.0,-0.00858720562286,0.00858130108721,-0.99992630787,0.0,0.661592552874,0.260842738595,0.303305249062,1.0,-0.00202,-0.00265485714286,0.102
0.465021963719,0.54706816159,-0.123961257804,-1.35666287014,0.0795707042918,1.89441606654,0.159133182453,-0.000702069604475,-0.0100547411122,-0.000708262807916,-0.0140410641693,5.17985872195e-05,0.00648548230209,0.000516529769111,0.573872718371,0.818929821682,0.00219024452204,0.0,0.818888601872,-0.573811957954,-0.011918117886,0.0,-0.00850347737584,0.00863321519964,-0.999926576538,0.0,0.66157184515,0.26081581272,0.303351100429,1.0,-0.00238,-0.003128,0.12
0.464984946256,0.546832237552,-0.123966133003,-1.35698681488,0.0795624819452,1.8945580946,0.159111280913,-0.00318794083283,-0.0138113120423,-0.00281191621287,-0.0213213174026,-0.00210904421253,0.00868546159589,0.000744612667338,0.573904563838,0.81890736803,0.00224077963344,0.0,0.818866766868,-0.573843556075,-0.0118969816194,0.0,-0.0084568317724,0.00866279880666,-0.999926716271,0.0,0.661543334052,0.260761465847,0.303376490864,1.0,-0.00274,-0.00360114285714,0.138
0.464951191973,0.546623569369,-0.123959309651,-1.35730157393,0.0795585002414,1.89466210041,0.159059651458,-0.00430167214236,-0.0185059019788,-0.00425175523605,-0.0241909316012,-0.000366527128478,0.00518465765928,-0.00220381592412,0.573902155843,0.818909036585,0.00224771427647,0.0,0.818868385625,-0.57384097708,-0.0119099516445,0.0,-0.00846349941893,0.00867589612355,-0.999926546304,0.0,0.661502161923,0.260711126946,0.303384481463,1.0,-0.00304,-0.00399542857143,0.153
0.464914003159,0.546317363469,-0.123961588393,-1.35775202099,0.0795486427243,1.89483627506,0.158945837347,-0.00154290056306,-0.0180258722678,-0.00180565185549,-0.0276551138198,-0.000171235566233,0.0114054330474,-0.00169346860104,0.573872606246,0.818929647228,0.00228289121534,0.0,0.818889316598,-0.573811148938,-0.0119079560243,0.0,-0.00844199232951,0.0087032525505,-0.999926490378,0.0,0.661460635734,0.260649020318,0.303400591083,1.0,-0.00336,-0.004416,0.169
0.464866469627,0.546032740184,-0.123961659558,-1.35824957278,0.0795369480109,1.89500050009,0.158924325081,-0.00341096599982,-0.0187409015723,0.000562283509698,-0.0317459957695,0.000227539708175,0.00698666364981,-0.000238580536925,0.573909114326,0.818904146746,0.00225251800395,0.0,0.818863178506,-0.573847526006,-0.0119523505987,0.0,-0.00849539114738,0.00870423458205,-0.999926029579,0.0,0.661394148772,0.260572184693,0.303379845448,1.0,-0.00372,-0.00488914285714,0.187
0.464818901544,0.545716606513,-0.123961895635,-1.358779529,0.0795137374004,1.89518932698,0.158838134518,-0.00564037178544,-0.0160539449122,0.000237262407193,-0.0318730563336,-0.00201204413675,0.00985508213004,-0.00841172563654,0.573901125677,0.81890979167,0.00223561067134,0.0,0.818868505334,-0.573839507372,-0.0119723704011,0.0,-0.00852157369131,0.00870179555567,-0.999925828017,0.0,0.661332195372,0.260490885742,0.303367797547,1.0,-0.00404,-0.00530971428571,0.203
0.464751499705,0.545320437409,-0.123964038303,-1.35944888354,0.0794425650748,1.89541082985,0.158761192743,-0.00157349572947,-0.0230103519427,-0.000308301376357,-0.0371684419889,-0.00419450065855,0.0189083414581,-0.00529701475226,0.57391319195,0.818901501726,0.00217381651499,0.0,0.818859647495,-0.573852067724,-0.0119761836081,0.0,-0.00856003044678,0.00865350699394,-0.999925918604,0.0,0.661255073449,0.260374321519,0.303348847357,1.0,-0.0044,-0.00578285714286,0.221
0.464695402402,0.544913272914,-0.123965392743,-1.36014865201,0.0794042828359,1.89563603233,0.158685746025,-0.00357478778537,-0.0264070750591,-0.000158618270147,-0.0456239259971,-0.000239558669098,0.0131653083602,-0.00145150882284,0.573927042281,0.81889194105,0.00211799966254,0.0,0.818849268313,-0.5738660578,-0.0120154229727,0.0,-0.00862405096358,0.00863046480562,-0.999925567641,0.0,0.66116693771,0.260267803877,0.30332352856,1.0,-0.00474,-0.00622971428571,0.238
0.464637782389,0.544561369827,-0.123964406108,-1.36073704364,0.0793865709395,1.89583924256,0.158598214123,-0.00101718812689,-0.0279890000636,0.00140998123954,-0.0386925783069,0.000678747680661,0.0119375172468,-0.00900024242701,0.57392993656,0.818889960216,0.00209949490937,0.0,0.818846847981,-0.57386883222,-0.0120478155246,0.0,-0.00866116723808,0.0086339330186,-0.999925216895,0.0,0.661097202987,0.260175976958,0.30331012636,1.0,-0.00502,-0.00659771428571,0.252
0.464566701653,0.544064436388,-0.123970025078,-1.36155688673,0.0793530719963,1.89613574199,0.158502051855,-0.00464127344154,-0.0284876106646,-0.0007429922093,-0.044116444832,-0.00043975914414,0.020205953098,-0.00350544794014,0.573950153448,0.818875831551,0.0020834489377,0.0,0.818832371659,-0.573888977633,-0.0120720907409,0.0,-0.00869004227349,0.00863494001744,-0.999924957672,0.0,0.661002479112,0.260049635661,0.303297454254,1.0,-0.00538,-0.00707085714286,0.27
0.464495857269,0.543567652662,-0.123972929784,-1.36239649794,0.0793120203264,1.8964280033,0.158392182587,-0.00559899655236,-0.0274002747455,0.000235552126816,-0.0454731590494,-0.00430625120593,0.0173012666207,-0.00448610997206,0.573956041688,0.818871803255,0.00204424663556,0.0,0.818827714262,-0.573894918817,-0.0121055116628,0.0,-0.00873984767683,0.00862208335839,-0.999924634531,0.0,0.660901969304,0.259921166446,0.303274744201,1.0,-0.00572,-0.00751771428571,0.287
0.464415984445,0.543051516503,-0.123973306823,-1.36320870209,0.0792659496389,1.89671604916,0.158293883144,-0.00213509561549,-0.0327680765201,-0.00713289084612,-0.05037380987,-0.00229152523141,0.0194966937762,-0.00231211686731,0.573974088033,0.818859167319,0.00203893716251,0.0,0.818814958898,-0.573912936674,-0.0121140870201,0.0,-0.00874972725481,0.00862285031519,-0.999924541516,0.0,0.660809374286,0.259790618309,0.303278249005,1.0,-0.00604,-0.00793828571429,0.303
0.464347707177,0.542471103358,-0.123977152923,-1.36411256611,0.0792077138254,1.89703671715,0.158177290811,-0.00595920381023,-0.0363810103162,-0.000286748830712,-0.0482019929774,-0.00213235312077,0.0191734876649,-0.00160343706076,0.573971874788,0.818860731354,0.00203383903121,0.0,0.818816481296,-0.573910770605,-0.0121138037689,0.0,-0.00875244459968,0.00861848951175,-0.99992455533,0.0,0.660702196271,0.259655939463,0.303286452328,1.0,-0.00638,-0.00838514285714,0.32
0.464248278587,0.541826403514,-0.123975319337,-1.36510587221,0.0791549790247,1.89740432641,0.158038082449,-0.00488894265668,-0.0318469347427,0.00102176537178,-0.0532506172249,-0.00517222438592,0.0186016914666,-0.00790590107516,0.573979139487,0.818855587793,0.00205442825228,0.0,0.81881152543,-0.57391786424,-0.0121127136332,0.0,-0.0087396584326,0.00863480072583,-0.999924526445,0.0,0.660591781056,0.25949828238,0.303301366737,1.0,-0.00674,-0.00885828571429,0.338
0.46417554335,0.541250589113,-0.123977486355,-1.36597811497,0.0791049507399,1.89773035159,0.157929390936,-0.0025451932815,-0.037898986098,0.0007737455787,-0.0603142757954,-0.00183438953033,0.026427152571,-0.000296871402806,0.573986279986,0.818850516755,0.00208050456866,0.0,0.818806784787,-0.573924880264,-0.0121007396912,0.0,-0.00871481140095,0.00864935634396,-0.999924617507,0.0,0.660492869723,0.259367032926,0.303321631717,1.0,-0.00704,-0.00925257142857,0.353
0.464074401814,0.540514767755,-0.12397765941,-1.36710721278,0.0790363946566,1.89814794384,0.157787198067,-0.00856848454188,-0.0443639080421,-0.000322195631912,-0.0647180811732,-0.008368065937,0.0323340676428,-0.010303446588,0.573997064765,0.818842904978,0.00210083564321,0.0,0.81879943723,-0.573935574433,-0.0120906945094,0.0,-0.00869480250549,0.00866035294037,-0.999924696513,0.0,0.660364912551,0.259193013007,0.303340522084,1.0,-0.0074,-0.00972571428571,0.371
0.463982060813,0.539779681017,-0.123981477451,-1.36821981339,0.0789731351974,1.89856409279,0.157652113505,-0.00384253090941,-0.0436051458216,0.000662413834435,-0.0673849982884,-0.00063916016661,0.0235016215542,-0.00386360002863,0.574009451213,0.818834134055,0.00213488298122,0.0,0.818791098757,-0.573947800936,-0.0120749865026,0.0,-0.00866226649974,0.00867934666199,-0.999924814214,0.0,0.660238499393,0.259025410063,0.303366625251,1.0,-0.00774,-0.0101725714286,0.388
0.463889091309,0.539113331346,-0.12397921559,-1.36925472394,0.078915062035,1.89895327267,0.157522945424,-0.00890921619328,-0.0426686449612,-0.000941757078589,-0.070986106189,-0.00735726254699,0.0304119079117,-0.0133095374253,0.574027565164,0.818821398375,0.00214916162756,0.0,0.818778546977,-0.573965849087,-0.0120682224346,0.0,-0.00864833989878,0.00868734703299,-0.999924865287,0.0,0.660116802074,0.258848945824,0.30337526833,1.0,-0.00806,-0.0105931428571,0.404
0.463800495046,0.538441517339,-0.123989934076,-1.3703024065,0.0788492555552,1.89936652295,0.157390221997,-0.00672963992316,-0.0486216811867,0.000279918146923,-0.0712805511809,-0.00756768913745,0.0220962297928,-0.0110764521427,0.574031833257,0.81881832162,0.00218116664889,0.0,0.818775948793,-0.573970042249,-0.0120450479648,0.0,-0.00861094743222,0.00870029526499,-0.999925075416,0.0,0.660007839558,0.25870540218,0.303390550467,1.0,-0.00834,-0.0109611428571,0.418
0.463663204239,0.537502180712,-0.123992561256,-1.37176704275,0.0787679407145,1.89991791726,0.157212692973,-0.0102009364906,-0.047483642392,0.0001837756815,-0.0729079307233,-0.00124570159578,0.0264930915055,-0.00281695220874,0.574059844237,0.81879861821,0.00220566413209,0.0,0.818756517484,-0.57399789843,-0.0120384623807,0.0,-0.00859119519337,0.00871686754936,-0.999925100988,0.0,0.659843934343,0.258476001453,0.303404672322,1.0,-0.00874,-0.0114868571429,0.438
0.463563118847,0.536667835705,-0.123999431112,-1.37305153635,0.0786895449939,1.90040009784,0.157053054006,-0.00822372765978,-0.0507464321926,0.00177073587024,-0.0728769625924,-0.00804879775232,0.0294323515961,-0.00959529156814,0.574065690435,0.818794452571,0.0022303373955,0.0,0.818752716841,-0.574003684582,-0.0120210503835,0.0,-0.00856271234393,0.00872713541458,-0.999925255739,0.0,0.659696064184,0.258284491496,0.303424347548,1.0,-0.00908,-0.0119337142857,0.455
0.463442695539,0.535814868982,-0.124002798183,-1.3744186395,0.0786092722116,1.90089560822,0.156885301034,-0.00880161824593,-0.0545208672735,-0.000353904930001,-0.0811074400165,-0.00581540186872,0.0243519667291,-0.00755028340839,0.574082957853,0.818782389776,0.00221418069032,0.0,0.81874040477,-0.574020978054,-0.0120338377643,0.0,-0.00858227351272,0.00872142828719,-0.999925137833,0.0,0.659536421315,0.258072651941,0.303418743806,1.0,-0.00942,-0.0123805714286,0.472
0.463333699696,0.534915554708,-0.124002341817,-1.37582494676,0.0785397153378,1.9014028692,0.156716689118,-0.00574387722976,-0.0573015092177,0.000711145214387,-0.0791681680421,-0.00350521750439,0.0419669521035,-0.00463527797899,0.574092337482,0.818775789502,0.00222294196168,0.0,0.818733744457,-0.574030142448,-0.0120498195254,0.0,-0.0085902301929,0.00873787488472,-0.999924925926,0.0,0.659366491261,0.257869068626,0.303427926597,1.0,-0.00976,-0.0128274285714,0.489
0.463214677426,0.534082252828,-0.124001000538,-1.37721516279,0.0784603774731,1.90190780521,0.15655211331,-0.00360258409034,-0.0537339284182,-0.000622754230929,-0.0839023683268,-0.000811339185056,0.0255577103546,-0.0136522195382,0.574109077935,0.818764167558,0.00217978366113,0.0,0.818721465872,-0.574046969023,-0.0120824491272,0.0,-0.00864154457441,0.00872144731682,-0.999924627192,0.0,0.659200677513,0.25765870984,0.303397803222,1.0,-0.01008,-0.013248,0.505
0.463089031855,0.533162233567,-0.124011579045,-1.37868581178,0.0783790034096,1.90246444407,0.156356687441,-0.00856270046557,-0.0509611819967,-0.000869352754789,-0.0863320750834,-0.00638567446259,0.0319811387734,-0.011408837699,0.574118188719,0.818757765273,0.0021849685916,0.0,0.818715113232,-0.574056038295,-0.012082018168,0.0,-0.00863811809226,0.00872554118827,-0.999924621082,0.0,0.65903294659,0.25743184348,0.303395253594,1.0,-0.01042,-0.0136948571429,0.522
0.462952454458,0.532159395025,-0.124006327777,-1.38033214293,0.0782906231495,1.90308798929,0.156151728817,-0.00811946493096,-0.0490017381778,0.000619135215258,-0.0924237140304,-0.00571143209841,0.0342929592599,-0.0170844574728,0.574124932008,0.818753069215,0.00217278590222,0.0,0.818710121139,-0.574062694712,-0.012104006988,0.0,-0.00866304433158,0.0087282620443,-0.999924381693,0.0,0.658838992245,0.257190624844,0.303372582756,1.0,-0.01078,-0.014168,0.54
0.462827892315,0.531214822361,-0.124003822159,-1.38183925432,0.0781941827812,1.90363053242,0.155965849962,-0.00426786828184,-0.0617142653167,0.000194186876283,-0.0997566534575,-0.00726492630935,0.0363427233901,-0.0068452112762,0.574129131977,0.818750176416,0.00215298310865,0.0,0.818706957972,-0.574066967715,-0.0121152980947,0.0,-0.00868361315411,0.0087185756898,-0.999924287784,0.0,0.658657343257,0.256964742858,0.303367910532,1.0,-0.0111,-0.0145885714286,0.556
0.462690091914,0.530176201387,-0.124009432146,-1.38348404893,0.0780967729247,1.90420515764,0.155759199672,-0.00726695965502,-0.06167109577,0.000864367129168,-0.1011651017,-0.00200904850295,0.0291673635875,-0.0142465922792,0.574139830375,0.818742743627,0.00212646096911,0.0,0.818699109775,-0.574077710883,-0.0121365737214,0.0,-0.00871614563429,0.00870918975902,-0.999924086528,0.0,0.658457309889,0.256712365474,0.303366811312,1.0,-0.01144,-0.0150354285714,0.573
0.462554251559,0.529128489302,-0.124014434067,-1.38513827058,0.0779897565494,1.9048255155,0.155522157757,-0.00677315154459,-0.0647476718217,-0.000270368879716,-0.0999858433884,-0.0108757449197,0.0375368707151,-0.0150940628961,0.574121604146,0.818755508963,0.00213239220126,0.0,0.81871202719,-0.574059535757,-0.012124885256,0.0,-0.0087033640885,0.00870714135457,-0.9999242157,0.0,0.658263863773,0.256462196967,0.303371318549,1.0,-0.01178,-0.0154822857143,0.59
0.462422486214,0.528101816032,-0.124016549263,-1.38674159555,0.0778811112022,1.90544547516,0.155307399929,-0.00567491418323,-0.062761507836,-0.00113029871564,-0.103240245763,-0.00417331301857,0.0411414645654,-0.018816750548,0.574112937273,0.818761511556,0.00216086832597,0.0,0.818718538632,-0.574050884375,-0.0120947736551,0.0,-0.00866245356527,0.00871307674049,-0.999924519247,0.0,0.658079620729,0.256221886884,0.303384852376,1.0,-0.0121,-0.0159028571429,0.606
0.462279045854,0.526946213508,-0.124015872847,-1.38850568498,0.0777855509638,1.90611979402,0.155054798088,-0.00934135116348,-0.0726311648488,0.000168103354615,-0.105067516496,-0.00760594028319,0.038031569523,-0.0122397471226,0.574092908201,0.818775389372,0.00222292903203,0.0,0.818733140311,-0.574030505871,-0.0120735325207,0.0,-0.00860964797632,0.0087514835573,-0.999924639909,0.0,0.65787312296,0.255963940152,0.303417006722,1.0,-0.01244,-0.0163497142857,0.623
0.462125819465,0.525785610586,-0.124015908923,-1.39031663434,0.0776626814119,1.90678052584,0.154812011714,-0.0102969407344,-0.0662631563225,0.0001258714948,-0.110130059984,-0.0121586044927,0.0358470736873,-0.0134603360511,0.574084088496,0.818781568857,0.00222457568691,0.0,0.818739420519,-0.574021760895,-0.0120634243931,0.0,-0.00860052028399,0.00874693621127,-0.999924758248,0.0,0.657656655274,0.255688385189,0.303428885542,1.0,-0.01278,-0.0167965714286,0.64
0.461976733903,0.524695625871,-0.124022607197,-1.39205044997,0.0775569415389,1.90740251159,0.154573898577,-0.0114230462974,-0.0670098983803,-0.00254530129365,-0.111635206982,-0.00941638255341,0.0427214654411,-0.015408087714,0.574080683507,0.818784011726,0.00220405698928,0.0,0.818741572606,-0.574018419959,-0.0120763295429,0.0,-0.0086229022572,0.0087375088279,-0.999924647909,0.0,0.657447666192,0.255420074508,0.303424410701,1.0,-0.0131,-0.0172171428571,0.656
0.461819722732,0.523492446742,-0.124025803639,-1.39396500606,0.0774386969528,1.90809668649,0.154317294265,-0.00612996049577,-0.0726503380579,-0.00055623828103,-0.114964885366,-0.00301392166398,0.0345234554645,-0.01482850312,0.574072291225,0.81878994124,0.00218711547906,0.0,0.818747258813,-0.574010078541,-0.0120872999724,0.0,-0.00864169968576,0.00872984686969,-0.999924552554,0.0,0.65721492017,0.255131536889,0.303419358464,1.0,-0.01344,-0.017664,0.673
0.461659230891,0.522264667992,-0.124027631216,-1.39590741669,0.0773303945369,1.90885518664,0.154052321385,-0.00757821825912,-0.0761252146109,0.000140945681467,-0.117095387586,-0.00592304231307,0.0540220209176,-0.0165211244886,0.574063273384,0.818796156755,0.00222682205079,0.0,0.818753947014,-0.574000846701,-0.0120726607105,0.0,-0.0086070161607,0.00875385900824,-0.999924641773,0.0,0.656988514832,0.254844479573,0.303423566631,1.0,-0.01378,-0.0181108571429,0.69
0.461503373592,0.521084209569,-0.124031477204,-1.39778604803,0.0772006104235,1.90957487719,0.153804528219,-0.007760791285,-0.079059964615,8.6393973843e-05,-0.121720409785,-0.00938249080846,0.0340349664856,-0.00810448928336,0.574056225015,0.818801080333,0.00223344288893,0.0,0.818759121315,-0.573993938573,-0.0120501720424,0.0,-0.00858487649162,0.00874629640401,-0.999924898277,0.0,0.656767956414,0.254560220767,0.303421212594,1.0,-0.0141,-0.0185314285714,0.706
0.461323740969,0.519797049266,-0.124034899723,-1.39983970113,0.0770795599866,1.91032317156,0.153520277967,-0.0111450720607,-0.074520002775,-0.00260023915241,-0.121730775605,-0.00797258395818,0.0485123189258,-0.0139174435603,0.57404980481,0.818805621582,0.00221868537039,0.0,0.818763395644,-0.573987505788,-0.0120661532814,0.0,-0.00860650215761,0.0087433196397,-0.999924738409,0.0,0.656519416235,0.254244623718,0.303412659499,1.0,-0.01444,-0.0189782857143,0.723
0.461147970175,0.518438828047,-0.124038210483,-1.40190492665,0.0769433511201,1.91105800485,0.153239623505,-0.00694277466373,-0.0786184247929,-0.00131371359732,-0.121969569058,-0.008006350823,0.0423843262124,-0.0165792529067,0.574040602428,0.818812033002,0.00223344473306,0.0,0.818770011208,-0.573978254017,-0.0120573447844,0.0,-0.00859091568892,0.00875025150228,-0.999924811807,0.0,0.656251188952,0.253908808342,0.303444755192,1.0,-0.0148,-0.0194514285714,0.741
0.46096370493,0.517091516631,-0.124043489757,-1.40403839247,0.076805179912,1.91181954349,0.152950328129,-0.0103531570237,-0.083509857614,0.000116726364769,-0.125169413744,-0.00886010116967,0.0371343015133,-0.0179663588249,0.574032265877,0.818817937717,0.00221122257743,0.0,0.818775676006,-0.573970063246,-0.012062577663,0.0,-0.00860804513451,0.00873497222413,-0.999924798082,0.0,0.656004228394,0.253597799746,0.303442885329,1.0,-0.01512,-0.019872,0.757
0.460778414849,0.515748882249,-0.124052477304,-1.40619079952,0.0766726928594,1.91264542318,0.152647167449,-0.0124136593358,-0.0838280663625,-0.000919385184929,-0.127372296524,-0.00493928892371,0.0523997880393,-0.0273352337216,0.574020407037,0.818826228747,0.00221953188802,0.0,0.818784133087,-0.573958229383,-0.012051606959,0.0,-0.00859441875324,0.00873535400747,-0.999924911959,0.0,0.655750295789,0.253267805508,0.303431978939,1.0,-0.01546,-0.0203188571429,0.774
0.460582250346,0.514279563521,-0.124053851152,-1.40854176988,0.0765294409468,1.91350112116,0.152331184102,-0.0128057830247,-0.078266089152,0.000202309877849,-0.133449478355,-0.00551841773638,0.0480489275191,-0.021528057737,0.57400845192,0.81883467192,0.00219638031748,0.0,0.818792209212,-0.57394630787,-0.0120706551874,0.0,-0.00862343263417,0.00872720521597,-0.999924733317,0.0,0.655459249586,0.252913614315,0.303417284783,1.0,-0.01582,-0.020792,0.792
0.460410804962,0.513036940273,-0.124051758204,-1.41056296962,0.0763971179274,1.91420293558,0.152057015028,-0.0126280873662,-0.0800852243957,0.00207575556887,-0.137988694697,-0.00978057420033,0.046604963735,-0.016313790271,0.573992986769,0.818845696301,0.00212689685365,0.0,0.818802273429,-0.573931089467,-0.0121115016472,0.0,-0.00869692621394,0.00869359236244,-0.999924389605,0.0,0.655201404119,0.252605253052,0.303386803067,1.0,-0.01612,-0.0211862857143,0.807
0.460213122262,0.511614001435,-0.124060245166,-1.41285713637,0.0762673959649,1.91503624737,0.151729477177,-0.00923984263908,-0.0856856781623,0.000366331631642,-0.144156529371,-0.0022143153331,0.0511800467117,-0.017679133339,0.573977938966,0.818856319732,0.00209764549361,0.0,0.818812382922,-0.573916039684,-0.0121411642194,0.0,-0.00873816489238,0.00868650576262,-0.999924091665,0.0,0.654917687808,0.25225283241,0.303364093382,1.0,-0.01646,-0.0216331428571,0.824
0.460014605789,0.510145986399,-0.124061306252,-1.415173317,0.0761192729406,1.91591742636,0.15140490525,-0.00773528869734,-0.0886702022298,0.000103139597479,-0.13969313504,-0.0129567231808,0.0509629758386,-0.01341056403,0.573956536516,0.81887126357,0.00212009197587,0.0,0.818827680104,-0.573894601815,-0.0121228381492,0.0,-0.00871050215717,0.00869413958021,-0.999924266677,0.0,0.654638091849,0.251902514478,0.303365843084,1.0,-0.0168,-0.02208,0.841
0.459819835134,0.508717070036,-0.124067943339,-1.41740298199,0.0759737421343,1.91671937773,0.151087086027,-0.0136794622992,-0.0877793719589,-0.00269915633949,-0.134730953254,-0.00881827432944,0.0508996152241,-0.0227527862232,0.573936991119,0.818884974985,0.00211538901867,0.0,0.818841368708,-0.573875117925,-0.0121205948766,0.0,-0.00871157163456,0.00868879307965,-0.999924303832,0.0,0.654361561889,0.251556328993,0.303374200995,1.0,-0.01712,-0.0225005714286,0.857
0.45959632631,0.507112130109,-0.124066322075,-1.41994386805,0.0758151983103,1.91763207589,0.150748764099,-0.0131257592661,-0.0908341818676,0.00083908678063,-0.143749276941,-0.00399855922437,0.0535610923172,-0.0234604570165,0.573930610563,0.818889500664,0.00209448386273,0.0,0.818845545845,-0.573868754394,-0.0121396738646,0.0,-0.00873926088166,0.0086825563811,-0.999924116388,0.0,0.654042439904,0.251167043626,0.303366435619,1.0,-0.01748,-0.0229737142857,0.875
0.459374417436,0.505523114095,-0.124075516524,-1.42240398036,0.0756614572514,1.91856225579,0.150408809709,-0.012819421473,-0.0975476463231,3.63679348754e-05,-0.147472147785,-0.0110050562932,0.0597372439661,-0.0275321222531,0.573926241942,0.818892444587,0.0021400725631,0.0,0.818849151753,-0.57386425414,-0.0121091451188,0.0,-0.00868814357666,0.00870232030079,-0.999924390033,0.0,0.653746457738,0.250783844106,0.303387206052,1.0,-0.01782,-0.0234205714286,0.892
0.459164892005,0.503972683216,-0.124076936937,-1.42473270365,0.0755184493815,1.91945497369,0.150079869802,-0.0136424857154,-0.100979903233,0.000869323438516,-0.144831957758,-0.0140190742949,0.0561413556612,-0.0256317082617,0.573910911805,0.818902929841,0.00223689732656,0.0,0.818860940514,-0.573848552745,-0.0120559327613,0.0,-0.00858916373469,0.00875090769442,-0.999924821114,0.0,0.653467072028,0.250427618337,0.303439418426,1.0,-0.01814,-0.0238411428571,0.908
0.458929550179,0.50229585065,-0.124086562795,-1.42721838441,0.0753616847259,1.92038284431,0.14973426336,-0.0162099315574,-0.107536474542,-0.0025134366262,-0.151964043576,-0.00867505873332,0.0549733493299,-0.0158415025625,0.573912610826,0.818901464821,0.0023351551163,0.0,0.818860840355,-0.573849929416,-0.0119970639912,0.0,-0.00848454803109,0.00879760277943,-0.999925304525,0.0,0.65316835577,0.250033063149,0.303507863123,1.0,-0.01848,-0.024288,0.925
0.458692636827,0.500486129827,-0.124088208088,-1.42995617132,0.0751825477752,1.92134875238,0.149349262263,-0.0147101682041,-0.103119298807,-0.00165797076974,-0.154073818696,-0.00975804726575,0.0550123269106,-0.0275488278509,0.573883558101,0.81892174163,0.00236426070073,0.0,0.818881495248,-0.573820760517,-0.0119824221433,0.0,-0.00845616694462,0.00881273406449,-0.999925411698,0.0,0.652818633596,0.249613187735,0.303551455553,1.0,-0.01884,-0.0247611428571,0.943
0.458470006751,0.498996663593,-0.124083839606,-1.43225349595,0.0750358859795,1.92219391618,0.149024071048,-0.0134841417166,-0.101328686472,7.64760254598e-05,-0.159466356474,-0.0151924504943,0.0612824387495,-0.0231909744889,0.573873729539,0.818928541423,0.00239447041889,0.0,0.818888675272,-0.573810797042,-0.011968860054,0.0,-0.0084278303888,0.00882958906377,-0.999925502241,0.0,0.652534796298,0.249251263788,0.30357004957,1.0,-0.01914,-0.0251554285714,0.958
0.458180352274,0.497133044751,-0.124089004118,-1.43521400325,0.0748515689897,1.92328594787,0.148586643767,-0.014870715944,-0.102985525697,-0.000199989421424,-0.152725247321,-0.0120833368924,0.0576177519012,-0.00957060005134,0.573856945721,0.818940323873,0.002387191536,0.0,0.818900334798,-0.57379401536,-0.0119756630386,0.0,-0.00843775960355,0.00882735931638,-0.99992543819,0.0,0.652169626677,0.248777093857,0.303555063983,1.0,-0.01952,-0.0256548571429,0.977
0.457929227252,0.495549512854,-0.12409293165,-1.43776656174,0.0746939313672,1.92416104733,0.148207813473,-0.0134764448375,-0.100977227873,0.000927880368874,-0.163067451622,-0.0112408879109,0.0507811698372,-0.0324426724606,0.573836536432,0.818954893834,0.00229308145279,0.0,0.818913506393,-0.573773817317,-0.0120425291988,0.0,-0.00854674267415,0.00878844782309,-0.999924855364,0.0,0.651817426815,0.248339987881,0.303510919094,1.0,-0.01986,-0.0261017142857,0.994
0.457634675448,0.493824805138,-0.124109727441,-1.44060850791,0.0745225686686,1.92516459943,0.147806522496,-0.0227402690629,-0.113878026079,-0.00585332199555,-0.189762857772,-0.0118083204109,0.0663327985672,-0.0324399379117,0.573862784331,0.818936732209,0.00220914018823,0.0,0.81889413755,-0.573800302423,-0.0120975752681,0.0,-0.0086397097908,0.00875156867099,-0.999924379871,0.0,0.65148228111,0.247887851567,0.303455660227,1.0,-0.0286251428571,-0.0376216163265,1.01
0.457317291541,0.491004056512,-0.124193543121,-1.44473942898,0.0743064166539,1.9267310833,0.14720137846,-0.0238883375557,-0.192069230154,-0.00404589693182,-0.296706487173,-0.0134825040571,0.114589470029,-0.0459151629954,0.573836916556,0.818954225879,0.00243228550122,0.0,0.818914631075,-0.573773604006,-0.0119760284451,0.0,-0.00841239985114,0.00886429208453,-0.999925325139,0.0,0.650974179676,0.247250667551,0.303590399901,1.0,-0.0439942857143,-0.0578210612245,1.026
0.456733112575,0.486596599493,-0.124229100677,-1.45173841374,0.0739435288468,1.92944832013,0.146143111594,-0.0414531127396,-0.276932600157,-0.00264990612193,-0.44623973973,-0.0211297221743,0.170346859594,-0.0659127207723,0.573726997541,0.819030838344,0.00256223264291,0.0,0.818992535819,-0.573662754705,-0.0119589731454,0.0,-0.0083250706483,0.00895980767003,-0.999925204725,0.0,0.650096945102,0.246203620033,0.303559385248,1.0,-0.0612845714286,-0.0805454367347,1.044
0.456010007612,0.481710434667,-0.124374316967,-1.45948994866,0.0734805779703,1.9322248522,0.144931608809,-0.0550289014327,-0.346981602635,-0.0067760849911,-0.558401936699,-0.0340539972805,0.191379554003,-0.0861819239128,0.573688761071,0.819057912912,0.00246730988233,0.0,0.819018504645,-0.57362504174,-0.0119894720492,0.0,-0.00840492304012,0.00889916915271,-0.999925078222,0.0,0.64911455003,0.244908482045,0.303506032241,1.0,-0.0756931428571,-0.0994824163265,1.059
0.454943421244,0.474818240249,-0.124553582612,-1.47043407251,0.0728252732869,1.93598325812,0.143344579253,-0.0645857850986,-0.441237231221,-0.0140860927196,-0.693967558411,-0.0398686357694,0.237043456183,-0.0969808850324,0.573746408243,0.819018283483,0.00220391708568,0.0,0.818975207436,-0.573683545981,-0.0121468340377,0.0,-0.00868429539416,0.00877432478602,-0.999923794215,0.0,0.647682411809,0.243056529657,0.303402035325,1.0,-0.0920228571428,-0.120944326531,1.076
0.453657086998,0.466540972,-0.124697219228,-1.48310947159,0.0720852978106,1.94062661847,0.141386155712,-0.0777085274831,-0.516407109012,-0.00925214306631,-0.762723298401,-0.0490509917742,0.292085137121,-0.125364723925,0.573706984941,0.819045293117,0.00241870941875,0.0,0.819004870733,-0.573643061022,-0.0120584890693,0.0,-0.00848913628178,0.00889914553785,-0.999924367027,0.0,0.646060617885,0.240945142986,0.30349344044,1.0,-0.108352571429,-0.142406236735,1.093
0.452188756233,0.4576875396,-0.12482404107,-1.49687555692,0.0712091367317,1.9455542066,0.139228271478,-0.101572490494,-0.58742698542,-0.00971004416976,-0.914126529687,-0.0631162329186,0.314825312057,-0.140129350385,0.573641042151,0.819091503617,0.00241046947881,0.0,0.819050975609,-0.573577163012,-0.0120616883848,0.0,-0.00849719982753,0.00889354810182,-0.999924348337,0.0,0.64425481072,0.238607130285,0.303470294274,1.0,-0.123721714286,-0.162605681633,1.109
0.450209546399,0.446256691462,-0.125025534015,-1.51426066395,0.0700119019798,1.95173061098,0.136501886515,-0.110900952155,-0.667396753524,-0.00919016982237,-0.994928678294,-0.0742516816252,0.35045677187,-0.148609680124,0.573641410778,0.819090894311,0.00252697420795,0.0,0.819052764098,-0.573577995382,-0.0118995688441,0.0,-0.00829757143978,0.0088959819444,-0.999926003169,0.0,0.641966662323,0.235543542103,0.303581663323,1.0,-0.141012,-0.185330057143,1.127
0.448025939228,0.434284366336,-0.125169340518,-1.53265592132,0.0688283512788,1.95802523198,0.13357339686,-0.136015920359,-0.739115393085,-0.0040692220739,-1.09966885553,-0.0706757831017,0.396206663502,-0.189466510173,0.573628504524,0.819100257776,0.00241938229899,0.0,0.819060042408,-0.573564795991,-0.0120340613267,0.0,-0.00846959328597,0.0088848710319,-0.99992465969,0.0,0.639436707041,0.232292294411,0.303559526243,1.0,-0.157341714286,-0.206791967347,1.144
0.445674544383,0.421842626928,-0.12534150951,-1.55145954896,0.0675299731037,1.96452206471,0.130453287028,-0.149751205881,-0.801200017994,-0.00839846546224,-1.20539910615,-0.0894994271082,0.410014386628,-0.204226039641,0.573574469057,0.819137883311,0.00249067708591,0.0,0.819098814806,-0.573510708276,-0.0119727180315,0.0,-0.00837903824862,0.00890752753473,-0.99992522104,0.0,0.636843144347,0.228883415595,0.303644396894,1.0,-0.172710857143,-0.226991412245,1.16
0.442847723106,0.407535742743,-0.125523435171,-1.57271702922,0.0660101012774,1.97205400471,0.126906663925,-0.173213558596,-0.875588482198,-0.0122759022456,-1.28415888012,-0.0887687963479,0.449685217347,-0.218145204648,0.573577936332,0.819134068008,0.00291144012014,0.0,0.819101386687,-0.57351363678,-0.0116521952916,0.0,-0.00787511113917,0.00906838136321,-0.999927870941,0.0,0.633916385366,0.224953971008,0.303872332931,1.0,-0.189040571429,-0.248453322449,1.177
0.43963060652,0.392189823516,-0.125715342989,-1.59550550647,0.0645133883808,1.97983928022,0.122990955234,-0.198266186284,-0.916107903809,-0.00791351939002,-1.36327138401,-0.0903719040184,0.459668064324,-0.235735824486,0.573642499144,0.81908767535,0.00322647905486,0.0,0.819058330558,-0.573576271114,-0.0115956569255,0.0,-0.00764737508579,0.00929461511635,-0.999927561268,0.0,0.630664264393,0.220650290738,0.304041198233,1.0,-0.205370285714,-0.269915232653,1.194
0.436274170218,0.376872402427,-0.125911274792,-1.61836306884,0.0627257772404,1.98752929245,0.118919672408,-0.20935996586,-0.982691920662,-0.0168446159638,-1.45526412562,-0.115366216114,0.498253800866,-0.266228036496,0.573562971781,0.819143332418,0.00323500520804,0.0,0.819115092274,-0.573497940876,-0.0114596824025,0.0,-0.0075319986204,0.00922286865273,-0.999929101332,0.0,0.627323123292,0.216225051812,0.30409128282,1.0,-0.220739428571,-0.290114677551,1.21
0.432051944124,0.358560912495,-0.126129919035,-1.64538904846,0.060690374618,1.9964927791,0.114059421413,-0.244750251995,-1.05818806214,-0.0125832829293,-1.54312553543,-0.130755174361,0.512314417023,-0.273793724975,0.573599760142,0.819116992261,0.00337861750919,0.0,0.819090790268,-0.573534534775,-0.0113649294108,0.0,-0.00737159490098,0.00928649406348,-0.999929707838,0.0,0.623275852542,0.210886427279,0.304194411952,1.0,-0.238029714286,-0.312839053061,1.228
0.427557931415,0.340355977639,-0.126396709194,-1.6722206155,0.0586536580202,2.00516330948,0.108980588459,-0.2691841072,-1.11161675709,-0.0194886623322,-1.6129984609,-0.131140305383,0.544206970928,-0.306115737348,0.573649919764,0.819081917183,0.00336591737347,0.0,0.819055330157,-0.573584445857,-0.0114016013281,0.0,-0.00740835025704,0.00929757925988,-0.999929333186,0.0,0.619151671846,0.20539903021,0.304209958826,1.0,-0.254359428571,-0.334300963265,1.245
0.422992441258,0.322451014628,-0.126579256787,-1.6984243376,0.0565669449503,2.01358610898,0.103872147253,-0.288292415003,-1.1585672127,-0.0155395432818,-1.70138236972,-0.15748779758,0.534047845753,-0.319573638137,0.573570752401,0.819137200506,0.00340376833219,0.0,0.819111105147,-0.573505184836,-0.0113818843457,0.0,-0.00737138801501,0.00931655978082,-0.999929429686,0.0,0.615012807506,0.200010528829,0.304218095332,1.0,-0.269728571429,-0.354500408163,1.261
0.417697391665,0.302544987669,-0.126771344386,-1.72728156561,0.0541712789387,2.02261074074,0.0979967469437,-0.325576109053,-1.19413505926,-0.0088981409299,-1.72739097503,-0.14908874881,0.535464423467,-0.35828838799,0.573387773003,0.819265392884,0.00338004346182,0.0,0.819239034254,-0.573322351315,-0.0113856549445,0.0,-0.00739016088977,0.00929763788255,-0.999929467238,0.0,0.61031515023,0.193952592611,0.304228157114,1.0,-0.286058285714,-0.375962318367,1.278
0.411821965339,0.281779002741,-0.127015375499,-1.75708080548,0.0516925956776,2.03166181094,0.0918141944205,-0.357782682343,-1.24528441964,-0.0100533812881,-1.7662457609,-0.145823404152,0.525800823635,-0.379326088528,0.573395963262,0.819259815403,0.00334231671907,0.0,0.819232476885,-0.573330034025,-0.011470300935,0.0,-0.00748105010179,0.00931533800698,-0.999928626637,0.0,0.605336807377,0.187483212617,0.304239089221,1.0,-0.302388,-0.397424228571,1.295
0.406159647592,0.262718879956,-0.127282544798,-1.78405510323,0.0493959027432,2.03973119322,0.0859096489563,-0.383761693534,-1.28841375951,-0.022361173262,-1.80323483082,-0.161380436588,0.524188645314,-0.402868004116,0.573383004108,0.819268543533,0.00342506633114,0.0,0.819241971542,-0.573316450513,-0.0114711174748,0.0,-0.00743442197016,0.00938348255305,-0.999928337245,0.0,0.600739466798,0.181453210964,0.304303645844,1.0,-0.316796571429,-0.416361208163,1.31
0.398641383202,0.239151630471,-0.127678426966,-1.81714869165,0.0463698295189,2.04945092248,0.0784126234645,-0.431941303918,-1.32898543087,-0.0200850029342,-1.84427770824,-0.165166572832,0.525025193747,-0.422145709163,0.573516017833,0.819175338308,0.0034480861067,0.0,0.819149700764,-0.573450187628,-0.0113752779761,0.0,-0.00734118290014,0.00934858281832,-0.999929353021,0.0,0.594994796209,0.173740297387,0.304346302592,1.0,-0.334086857143,-0.439085583673,1.328
0.390601434005,0.214703987339,-0.127974938745,-1.85085473116,0.0433186245877,2.0591660456,0.0702930229542,-0.468741071849,-1.38454658585,-0.0184069305826,-1.86844407945,-0.181279419152,0.5490211116,-0.466062284098,0.573393463151,0.819259682491,0.00377570674496,0.0,0.819238061666,-0.573326502964,-0.0112457200019,0.0,-0.00704858796099,0.0095416087182,-0.99992963508,0.0,0.588940834577,0.165850087345,0.304485276676,1.0,-0.351377142857,-0.461809959184,1.346
0.383287516198,0.193752997724,-0.128279228449,-1.87967803836,0.0405323225687,2.06704009611,0.063078342763,-0.499138661286,-1.41570266373,-0.0272416698584,-1.93587055585,-0.190129476275,0.547620183509,-0.489389840928,0.573313978838,0.819315704863,0.00368840551745,0.0,0.819292853124,-0.573247112877,-0.0113011194315,0.0,-0.00714495438128,0.00950115695318,-0.999929336325,0.0,0.583583337698,0.158883323656,0.304461677868,1.0,-0.365785714286,-0.480746938775,1.361
0.374176245809,0.169264090417,-0.128785250751,-1.91282162639,0.0373230106067,2.07579622024,0.054338484978,-0.54650225483,-1.44104842455,-0.0330941984506,-1.95681640208,-0.193303187988,0.510451698357,-0.512914733347,0.57346036276,0.819213117152,0.00371859243841,0.0,0.81919014317,-0.573392714822,-0.0113600538289,0.0,-0.00717422942075,0.00956095893979,-0.999928556696,0.0,0.577296842517,0.150507573978,0.304493310579,1.0,-0.382115428571,-0.50220884898,1.378
0.3643888294,0.144120019796,-0.129217863961,-1.94649964836,0.0337602912842,2.08433111812,0.0450265543604,-0.596170425522,-1.49381742369,-0.0228574452282,-1.9979433453,-0.210648555552,0.48338530285,-0.562535258782,0.573395290994,0.81925930427,0.0035748472462,0.0,0.819234801932,-0.573328477833,-0.0113816831076,0.0,-0.00727512812281,0.00945502481172,-0.999928834976,0.0,0.570682426999,0.141857386355,0.304468684483,1.0,-0.398445142857,-0.523670759184,1.395
0.354370110069,0.119815661467,-0.129711913894,-1.97830835342,0.03038524163,2.09212597675,0.035632781814,-0.647803289907,-1.52511884957,-0.0342818208089,-1.97036551935,-0.205468780314,0.4812219922,-0.602440171205,0.573462109807,0.819211690231,0.00376325737134,0.0,0.819189601432,-0.573394756824,-0.0112958688198,0.0,-0.00709601236339,0.00956075814582,-0.999929116744,0.0,0.563887032644,0.132823120729,0.304588238706,1.0,-0.414774857143,-0.545132669388,1.412
0.342138744341,0.0917314455416,-0.130357023733,-2.0146560466,0.0262651704455,2.10063192365,0.0242974378702,-0.694758663967,-1.58548592231,-0.0341270793692,-2.02995394756,-0.232225365432,0.477950706655,-0.645418483219,0.573474893028,0.819202700261,0.00377224767656,0.0,0.819181581333,-0.573408671406,-0.0111704638653,0.0,-0.00698796917325,0.00949631922065,-0.999930491688,0.0,0.556771238568,0.12336202897,0.304625421491,1.0,-0.42998,-0.565116571429,1.429
0.329856005849,0.0651254827277,-0.130813010752,-2.04879967236,0.0224461899226,2.10805344273,0.0129684502414,-0.733478132657,-1.57900552837,-0.0216597859056,-2.00828327523,-0.233717177383,0.424863424057,-0.681059083181,0.573375696978,0.819272581477,0.00367345289663,0.0,0.819248833201,-0.573307931322,-0.0114066684263,0.0,-0.00723929038544,0.00954996232484,-0.999928192869,0.0,0.549401771337,0.113840007356,0.304533862628,1.0,-0.42998,-0.565116571429,1.446
0.317455639815,0.0402601410534,-0.131398753681,-2.07995346812,0.0186194461185,2.11425512636,0.00205525718386,-0.786786040851,-1.55462171197,-0.0249146895721,-1.92220810039,-0.242054659294,0.384000541383,-0.684033511753,0.573676957807,0.819062453609,0.00349171460715,0.0,0.8190363568,-0.573609675926,-0.0114949043257,0.0,-0.0074123059666,0.00945438498086,-0.999927833558,0.0,0.542503843828,0.104573826506,0.304538669782,1.0,-0.42998,-0.565116571429,1.462
0.303901598071,0.0140570550168,-0.131830544236,-2.11186480194,0.0146960081116,2.12040564893,-0.00998790342904,-0.818626996794,-1.54743632723,-0.0230638086713,-1.83023751165,-0.235119219491,0.365793801691,-0.723497196916,0.573728930495,0.819024675723,0.00380023310302,0.0,0.819002751203,-0.573661021314,-0.0113257692026,0.0,-0.00709617546869,0.00961050785026,-0.99992863867,0.0,0.535245015888,0.094964593443,0.304725990593,1.0,-0.42998,-0.565116571429,1.479
0.288893649352,-0.0132370998259,-0.13235015254,-2.14464557997,0.0105076993509,2.126317219,-0.0232555284714,-0.823225362785,-1.53089162473,-0.0174499481441,-1.80184277147,-0.238322671613,0.334156227955,-0.745063836918,0.573816392948,0.818962049024,0.00408121845788,0.0,0.818944129181,-0.573748314986,-0.0111414196213,0.0,-0.00678293822135,0.00973560655597,-0.999929602379,0.0,0.527565807262,0.084732154192,0.304862937596,1.0,-0.42998,-0.565116571429,1.497
0.275980165292,-0.0356232664896,-0.132701222039,-2.17115092512,0.00693432494521,2.13059207271,-0.034634777631,-0.87460778834,-1.48099163502,-0.0315108409031,-1.77925810989,-0.25574277403,0.288343619651,-0.756033476049,0.573766002142,0.818997120422,0.00412776291957,0.0,0.818980145242,-0.573698327558,-0.0110678614602,0.0,-0.00669658491167,0.00973110585165,-0.999930228231,0.0,0.52112454554,0.076280984263,0.304926407201,1.0,-0.42998,-0.565116571429,1.512
0.258867673057,-0.0635723055938,-0.133281006056,-2.20379101544,0.00254988751079,2.13530840371,-0.049621887074,-0.91521177675,-1.45353193237,-0.0236347176781,-1.69575747125,-0.229847019528,0.237678648999,-0.802292377252,0.573916955347,0.818891142191,0.00416803403974,0.0,0.818873865186,-0.573847977253,-0.0111731293599,0.0,-0.00675788887084,0.00982573170405,-0.999928890439,0.0,0.512936208436,0.0654721067193,0.304937279844,1.0,-0.42998,-0.565116571429,1.531
0.242974379649,-0.0881652943845,-0.133830144591,-2.23201793649,-0.00142061680259,2.13890600118,-0.0636216453891,-0.955366521983,-1.42521730191,-0.0413716690199,-1.66486809355,-0.235453517313,0.205624766474,-0.833443085775,0.573955257774,0.818864424766,0.00414280432914,0.0,0.818846247374,-0.573885502588,-0.0112694269132,0.0,-0.00685076934074,0.00986065645566,-0.999927914609,0.0,0.505607404571,0.0558132615604,0.304919651521,1.0,-0.42998,-0.565116571429,1.548
0.228565439471,-0.109526568858,-0.134176282609,-2.25608985506,-0.00492205770122,2.14155113491,-0.0763209714145,-0.972380612505,-1.38867022837,-0.0280292827637,-1.61468030018,-0.229094279916,0.15223330097,-0.850566868053,0.573841458655,0.81894444503,0.00408939896467,0.0,0.818925145753,-0.573771238051,-0.0113542476772,0.0,-0.00695225240834,0.0098646396171,-0.999927174884,0.0,0.499143442589,0.0474265269308,0.304910540617,1.0,-0.42998,-0.565116571429,1.563
0.211524102228,-0.133377882669,-0.134715615226,-2.2826219888,-0.00888995739723,2.14410429192,-0.0912418729,-1.01427499232,-1.39815363646,-0.0232808717677,-1.54757664448,-0.218561585711,0.129062760043,-0.885062205269,0.573911262815,0.818895952988,0.00400343537957,0.0,0.818874904014,-0.573840370951,-0.0114833420268,0.0,-0.0071064662907,0.00986892209342,-0.999926048522,0.0,0.491815203309,0.0377886786506,0.304849966626,1.0,-0.42998,-0.565116571429,1.58
0.19399287318,-0.156852630145,-0.135234733925,-2.30829864694,-0.0128488899721,2.14612638542,-0.106828269753,-1.04893577846,-1.35875795638,-0.0454034841396,-1.48232755519,-0.230362421001,0.0866652406195,-0.938805371112,0.57375557175,0.819005606414,0.0038868302313,0.0,0.818982305707,-0.57368403403,-0.0116343860626,0.0,-0.00729895549331,0.00985872882313,-0.999924762527,0.0,0.484471518443,0.0282364786266,0.304768372605,1.0,-0.42998,-0.565116571429,1.597
0.176902643069,-0.178589936165,-0.13569755568,-2.3316647204,-0.0164656120983,2.14744935653,-0.121954138651,-1.08180482211,-1.34534666081,-0.0303347369421,-1.458697867,-0.215378377938,0.0621757317764,-0.961522770097,0.573689709278,0.819052365205,0.00375332146165,0.0,0.819025642545,-0.573616388178,-0.0119156606546,0.0,-0.00760672979471,0.00991014921966,-0.999921960257,0.0,0.47753650285,0.0192731499711,0.304673919945,1.0,-0.42998,-0.565116571429,1.613
0.156889893048,-0.202728887981,-0.136361941132,-2.35703395473,-0.0206111427791,2.14848393344,-0.139691037207,-1.11355340278,-1.30636969669,-0.021583224365,-1.4032758527,-0.215963130916,0.0374226213548,-0.999465779379,0.573691302999,0.819051651691,0.00366437259353,0.0,0.8190228274,-0.573617095014,-0.012074079908,0.0,-0.00778749826266,0.00992819058559,-0.999920389782,0.0,0.469754902201,0.00907474705746,0.304613361386,1.0,-0.42998,-0.565116571429,1.631
0.137300145878,-0.225207014507,-0.137075124335,-2.3800389333,-0.0244331537422,2.14898581791,-0.157051978626,-1.17166476074,-1.30081986441,-0.0417549409381,-1.34574836127,-0.221148043266,0.00625922836148,-1.02030278676,0.573817872621,0.818962619072,0.00374493333898,0.0,0.818934160048,-0.573742456004,-0.0121318830468,0.0,-0.00778708138824,0.0100285382396,-0.999919391643,0.0,0.462429135249,-0.000579543446762,0.304626752372,1.0,-0.42998,-0.565116571429,1.648
0.118275871193,-0.246013894111,-0.137680471553,-2.40083049614,-0.0280291892053,2.14913889771,-0.174023897262,-1.2166010447,-1.3092558944,-0.0507906349395,-1.27579981874,-0.231605086153,0.0143340917947,-1.08546893751,0.57380969414,0.818967604309,0.00390447240364,0.0,0.818941844977,-0.573734486884,-0.0119891620657,0.0,-0.00757875077796,0.0100772272696,-0.999920502854,0.0,0.455575413022,-0.00962013766322,0.304694942222,1.0,-0.42998,-0.565116571429,1.664
0.0973710759129,-0.267568012831,-0.138399925573,-2.42201663563,-0.0317194820776,2.14885554127,-0.192707025857,-1.24561606917,-1.26166713169,-0.0410630943709,-1.19677735199,-0.215573420352,-0.019646197114,-1.11222223532,0.573920164567,0.818889341716,0.00407892494526,0.0,0.818865738466,-0.57384415429,-0.0119388380556,0.0,-0.00743606316787,0.0101922280211,-0.999920408559,0.0,0.448299759113,-0.0192559279041,0.304737858965,1.0,-0.42998,-0.565116571429,1.681
0.0758201997767,-0.288735072472,-0.139099540304,-2.44239555266,-0.0353911408707,2.14821656254,-0.212139590845,-1.27910409051,-1.23161639042,-0.0373109341979,-1.17697084627,-0.207737979757,-0.0575107832727,-1.16065828331,0.573905955642,0.818898325313,0.00427010296035,0.0,0.818877690329,-0.573829961216,-0.0118004573608,0.0,-0.00721320063101,0.010269242523,-0.999921253097,0.0,0.441009225706,-0.028859131289,0.304795940617,1.0,-0.42998,-0.565116571429,1.698
0.0549006159491,-0.308069081472,-0.139818780789,-2.46056122916,-0.0387902256481,2.14727515624,-0.231101033407,-1.31715236621,-1.17960397007,-0.0431267272971,-1.136888999,-0.215351766389,-0.0738192473102,-1.19310072099,0.573920875026,0.818886686345,0.00449121786008,0.0,0.818869901365,-0.57384561247,-0.011577762694,0.0,-0.00690374298258,0.0103226415651,-0.999922887729,0.0,0.434212437115,-0.0379267630035,0.304893156508,1.0,-0.42998,-0.565116571429,1.714
0.0306721705182,-0.329217372014,-0.140604476712,-2.48012780112,-0.0424984729811,2.14577837136,-0.253098421068,-1.35854187649,-1.1557263464,-0.047093916737,-1.07056191292,-0.211650974956,-0.0952263315912,-1.26038353654,0.573973479976,0.818848831755,0.00466711032016,0.0,0.818834654798,-0.57389820763,-0.011463083468,0.0,-0.0067082154125,0.0104012978345,-0.999923403491,0.0,0.426522572489,-0.0480849223321,0.304958917993,1.0,-0.42998,-0.565116571429,1.732
0.00708135335567,-0.348448486516,-0.14137349157,-2.49789820853,-0.0459757233376,2.14394332991,-0.274702304785,-1.41520306892,-1.12159158696,-0.057041598297,-1.02821866632,-0.195096607859,-0.117854320742,-1.2757444808,0.573937939729,0.818874304112,0.00456752721051,0.0,0.818857417671,-0.573860805034,-0.0117069582624,0.0,-0.00696553656656,0.0104594224187,-0.999921037774,0.0,0.419154216807,-0.0576712850757,0.304862300555,1.0,-0.42998,-0.565116571429,1.749
-0.0157728648252,-0.366068732235,-0.142110021295,-2.51362182032,-0.0491132124921,2.14199029962,-0.295748341325,-1.44258519943,-1.08965128751,-0.0545100673223,-0.977214853589,-0.201522653315,-0.129655921493,-1.32396269763,0.573924734778,0.818882951486,0.00467519815258,0.0,0.818867264087,-0.573846959628,-0.0116969070548,0.0,-0.00689568228999,0.01054171396,-0.999920657769,0.0,0.412282726303,-0.0667027620376,0.304898312274,1.0,-0.42998,-0.565116571429,1.765
-0.0407408984929,-0.384055894284,-0.142896817789,-2.52948735721,-0.0524521065961,2.13968356587,-0.318817095323,-1.49513885133,-1.04726780496,-0.0558754906582,-0.897096603699,-0.189684842191,-0.129036480982,-1.36558678521,0.573892870041,0.818905385428,0.00465728828789,0.0,0.818889187217,-0.573814733421,-0.0117429838514,0.0,-0.00694410577511,0.0105532209083,-0.999920201278,0.0,0.404954626011,-0.0763090590884,0.304889085792,1.0,-0.42998,-0.565116571429,1.782
-0.0664288486418,-0.401282329395,-0.143715458104,-2.54446173374,-0.0555260755497,2.13726116402,-0.342653497617,-1.53778812232,-1.00151585436,-0.0513691076768,-0.856952434634,-0.181306162475,-0.149435606516,-1.44096423942,0.573969770943,0.818850774795,0.00478095823574,0.0,0.818835286822,-0.573889837587,-0.0118310722438,0.0,-0.00694427302687,0.010705701252,-0.999918579202,0.0,0.397622687637,-0.0859136656676,0.304863912973,1.0,-0.42998,-0.565116571429,1.799
-0.0911518551175,-0.416852792193,-0.144463742983,-2.55747135492,-0.058401316963,2.13482824214,-0.365754731217,-1.57607227713,-0.965460199987,-0.0481445238442,-0.81516183733,-0.176674568061,-0.151626491239,-1.4576795209,0.573954992907,0.818860134914,0.00494898636476,0.0,0.81884798034,-0.573876333141,-0.0116054407399,0.0,-0.00666325491058,0.0107136744185,-0.99992040594,0.0,0.390798950362,-0.0949469658478,0.304976878629,1.0,-0.42998,-0.565116571429,1.815
-0.119686650612,-0.433285786946,-0.145343256359,-2.57127743756,-0.0614399541681,2.13192763373,-0.392596508831,-1.59436357171,-0.912223923896,-0.052797244926,-0.75352742083,-0.176155665589,-0.175844201844,-1.50740799515,0.573959066131,0.818856827697,0.0050232501781,0.0,0.818844547952,-0.573878417384,-0.0117437324418,0.0,-0.00673383027735,0.0108538916976,-0.999918420955,0.0,0.383037814068,-0.105100717571,0.304948309701,1.0,-0.42998,-0.565116571429,1.833
-0.147255052944,-0.447933019738,-0.146128427736,-2.58307522989,-0.064189589239,2.12919653994,-0.418647419343,-1.63822744115,-0.828585169645,-0.0602276784452,-0.672107460618,-0.151777552336,-0.15472117879,-1.55913072314,0.573952332681,0.818860392256,0.00520813839435,0.0,0.818851718016,-0.57387310438,-0.0115009074835,0.0,-0.00642895084207,0.0108658749518,-0.9999202975,0.0,0.375809466238,-0.114694266052,0.305069032682,1.0,-0.42998,-0.565116571429,1.85
-0.172034700271,-0.459848117793,-0.146708638321,-2.5928529144,-0.0664152635241,2.12673929846,-0.442205698453,-1.66022833345,-0.766363424824,-0.0378227363045,-0.636115237834,-0.135639155711,-0.168895756515,-1.58248207199,0.573873909778,0.818915211778,0.00523053501685,0.0,0.818905660302,-0.573792662414,-0.0116724884473,0.0,-0.00655766199092,0.0109820627525,-0.999918192337,0.0,0.369378484019,-0.12306911817,0.305017411078,1.0,-0.420046285714,-0.552060832653,1.865
-0.201827973493,-0.472643247993,-0.147136667164,-2.60324040792,-0.0687491383894,2.12396497014,-0.470452686232,-1.65660513807,-0.69087698229,-0.0320818351487,-0.54202515854,-0.114775926694,-0.163453383949,-1.56890895071,0.573854526285,0.818928647086,0.00525362206712,0.0,0.818918210356,-0.573771228424,-0.011844369205,0.0,-0.00668544477706,0.0110994453591,-0.999916050047,0.0,0.361893566526,-0.132872677087,0.304957443948,1.0,-0.402756,-0.529336457143,1.883
-0.229685017755,-0.483418009096,-0.147333096921,-2.61163061196,-0.070498018317,2.12158050394,-0.49670338731,-1.62623197308,-0.612707220014,-0.020171463149,-0.474761305588,-0.0874256438104,-0.139554094179,-1.53349992063,0.574070005029,0.818776067987,0.00548878128559,0.0,0.818769196738,-0.573986727151,-0.0117041201569,0.0,-0.00643268972436,0.0112132452513,-0.999916438326,0.0,0.355143096513,-0.141822267643,0.305030358702,1.0,-0.386426285714,-0.507874546939,1.9
-0.255380508754,-0.492239968631,-0.147272433439,-2.61868434556,-0.0718656887935,2.11939409169,-0.521072308036,-1.59751777204,-0.531735934108,0.00184937681612,-0.415416447196,-0.0649329801552,-0.13235072894,-1.50971625926,0.574107891759,0.818749032714,0.00555850256343,0.0,0.818741355643,-0.574021382982,-0.0119495330383,0.0,-0.00659309622522,0.0114115168513,-0.999913150411,0.0,0.348957693641,-0.149835534422,0.304966086253,1.0,-0.371057142857,-0.487675102041,1.916
-0.282035312358,-0.500360353109,-0.14707087311,-2.62499295784,-0.0729872341627,2.117444706,-0.546383883494,-1.54375454667,-0.455888077584,0.0067759671286,-0.358304206204,-0.0674360127475,-0.110898618498,-1.47667189234,0.57420337985,0.818680656194,0.00576269416638,0.0,0.818675507838,-0.57411584256,-0.0119230486235,0.0,-0.00645283949136,0.0115642540387,-0.999912310601,0.0,0.342734584121,-0.158021455383,0.304979228872,1.0,-0.354727428572,-0.466213191837,1.933
-0.307836324085,-0.507210503962,-0.146745943748,-2.63022262958,-0.0739416960616,2.11576182478,-0.570969344834,-1.49963411115,-0.3809731694,0.00416875068208,-0.287364965066,-0.0454153241565,-0.0857685901358,-1.43617204177,0.574239797615,0.818654153365,0.00589736497721,0.0,0.818651353867,-0.574152831937,-0.0117997157677,0.0,-0.00627401831341,0.0116039756297,-0.999912988436,0.0,0.336835243981,-0.165842139323,0.305017648101,1.0,-0.338397714286,-0.444751281633,1.95
-0.331470113783,-0.512686225289,-0.146300736203,-2.63437685356,-0.0746196796891,2.11435986326,-0.593497373099,-1.47739234144,-0.326641153321,0.0171954807481,-0.251077095192,-0.0346631891791,-0.0863332545512,-1.3775580656,0.574283635132,0.818622601697,0.00600743802106,0.0,0.818621696863,-0.574197131221,-0.0117012317345,0.0,-0.00612955710087,0.0116378690677,-0.999913490525,0.0,0.33150490232,-0.172889436241,0.305050457524,1.0,-0.323028571429,-0.424551836735,1.966
-0.355637965603,-0.51744457115,-0.145643600587,-2.6381615192,-0.0750905304759,2.11294869247,-0.616659938835,-1.41350585621,-0.268890130925,0.0311055781828,-0.207298319515,-0.0220340890896,-0.0727387702973,-1.34156065651,0.57420725159,0.818675846403,0.00605290341009,0.0,0.818673985668,-0.574117671582,-0.0119394836031,0.0,-0.00629960931925,0.0118113200292,-0.999910399807,0.0,0.326065275979,-0.17993364153,0.304983335662,1.0,-0.306698857143,-0.403089926531,1.983
-0.378781456137,-0.52123022013,-0.144873964291,-2.64116562678,-0.0754567284482,2.11186882804,-0.638820854698,-1.34838177792,-0.206286667679,0.0461074961673,-0.161743064417,-0.020222564432,-0.0582950888475,-1.27019920162,0.574115496653,0.818740264231,0.00604343709916,0.0,0.818737720697,-0.574024930344,-0.0120279239013,0.0,-0.00637878484458,0.0118536356393,-0.999909397109,0.0,0.320662044399,-0.187004576117,0.304940706093,1.0,-0.289408571429,-0.380365551021,2.001
-0.399601077596,-0.524053909147,-0.144119329825,-2.64335146925,-0.0756304957054,2.11102977682,-0.658855576664,-1.27359985549,-0.166103908335,0.0452244726763,-0.124435345536,-0.00110265677469,-0.0479578809741,-1.24607771708,0.574026174579,0.818802779193,0.0060585960406,0.0,0.818800242638,-0.573935208799,-0.0120534500392,0.0,-0.00639227987854,0.0118800044515,-0.999908997985,0.0,0.316413920156,-0.192596602793,0.304929693513,1.0,-0.275,-0.361428571429,2.016
-0.42201339589,-0.526453438249,-0.143217469067,-2.64522916656,-0.0757127006756,2.11028825266,-0.680348675921,-1.21682230045,-0.120650008758,0.0437642547027,-0.0995012874689,0.00564308657183,-0.0333020736865,-1.15981174233,0.573991541639,0.818827081772,0.0060553435271,0.0,0.818824349838,-0.573900313055,-0.0120773212422,0.0,-0.00641419765567,0.0118907718995,-0.999908729641,0.0,0.311570228195,-0.198981538487,0.304915686976,1.0,-0.257709714286,-0.338704195919,2.034
-0.442013084827,-0.528095039532,-0.142350099736,-2.64655942028,-0.0757243875952,2.1097456094,-0.699538862718,-1.14646920562,-0.0911497629284,0.0579310540319,-0.0659291418417,-0.000825647168552,-0.0306627207076,-1.11394042955,0.573956285115,0.818852088924,0.00601549184965,0.0,0.818848524466,-0.573864659582,-0.0121323272239,0.0,-0.00648262811898,0.0118894309966,-0.999908304278,0.0,0.307257513613,-0.204635775968,0.304888117085,1.0,-0.24138,-0.317242285714,2.051
-0.459791550739,-0.529139463034,-0.141494347398,-2.64742422667,-0.0756590352348,2.10936443573,-0.716579186778,-1.10827125162,-0.0474371268273,0.0423334279468,-0.0476505530994,0.000418673802058,-0.017587791437,-1.05562217192,0.573932642479,0.818869087901,0.00595698564501,0.0,0.81886453509,-0.573840868589,-0.0121769294285,0.0,-0.00655307544489,0.0118669300401,-0.999908112365,0.0,0.303450982855,-0.209629603304,0.304866891929,1.0,-0.226010857143,-0.297042840816,2.067
-0.477581615291,-0.529868598259,-0.140550474911,-2.64799916656,-0.0754950435621,2.10906381741,-0.733587638279,-1.01525172666,-0.0311633854811,0.0555745573677,-0.0283470394339,0.00473325961167,-0.0163522284999,-0.986943179208,0.573942181826,0.818862776448,0.00590526631759,0.0,0.818857664304,-0.573850841527,-0.0121689847935,0.0,-0.00657611323929,0.0118200938403,-0.999908515873,0.0,0.29966693758,-0.214592671043,0.304871337235,1.0,-0.209681142857,-0.275580930612,2.084
-0.495185690383,-0.53022235402,-0.13952121202,-2.64825992761,-0.0752603466011,2.10886880826,-0.750379852509,-0.941836629044,-0.0103417342646,0.0700549861587,-0.00504222654126,0.0187334368553,-0.0067843588269,-0.908500781022,0.573965451232,0.818847024637,0.00582734389053,0.0,0.818841326187,-0.57387521155,-0.0121190345681,0.0,-0.00657959386715,0.0117278029404,-0.999909579703,0.0,0.295954728137,-0.219481688129,0.304892777776,1.0,-0.192390857143,-0.252856555102,2.102
-0.508633156181,-0.530282603379,-0.138546013954,-2.64832189865,-0.0748502012496,2.10878907316,-0.763353359994,-0.881733763245,0.00496320178664,0.0610181888123,-0.003052232198,0.0346326336744,-0.00211193639615,-0.843332726722,0.573836942067,0.818936936231,0.00584852946717,0.0,0.81893171243,-0.573746993944,-0.0120823929219,0.0,-0.00653926754218,0.0117230953648,-0.999909899448,0.0,0.293160103078,-0.223138240016,0.304905907137,1.0,-0.177982285714,-0.23391957551,2.117
-0.523704533604,-0.530177769963,-0.137406964824,-2.64829872694,-0.0743928164279,2.10878664058,-0.777713528388,-0.803997260393,0.00596418926838,0.0746787101503,0.00401271917904,0.0284877280468,0.00154504765831,-0.766180862822,0.573812624358,0.818954124715,0.00582757591647,0.0,0.81894896348,-0.573723369688,-0.0120348323532,0.0,-0.00651268449335,0.0116784508391,-0.999910595367,0.0,0.290017413699,-0.227212739376,0.30490828001,1.0,-0.160692,-0.2111952,2.135
-0.536588641054,-0.529870614829,-0.136283156836,-2.64812285844,-0.0738395926393,2.10879627561,-0.78999966243,-0.749303737469,0.0211105516708,0.0620547806262,0.011478405424,0.0350413755598,-0.000463385511104,-0.700622346182,0.573755916494,0.818993699088,0.005849448164,0.0,0.818988748849,-0.573666450679,-0.0120407443458,0.0,-0.00650578684143,0.0116993057886,-0.999910396476,0.0,0.287363552904,-0.230642207024,0.304906700833,1.0,-0.144362285714,-0.189733289796,2.152
-0.547675460415,-0.529456066069,-0.13527332366,-2.647878218,-0.073310542424,2.10883113468,-0.800454618139,-0.662475310642,0.0296002269701,0.068298240705,0.0177828280098,0.0318767637641,0.00397211063243,-0.620128285763,0.573800920708,0.81896197326,0.0058767890914,0.0,0.818957116538,-0.573710859203,-0.0120763489962,0.0,-0.00651861838831,0.0117424845008,-0.999909806769,0.0,0.285084294623,-0.233575667778,0.304896100843,1.0,-0.128993142857,-0.169533844898,2.168
-0.558143476189,-0.528900200985,-0.134149960378,-2.64756980884,-0.0727113902248,2.10894650673,-0.810384405184,-0.596007744554,0.0384313174625,0.0559776503543,0.023793088036,0.0366328768764,0.00549204262617,-0.555279259978,0.573722654103,0.819016718467,0.00588879799522,0.0,0.81901178182,-0.573632132051,-0.0121088901344,0.0,-0.00653950561869,0.011770366141,-0.999909342564,0.0,0.282975555203,-0.236300686544,0.304872445834,1.0,-0.112663428572,-0.148071934694,2.185
-0.567631575086,-0.528354025578,-0.133168166916,-2.64720517593,-0.072123361691,2.10902494925,-0.819066078118,-0.53458703369,0.0337417101703,0.063045496749,0.027553592901,0.0342883988132,0.00379309228491,-0.484290164725,0.573961634622,0.818848837634,0.00594726736009,0.0,0.818844513889,-0.573870542347,-0.0121247516082,0.0,-0.00651550265917,0.0118292572527,-0.999908804291,0.0,0.281053809157,-0.238774053485,0.304870778298,1.0,-0.0963337142858,-0.12661002449,2.202
-0.575195056908,-0.527778356229,-0.132110674585,-2.64684214095,-0.0715421634136,2.10915787713,-0.826187658029,-0.442406145068,0.0396797124996,0.0693007886574,0.0258353565561,0.0401612708211,0.00938153083669,-0.421047722325,0.573845477246,0.818930288165,0.00594123482138,0.0,0.818925874737,-0.573754415088,-0.0121255826291,0.0,-0.00652132272242,0.0118238693199,-0.999908830076,0.0,0.279597002668,-0.240683616951,0.30486385278,1.0,-0.0809645714287,-0.106410579592,2.218
-0.582534608645,-0.527239544327,-0.130990227444,-2.64650948823,-0.0709026337178,2.10922745316,-0.832806926869,-0.389528069489,0.0231295730077,0.0661373800793,0.0202321717525,0.033494848492,0.00477475770386,-0.341317955819,0.5739356285,0.818867009851,0.00595494889509,0.0,0.818862387395,-0.573843785034,-0.0121839152116,0.0,-0.00655992210278,0.0118692952243,-0.999908039398,0.0,0.278182123506,-0.242486270949,0.304852456678,1.0,-0.0636742857144,-0.0836862040818,2.236
-0.588211585782,-0.526772518023,-0.129876381525,-2.64618721351,-0.0702726971571,2.10935305378,-0.837786370367,-0.308308658381,0.0211756587701,0.0620008244191,0.0157455071772,0.0405341567167,0.0103771950743,-0.265646410642,0.574006489077,0.818817409813,0.00594531638829,0.0,0.818812996082,-0.573915278823,-0.0121357769119,0.0,-0.00652500313094,0.0118343448698,-0.999908682138,0.0,0.277167869292,-0.243828500217,0.304866866603,1.0,-0.0473445714287,-0.0622242938777,2.253
-0.592336124945,-0.526383851535,-0.128862096969,-2.64593549445,-0.0696294601951,2.10945301377,-0.841371012735,-0.23888117157,0.0243058245933,0.0623149476193,0.0108456011732,0.0427839987922,-0.000547332124762,-0.210928965511,0.574020125894,0.818807524058,0.00599003471149,0.0,0.818803781118,-0.573928878843,-0.0121143286628,0.0,-0.00648157434222,0.0118587598528,-0.999908675334,0.0,0.276488884972,-0.244739294313,0.304872949133,1.0,-0.0319754285716,-0.0420248489798,2.269
-0.595693578124,-0.526084461831,-0.127631424335,-2.64577251759,-0.0689287367041,2.10946719039,-0.844148022725,-0.162382018208,0.011650156012,0.0680766925179,0.00526494556869,0.0399658420384,0.00158398207061,-0.132946542723,0.573933677337,0.818868190539,0.00598058878345,0.0,0.818863911498,-0.573841736776,-0.012177950648,0.0,-0.00654035087921,0.0118868531809,-0.99990795903,0.0,0.276010845776,-0.245349713347,0.304869086124,1.0,-0.0198697560976,-0.0261145365854,2.287
-0.598173871058,-0.525897793349,-0.126731021951,-2.64563046304,-0.0684576124783,2.10947860226,-0.846112304133,-0.121757794904,0.00697840479932,0.0412954336541,0.00563521987169,0.020119843533,0.00141671618875,-0.0995700469116,0.573928333412,0.818872258407,0.00593627997758,0.0,0.818867497054,-0.573836763045,-0.012171218034,0.0,-0.00656034341916,0.0118466616939,-0.999908305046,0.0,0.275657369958,-0.245812907829,0.304888333236,1.0,-0.0194897560976,-0.0256151080139,2.306
-0.599677428727,-0.525737468073,-0.12625035864,-2.64547241521,-0.0682773172776,2.10955743888,-0.847521025469,-0.105559854716,0.0119986129629,0.0309789613107,0.00970470534298,0.0142703519024,0.008159654571,-0.0963095104116,0.573751348283,0.818996943031,0.00584333379323,0.0,0.8189916929,-0.573661513456,-0.0120756714769,0.0,-0.00653796819329,0.0117143001633,-0.999910011023,0.0,0.275448630161,-0.246145725154,0.304919843394,1.0,-0.0192097560976,-0.0252471080139,2.32
-0.601395707628,-0.525484919615,-0.125957124685,-2.64527274827,-0.068103627542,2.10967363365,-0.849144090156,-0.0964257979569,0.0154370049697,0.0103983985397,0.00755495093959,0.00678177333775,0.00108969055483,-0.0825246133381,0.573706646398,0.819028324904,0.0058338481854,0.0,0.819023490049,-0.573617827211,-0.0119940799546,0.0,-0.00647721660011,0.0116593665676,-0.999911048462,0.0,0.275161600501,-0.246594269229,0.304935139718,1.0,-0.0188497560976,-0.0247739651568,2.338
-0.6028041101,-0.525298847882,-0.125848153943,-2.64517267857,-0.0680072750675,2.10966719879,-0.850497786103,-0.0972429470085,0.00666652198852,0.00917667388647,0.00768491210054,0.00448977924831,-0.0005769968307,-0.0849237667184,0.573721079737,0.819017983638,0.00586617794023,0.0,0.819013010549,-0.573631118431,-0.0120737492038,0.0,-0.00652372111693,0.0117316663559,-0.999909900475,0.0,0.274863322916,-0.246967493644,0.304914565975,1.0,-0.0185497560976,-0.0243796794425,2.353
-0.604357349463,-0.525147530417,-0.125783180251,-2.64507283913,-0.0679766198378,2.10967633887,-0.851907029202,-0.0894995854953,0.00550649129995,0.00402538002331,0.00338222884997,0.000362522444702,-0.000469655212933,-0.0763747792695,0.573811570723,0.818954596751,0.00586486698598,0.0,0.818949403053,-0.573721230946,-0.0121066635642,0.0,-0.00655013518109,0.0117501991809,-0.99990951018,0.0,0.274517383534,-0.247399560298,0.304906847632,1.0,-0.0182097560976,-0.0239328222997,2.37
-0.605690431207,-0.525014497994,-0.125733823322,-2.64493102299,-0.0679401497637,2.10968934106,-0.853259106104,-0.0781359562955,0.0102646811847,0.00592490531687,0.0087800573853,0.00158345405993,0.00484607352464,-0.088785017897,0.573783970304,0.818973888859,0.00587125971003,0.0,0.818968968543,-0.573693950692,-0.0120758603983,0.0,-0.00652163373481,0.011737540617,-0.999909845153,0.0,0.274233730083,-0.247784828038,0.304924864279,1.0,-0.0178897560976,-0.0235122508711,2.386
-0.607117908507,-0.52485836677,-0.125709534706,-2.64477624688,-0.0679052748803,2.1097420813,-0.854686048183,-0.0748367591085,0.00439853972644,0.00142726539894,0.0131045847889,0.000956908560538,0.00197200700698,-0.076751573643,0.573790105228,0.818969488404,0.00588549967505,0.0,0.818965128611,-0.573700702647,-0.0120153569871,0.0,-0.00646381991425,0.0117145374894,-0.999910490316,0.0,0.27392989239,-0.248209577919,0.304943092675,1.0,-0.0175297560976,-0.0230391080139,2.404
-0.608420433686,-0.524755844554,-0.125714532017,-2.64466303804,-0.0678807781632,2.10975094103,-0.855947042121,-0.0780230718038,0.00563700865431,0.000902455471807,0.0096017215486,0.000114049093282,-0.000441796314318,-0.0757126460043,0.573843901555,0.818931610444,0.00591108824607,0.0,0.81892773357,-0.573754655967,-0.0119878625292,0.0,-0.00642584888132,0.0117201415544,-0.999910669384,0.0,0.273633608807,-0.248592198478,0.304957621625,1.0,-0.0172097560976,-0.0226185365854,2.42
-0.6097656744,-0.524659293639,-0.125721650138,-2.64453083903,-0.0678619965099,2.10975819442,-0.857250817402,-0.0780655869625,0.00699922178443,-0.000565483230591,0.00553179892042,0.00080422863422,-0.000357357657133,-0.0616930959342,0.573897569896,0.818893854153,0.00593142477065,0.0,0.818890545592,-0.573808787516,-0.011937194402,0.0,-0.00637191415484,0.0117081399433,-0.999911155138,0.0,0.273329643365,-0.248991795742,0.304982777562,1.0,-0.0168697560976,-0.0221716794425,2.437
-0.611039970418,-0.524508116761,-0.125718763297,-2.64441289292,-0.0678354474315,2.10978050754,-0.858487960413,-0.0742916521233,0.0115446796111,0.000270043482348,0.00695139005634,0.00174779798508,-0.000607341491981,-0.0621714964903,0.573943524715,0.818861490584,0.00595286299158,0.0,0.81885841929,-0.573854570794,-0.0119401690942,0.0,-0.0063613895017,0.0117277605109,-0.999910992217,0.0,0.273043341881,-0.249366205158,0.304982950574,1.0,-0.0165297560976,-0.0217248222997,2.454
-0.612197655462,-0.524365141391,-0.125696135589,-2.64430321514,-0.0678180927416,2.10981243279,-0.859706235406,-0.0750937881289,0.0112375536574,0.00218072722214,0.00976957854191,0.000204519553254,0.00579657714724,-0.074594411207,0.573891131636,0.818898183593,0.00595657948465,0.0,0.81889518812,-0.573802224227,-0.0119342049193,0.0,-0.0063551225298,0.0117269744246,-0.999911041287,0.0,0.272788759258,-0.249704384454,0.304983651008,1.0,-0.0162097560976,-0.0213042508711,2.47
-0.613409768067,-0.524194359585,-0.125604902945,-2.64419474276,-0.0677879483865,2.1098569717,-0.860956995559,-0.0709580406387,0.0090415823348,0.00715805521333,0.00645465277729,0.00122618442241,0.00232784176908,-0.0728033356053,0.573813699387,0.818952589492,0.00593645192541,0.0,0.818949288812,-0.573724808311,-0.0119437675491,0.0,-0.00637561236999,0.0117153760817,-0.999911046809,0.0,0.272536683222,-0.250041349408,0.304976317743,1.0,-0.0158697560976,-0.0208573937282,2.487
-0.614563268805,-0.523998135189,-0.125511370093,-2.64409239325,-0.067772672653,2.10987442028,-0.862152068714,-0.0611688422719,0.0143944727098,0.0041130071007,0.00588356997355,0.00131074813377,0.00141700329714,-0.0703908740219,0.573716826878,0.819020700907,0.00590262172309,0.0,0.81901659983,-0.573627434073,-0.0120051231729,0.0,-0.00644666276044,0.0117221120337,-0.99991051231,0.0,0.272279668205,-0.250377148833,0.30495581861,1.0,-0.0155097560976,-0.0203842508711,2.505
-0.615691615109,-0.523818494581,-0.12543434162,-2.6440011615,-0.0677428063368,2.10989371557,-0.8633705304,-0.066744347403,0.0121485416231,0.00866470354011,0.00686591337975,-0.000466437282076,-0.000953153077027,-0.0752678149979,0.573615296661,0.819091865392,0.00589528507719,0.0,0.819087219598,-0.573525141068,-0.0120741938044,0.0,-0.00650890503742,0.0117549212423,-0.999909723916,0.0,0.27204833765,-0.25066662004,0.30493365486,1.0,-0.0151897560976,-0.0199636794425,2.521
-0.616807850116,-0.523652902066,-0.125398597464,-2.64392767268,-0.067721554039,2.10991282186,-0.86446319802,-0.0635418633536,0.0102174091344,0.000793702286293,0.00574501761748,5.3604144879e-05,0.00173046981529,-0.0729615429888,0.573622597781,0.819086720387,0.00589972044726,0.0,0.8190816966,-0.573531636418,-0.0121401492237,0.0,-0.00656028499598,0.0117964440867,-0.999908899134,0.0,0.271794448461,-0.250978080766,0.304908798192,1.0,-0.0148497560976,-0.0195168222997,2.538
-0.61794682335,-0.52350648757,-0.12540136499,-2.64385629579,-0.0676958506697,2.109933943,-0.865568647661,-0.0671164214423,0.0113067239189,-0.000857865621786,0.00428528796281,0.00162313157823,8.26073310411e-05,-0.070608966044,0.573674489247,0.819050167608,0.00592876291813,0.0,0.81904523906,-0.573582879999,-0.0121787949675,0.0,-0.00657453373016,0.0118428170352,-0.999908257387,0.0,0.271511496034,-0.251324885249,0.304892883092,1.0,-0.0144897560976,-0.0190436794425,2.556
-0.619040547722,-0.523388928254,-0.125403868643,-2.64377201417,-0.0676767192888,2.10994455872,-0.866648049657,-0.0655533388935,0.00982461221754,-0.000136454300595,0.0118687782846,6.43950963071e-05,-0.000238542404768,-0.0668313194622,0.573693174404,0.819036937742,0.00594837441758,0.0,0.819032089494,-0.573601157806,-0.0122022557266,0.0,-0.00658223043917,0.0118724889332,-0.999907854879,0.0,0.271272190837,-0.251619589879,0.30488529775,1.0,-0.0141897560976,-0.0186493937282,2.571
-0.620163577958,-0.523289346357,-0.125402070976,-2.64368294384,-0.0676456900146,2.10996370627,-0.86773599692,-0.0644558679341,0.00721024101957,0.00139596416272,0.00127957336434,0.00443482780144,-0.000883831049535,-0.0552044696058,0.573738500507,0.819004986405,0.00597596693607,0.0,0.819000578409,-0.573646496649,-0.0121859078392,0.0,-0.00655235294032,0.0118860737119,-0.999907889719,0.0,0.271014424384,-0.251943643357,0.304890931319,1.0,-0.0138497560976,-0.0182025365854,2.588
-0.621295192364,-0.523175544922,-0.125392886748,-2.64352922645,-0.0676209041166,2.10999259106,-0.868828671981,-0.0637967484769,0.00997741441917,0.0038349914565,0.0129272215259,0.00060650506063,0.00120532966066,-0.0585480088049,0.573782178619,0.818974311499,0.00598627642868,0.0,0.818970522924,-0.573691003524,-0.0121104070467,0.0,-0.0064839641777,0.0118515478554,-0.999908745347,0.0,0.270771662176,-0.252286000568,0.304921724949,1.0,-0.0134897560976,-0.0177293937282,2.606
-0.622185054365,-0.523040290271,-0.125359971084,-2.64339887302,-0.0676001529086,2.11005224418,-0.869762195152,-0.0562454547083,0.0103532226711,0.000502322454559,0.00858555664318,-6.12161943292e-05,0.00475125459677,-0.0617546034713,0.573738684788,0.819004830282,0.00597967001709,0.0,0.81900134774,-0.573648264893,-0.012050206874,0.0,-0.00643907427792,0.0118112550496,-0.999909512194,0.0,0.270593166602,-0.252555834984,0.304937209281,1.0,-0.0131897560976,-0.0173351080139,2.621
-0.623197715431,-0.522869192879,-0.125297071624,-2.64323965648,-0.0675803640323,2.11009453889,-0.870797568907,-0.0540649088853,0.00973980136471,0.00381030238158,0.00566808937309,-0.000255248962181,-0.000197593248358,-0.051961398114,0.573692238111,0.819037532052,0.00595683839052,0.0,0.819034006712,-0.573602389781,-0.0120142077883,0.0,-0.0064233540296,0.0117715376081,-0.99991008167,0.0,0.270392785111,-0.252856445054,0.304951876236,1.0,-0.0128297560976,-0.0168619651568,2.639
-0.624142330711,-0.522711783083,-0.125241290498,-2.64312859808,-0.0675578549653,2.11010171376,-0.871729993074,-0.0543161934704,0.0101407922151,0.00125226066777,0.00814578341498,-0.000385462829275,0.00138456814065,-0.0546385147541,0.573678270617,0.819047384887,0.0059472710077,0.0,0.819043529987,-0.573588090149,-0.0120476440639,0.0,-0.00645643185202,0.0117827723064,-0.999909736308,0.0,0.270191311695,-0.25312320075,0.30494650696,1.0,-0.0124897560976,-0.0164151080139,2.656
-0.625017842265,-0.522596445291,-0.125204017746,-2.64306545147,-0.0675398039526,2.11010329142,-0.872657803173,-0.0529477577866,0.00814127616839,-0.000229870050754,0.00266972404382,0.00227185354205,-0.000971716212767,-0.0652970853009,0.573620244041,0.819088012827,0.00594893028239,0.0,0.819083881994,-0.573529526411,-0.0120922906753,0.0,-0.00649288818045,0.0118092830029,-0.999909187496,0.0,0.269991552882,-0.253363640442,0.30493388511,1.0,-0.0121697560976,-0.0159945365854,2.672
-0.626005663661,-0.522487226021,-0.125184555885,-2.64298401274,-0.067528763299,2.11012835348,-0.873637934588,-0.0545646236307,0.00787941353777,-6.41192758522e-05,0.00541657713659,-0.000579315276186,0.00463899407639,-0.0540192536708,0.573621782943,0.819086928472,0.0059498437615,0.0,0.819082827469,-0.573531093706,-0.0120893837384,0.0,-0.00648996074538,0.0118083760537,-0.999909217211,0.0,0.269766959023,-0.253646802116,0.304933396872,1.0,-0.0118097560976,-0.0155213937282,2.69
-0.626800581912,-0.522425781189,-0.125183717371,-2.64288708157,-0.0675125256239,2.11015522102,-0.874429569777,-0.0546183714648,0.0021408962673,0.00136134419792,0.00335489020799,0.000242027610315,-0.000385935077757,-0.048980675552,0.573635601901,0.81907718156,0.00595934396446,0.0,0.819073628299,-0.573545643888,-0.0120221754976,0.0,-0.0064292576347,0.0117777161185,-0.999909970972,0.0,0.269592579406,-0.253886290061,0.304957207614,1.0,-0.0115097560976,-0.0151271080139,2.705
-0.627679810523,-0.522372719471,-0.125185123742,-2.64273489986,-0.0674928000439,2.11020392141,-0.875310083433,-0.0502113097333,0.00603587457015,0.000693185208087,0.00997796131556,-6.70758612588e-05,0.00513961101031,-0.0552190392611,0.573651275929,0.819066163759,0.00596488983771,0.0,0.819063650279,-0.573563076628,-0.0118693227615,0.0,-0.00630064140051,0.0116947017498,-0.999911764042,0.0,0.269413085012,-0.25416551538,0.305011022589,1.0,-0.0111697560976,-0.0146802508711,2.722
-0.628646737153,-0.522313646256,-0.125162462428,-2.64254218765,-0.0674758538168,2.11027353676,-0.876277600873,-0.0505200271176,0.00583424074242,0.00495590719314,0.0106434997039,0.000443174084458,0.00171718099097,-0.0494743043645,0.573651195873,0.819066328541,0.00594994338899,0.0,0.81906493441,-0.573565507356,-0.0116614276103,0.0,-0.00613891859289,0.0115632045134,-0.999914299318,0.0,0.269228602751,-0.254476124259,0.305083413585,1.0,-0.0107897560976,-0.0141808222997,2.741
-0.629395605597,-0.522268738452,-0.125146092139,-2.64237420334,-0.0674632480473,2.11031037584,-0.87699464396,-0.0542308182615,0.00613529713328,0.00429950372461,0.00409502390577,0.00590752324612,0.00134403454847,-0.047045733078,0.573679066598,0.819046901483,0.00593705475522,0.0,0.81904635317,-0.573595334551,-0.0114982799422,0.0,-0.00601227940552,0.011459266177,-0.999916265352,0.0,0.269086844614,-0.254719299094,0.305146824365,1.0,-0.0104897560976,-0.0137865365854,2.756
-0.630221113493,-0.522229492707,-0.125126917274,-2.64219861805,-0.0674554270629,2.11036190954,-0.877741808505,-0.0531729458119,0.00505977318498,4.59978226603e-05,0.0094286971247,0.00273968694486,0.0005123454885,-0.0418243174801,0.573741329641,0.819003437026,0.00591639270946,0.0,0.819003792457,-0.573659894086,-0.0113075531845,0.0,-0.00586704066609,0.0113333768684,-0.999918562885,0.0,0.268929779116,-0.254986899333,0.305217098905,1.0,-0.0101497560976,-0.0133396794425,2.773
-0.631115062234,-0.522207305541,-0.125118120903,-2.64196533785,-0.0674486360445,2.11043650649,-0.878608306517,-0.0411649376664,-0.00113831204805,-0.000211407074592,0.0104367359864,-0.000611816320795,0.0103331675539,-0.0411812913756,0.573771416217,0.818982541012,0.00589120966364,0.0,0.818984277216,-0.573693369191,-0.0110190163316,0.0,-0.00564474275293,0.0111474193166,-0.999921932914,0.0,0.268770262446,-0.255293178736,0.305321618311,1.0,-0.00976975609756,-0.0128402508711,2.792
-0.631742666299,-0.522220720078,-0.125106332512,-2.64171945339,-0.0674463245914,2.11056343848,-0.879283927095,-0.0460861019394,-0.00112778574775,0.000535334962602,0.0211647252286,-0.000348118646665,0.00937666394638,-0.0487470729275,0.573736067094,0.819007593871,0.00585093139552,0.0,0.819011011667,-0.573662508095,-0.0106318613599,0.0,-0.00535121823921,0.01089206927,-0.999926360934,0.0,0.268690858022,-0.255538544931,0.305449536192,1.0,-0.00948975609756,-0.0124722508711,2.806
-0.632520828961,-0.522270965043,-0.125075489988,-2.64134745635,-0.0674326637945,2.11064215115,-0.880026782028,-0.0405431303087,-0.00128959457908,-5.52444002876e-05,0.0191205180973,-0.000347254369865,0.00148917599801,-0.0426241949347,0.573766042302,0.818986968168,0.00579841125713,0.0,0.818992414872,-0.57369813744,-0.0101300730952,0.0,-0.00496995580027,0.0105613501247,-0.999931876391,0.0,0.268600269606,-0.255844675605,0.305644753808,1.0,-0.00912975609756,-0.0119991080139,2.824
-0.633271173659,-0.522308370475,-0.125044619177,-2.64104713743,-0.0674178283189,2.11067179728,-0.880751497537,-0.0402619857049,-0.000315913361338,-0.00129124435082,0.0151954989397,0.00345338613536,0.000303411924769,-0.0403762108467,0.57378531418,0.818973735666,0.00576024489137,0.0,0.81898056817,-0.573721447385,-0.0097609770242,0.0,-0.00468929806441,0.0103184325643,-0.999935768154,0.0,0.268491690407,-0.256118146863,0.305798483474,1.0,-0.00876975609757,-0.0115259651568,2.842
-0.633831219474,-0.522316449354,-0.125043429042,-2.6409013812,-0.0674056348104,2.11067999011,-0.881294694468,-0.040712585609,-0.000481983579766,2.18136162751e-05,0.0046863767469,0.0032412764924,0.000432922348715,-0.0357235071122,0.573817900437,0.818950952442,0.005753393285,0.0,0.818958512347,-0.573755832509,-0.00958887988256,0.0,-0.00455186699622,0.0102142579835,-0.999937472766,0.0,0.268376629981,-0.256318374318,0.305872197246,1.0,-0.00846975609757,-0.0111316794425,2.857
-0.634540706337,-0.522277103148,-0.125010615636,-2.64069747974,-0.0673785044752,2.11061744978,-0.881988944627,-0.0403015232024,0.00687453075081,0.00441734028409,0.0194538677871,0.00566096403749,-0.0103669912726,-0.0375742959561,0.573820715483,0.818949012076,0.00574882631989,0.0,0.818956969591,-0.573759669963,-0.00949052071137,0.0,-0.004473894005,0.0101540942643,-0.999938437426,0.0,0.268249006968,-0.256527431101,0.305942316205,1.0,-0.00812975609757,-0.0106848222997,2.874
-0.635155461707,-0.522155297431,-0.124921393738,-2.6407190175,-0.0673292466861,2.11071699648,-0.882616237344,-0.0162746432109,0.00708554523353,0.01935640393,-0.00663902722648,-0.00858776001494,0.00734073177121,-0.0259877384269,0.57376770375,0.818986158151,0.00574819899806,0.0,0.818993936913,-0.573706279263,-0.00952802893142,0.0,-0.00450563269705,0.0101748113055,-0.999938084328,0.0,0.26812300661,-0.256673791158,0.305898370804,1.0,-0.00778975609757,-0.0102379651568,2.891
-0.635689334046,-0.521996499171,-0.124902097114,-2.64059508065,-0.0672891944986,2.11071919032,-0.883171798214,-0.0299476443152,0.0266076689583,-0.00220790681715,0.019301404976,-0.00859347789314,-4.19321443581e-05,-0.0309371644283,0.573759805315,0.81899157245,0.00576515064094,0.0,0.818999398052,-0.573698021292,-0.00955579701864,0.0,-0.00451874871107,0.0102045836115,-0.999937721752,0.0,0.268019289879,-0.256837547115,0.305897005067,1.0,-0.00746975609757,-0.00981739372823,2.907
-0.636288425576,-0.521923956158,-0.124927810737,-2.64061567074,-0.0672428090281,2.11076983278,-0.883745001864,-0.0309953980933,0.0125538407158,0.000101196611647,0.00342526877886,-0.00114246424567,0.0101568185903,-0.0387980303501,0.573818276936,0.818950200985,0.00582239325137,0.0,0.818958458609,-0.573755875651,-0.00959088783587,0.0,-0.00451391408932,0.0102719227012,-0.999937054111,0.0,0.26786567711,-0.256999617566,0.305864694013,1.0,-0.00710975609757,-0.00934425087109,2.925
-0.636850783745,-0.521921651371,-0.124903048928,-2.64056108539,-0.0672417893719,2.11079828341,-0.884233289655,-0.0392391316681,-0.00172897522951,0.00011465010034,0.00234632741087,0.00212161289405,0.00172106474624,-0.0204555537916,0.573864371023,0.818918021478,0.00580557224532,0.0,0.818926480786,-0.573802891694,-0.00950828340279,0.0,-0.00445533626859,0.0102109985156,-0.999937940818,0.0,0.267743688502,-0.257162316546,0.305891725255,1.0,-0.00678975609757,-0.00892367944251,2.941
-0.637312534345,-0.521783102899,-0.124848001557,-2.64049425039,-0.0672396808102,2.11075614395,-0.884722357289,-0.0245118473556,0.0076555084895,0.0104873766184,0.00424955970986,-3.94105610646e-05,-0.0101141956604,-0.0241616425083,0.573807684903,0.818957898528,0.00578343202805,0.0,0.818965621913,-0.573745158273,-0.00962031100775,0.0,-0.00456050136559,0.010256837871,-0.999936997567,0.0,0.26764268393,-0.257282371721,0.305868825353,1.0,-0.00646975609757,-0.00850310801394,2.957
-0.63776389288,-0.521694984572,-0.124793889082,-2.64043491556,-0.0672370176048,2.11076510309,-0.885233717494,-0.022407731787,0.00890993251895,-1.7677746552e-05,0.00506470389001,-0.00120343597171,0.0013288835745,-0.0261029422594,0.573724512374,0.819016352813,0.00575713703146,0.0,0.819023717765,-0.573661920446,-0.0096383437866,0.0,-0.00459139928819,0.0102451831158,-0.999936975652,0.0,0.26755167691,-0.257405733453,0.305865441831,1.0,-0.00612975609757,-0.00805625087109,2.974
-0.638243745443,-0.521548645089,-0.124732790417,-2.64040758089,-0.0672321192335,2.11080497813,-0.885753391436,-0.0253981210323,0.00173163239858,0.00377404223821,0.00136714669174,0.000218262703432,0.00274309038225,-0.0308093134424,0.573652622213,0.819066882571,0.00573217279091,0.0,0.819073629332,-0.573589355378,-0.00971535029251,0.0,-0.00466969828727,0.0102685054434,-0.999936373833,0.0,0.267451228804,-0.257530145858,0.305828870783,1.0,-0.00576975609757,-0.00758310801394,2.992
-0.638645627225,-0.52149718876,-0.124714353848,-2.64039980534,-0.0672243631452,2.11080442132,-0.88613117644,-0.0268426686933,0.00424114483405,5.58986372065e-05,-0.000433551326896,-0.000570709171619,0.00552881846557,-0.017483349386,0.573663191076,0.819059469856,0.00573366765107,0.0,0.819066037181,-0.573599488147,-0.00975709152015,0.0,-0.00470289992337,0.0102937348848,-0.999935958827,0.0,0.267352955608,-0.257633798849,0.305813855298,1.0,-0.00546975609757,-0.00718882229966,3.007
-0.639098497632,-0.521465945794,-0.124731688962,-2.64036714209,-0.0672172936241,2.11082645511,-0.886539867702,-0.0264700435856,-0.00681347481081,-0.00531952351915,-0.00537173926976,-1.56370063223e-05,0.00708076195481,-0.0207508951865,0.573722239383,0.819017974524,0.00575294236525,0.0,0.819024912533,-0.573658815344,-0.00972127202373,0.0,-0.004661760174,0.0102893111737,-0.999936196998,0.0,0.267233669305,-0.257777870245,0.305820032839,1.0,-0.00510975609757,-0.00671567944251,3.025
-0.639576235288,-0.521339142339,-0.124727365464,-2.64031604976,-0.067204967233,2.11081398692,-0.886955673128,-0.0278136216614,0.00583896308955,-0.00376559569912,0.00292460835389,0.00170741715079,-0.00877384658209,-0.0229517725536,0.573772179872,0.818982962015,0.00575677295782,0.0,0.818989497353,-0.573707758735,-0.00981619550691,0.0,-0.00473668275662,0.0103471957007,-0.999935247592,0.0,0.267129467599,-0.25790335482,0.305794302132,1.0,-0.00476975609757,-0.00626882229966,3.042
-0.639934295604,-0.521360114082,-0.124737225847,-2.64026350657,-0.0671925367407,2.11082842506,-0.887299597552,-0.0219800730557,-0.000542699101336,-0.000594108230481,0.0036715552292,0.00153674090937,0.000117187847,-0.0222498383121,0.573798365253,0.818964548688,0.00576636167408,0.0,0.818971609882,-0.573734833176,-0.0097257549336,0.0,-0.00465677560409,0.0103033071557,-0.999936076108,0.0,0.267051002235,-0.258015548617,0.305826954732,1.0,-0.00444975609757,-0.00584825087109,3.058
-0.640270734849,-0.521280259354,-0.124717828864,-2.64021134817,-0.0671854914892,2.11082841049,-0.887643075245,-0.0186762499917,-0.00321264203075,-0.00137859404014,0.00651936527243,0.000294499547331,-0.000478755705029,-0.0171177400072,0.573797801043,0.818964954255,0.00576490431861,0.0,0.81897193708,-0.573734135828,-0.00973933070995,0.0,-0.00466873801965,0.0103098998994,-0.999935952374,0.0,0.266976452102,-0.258119272788,0.305826969559,1.0,-0.00408975609757,-0.00537510801394,3.076
-0.640572993382,-0.521283522149,-0.124716553691,-2.64017052657,-0.0671769788241,2.11083375268,-0.887956253802,-0.0208563661152,0.00673430212966,0.00340393269836,0.00329198405874,-0.000620388299589,0.000286715521215,-0.023025663639,0.573780298038,0.818977219251,0.00576461907034,0.0,0.818984379454,-0.573717036102,-0.00970028852069,0.0,-0.00463714443071,0.0102871654704,-0.999936333532,0.0,0.266912679964,-0.258202982227,0.305842024394,1.0,-0.00376975609757,-0.00495453658537,3.092
-0.640844350028,-0.521248485143,-0.124707992371,-2.64013599812,-0.0671681850118,2.11085466991,-0.888226439954,-0.0182057083217,0.000572587684256,-0.00107867426003,0.00178237837905,0.000108878801559,0.00129998827806,-0.0141888178358,0.57378068502,0.818976948335,0.0057645898282,0.0,0.818984210541,-0.573717650413,-0.00967819141592,0.0,-0.00461905767055,0.0102744651652,-0.999936547823,0.0,0.266855788126,-0.258283703095,0.305846839861,1.0,-0.00344975609757,-0.0045339651568,3.108
-0.641132948808,-0.521214294174,-0.12469304655,-2.64012449024,-0.0671526569252,2.11085489866,-0.888513633614,-0.0152262818966,0.00284397222826,0.000276332882955,-8.25805341848e-05,-4.07186730733e-05,0.000781832071224,-0.0107324450181,0.573778537985,0.818978396713,0.00577251831315,0.0,0.818985648646,-0.573715262923,-0.00969800506139,0.0,-0.00463076393128,0.0102923149795,-0.999936310111,0.0,0.266787792272,-0.258358220162,0.305839867406,1.0,-0.00308975609757,-0.00406082229966,3.126
-0.641395677927,-0.521185829414,-0.124677947829,-2.64010969456,-0.0671465044304,2.11086792059,-0.888761815313,-0.0103067548622,-9.69684369799e-05,-0.00106901491257,-0.00106006897511,-0.000373067668536,-0.00214653328412,-0.0202664970995,0.573783181098,0.818975160709,0.00577010680046,0.0,0.818982392154,-0.573719926072,-0.00969714749715,0.0,-0.00463138685145,0.0102898741209,-0.999936332346,0.0,0.266728586599,-0.258429445504,0.305837596121,1.0,-0.00274975609757,-0.0036139651568,3.143
-0.641589943459,-0.52116156635,-0.124640482574,-2.64010438482,-0.0671339700282,2.11087200037,-0.888952675491,-0.00978619274568,-0.00177360871396,-0.000378804922196,0.000483601437651,0.00115485999189,0.000645660439211,-0.00706795087054,0.57376122677,0.818990560392,0.00576745569795,0.0,0.818997689843,-0.573697821848,-0.00971288524418,0.0,-0.00464607400896,0.0102966080877,-0.999936194894,0.0,0.2666864574,-0.258475136139,0.305832116116,1.0,-0.00242975609757,-0.00319339372823,3.159
-0.641799263458,-0.521132038457,-0.12458355677,-2.64010042957,-0.0671131161047,2.11086878008,-0.889172011132,-0.0134681916209,0.00129065316133,0.00150181864931,-0.000419672814819,0.00120147884195,0.00410884293536,-0.0124865695229,0.57372575544,0.819015492094,0.00575570637671,0.0,0.819022384915,-0.573662155488,-0.00973710792525,0.0,-0.00467310128424,0.0103006802837,-0.999936027009,0.0,0.266648731062,-0.258514455245,0.305824325462,1.0,-0.00208975609757,-0.00274653658537,3.176
-0.641985948682,-0.521116750793,-0.124526186454,-2.64008974646,-0.0670999666155,2.11087724073,-0.889354508299,-0.0130603608218,0.0027169484616,0.000629368742174,-0.000663320318223,-0.00044556688459,-0.00124917166887,-0.0128586280672,0.573694684907,0.819037379148,0.00573820259443,0.0,0.819044112744,-0.573631217924,-0.00973211715508,0.0,-0.00467944567915,0.0102833029229,-0.999936176198,0.0,0.266617514034,-0.258553881918,0.305825646343,1.0,-0.00172975609757,-0.00227339372823,3.194
-0.64212755253,-0.521099738755,-0.124497012287,-2.64008111882,-0.067090574919,2.11087798123,-0.889491184955,-0.00924298795529,-0.00204076793478,-0.000117643272149,0.000820939727347,-7.54884668912e-05,7.83778959664e-05,-0.0116854959027,0.573689257952,0.819041227003,0.00573155137665,0.0,0.819047856717,-0.573625745111,-0.00973960242694,0.0,-0.00468946077986,0.0102821181224,-0.999936141463,0.0,0.266586347912,-0.258589585608,0.305823964479,1.0,-0.00140975609757,-0.00185282229966,3.21
-0.64228650373,-0.521087100013,-0.124499106129,-2.64008083073,-0.0670778752951,2.11087451665,-0.889610857597,-0.00855298075102,0.00369745107294,-0.00148155195145,0.00148165552925,-0.000205141353686,-0.000774528473626,-0.00277550231353,0.573732364587,0.819010923987,0.00574692234035,0.0,0.819017618773,-0.573668568241,-0.00976016670129,0.0,-0.00469694486826,0.0103067526077,-0.999935852722,0.0,0.266544171308,-0.258633209906,0.305817515764,1.0,-0.00106975609757,-0.0014059651568,3.227
-0.642450194051,-0.52108396693,-0.124498751594,-2.64005661416,-0.0670655453058,2.11088914085,-0.889671589097,-0.00784680195015,0.00299829461325,-0.000399297171925,-0.000961899100445,0.00248541377814,0.00090797067905,0.00109991532037,0.573812087204,0.818955035266,0.00575201634313,0.0,0.81896199555,-0.573748723106,-0.00971593949666,0.0,-0.00465679519871,0.010286004342,-0.999936254155,0.0,0.266515270749,-0.258677606036,0.305830341779,1.0,-0.000729756097566,-0.000959108013944,3.244
-0.642550193067,-0.521072956382,-0.12448993537,-2.64004976405,-0.0670535555501,2.11088057149,-0.889736472405,-0.00247522209881,0.00225499361372,0.000307821366786,0.00119687391268,-0.000443136236028,0.000306490797731,0.000550183907701,0.573840067553,0.818935382669,0.00575871385099,0.0,0.818942360535,-0.573776554265,-0.00972742505937,0.0,-0.00466200733104,0.010298239241,-0.999936103937,0.0,0.266492349946,-0.258701460286,0.305828883979,1.0,-0.000409756097566,-0.000538536585372,3.26
-0.642563970894,-0.521072238006,-0.124493393007,-2.64003195343,-0.0670421251096,2.11089036874,-0.889772522356,0.001059024125,0.000378716556319,0.00081322655561,0.00154229137309,5.31994000526e-05,-0.000477594015017,0.000994104417293,0.573829961721,0.818942405518,0.0057670076223,0.0,0.818949597566,-0.573766696766,-0.00969954792326,0.0,-0.00463454342435,0.0102889778797,-0.999936326944,0.0,0.266494708346,-0.258710599713,0.30583749282,1.0,-6.9756097566e-05,-9.16794425153e-05,3.277
-0.642557261413,-0.521049561577,-0.124477456388,-2.64002829865,-0.0670291073009,2.11089495154,-0.889783928606,0.000530470301853,0.000452595020372,0.00036131407907,-0.00104816063973,0.000756006153449,0.000146631928521,0.000718232453275,0.573809639652,0.818956623986,0.0057699543323,0.0,0.818963781914,-0.573746221321,-0.00971310116807,0.0,-0.00464420846109,0.0102990529913,-0.999936178381,0.0,0.266502125754,-0.258705168033,0.305831580681,1.0,0.0,0.0,3.294
-0.642554477365,-0.521049513223,-0.124453137946,-2.64003597922,-0.0670188154097,2.11089179961,-0.88978913734,0.000140198026417,-0.000353976500565,-0.000580054401145,0.000178661679121,-2.99594284414e-05,-0.000202993636663,-0.000755498202426,0.573789883065,0.818970479836,0.005768028262,0.0,0.818977568804,-0.573726368075,-0.00972333647974,0.0,-0.00465394523958,0.0103032362337,-0.999936090016,0.0,0.266506741577,-0.258695629187,0.305828376833,1.0,0.0,0.0,3.312
-0.642557261393,-0.52104636517,-0.124438063452,-2.64002818385,-0.0670125036575,2.11089115312,-0.889795089862,-0.000129534850018,0.000920022660558,-0.00081503424734,0.000222610451813,5.65843186291e-05,-0.00999034627035,-0.00172025142167,0.573779666358,0.818977658969,0.00576502254019,0.0,0.818984736,-0.573716209138,-0.00971907777893,0.0,-0.00465231026076,0.0102982729421,-0.999936148753,0.0,0.266511469982,-0.258694244429,0.305831069558,1.0,0.0,0.0,3.327
-0.642562548199,-0.52104422351,-0.124432317365,-2.64002836675,-0.0670077162173,2.11089449396,-0.889795539456,-0.00116849378795,-0.000306293885417,-7.05868574954e-05,-0.000287005700262,-0.000110107552194,0.000272855295806,4.2791224648e-05,0.573781591312,0.818976303649,0.00576597203933,0.0,0.818983396783,-0.573718143362,-0.00971775040134,0.0,-0.00465065406989,0.01029829993,-0.99993615618,0.0,0.266512212643,-0.258694281729,0.305830622741,1.0,0.0,0.0,3.345
-0.642557261536,-0.521049860858,-0.124426427139,-2.64003319516,-0.067002341238,2.11088936014,-0.889799547946,0.000801952712046,2.5892479648e-05,0.00116775292986,0.00137364974433,-1.3056681044e-07,-0.000214668801061,0.000840801439536,0.573771842466,0.818983114715,0.00576866585587,0.0,0.818990216941,-0.573708342261,-0.00972159849065,0.0,-0.00465238285944,0.0103026587366,-0.999936103237,0.0,0.266513521015,-0.258689179092,0.305830203434,1.0,0.0,0.0,3.361
-0.64256255119,-0.521059735292,-0.124428894667,-2.64002058975,-0.0669972064495,2.11089584342,-0.889800916388,-0.000618739372407,-0.00144328544344,0.00155506373723,0.00129411570507,0.00455147051726,0.000371998932976,5.61568895495e-05,0.573779521017,0.818977714993,0.00577152568655,0.0,0.818984983041,-0.573716308925,-0.00969233343915,0.0,-0.00462667575703,0.0102882533855,-0.999936370833,0.0,0.266516232323,-0.258694870791,0.305840080194,1.0,0.0,0.0,3.378
-0.64256571008,-0.521052646269,-0.124426346076,-2.64002023406,-0.0669980915176,2.11089368016,-0.889800343266,2.70695019108e-05,-0.000685435546928,0.000898653534197,-9.89929943892e-05,0.000155219053012,-0.000329879579965,0.00176787670329,0.573780445652,0.81897707864,0.00576990047099,0.0,0.818984288334,-0.573717148431,-0.00970133805246,0.0,-0.00463497188972,0.0102920940569,-0.999936292888,0.0,0.266515471393,-0.258694915907,0.305837504472,1.0,0.0,0.0,3.396
-0.642557636416,-0.521045042521,-0.124415394084,-2.64002732254,-0.0669948976279,2.11089779067,-0.889799637172,0.00164458936665,0.001093704462,0.00236854999291,-0.00064019715919,6.79007932402e-05,-1.47795086326e-06,0.000505308789437,0.573767713459,0.818986012505,0.00576794714775,0.0,0.818993152768,-0.573704317946,-0.00971175530487,0.0,-0.00464478499371,0.0102963990921,-0.999936203034,0.0,0.266519063805,-0.258688672525,0.305832090127,1.0,0.0,0.0,3.412
-0.642562926129,-0.521027882555,-0.124408627798,-2.64002663639,-0.0669900039705,2.11089638405,-0.889804709738,-0.00190832659584,0.00418172555829,0.00255427861929,-3.19426869319e-05,5.5248075775e-05,0.000204459348105,-7.43856809824e-07,0.573765288853,0.818987701113,0.00576937039942,0.0,0.818994774326,-0.573701706142,-0.00972928045502,0.0,-0.00465835307956,0.0103076060722,-0.999936024455,0.0,0.266519153947,-0.258687791628,0.305826122978,1.0,0.0,0.0,3.429
-0.642560394463,-0.521026832276,-0.124410102152,-2.64003719912,-0.0669902177651,2.11089287429,-0.889804047321,0.000311525744694,0.000662354987062,-0.000412381090901,-0.0020833893441,-0.000271328246931,-0.000322277617854,0.000760583378688,0.573764228502,0.818988426988,0.00577178070012,0.0,0.818995455114,-0.573700480056,-0.00974425921986,0.0,-0.00466925206977,0.0103181681916,-0.999935864688,0.0,0.266516449959,-0.258684276679,0.305820592174,1.0,0.0,0.0,3.444
-0.64256018647,-0.521031408838,-0.124409326106,-2.64002450043,-0.0669887768626,2.11089826724,-0.889809796766,-0.000346480840556,-0.000613836928083,-0.00109603987566,0.000729535516427,8.60028609811e-05,1.94432571742e-05,-0.00118537762269,0.573759977178,0.818991416458,0.00577020424695,0.0,0.818998533487,-0.57369646943,-0.00972162595218,0.0,-0.00465167196359,0.010303867082,-0.999936094094,0.0,0.266520690304,-0.258687951497,0.305828540171,1.0,0.0,0.0,3.461
-0.642562926129,-0.521039639703,-0.124410192757,-2.64001920501,-0.0669855830471,2.1108957092,-0.88980827078,0.000533967550753,-0.00163324818434,0.00679444916593,0.00131115302061,-8.85817923452e-05,-1.79117795748e-05,-0.00048426017915,0.573765651319,0.818987424408,0.00577260165247,0.0,0.818994618602,-0.573702247832,-0.00971042916373,0.0,-0.00464105418151,0.0102994386985,-0.999936189053,0.0,0.266521072133,-0.258689670013,0.305833744638,1.0,0.0,0.0,3.48
-0.642566425554,-0.521039916391,-0.124404663929,-2.64002198497,-0.0669874004006,2.1109010884,-0.889811411342,-0.000940645850674,-0.000321378145823,0.000802727632902,-0.00136545568494,0.000234304602739,0.000356398615163,-0.00167756176742,0.573761122159,0.818990628741,0.00576815691655,0.0,0.81899778913,-0.573697766582,-0.00970777626446,0.0,-0.00464148840923,0.0102942505614,-0.999936240463,0.0,0.266521421756,-0.258689615832,0.305833172187,1.0,0.0,0.0,3.495
-0.642567859882,-0.521029337448,-0.124409531656,-2.64002340654,-0.0669826774131,2.11089490913,-0.889804405381,-0.00200942851033,0.00149489716813,-0.00328954989568,-0.00040523481438,7.08663013041e-05,-0.00017586566615,0.000163298068424,0.573773477643,0.818981919623,0.0057756892449,0.0,0.818989076421,-0.573709905021,-0.00972545549848,0.0,-0.00465149164086,0.010310633335,-0.999936025186,0.0,0.266518874731,-0.258689197051,0.305827985817,1.0,0.0,0.0,3.513
-0.642566061005,-0.521036417547,-0.124409927335,-2.64002975251,-0.0669833762752,2.1108958672,-0.889806745062,0.000863153864534,-0.000473988779187,0.000398332840377,-0.00112857672483,8.3494937397e-05,3.25137785213e-05,0.00110031036071,0.57376974402,0.818984534056,0.00577587442684,0.0,0.818991700457,-0.573706188202,-0.00972373913003,0.0,-0.00465002658716,0.0103097790252,-0.999936040809,0.0,0.266518033506,-0.258687513063,0.305827778001,1.0,0.0,0.0,3.529
-0.642566144731,-0.521032083243,-0.124409953641,-2.64002124322,-0.0669833757877,2.1108937369,-0.889805171094,-0.000200198761437,0.00206918382441,-0.00132128374855,0.00155634773424,8.46512973341e-06,5.09169500637e-05,0.00179741518174,0.573769487156,0.81898472456,0.00577437846207,0.0,0.818991888733,-0.573705967587,-0.00972089739887,0.0,-0.0046485605951,0.0103069218783,-0.99993607708,0.0,0.266518677516,-0.258689748921,0.305828905038,1.0,0.0,0.0,3.546
-0.642566144452,-0.521044848668,-0.124407169474,-2.64002341612,-0.066981698491,2.11089966897,-0.88981100363,-0.000117415083145,-0.00240956315447,-0.000266357481183,-0.000782866334933,0.000122291879855,0.000257311755307,-0.000951332782558,0.573765336694,0.818987631968,0.00577442576558,0.0,0.818994869444,-0.573701979187,-0.00970514309733,0.0,-0.00463568192405,0.0102978980394,-0.999936229841,0.0,0.266521009114,-0.258689030842,0.305834160462,1.0,0.0,0.0,3.562
