nelsonifechukwu/NELSON_IML_WORK/CNN-GradCAM/train2dof/data_sample_2022-02-21-10-55-15/robot_state.csv
position_joint1,position_joint2,position_joint3,position_joint4,position_joint5,position_joint6,position_joint7,velocity_joint1,velocity_joint2,velocity_joint3,velocity_joint4,velocity_joint5,velocity_joint6,velocity_joint7,ee_T_00,ee_T_10,ee_T_20,ee_T_30,ee_T_01,ee_T_11,ee_T_21,ee_T_31,ee_T_02,ee_T_12,ee_T_22,ee_T_32,ee_T_03,ee_T_13,ee_T_23,ee_T_33,v_x,v_y,time
0.465080885301,0.547694622137,-0.123972210261,-1.35575869715,0.079502111329,1.89409786151,0.159177944775,-0.00373514152623,0.000583797416527,-0.000152996103908,0.000146467907537,0.000185034611372,2.66661595444e-05,-0.00654561650027,0.573800143424,0.818980950767,0.00208436786397,0.0,0.818939530311,-0.57374100367,-0.0118344118187,0.0,-0.00849643411541,0.00849772204588,-0.999927797057,0.0,0.661690143296,0.260914827535,0.30331029922,1.0,0.0,0.0,0.0
0.465076803076,0.547700032386,-0.123970303279,-1.35575643,0.0794983021948,1.89409710039,0.15917874249,-0.00059319091782,-0.00105450958401,-6.35406715473e-05,0.00168217223179,-0.00017796470186,-0.000419163513819,0.00137360732459,0.57380167939,0.818979887722,0.00207921542207,0.0,0.818938426303,-0.573742586043,-0.0118340941926,0.0,-0.00849911433424,0.0084933360505,-0.999927811544,0.0,0.661691208725,0.26091275822,0.303307409255,1.0,-0.00028,-0.000368,0.015
0.465078386432,0.547688476312,-0.123970101158,-1.35576748424,0.0795014878137,1.89409638849,0.159177590657,-0.000626667116909,-0.000170256860079,0.000328497582071,-0.00174234489903,-0.000102517682001,0.00680684776811,0.000783522179613,0.573800720034,0.818980553994,0.00208153069926,0.0,0.818939080678,-0.573741575575,-0.0118377995129,0.0,-0.00850083056746,0.00849734832164,-0.999927762866,0.0,0.661688199767,0.260913230362,0.303310271624,1.0,-0.00062,-0.000814857142857,0.032
0.465074746345,0.547649184558,-0.123967733231,-1.35579453843,0.0795021069411,1.89410022332,0.159169936439,-0.000252996769632,-0.00861686564696,0.00139029871698,-0.00566967062538,0.000284848390505,0.00012277739214,-0.000404030219191,0.573800797882,0.818980475329,0.00209100017444,0.0,0.818939111818,-0.573741602277,-0.0118343505625,0.0,-0.00849257176674,0.00850312533233,-0.999927783935,0.0,0.661685555936,0.26090759641,0.303320583328,1.0,-0.00092,-0.00120914285714,0.047
0.465079329416,0.547536798882,-0.123965844366,-1.35591743397,0.0794980311636,1.89412857643,0.159177831834,-0.00138735057018,-0.0104722295977,0.000965386679055,-0.00898048394486,4.68039548701e-05,0.00123217639797,0.00187824594406,0.57380439218,0.818977890779,0.00211679730112,0.0,0.818936777296,-0.573745007802,-0.0118307951897,0.0,-0.0084748209732,0.0085222494825,-0.999927771728,0.0,0.661663225938,0.260902141559,0.303348997255,1.0,-0.00128,-0.00168228571429,0.065
0.465068646218,0.547394357325,-0.123968390571,-1.35611827335,0.0794967023608,1.89416731255,0.15916177158,-0.000381616041606,-0.00596648548567,-0.000328184226427,-0.00903823707798,0.000385101150752,0.00160153511523,-0.000923021305487,0.573812396681,0.818972307678,0.00210702945384,0.0,0.818930935629,-0.573752918119,-0.011851519774,0.0,-0.00849731580073,0.0085262247241,-0.999927546933,0.0,0.661632113151,0.260874040755,0.303357750498,1.0,-0.00164,-0.00215542857143,0.083
0.465053154565,0.547238829257,-0.123970680675,-1.35630310626,0.0794954016642,1.89425953736,0.159159637096,-0.000974052461369,-0.0138923739474,-4.31102841493e-05,-0.0162982597113,-0.000109434902317,0.00517536348393,-0.000229861565399,0.57383503693,0.818956292587,0.00216520776492,0.0,0.818915636802,-0.573775283933,-0.0118258297437,0.0,-0.0084426575309,0.00855936273757,-0.99992772681,0.0,0.661616879562,0.260848630871,0.303388027117,1.0,-0.00194,-0.00254971428571,0.098
0.465035784337,0.547057508011,-0.123967822255,-1.35651335267,0.079490367661,1.89440067038,0.159146748494,0.00043924679852,-0.00906523837029,-0.0008150045926,-0.0121132363131,-5.78031325727e-06,0.0111666607129,-0.000251791788339,0.573847488249,0.818947300415,0.00226412780844,0.0,0.818907937905,-0.573787357734,-0.0117730302418,0.0,-0.00834252404088,0.00861020184116,-0.999928130776,0.0,0.661605767902,0.260825004043,0.303428545404,1.0,-0.00228,-0.00299657142857,0.115
0.465014513823,0.546866321807,-0.123962968367,-1.35675644913,0.0794855707883,1.89450689526,0.159125764082,0.000947500707351,-0.00666480047298,0.00177564315626,-0.0157982801565,-0.000396630337858,0.013896295688,-0.00122931860087,0.573856706991,0.818940692412,0.00231712221618,0.0,0.818901932725,-0.573796285415,-0.0117556081765,0.0,-0.00829774953669,0.00864369687599,-0.999928214352,0.0,0.661580951069,0.260793838668,0.303457307546,1.0,-0.0026,-0.00341714285714,0.131
0.464959324668,0.546558793308,-0.123965482682,-1.35721237255,0.0794771660026,1.89467363968,0.159084354624,-0.00300912524186,-0.0134047352764,0.00123850786735,-0.0235009593692,-0.00285093053483,0.00501479721457,-0.00135045427196,0.573892995342,0.818915189911,0.00234276163112,0.0,0.818876607416,-0.573832309925,-0.011761327043,0.0,-0.00828733660758,0.00866834279487,-0.999928087357,0.0,0.661533173192,0.260715753287,0.303472644838,1.0,-0.00302,-0.00396914285714,0.152
0.4649363678,0.546339961585,-0.123967980036,-1.35752910009,0.0794653879959,1.894792423,0.158959950878,0.000720853761368,-0.0129336473281,0.000641271603154,-0.0252233474167,-0.000252819209613,0.0016233601018,-0.00671302708765,0.573826242606,0.818961901466,0.00236519427301,0.0,0.818923552949,-0.573765421034,-0.0117559751553,0.0,-0.00827078831718,0.00868296752303,-0.999928097483,0.0,0.661497180044,0.260670557324,0.303487234648,1.0,-0.00328,-0.00431085714286,0.165
0.464888658599,0.546044630556,-0.123965741331,-1.35804017385,0.0794525303755,1.89496816633,0.158929375174,-0.00360118429902,-0.0172954763626,0.000394936781691,-0.0283215644398,-0.00347439252317,0.00699816614969,-0.000894127498162,0.57386386297,0.818935611243,0.00234058047483,0.0,0.818896752207,-0.57380293003,-0.0117920996732,0.0,-0.00831409849145,0.0086839208125,-0.999927730031,0.0,0.661435358127,0.260593351002,0.303468263393,1.0,-0.00364,-0.004784,0.183
0.46482956753,0.545717261619,-0.123973877201,-1.3585880071,0.0794206772512,1.89515429404,0.15887657897,-0.00722501564266,-0.0191156520395,-0.000914828063557,-0.033493472733,-0.00412249128859,0.0144997804844,-0.0079341273771,0.573896818457,0.81891260504,0.00230953942516,0.0,0.818873344366,-0.573836002124,-0.0118082790314,0.0,-0.00834481233562,0.00866812092876,-0.999927611273,0.0,0.661374374754,0.260496298672,0.303455668567,1.0,-0.00398,-0.00523085714286,0.2
0.464777631635,0.545413002021,-0.123968404167,-1.35913044684,0.0793181529648,1.89533152932,0.158772524075,-0.000265910165593,-0.0147207920533,0.000402868345138,-0.0384209685177,-0.00871619385726,0.011046954984,-0.00959743638233,0.573853307589,0.818943342547,0.00222035308241,0.0,0.818903467154,-0.573793402004,-0.0117894105709,0.0,-0.00838099671097,0.00858381235313,-0.99992803594,0.0,0.661311160489,0.260400147981,0.303427905202,1.0,-0.00428,-0.00562514285714,0.215
0.464701468154,0.544970863554,-0.123976810282,-1.35990594776,0.0792943210896,1.89557607914,0.158708355405,-0.000598019083622,-0.021006510042,-0.0005156109476,-0.0424907703267,-0.000410674996668,0.011521381831,-0.00473974341751,0.57390579207,0.818906738141,0.00215475222038,0.0,0.818865782232,-0.573845905464,-0.0118513447665,0.0,-0.00846881339724,0.00856617319313,-0.999927447306,0.0,0.661216465937,0.260271400225,0.303393240009,1.0,-0.00466,-0.00612457142857,0.234
0.46465454348,0.544620687273,-0.123982055888,-1.36048997341,0.0792813934275,1.89577113769,0.158630945282,-0.000696548025187,-0.0277428936978,-0.00224981149915,-0.0418192569819,-0.000244224440447,0.0135895302115,-0.00166157410106,0.573913552339,0.818901357266,0.00213270014641,0.0,0.818859904008,-0.573853540762,-0.0118877358466,0.0,-0.008511189356,0.00856908032753,-0.999927062599,0.0,0.66114446424,0.260183752704,0.3033802015,1.0,-0.00494,-0.00649257142857,0.248
0.464585325678,0.54413217071,-0.123982858285,-1.36129189316,0.0792482976924,1.89606780505,0.158526125487,-0.00299967587764,-0.0257372340737,-0.00152117346124,-0.0472904445322,-0.00267323757795,0.0178945844583,-0.00711485810078,0.573920921087,0.818896211308,0.00212563992846,0.0,0.818854522899,-0.573860793091,-0.0119082904626,0.0,-0.00853199679514,0.00857517199895,-0.999926833051,0.0,0.661052097023,0.260063529182,0.303369963929,1.0,-0.0053,-0.00696571428571,0.266
0.464516484055,0.543599437101,-0.123978240085,-1.36216526219,0.0792070151596,1.89637342837,0.158404355661,-0.00545491831955,-0.028057301663,0.00200686477158,-0.0497103386482,-0.00682077240899,0.0209772757535,-0.00447636495334,0.573911945875,0.818902560024,0.0021029667054,0.0,0.818860413225,-0.573851748186,-0.0119390811543,0.0,-0.00857031800649,0.00857418256219,-0.999926513821,0.0,0.660945234094,0.259938080627,0.303357534869,1.0,-0.00566,-0.00743885714286,0.284
0.464437871296,0.543067334232,-0.123981574036,-1.36302588646,0.0791586107974,1.89666921843,0.158308524136,-0.00645915367959,-0.0292530480811,0.000681393974026,-0.0478900757187,-0.0032936180052,0.0188109148273,-0.00488283796468,0.573935070955,0.818886421377,0.00207608136541,0.0,0.818843868519,-0.573874925906,-0.0119597368339,0.0,-0.00860242068001,0.00856426379359,-0.999926323158,0.0,0.660843957073,0.25980125944,0.303350057187,1.0,-0.006,-0.00788571428571,0.301
0.464371478001,0.54251523585,-0.123993879627,-1.36388178407,0.0791056207341,1.89697123341,0.158205969693,-0.00208618856192,-0.0354622906881,-0.00193528856031,-0.0521966479158,-0.00356412568506,0.0206877360508,-0.00371893640141,0.573947446283,0.818877760373,0.00207108022308,0.0,0.818835189247,-0.573887367142,-0.0119569890344,0.0,-0.00860291125766,0.00855872146988,-0.999926366391,0.0,0.660744550611,0.259667828705,0.303359732166,1.0,-0.00632,-0.00830628571429,0.317
0.46429696289,0.54194693211,-0.123984301025,-1.36475341206,0.0790585266542,1.89729070223,0.158075649973,-0.00774805833132,-0.0346203645179,0.000803467336028,-0.0550275194369,0.000141292538,0.018121632194,-0.00311867178027,0.573930867662,0.818889330678,0.0020904898608,0.0,0.818846902068,-0.573870600011,-0.0119596119579,0.0,-0.00859409342361,0.0085759467278,-0.999926294632,0.0,0.660642062641,0.259542205412,0.303374116973,1.0,-0.00664,-0.00872685714286,0.333
0.464221386684,0.541355952658,-0.123989942414,-1.36566321398,0.0789998148304,1.89763999248,0.157951611591,-0.00925715086759,-0.0335470063106,0.000492358578103,-0.0550222333903,-0.00116761579914,0.022100001336,-0.0104941574331,0.573930040511,0.818889854248,0.00211237085138,0.0,0.818847783954,-0.573869755813,-0.0119397226947,0.0,-0.00856525694025,0.00858244095895,-0.999926486338,0.0,0.660541591754,0.259402977053,0.303389361905,1.0,-0.00696,-0.00914742857143,0.349
0.464127096781,0.540629976786,-0.123990320007,-1.36676636103,0.078939044243,1.89804285554,0.157816119898,-0.00490805552806,-0.0450739993286,-0.000677043073822,-0.060315992927,-0.00596834887191,0.022340632248,-0.00825846876558,0.573941432969,0.818881804037,0.00213762483837,0.0,0.818839998393,-0.573880978657,-0.0119342476942,0.0,-0.00854616058748,0.00860009752076,-0.99992649803,0.0,0.66041432571,0.259236571747,0.303412399862,1.0,-0.00732,-0.00962057142857,0.367
0.46403002232,0.539899593035,-0.123994158959,-1.36787442586,0.0788700415142,1.89845637483,0.157680248185,-0.0102005144499,-0.0425389284356,-0.000360192284339,-0.0654975692308,-0.00586427971649,0.0229816228238,-0.0084737119744,0.573955262063,0.818872036807,0.00216596127245,0.0,0.818830637284,-0.573894727993,-0.011915348403,0.0,-0.00851427578696,0.00861259818349,-0.999926662441,0.0,0.660289925062,0.259065197792,0.303437117397,1.0,-0.00766,-0.0100674285714,0.384
0.463946550779,0.539193175675,-0.124001989225,-1.36895771063,0.0788036785777,1.89887060845,0.157548576766,-0.00505550265635,-0.046042445944,-0.000356827689234,-0.0675223409033,-0.00465016506759,0.0283688509529,-0.0097550185633,0.573963527119,0.818866167382,0.00219461966316,0.0,0.818825199544,-0.573902935826,-0.0118936850084,0.0,-0.00848000085742,0.00862371731473,-0.999926857868,0.0,0.660167796498,0.258903600171,0.303456777119,1.0,-0.00798,-0.010488,0.4
0.463839440586,0.538494493795,-0.123999524891,-1.37007382355,0.0787485013504,1.8993049868,0.157400772273,-0.0068731085209,-0.0468509784505,-0.00104263720689,-0.0727171230873,-6.71205826118e-05,0.0332520440673,-0.0113225241683,0.573975559608,0.818857679407,0.00221466706053,0.0,0.818816868935,-0.573914780914,-0.0118956419811,0.0,-0.00846997070001,0.00864138088458,-0.999926790387,0.0,0.660044817456,0.258731549484,0.303456677888,1.0,-0.0083,-0.0109085714286,0.416
0.463731060435,0.537718669393,-0.124008302371,-1.37131593551,0.0786760675831,1.89978025779,0.157254946938,-0.00329282113889,-0.0496487491771,-0.00150076507224,-0.0743896841647,-0.00326454918221,0.0186722384433,-0.0153748636879,0.57400034847,0.818840289392,0.00221975816449,0.0,0.818799573724,-0.573939575424,-0.0118898583899,0.0,-0.00846205094702,0.00864248629254,-0.999926847887,0.0,0.659906473894,0.25853819369,0.303454866557,1.0,-0.00864,-0.0113554285714,0.433
0.463613272054,0.536899837783,-0.1240060899,-1.37260028692,0.0785975909801,1.90025009658,0.157096135132,-0.00671088833866,-0.0513408882296,0.000647739203296,-0.0795125927613,-0.00562929584522,0.0266146338082,-0.0165935291042,0.57401490091,0.818830079093,0.00222306263318,0.0,0.818789383132,-0.573954089027,-0.0118910327767,0.0,-0.00846096232034,0.00864601654576,-0.99992682658,0.0,0.659758361195,0.258339234,0.303462331261,1.0,-0.00898,-0.0118022857143,0.45
0.463502313627,0.536053584336,-0.124020477377,-1.37392528235,0.0785246967519,1.90075098115,0.156925798924,-0.00473843909559,-0.0464956799163,-0.00438801006933,-0.0771410307904,-0.000906279722928,0.0302045168151,-0.0138122915634,0.574029832849,0.81881956138,0.00224138398104,0.0,0.818779112031,-0.573968954444,-0.0118807380966,0.0,-0.00844185846893,0.00865526313006,-0.999926908052,0.0,0.659609165972,0.258133699173,0.303472906072,1.0,-0.00932,-0.0122491428571,0.467
0.463381747338,0.535154890196,-0.12401600106,-1.37534132768,0.0784490729566,1.90125913317,0.15675873231,-0.0053590494884,-0.0528788028885,0.00123703405696,-0.0808470618516,0.000112166556623,0.0326392471022,-0.0145850589016,0.574046021965,0.818808215868,0.00223990933902,0.0,0.818767599204,-0.573984995593,-0.0118991692733,0.0,-0.00845762604638,0.00866480280226,-0.99992669219,0.0,0.659439651474,0.257922732118,0.303476998427,1.0,-0.00966,-0.012696,0.484
0.463262090963,0.534260218467,-0.124024027935,-1.37679440389,0.0783604061467,1.9017953128,0.156586967184,-0.00893466532207,-0.0588218804432,-0.000214131637117,-0.0875307148337,-0.00347446667545,0.0330605995097,-0.0133190146532,0.574064938582,0.818795016017,0.0022169660643,0.0,0.818754123576,-0.574004025251,-0.0119084433742,0.0,-0.00847818987,0.00865153649008,-0.999926632915,0.0,0.659270006459,0.257700467641,0.303463279841,1.0,-0.01,-0.0131428571429,0.501
0.463143668041,0.533391665293,-0.124023041265,-1.37818341261,0.0782873095138,1.90230381042,0.156407432123,-0.00644731623147,-0.0560917066768,0.000253995993047,-0.0914057139135,-0.000989195765301,0.0255161835815,-0.00957433568312,0.574076731042,0.818786773964,0.00220738723443,0.0,0.818745642773,-0.574015738651,-0.0119269075276,0.0,-0.00849868275004,0.00865441538932,-0.999926434037,0.0,0.659095891933,0.257474749731,0.303455817118,1.0,-0.01034,-0.0135897142857,0.518
0.46301281382,0.532453265781,-0.124022654011,-1.37970576889,0.0781988953405,1.90288202331,0.156212331669,-0.00857461630338,-0.0601123072846,0.00157216987568,-0.0912242646107,-0.00130002675555,0.0301572274074,-0.0110920506924,0.57407737624,0.818786321827,0.00220730127706,0.0,0.818745136805,-0.574016330444,-0.0119331572523,0.0,-0.00850384268052,0.00865793948391,-0.99992635966,0.0,0.658929437043,0.257262686707,0.303445946322,1.0,-0.01066,-0.0140102857143,0.534
0.462884385037,0.531480871669,-0.124020627946,-1.38127244258,0.0781117177691,1.90345708624,0.156017658495,-0.0119693064108,-0.0549181966996,0.000411075195823,-0.0930289506383,-4.21626638532e-06,0.0347299516632,-0.0166045199592,0.574083772195,0.818781872081,0.00219439185673,0.0,0.818740409806,-0.57402266727,-0.0119526445316,0.0,-0.00852714217317,0.00865862325379,-0.999926155318,0.0,0.658741867618,0.257030956441,0.303435453987,1.0,-0.011,-0.0144571428571,0.551
0.462742221792,0.53045797069,-0.12402536492,-1.38291211262,0.0780010881004,1.90403433048,0.155799717211,-0.0108217718002,-0.0608487816935,-0.000769974517741,-0.096842073185,-0.00816832347751,0.0259834637041,-0.00376880249052,0.574087057678,0.818779703007,0.00214360722391,0.0,0.818737618136,-0.574026200961,-0.0119741454561,0.0,-0.00857386562269,0.00862941994889,-0.999926008232,0.0,0.658553758616,0.256789119724,0.303419554754,1.0,-0.01132,-0.0148777142857,0.567
0.462606508738,0.52947690389,-0.124030794959,-1.38446971945,0.077905489529,1.90460794939,0.155600709962,-0.00973835016995,-0.0655223613641,-0.0013574866882,-0.0974110785372,-0.0033819577152,0.0402083173018,-0.0132833786532,0.574095287401,0.818773920994,0.0021480657232,0.0,0.818731922004,-0.574034439168,-0.0119686858655,0.0,-0.008566749089,0.00863002228459,-0.999926064029,0.0,0.658362596152,0.256533585766,0.303425549441,1.0,-0.01166,-0.0153245714286,0.584
0.462471615071,0.528317311398,-0.124031451824,-1.38624278842,0.0777926113311,1.9052770571,0.155347721666,-0.00699389071181,-0.0649432384669,0.000186603388205,-0.0963386603463,-0.00971047608235,0.0410044935268,-0.0155797508939,0.574064812649,0.818795171212,0.00219211754006,0.0,0.818753797112,-0.574003839018,-0.0119398244654,0.0,-0.00851815073463,0.00864920417841,-0.999926313473,0.0,0.65815280535,0.256276309234,0.303456153732,1.0,-0.01202,-0.0157977142857,0.602
0.462329584822,0.527262486431,-0.124036489931,-1.38787556325,0.0776974725993,1.90591058904,0.155112912457,-0.00822110412602,-0.0695231975602,-0.00134733154143,-0.099060411117,-0.00685074110065,0.0380358914399,-0.0141809443678,0.57405531169,0.818801705149,0.00223912157717,0.0,0.818760956433,-0.57399416256,-0.0119140450252,0.0,-0.00847016074418,0.0086727931327,-0.999926516818,0.0,0.657967349603,0.256027527204,0.303476586197,1.0,-0.01234,-0.0162182857143,0.618
0.462178671971,0.526016335196,-0.124037176446,-1.38979358521,0.0775746644766,1.90662483111,0.154865009771,-0.00386221832752,-0.0683752061364,-0.000815647611555,-0.105771023819,-0.00402239392019,0.0370884368196,-0.0145005472507,0.57404678082,0.818807597736,0.00227117185668,0.0,0.818767312152,-0.5739855518,-0.0118920888221,0.0,-0.0084338752273,0.00868634382109,-0.999926705904,0.0,0.657738435033,0.255745145501,0.303502426427,1.0,-0.0127,-0.0166914285714,0.636
0.46201140251,0.524783749011,-0.124035736309,-1.39174881767,0.0774551655684,1.9073309912,0.154589265315,-0.0117869289497,-0.0702283019941,0.000300371968678,-0.111440657404,-0.00364719057446,0.0393259628639,-0.0178117807821,0.574029917943,0.818819459027,0.00225692853222,0.0,0.818778931163,-0.573968689356,-0.011905982736,0.0,-0.00845360678956,0.00868248298898,-0.999926572815,0.0,0.657501676021,0.255448684355,0.303499930882,1.0,-0.01306,-0.0171645714286,0.654
0.461869067695,0.523644853458,-0.124045802822,-1.39352814868,0.0773399991541,1.90797106283,0.154350287063,-0.00354833549042,-0.0763002577624,-0.00145420974396,-0.113927786026,-0.00839965823365,0.0375723424945,-0.0118764105216,0.574022266553,0.818824840227,0.00225065090517,0.0,0.818784289618,-0.573961124585,-0.0119021611583,0.0,-0.008454161853,0.0086750701495,-0.999926632461,0.0,0.657285997012,0.255177832876,0.303509572207,1.0,-0.01338,-0.0175851428571,0.67
0.461706759589,0.522449973072,-0.124046769324,-1.39546513964,0.0772232570435,1.9087139723,0.154087359982,-0.0115452201185,-0.0682677362426,-0.00105953491701,-0.112683423472,-0.00412105861819,0.0351370191078,-0.0156053125219,0.574013138027,0.818831244606,0.00224880642098,0.0,0.818790667594,-0.573952002132,-0.0119033109219,0.0,-0.00845625875859,0.00867412556971,-0.999926622925,0.0,0.657057750011,0.254887889502,0.303491905966,1.0,-0.01372,-0.018032,0.687
0.461563606677,0.521366905413,-0.124047440075,-1.39722307489,0.0771181544611,1.90939812846,0.15385063294,-0.00972756583078,-0.0738816237725,-0.00105840375168,-0.117666295323,-0.0068835938961,0.0475497198901,-0.0169012113746,0.57400293039,0.818838384626,0.0022544774097,0.0,0.818797884235,-0.573941775988,-0.0118999768293,0.0,-0.00845038173159,0.00867674995905,-0.999926649839,0.0,0.656850836441,0.254628414054,0.303475502522,1.0,-0.01402,-0.0184262857143,0.702
0.461381304829,0.520007191368,-0.124053586129,-1.39937581715,0.0769778086214,1.91017844903,0.153562971557,-0.0137910645995,-0.0770734823811,0.00118203904961,-0.12594302079,-0.0114157269261,0.0401205726918,-0.0143055302134,0.573997779894,0.818842043833,0.00223670061411,0.0,0.818801364918,-0.573936751466,-0.0119028159333,0.0,-0.00846296438004,0.00866377024038,-0.99992665597,0.0,0.656589738705,0.254297735817,0.303473635654,1.0,-0.01438,-0.0188994285714,0.72
0.461206869485,0.518582510136,-0.124063086308,-1.40158819573,0.0768394001563,1.91096734853,0.153272425546,-0.00942417306197,-0.0763562723796,0.00101534750362,-0.12674845734,-0.00173927321396,0.0428125726859,-0.0147720861332,0.573989455508,0.818847885425,0.00223436840325,0.0,0.818807178913,-0.573928440302,-0.0119036160563,0.0,-0.00846504624225,0.00866223376249,-0.999926651659,0.0,0.656315806594,0.25396499784,0.303489394105,1.0,-0.01474,-0.0193725714286,0.738
0.461054103217,0.517402864095,-0.124063520244,-1.40346097541,0.0767168202354,1.91164226582,0.153007704458,-0.0100960630698,-0.0779573043202,-0.00259841755114,-0.12671038964,-0.00871099789116,0.0510879293083,-0.0148988357475,0.57396412725,0.81886569437,0.00221407199878,0.0,0.818824739613,-0.573903213126,-0.0119119546338,0.0,-0.00848379130761,0.00865013811509,-0.999926597504,0.0,0.656083851525,0.253683728228,0.303484283305,1.0,-0.01504,-0.0197668571429,0.753
0.460831005347,0.515804604708,-0.124069135023,-1.40599586365,0.0765606383067,1.91259364551,0.152654590482,-0.0136170897283,-0.083956737763,-0.000513700280197,-0.130472340625,-0.00316964191328,0.0538133969908,-0.0161313804691,0.573953597659,0.818873051359,0.00222269948966,0.0,0.818832224908,-0.573892666466,-0.0119055335862,0.0,-0.00847369282377,0.00865340840721,-0.999926654837,0.0,0.655781283233,0.253293556147,0.303481424656,1.0,-0.01544,-0.0202925714286,0.773
0.46068671814,0.514744313214,-0.124069746745,-1.40768849307,0.0764603440672,1.91322287438,0.152425193728,-0.0126160720496,-0.0863329669672,0.00017809777386,-0.132343372208,-0.006079515229,0.0478103479651,-0.0186905197389,0.573946560898,0.818877989584,0.00222042999457,0.0,0.81883708272,-0.573885587788,-0.0119126400981,0.0,-0.00848088928499,0.00865555588092,-0.999926575239,0.0,0.655575120973,0.25303811755,0.303473736001,1.0,-0.0157,-0.0206342857143,0.786
0.460432441725,0.512925202069,-0.124080787995,-1.41061963521,0.0762777142227,1.91424032392,0.152016885258,-0.0114747386741,-0.0837931957859,-0.0018372617123,-0.133936489151,-0.0141693950679,0.0463700476704,-0.0193552424269,0.573932590969,0.818888004631,0.00213630419224,0.0,0.818845924771,-0.573871884714,-0.0119648786809,0.0,-0.00857209575496,0.00861650369825,-0.999926134791,0.0,0.655205900545,0.252580677598,0.303441962849,1.0,-0.01614,-0.0212125714286,0.808
0.460286126731,0.511927247978,-0.124078730892,-1.41222692367,0.0761896015138,1.91482047967,0.151785111307,-0.0185384147993,-0.0836226072738,0.000568076509872,-0.130722628142,-0.00955970979947,0.0475038218755,-0.0201400945004,0.57392159824,0.818895758574,0.00211720677361,0.0,0.818853272682,-0.573860815155,-0.0119928957376,0.0,-0.00860611514199,0.00861682948546,-0.999925839766,0.0,0.65500651421,0.252333529598,0.303426233627,1.0,-0.01638,-0.021528,0.82
0.460055655538,0.510206782459,-0.124082493631,-1.41494327868,0.0760209745663,1.91586375449,0.151407869425,-0.0132820799291,-0.0859794205089,0.00113202013246,-0.133092034263,-0.00297653586842,0.0527469903524,-0.0155002038412,0.573900675183,0.818910329823,0.00215258794536,0.0,0.818868353162,-0.573839795935,-0.0119689470191,0.0,-0.00856641865389,0.00863183911102,-0.999926051178,0.0,0.654680452067,0.251924186874,0.303428469591,1.0,-0.01678,-0.0220537142857,0.84
0.459889353575,0.5089776872,-0.12409576312,-1.41691193763,0.0758877928692,1.91657379956,0.151126995907,-0.0145859065493,-0.0880587987232,-0.00188421300657,-0.149282134344,-0.0106498192749,0.0558470650154,-0.0215858221795,0.573882612696,0.818923080386,0.00211711073241,0.0,0.818880747363,-0.573821989267,-0.0119746871832,0.0,-0.00859166843901,0.0086058916758,-0.999926058197,0.0,0.654436444201,0.251616851742,0.303413557431,1.0,-0.01706,-0.0224217142857,0.854
0.459646387939,0.507273931731,-0.1240945879,-1.41958254173,0.0757122965243,1.91753190682,0.1507652583,-0.0133975849823,-0.0907221311715,0.000265796928577,-0.140044691916,-0.00661696624923,0.0567965738145,-0.0244880453879,0.573875311561,0.818928230525,0.00210402735151,0.0,0.818885734971,-0.573814751532,-0.0119804376804,0.0,-0.0086039623515,0.00859840093646,-0.99992601693,0.0,0.654104049335,0.25120083245,0.303417146875,1.0,-0.01744,-0.0229211428571,0.873
0.459469894853,0.5059880721,-0.124097548519,-1.4215841711,0.0755902138636,1.9182728582,0.150492364445,-0.0194229758996,-0.0909529105725,0.00058713409102,-0.144428860533,-0.00988119499597,0.0497527729654,-0.0181123781189,0.573869013141,0.818932590474,0.00212483351034,0.0,0.818890340809,-0.57380834201,-0.0119726050109,0.0,-0.00858567454351,0.00861087844585,-0.999926066749,0.0,0.653857862287,0.250893661642,0.303427724852,1.0,-0.01772,-0.0232891428571,0.887
0.459195735041,0.503947868195,-0.124103675948,-1.42463164973,0.0754018422855,1.91945672388,0.150064290806,-0.0119196976072,-0.101023708539,-0.000252708224876,-0.146646164257,-0.0123193893971,0.0586681254114,-0.0219769343427,0.57384859209,0.818946563356,0.00225091636427,0.0,0.818906006783,-0.573787461299,-0.0119016054385,0.0,-0.00845539407855,0.00867317544145,-0.999926638478,0.0,0.653511884485,0.250448891326,0.303489840356,1.0,-0.01812,-0.0238148571429,0.907
0.459014298512,0.502677388414,-0.124106721793,-1.42651927936,0.0752731309604,1.92017305228,0.149795174294,-0.0150581394845,-0.103276440445,0.000540130511712,-0.144013676448,-0.00126329700614,0.0569042177889,-0.0301947135318,0.573846016356,0.818948091536,0.00234942193388,0.0,0.818908993611,-0.57378468216,-0.011829860681,0.0,-0.00834014008379,0.00871264892276,-0.999927263261,0.0,0.653272694723,0.250126260577,0.303556335441,1.0,-0.0184,-0.0241828571429,0.921
0.458755924153,0.500774296369,-0.124108429879,-1.42939830375,0.0750932652804,1.92118156616,0.149404795988,-0.0144168641245,-0.105777831217,-0.000547590750929,-0.154478403141,-0.0134861376117,0.0526078182335,-0.021605998223,0.573837304838,0.818954111107,0.0023787346576,0.0,0.818915306699,-0.573775767162,-0.0118252430414,0.0,-0.00831963127927,0.00873391597258,-0.999927248577,0.0,0.652905637643,0.249679548133,0.303601711859,1.0,-0.01878,-0.0246822857143,0.94
0.458555894914,0.499375915643,-0.124108091144,-1.43154672045,0.0749648013297,1.92195703175,0.149102389824,-0.0134450940478,-0.0953483202181,0.0011825374388,-0.156071876614,-0.00837787487762,0.0522000035862,-0.0271353272271,0.573827924937,0.818960610637,0.00240368231235,0.0,0.818922035541,-0.573766192837,-0.0118238134606,0.0,-0.00830424572506,0.00875343128564,-0.999927205822,0.0,0.652635927356,0.249344663777,0.30362183678,1.0,-0.01906,-0.0250502857143,0.954
0.458259837407,0.497396196585,-0.124105398183,-1.43466743723,0.0747686180944,1.92310728805,0.148640801009,-0.011362271341,-0.0994429255933,0.00132067291976,-0.156061303368,-0.00764236776024,0.0535591850853,-0.025399574423,0.573795863336,0.818983057566,0.00240946880365,0.0,0.818944511178,-0.573734064088,-0.0118261666704,0.0,-0.00830319567227,0.00875919540788,-0.999927164066,0.0,0.652247521157,0.248855454508,0.303616444805,1.0,-0.01946,-0.025576,0.974
0.458016381479,0.495929400581,-0.124110687896,-1.43704307762,0.0746273344144,1.92393308292,0.148296341851,-0.0227352839353,-0.0966776635109,-0.00117447109612,-0.158332212776,-0.0132728705435,0.0526454826849,-0.019001249506,0.573798805318,0.818981194069,0.00234129853114,0.0,0.818941600864,-0.573737102336,-0.0118801800972,0.0,-0.00838651571322,0.00873438807797,-0.999926685722,0.0,0.651945379896,0.248464542931,0.303579686272,1.0,-0.01976,-0.0259702857143,0.989
0.457726535692,0.494156152957,-0.124110602,-1.43994577083,0.0744419784287,1.92494647193,0.147885742334,-0.0163538823129,-0.0992472066599,-0.000337942198581,-0.158612193569,-0.012139154854,0.0561586583558,-0.0248285252319,0.573791112654,0.818986860084,0.00224253220291,0.0,0.818945893583,-0.573729714815,-0.0119408803527,0.0,-0.00849298026166,0.0086882508382,-0.999926189068,0.0,0.651552168455,0.247966264397,0.303525206777,1.0,-0.021136,-0.0277787428571,1.008
0.457417907432,0.492034164625,-0.124158148097,-1.44330796122,0.074231353366,1.92620806864,0.147407004986,-0.0173835706838,-0.111969657103,-0.00244324623504,-0.187842386474,-0.0157206337541,0.0711390560337,-0.0270557211677,0.573792038768,0.818986220267,0.00223923208819,0.0,0.818945359243,-0.573730806032,-0.0119250863563,0.0,-0.00848192827387,0.00867649538918,-0.999926384951,0.0,0.651137854746,0.247421862587,0.303501352346,1.0,-0.0242737142857,-0.0319025959184,1.027
0.457129721829,0.490195521233,-0.124168671284,-1.44630307744,0.0740490175365,1.92726176137,0.146978936841,-0.0148140685657,-0.121700210889,-0.00110144265976,-0.207937137528,-0.00655063396203,0.0705369887433,-0.0335577625155,0.57379573971,0.818983852998,0.00215511484169,0.0,0.818941768192,-0.573734721111,-0.0119831966961,0.0,-0.00857774553696,0.00864098713725,-0.999925875064,0.0,0.650774960619,0.246963649452,0.303453825862,1.0,-0.0265857142857,-0.0349412244898,1.041
0.456767351266,0.487958475731,-0.124180383096,-1.44983650679,0.0738347030867,1.9285426054,0.146455780462,-0.0226630594546,-0.152456475516,-0.000322841192772,-0.224703672476,-0.0181597833617,0.088501045207,-0.0398170498127,0.57379019666,0.818987770373,0.00214221779265,0.0,0.818945409033,-0.573729123458,-0.0120023672994,0.0,-0.00860090489139,0.00864136649264,-0.999925672848,0.0,0.650331081893,0.246384193167,0.303438454306,1.0,-0.029228,-0.0384139428571,1.057
0.456397563635,0.485637663989,-0.124202640232,-1.45335876582,0.07361877452,1.92992043704,0.145937937111,-0.0259700085215,-0.161878138536,-0.000353188080866,-0.239385070973,-0.0232753741028,0.094005168723,-0.040832537402,0.5738012943,0.818979605052,0.00228649732608,0.0,0.818939268521,-0.573739777124,-0.0119117387954,0.0,-0.00844377923683,0.00870764123497,-0.999926437082,0.0,0.649913659582,0.245802493644,0.303493918959,1.0,-0.0317051428571,-0.0416696163265,1.072
0.455901934216,0.482640859264,-0.124239147295,-1.45799657015,0.073331487889,1.93152448418,0.145230206053,-0.0323561817865,-0.171369082918,-0.00355854356728,-0.268264016011,-0.0208728427695,0.0873396248968,-0.0421186201538,0.573803556688,0.818978111544,0.00225345198684,0.0,0.818937234222,-0.573742058676,-0.0119416670084,0.0,-0.00848722711859,0.00869777419887,-0.999926155123,0.0,0.64932087479,0.245012085612,0.303506198022,1.0,-0.0346777142857,-0.0455764244898,1.09
0.455436805781,0.479756717445,-0.12428679113,-1.46251617127,0.0730516670314,1.9331424103,0.14456518206,-0.0332408031769,-0.183584653454,-0.00120618926321,-0.283807231634,-0.0254796794457,0.10958169109,-0.0476424078015,0.573819130515,0.818967261613,0.00223086555521,0.0,0.818926103724,-0.573757736288,-0.0119517191192,0.0,-0.00850825411793,0.00868520632732,-0.99992608567,0.0,0.648747830495,0.244249937723,0.303496239438,1.0,-0.03732,-0.0490491428571,1.106
0.454884949713,0.476434965198,-0.124316981878,-1.46755483434,0.072749968935,1.93499192517,0.143839864261,-0.029887935255,-0.195177947636,-0.0069598743045,-0.303790387971,-0.019031095254,0.11992143204,-0.0440211835668,0.573861746198,0.818937077571,0.0023465147291,0.0,0.818897351593,-0.573799805629,-0.0119019962438,0.0,-0.00840071806555,0.00875182354458,-0.999926414053,0.0,0.648119179485,0.243398655187,0.303559466413,1.0,-0.0401274285714,-0.0527389061224,1.123
0.454286121051,0.472916111881,-0.124342567838,-1.4729636181,0.072424595093,1.93694837312,0.14305011903,-0.038764224055,-0.2102540581,-0.00195713724117,-0.322806203348,-0.0165785252753,0.110594396678,-0.0491644962627,0.573896130212,0.818912804818,0.00240764074972,0.0,0.818873709697,-0.573833772103,-0.0118910244414,0.0,-0.00835628748863,0.00879593597255,-0.999926399276,0.0,0.647432390725,0.242482653192,0.303589451343,1.0,-0.0429348571429,-0.0564286693878,1.14
0.453696319673,0.469372180935,-0.124354680292,-1.47833693283,0.0720929644029,1.93889006702,0.142221694347,-0.0403496018513,-0.228643308087,-0.00143588861796,-0.337927310549,-0.0158692349703,0.131078274924,-0.0587697955295,0.573875801364,0.818926749261,0.00250815756354,0.0,0.818888816888,-0.573812902607,-0.0118577096593,0.0,-0.00827154170606,0.00885892537463,-0.999926547822,0.0,0.64674207837,0.241583716425,0.30364887417,1.0,-0.0455771428571,-0.0599013877551,1.156
0.453035033143,0.465400514894,-0.124357206297,-1.4843502427,0.0716928387513,1.94111069184,0.141260288517,-0.0413324449928,-0.242239550311,-0.00232729004766,-0.369806369545,-0.0185466250057,0.122667321484,-0.0585550730159,0.573806965266,0.818974533603,0.00265081544413,0.0,0.818938562373,-0.573743657487,-0.0117725720601,0.0,-0.0081207045127,0.00892621069332,-0.999927185809,0.0,0.645972527612,0.240582930309,0.303719489441,1.0,-0.0483845714286,-0.0635911510204,1.173
0.452327938574,0.461233640803,-0.124369927785,-1.49083419297,0.0712648957403,1.94332631815,0.14029099303,-0.0385570382087,-0.252214440642,-0.00368109762017,-0.388375868258,-0.0326807775807,0.132084656243,-0.0585889315691,0.573787416257,0.818988518661,0.00256010715989,0.0,0.81895115112,-0.573724211781,-0.0118443149166,0.0,-0.00823172095183,0.00889289277464,-0.999926574919,0.0,0.645097230476,0.239490429882,0.303697010861,1.0,-0.051192,-0.0672809142857,1.19
0.451616430257,0.457161078692,-0.124380244762,-1.49715440336,0.0708333128593,1.94554747066,0.139344403927,-0.0459180058737,-0.260347542541,0.000741341380825,-0.394985956489,-0.0236843275755,0.141290970584,-0.0634516939034,0.573776542351,0.818996250557,0.00252347445494,0.0,0.818958399167,-0.573713470922,-0.011863415076,0.0,-0.00826850037197,0.00887374072975,-0.999926441608,0.0,0.644255094673,0.238415414616,0.303683903561,1.0,-0.0538342857143,-0.0707536326531,1.206
0.450782450032,0.452619959574,-0.124408527482,-1.50416441422,0.0703557197984,1.94806537596,0.138209544687,-0.051528981287,-0.279382360395,-0.00364057317061,-0.412198968047,-0.0314647795839,0.147036956599,-0.072511486963,0.573741047837,0.8190210467,0.00254597548766,0.0,0.81898361982,-0.573678037134,-0.0118358387049,0.0,-0.00823338930252,0.00887598961172,-0.999926711369,0.0,0.643338562436,0.237189674998,0.303686444418,1.0,-0.0566417142857,-0.0744433959184,1.223
0.449930562901,0.447790083057,-0.124477714448,-1.51141710421,0.0698624483639,1.95074025132,0.137117217207,-0.051767181744,-0.288749355286,-0.00286169647083,-0.448916987209,-0.0240416386397,0.155955567207,-0.063798050425,0.573788285983,0.818987355357,0.00273158128449,0.0,0.818952782789,-0.573725079578,-0.0116884355535,0.0,-0.00800565836616,0.00894389569414,-0.999927955487,0.0,0.642404587997,0.235912886452,0.303780756748,1.0,-0.0594491428571,-0.0781331591837,1.24
0.449067882228,0.443116352878,-0.124493528268,-1.51867308653,0.0693741819447,1.95313554272,0.136016308665,-0.0570902873069,-0.29749811282,-0.00100946943342,-0.464768670274,-0.029373963876,0.154130821608,-0.0751839588738,0.573795473776,0.818982885426,0.00255627741037,0.0,0.818945674799,-0.573732506055,-0.0118211727409,0.0,-0.00821487687747,0.00887655864352,-0.999926858577,0.0,0.641325660993,0.234561555665,0.303726235536,1.0,-0.0622565714286,-0.081822922449,1.257
0.447931486239,0.43705944936,-0.124507589888,-1.52808770278,0.0687327042823,1.95640848078,0.134487763057,-0.0546543515688,-0.30525980064,-0.00222983780703,-0.474159269508,-0.0273015438109,0.170663527126,-0.0747193455182,0.573721864828,0.819034668373,0.00248610594197,0.0,0.818996352392,-0.573658967385,-0.0118790070878,0.0,-0.00830330152759,0.00885152821622,-0.999926350104,0.0,0.640097104423,0.233000164811,0.303679293792,1.0,-0.0653942857143,-0.0859467755102,1.276
0.446993948549,0.43224913621,-0.124522502499,-1.53521264991,0.0682447429565,1.95904807283,0.1333128398,-0.0649046949968,-0.309913969595,-0.00134629727425,-0.48519287653,-0.0327175025396,0.179730308755,-0.087171185265,0.573714068607,0.819039293135,0.00274785087101,0.0,0.819004629957,-0.573650477144,-0.0117172131407,0.0,-0.00802070642841,0.00897300536761,-0.999927574099,0.0,0.63916533598,0.23171963414,0.303798104469,1.0,-0.0678714285714,-0.0892024489796,1.291
0.445752556779,0.426074233645,-0.124600410787,-1.5447995872,0.0675391193263,1.96225045181,0.131780978049,-0.0645856022806,-0.332795541111,-0.00386289737057,-0.513351262941,-0.0341995266354,0.168092018411,-0.0827735238501,0.573747102146,0.819016871393,0.00252468877193,0.0,0.81897952493,-0.573684555411,-0.011803199932,0.0,-0.00821880316247,0.00883989036334,-0.999927151153,0.0,0.63782907881,0.229945132571,0.303719479372,1.0,-0.0710091428571,-0.0933263020408,1.31
0.444795494262,0.421291697814,-0.124681599852,-1.55210444437,0.067015131069,1.96464484482,0.130575058934,-0.06773031564,-0.346017293242,-0.00252476677228,-0.529238480555,-0.0359608044233,0.169261455655,-0.0848700786791,0.573765127266,0.819004645159,0.00239099205556,0.0,0.818965624766,-0.573703157179,-0.0118633804089,0.0,-0.00834460463061,0.0087651030281,-0.99992676759,0.0,0.636799056653,0.228575763401,0.303702275435,1.0,-0.0733211428571,-0.0963649306122,1.324
0.443640366944,0.415637892418,-0.124717789183,-1.56047275697,0.0664259582626,1.96769310564,0.129245545951,-0.0710565740973,-0.364254965914,0.0016882027262,-0.528489704848,-0.0358137374996,0.190024405544,-0.0889199115626,0.57383412915,0.818955501902,0.00265047697625,0.0,0.818920188806,-0.573771548447,-0.0116910846517,0.0,-0.00805386488175,0.00887944344251,-0.999928142791,0.0,0.635673939978,0.227029006719,0.303818264786,1.0,-0.0759634285714,-0.0998376489796,1.34
0.442348100668,0.40956600365,-0.124731355734,-1.56968418277,0.0658040433908,1.97087642988,0.127652229545,-0.0777821239052,-0.35916047872,-0.00159266840811,-0.54788231826,-0.0392591040888,0.186763534193,-0.0916354309963,0.573802582064,0.818977474374,0.00269075924504,0.0,0.818942350944,-0.573739494308,-0.0117117634417,0.0,-0.00804803054491,0.00892398861975,-0.999927793209,0.0,0.634379869389,0.225323838989,0.303819741453,1.0,-0.0787708571429,-0.103527412245,1.357
0.441004713802,0.403338982014,-0.124803126429,-1.57932495369,0.0651093981873,1.97403005897,0.126091631195,-0.0809591079443,-0.369335490134,-0.000785005550232,-0.574993619166,-0.0349708971217,0.186855934345,-0.0933422864289,0.573870921057,0.818930357953,0.00244574923057,0.0,0.818891876724,-0.573808542833,-0.0118573735974,0.0,-0.00830713134041,0.00880757565821,-0.999926706404,0.0,0.632981788077,0.2234958655,0.303712247634,1.0,-0.0815782857143,-0.10721717551,1.374
0.439580973638,0.396785353809,-0.124849923107,-1.5889313117,0.064417266835,1.97748044132,0.124426492624,-0.0866709457352,-0.388441047995,0.00149727232529,-0.574056367949,-0.0481742185213,0.20210794131,-0.0959248333647,0.573893964345,0.818913224786,0.00275587757367,0.0,0.818879165535,-0.573830882042,-0.011652380361,0.0,-0.00796103399357,0.00894413368959,-0.999928309635,0.0,0.631656854024,0.221662954358,0.303854178155,1.0,-0.0843857142857,-0.110906938776,1.391
0.43826670305,0.390919988234,-0.124876451381,-1.59778585256,0.0637462314087,1.98039979098,0.122938829417,-0.0874147639674,-0.397001623094,-0.00360480330475,-0.585833463651,-0.0357435139747,0.193103267025,-0.0966840183774,0.573924262075,0.818892279074,0.00266900286863,0.0,0.818857106049,-0.573861493583,-0.0116949971282,0.0,-0.00804545977958,0.00889774587101,-0.999928047759,0.0,0.630361728569,0.219963143537,0.303835876566,1.0,-0.0868628571428,-0.114162612245,1.406
0.436667988503,0.383743102209,-0.1249194183,-1.60868947828,0.0629218301665,1.98391068858,0.120989652941,-0.0850834800727,-0.409836789139,-0.000599768283985,-0.600051456141,-0.047196901638,0.20048106575,-0.115119672539,0.573848704101,0.818945886799,0.00245890164311,0.0,0.818907796789,-0.573786512172,-0.0118239464612,0.0,-0.00827244699276,0.00879893948802,-0.999927069983,0.0,0.628726630545,0.217876679365,0.303764311846,1.0,-0.0898354285714,-0.118069420408,1.424
0.435070657681,0.376730426937,-0.124924904351,-1.61902290872,0.0621963714858,1.98750572959,0.119165954467,-0.0992262840992,-0.404603512305,-0.000180326372131,-0.610956005934,-0.0443180834639,0.212731264524,-0.113648097808,0.573848027592,0.818945624279,0.00269306598033,0.0,0.818910369862,-0.573784747349,-0.0117310162689,0.0,-0.00806197947672,0.00893737227768,-0.999927561308,0.0,0.627224674355,0.215901737355,0.303846493398,1.0,-0.0926428571428,-0.121759183673,1.441
0.433374692074,0.369572734438,-0.124982538475,-1.62977787261,0.0613526550268,1.99095258654,0.11727915422,-0.0997321817028,-0.421589055901,-0.00418605860812,-0.642843982665,-0.0489452627851,0.203472715939,-0.116951430412,0.573883012621,0.818921641995,0.00252566802287,0.0,0.81888425443,-0.573820386933,-0.0118105160373,0.0,-0.00822276569765,0.00884625461776,-0.999927062292,0.0,0.62559906445,0.213768272929,0.303801692968,1.0,-0.0954502857143,-0.125448946939,1.458
0.4316579899,0.362168542373,-0.125064960664,-1.64054116318,0.0605104240411,1.99457141518,0.115357997246,-0.10139836499,-0.440723051403,-0.00202464885849,-0.64320116799,-0.052879594756,0.212905209375,-0.119469145912,0.573917705856,0.818896775927,0.00269892226524,0.0,0.818862130639,-0.573854988148,-0.011662353271,0.0,-0.00800162754497,0.0089034476897,-0.999928348721,0.0,0.62400034346,0.211626744855,0.303917234473,1.0,-0.0982577142857,-0.129138710204,1.475
0.42970033673,0.354278359564,-0.125068436944,-1.65231439816,0.0596430531767,1.99837733014,0.113129052654,-0.11185765361,-0.438145913952,-0.00148974338933,-0.657450483378,-0.0553175023967,0.205609068493,-0.116354736869,0.573857445492,0.818939202915,0.00263838647712,0.0,0.818903151565,-0.573794265944,-0.0117692662496,0.0,-0.00812457891273,0.00891463570083,-0.999927257598,0.0,0.622187553538,0.209290656405,0.303876066174,1.0,-0.101230285714,-0.133045518367,1.493
0.427768234254,0.346624441858,-0.125122675117,-1.66356809264,0.058788798127,2.00206633123,0.111009764777,-0.113178508206,-0.462742055937,-0.00466002046107,-0.645829162253,-0.0527581295648,0.235331236122,-0.133083004517,0.573878868774,0.818924001198,0.00269650482796,0.0,0.818888592513,-0.573815351703,-0.0117542376514,0.0,-0.00807868700208,0.00895381803873,-0.999927279335,0.0,0.620467903864,0.206998872029,0.303900425652,1.0,-0.104037714286,-0.136735281633,1.51
0.425915379148,0.339269826951,-0.125140533436,-1.6742796085,0.0579344212624,2.00560353815,0.109027194432,-0.118164023615,-0.46221528513,-0.000548281199487,-0.684031971517,-0.0519408512721,0.214374897678,-0.133693201886,0.573881546544,0.818921737328,0.00281168420173,0.0,0.818888006018,-0.573817826977,-0.01167398581,0.0,-0.00794683922359,0.00900211281907,-0.999927902257,0.0,0.61870821457,0.204696649084,0.30395431467,1.0,-0.106845142857,-0.140425044898,1.527
0.423866199933,0.33136720641,-0.125153573438,-1.68605477243,0.0569781743825,2.00921160135,0.106761640195,-0.119313248923,-0.473101583473,0.000513802204989,-0.682198912338,-0.062598186119,0.208413849917,-0.130811276271,0.573815960421,0.818968495489,0.00256785214011,0.0,0.818931186647,-0.573752677486,-0.0118458226998,0.0,-0.00822820197191,0.00890038768975,-0.999926537197,0.0,0.616911661187,0.202437457017,0.303859065512,1.0,-0.109487428571,-0.143897763265,1.543
0.421612624957,0.322736843107,-0.125152827672,-1.69845375011,0.0559668085382,2.01329795842,0.104312577562,-0.129814786618,-0.473002597298,-8.70587174873e-05,-0.699083491485,-0.0503085020958,0.219178605976,-0.131482567172,0.573741123985,0.819020167452,0.00279908141088,0.0,0.8189861411,-0.573677317548,-0.0116954229737,0.0,-0.00797317127516,0.0090027273361,-0.999927687106,0.0,0.614963638207,0.19989491788,0.303962985863,1.0,-0.11246,-0.147804571429,1.561
0.419635914986,0.31545831691,-0.125192522347,-1.70909966468,0.0551139568007,2.01657189972,0.102231831704,-0.136738175999,-0.483982495823,-0.00444374808494,-0.711988607812,-0.060895938898,0.214513778092,-0.153958293845,0.57375440685,0.819011173111,0.00270662911224,0.0,0.81897559527,-0.573690535885,-0.0117851724355,0.0,-0.00809957633779,0.00897863067517,-0.999926887854,0.0,0.613232329886,0.197659176326,0.303932951001,1.0,-0.114937142857,-0.151060244898,1.576
0.417185994526,0.30651793098,-0.125282842094,-1.72185989227,0.0540155265518,2.02066349753,0.0995862087426,-0.137543010983,-0.493911719241,-0.00327752191069,-0.706029503842,-0.0569445235882,0.220931744084,-0.142277157409,0.573706035273,0.819044513696,0.00286645725568,0.0,0.819011720592,-0.573642411864,-0.0116160124325,0.0,-0.00786986131941,0.00901201203646,-0.999928421899,0.0,0.611195724266,0.19491785651,0.304032095747,1.0,-0.117909714286,-0.154967053061,1.594
0.414737621452,0.298021238141,-0.125306478507,-1.73431933426,0.0530080430136,2.02436768448,0.0970771016156,-0.144115886626,-0.49965315436,-0.000512518718498,-0.723882450755,-0.0661666269881,0.216349347532,-0.142998999325,0.573724050344,0.819032631529,0.00264753647496,0.0,0.818996210275,-0.573660318145,-0.011823444558,0.0,-0.00816515749815,0.00895188919201,-0.999926594247,0.0,0.609107826029,0.192248801411,0.303934122718,1.0,-0.120717142857,-0.158656816327,1.611
0.412032314184,0.28873352235,-0.125423056203,-1.74737581159,0.0519528410087,2.02852776045,0.0943401219837,-0.150580399062,-0.512868723213,-0.00779363897806,-0.720060729797,-0.0603209693641,0.236069958897,-0.155890789758,0.573827963139,0.818958787522,0.00295295808338,0.0,0.81892653761,-0.573763367245,-0.0116478026745,0.0,-0.0078449222214,0.0091022658695,-0.999927800369,0.0,0.606998517006,0.189347665405,0.304079861154,1.0,-0.123689714286,-0.16256362449,1.629
0.409739581591,0.280995886454,-0.125451521719,-1.75857587947,0.0509932742196,2.03185272192,0.0919499751935,-0.16010410065,-0.518560115524,-0.000686028853354,-0.765920134392,-0.0668096929912,0.221155671196,-0.164860020412,0.573766990958,0.819002105309,0.00278181382463,0.0,0.81896729058,-0.573702607215,-0.0117746480443,0.0,-0.00804768263639,0.00903429284694,-0.9999268055,0.0,0.604958129296,0.186734263707,0.304004782169,1.0,-0.126332,-0.166036342857,1.645
0.406982945646,0.271987112546,-0.125512195639,-1.77128459055,0.0498648625786,2.03570906663,0.0891985814832,-0.162643248863,-0.537304179212,-0.0104747252659,-0.751453352322,-0.0661991252582,0.239368380642,-0.159839074489,0.57379572341,0.81898158406,0.00289476575748,0.0,0.818948570278,-0.573731318646,-0.0116773346768,0.0,-0.00790285643044,0.00907124362629,-0.999927626081,0.0,0.602955360055,0.184043049174,0.304082582891,1.0,-0.128974285714,-0.169509061224,1.661
0.404137080151,0.262929864447,-0.125647821871,-1.78417624299,0.0487266771956,2.03958077795,0.0863803703528,-0.166543540361,-0.535516189641,-0.00329719489696,-0.749010096746,-0.0669785118877,0.225476560888,-0.166455115645,0.573885456889,0.818918781597,0.0028737466175,0.0,0.818885725065,-0.573821375775,-0.0116595407061,0.0,-0.0078993517183,0.00904468506596,-0.999927894358,0.0,0.60076851259,0.181079302101,0.304071661138,1.0,-0.131781714286,-0.17319882449,1.678
0.401178383352,0.253675330389,-0.125754718248,-1.79714239232,0.0475554797127,2.04334437423,0.0835154338026,-0.176715457135,-0.552324846238,-0.00512979480061,-0.747223245211,-0.0700237655244,0.223768771232,-0.163947522041,0.573980761128,0.818851999086,0.00286990404592,0.0,0.818819034212,-0.573916842709,-0.0116444736844,0.0,-0.00788816615748,0.00903380985629,-0.999928080971,0.0,0.598526091972,0.178066702939,0.30411637379,1.0,-0.134589142857,-0.176888587755,1.695
0.398151859957,0.244392151015,-0.125765002321,-1.81032187478,0.0463873441249,2.0472124378,0.0804990485999,-0.177867223685,-0.547717495542,-0.000768825311024,-0.766235163339,-0.06443763779,0.223548753955,-0.184349763506,0.57392372495,0.818892131891,0.00282509592763,0.0,0.818858244506,-0.573859579239,-0.0117092109106,0.0,-0.00796752572457,0.00903372096103,-0.999927452578,0.0,0.596203492025,0.175073743798,0.304063638733,1.0,-0.137396571429,-0.18057835102,1.712
0.395203124263,0.235387417765,-0.125780111254,-1.82269865184,0.0453154335023,2.05080090069,0.0775950474982,-0.183372171791,-0.575136778808,-0.000838352663079,-0.776285788067,-0.0650577891084,0.233313243198,-0.171924873473,0.573897799646,0.818909640864,0.00301040887038,0.0,0.818877779916,-0.573832586331,-0.0116658187329,0.0,-0.00782593139439,0.00916032099887,-0.999927419025,0.0,0.594008646742,0.172218712703,0.304165532647,1.0,-0.140038857143,-0.184051069388,1.728
0.392023055043,0.225821101819,-0.125772620136,-1.83609734651,0.0440392723738,2.05463385393,0.0744405559447,-0.189106602801,-0.569926042654,0.000369418843855,-0.827469130132,-0.0777873020576,0.221993258111,-0.187362956235,0.573772308384,0.81899776012,0.00295870780644,0.0,0.818965297336,-0.573707366914,-0.0116810020278,0.0,-0.00786943354263,0.00912549021014,-0.999927396086,0.0,0.591581349055,0.169148186627,0.30413440895,1.0,-0.142846285714,-0.187740832653,1.745
0.389054026595,0.217198215664,-0.12582722312,-1.84797586694,0.0429275689953,2.05791208741,0.0715429021124,-0.199570479716,-0.593178731176,-0.0037314026287,-0.765824315696,-0.0716215174941,0.228795627969,-0.192616784196,0.573742560379,0.819018629586,0.00295054247221,0.0,0.818985919466,-0.573677487027,-0.0117026277307,0.0,-0.00789216228434,0.00913092413551,-0.999927167347,0.0,0.589413896941,0.166318276548,0.304162766693,1.0,-0.145323428571,-0.190996506122,1.76
0.385167930834,0.206211132064,-0.125930456417,-1.86311501557,0.0415311537722,2.06213666535,0.067846713268,-0.21176350788,-0.57266255691,-0.00453419523709,-0.830618237712,-0.0715248875139,0.219578310667,-0.196370531775,0.573802432359,0.818976554526,0.0029864121666,0.0,0.818944072063,-0.573736951535,-0.0117159795492,0.0,-0.00788184930162,0.00916853862615,-0.999926904504,0.0,0.58664140979,0.162663344331,0.30417185377,1.0,-0.148461142857,-0.195120359184,1.779
0.381551044296,0.196171027338,-0.126001572391,-1.87677011139,0.0402165952132,2.0658185039,0.0643571054009,-0.214723905141,-0.603397282164,0.000298432163684,-0.806533602981,-0.0760950846096,0.22776579532,-0.197648916962,0.573762363892,0.819004543122,0.0030091573817,0.0,0.818972271114,-0.573696711252,-0.0117153551459,0.0,-0.00786873689282,0.00918642318449,-0.999926843628,0.0,0.584094382078,0.159327536811,0.304217816232,1.0,-0.151268571429,-0.198810122449,1.796
0.378209036402,0.1873335829,-0.126146604257,-1.88893778897,0.039078179592,2.06912308668,0.0612324104461,-0.226108102958,-0.591295572962,-0.0104912578853,-0.778903577332,-0.0804990727684,0.22611781619,-0.209138355722,0.573876560863,0.81892466777,0.0029712472945,0.0,0.818891600271,-0.573810672697,-0.0117730967218,0.0,-0.00793649871491,0.00918961063769,-0.999926278805,0.0,0.581825127835,0.156264959289,0.30417282555,1.0,-0.153745714286,-0.202065795918,1.811
0.374040862639,0.176469949273,-0.126312612274,-1.90353599829,0.0376682323886,2.07300370712,0.0574006444944,-0.230465033833,-0.61189627243,-0.00657246578767,-0.790655932076,-0.0718901880531,0.208232961621,-0.213468855776,0.574032866229,0.81881477158,0.00306353281171,0.0,0.818782871696,-0.573966598838,-0.011734536095,0.0,-0.00785019712452,0.00924455556795,-0.999926453594,0.0,0.579076094857,0.152524442833,0.304237478756,1.0,-0.156718285714,-0.205972604082,1.829
0.370542851019,0.167431868461,-0.126324492428,-1.91590189888,0.0363552243262,2.07618494126,0.0540820015411,-0.231526169655,-0.604047413647,0.00117065481408,-0.818846432536,-0.0909178416621,0.21124792145,-0.236276277373,0.573912014804,0.818900163577,0.00287545806204,0.0,0.818865924975,-0.573846549195,-0.0118102409861,0.0,-0.00802149102769,0.00913282966061,-0.999926120823,0.0,0.576665763074,0.149450967303,0.30415778394,1.0,-0.159195428571,-0.209228277551,1.844
0.366177608143,0.15629285951,-0.126372333333,-1.9305796807,0.0348893447443,2.08007500898,0.0499991881846,-0.248122132185,-0.622052504584,-0.00564383564849,-0.779208057476,-0.0854562591839,0.220858297997,-0.229971040015,0.57387057324,0.818928249263,0.00313602138496,0.0,0.818897615921,-0.573804469255,-0.0116564404434,0.0,-0.0077464744222,0.00925754683126,-0.999927142326,0.0,0.573832123779,0.14571374621,0.304285416053,1.0,-0.162168,-0.213135085714,1.862
0.362167424321,0.146442551591,-0.126428176108,-1.94393533669,0.0334747335514,2.08332978133,0.0463032654958,-0.251471720425,-0.610106703661,-0.0016954673759,-0.825212448969,-0.0897987195298,0.189820459704,-0.237715342428,0.573838526263,0.818951637851,0.00288228019038,0.0,0.818917385651,-0.573772929203,-0.0118189717466,0.0,-0.00802554643862,0.00914270671268,-0.999925998021,0.0,0.571158134548,0.142287380301,0.304178987367,1.0,-0.164810285714,-0.216607804082,1.878
0.357745207437,0.13569628968,-0.126530250675,-1.95794182793,0.0321066700698,2.08687347469,0.0422155015509,-0.263082920495,-0.631739706974,-0.00303160770831,-0.857959219559,-0.0872445813074,0.208111704544,-0.251038841588,0.573872670776,0.818926809197,0.00312822894125,0.0,0.818895433126,-0.573805827974,-0.0117425844637,0.0,-0.00782147181644,0.00930061976751,-0.999926158799,0.0,0.568384695175,0.138603887261,0.304291091037,1.0,-0.167617714286,-0.220297567347,1.895
0.353160404971,0.125005929946,-0.126681211491,-1.97219867366,0.0305500826355,2.09025986012,0.0380373002113,-0.277396628786,-0.625219941232,-0.00674319171863,-0.855556341441,-0.0907965279257,0.184110510333,-0.24179762757,0.573913180016,0.81889919221,0.00291919552581,0.0,0.818865027474,-0.573846990042,-0.0118509789223,0.0,-0.00802974009795,0.00919203709927,-0.99992551209,0.0,0.565488953827,0.134781447514,0.304208479448,1.0,-0.170425142857,-0.223987330612,1.912
0.348656263946,0.114642396151,-0.126819787131,-1.98543930598,0.0291258219487,2.09356098367,0.0339937732134,-0.288824319167,-0.643284457522,-0.00966144997658,-0.81458510237,-0.096897742318,0.205723303918,-0.251571156104,0.574008462148,0.818831289958,0.0032172768158,0.0,0.818801722955,-0.573942089493,-0.011617370402,0.0,-0.00766628341378,0.00930295982948,-0.999927338879,0.0,0.562835723818,0.131140993605,0.304365243737,1.0,-0.173067428571,-0.22746004898,1.928
0.343785758253,0.103709788474,-0.126872638804,-1.99981242003,0.0275644900732,2.09680299388,0.0295482723023,-0.288209890942,-0.641630793934,-5.87333342799e-05,-0.857744259253,-0.090956816499,0.185569526072,-0.26641080765,0.573927250622,0.818888871659,0.00304528607597,0.0,0.818856508417,-0.573860794915,-0.011770878595,0.0,-0.00789162314097,0.00924945839346,-0.99992608217,0.0,0.559647351599,0.127047321256,0.304293659576,1.0,-0.17604,-0.231366857143,1.946
0.338821425726,0.0925930691421,-0.126888346767,-2.01404739724,0.0260249890907,2.10014345761,0.0249648752891,-0.293564617227,-0.651148891952,-0.00287666513277,-0.831305633022,-0.0832780686675,0.183513293765,-0.270849993605,0.573801850671,0.818976157556,0.00319944098021,0.0,0.818945728954,-0.573734802708,-0.0117053872585,0.0,-0.00775095166995,0.00933692116219,-0.999926369615,0.0,0.55683262724,0.123432565883,0.304352229739,1.0,-0.178682285714,-0.23483957551,1.962
0.333615171006,0.081383175989,-0.12696713322,-2.0284825847,0.0244506356864,2.10323220448,0.020235226234,-0.311637001655,-0.667723324562,-0.00718760186473,-0.841121817703,-0.093830299636,0.179006150001,-0.279497456436,0.573755114906,0.819009305789,0.00309387310782,0.0,0.818976674062,-0.573687452486,-0.011860063366,0.0,-0.00793873892782,0.00933876172729,-0.999924879155,0.0,0.553725813282,0.119434893998,0.30431868579,1.0,-0.181489714286,-0.238529338775,1.979
0.328233090895,0.0700756457883,-0.127129469978,-2.0427600066,0.0228112279715,2.10648559158,0.0154472476209,-0.317845435986,-0.654847562644,-0.0101430666813,-0.825127766364,-0.0967350415366,0.186410626774,-0.287070906134,0.573824137868,0.818960278904,0.00326608011192,0.0,0.818930551022,-0.573756665004,-0.0116956772681,0.0,-0.00770450822043,0.00938613542305,-0.999926267789,0.0,0.550693683243,0.115348207626,0.30438925647,1.0,-0.184297142857,-0.242219102041,1.996
0.322925102108,0.059297939331,-0.127311415045,-2.05639787875,0.0212152951293,2.1092347629,0.0107404685543,-0.337413844693,-0.682137231077,-0.0120833503442,-0.844716046755,-0.102387731935,0.177140157773,-0.293432592594,0.57390626061,0.818903210894,0.00314358435841,0.0,0.818871623929,-0.573838871837,-0.0117881123845,0.0,-0.00784956330867,0.00933964334381,-0.999925574939,0.0,0.547701218316,0.111362711607,0.304376818313,1.0,-0.186939428571,-0.245691820408,2.012
0.3171965349,0.0478037245506,-0.127407114633,-2.07078292434,0.019584034053,2.11229811638,0.00562783033547,-0.333945751814,-0.672002706912,-0.00277052956333,-0.852039466707,-0.0970274430269,0.174990306025,-0.296799642485,0.573902056812,0.818905639561,0.00327560427322,0.0,0.818875674552,-0.573834101799,-0.011738830436,0.0,-0.00773348990357,0.00941943294387,-0.999925730951,0.0,0.544537504267,0.107201958841,0.304409119694,1.0,-0.189746857143,-0.249381583673,2.029
0.311318280701,0.0362509558289,-0.127468445889,-2.08519634013,0.0179200231643,2.1151651463,0.000391068040185,-0.346622969977,-0.682040749661,-0.00206187755688,-0.809559444478,-0.0991280086774,0.17943738011,-0.312954088739,0.57385513142,0.818938492332,0.00328341593522,0.0,0.818908141454,-0.573786562926,-0.011797583132,0.0,-0.00777766474334,0.00945910177683,-0.999925013851,0.0,0.541290274847,0.103015044126,0.304403404281,1.0,-0.18998,-0.249688,2.046
0.305265171555,0.0247189398985,-0.127552724449,-2.09946935733,0.0161327121222,2.11792935798,-0.00494330594555,-0.357984417621,-0.679272942335,-0.00794502362331,-0.852701461878,-0.100843541345,0.156903004153,-0.324151919483,0.573815158151,0.818966693565,0.00323512102867,0.0,0.818936078232,-0.573747202593,-0.0117726032969,0.0,-0.00778537824909,0.0094048366227,-0.999925465689,0.0,0.538043125,0.098761214691,0.304401110292,1.0,-0.18998,-0.249688,2.063
0.2986777552,0.0125448730579,-0.127736508205,-2.11422065576,0.0143513773493,2.12067114061,-0.0106789651026,-0.369720630685,-0.672201931998,-0.0115092842395,-0.835084929746,-0.0977530571484,0.149932113821,-0.313566466652,0.573947441233,0.81887351313,0.00335426545723,0.0,0.818844473707,-0.573879098114,-0.0117156104256,0.0,-0.00766880788055,0.00947094870436,-0.999925742501,0.0,0.534658710641,0.0941979013999,0.304484118184,1.0,-0.18998,-0.249688,2.081
0.292374696083,0.00120723512366,-0.127835025118,-2.12813322789,0.012706577619,2.1230997569,-0.0162118351824,-0.370059961034,-0.662553301866,-0.00238337159259,-0.849297527179,-0.0978520429212,0.131390591689,-0.332353047194,0.573978592253,0.818852007038,0.00327308810268,0.0,0.818820850945,-0.573909229386,-0.0118893811124,0.0,-0.00785733939372,0.00950450601028,-0.999923960401,0.0,0.531381340078,0.0899389785849,0.304429890864,1.0,-0.18998,-0.249688,2.098
0.286034962489,-0.0101658710394,-0.127838448402,-2.14161193058,0.0109997687922,2.12557359758,-0.0218392615111,-0.378917524599,-0.663194567491,-0.000124113416697,-0.776666348741,-0.0978677525368,0.146639662796,-0.327859707715,0.573845105433,0.818944454103,0.00353878020436,0.0,0.818917697147,-0.573776035332,-0.0116453200369,0.0,-0.00750654750921,0.00958076409945,-0.999925927609,0.0,0.528029987039,0.0855326471622,0.304563777083,1.0,-0.18998,-0.249688,2.116
0.279914321086,-0.0206718020003,-0.127902121369,-2.15440318775,0.00936299948858,2.12755682427,-0.0272091186916,-0.386912146526,-0.661714467794,-0.0110284136794,-0.815928531552,-0.100075921821,0.112028715301,-0.343368566749,0.573787943732,0.818985587668,0.00327867682819,0.0,0.818954494014,-0.573718575022,-0.011886139373,0.0,-0.00785369024951,0.00950539360087,-0.999923980632,0.0,0.52509265997,0.0817831816695,0.304457084737,1.0,-0.18998,-0.249688,2.131
0.272879889874,-0.0325752608482,-0.128083220834,-2.16828547808,0.00755010026656,2.12990001221,-0.0332614510568,-0.391840133937,-0.652813632694,-0.012814589372,-0.783764332493,-0.110750677973,0.12941657756,-0.333292022396,0.57392751298,0.818886776637,0.00352190218621,0.0,0.818859777169,-0.573858455129,-0.0116570027933,0.0,-0.00752483697139,0.0095744029983,-0.999925851069,0.0,0.521755077901,0.0772408675603,0.304589119693,1.0,-0.18998,-0.249688,2.149
0.266890280761,-0.0422946089666,-0.128200839233,-2.17996716168,0.0061037836218,2.1316051338,-0.0384880665065,-0.398374607467,-0.632277760822,-0.0113805171427,-0.780190882579,-0.0895961352016,0.111265856709,-0.348808554342,0.573983508086,0.818848172575,0.00336891932027,0.0,0.818817886435,-0.573913339326,-0.0118951543944,0.0,-0.00780700801039,0.00958633841261,-0.99992357345,0.0,0.518844454548,0.0734484311583,0.304488510479,1.0,-0.18998,-0.249688,2.164
0.260522737794,-0.0527479763004,-0.128216108812,-2.19195520592,0.00452748836516,2.13347736755,-0.0440658516616,-0.40061887822,-0.655141929547,-0.00455250609989,-0.757751316236,-0.102013271878,0.119959649419,-0.353497743704,0.5739059752,0.818901424382,0.00362431736495,0.0,0.818875292856,-0.573836001539,-0.0116724028715,0.0,-0.00747892754495,0.00966691181453,-0.99992530544,0.0,0.51568569642,0.0692883376533,0.304619997646,1.0,-0.18998,-0.249688,2.181
0.252767608849,-0.0648929706886,-0.128309703269,-2.2063338073,0.00263157124013,2.13538517281,-0.0508750606534,-0.402574952161,-0.644821386819,-0.00468686937293,-0.741894992414,-0.103176776295,0.0910385043781,-0.366690646372,0.573846998047,0.818943810483,0.00337712967828,0.0,0.818913211757,-0.573776304169,-0.0119436713682,0.0,-0.00784362977008,0.00961960127878,-0.999922967405,0.0,0.512182145705,0.0648002708285,0.304486427189,1.0,-0.18998,-0.249688,2.199
0.246070668625,-0.075218947641,-0.128485218294,-2.2180331267,0.0010353320322,2.13698913657,-0.0566846787025,-0.419584877476,-0.633506408458,-0.0150868364715,-0.736158620253,-0.0987521708942,0.0956273579974,-0.362446261134,0.573937117636,0.81887997234,0.00353875700055,0.0,0.818852039194,-0.573866539307,-0.0118016894158,0.0,-0.00763353983832,0.00967133219576,-0.999924094321,0.0,0.509195561521,0.0607485093929,0.304579279757,1.0,-0.18998,-0.249688,2.215
0.239277714534,-0.0853515059002,-0.128583488435,-2.22976941859,-0.000487050152946,2.13844114374,-0.0625988539052,-0.415455704532,-0.6356854359,-0.00462298307593,-0.737263237314,-0.099076954935,0.0898578299868,-0.376055847204,0.573975270384,0.818853499043,0.00347606016993,0.0,0.818823692402,-0.573903580953,-0.011966095114,0.0,-0.00780370572036,0.00971471014012,-0.999922360278,0.0,0.506120052615,0.056741354625,0.304511302022,1.0,-0.18998,-0.249688,2.231
0.232044945548,-0.096153581705,-0.128627722663,-2.2419160954,-0.00216298317997,2.13986924939,-0.0689983054748,-0.427894513166,-0.647508317446,-0.00349059332606,-0.704235694229,-0.108710195876,0.0959466008466,-0.379128294926,0.573844220594,0.818945068485,0.00354008421386,0.0,0.818916192469,-0.573772438164,-0.0119250080159,0.0,-0.00773487267583,0.00974231678569,-0.999922626511,0.0,0.502899026125,0.0525632008414,0.30455879265,1.0,-0.18998,-0.249688,2.248
0.224628576326,-0.106839882109,-0.128735043154,-2.25395569012,-0.00385721372468,2.14118877107,-0.0753950960988,-0.43459001959,-0.626590044092,-0.00446864706018,-0.717272925879,-0.0985251857238,0.079273129974,-0.38048941792,0.573894099337,0.818910235563,0.00351222687102,0.0,0.818880841542,-0.573822215924,-0.0119573729736,0.0,-0.00777677103955,0.00973854858621,-0.999922338236,0.0,0.499660584089,0.0483169260417,0.304550500802,1.0,-0.18998,-0.249688,2.265
0.21743985883,-0.116865145409,-0.12892761568,-2.26514341934,-0.00545118642998,2.14228825921,-0.081584933709,-0.453167171736,-0.628605972126,-0.00228696514015,-0.677222310613,-0.10303355004,0.0755111826023,-0.384366506265,0.574034565577,0.818811933586,0.0034758942883,0.0,0.818781724888,-0.573962370848,-0.0120179341616,0.0,-0.00784554643316,0.00974489595596,-0.99992173914,0.0,0.496607174299,0.0442265575342,0.304545722699,1.0,-0.18998,-0.249688,2.281
0.2098339325,-0.127453443287,-0.128987501254,-2.27679991662,-0.00703399641748,2.14346388625,-0.0882961434689,-0.438720477497,-0.618199270981,-0.000714029577414,-0.687191392514,-0.102068111936,0.061218944275,-0.393194213879,0.573967308709,0.818858508888,0.00360802659104,0.0,0.818829790634,-0.573894340551,-0.0119919454236,0.0,-0.00774922970377,0.00983753370212,-0.99992158311,0.0,0.493393644047,0.0400449056788,0.304580741186,1.0,-0.18998,-0.249688,2.298
0.202054127739,-0.137930281147,-0.12907163148,-2.2883653768,-0.00874509490566,2.14443202168,-0.0951284374879,-0.457892178971,-0.611448284447,-0.00892660412161,-0.669245617592,-0.0924261925098,0.0579531652863,-0.418671200765,0.573891397015,0.818912147026,0.00350810301581,0.0,0.818881881234,-0.573818507904,-0.0120636426765,0.0,-0.00786620053579,0.00979613135174,-0.999921076235,0.0,0.490133690024,0.0358062109869,0.304548717637,1.0,-0.18998,-0.249688,2.315
0.194173005061,-0.148422804652,-0.129224815707,-2.29954656144,-0.0103527275171,2.14550018432,-0.102014066163,-0.469577023226,-0.615336696682,-0.0130772787417,-0.653966213813,-0.0994594802315,0.0503918918987,-0.411556080224,0.573948043901,0.818871136201,0.0038015918549,0.0,0.818845698308,-0.573875378234,-0.0118118381719,0.0,-0.00749087760339,0.00989248901178,-0.999923009743,0.0,0.486994385269,0.0315661673188,0.30467146183,1.0,-0.18998,-0.249688,2.332
0.186135643013,-0.158777491929,-0.129326642879,-2.3108187191,-0.0120476717607,2.14618974378,-0.109071952136,-0.466955548681,-0.607723414577,-0.00131982246158,-0.663023154412,-0.0990960245445,0.0471433090359,-0.413201557322,0.573894714711,0.818909236289,0.00364225866959,0.0,0.818881039139,-0.573821727178,-0.0119672911549,0.0,-0.00771026654605,0.00985073136451,-0.999921754379,0.0,0.483702576193,0.0273162760076,0.304619216502,1.0,-0.18998,-0.249688,2.349
0.178526980273,-0.168517649255,-0.129368045092,-2.32103439256,-0.0134965652059,2.14690162021,-0.115762601898,-0.48216823246,-0.607489409488,-0.00280521867705,-0.634751058381,-0.0848948150298,0.0491802498144,-0.415332652375,0.573856805508,0.818934790296,0.00386301906428,0.0,0.81890981609,-0.573783500441,-0.0118302423547,0.0,-0.00747180429629,0.00995252093439,-0.999922556735,0.0,0.480718382409,0.0234001128778,0.304720378877,1.0,-0.18998,-0.249688,2.365
0.170263115387,-0.178673871664,-0.129500653846,-2.33194060654,-0.0150997780188,2.14748723328,-0.123021735144,-0.490587656523,-0.598127776599,-0.0126080189048,-0.638589393501,-0.0940511433732,0.0244530740292,-0.426368358655,0.573870288431,0.818925659127,0.00379523140465,0.0,0.818898950535,-0.57379609524,-0.0119706641937,0.0,-0.00762554191981,0.00997771162972,-0.999921145081,0.0,0.477455875535,0.0191586234429,0.304663967304,1.0,-0.18998,-0.249688,2.382
0.160761638445,-0.190046139346,-0.129693677841,-2.34380819394,-0.0169127526646,2.14804661179,-0.131341256151,-0.496809880915,-0.59675800563,0.000576289599635,-0.602719901117,-0.0933120578388,0.0321996398703,-0.439813783219,0.573949677681,0.818869672204,0.00386966867046,0.0,0.818844046613,-0.573875354374,-0.0119269388611,0.0,-0.00754604632075,0.0100143106747,-0.999921382293,0.0,0.473861465327,0.0143426288786,0.304708487383,1.0,-0.18998,-0.249688,2.401
0.153793356398,-0.198336657328,-0.129750551016,-2.35239321938,-0.0182374310278,2.14848720614,-0.137565213921,-0.501538912208,-0.584531208918,-0.00430038072425,-0.629340508664,-0.0886211496805,0.0251714397849,-0.450467761339,0.573834328719,0.818950014442,0.0039728994202,0.0,0.818926348762,-0.57376049432,-0.0118015829892,0.0,-0.00738555601911,0.0100258584975,-0.999922464856,0.0,0.471239086003,0.0108997204143,0.304748712773,1.0,-0.18998,-0.249688,2.415
0.144111508406,-0.209460994132,-0.129913499682,-2.36407167185,-0.0199547713588,2.14872007408,-0.146090993505,-0.515337429737,-0.581459135526,-0.012484899497,-0.607205299794,-0.0917504960457,0.00943488028982,-0.460873608147,0.573888138356,0.818912857764,0.00385784191824,0.0,0.818885878556,-0.573812284352,-0.0120883054859,0.0,-0.0076857396815,0.0100966617918,-0.999919490172,0.0,0.467549832787,0.0061574358381,0.304664260869,1.0,-0.18998,-0.249688,2.434
0.136287636742,-0.218263070136,-0.130063979738,-2.37287087713,-0.0213061671455,2.14901341567,-0.152927680193,-0.522705350623,-0.58460369299,-0.00232294551158,-0.576663546677,-0.0898786546616,0.0220678730964,-0.449248645314,0.574009018842,0.818826942435,0.00410262503236,0.0,0.818804050962,-0.573933466393,-0.0118764128602,0.0,-0.00737023492314,0.0101766100206,-0.999921055007,0.0,0.464775793603,0.00237393991717,0.304777866752,1.0,-0.18998,-0.249688,2.449
0.127485767532,-0.228020457762,-0.130095295414,-2.38292838376,-0.0229290307992,2.14914998666,-0.16080876672,-0.520479336026,-0.570803428238,-0.00347243715987,-0.58335234939,-0.0892746168427,0.00379452601028,-0.473180551155,0.573819419049,0.81896040498,0.00398450737989,0.0,0.818935709823,-0.573743949206,-0.0119553681693,0.0,-0.0075050306529,0.0101234727051,-0.999920591755,0.0,0.461517219909,-0.00177512736703,0.304723011568,1.0,-0.18998,-0.249688,2.466
0.118405316303,-0.237759752905,-0.130246516985,-2.39278668699,-0.0245108595309,2.14917383159,-0.168865328427,-0.539838738711,-0.576897447649,-0.0134142719627,-0.571130176515,-0.0916645837455,0.00314824579261,-0.485572354649,0.573821381774,0.818959176583,0.00395421422284,0.0,0.818933730996,-0.573745543927,-0.0120142399465,0.0,-0.00757060502137,0.010132462255,-0.999920006375,0.0,0.458265117908,-0.00604005211631,0.304708079099,1.0,-0.18998,-0.249688,2.483
0.109169864668,-0.247482306311,-0.130419707971,-2.40227233154,-0.0259974526046,2.1492567087,-0.177047980029,-0.543334045759,-0.567375420417,-0.00422442766421,-0.566185285468,-0.0760596780478,0.00235510065215,-0.481941518998,0.573905432006,0.818898912236,0.0042277127436,0.0,0.8188780075,-0.573829977205,-0.0117776481106,0.0,-0.0072188539045,0.010221434009,-0.999921702152,0.0,0.45511590479,-0.010315889063,0.304828346173,1.0,-0.18998,-0.249688,2.5
0.099931994088,-0.256976914746,-0.130533899199,-2.41188952087,-0.0275013298962,2.14916185799,-0.185364585688,-0.553175191715,-0.557239674489,-0.0135739682168,-0.560177095304,-0.0932044789178,-0.0089753358766,-0.498389692653,0.573814361752,0.818963101118,0.00415501576244,0.0,0.818940208557,-0.573737710749,-0.0119465883819,0.0,-0.00740006831161,0.0102580309614,-0.999920002695,0.0,0.451837462038,-0.0145032282319,0.304742142314,1.0,-0.18998,-0.249688,2.517
0.0903942483385,-0.266433572728,-0.130716832998,-2.42111768568,-0.0290348042842,2.14901950952,-0.193768644217,-0.564112763053,-0.557369743205,-0.00607316862316,-0.528078915591,-0.0954081021907,-0.0124629205612,-0.504548828645,0.573937395318,0.818876442214,0.00424093662678,0.0,0.818855110476,-0.573861044049,-0.0118556767797,0.0,-0.00727476616279,0.0102773267511,-0.999920724024,0.0,0.448640809639,-0.0188040457649,0.304780620598,1.0,-0.18998,-0.249688,2.534
0.0813758651804,-0.275275553827,-0.130843967233,-2.42961406012,-0.0304472775579,2.14886088139,-0.201837719742,-0.562302873124,-0.543185199311,-0.00208875762812,-0.536880609511,-0.0884267358045,-0.010997270027,-0.506423807213,0.57393135352,0.81887991461,0.00438563520361,0.0,0.818861325399,-0.573855768164,-0.0116804970601,0.0,-0.00704833807884,0.0102952287581,-0.999922161568,0.0,0.445655841719,-0.0227941362268,0.304848720931,1.0,-0.18998,-0.249688,2.55
0.0717217067054,-0.284498109575,-0.130976561467,-2.43869133758,-0.0319431528307,2.14849533351,-0.210608725357,-0.578235638104,-0.548168894799,-0.0103282713547,-0.5267463989,-0.0892700676951,-0.0199984704388,-0.519171066121,0.573812429723,0.818963709175,0.00429947110926,0.0,0.818943133682,-0.573735892066,-0.0118328716619,0.0,-0.0072240706599,0.0103110697024,-0.999920744182,0.0,0.442380811805,-0.0269988454501,0.304778499848,1.0,-0.18998,-0.249688,2.567
0.0623305454274,-0.293157775559,-0.131157414364,-2.44693503465,-0.0332399752611,2.14813225807,-0.218941066683,-0.588169798164,-0.536279377725,-0.0138177047441,-0.502721362854,-0.0767434964538,-0.0156568124803,-0.517847378176,0.573980797567,0.818844935091,0.00444558227259,0.0,0.818826030084,-0.57390341011,-0.0118133492879,0.0,-0.00712210352726,0.0104209947663,-0.999920336082,0.0,0.439354211017,-0.0310506605832,0.304811483585,1.0,-0.18998,-0.249688,2.583
0.0518575542549,-0.302786637394,-0.131268940065,-2.45594399359,-0.0347948721248,2.14772971013,-0.228480399765,-0.583232227969,-0.531076151296,-0.00486092986839,-0.501678310096,-0.0870675044161,-0.0333010288236,-0.528848568934,0.573842679391,0.818940925054,0.00459211088171,0.0,0.818925133715,-0.573766656654,-0.0115842990223,0.0,-0.00685218837573,0.0104083606009,-0.999922353758,0.0,0.436004039435,-0.035485241038,0.304892498411,1.0,-0.18998,-0.249688,2.601
0.0404829513066,-0.31274430474,-0.131459448357,-2.46550320144,-0.0363969185877,2.14699741264,-0.238642956977,-0.607450967285,-0.532289832999,-0.0122767388902,-0.487527243357,-0.0806601979171,-0.0362931589792,-0.543868830112,0.573945695483,0.818869363074,0.00447791878666,0.0,0.818850620065,-0.573867825917,-0.0118375376743,0.0,-0.00712380057222,0.010461051776,-0.999919905723,0.0,0.432318368042,-0.0402450823195,0.30480686842,1.0,-0.18998,-0.249688,2.62
0.0313360554719,-0.32052949698,-0.131614222203,-2.4727383335,-0.0376678853009,2.14649033933,-0.24685010696,-0.603707457345,-0.517218203162,-0.00425458019894,-0.473101698055,-0.0883125586986,-0.0312050029305,-0.546107616458,0.5740161222,0.818819679186,0.00453556325205,0.0,0.818802057092,-0.57393859866,-0.0117653377129,0.0,-0.00703069059718,0.0104674235815,-0.999920498056,0.0,0.429488480031,-0.0440347271477,0.304831089889,1.0,-0.18998,-0.249688,2.635
0.0205064869763,-0.329772971754,-0.131719350575,-2.48115546502,-0.039070995838,2.14588897622,-0.256893653684,-0.610046999843,-0.504314921843,-0.0110359150906,-0.478752021686,-0.0875019913629,-0.040401833788,-0.565993995502,0.573814089214,0.818960081135,0.00474588540389,0.0,0.818946098708,-0.573737333879,-0.0115544807501,0.0,-0.00673989661797,0.0105169506683,-0.999921980728,0.0,0.426154905653,-0.048419432755,0.304914612993,1.0,-0.18998,-0.249688,2.653
0.00915308250515,-0.338797188842,-0.131928826381,-2.48961129888,-0.0405046885294,2.14499715325,-0.26704430335,-0.639420308778,-0.507658635633,-0.0147563267972,-0.453680507976,-0.0707883821877,-0.0448344502102,-0.564320402536,0.57401131158,0.818822306568,0.00466812021874,0.0,0.818805771839,-0.573932395074,-0.0118093517937,0.0,-0.00699070985001,0.0106011893965,-0.999919369129,0.0,0.422665547434,-0.0529914139586,0.304833770201,1.0,-0.18998,-0.249688,2.671
0.00104410835005,-0.345285817056,-0.131992621098,-2.49554795663,-0.0415730941542,2.14437917255,-0.274474107141,-0.612291699002,-0.488354385556,0.00112511709836,-0.451114142406,-0.0811042349496,-0.0410390018536,-0.575331334364,0.573886067059,0.818910176724,0.00465310584093,0.0,0.818893592188,-0.573807441727,-0.0117920054795,0.0,-0.00698674104893,0.0105778698611,-0.999919643831,0.0,0.420004284415,-0.0564279827125,0.304835848284,1.0,-0.18998,-0.249688,2.685
-0.0109698887086,-0.354680044353,-0.132172470596,-2.50381508996,-0.0430315379571,2.1434976056,-0.285523177309,-0.644826277559,-0.48779927583,-0.00541427297609,-0.433097595306,-0.0765181770954,-0.0440235456327,-0.58099913195,0.573876255519,0.818915860266,0.00485840070164,0.0,0.818902982321,-0.573798601579,-0.0115679416266,0.0,-0.00668555605785,0.0106173302651,-0.999921284721,0.0,0.416662940399,-0.0609098405113,0.304943580002,1.0,-0.18998,-0.249688,2.703
-0.0220595091935,-0.362837158372,-0.132350674466,-2.51125462244,-0.0444185656682,2.14253207384,-0.295579188203,-0.64029459473,-0.482095717518,-0.00145403412327,-0.442546167485,-0.0751189866313,-0.0594242837423,-0.602795812335,0.573948426509,0.818865911357,0.00475077107794,0.0,0.818850911484,-0.573869955455,-0.0117134917317,0.0,-0.00686558647896,0.010613317715,-0.999920107413,0.0,0.413381975793,-0.0652153803858,0.304885358837,1.0,-0.18998,-0.249688,2.72
-0.031663744623,-0.369997985686,-0.132435646003,-2.51766823689,-0.0455120710619,2.14169201142,-0.304584739584,-0.643213113813,-0.472835908675,-0.00865471213158,-0.428456056299,-0.0742132909291,-0.0591302344774,-0.592662578361,0.573758952356,0.818998478128,0.00478584543001,0.0,0.818983482909,-0.573679701442,-0.0117644284493,0.0,-0.00688963926551,0.0106696799255,-0.999919342148,0.0,0.41052549442,-0.0688516601804,0.304872089784,1.0,-0.18998,-0.249688,2.735
-0.0450049930948,-0.379319598136,-0.132675497771,-2.52582543819,-0.0469876724245,2.14051422422,-0.316673862043,-0.673350555495,-0.465115589963,-0.0196112909068,-0.390018854538,-0.0728929121176,-0.055654923506,-0.609277854066,0.573974395708,0.818846942011,0.00488114037675,0.0,0.818833191697,-0.573894807446,-0.0117346096495,0.0,-0.00680771918026,0.0107324118685,-0.999919231886,0.0,0.406739850183,-0.0739177081854,0.304907218989,1.0,-0.18998,-0.249688,2.755
-0.0536179119052,-0.385269149667,-0.132739343237,-2.53093641384,-0.0479740258799,2.139812786,-0.324714894234,-0.660204492979,-0.453666342498,-0.00613352492556,-0.39796221539,-0.0735484331162,-0.0560088280092,-0.616276673322,0.573837703694,0.818942351352,0.00494589553489,0.0,0.818930543411,-0.573759695732,-0.011546580603,0.0,-0.00661835577574,0.0106764137708,-0.999921102666,0.0,0.404334440082,-0.0771252680077,0.304964536159,1.0,-0.18998,-0.249688,2.768
-0.0664561506714,-0.393806966363,-0.13295845166,-2.53850163658,-0.0493353260525,2.13854222026,-0.336584675295,-0.685614883325,-0.44533065962,-0.01350292423,-0.392659788105,-0.0691996505558,-0.0649161273919,-0.614754819526,0.573869160563,0.818920530387,0.00490900868784,0.0,0.818906858368,-0.573789051033,-0.0117655910783,0.0,-0.00681847992655,0.010772138155,-0.999918731383,0.0,0.400660712516,-0.0818646167105,0.304897513955,1.0,-0.18998,-0.249688,2.787
-0.0780610906873,-0.401287810165,-0.133088999938,-2.54497383364,-0.0505813773213,2.13742273951,-0.347346000198,-0.674449194233,-0.440789314866,-0.00508978835437,-0.385777179667,-0.0718502559979,-0.0684854121444,-0.632222021995,0.573823076513,0.818952973175,0.00488379882241,0.0,0.818938877089,-0.573742906767,-0.011787257033,0.0,-0.00685129616903,0.0107635400494,-0.99991859966,0.0,0.39742474493,-0.0860886311005,0.304891365552,1.0,-0.18998,-0.249688,2.804
-0.088353519257,-0.407759556496,-0.133207056778,-2.55047408378,-0.0516197316909,2.13645703087,-0.356989947876,-0.693371823738,-0.425762902327,-0.00981646026638,-0.357529123713,-0.0614263871591,-0.0601325741925,-0.641453446584,0.573738227916,0.819012099722,0.0049369259179,0.0,0.818998985041,-0.57365835788,-0.0117259471585,0.0,-0.00677171416493,0.0107711688377,-0.999919059629,0.0,0.394604056774,-0.0897960386969,0.304916783365,1.0,-0.18998,-0.249688,2.819
-0.101096209319,-0.415345974879,-0.133401688945,-2.55677433784,-0.0527790675173,2.13533555057,-0.3687152111,-0.705672335065,-0.427117000648,-0.00346913748729,-0.350281985116,-0.0679402042332,-0.066403604499,-0.654099917565,0.573918817741,0.818884403815,0.00512549835623,0.0,0.818874606731,-0.573839749405,-0.0115354824771,0.0,-0.00650513724275,0.0108177791919,-0.999920326247,0.0,0.39124161652,-0.0943706688874,0.304996298284,1.0,-0.18998,-0.249688,2.837
-0.112246277002,-0.421959968589,-0.133502262818,-2.56240967747,-0.0538594176443,2.13414283497,-0.379298175459,-0.700528073511,-0.410015089419,-0.00711885459961,-0.350656229673,-0.0725484153437,-0.0844344164201,-0.669232653627,0.573721816244,0.819022758789,0.0050739581912,0.0,0.819011586604,-0.573641774233,-0.0116568762772,0.0,-0.00663674036608,0.0108436435518,-0.99991918127,0.0,0.388178175878,-0.0982760144914,0.304969237142,1.0,-0.18998,-0.249688,2.853
-0.123770726939,-0.428375451551,-0.133736603935,-2.56789788738,-0.054929769811,2.13297869639,-0.38994242452,-0.722859388581,-0.404143985996,-0.0133492579821,-0.340833014935,-0.0778956432399,-0.0770488669561,-0.661020786456,0.57388896866,0.818905779917,0.00505194718199,0.0,0.818893290894,-0.573807297659,-0.0118199062587,0.0,-0.00678067594193,0.0109205297198,-0.999917378819,0.0,0.385078103713,-0.102328747384,0.304916246126,1.0,-0.18998,-0.249688,2.869
-0.135898597187,-0.435007770399,-0.133813570977,-2.57344013379,-0.0559512824793,2.13183157449,-0.401426482899,-0.713457864449,-0.380314358562,-0.0075864116066,-0.322230910814,-0.0705176431816,-0.06763079669,-0.683025285336,0.573760252125,0.818995610579,0.00510977833493,0.0,0.818983828759,-0.573678333497,-0.0118069813275,0.0,-0.00673862650114,0.0109594134108,-0.99991723766,0.0,0.381882851176,-0.106488510429,0.304916134396,1.0,-0.18998,-0.249688,2.886
-0.148371775323,-0.441452951821,-0.134033784186,-2.57864449735,-0.0570337266029,2.13063705684,-0.413063911974,-0.734497192079,-0.382417090024,-0.00959156987407,-0.295770536655,-0.0679916249617,-0.0677509737413,-0.682130164457,0.573879716313,0.818911420423,0.00518686868534,0.0,0.818901249357,-0.573798520859,-0.0116939370202,0.0,-0.00660020807048,0.0109586574945,-0.999918169192,0.0,0.378688322851,-0.110807678843,0.30497484707,1.0,-0.18998,-0.249688,2.903
-0.160801703966,-0.447802044821,-0.134146123484,-2.58374830313,-0.0580334589895,2.12945280945,-0.424859229532,-0.732180820585,-0.368353246541,-0.0124815486553,-0.302585374049,-0.0544494190529,-0.0770568155156,-0.689455452092,0.573792739045,0.818971768547,0.00528032617494,0.0,0.818963451395,-0.573712343741,-0.0115654148113,0.0,-0.00644248395422,0.01096075622,-0.999919174845,0.0,0.375499296448,-0.115012838254,0.305032308402,1.0,-0.18998,-0.249688,2.92
-0.17271849646,-0.453538047352,-0.134342626771,-2.58859550756,-0.0589929575616,2.12822417403,-0.436081284629,-0.755075517673,-0.36361385705,-0.0204449505425,-0.300160349424,-0.0609348105041,-0.0721824351643,-0.707308519773,0.57385077785,0.818931357502,0.00524054974323,0.0,0.818920886627,-0.573767751935,-0.01182772956,0.0,-0.00667936877823,0.0110791607585,-0.999916315613,0.0,0.37218197634,-0.119263707727,0.304950082972,1.0,-0.18998,-0.249688,2.937
-0.186884912031,-0.460107157396,-0.134468315887,-2.59390583567,-0.0600313613884,2.12688837481,-0.449570904522,-0.747853411886,-0.340226108587,-0.0100840572687,-0.272027120831,-0.0517009558451,-0.0625659704932,-0.710490441497,0.573770339365,0.818987357531,0.00529648672696,0.0,0.818977616199,-0.573687137063,-0.0118101581368,0.0,-0.00663397162214,0.0111142364995,-0.999916228575,0.0,0.368796245776,-0.123709752588,0.304961908345,1.0,-0.18998,-0.249688,2.955
-0.198285360904,-0.465052642581,-0.134636563377,-2.59795035031,-0.060899986451,2.12588493618,-0.460328794955,-0.768558966957,-0.328866412183,-0.0185466641191,-0.268018810471,-0.0644538031434,-0.0680106667824,-0.716427405214,0.573834248773,0.818942564877,0.00529879890983,0.0,0.818932713036,-0.573750791348,-0.0118316460536,0.0,-0.00664937651922,0.0111289777593,-0.999915962292,0.0,0.365943546732,-0.127491222331,0.304938905182,1.0,-0.18998,-0.249688,2.97
-0.211999082184,-0.47085989267,-0.134743591561,-2.6025704291,-0.0618562524944,2.12461381608,-0.473331158243,-0.759043715533,-0.320241118214,-0.00917582852155,-0.248781387669,-0.0433404229087,-0.0746737056538,-0.723789292316,0.573838885108,0.818939134123,0.00532686038287,0.0,0.818929665762,-0.573755359623,-0.0118210295437,0.0,-0.00662451654682,0.0111459050003,-0.999915938758,0.0,0.362539674545,-0.131962754694,0.304955088656,1.0,-0.18998,-0.249688,2.988
-0.224280138953,-0.475904771117,-0.134951482185,-2.60643029674,-0.0626769212439,2.12353853594,-0.485095032464,-0.780267052971,-0.307622112719,-0.0170018309656,-0.240950941888,-0.0517782810197,-0.0673495533187,-0.740165405427,0.573853621659,0.818927919638,0.00546170740819,0.0,0.818921031479,-0.573771055845,-0.0116561818879,0.0,-0.00641192660752,0.0111618641559,-0.999917146561,0.0,0.359532336027,-0.135980902185,0.30503019893,1.0,-0.18998,-0.249688,3.004
-0.236669258408,-0.480673379482,-0.13502225474,-2.61023521736,-0.0635478024285,2.12244218425,-0.496917821366,-0.767977265469,-0.292879198263,-0.000504698604784,-0.239826884554,-0.0511254371002,-0.0676695136022,-0.740829811147,0.573789335985,0.818973368412,0.00540061503879,0.0,0.8189656547,-0.573706924746,-0.0116776633478,0.0,-0.00646544952143,0.011123651094,-0.999917227749,0.0,0.356487822686,-0.139952567078,0.305019089636,1.0,-0.18998,-0.249688,3.02
-0.249914415828,-0.485514207312,-0.135189931306,-2.61409974468,-0.064349323974,2.12129176986,-0.509621804344,-0.786672898427,-0.278216658509,-0.0164438047406,-0.216914540875,-0.0458047915037,-0.0706959443258,-0.753288295559,0.573800158622,0.818965492058,0.00544496878558,0.0,0.818957667811,-0.573716414891,-0.0117711732487,0.0,-0.0065164421826,0.011213715914,-0.999915890741,0.0,0.353242100416,-0.144180165297,0.304994326209,1.0,-0.18998,-0.249688,3.037
-0.264076887641,-0.490324940831,-0.135310719074,-2.61795072067,-0.0651425032391,2.12012262979,-0.523247358758,-0.775909886527,-0.271238045614,-0.00629606610589,-0.210233709503,-0.0402516743195,-0.0639773568262,-0.763611485508,0.57377625011,0.818982030168,0.00547685799488,0.0,0.818973800985,-0.573690989399,-0.0118873413454,0.0,-0.00659362181413,0.0113062950317,-0.999914342253,0.0,0.349818726346,-0.148652547104,0.304956743269,1.0,-0.18998,-0.249688,3.055
-0.276767707884,-0.494398932093,-0.135467338201,-2.62114931467,-0.065842067551,2.11916973676,-0.535437272074,-0.798500637507,-0.254194215167,-0.0127188462563,-0.197395571042,-0.0408604943925,-0.0576713154548,-0.76605933229,0.573822717835,0.818949060864,0.00553815023039,0.0,0.818941526617,-0.573737045868,-0.0118880226191,0.0,-0.00655836927558,0.0113572573157,-0.999913996551,0.0,0.346789277941,-0.152660770087,0.304949628488,1.0,-0.188134285714,-0.247262204082,3.071
-0.290182388024,-0.49853708806,-0.135497149433,-2.6243319885,-0.0665022760739,2.11811560913,-0.548315214537,-0.781715281022,-0.240718656928,-0.000258364113832,-0.180981738137,-0.0389239948807,-0.0602898810925,-0.754529977985,0.573823428834,0.818948261218,0.0055825505752,0.0,0.818941182878,-0.573737380333,-0.0118955578766,0.0,-0.00653905439371,0.011397949826,-0.999913660026,0.0,0.343608030765,-0.156818276942,0.304963171894,1.0,-0.185326857143,-0.243572440816,3.088
-0.302788900278,-0.502142866438,-0.135552452416,-2.62708287257,-0.0671056603091,2.11721135218,-0.560401316263,-0.805426732173,-0.219585567872,-0.0118518890257,-0.163527886585,-0.0392227743935,-0.0459429833752,-0.754469475837,0.573880751207,0.818907747028,0.00563312999748,0.0,0.818901554384,-0.573794904062,-0.0118490168668,0.0,-0.00647111500944,0.0114131213495,-0.999913928962,0.0,0.34047135028,-0.160970846196,0.304985806116,1.0,-0.182519428571,-0.239882677551,3.105
-0.31685022586,-0.505857712515,-0.135510758916,-2.62989330029,-0.0676666031573,2.11631014482,-0.573934164222,-0.769048594007,-0.203012218667,0.00277513842295,-0.154491643639,-0.0219036787008,-0.0461054362785,-0.74688637877,0.573880988396,0.818907093306,0.00570355953231,0.0,0.818902259049,-0.573795675694,-0.0117626349051,0.0,-0.00635994981282,0.0114212302252,-0.999914549618,0.0,0.337418380866,-0.16502844923,0.305011852309,1.0,-0.179712,-0.236192914286,3.122
-0.330015802891,-0.50910751535,-0.135519065197,-2.6323377241,-0.0681947884124,2.11550334602,-0.586600646846,-0.778337892156,-0.186448844253,-0.00181804394543,-0.141065907636,-0.0269817181537,-0.045212294282,-0.748819709286,0.573931137735,0.818871521116,0.00576436852272,0.0,0.81886793535,-0.573846435048,-0.011675630141,0.0,-0.00625309907802,0.0114214841404,-0.999915220632,0.0,0.334390917174,-0.169053613199,0.305038830183,1.0,-0.176904571429,-0.23250315102,3.139
-0.342227431709,-0.511944260302,-0.13542457994,-2.63454123312,-0.0686298292748,2.11472207423,-0.598466782856,-0.755043874466,-0.168689307309,0.000370572045468,-0.135462279639,-0.0230546677135,-0.0425361410689,-0.738913489928,0.573835838574,0.818938239222,0.00577387299686,0.0,0.818934408481,-0.573750449677,-0.0117304305916,0.0,-0.00629385712189,0.0114599853829,-0.999914524396,0.0,0.331566771458,-0.172713645323,0.30502405286,1.0,-0.174262285714,-0.229030432653,3.155
-0.355158611145,-0.514615306069,-0.135393095826,-2.63667320526,-0.0690486853596,2.11394801059,-0.610933047062,-0.770779977346,-0.153647195387,-0.00312163513848,-0.120103018516,-0.0353870454721,-0.0408667640946,-0.735670607763,0.573894408174,0.818896982909,0.00580401152723,0.0,0.818892584282,-0.573807156068,-0.0118756033554,0.0,-0.00639463552625,0.0115684270861,-0.999912636249,0.0,0.328586096791,-0.176594233515,0.304977193214,1.0,-0.171454857143,-0.225340669388,3.172
-0.367925740971,-0.517025914654,-0.135282490698,-2.63855578713,-0.0694402046593,2.1132851375,-0.623266852046,-0.743122583813,-0.134002200988,0.00791464342227,-0.104606389821,-0.0197745959573,-0.0352265720383,-0.728591361744,0.573896178586,0.818895716683,0.00580760734627,0.0,0.818891120618,-0.573808471071,-0.0119129341808,0.0,-0.00642312014678,0.0115928086875,-0.9999121713,0.0,0.325690764564,-0.180403137366,0.304957054669,1.0,-0.168647428571,-0.221650906123,3.189
-0.379755595974,-0.519074737981,-0.135205516927,-2.64014650286,-0.0697580339559,2.11269361773,-0.634723115445,-0.747900171432,-0.124998352908,0.00146856335117,-0.0952196699007,-0.0165722254207,-0.0421505344122,-0.718124326026,0.573920924778,0.818878139414,0.00584053012942,0.0,0.818873608986,-0.573832427998,-0.0119626078011,0.0,-0.00644455651142,0.0116484711866,-0.999911386479,0.0,0.3230116179,-0.183923397271,0.304939984291,1.0,-0.166005142857,-0.218178187755,3.205
-0.39217841407,-0.521085322243,-0.135094115519,-2.64163876321,-0.0700845619637,2.11209180808,-0.646813416185,-0.71327777383,-0.108683674677,0.0149685372892,-0.086730346432,-0.0169071387476,-0.038810446865,-0.71095383023,0.57388896119,0.818900412269,0.0058584904978,0.0,0.818896141825,-0.573800446992,-0.011954197463,0.0,-0.00642781651983,0.011658101684,-0.999911381993,0.0,0.320213818507,-0.18760530956,0.304952337072,1.0,-0.163197714286,-0.21448842449,3.222
-0.404407558176,-0.522885206353,-0.134974042598,-2.64296494999,-0.0703530282728,2.11155788577,-0.6587598341,-0.728568971329,-0.0942403930024,0.00341021900768,-0.0727943141703,-0.0131755248475,-0.0323115748211,-0.688853481532,0.573844414585,0.818931334333,0.00589952538138,0.0,0.818927710854,-0.573755952872,-0.0119271891749,0.0,-0.00638278402749,0.0116758605019,-0.999911463255,0.0,0.317470740319,-0.1912129136,0.304967737325,1.0,-0.160390285714,-0.210798661225,3.239
-0.416631608897,-0.524490832641,-0.134888563962,-2.64411194575,-0.0706062277318,2.1110541184,-0.670547445055,-0.709526707255,-0.0902876568163,0.0141126094857,-0.0602656004836,-0.00901781297024,-0.0281457795816,-0.687334545608,0.573966836614,0.818845187113,0.00594784928812,0.0,0.818842384132,-0.57387851367,-0.0118890032812,0.0,-0.00632203192612,0.0116944698502,-0.999911631739,0.0,0.31473448159,-0.194824151977,0.304994142659,1.0,-0.157582857143,-0.207108897959,3.256
-0.428448074329,-0.525792048229,-0.134748467457,-2.64510241447,-0.0708095973259,2.11068042527,-0.682210486967,-0.701443886655,-0.0783918557848,0.00104452915425,-0.0504254685056,-0.0122162043608,-0.0203713126337,-0.679146755886,0.573849753375,0.818927026128,0.00597773612207,0.0,0.818924707173,-0.573761515089,-0.0118656936869,0.0,-0.00628746336291,0.0117046665503,-0.999911730397,0.0,0.312110233947,-0.19829200297,0.304992045219,1.0,-0.154775428571,-0.203419134694,3.273
-0.439634954211,-0.526878657992,-0.134689510749,-2.64593774234,-0.0709909539308,2.11032350763,-0.69298426608,-0.68579144043,-0.0643479530786,0.0104671157881,-0.0516513423778,-0.0101186638459,-0.0154974410709,-0.663257649065,0.574021066278,0.818806577595,0.0060291672881,0.0,0.818804680575,-0.573932130478,-0.0118975448666,0.0,-0.00628157610712,0.0117663783251,-0.999911043115,0.0,0.309603027022,-0.201579798065,0.304980845443,1.0,-0.152133142857,-0.199946416327,3.289
-0.451030531072,-0.527823554393,-0.134508492483,-2.64666867993,-0.0711144830827,2.11001695306,-0.704292330963,-0.672228605801,-0.0538707658982,0.00554026312252,-0.0376923990212,-0.0046779479135,-0.0200462104977,-0.66199505753,0.573870266574,0.818912027845,0.00606256499272,0.0,0.818910452253,-0.57378101695,-0.0119064133976,0.0,-0.00627184118531,0.011797661612,-0.99991073561,0.0,0.307077450627,-0.204888525926,0.304972416302,1.0,-0.149325714286,-0.196256653061,3.306
-0.462564225807,-0.528594976417,-0.134422200724,-2.64727264134,-0.0712462233486,2.10972910855,-0.715424617907,-0.674212498832,-0.0440552195801,0.00109987288204,-0.0375059634079,-0.00489530519872,-0.0101665112496,-0.663540171371,0.574047294128,0.818787557549,0.00611445892543,0.0,0.818786342436,-0.573957203844,-0.0119499161992,0.0,-0.00627512576541,0.0118664809853,-0.999909900654,0.0,0.304504167249,-0.208259696342,0.3049572476,1.0,-0.146518285714,-0.192566889796,3.323
-0.472975743908,-0.529117452954,-0.13423846073,-2.64769158429,-0.0713339179568,2.10952415265,-0.725740967647,-0.641624165137,-0.0293363538842,0.0116322419637,-0.0222576514131,-0.00175150184401,-0.00732649058046,-0.647785117121,0.57391462925,0.818880455304,0.0061274102086,0.0,0.818879293097,-0.573824294635,-0.0119636585196,0.0,-0.00628087022097,0.0118839567869,-0.999909657039,0.0,0.302071435565,-0.211465059385,0.304948352343,1.0,-0.143710857143,-0.188877126531,3.34
-0.48465000071,-0.529560265756,-0.134107056773,-2.64802414389,-0.0714249660612,2.10932688129,-0.737172129713,-0.648242265653,-0.019717286154,0.00393487882437,-0.0120518079318,-0.00561948950169,-0.0149327245549,-0.620488373508,0.573982753536,0.818832479316,0.00615762630134,0.0,0.818831581789,-0.573892034863,-0.0119799786175,0.0,-0.00627590373607,0.0119185894683,-0.999909276013,0.0,0.29962723903,-0.214678982722,0.304941614444,1.0,-0.140903428571,-0.185187363265,3.357
-0.495460533745,-0.529828400544,-0.133929715459,-2.64821103498,-0.0714839076999,2.10917926297,-0.747777507413,-0.624199994901,-0.0174486456783,0.0101925364374,-0.00902168856527,-0.000641774867428,-0.00525827022524,-0.620671655511,0.573989744894,0.818827480961,0.00617058189476,0.0,0.818826806337,-0.573899073733,-0.0119691809625,0.0,-0.00625952357808,0.0119230545491,-0.999909325456,0.0,0.297248175331,-0.217814081166,0.304946367622,1.0,-0.138096,-0.1814976,3.374
-0.505924121537,-0.529985251394,-0.133763494321,-2.64833744731,-0.0715059949795,2.10907545142,-0.758203519793,-0.619639366214,-0.00859911833117,0.00714298315023,-0.0068281431077,-0.00104388594376,-0.00642834864232,-0.611894501996,0.573886713954,0.818899414845,0.00620764164341,0.0,0.818899174363,-0.573795817228,-0.0119686783613,0.0,-0.00623934502339,0.011952328231,-0.999909102081,0.0,0.294934385398,-0.22083627224,0.304941474267,1.0,-0.135288571429,-0.177807836735,3.391
-0.51647103253,-0.530044049362,-0.13364171244,-2.64838327466,-0.0715195454223,2.10896095068,-0.768417367528,-0.611883838394,0.00208488934688,0.010525345103,-0.000655084437137,-0.000399607974243,-0.0102929602502,-0.58709673313,0.574065194586,0.818773897602,0.00626129952679,0.0,0.818774123338,-0.573973585148,-0.0120002251971,0.0,-0.00623177060053,0.0120157329839,-0.999908389402,0.0,0.292580125032,-0.223883662434,0.304935389556,1.0,-0.132481142857,-0.174118073469,3.408
-0.526465394386,-0.529965931897,-0.133443326111,-2.64831551699,-0.0715213949567,2.10894511545,-0.778442291453,-0.582255638544,0.00822751148615,0.00603866041518,0.00429772575087,-0.000681449928317,0.00483753485596,-0.58302369186,0.573903351286,0.818887272483,0.00627098465743,0.0,0.81888788088,-0.573812231381,-0.0119544371057,0.0,-0.00619108789398,0.011996155818,-0.999908877186,0.0,0.29037791729,-0.226762057785,0.304941360256,1.0,-0.129673714286,-0.170428310204,3.425
-0.535905739657,-0.529825275706,-0.133307883285,-2.64821072926,-0.0715271424608,2.10893288735,-0.787647777832,-0.586755068259,0.0115364545997,0.00997827769622,0.012878158942,-4.66185167591e-05,0.000690382855064,-0.576599721955,0.574015884421,0.818808220671,0.00629357563283,0.0,0.818809218456,-0.573924830533,-0.0119373184283,0.0,-0.0061624537797,0.012005679287,-0.999908939768,0.0,0.288139477462,-0.229649643399,0.304941777192,1.0,-0.126866285714,-0.166738546939,3.442
-0.5457107419,-0.529556319275,-0.133134976247,-2.64798206845,-0.0715256215759,2.10894499318,-0.797283608351,-0.555665469504,0.0250122562981,0.0166546665827,0.0185712481451,2.18299710615e-05,0.000554598768165,-0.559238784104,0.574033880644,0.818795611397,0.00629265690973,0.0,0.818796826461,-0.573943273984,-0.0119005095165,0.0,-0.00613257492772,0.0119839338949,-0.999909384321,0.0,0.286093476347,-0.232308351717,0.304951222028,1.0,-0.124224,-0.163265828571,3.458
-0.555062007227,-0.529139113771,-0.132943700885,-2.64768630869,-0.0715253885822,2.10896095766,-0.806712148963,-0.555398134658,0.0209503368497,0.0105949586845,0.0155899708558,-0.000822250235737,-0.0001629777805,-0.548959836212,0.573852815488,0.8189227161,0.00626722530154,0.0,0.818923355581,-0.573761877297,-0.0119412204411,0.0,-0.00618316076775,0.0119851108952,-0.999909058685,0.0,0.284012501858,-0.234994655044,0.304939531645,1.0,-0.121416571429,-0.159576065306,3.475
-0.563938111078,-0.528680908606,-0.132789105919,-2.64736619484,-0.0715175349638,2.10899973435,-0.815397322085,-0.551193440744,0.0289345054656,0.00616944981251,0.0212656801795,-0.000544605782552,0.00115140869606,-0.535862625334,0.573938949872,0.81886247099,0.00625158579541,0.0,0.818862703538,-0.573847666047,-0.0119781395629,0.0,-0.00622111081824,0.0119941422124,-0.999908715,0.0,0.281898848878,-0.237704360478,0.304925841792,1.0,-0.118609142857,-0.155886302041,3.492
-0.573571387992,-0.527992690427,-0.132583302728,-2.64684544665,-0.0714914053753,2.10915733264,-0.82495277373,-0.520682282729,0.0457305669791,0.0141509303012,0.025232346867,-0.00157114745739,0.00422467503293,-0.531103707093,0.573880993982,0.81890336241,0.00621568025759,0.0,0.818903458519,-0.573790510344,-0.0119299105648,0.0,-0.00620306495588,0.01193662081,-0.999909515441,0.0,0.279901273345,-0.240334935026,0.304928803064,1.0,-0.115801714286,-0.152196538776,3.509
-0.581852595283,-0.527292055208,-0.132418743041,-2.64634631082,-0.071468064725,2.1092660264,-0.833234649069,-0.522132828221,0.0401027702839,0.00616001369895,0.0278878708933,-0.000608008778984,0.00494995627329,-0.510002184217,0.573802643211,0.818958510794,0.00618313370152,0.0,0.818957958419,-0.573711880781,-0.0119702587142,0.0,-0.00625592843137,0.011932522381,-0.999909235015,0.0,0.278059693081,-0.242729053986,0.304912965462,1.0,-0.113159428571,-0.148723820408,3.525
-0.590629763121,-0.526502104038,-0.132246733685,-2.64572352947,-0.0714080580438,2.10938423582,-0.841824220291,-0.505464051198,0.0466190075557,0.00712677790598,0.0343016115636,-0.000734443701749,0.00666539245268,-0.504070873314,0.573895270378,0.818893709969,0.00616906090023,0.0,0.818893031029,-0.573804655047,-0.0119653031835,0.0,-0.00625859615037,0.0119188613598,-0.999909381253,0.0,0.276110053237,-0.245270587943,0.304921517936,1.0,-0.110352,-0.145034057143,3.542
-0.599001916297,-0.525563404826,-0.132046080436,-2.64502122327,-0.071343712835,2.10954902468,-0.850214635777,-0.476803199108,0.0560750974665,0.0206514524184,0.0400630797499,0.0127500684291,0.00396695710328,-0.483639227288,0.573805441694,0.818956952738,0.00612956327439,0.0,0.818955665995,-0.57371483268,-0.0119856079762,0.0,-0.00629919689559,0.0118974767157,-0.999909380977,0.0,0.274267195053,-0.247702003904,0.304916247936,1.0,-0.107544571429,-0.141344293878,3.559
-0.60762383026,-0.524547793464,-0.131839640233,-2.64427949556,-0.0712249469211,2.10971012709,-0.858889849812,-0.483134137711,0.0556601370652,0.0107581264327,0.0404262460153,0.00811910610544,0.0144917429773,-0.476745657411,0.573708117592,0.819025104989,0.00613352320957,0.0,0.819023486064,-0.573616789137,-0.0120438946224,0.0,-0.0063460823498,0.0119334094284,-0.999908656317,0.0,0.272353488446,-0.250188750994,0.304900300493,1.0,-0.104572,-0.137437485714,3.577
-0.614795492172,-0.523696838301,-0.131674249046,-2.64357871976,-0.0711151771442,2.10986186332,-0.865874061716,-0.477054179504,0.0555612714818,0.0116672878785,0.0456157545725,0.0128919219575,0.00847278505885,-0.456390647242,0.57383013026,0.818939601355,0.00613659838753,0.0,0.81893831579,-0.573739315731,-0.0119991423492,0.0,-0.00630588650015,0.0119111942928,-0.999909175498,0.0,0.270766768713,-0.252269588635,0.304923972197,1.0,-0.102094857143,-0.134181812245,3.592
