nelsonifechukwu/NELSON_IML_WORK/CNN-GradCAM/train2dof/data_sample_2022-07-05-19-02-44/robot_state.csv
position_joint1,position_joint2,position_joint3,position_joint4,position_joint5,position_joint6,position_joint7,velocity_joint1,velocity_joint2,velocity_joint3,velocity_joint4,velocity_joint5,velocity_joint6,velocity_joint7,ee_T_00,ee_T_10,ee_T_20,ee_T_30,ee_T_01,ee_T_11,ee_T_21,ee_T_31,ee_T_02,ee_T_12,ee_T_22,ee_T_32,ee_T_03,ee_T_13,ee_T_23,ee_T_33,v_x,v_y,w_z,time
0.4650898959121685,0.5473095095638358,-0.12398615130935109,-1.3555717046411446,0.07944110182023946,1.8941586503644756,0.1591554920947415,0.0002645564442340908,0.003178413714554266,-0.004962591779014081,-0.0007407071757697135,-4.337852833346242e-05,-9.312958469656349e-05,0.001017366948978923,0.5737572967442012,0.8190095267937973,0.0025896631045784413,0.0,0.81897553926598,-0.5736972597832577,-0.011457185622441066,0.0,-0.007898013609402066,0.008694681988188901,-0.9999310095632349,0.0,0.6617595652770141,0.26093429219452796,0.30367779182945753,1.0,5e-324,6.944655625092e-310,6.944443425513e-310,0.0
0.465090446855154,0.5473012461808595,-0.1239831207422356,-1.3555691990135716,0.07944072934575733,1.8941586474200078,0.15915318902584785,0.0001763709628227306,-0.0004795132984842902,-0.0028751441600303484,0.00034141314378510323,-0.0002323695397223083,-6.208638979770899e-05,0.0009495119937637265,0.5737525857919968,0.819012795660629,0.0025995658034300697,0.0,0.8189789273738187,-0.5736925077230339,-0.011452947275458966,0.0,-0.007888910827846152,0.008700315235593531,-0.9999310324221122,0.0,0.6617595363636034,0.2609367563879219,0.3036847382472649,1.0,-0.0,-0.0,-0.0,0.001
0.46509031688989144,0.5473033612874759,-0.12398107033290845,-1.3555720628880386,0.07944109296199924,1.8941622247515728,0.1591460878365695,0.0010501914789756788,0.0010838105842548755,0.0010927325195996594,0.0024949432101608526,9.793752042161523e-05,-0.00014152628779920455,-0.010585241214276472,0.5737555076668146,0.8190107329793973,0.002604532156556179,0.0,0.8189769412647385,-0.5736954268845994,-0.011448744453368792,0.0,-0.007882588163305726,0.008701999505448435,-0.9999310676283915,0.0,0.661762146304635,0.26093198956018687,0.3036870860848539,1.0,-0.0003600000000000002,-0.00047314285714285747,-0.0001800000000000001,0.01900000000000001
0.46508819120288536,0.5472876116455371,-0.1239831771222658,-1.355578378137433,0.07943785294341121,1.8941618878752875,0.1591532175642664,0.0008287714541580243,-0.0021391060797467266,0.0008508026201344729,-0.00016907849830891184,-9.725143698926274e-07,-5.6606904997339336e-05,-0.00018365736866071181,0.5737542299190815,0.8190116265089845,0.0026050324906822225,0.0,0.8189778487442071,-0.5736941559435759,-0.011447515176103939,0.0,-0.007881307847518226,0.008701691694010055,-0.9999310803991818,0.0,0.6617592003015081,0.2609340745267545,0.30369030621809195,1.0,-0.0006800000000000005,-0.0008937142857142865,-0.00034000000000000024,0.035000000000000024
0.4650895578227309,0.5472401139346674,-0.12398781742779592,-1.3556177689811988,0.07943739461177703,1.8941651508192003,0.1591479407352901,0.0016716793415365928,-0.000580160485597108,-8.105785001766989e-05,-0.0023603761889100386,0.0001851511951248192,5.9152630640415464e-05,-9.749526762478414e-05,0.5737539924755888,0.8190117588069195,0.00261571319655149,0.0,0.818978111288287,-0.573693875596055,-0.011442780931945451,0.0,-0.007871305042551235,0.008707720748718686,-0.9999311067050016,0.0,0.6617528064807972,0.26092838683568675,0.3037056387539943,1.0,-0.0010200000000000007,-0.0013405714285714297,-0.0005100000000000004,0.05200000000000004
0.4650839100400167,0.5471042638181205,-0.12398354148027618,-1.3557838478427338,0.07943809206618214,1.894192865386779,0.15914696460885694,-0.0006174160693106056,-0.011011252129215108,0.0006512649747817366,-0.013873670058073702,-0.0013712310628907712,-0.00026210205937927976,-0.0013426518558130437,0.5737640320225037,0.8190047039883702,0.002622461326644179,0.0,0.8189709944924912,-0.5737037271064888,-0.011458210388703129,0.0,-0.007879964084075097,0.00872219668239868,-0.9999309123389812,0.0,0.6617242977394275,0.2609111834456776,0.3037250781984297,1.0,-0.001360000000000001,-0.001787428571428573,-0.0006800000000000005,0.06900000000000005
0.4650708643066752,0.546968353381035,-0.12398926308054085,-1.3559785161762572,0.07943391171857091,1.894237665022471,0.15914457618196814,-0.00038609280514302906,-0.004058871500811608,-0.0010297616375950151,-0.015467315299878135,-0.0007061409938354406,0.0019676499758620384,-4.4192953767149426e-05,0.5737863530586752,0.8189890919522996,0.002614423068534765,0.0,0.8189552100101151,-0.5737259956409134,-0.011471391560705747,0.0,-0.007895134085506572,0.00872339127358654,-0.999930782255682,0.0,0.6616971436316814,0.2608802767879265,0.3037327518402711,1.0,-0.0017000000000000012,-0.0022342857142857164,-0.0008500000000000006,0.08600000000000006
0.46505144257348646,0.5468039327629218,-0.1239893419615103,-1.3561848509507033,0.07942708525900403,1.8943634840392376,0.1591515403153871,-0.0003678507056057483,-0.005353097594161082,0.0004004207372788666,-0.008818198279779262,0.0006361049680248003,0.005263065482761111,0.0015629822349234647,0.5738217309255133,0.8189641148268535,0.002673320916867422,0.0,0.8189310120835022,-0.5737611998803241,-0.01143808817022878,0.0,-0.007833686759461056,0.008752857476023237,-0.999931008038934,0.0,0.6616863819977388,0.26085102875095634,0.30375324752317323,1.0,-0.0020000000000000013,-0.0026285714285714306,-0.0010000000000000007,0.10100000000000008
0.46503147664529,0.5466095510755774,-0.12398182152214449,-1.3564143811254068,0.07942172373394941,1.8944762248148863,0.15914124138176905,-0.00121526132240762,-0.014414659178630747,0.0010319837906348794,-0.017341167685566566,-0.004466924678728138,0.005036702870573648,-0.0002815532836978596,0.5738321496419139,0.8189565277581103,0.002759815379217448,0.0,0.81892447318508,-0.5737712686095908,-0.01140111564224702,0.0,-0.007753664589751685,0.008802576529695946,-0.9999311952988906,0.0,0.6616634892593101,0.26082573292001293,0.3037998795627971,1.0,-0.002360000000000002,-0.003101714285714289,-0.001180000000000001,0.11900000000000009
0.4649995317659906,0.5463859664854622,-0.12398916449458657,-1.35670773664939,0.0794166693451378,1.8946031014158162,0.15913435355938318,-0.001197528112099858,-0.018801484263370305,-0.0002514903398408453,-0.021649093685855308,-0.00022713640401427013,0.006481308818442496,-0.0004807882907130095,0.5738729062953594,0.8189277863695228,0.0028133668867319052,0.0,0.8188963794150546,-0.573811806414317,-0.011378818113578368,0.0,-0.00770423552427979,0.008834021460844374,-0.9999313000500663,0.0,0.6616377073446166,0.2607762581209798,0.3038298444123919,1.0,-0.002700000000000002,-0.0035485714285714317,-0.001350000000000001,0.1360000000000001
0.46495940528900453,0.5461371168432455,-0.12398395371959857,-1.3570887515163104,0.07940228979965801,1.894738908130091,0.15911627174494622,-0.002762903073395667,-0.013767202334244038,0.0010457500820096257,-0.024531649013276386,-0.00029518196327644813,0.005054547276044283,-0.0009815404715571218,0.5739047779759685,0.8189054202591977,0.0028223018387707726,0.0,0.8188740295009287,-0.5738435332523504,-0.011387275994691531,0.0,-0.007705690733400383,0.008846492103053036,-0.9999311785857024,0.0,0.6615940288290119,0.2607176572315954,0.30383629599878204,1.0,-0.0030400000000000023,-0.003995428571428575,-0.0015200000000000012,0.1530000000000001
0.46492964368947404,0.5458698125752787,-0.1239839813377268,-1.3575006708632216,0.07937950481494231,1.8948850736826213,0.15911370446414408,0.0008068264656630192,-0.023169733255534584,0.0004879830000564483,-0.02520953648284014,-0.003986753045579869,0.009410439077417048,-0.00040356844491236453,0.5739440150091978,0.8188779138147142,0.002824323421979482,0.0,0.8188465265626815,-0.5738827333195935,-0.011389523039738409,0.0,-0.007705946784296092,0.008849806392641532,-0.9999311472851371,0.0,0.6615447575178969,0.26065879821102256,0.30384214668605686,1.0,-0.0033600000000000023,-0.004416000000000004,-0.0016800000000000012,0.16900000000000012
0.4648764968406121,0.5455518405176151,-0.1239847703201646,-1.3580252193115496,0.07934049317842058,1.8950677019053426,0.15909494615401967,-0.0046445241674296055,-0.021254259581869887,0.0005925654356914469,-0.02901274723749235,2.7922803198151792e-05,0.008645112239381544,0.001455752500251487,0.573992517212457,0.8188440232342553,0.0027933311392761484,0.0,0.818812292674889,-0.5739313893132345,-0.011398974808307424,0.0,-0.007730950815963589,0.008830310129045907,-0.999931126639483,0.0,0.661488251049979,0.2605760032872435,0.3038298309093776,1.0,-0.0037000000000000028,-0.004862857142857147,-0.0018500000000000014,0.18600000000000014
0.46483988568350554,0.5452244766045594,-0.12399243971434121,-1.3585593583827955,0.07928380734146777,1.8952394105675088,0.15900207475326963,-0.0030549926415160533,-0.0241468807355932,-0.0002755486740297265,-0.03549373677664208,-0.004549310260930666,0.013960174600388285,-0.009701514717526415,0.5739656466666199,0.8188629907935472,0.0027542070409124035,0.0,0.818830944738379,-0.5739048583130182,-0.01139493066132716,0.0,-0.007750383418537565,0.008795698043508715,-0.9999312812652643,0.0,0.6614201096799105,0.2604858862560585,0.303825957285424,1.0,-0.004040000000000003,-0.00530971428571429,-0.0020200000000000014,0.20300000000000015
0.46477628590581455,0.544851382733938,-0.12399005208696372,-1.3591827560169425,0.07926103226481361,1.895446038635673,0.15893569917174608,-0.0024385155693642684,-0.02340137539086949,0.0001134203694525163,-0.039568661953687356,-0.004031256627106437,0.011953563287740943,-0.001261633883023744,0.573992011970185,0.8188446144787596,0.002722945970549698,0.0,0.8188120016519683,-0.5739311332867705,-0.011432720414160203,0.0,-0.00779898822791103,0.00879204030737299,-0.999930935519976,0.0,0.6613506787088423,0.26039057833267376,0.30380745170403434,1.0,-0.004360000000000004,-0.00573028571428572,-0.002180000000000002,0.21900000000000017
0.4647106141443477,0.5444475052062399,-0.12399595246304519,-1.359888047048474,0.07923412565863423,1.8956770391251203,0.15893033839395124,-0.008903666039571982,-0.028627743228545645,-0.0020345089363320583,-0.04107182895673399,-0.0015813344430876423,0.0136378795029098,-0.002141173390976375,0.5740760156951243,0.8187858932763533,0.002671343569050017,0.0,0.8187524698579502,-0.5740151300769171,-0.011479130868439375,0.0,-0.00786571023517918,0.00877723184650736,-0.9999305429896664,0.0,0.6612598701263502,0.260272504446388,0.30378147248088544,1.0,-0.004720000000000004,-0.006203428571428578,-0.002360000000000002,0.23700000000000018
0.46463851977240606,0.5440072275629867,-0.12399450394372137,-1.3606272673445918,0.07919638663545484,1.8959187125457415,0.15888147529749494,-0.008094918660836989,-0.030182863451602756,0.001136678228581369,-0.03936693216282716,-0.0007082980949287706,0.011782684710431429,-0.001994149718765408,0.5741227410523417,0.8187532799587752,0.002625197992815801,0.0,0.8187191693880294,-0.5740619000775994,-0.011515357444726355,0.0,-0.007921363040716833,0.00876069717108914,-0.9999302486637025,0.0,0.6611745130377915,0.26016257160068046,0.3037606912324622,1.0,-0.005040000000000004,-0.006624000000000006,-0.002520000000000002,0.25300000000000017
0.46457597404824424,0.5435737723278854,-0.12399952005394335,-1.3613476905855957,0.07916414999227213,1.8961859047782266,0.15882698781892923,-0.0038367677924659826,-0.02191568270973843,0.00040995375960171276,-0.048822021992357065,0.00018741039641784242,0.01420325959616887,-0.006493069937420743,0.5741668270656413,0.8187224042733732,0.002612726432193068,0.0,0.8186880408767252,-0.5741059209965265,-0.011533867667349013,0.0,-0.007943207083867587,0.00876154077328574,-0.9999300679870073,0.0,0.6610884837332908,0.2600428392845339,0.3037491446019614,1.0,-0.005380000000000004,-0.007070857142857149,-0.002690000000000002,0.2700000000000002
0.4645057595296031,0.5430597145307989,-0.12400279424424199,-1.3621789906097042,0.07911698459125625,1.8964719564442067,0.15875788644416708,-0.006663015254363402,-0.030535348473584495,0.0003195636026387731,-0.04663183407617133,-0.0055561727323354005,0.013251105105504537,-0.00579347543105363,0.5742036631783929,0.8186966530861983,0.0025865651316425518,0.0,0.8186619090142122,-0.5741427939560013,-0.011553258363365931,0.0,-0.007973709741518675,0.008751614118042414,-0.9999299121454899,0.0,0.6609893985141908,0.2599143807451213,0.30374199439418353,1.0,-0.005720000000000004,-0.007517714285714292,-0.002860000000000002,0.2870000000000002
0.4644297890903982,0.5424920516059281,-0.12400981773898503,-1.3631131590485608,0.07906458016423416,1.8967990573525926,0.15870106963936476,-0.0009859508165882599,-0.03292223144675157,-3.0817296105611195e-05,-0.05181884779069677,-0.006263581706484958,0.022368479746549666,-0.002850022379570825,0.5742714359608254,0.8186492317981244,0.0025495130987491666,0.0,0.8186140084261706,-0.5742106845138646,-0.01157332708278205,0.0,-0.008010691894700439,0.008733466446267948,-0.9999297752238404,0.0,0.6608731139112642,0.2597581954211357,0.3037299475952289,1.0,-0.006100000000000005,-0.008017142857142865,-0.0030500000000000024,0.3060000000000002
0.4643480642970803,0.5419454601620973,-0.1240147578754677,-1.3639758608068373,0.07900634225736942,1.8971133639221427,0.15863977288484252,-0.006986510735466217,-0.036252255498342996,-0.0006509419570822692,-0.05542668525936289,-0.0001401926449965008,0.020848473389501698,-0.007847571594169801,0.5743147977452898,0.8186188259721274,0.002545143613068684,0.0,0.8185835829787447,-0.5742540961273395,-0.011571415637732478,0.0,-0.008011173779079228,0.008729216074051707,-0.9999298084772819,0.0,0.6607826436816384,0.2596301924565223,0.3037306935074248,1.0,-0.006400000000000005,-0.008411428571428578,-0.0032000000000000023,0.32100000000000023
0.46428380574714395,0.5414103483255421,-0.12402647549553691,-1.3648149543165295,0.07895699305802373,1.8974082333272184,0.15857058999450224,-0.004781140614712953,-0.03532130968022876,-0.001747375470535538,-0.059816977808121445,-0.0014932343251905524,0.02049224680535308,-0.0029154883935413327,0.5743523060235761,0.818592541639622,0.002535002680949386,0.0,0.8185571873341625,-0.5742916562005529,-0.011574609419726808,0.0,-0.00801921244995435,0.008723116222963206,-0.9999297972733102,0.0,0.6606841975207846,0.25950039093261223,0.30373557432484366,1.0,-0.0067000000000000046,-0.008805714285714293,-0.0033500000000000023,0.33600000000000024
0.46419778608366785,0.5408115354080748,-0.12402432035801196,-1.3657460958640437,0.07890370203973633,1.8977447990395941,0.15851758253807258,-0.004392168354860863,-0.03647857036075753,-0.0010240228354563422,-0.055566658644449804,-0.00477154212883809,0.017844835423057804,-0.007170120833145808,0.574415184223929,0.8185484051315267,0.0025399785102528955,0.0,0.8185130685950815,-0.5743544587942598,-0.011578389500483278,0.0,-0.008018778663344717,0.00872997642162772,-0.9999297408820413,0.0,0.6605770660091174,0.2593563620795789,0.3037447670744956,1.0,-0.007020000000000005,-0.009226285714285723,-0.0035100000000000027,0.35200000000000026
0.46410566601508446,0.5401142435722244,-0.12402722375918336,-1.3667967535949512,0.07884376897338738,1.8981450439718865,0.1584167911800872,-0.004593118270716712,-0.03860302806629424,-0.0011613067361453163,-0.059835266213673466,-0.0004114581158012893,0.022781624328848005,-0.0001307881852309847,0.5744523476238249,0.8185221977821586,0.0025804938576305973,0.0,0.8184873809568299,-0.5743914744445362,-0.01155803621162969,0.0,-0.007978449140178923,0.008751811194284642,-0.9999298726161434,0.0,0.6604605825632587,0.25919573113887223,0.3037722771078425,1.0,-0.007360000000000005,-0.009673142857142866,-0.0036800000000000027,0.36900000000000027
0.4640125293304768,0.5394143143773998,-0.12403542383843602,-1.3679101725483367,0.07877586975573007,1.8985537466689046,0.15835458901795546,-0.0016881299798386926,-0.04429627061055147,-0.0010925282322929205,-0.06645631755869355,-0.0005125498400408265,0.02920382459655507,-0.0022060697031539467,0.5745268951896273,0.8184698994540555,0.002572409890339901,0.0,0.818435013554783,-0.5744660790893884,-0.011558523454808182,0.0,-0.007982694997995254,0.008746201308414053,-0.9999298878137617,0.0,0.6603330793973182,0.25902324001786864,0.303772564558636,1.0,-0.007700000000000006,-0.01012000000000001,-0.003850000000000003,0.3860000000000003
0.463917822942563,0.5386683106198161,-0.12403762114341875,-1.3690561123400773,0.07870952609076916,1.898996419142243,0.15827328177726174,-0.008881821425187389,-0.04304422101439097,-0.0002339364714920055,-0.07050791577275141,-0.002867953528421394,0.023889901433140515,-0.003295185799588752,0.5745850866885882,0.8184289355014676,0.0026081775649818145,0.0,0.8183945189209885,-0.5745241501575853,-0.011539462162360525,0.0,-0.007945921718434779,0.00876508984559407,-0.9999300153150936,0.0,0.6602047692863074,0.2588525008421923,0.30379256719165526,1.0,-0.008040000000000005,-0.010566857142857152,-0.004020000000000003,0.4030000000000003
0.46380985553554555,0.5379089185061602,-0.1240428823732948,-1.370249380434184,0.0786475037340802,1.899461591412824,0.15817555616015813,-0.006755736447190062,-0.040995060361079506,-0.002626086065294227,-0.0676867468503853,-0.006483834551497996,0.030137607776151907,-0.00834994159263589,0.5746465958653557,0.8183856571502429,0.0026368413551451537,0.0,0.8183515757656452,-0.5745855168486199,-0.011529491354706696,0.0,-0.00792063200274623,0.008783415345031687,-0.9999300551556363,0.0,0.6600740098618265,0.25866802172062986,0.3038014397254811,1.0,-0.008380000000000007,-0.011013714285714297,-0.004190000000000004,0.4200000000000003
0.46371000265447,0.5371140346941531,-0.12404771093838464,-1.3714982095649983,0.07856581923776458,1.8999347767165822,0.1580686747732269,-0.007135513356009851,-0.04403197336157846,3.7203503733468325e-05,-0.07100968001644575,-0.0031066274050879947,0.029302876403420105,-0.0019276610865618985,0.5746912686853973,0.818354254937341,0.0026468894812566503,0.0,0.8183203839698769,-0.5746302402428269,-0.011514472592024172,0.0,-0.007902087040194183,0.008783439587211478,-0.99993020166881,0.0,0.6599315510593932,0.25848040291063534,0.3038094403604891,1.0,-0.008720000000000007,-0.01146057142857144,-0.004360000000000004,0.43700000000000033
0.4636017276186631,0.536285020040355,-0.12405634510959161,-1.3728165159438068,0.07849661292999609,1.9004185848050925,0.15798616558855869,-0.0029430351770794766,-0.044437377980631756,0.0005316726294630963,-0.07541229852808115,-0.00715008804875829,0.029195572209219044,-0.0033429556414278647,0.574772449186564,0.8182972487080901,0.0026441093126084716,0.0,0.8182632822609988,-0.5747113536755956,-0.011524224964382653,0.0,-0.007910794246835218,0.008787553760187722,-0.9999300966734105,0.0,0.6597780787381639,0.25827996738477405,0.3038093926647992,1.0,-0.009060000000000007,-0.011907428571428583,-0.004530000000000004,0.45400000000000035
0.46348897055381316,0.5354141117251772,-0.12407131243684394,-1.374169881145198,0.07841340167603948,1.9009101286242698,0.15788650103496119,-0.005541289837040026,-0.051197847372974434,-0.0011074446658380186,-0.08467235211131899,-0.004967479477021875,0.024356449700150915,-0.002394169685820172,0.5748456688583194,0.8182458063000793,0.0026465767272244155,0.0,0.8182119337874205,-0.5747846250297444,-0.011515777805880065,0.0,-0.00790167741595077,0.008785424803795655,-0.9999301874656207,0.0,0.659622186192698,0.2580675648609888,0.30382291485247914,1.0,-0.009400000000000007,-0.012354285714285726,-0.004700000000000004,0.47100000000000036
0.46338124794254915,0.5346389521846495,-0.1240720151625761,-1.3754254289462768,0.07835196822853605,1.9013644378077232,0.15778827866695738,-0.005897776736172294,-0.04530650588057749,-5.43144477541704e-05,-0.08416254247147945,-0.0033939419994604377,0.028987262594040955,-0.0009258782304895361,0.5749063670279646,0.8182032119248065,0.002630598381693402,0.0,0.8181689914640051,-0.5748452117906165,-0.011542564246400705,0.0,-0.007932128974455666,0.00878833690470067,-0.9999299207766422,0.0,0.6594729940833528,0.25787812675033384,0.30381162522377225,1.0,-0.009700000000000007,-0.01274857142857144,-0.004850000000000004,0.4860000000000004
0.4632440136226497,0.5336700814237375,-0.12407552729520892,-1.376980187501462,0.07826570420719689,1.9019260227716208,0.1576842940483168,-0.009577437270306122,-0.05222088726220921,-0.0021347247837415376,-0.08853599054478553,-0.005175053473186002,0.029018536720047682,0.0007307693701661853,0.5749980369843593,0.8181388540770935,0.00261147750554321,0.0,0.8181043087571009,-0.5749368487918718,-0.011563165463950503,0.0,-0.00795899352974111,0.008785427589309308,-0.9999297328732988,0.0,0.6592900594391103,0.25763790675149006,0.30380377421395954,1.0,-0.010060000000000006,-0.013221714285714297,-0.005030000000000003,0.5040000000000003
0.4631277233160063,0.5327959414265371,-0.12408122921679453,-1.3783769243059316,0.07817523022468417,1.9024613715280265,0.15759384055745018,-0.0055830863611617655,-0.05301994715728017,-0.0008898111996265566,-0.08605960892754967,-0.007662059677208782,0.03344231672329843,-0.00566112161353485,0.575075412256005,0.8180844577944858,0.002614772436856018,0.0,0.8180500457656684,-0.5750143034652174,-0.011550772026448917,0.0,-0.007946128506463479,0.008781748772498807,-0.9999298675058442,0.0,0.6591311102099173,0.25742529531182196,0.30380192343398693,1.0,-0.010380000000000007,-0.013642285714285727,-0.005190000000000004,0.5200000000000004
0.4629945433294765,0.5318334255080842,-0.1240769671999206,-1.379903227019799,0.07809585209103595,1.903038442595667,0.1574695184766288,-0.00990812815018663,-0.05539853266781006,0.0003531028984737026,-0.09033610555113461,-0.010943314129281826,0.03923619901130644,-0.0008776623087005911,0.5751417740865538,0.8180377493651035,0.0026319603827006342,0.0,0.8180034356559206,-0.5750804620577604,-0.011558041172767186,0.0,-0.007941477893096849,0.008800634380113262,-0.9999297384133455,0.0,0.658953730389968,0.2571977562623642,0.30380384397304283,1.0,-0.010720000000000007,-0.01408914285714287,-0.005360000000000004,0.5370000000000004
0.462855842533411,0.5307870588837288,-0.12407915115903936,-1.3815954790999354,0.07799863310643686,1.9036455412745867,0.15733248682205406,-0.008756688382168705,-0.06108881459080135,-0.00026171998865337606,-0.09570067482180677,-0.0063778544433787335,0.035165116326246415,-0.004490581364743833,0.5752106973660074,0.8179893905434773,0.0025995182689549203,0.0,0.8179545809069539,-0.575149402373821,-0.011585138047272472,0.0,-0.00798156230160868,0.008790352453020303,-0.9999295096990473,0.0,0.6587492938641126,0.2569434340860159,0.3037884462361766,1.0,-0.011080000000000008,-0.014562285714285727,-0.005540000000000004,0.5550000000000004
0.4627218404841312,0.5298335971736156,-0.12408119193445429,-1.3831314330314735,0.0778974880364547,1.904191189342748,0.1572500192009091,-0.008309084492488896,-0.05992280926007062,-0.0005554022695134705,-0.09143209389519305,-0.009261499477299056,0.03828463476876878,-0.008164852064559403,0.5753104744519222,0.8179193383099919,0.0025614264887898397,0.0,0.8178840716327285,-0.5752493371077174,-0.011601397666222563,0.0,-0.008015702940021907,0.008769524362018166,-0.999929419483616,0.0,0.6585651374183057,0.2567048612976593,0.30377640248609716,1.0,-0.011400000000000007,-0.014982857142857155,-0.005700000000000004,0.5710000000000004
0.4625861953507573,0.5288393660944504,-0.12409040575969404,-1.3847002860685047,0.07779883080107779,1.9047611609742703,0.15712354552057736,-0.008373192523007023,-0.060054846431156425,-0.0007399080508577084,-0.09776343435927094,-0.006080024855233842,0.03702956568824285,-0.009178291706997275,0.5753829834089115,0.8178683613363928,0.0025520246064662036,0.0,0.8178330186003933,-0.575321919350338,-0.011601280240569976,0.0,-0.00802023877938729,0.008762477928483878,-0.9999294448862251,0.0,0.6583807192083961,0.2564597345439512,0.30377954845635474,1.0,-0.011720000000000008,-0.015403428571428585,-0.005860000000000004,0.5870000000000004
0.4624482639547988,0.5277418709508732,-0.12408897630524607,-1.3864200429604248,0.0776897775342294,1.9054232800807107,0.15698905162845359,-0.0030797735199194296,-0.06889051771202534,0.00035825228387155033,-0.10406901768253604,-0.0012883192856567834,0.03988625368574575,-0.009190890561105714,0.5754486885896561,0.8178220422414049,0.0025808769345179233,0.0,0.8177871268284116,-0.5753875764294751,-0.011580111638279829,0.0,-0.007985619772912955,0.008774536925973395,-0.9999296162123499,0.0,0.6581803868980297,0.25620731543571296,0.30379098130237353,1.0,-0.012060000000000008,-0.015850285714285726,-0.006030000000000004,0.6040000000000004
0.46230547443588244,0.5266024412945951,-0.12409182871328168,-1.3881748351707988,0.07758078961715596,1.9060965635272176,0.15687203665143404,-0.0077395926298854095,-0.06953598761891262,-0.00020107180794116497,-0.10753767922122058,-0.002332978097003338,0.04544069950701777,-0.010183428244398428,0.5755373193326071,0.8177595286658161,0.002625687130526872,0.0,0.817725248863053,-0.5754761064279206,-0.01155054992747462,0.0,-0.007934704825604988,0.008795032535953026,-0.9999298414699015,0.0,0.6579768744769721,0.25594639339355996,0.3038160731611854,1.0,-0.012400000000000008,-0.01629714285714287,-0.006200000000000004,0.6210000000000004
0.46214247510303175,0.52536996346942,-0.12410387328262161,-1.390102314980105,0.0774659808319879,1.906805438183956,0.15673189440890067,-0.008104606185734008,-0.06575913254760857,-0.00012389058250336058,-0.10833649248352968,-0.0007219094340254638,0.04778943803923494,-0.005042703401395305,0.5756282421663412,0.8176955344670895,0.0026242397521973647,0.0,0.8176612101132035,-0.5755669941235158,-0.011555416610426354,0.0,-0.007938539616708373,0.0087975325821322,-0.9999297890398207,0.0,0.6577579858074828,0.25567282542839903,0.30381916398973097,1.0,-0.01274000000000001,-0.016744000000000016,-0.006370000000000005,0.6380000000000005
0.4619815015252175,0.5241285720394019,-0.12410933547769872,-1.3920512662408453,0.07733759108318142,1.907499070656637,0.15658711339215117,-0.007902697458456153,-0.071429319381911,-0.0012016427008208505,-0.1072252223174356,-0.0070859190131804944,0.03538713005517373,-0.009264088349274108,0.5757244829069974,0.8176278071761762,0.002614500900059066,0.0,0.8175934545752139,-0.5756633637094641,-0.011549096054718065,0.0,-0.007937942529528563,0.008786865351401732,-0.9999298875749711,0.0,0.6575122015085672,0.2553513209922497,0.3038330999145373,1.0,-0.01312000000000001,-0.017243428571428587,-0.006560000000000005,0.6570000000000005
0.46182747617896636,0.522953793092953,-0.12410569911359129,-1.3939631491396536,0.07722540692986553,1.9082069825385355,0.15644465353841827,-0.012695272196602724,-0.07058961005327165,0.0007302350885243146,-0.11745266719052629,-0.0028575123171783344,0.05063132484118425,-0.00558152343736095,0.5758037586011046,0.8175720599117617,0.0025894659078438643,0.0,0.8175373117946735,-0.5757426347103292,-0.011571918663548144,0.0,-0.007970164904986143,0.008780308306123155,-0.9999296888568902,0.0,0.6572794221423156,0.255070563688357,0.3038101765298145,1.0,-0.01346000000000001,-0.01769028571428573,-0.006730000000000005,0.6740000000000005
0.4616737042081651,0.5217176017151002,-0.1241081822429201,-1.395909096754582,0.07709771494734359,1.9089692208457598,0.1563036477787373,-0.0034153635489339185,-0.07248369605883853,0.0007704596913644498,-0.1145342614891187,-0.005742011221504067,0.04249175900198079,-0.00807133018140096,0.5758858133831203,0.8175141523782141,0.0026244059518463515,0.0,0.8174799833590946,-0.575824702494588,-0.011538444671691838,0.0,-0.007921796558225835,0.008790395171122886,-0.9999299845949343,0.0,0.6570526228456713,0.25478436895432627,0.303818741637751,1.0,-0.01380000000000001,-0.018137142857142872,-0.006900000000000005,0.6910000000000005
0.461507878260602,0.520472593548753,-0.1241163896993697,-1.3979245537261722,0.07697156143133624,1.9097338524256657,0.15615826361334506,-0.008082160062020671,-0.07494919495253012,-0.0004883265313675185,-0.12271073934496855,-0.011244357556644232,0.04545198385476194,-0.004396919019285247,0.5759819980115164,0.8174464294256896,0.002611491348018492,0.0,0.8174121616494454,-0.5759209937774026,-0.011537496055826529,0.0,-0.007927424890451007,0.008780223864715025,-0.9999300293538003,0.0,0.6568137654103239,0.2544792512578429,0.30380049334064496,1.0,-0.01414000000000001,-0.018584000000000017,-0.007070000000000005,0.7080000000000005
0.4613534499976694,0.5192388614450625,-0.12412173576170166,-1.399854573340094,0.07684610977451416,1.9104278157175953,0.1560168468063035,-0.010243790686474897,-0.07762178256388516,-0.000486660786318369,-0.12117843015642311,-0.014514563761254318,0.04209650114007438,-0.00578976478555107,0.5760650508878344,0.8173879307793434,0.002602818293366742,0.0,0.8173535966886294,-0.5760041159419834,-0.01153704031646053,0.0,-0.007931156160894126,0.008773677531087418,-0.9999300572262702,0.0,0.6565763820482771,0.2541886780755693,0.3038083726492761,1.0,-0.014460000000000011,-0.019004571428571447,-0.0072300000000000055,0.7240000000000005
0.4611758472080313,0.5178929905855584,-0.12412593179796892,-1.4019374175124129,0.07671763345450133,1.9111813255595853,0.15585422032858207,-0.009694469494497506,-0.08165988053283713,0.0005775917118748892,-0.12414517515486659,-0.005251579539583232,0.05138158933656884,-0.011873344007734777,0.576155925767515,0.8173238415003036,0.0026142339934860648,0.0,0.8172896461128002,-0.576094931663211,-0.011533038193899134,0.0,-0.007920332617924852,0.00878158374560968,-0.9999300736142205,0.0,0.6563228224732501,0.2538704789560069,0.30382697591116115,1.0,-0.014800000000000011,-0.019451428571428588,-0.0074000000000000055,0.7410000000000005
0.46099641835008676,0.5165488241773849,-0.124129164546152,-1.4040614046543876,0.07657688046029729,1.911954888247568,0.1557005472693945,-0.006567946081445611,-0.07615697844178056,-7.532931195090956e-05,-0.12329356403458404,-0.00881332314633209,0.046770276148160754,-0.008832958684957565,0.5762534849721418,0.8172551059187095,0.002599963166866631,0.0,0.8172207963049797,-0.5761926040050497,-0.011532565965273817,0.0,-0.007927121493683353,0.00877059415886633,-0.9999301162695947,0.0,0.6560636351563711,0.2535461870452608,0.30382610786678027,1.0,-0.015140000000000011,-0.019898285714285733,-0.0075700000000000055,0.7580000000000006
0.4608216771632884,0.515246675996567,-0.12413594412621519,-1.4060936310305256,0.07645088258935541,1.9127339662337335,0.15553328340216566,-0.00915524213383157,-0.07735893200699835,-0.0007088199532266795,-0.13050353925289307,-0.013601080938830916,0.04713971145641405,-0.014603464223036563,0.5763459113080766,0.8171898543104119,0.0026228670951640954,0.0,0.8171559224951811,-0.5762850337650662,-0.011511085554995793,0.0,-0.007895375285584094,0.008777827475449973,-0.9999303039681869,0.0,0.6558077480504078,0.2532137267805316,0.30383223451804087,1.0,-0.015480000000000011,-0.020345142857142874,-0.0077400000000000056,0.7750000000000006
0.46062704103281915,0.513763693209771,-0.12413614149394901,-1.4084699161446461,0.07631063664429233,1.913587550671861,0.15535895721392964,-0.011216762974285513,-0.08307333423065742,-0.00016842640776190167,-0.13919295916773455,-0.011596085238397263,0.04582857503077082,-0.015675729679540274,0.576441499475046,0.8171224943691927,0.0026026486580840646,0.0,0.81708817975307,-0.576380542194923,-0.01153793690871929,0.0,-0.007927944379534146,0.008777708105162568,-0.9999300473224791,0.0,0.6555263461923441,0.2528810027734845,0.3038220587539413,1.0,-0.01582000000000001,-0.02079200000000002,-0.007910000000000006,0.7920000000000006
0.46044491743830446,0.5124618091114767,-0.12414154022308364,-1.4106072729645356,0.07619356237818886,1.914330123942286,0.15518609705237782,-0.011788824254623947,-0.08171283361490582,-0.0011465903587262113,-0.13377450584188783,-0.011079790752645018,0.04515801724126279,-0.007000604672790156,0.5765332920992512,0.8170579653002823,0.0025281103161175506,0.0,0.8170225019711042,-0.5764723733473405,-0.0116009026101498,0.0,-0.008021378564673554,0.008753998130476628,-0.9999295100169081,0.0,0.6552541582680693,0.2525534477645549,0.30378143470936647,1.0,-0.016140000000000012,-0.02121257142857145,-0.008070000000000006,0.8080000000000006
0.4602546242017293,0.5110251030277374,-0.12413941949111175,-1.4129105193263065,0.07604970245849825,1.9151848109223357,0.15500702550723966,-0.011463726814479673,-0.08322544847388585,0.0007675607825289995,-0.1334188444075453,-0.006311241707661905,0.04865423950731171,-0.0070754589607229515,0.5766225258636989,0.8169950375769134,0.002513591548733901,0.0,0.8169593751581955,-0.5765616340428915,-0.011610701620907469,0.0,-0.008036799889715451,0.008748662715621525,-0.9999294328842516,0.0,0.6549693907859196,0.25221032754918643,0.3037652955911362,1.0,-0.016480000000000012,-0.02165942857142859,-0.008240000000000006,0.8250000000000006
0.4600589797020783,0.5095581587189383,-0.12414449817604238,-1.415245198835303,0.07589651048612568,1.9160778450869569,0.15482100416940534,-0.009836678046969204,-0.08709194869206978,-0.004045058546670827,-0.13942636392606653,-0.00968066962241121,0.04756887823568699,-0.008416032066000494,0.5767143688697657,0.8169301759036606,0.002524151019734625,0.0,0.8168947685992062,-0.5766535582446733,-0.011591276901824977,0.0,-0.008013857502869093,0.008746990112671063,-0.9999296316500939,0.0,0.6546881461548316,0.25185730936825684,0.30375842462786645,1.0,-0.016820000000000012,-0.022106285714285735,-0.008410000000000006,0.8420000000000006
0.45986160816925087,0.5081532124988276,-0.12414229478259985,-1.4174870752893531,0.07575747947541202,1.9168776662952989,0.1546435126080926,-0.016035532537874358,-0.08831112934386981,-0.0010589466200780942,-0.14425414306927592,-0.01281906214000611,0.046366614264071425,-0.019720337294866247,0.5768077218437448,0.8168643681523825,0.002490575364510167,0.0,0.8168284616821904,-0.5767469455530935,-0.011617739982099366,0.0,-0.00805384115708474,0.008735743165870322,-0.999929408725414,0.0,0.6544059068920698,0.25151371122641614,0.30374356556816695,1.0,-0.017140000000000013,-0.022526857142857164,-0.008570000000000006,0.8580000000000007
0.459658454552462,0.5067227056657677,-0.12414785127032783,-1.4197420183120721,0.0756130565652078,1.9176872586570886,0.15447668570081297,-0.013766502946816308,-0.08976702632078937,-0.0003844637658549575,-0.1387659242989079,-0.00862273530181474,0.051957450168340295,-0.00675750686566234,0.576918823447657,0.8167859622830076,0.0024718152036128926,0.0,0.8167498300362965,-0.5768581174420186,-0.011626451657290917,0.0,-0.008070591223706625,0.008726541471392332,-0.9999293540201968,0.0,0.6541257842322906,0.25116045243971663,0.30374097249276405,1.0,-0.017460000000000014,-0.022947428571428594,-0.008730000000000007,0.8740000000000007
0.4594510348018362,0.5052141090067129,-0.12415072176579653,-1.4220582200603415,0.0754695324852361,1.9185628501270022,0.15427424004132675,-0.010493430665070927,-0.09420001737921023,0.00047508579019648527,-0.1438328703973244,-0.011579255278302624,0.055711191384005584,-0.01564275047626557,0.577021869215531,0.8167129961529498,0.002528094755776463,0.0,0.8166776249296422,-0.576960990366306,-0.01159393962455654,0.0,-0.008010463340197338,0.008754763690808479,-0.9999295908161698,0.0,0.6538307141152416,0.2507836386719743,0.3037658334614582,1.0,-0.017800000000000014,-0.023394285714285736,-0.008900000000000007,0.8910000000000007
0.4592085954538068,0.5034891756883167,-0.12415677826047991,-1.4246692202659377,0.07530312750900078,1.9195753300990848,0.15409418292282376,-0.017329651405132717,-0.09228475482658079,-0.0009671640968565749,-0.1408396707580771,-0.007298627778507922,0.04796312086540713,-0.010715255384591131,0.5771502672391449,0.816621956633955,0.0026259989190967076,0.0,0.8165879623326013,-0.5770891645349914,-0.011530084605233864,0.0,-0.00790043683608077,0.008799119927958704,-0.9999300768485228,0.0,0.653537720646048,0.25039701641842893,0.3038190521148369,1.0,-0.018140000000000014,-0.02384114285714288,-0.009070000000000007,0.9080000000000007
0.45898071824833153,0.5018078390203065,-0.12416063908321301,-1.4271579176233427,0.07514248715836394,1.9205002749338198,0.15389232244541035,-0.01377399165903727,-0.10111160344966505,-0.00023111534322037855,-0.15033509524217195,-0.0018098487416060244,0.05319818793166122,-0.015606209667219081,0.5772580066084178,0.8165454894635821,0.002721092494465481,0.0,0.8165127915143163,-0.57719665815032,-0.011472838132277986,0.0,-0.007797638862645395,0.008844764788134687,-0.9999304810655643,0.0,0.6532348291829924,0.2500095706571125,0.3038885476362394,1.0,-0.018480000000000014,-0.02428800000000002,-0.009240000000000007,0.9250000000000007
0.4587569673931663,0.5001868566687417,-0.12415895045532847,-1.4295937800210963,0.07499029143120871,1.9213652579681668,0.15369091678445435,-0.017841635313180025,-0.10491435716886734,0.0008028093792045648,-0.1484364582555691,-0.006841838395003215,0.05550697675274569,-0.015546343118020648,0.5773577787712452,0.8164748018643925,0.0027640756217904164,0.0,0.8164426026219711,-0.577296217726525,-0.011458644061115197,0.0,-0.007760153144459048,0.00887261720272986,-0.9999305259302509,0.0,0.6529272805929973,0.24963099756221938,0.30393509774583727,1.0,-0.018800000000000015,-0.02470857142857145,-0.009400000000000007,0.9410000000000007
0.4585143414956285,0.4985181752261262,-0.1241640871815049,-1.4322058805119746,0.074819514488751,1.9223342619266395,0.15348393641973393,-0.015552392591855587,-0.09500520433810077,0.00018494649528383463,-0.15494514040733728,-0.007474345036926719,0.05406551587886931,-0.011314951052698622,0.5774770582132969,0.816390399467839,0.0027766518087720257,0.0,0.8163584370705048,-0.5774155281328182,-0.011443644354380215,0.0,-0.0077393485216790125,0.008875356086012323,-0.9999306628655843,0.0,0.6526054471116958,0.24921997131837148,0.30393975551247704,1.0,-0.019140000000000015,-0.025155428571428596,-0.009570000000000007,0.9580000000000007
0.4582554997570604,0.4968405447162907,-0.12415931557351505,-1.4348608994553522,0.07465022241943164,1.9233023193328083,0.15328688974893537,-0.01810140803447962,-0.09380064084825768,0.0011229044857793175,-0.16148274945466506,-0.0018153745225753556,0.05590897177531769,-0.011749043963004031,0.5776126358144498,0.8162945236088559,0.0027641589829694177,0.0,0.8162623737110497,-0.5775510976961327,-0.011454855512089988,0.0,-0.007754242061617678,0.00887291908915315,-0.9999305691081191,0.0,0.6522738137678218,0.24879952065118335,0.3039292279274315,1.0,-0.019480000000000015,-0.025602285714285737,-0.009740000000000007,0.9750000000000008
0.4579903480194373,0.4951676602079364,-0.12415899697071794,-1.4375637789104916,0.07449104494112306,1.9242353137839596,0.15306338637044936,-0.020085121373040565,-0.09479392591537494,0.0035620025518292345,-0.15553902524509797,-0.008921067019322678,0.057266542574406575,-0.011194610713312615,0.5777395320069574,0.8162049812423979,0.0026848934218951263,0.0,0.8161716130050933,-0.5776780106730028,-0.011522196437944235,0.0,-0.007853621443223602,0.008848332530465422,-0.9999300113716243,0.0,0.6519242345535634,0.24836607461808197,0.3038891463853791,1.0,-0.019820000000000015,-0.026049142857142882,-0.009910000000000007,0.9920000000000008
0.45771149337056294,0.49347033841013377,-0.12416771594768286,-1.4403301334305783,0.07431638040555873,1.9252259974742514,0.15284081261268287,-0.015003555681331252,-0.10498027588752445,0.002816217278185218,-0.16759540696912953,-0.012550091987320301,0.06231362351487131,-0.014949210759526902,0.5778795906841165,0.816106078771436,0.002606485042552585,0.0,0.8160716967408317,-0.5778183109610988,-0.011564263824872398,0.0,-0.007931743929811219,0.008810000336692742,-0.9999297331974379,0.0,0.6516001136773657,0.24793533672156523,0.3038378710009382,1.0,-0.02174399999999999,-0.028577828571428564,-0.01790681347799989,1.0079999999999998
0.45746667304066485,0.4915247927012647,-0.12425421090021051,-1.44332345883274,0.07414393383795687,1.9263494626047413,0.15274809569139147,-0.01920041923002302,-0.12217886003637453,-0.00117754883140075,-0.19343401251532621,-0.013424139956815975,0.080991190034327,-0.0029526630012415163,0.5781730049855212,0.8158980661143274,0.0026587437111145838,0.0,0.815864599943769,-0.5781117843802805,-0.01150939704980516,0.0,-0.007853594930074814,0.008823767436945004,-0.9999302286534262,0.0,0.6512139761311541,0.24742165482906836,0.3038696748197677,1.0,-0.026027999999999517,-0.03420822857142794,-0.037133360495997775,1.024999999999998
0.4571277963312716,0.4890438565937897,-0.12433248786552313,-1.4473429289073654,0.07393294570125421,1.927807861848141,0.1527931473300722,-0.01525049217207673,-0.14384456746656651,-0.004056119564703196,-0.23510101631078856,-0.012264026130053611,0.08869633556603235,0.004513012867552705,0.5786862568406214,0.8155343535606238,0.0025848031751239363,0.0,0.8154998747706049,-0.5786251523725822,-0.011560025611652477,0.0,-0.007932118601147065,0.008797703998873363,-0.9999298384881038,0.0,0.6507043081599164,0.2467762688195059,0.30381075475430097,1.0,-0.030563999999999016,-0.040169828571427285,-0.05749088086799554,1.042999999999996
0.45675985017511506,0.4864417650021535,-0.12442606616933521,-1.4514423041957474,0.07371222708197042,1.9293492573495121,0.15309860310870607,-0.026599858391567716,-0.16503521288734224,-0.012925809981957812,-0.2655482852994171,-0.014438130485043492,0.10445702540562767,0.0338159141185923,0.5794466787835084,0.814994168718556,0.002607355503070276,0.0,0.8149601269834985,-0.5793855658832174,-0.011537086912739164,0.0,-0.00789214636255009,0.008810187089699023,-0.999930044867758,0.0,0.6502031905272234,0.24609928053995073,0.3038040406717034,1.0,-0.03459599999999857,-0.045469028571426706,-0.07558645453199356,1.0589999999999942
0.45631024763617883,0.4833294342164835,-0.12454922310202163,-1.45628676329797,0.07344398054265625,1.9311400211397278,0.15374587696809522,-0.02564592946649037,-0.18131159178779147,-0.003923757344063018,-0.29963205678963883,-0.014884492300810131,0.11057088257901859,0.05149583757408583,0.5805951710696282,0.8141763106571676,0.0026323746922839114,0.0,0.8141428552920575,-0.5805341273582887,-0.011501523831848062,0.0,-0.0078362357673058,0.00882102807701278,-0.9999303890134872,0.0,0.6496088277997794,0.24527987362690282,0.303817548893165,1.0,-0.0388799999999981,-0.05109942857142609,-0.09481300154999144,1.0759999999999923
0.4557809770527475,0.47983532827780934,-0.1246628226446856,-1.4617999553485597,0.07313574620962893,1.933094714629527,0.15461436779092755,-0.029721649920166814,-0.21019881632524826,-0.008448648784303445,-0.334938593327679,-0.01786020443640727,0.11813189039205449,0.0515174395894963,0.5820002778334402,0.8131727342576046,0.002554948731009126,0.0,0.813138373524115,-0.5819394168856423,-0.011543287164577908,0.0,-0.007900013110977211,0.008795892540653799,-0.9999301085912251,0.0,0.6489079783288176,0.24434548599675668,0.3037890664754409,1.0,-0.043163999999997635,-0.056729828571425465,-0.11403954856798933,1.0929999999999904
0.45519384673570135,0.4759434010861391,-0.12476908512237705,-1.4677817646634863,0.07279839875171708,1.9352862416695882,0.15576437018903053,-0.03485225730772637,-0.23620163991053797,-0.005579977479166934,-0.35549750132355745,-0.0310686861912361,0.12890617727156475,0.07426252721573652,0.5836869835055676,0.811962685061831,0.0026172990966232762,0.0,0.8119292940182701,-0.5836258914477875,-0.01150596575595473,0.0,-0.007815041794753896,0.008841114471017916,-0.999930377484681,0.0,0.6481578118206303,0.24333941129805434,0.30383005366954347,1.0,-0.04744799999999716,-0.06236022857142484,-0.1332660955859872,1.1099999999999886
0.45460364122584146,0.4722513716333994,-0.12485013525606035,-1.4734920605281654,0.0724648989624259,1.9373773096264386,0.15693202163088601,-0.043250197041855884,-0.24600427933651323,-0.005275120087240834,-0.38636537337305166,-0.020443095991368794,0.14010239537305305,0.07932136485439281,0.5853554031492697,0.8107606039834602,0.0026536641722291207,0.0,0.8107278376585311,-0.5852941610926562,-0.011483254659484306,0.0,-0.007757145687005085,0.008873355416479822,-0.9999305427150647,0.0,0.6474382760046592,0.24237025891960667,0.3038491307898608,1.0,-0.05122799999999674,-0.0673282285714243,-0.15023069589598534,1.124999999999987
0.4538941830225983,0.4677104133715249,-0.1249290613007226,-1.4803713396417084,0.0720761788162412,1.939957712785797,0.15845558059027115,-0.04285769155049424,-0.27106587618909816,-0.0017461393663654717,-0.41627382074262864,-0.013641168412937369,0.16256569499732657,0.09716860093568089,0.5874430933613232,0.8092485982373142,0.0028399320819355207,0.0,0.8092183240486363,-0.5873811250996878,-0.01139582387323237,0.0,-0.007554077433077733,0.008992696244517512,-0.9999310312858526,0.0,0.6465733084991077,0.24122290445559597,0.3039366034693,1.0,-0.05551199999999627,-0.07295862857142368,-0.16945724291398323,1.141999999999985
0.45312106300176846,0.4628290219891698,-0.12498702783191326,-1.4878423901719369,0.0716208490191136,1.942654761523818,0.16037398060606484,-0.04514254449756173,-0.2883554861813254,-0.0016274971431612774,-0.45521487908470604,-0.02262199011320154,0.16244792827843024,0.11456255113990231,0.5898871632796632,0.8074685625170304,0.002898628255094989,0.0,0.8074391587086425,-0.5898248472955891,-0.011375473520835592,0.0,-0.007475798216173224,0.00905088602347437,-0.9999310945776321,0.0,0.6455982457069637,0.23998012907206415,0.3039815926378378,1.0,-0.0597959999999958,-0.07858902857142307,-0.1886837899319811,1.1589999999999832
0.4522761709893544,0.4576428807376529,-0.12505363989332774,-1.4958801023511328,0.07110759024544498,1.9454356434550306,0.1624512929213212,-0.04813217172975478,-0.29985485006441037,-0.005440260617129668,-0.4842070652307022,-0.02769355652482531,0.17598398399978257,0.1382278546015898,0.5925231747766658,0.8055366110922305,0.0027932854908514536,0.0,0.8055059900785161,-0.592460989313797,-0.011437787817342927,0.0,-0.007558789681553102,0.009027336349032772,-0.9999306835461103,0.0,0.6445175798938659,0.23862148911470807,0.30396846516664666,1.0,-0.06407999999999532,-0.08421942857142244,-0.20791033694997899,1.1759999999999813
0.4514133447598887,0.4525133865060584,-0.12513253054248394,-1.5038567040381143,0.0705952683778006,1.9482856483239237,0.16457331100835398,-0.056925910268340395,-0.32055463906776716,-0.0024707721295926686,-0.4923835751584564,-0.03329554029525338,0.17718340009661396,0.13659636979061263,0.5952055214375882,0.8035568497387131,0.0027428797663475403,0.0,0.8035258879542546,-0.5951435036467332,-0.011450081031423753,0.0,-0.00756852968628785,0.009019300000091324,-0.9999306823904828,0.0,0.643460282466707,0.23725682370191306,0.30394563167885047,1.0,-0.06811199999999488,-0.08951862857142186,-0.226005910613977,1.1919999999999795
0.4504340692277078,0.4466236216448441,-0.12521365015723324,-1.5126493167458674,0.06999763701490287,1.9516244603409059,0.16713943677765344,-0.0584184926688974,-0.34955087870903234,-0.005221520153964185,-0.5242669368481524,-0.03190614696524608,0.18784205601828433,0.150945496819927,0.5983403932022604,0.8012242402539851,0.0030393409149206243,0.0,0.8011979001491287,-0.5982781559300903,-0.011221400747043673,0.0,-0.0071726251055738155,0.00914950705050109,-0.9999324177012303,0.0,0.6423345759751204,0.23575044497063427,0.3040905511933259,1.0,-0.07239599999999441,-0.09514902857142124,-0.24523245763197488,1.2089999999999776
0.4493706034040723,0.44055926601767337,-0.12529836162376257,-1.5221645911380461,0.0693769943226863,1.9548906682132103,0.16993508305031482,-0.06578795623908563,-0.35604491908178726,-0.003995757140516478,-0.5656093233034614,-0.03761369666514897,0.18654248590764805,0.16666823386889626,0.6017386328444915,0.7986760406343104,0.0028189998850828395,0.0,0.7986470766707835,-0.6016767767608714,-0.011342404201421694,0.0,-0.0073629214733741954,0.00907672356974537,-0.9999316979057198,0.0,0.6410219991785263,0.2341004261874843,0.3039975029809462,1.0,-0.07667999999999393,-0.10077942857142062,-0.2644590046499728,1.2259999999999758
0.4482891804259201,0.4344791290073453,-0.12535910285809937,-1.531426766403964,0.06878558479335739,1.9581520432783157,0.17278776438001514,-0.06619498603818401,-0.3928692183918829,-0.0005698354563147581,-0.581185384814469,-0.03353120630258775,0.2197692954913544,0.18895817595315137,0.6053824452760405,0.7959174675462805,0.0028682237580108707,0.0,0.795889237557675,-0.6053200997719607,-0.011342189080352772,0.0,-0.007291393299813542,0.009149326733046775,-0.9999315603600477,0.0,0.6396778483674307,0.2323900137185514,0.30403514754942523,1.0,-0.08096399999999347,-0.10640982857142,-0.28368555166797066,1.242999999999974
0.4469512591607501,0.42740681293189625,-0.12543105389940976,-1.5422487997828493,0.06805432985154646,1.9620911764250701,0.17622224950816773,-0.07625635224843376,-0.39204973605051446,-0.0017781721741504499,-0.6084715064684059,-0.03953560230645088,0.21779927672021993,0.1963595774064571,0.6090321494933554,0.7931280021663252,0.002925741677739027,0.0,0.7931010237797288,-0.6089698167379021,-0.01128163476452552,0.0,-0.007166230040778099,0.009191463954531312,-0.9999320787620403,0.0,0.6383839863817528,0.2306752707287854,0.30403709090883435,1.0,-0.08499599999999302,-0.11170902857141943,-0.30178112533196866,1.2589999999999721
0.4456855643431545,0.42081550712282434,-0.12557013002697304,-1.552413682725412,0.06732055393986705,1.9655018426218678,0.1795023174051763,-0.08567442386986805,-0.40870411658690925,-0.0075859750267745175,-0.6415368753969696,-0.04776902574097266,0.21270530830551634,0.22075741711075117,0.6131809921510941,0.7899257297762416,0.002675668753857688,0.0,0.7898963614808879,-0.613119779944425,-0.011341096127044668,0.0,-0.0073182590962143634,0.009067820172100047,-0.9999321065558037,0.0,0.6368753204717447,0.22868720182965943,0.3039765641616195,1.0,-0.08927999999999255,-0.1173394285714188,-0.3210076723499666,1.2759999999999703
0.44425376494698926,0.41344087626630077,-0.1256972798184293,-1.5634041482158159,0.0665548949489874,1.969538933396578,0.18330839591119982,-0.08684769127441444,-0.435939299579303,-0.005245500251510861,-0.6543456718340047,-0.04434686363756809,0.24051082852382175,0.21067889972962045,0.6176387473274509,0.7864442037642984,0.002939228899605615,0.0,0.7864190685469594,-0.6175773974763484,-0.011133447502066456,0.0,-0.006940767552791993,0.009188091121312456,-0.9999337001658284,0.0,0.6353979975136282,0.22666409520433983,0.3040971300944719,1.0,-0.09356399999999207,-0.12296982857141818,-0.34023421936796444,1.2929999999999684
0.4427823242253562,0.4063379427752323,-0.12577659736865177,-1.5742571184027376,0.06585012836751812,1.973258668647493,0.18698642040696611,-0.09325850344475566,-0.4459454974225519,-0.004674014696327563,-0.6938671887502085,-0.04747349846626452,0.23360514750986103,0.23763650330418212,0.6222674078766943,0.7827872709230715,0.0028475386630739154,0.0,0.7827609453820668,-0.6222056109517985,-0.011235078365575375,0.0,-0.007023057014439338,0.00922034266792611,-0.9999328287196384,0.0,0.6337589119918055,0.22451989713015097,0.30405492820663804,1.0,-0.09784799999999161,-0.12860022857141756,-0.3594607663859623,1.3099999999999665
0.4411305659213873,0.39845783471817725,-0.1259421445341712,-1.5861015054850272,0.06503093178471227,1.9773678495222586,0.1912073702437065,-0.09574476950757677,-0.47363703440660565,-0.005357181494834781,-0.6878827655819535,-0.05488822740559452,0.25080004493829156,0.24424113549084794,0.6269176256419096,0.7790678506265192,0.002884732378346532,0.0,0.7790426835416437,-0.6268560104834642,-0.011170776257622262,0.0,-0.006894613561528873,0.00925066428528544,-0.9999334425421115,0.0,0.6321995472550466,0.22238180446291625,0.30409428452503867,1.0,-0.10187999999999116,-0.13389942857141698,-0.37755634004996036,1.3259999999999648
0.4393786119220105,0.39035181631288934,-0.12602165991784547,-1.598281490040444,0.06414822482732713,1.9816369645792653,0.19569536334183196,-0.10390059671302096,-0.4740101524919612,-0.00454864795241039,-0.7222209850757558,-0.05465495283257226,0.23604425338062116,0.269729968377117,0.6320406057802413,0.7749172400332777,0.0029479900544688116,0.0,0.7748935319758424,-0.6319790324182318,-0.011102413563169648,0.0,-0.006740513549650939,0.009301733706823495,-0.9999340194368499,0.0,0.6304687855713622,0.22007181243252544,0.3041180324710817,1.0,-0.10616399999999068,-0.13952982857141635,-0.3967828870679582,1.342999999999963
0.43752826458608063,0.38194755187808577,-0.12613136690478424,-1.6109029906515653,0.0632033178416224,1.9858168100714073,0.2002911531043702,-0.10642932324893634,-0.5163360487059092,-0.013384979215627034,-0.7409954142640705,-0.047931560697952895,0.25831290902570364,0.27161128657148453,0.6373019907566325,0.7705965785855049,0.0027986695330145086,0.0,0.7705716555977477,-0.6372409243959445,-0.011138885292384569,0.0,-0.006800291061946684,0.009255587385910716,-0.9999340428966376,0.0,0.6286121579940216,0.21762872384568865,0.30410772460690416,1.0,-0.11044799999999022,-0.14516022857141575,-0.4160094340859561,1.359999999999961
0.43561783903882384,0.3732958467903267,-0.1262106896083642,-1.6238163116384627,0.062268505178749635,1.990302565315255,0.20523631063523287,-0.11529292147292355,-0.5054350702918806,-0.004225594021144503,-0.7420867540130934,-0.05048802804787426,0.26055994434408064,0.2964396205693205,0.6428294053912744,0.765991351031465,0.0028900883204348088,0.0,0.7659681093864545,-0.6427680934607297,-0.011080628727983731,0.0,-0.00663013686064734,0.009336849226615068,-0.9999344301161596,0.0,0.6267215259179991,0.21516482031377523,0.30413140450196424,1.0,-0.11473199999998974,-0.15079062857141512,-0.435235981103954,1.3769999999999591
0.4335366307377695,0.36436708130275886,-0.12632105461610318,-1.6370928009719796,0.06124310159771645,1.9947223047876357,0.210279069049894,-0.11925628022372156,-0.5307431519363428,-0.006272792298889976,-0.7760030498853994,-0.0585115655224492,0.2762535705842925,0.3063895811843462,0.6485213607574107,0.7611785792647454,0.0028217035755168885,0.0,0.7611552892813638,-0.6484605170086035,-0.011060306557510426,0.0,-0.00658923193538713,0.009320779114240715,-0.9999348504273692,0.0,0.6247417287646584,0.2125304533931256,0.3041421484330014,1.0,-0.11901599999998927,-0.15642102857141452,-0.45446252812195187,1.3939999999999573
0.43139440576628446,0.3552369078590129,-0.1264163665007245,-1.6506870157574771,0.060176997726881634,1.9992957482610094,0.21568816444423689,-0.12742083133789026,-0.5416114556316098,-0.004668124813219054,-0.8098178602705587,-0.06685052764128166,0.26510574428631123,0.3138360336662294,0.6544754641886632,0.7560654100057845,0.0027765930611904494,0.0,0.7560424407195661,-0.6544151117921325,-0.011019808986574488,0.0,-0.006514777370731917,0.009311596073705297,-0.9999354238421448,0.0,0.6226895832479865,0.2098480015210181,0.30412796150476756,1.0,-0.12329999999998881,-0.16205142857141389,-0.4736890751399498,1.4109999999999554
0.4290556229051538,0.3458091375118909,-0.12651735627576513,-1.664597192430959,0.05915731762475529,2.003858301143808,0.22126079187456657,-0.1388800336848632,-0.5680019625335286,-0.008317691382253158,-0.7905907964776523,-0.06238574868175005,0.2817597487165054,0.33835746516045107,0.6606746970393595,0.7506544790956377,0.0027467447671031056,0.0,0.7506314191680377,-0.6606139038135223,-0.011067499593135724,0.0,-0.0064934553777389326,0.009373990341663307,-0.9999349795573369,0.0,0.6205610479455915,0.2070268376593041,0.3041370744321193,1.0,-0.12758399999998835,-0.16768182857141326,-0.49291562215794765,1.4279999999999535
0.4263631689693334,0.3350115874563011,-0.12662483187204582,-1.6804766594289517,0.057906727159083654,2.009159559947042,0.22778442251151898,-0.14692763056140423,-0.5773801737573782,-0.0030330400662534414,-0.8199421627602481,-0.07600333736520817,0.2751753155124998,0.34924248313032574,0.6677845564997078,0.7443364663795629,0.002785286211962685,0.0,0.744314751144515,-0.6677238965512189,-0.011004367512213132,0.0,-0.006331271762921364,0.009421857692383226,-0.9999355697221138,0.0,0.6181135179137557,0.2038061357157334,0.304150130410337,1.0,-0.13237199999998786,-0.17397462857141266,-0.5144041158839456,1.4469999999999517
0.42398265922090606,0.3256096993988364,-0.12664516355286431,-1.6940963842808865,0.056770805970373844,2.0135993280030715,0.2334763462369912,-0.14621533061237213,-0.592658268634212,-0.004607449653987996,-0.846906926649953,-0.07690633192816307,0.28866948402754794,0.3636476426685613,0.6738722040966356,0.7388294377340847,0.0028392577704311516,0.0,0.7388091813490885,-0.6738117177531686,-0.010932038877642884,0.0,-0.006163905656102253,0.009464649066582148,-0.999936211308056,0.0,0.6159619554891949,0.2010428837804812,0.304217108891201,1.0,-0.13640399999998742,-0.17927382857141205,-0.5324996895479436,1.46299999999995
0.4213325425173749,0.3155025209029755,-0.12668032520354433,-1.7089260680631235,0.05557232274205103,2.018355086080506,0.23975015366351307,-0.15234358358751673,-0.60058716937752,-0.006774625683221343,-0.8846011664889941,-0.07580788871380514,0.2714380676683637,0.3700355310391054,0.6805523717681893,0.7326812112437039,0.0027310936197497476,0.0,0.7326601875398239,-0.6804919179779415,-0.010979347067144388,0.0,-0.006185993271879131,0.009473166638459082,-0.9999359942521724,0.0,0.6135732665049534,0.19800616422153905,0.30417416950063647,1.0,-0.14068799999998696,-0.18490422857141145,-0.5517262365659414,1.479999999999948
0.4185682242039446,0.30506535172109156,-0.12675759229195208,-1.7238184423757383,0.054337279899261876,2.0232036836518463,0.24621589073923816,-0.16519467203389798,-0.61792504684376,-0.00012681317859421356,-0.8697501876969999,-0.08024172375779244,0.2910773942982023,0.3912021034760089,0.6874011751693561,0.726258751597032,0.002932065094265369,0.0,0.726240988342953,-0.6873405565244495,-0.0108504888608205,0.0,-0.0058650481609703875,0.00958820924877507,-0.9999368317316205,0.0,0.6111850835797319,0.19488903003863667,0.3042947533090508,1.0,-0.14497199999998647,-0.19053462857141082,-0.5709527835839394,1.4969999999999462
0.4155777135341434,0.2945722699850127,-0.12682928560220463,-1.7391858934299105,0.05304940743525828,2.0279003908688016,0.2529066686032033,-0.18233958115522617,-0.6217419636803729,-0.0045634347525193315,-0.8831712087049378,-0.06768855830000181,0.27751998921881454,0.39571633807078493,0.6940643758449405,0.7198948721342603,0.002600415155060443,0.0,0.7198736425068863,-0.6940041964023892,-0.01099368459388356,0.0,-0.0061097157659592005,0.009502478117743393,-0.99993618510527,0.0,0.6087772813385147,0.19178282818268366,0.3041762359315972,1.0,-0.14900399999998604,-0.19583382857141024,-0.5890483572479374,1.5129999999999444
0.41244890975371706,0.28372983804658675,-0.12695428251368254,-1.7545755363147422,0.05179362455016591,2.0328165581353606,0.2598249444216864,-0.18860535401719716,-0.6298910958359,-0.0019290159464524542,-0.9058114520527571,-0.08088575457431244,0.28067651450522973,0.4109741951630208,0.7018018525602439,0.7123531495549096,0.0028101536290626727,0.0,0.7123351319234132,-0.7017410972430609,-0.010901337943887902,0.0,-0.005793713674552725,0.009652536161721542,-0.9999366287057915,0.0,0.6061181049687899,0.18821547754469659,0.3042793453688809,1.0,-0.15353999999998555,-0.20179542857140959,-0.6094058776199351,1.5309999999999424
0.4093932290175653,0.27336658908071004,-0.12704593046047197,-1.7694012460975166,0.05048817730210086,2.037402322392937,0.2665560590617604,-0.19852078229047254,-0.6565162751113502,-0.0054692982947442065,-0.9063122779495153,-0.08003273213985287,0.2915071562280412,0.4170807306958062,0.7087860949527104,0.7054044520758588,0.002752724914224046,0.0,0.7053866364587916,-0.7087257615345702,-0.010873589278823124,0.0,-0.005719461343551835,0.00964897002397061,-0.9999370905909112,0.0,0.6036257007860977,0.1849543542050913,0.30427396503076054,1.0,-0.15757199999998509,-0.207094628571409,-0.6275014512839332,1.5469999999999406
0.4059402623915246,0.26217957664448344,-0.12719484931216593,-1.7853491935868075,0.04906022186611176,2.0422824232704255,0.2739216515509721,-0.2014754295614218,-0.6503606412724637,-0.011084671750777306,-0.9467152360278611,-0.08234528906874172,0.292288052939498,0.43552763625019814,0.7164328429786018,0.6976371529711268,0.002670430142709998,0.0,0.6976194175930641,-0.7163731552900422,-0.010835011680262088,0.0,-0.005645990936533396,0.009625687466988594,-0.999937732524947,0.0,0.6009278809085942,0.1813352249637589,0.30425687051265654,1.0,-0.16185599999998462,-0.21272502857140838,-0.6467279983019311,1.5639999999999388
0.4022870388998261,0.25072841315809,-0.12734970824511202,-1.8014446621367441,0.04761385408434003,2.0471844581007193,0.281429256641247,-0.2177833876049132,-0.6693750211262954,-0.006885930430947448,-0.9387149818142408,-0.08560401154725511,0.28981584699686663,0.447501559235341,0.7242129199910209,0.6895571008953196,0.0027199309052884143,0.0,0.6895409435395924,-0.7241535199191782,-0.010757028976523884,0.0,-0.005448043068008668,0.009666069190096466,-0.99993844107182,0.0,0.598185107744213,0.17760595045393957,0.30430302011711563,1.0,-0.16613999999998416,-0.21835542857140777,-0.6659545453199289,1.580999999999937
0.3984858412543042,0.23918984690644823,-0.1274430228733999,-1.8178037800057862,0.046123554491237305,2.0519789678409825,0.28912030565977065,-0.22424558409820147,-0.6765229672176649,-0.0013036046273593388,-0.9328103254583802,-0.07692619688419909,0.28279439029844394,0.4522402329062727,0.7320594322263168,0.6812220017291306,0.0025137521452197322,0.0,0.6812042218402348,-0.732000422070314,-0.010813747598802624,0.0,-0.005526601558374589,0.00962886988698497,-0.9999383688707593,0.0,0.5953089009519428,0.17381614617753932,0.30423402289222246,1.0,-0.17042399999998367,-0.22398582857140714,-0.6851810923379268,1.597999999999935
0.39459620426151454,0.22732861610895944,-0.12747584789765565,-1.8341626278033933,0.04465154059803585,2.05699512698507,0.29706699451880314,-0.2356591782288942,-0.6834413177186044,0.0005357084523668816,-0.9514375533914147,-0.08741893007530423,0.27302381454939145,0.47564891322716835,0.73998817980337,0.672599646011488,0.0028207867208472504,0.0,0.6725861832346843,-0.7399285196060388,-0.010693871919179468,0.0,-0.005105612223708034,0.009810749878154307,-0.9999388390849959,0.0,0.592438142302547,0.17005754719712354,0.3043448903822193,1.0,-0.1747079999999832,-0.22961622857140654,-0.7044076393559247,1.6149999999999332
0.390766148600432,0.215974031116457,-0.12750269859336344,-1.849856844187002,0.04309799359886705,2.0615250522980735,0.3047176592391752,-0.24042073976075132,-0.7147598893106648,-0.00021955461065793227,-0.9780483878691061,-0.08800086119478649,0.28992550307134357,0.48050390670964677,0.7475154208979098,0.6642241000510656,0.0027905792196228968,0.0,0.6642113714941253,-0.7474564707571971,-0.010621920838369717,0.0,-0.004969594994915338,0.009793772637439108,-0.9999396907529536,0.0,0.589597158733213,0.1663915677889189,0.30437472582279956,1.0,-0.17873999999998277,-0.23491542857140593,-0.7225032130199227,1.6309999999999314
0.38623490009332245,0.20310513714112477,-0.12761932808881252,-1.8677295593482028,0.04145215427294093,2.0665169578967877,0.31352019164707123,-0.2593998378639136,-0.6983235306626534,-0.001500954718591852,-0.9900283638689887,-0.09185087543972936,0.2721034059131814,0.4875503323796656,0.756212463923622,0.6543062798981827,0.0025977670360746935,0.0,0.6542919120614693,-0.7561532679472467,-0.010727352182800683,0.0,-0.005054761186009116,0.009812044298913927,-0.9999390847326793,0.0,0.586304333475612,0.16211299858383113,0.3043147016520663,1.0,-0.18327599999998226,-0.24087702857140528,-0.7428607333919205,1.6489999999999294
0.38176390996207427,0.19063842311106036,-0.12768419469879433,-1.8846044802747839,0.03978396409144896,2.071367091222736,0.3219888746861876,-0.2681514743993092,-0.7139776898359085,-0.006287176188556702,-0.9987668470310058,-0.09508484884428707,0.2724266231436236,0.49748423156982036,0.7644438652075053,0.6446692869619038,0.0027989812161215316,0.0,0.6446582976009191,-0.7643848338793661,-0.010594903053205679,0.0,-0.004690800117262028,0.009903785785859362,-0.9999399539079172,0.0,0.5832005191791357,0.15801997888491726,0.30441667320679866,1.0,-0.1875599999999818,-0.24650742857140467,-0.7620872804099184,1.6659999999999275
0.37727607940282054,0.17877044679847004,-0.12782585241031572,-1.90065755354093,0.03825588161355848,2.075766728265949,0.3300955643226838,-0.2920714297517485,-0.7562691830405731,-0.00468564296540851,-1.0069178026813623,-0.09481685017796375,0.2857001855108732,0.5054202930077245,0.772389549147438,0.6351276417602186,0.0028301839391418142,0.0,0.6351176405442622,-0.7723301190281547,-0.010607394244305238,0.0,-0.0045513006196580275,0.009990732556282994,-0.9999397336468125,0.0,0.5801975108769009,0.15397856257211226,0.3044603579746077,1.0,-0.19159199999998136,-0.25180662857140407,-0.7801828540739164,1.6819999999999258
0.37237869149889447,0.16606622428565662,-0.12791623645496808,-1.9180157488481695,0.03647259763635565,2.080425272154903,0.33892305677037043,-0.2890890515949757,-0.7419377610600607,-0.003772449583502229,-1.0304028291795313,-0.10832524356632522,0.26993479399725634,0.5244494532532294,0.7808145938171439,0.624741945896454,0.002611134023582152,0.0,0.6247304838806093,-0.7807558707802402,-0.010622601079625333,0.0,-0.004597814772843101,0.009925728070321896,-0.9999401682208734,0.0,0.5768680477782215,0.14963795202071528,0.3043768393460812,1.0,-0.19587599999998087,-0.25743702857140344,-0.7994094010919143,1.698999999999924
0.36733556496463604,0.15305184213049908,-0.1279234435080792,-1.935211861594156,0.03468192389280173,2.0850954830193595,0.34793781277731967,-0.2960476770573779,-0.7462535222567612,-0.000616686696245961,-1.0244768874660553,-0.11159610281168379,0.2798458347907263,0.5216279680206802,0.7892272213440676,0.6140789912174317,0.0028517601778158173,0.0,0.6140712987542223,-0.7891686072071572,-0.010492680602549423,0.0,-0.004192895838202426,0.010032486388979342,-0.9999408826732434,0.0,0.573548357652636,0.14532407773791342,0.30450477175258883,1.0,-0.2001599999999804,-0.26306742857140286,-0.8186359481099121,1.715999999999922
0.3620246223524912,0.13995371957785074,-0.12794366921736777,-1.9526815999483629,0.03284387350777553,2.089600907677073,0.35709109879677464,-0.31714025102271576,-0.7676330365612606,-0.008063604538316888,-1.0042757197136074,-0.10249184468575077,0.2758669218791911,0.5427240922527136,0.7977146987686692,0.6030127579291049,0.0027604427822928894,0.0,0.603004963433988,-0.7976563531905434,-0.01049300671621109,0.0,-0.004125611626804415,0.0100351795991023,-0.9999411355170457,0.0,0.570090434486013,0.140860572308943,0.30449213301546074,1.0,-0.20444399999997995,-0.26869782857140223,-0.83786249512791,1.7329999999999202
0.3568243335098069,0.12744757394888948,-0.12804849887596723,-1.9691756737774946,0.03109139197850652,2.0938934660306177,0.36581985224358343,-0.33235677196504915,-0.7666949378935257,-0.007153914139760888,-1.0332052284533801,-0.12063315189346534,0.2604283509638187,0.547305161394542,0.8057727313593569,0.5922018190611957,0.0028386263404850155,0.0,0.5921958718838424,-0.8057146731540055,-0.01042409177233731,0.0,-0.0038861180353233493,0.010080665784046983,-0.9999416374288882,0.0,0.5668171533584405,0.13653999336742323,0.3045197838316046,1.0,-0.20847599999997954,-0.2739970285714017,-0.8559580687919083,1.7489999999999186
0.3510022380969847,0.11393520796274295,-0.1282026487586914,-1.9867482032916732,0.029141878907611055,2.0983209070815994,0.3752144975569797,-0.35057929662205256,-0.8125698543157767,-0.010527905100968026,-1.0321495625972814,-0.11082958955599266,0.25296826857434007,0.5494760161239503,0.814394060107742,0.580288186567957,0.002946572942800193,0.0,0.5802846279977643,-0.8143367479887451,-0.010303314312370805,0.0,-0.0035794578656697107,0.010101003435016007,-0.999942576956794,0.0,0.5632868473155879,0.13179143169803698,0.3045948572473168,1.0,-0.21275999999997908,-0.2796274285714011,-0.8751846158099061,1.7659999999999167
0.34526526927076084,0.10116891298181006,-0.12832831101751518,-2.0034171878246445,0.027300105686492805,2.1022933514252853,0.3842620595536717,-0.3579819393201416,-0.7840563488391786,-0.004214988227242562,-1.0078457289956781,-0.12319601717643404,0.2592699992456398,0.5649103376875929,0.8225791093552748,0.5686268718187037,0.00279935692019821,0.0,0.5686226035217707,-0.8225221583755797,-0.01031409940367905,0.0,-0.0035624095708995385,0.010076134318239338,-0.9999428887467774,0.0,0.5598522682999257,0.12722310841219364,0.30456717037387326,1.0,-0.21679199999997864,-0.2849266285714005,-0.8932801894739042,1.781999999999915
0.33904706859977446,0.08743349136055996,-0.12833653672900083,-2.0212458877512818,0.02540090416774611,2.1065157718966145,0.3939540104560618,-0.37571786455373163,-0.7842185421549165,-0.0021452697937612815,-1.05437867495602,-0.103500422790351,0.2507042410960795,0.5698019555510238,0.8311322507585941,0.5560508006620096,0.002726854103066208,0.0,0.5560463900024126,-0.831074690328592,-0.010393178615209796,0.0,-0.0035129834969520046,0.010154558821792822,-0.9999422702746817,0.0,0.5561007121695747,0.12243129831185527,0.3045272113237243,1.0,-0.22107599999997815,-0.2905570285713999,-0.9125067364919021,1.7989999999999131
0.3325025541702663,0.073395762728489,-0.12842078097226076,-2.039000417625671,0.023315880775448113,2.1106711930216684,0.403727919179119,-0.3926756840740858,-0.799766235112977,-0.0045760804051190145,-1.0741408830273405,-0.11929289411451488,0.23986698672558712,0.5685815186243569,0.8396818811400057,0.5430531179543856,0.0028976656828583135,0.0,0.543051798769085,-0.8396251310351268,-0.010253296499942726,0.0,-0.0031351920671013334,0.010183285914075552,-0.9999432340181589,0.0,0.552352375054443,0.11746159093902264,0.3046293832090495,1.0,-0.2253599999999777,-0.2961874285713993,-0.9317332835098999,1.8159999999999112
0.3256248481099907,0.059319643399090585,-0.12856359052534616,-2.0569409053085828,0.021246952345662536,2.114609764126076,0.41360904838305107,-0.415144182358901,-0.8214742011449833,-0.013925247251444325,-1.028175984257849,-0.12804822935551413,0.23342582413545382,0.5855076974282735,0.8482770074033943,0.5295274801460416,0.0027410549307848825,0.0,0.529525409877923,-0.8482205079025275,-0.010274101829575059,0.0,-0.003115460229263234,0.010166938334539577,-0.9999434620379601,0.0,0.5484722060611326,0.11232557585215101,0.30458988049394065,1.0,-0.22964399999997723,-0.30181782857139866,-0.9509598305278979,1.8329999999999094
0.31849170429638274,0.04520242281509057,-0.12866236304254575,-2.0748164629325183,0.019164998170382398,2.1185086631906676,0.42363724514431095,-0.42016599574711183,-0.8245179558460163,-0.00018499029579403,-1.0491047685408807,-0.12182182743470994,0.21339329514950217,0.5736127284200226,0.8568148650155484,0.5155986978540765,0.002648916906353354,0.0,0.5155965943595572,-0.8567585561922411,-0.010279843258582616,0.0,-0.0030308499273618006,0.010173890928567825,-0.9999436513584611,0.0,0.5445565688751925,0.10714911014901254,0.3045397300112449,1.0,-0.22998000000000002,-0.3022594285714286,-0.9524677950000002,1.8499999999999075
0.3108216949315303,0.030190778579117533,-0.12866561497426104,-2.093335607407227,0.016926314349236922,2.122340898285012,0.4340928326767519,-0.43060791322161784,-0.8556649599713976,-0.0011455294198620479,-1.0298854644905708,-0.1324925658818335,0.2005122303978856,0.5599813091225783,0.8654990698723165,0.5008839350622593,0.0027185562178701555,0.0,0.5008836641390787,-0.8654431138891115,-0.010223430037766636,0.0,-0.0027680494022027102,0.01021024616704476,-0.9999440428222548,0.0,0.5404106835135268,0.10175365018010976,0.3046167255538366,1.0,-0.22998000000000002,-0.3022594285714286,-0.9524677950000002,1.8679999999999055
0.30330582003944306,0.016175211127857206,-0.12869026207200707,-2.1105365823834914,0.014793506417521604,2.1258331424423718,0.44378442221970127,-0.44220190749977306,-0.8668629957662992,-0.00029151048410920854,-1.0080443647586967,-0.12199137605548088,0.21634238681176707,0.5650565814895268,0.8734978245247609,0.4868003281072787,0.002781727226750113,0.0,0.4868018101863294,-0.8734425115606085,-0.010145121941973005,0.0,-0.0025090181810065726,0.01021608848663931,-0.9999446666510103,0.0,0.5365187867982121,0.09658738780330986,0.30466027588144284,1.0,-0.22998000000000002,-0.3022594285714286,-0.9524677950000002,1.8849999999999036
0.29604295575659123,0.0030906278821838497,-0.1287757590392961,-2.126542156262296,0.012847546147382155,2.1288992321084375,0.45278428724263897,-0.46003112610974206,-0.8462438843105862,-0.008300665744264881,-1.0243116491009105,-0.11747825817137827,0.1805876085986789,0.5610988745467546,0.8808768649992672,0.4733173010027325,0.0027254690898347094,0.0,0.47331901371846274,-0.8808215310225671,-0.010163101930546533,0.0,-0.002409766514591627,0.010242654911615467,-0.9999446389904326,0.0,0.5328270488426999,0.09167215950602893,0.30465409299647267,1.0,-0.22998000000000002,-0.3022594285714286,-0.9524677950000002,1.9009999999999019
0.28922066148310605,-0.009152350250768118,-0.1287653098225725,-2.1411708683032638,0.011008452335452995,2.1317346983260097,0.4611843223673873,-0.4527617814597728,-0.8386597374063767,0.0053461308120388955,-0.9784764797430721,-0.12989504531020926,0.17973135494602155,0.5504032035485048,0.8875351511875018,0.46070954226285404,0.002969844396220878,0.0,0.4607147513621071,-0.8874802536892348,-0.010072938511253234,0.0,-0.0020050592361892106,0.010308536598350133,-0.9999448553848655,0.0,0.5294225317436905,0.08718648752115497,0.3047566121196167,1.0,-0.22998000000000002,-0.3022594285714286,-0.9524677950000002,1.9159999999999002
0.2817878227339073,-0.0219670288937788,-0.12877206890375634,-2.156769542710378,0.00899106732713042,2.134418518033742,0.4700276276573132,-0.4735002069982924,-0.7844378790991194,-0.0029821165029255766,-0.9818579690787151,-0.13237928662654186,0.15905374000872294,0.5455194443652456,0.8944372863118497,0.44716394652632674,0.0026632092113236263,0.0,0.44716680531307,-0.8943829133324886,-0.010089572151568504,0.0,-0.0021298050941677693,0.010215584971871153,-0.9999455513946462,0.0,0.5256737364490757,0.08235781239376609,0.3046584412067325,1.0,-0.22998000000000002,-0.3022594285714286,-0.9524677950000002,1.9319999999998985
0.2736378188653821,-0.03561068242460097,-0.12880927020607225,-2.1728383049145314,0.006895832337178185,2.1372723100806272,0.47923324768350817,-0.48298278754486274,-0.7715554040206891,-0.006144954036304564,-0.9309937270177286,-0.1230718731061308,0.15341041406492603,0.5361499970785742,0.9015803264812449,0.43257998362903444,0.0028669786683064077,0.0,0.43258599521805297,-0.9015266371821242,-0.00999130089153633,0.0,-0.0017374125889585978,0.010248372453189214,-0.99994597467041,0.0,0.521821631183815,0.07718928526705551,0.3047439818430477,1.0,-0.22998000000000002,-0.3022594285714286,-0.9524677950000002,1.9489999999998966
0.2658029324070993,-0.04837695543510136,-0.12885434443298363,-2.187819395876316,0.005071375226741396,2.1396607932296923,0.48772866336340426,-0.479493583529572,-0.812455758294045,0.0005345826374422633,-0.9110840666581418,-0.11532786765747657,0.16143295050924933,0.5222322880421343,0.9081088965622786,0.41870119072581113,0.0028795434424759864,0.0,0.41870800568796596,-0.9080543209376482,-0.010084795510145557,0.0,-0.0016077649775142477,0.010363979953595406,-0.9999449999931487,0.0,0.5181308703816293,0.07232485718545048,0.3047718363277233,1.0,-0.22998000000000002,-0.3022594285714286,-0.9524677950000002,1.9649999999998948
0.25745922764233276,-0.06171687262219384,-0.12882884078871432,-2.2034962604778667,0.002964621147831331,2.142096459425393,0.4967411072383173,-0.5000703696008431,-0.7795802544149609,-0.0006014298157854406,-0.9383912624251541,-0.1151136363491076,0.12293810719232404,0.524140475259566,0.9147352812427616,0.4040203709327941,0.002766228888127382,0.0,0.40402695003345374,-0.9146813986539928,-0.010045372280247215,0.0,-0.0015283463518375173,0.010306685894366466,-0.9999457167183146,0.0,0.514200964478933,0.06724864760571779,0.3047311499516364,1.0,-0.22998000000000002,-0.3022594285714286,-0.9524677950000002,1.981999999999893
0.2488923424746707,-0.07508792126469027,-0.12883721516589985,-2.2188561001239187,0.0008868624513933289,2.1443287725931333,0.5055456863878522,-0.5116452490940402,-0.7679109790669448,-0.0031744556431703313,-0.9126387767347668,-0.1110774972351188,0.12704917690170744,0.5102910794036633,0.9211373901323618,0.3892027499584622,0.0028062120590020907,0.0,0.38921067503413703,-0.9210840674031366,-0.009996905359846537,0.0,-0.0013060909861241088,0.010300929327152382,-0.9999460910375786,0.0,0.5102924371180404,0.06213440521912568,0.3047772618110614,1.0,-0.22998000000000002,-0.3022594285714286,-0.9524677950000002,1.998999999999891
0.2405629316909301,-0.08743780608820396,-0.12890415339707625,-2.2332510268296235,-0.001007047373008597,2.14632194552965,0.5137190456303248,-0.507106399612365,-0.756720225207533,0.002066413796988808,-0.9009054404175153,-0.11958672394636369,0.108334698941288,0.5005055604219276,0.9270260781160101,0.3749622770244745,0.0025861559656215035,0.0,0.3749686809270999,-0.9269725555440844,-0.010055669697640265,0.0,-0.001373227641232766,0.010291793682654829,-0.9999460951614537,0.0,0.5065668000568387,0.05723842961474851,0.30466904565088954,1.0,-0.22998000000000002,-0.3022594285714286,-0.9524677950000002,2.0149999999998895
0.23171980543355591,-0.10062370608338062,-0.12888318254118356,-2.248015499731188,-0.003078617521007946,2.148271783591583,0.5221794141546702,-0.5272754414425074,-0.7524961957951749,-0.0029383827362561327,-0.8591902454797049,-0.12108622742402275,0.10985662976354012,0.4936071788463512,0.9329042116293491,0.3600873254171837,0.002756247327466594,0.0,0.3600964452364701,-0.9328516212228439,-0.009957399820142236,0.0,-0.0010143832114462015,0.010282013054514379,-0.9999466241926351,0.0,0.5026940150929469,0.05217559289856731,0.3047605918448249,1.0,-0.22998000000000002,-0.3022594285714286,-0.9524677950000002,2.0319999999998877
0.22259120155964726,-0.1135767359267324,-0.1289225145674062,-2.2627366624295497,-0.005152464478488519,2.1499594410624634,0.530496959188833,-0.5343594041110684,-0.7484339186822564,-0.005868836080220309,-0.8552497681738779,-0.12094851955673847,0.08357668184837341,0.49095121352419774,0.9386039986486225,0.34495953458223455,0.002490004584865928,0.0,0.3449667791206517,-0.9385518686174268,-0.0099527945356098,0.0,-0.0010963340226318175,0.01020089800938552,-0.999947368480718,0.0,0.4987313879364983,0.047018424661642154,0.3046778169321149,1.0,-0.22998000000000002,-0.3022594285714286,-0.9524677950000002,2.048999999999886
0.21323910232086654,-0.12657124088652552,-0.12900671524950375,-2.2770625163297185,-0.007098818513161384,2.151627957842509,0.5387127137590632,-0.5485244952449089,-0.744112156280259,0.00037409755405830736,-0.8716799655077955,-0.10321199136217947,0.08602961650081856,0.4709910009054509,0.9441281665466059,0.3295385843684923,0.002659595262975901,0.0,0.3295484160430877,-0.9440759737609583,-0.009957115646562362,0.0,-0.0007704086396110865,0.010277456618598461,-0.999946888767589,0.0,0.494853150660474,0.04184165222158153,0.30474021012861197,1.0,-0.22998000000000002,-0.3022594285714286,-0.9524677950000002,2.065999999999884
0.20437390360695698,-0.13861478629127602,-0.1290186926699353,-2.290358930086534,-0.009005916640494827,2.1529417086000144,0.5462596844631336,-0.5731189581492716,-0.7518069471422913,-0.005288890701858555,-0.8081379511255016,-0.11744071354221045,0.0811299205920158,0.46195059650752346,0.9493142406465557,0.3142873468920219,0.002585148049162481,0.0,0.3142972734741024,-0.9492625742707377,-0.009926523905446263,0.0,-0.0006658093889780337,0.010236092563438631,-0.999947388169443,0.0,0.4909328191141105,0.03673769090433003,0.30473546575999444,1.0,-0.22998000000000002,-0.3022594285714286,-0.9524677950000002,2.082999999999882
0.19471452377468124,-0.15139053001397254,-0.12906669660652872,-2.3041796324215538,-0.011002587411628838,2.1542878418697287,0.5540984418877333,-0.5715845305135735,-0.7324344369233224,-0.007859300408929275,-0.8223200911314497,-0.10916085725053687,0.06861294132986133,0.45592769503548153,0.9539986575508426,0.2997667533727775,0.002683629024777825,0.0,0.2997784982433131,-0.9539476245660894,-0.009875650708068208,0.0,-0.00040035792492831845,0.010226048679953654,-0.9999476324497834,0.0,0.48727333950716106,0.03189642700149384,0.3047758881818161,1.0,-0.22998000000000002,-0.3022594285714286,-0.9524677950000002,2.0989999999998803
0.1849100951488634,-0.16405220399387874,-0.1291210023645335,-2.317783782019703,-0.012988051036969102,2.155430689589088,0.5617143968448106,-0.5788620288272467,-0.7496753407946134,-0.00025557932757833525,-0.8044420088536283,-0.10956582452526499,0.07888729082665935,0.43629264814691204,0.9587055168244705,0.2843537995484154,0.0027194841262632996,0.0,0.28436673963399856,-0.9586550531766826,-0.009838359108621986,0.0,-0.00019053126249968244,0.01020561647815037,-0.9999479031880305,0.0,0.4833673324705775,0.02676915332931458,0.30480384423421497,1.0,-0.22998000000000002,-0.3022594285714286,-0.9524677950000002,2.1159999999998784
0.17495609852125557,-0.17656583800081632,-0.12912533585980424,-2.33114790035049,-0.014880384266409296,2.1564379388490704,0.569222544785638,-0.5971540739261809,-0.7337607592222062,0.002032936078977278,-0.8094978598742169,-0.1162632697423663,0.04931278450142384,0.4341448341921514,0.9631700016645277,0.268843536287625,0.0027290641485283357,0.0,0.2688573865584632,-0.9631195433928188,-0.009858890859005522,0.0,-2.208449098317633e-05,0.010229713933495442,-0.9999476748635969,0.0,0.4794566596697073,0.021694123348989514,0.3048078425388814,1.0,-0.22998000000000002,-0.3022594285714286,-0.9524677950000002,2.1329999999998766
0.16526946091445177,-0.18828215590781283,-0.12925594453521477,-2.3434713750434564,-0.01672791714289453,2.1571928313657205,0.5761573375270239,-0.6159730067840941,-0.7250629586961587,-0.00283893141070445,-0.7452557661990126,-0.10858005498962929,0.053953806415492966,0.42752961252911537,0.9674496806123787,0.2530102999219364,0.0027659569096761447,0.0,0.25302534654269304,-0.9673998411308509,-0.009821827129563233,0.0,0.0001907665200100439,0.010202177148643441,-0.9999479382395677,0.0,0.4755581592343959,0.016474653017531374,0.30484603644203767,1.0,-0.22998000000000002,-0.3022594285714286,-0.9524677950000002,2.1499999999998747
0.15500102396973345,-0.20060020186376304,-0.12928087686540518,-2.356327992326674,-0.018654705835419876,2.157992122884195,0.583264724408671,-0.6021722849954058,-0.7081313612589005,-0.0014448998398455596,-0.7790072453727305,-0.11223550206193554,0.03962401901370155,0.41101012368087986,0.9711519868906564,0.23840405581461116,0.00284102634319535,0.0,0.23842060122160985,-0.9711028124765477,-0.009782198856779561,0.0,0.00042682100758245634,0.01017755701426269,-0.9999481162325619,0.0,0.4718925936587034,0.011714656593926592,0.30486116755364406,1.0,-0.22998000000000002,-0.3022594285714286,-0.9524677950000002,2.165999999999873
0.14436984620479443,-0.21282267916819447,-0.1293640659330386,-2.3689453148153397,-0.020510117666390385,2.1584981319433627,0.5902623947189928,-0.6312194946015871,-0.7071173462792256,-0.008376342049763053,-0.71258834375741,-0.10410373450860656,0.030063370689838727,0.39602217076458124,0.9749209092417966,0.22249050159964445,0.002818567419102433,0.0,0.22250763827576392,-0.9748716825994844,-0.009813270392692664,0.0,0.000564392976691086,0.01019451154956303,-0.9999478753389268,0.0,0.4679726034853141,0.006549272380345597,0.30487748769530887,1.0,-0.22998000000000002,-0.3022594285714286,-0.9524677950000002,2.182999999999871
0.13360754120149826,-0.22489944791011507,-0.12946597664714454,-2.381279975732099,-0.022441069256572608,2.1589869100734336,0.5969798656682188,-0.6283761510522492,-0.7010779672754194,0.0020426022453607744,-0.7280101596835249,-0.11218041279048467,0.02017414250212885,0.397505437798302,0.9783904436358093,0.20669893937800038,0.0029043352668335016,0.0,0.206717685666872,-0.9783422887254356,-0.009742249494696768,0.0,0.0008277373109785158,0.010132296347990186,-0.9999483243756452,0.0,0.46408758614377027,0.0013948488271117632,0.3049051822089121,1.0,-0.22998000000000002,-0.3022594285714286,-0.9524677950000002,2.199999999999869
0.12271644125149501,-0.23684337695475016,-0.12950571471162792,-2.3934673117034193,-0.02428792185510678,2.1592246625915945,0.6034619747496995,-0.6541690216886111,-0.6983007571377443,-0.0016404660857678166,-0.6903316991097396,-0.10998396278544063,0.01786363674747589,0.36970495465502856,0.9815784582227773,0.1909889896004856,0.0027718415518558593,0.0,0.19100717410695495,-0.9815303984337777,-0.00975106616290394,0.0,0.0008583169940698521,0.01010107258905223,-0.9999486144920089,0.0,0.4601405582286735,-0.0036909877760224396,0.30487113063640997,1.0,-0.22998000000000002,-0.3022594285714286,-0.9524677950000002,2.2169999999998673
0.11078013695560145,-0.24939168032494058,-0.12966338804408514,-2.4059001918566616,-0.026225589054488616,2.1594905003644587,0.6102415131328783,-0.6682626866971803,-0.6956322402774053,-0.004795417019893296,-0.6893711318494034,-0.10053637596041566,0.0045615211740169664,0.3705629002438251,0.9847540339137595,0.17387102983334807,0.003017379074206885,0.0,0.17389248157699438,-0.984706961773463,-0.009713453921169228,0.0,0.001282370633777119,0.01009025673588893,-0.999948269784273,0.0,0.456063090863253,-0.009216116326658143,0.3049541071305204,1.0,-0.22998000000000002,-0.3022594285714286,-0.9524677950000002,2.2349999999998653
0.09956126023842288,-0.26107405274383083,-0.12970007043451504,-2.4176391028245217,-0.028015350659942248,2.15949350957471,0.6163779510457559,-0.6697135005563332,-0.6716200476357579,-0.0026660292078275476,-0.6870995946400598,-0.11426539023218955,0.00046378098263232805,0.351613629956924,0.9874127266854278,0.15807827426279186,0.0028483832176283146,0.0,0.15809880437552132,-0.9873655649869385,-0.009734271121288577,0.0,0.0012736432464928171,0.010062262901018817,-0.9999485630262145,0.0,0.45209866911302365,-0.014259097374590407,0.304891705178329,1.0,-0.22998000000000002,-0.3022594285714286,-0.9524677950000002,2.2519999999998634
0.08861627403952864,-0.2719803409432071,-0.12987850971262102,-2.428150473405737,-0.029698310883010105,2.1595206815699237,0.6220055241156184,-0.6939199188534833,-0.673331822452198,-0.015085428972202395,-0.6479164541870631,-0.10410079913632872,-0.008263917183178333,0.3450585428239801,0.9897366942276593,0.14280073696265744,0.0031579302454316223,0.0,0.1428250371503929,-0.9896907586050112,-0.009693193283674802,0.0,0.0017412127595339277,0.010044933977822402,-0.9999480323894374,0.0,0.44850013310886716,-0.01916889106837716,0.30499681980650545,1.0,-0.22998000000000002,-0.3022594285714286,-0.9524677950000002,2.2679999999998617
0.07696034242750575,-0.2833770741757325,-0.1299008918086565,-2.4393679911980723,-0.03147863895810894,2.159402366182318,0.627738365708957,-0.6853534669486986,-0.6667991333089905,-0.00296627664353597,-0.6524842039743705,-0.10301434778400265,-0.012667093022666739,0.3305719594655299,0.9918979605557143,0.12692335576827912,0.0031055606808064813,0.0,0.1269477890621475,-0.991852728916617,-0.009652455340511306,0.0,0.001855172530672855,0.009968686756945963,-0.9999485904881429,0.0,0.4445697448476544,-0.02423233497468656,0.30494972047869884,1.0,-0.22998000000000002,-0.3022594285714286,-0.9524677950000002,2.28499999999986
0.0657354226060703,-0.2940116138051329,-0.1300040594502532,-2.449460260553379,-0.033049700188799526,2.1592327658461135,0.6329070582458359,-0.709442567140551,-0.6789165485981441,-0.01949224714026443,-0.6134266679318954,-0.09103149160610749,-0.010376441310682251,0.3134957966353045,0.993717049066112,0.11178428650327515,0.003383280582586318,0.0,0.11181217207342936,-0.993672787505234,-0.009652794880646692,0.0,0.002282887011564483,0.009970630760248574,-0.9999476861061958,0.0,0.44096060966119804,-0.029061645837741623,0.3050318689854138,1.0,-0.22998000000000002,-0.3022594285714286,-0.9524677950000002,2.300999999999858
0.053564598182422596,-0.30507913949084287,-0.13012269096033047,-2.4600657077295254,-0.034790132014575696,2.158864994225123,0.6382244687610777,-0.7062257537878572,-0.6393065897925193,-0.003636875220043034,-0.623660382995887,-0.1018639056927149,-0.024687453682401647,0.2948875467434692,0.9954002571848223,0.09564361839775037,0.0033724112121137893,0.0,0.09567201670691661,-0.9953568096731243,-0.009614237243762406,0.0,0.0024372589516550303,0.009892850074924745,-0.9999480942959975,0.0,0.4370575177216406,-0.034224107056323484,0.3050153390804041,1.0,-0.22998000000000002,-0.3022594285714286,-0.9524677950000002,2.317999999999856
0.04132790899794344,-0.3160666046943031,-0.13020225999089008,-2.4705249400000935,-0.036457026830650156,2.158326043066831,0.6433138325827495,-0.7293731540294919,-0.6428027216158594,-0.015572154732668465,-0.6084749615186145,-0.09562917774179783,-0.033836625060516136,0.30431881616874323,0.996808178869824,0.07964621055942883,0.0032684220897058044,0.0,0.07967430332808956,-0.996764831540276,-0.009624078910582756,0.0,0.002491374744979402,0.009853959544393519,-0.9999483449324658,0.0,0.4331099298366785,-0.03929820195637427,0.3049770852419995,1.0,-0.22998000000000002,-0.3022594285714286,-0.9524677950000002,2.3349999999998543
0.028706329795005606,-0.3269092329037289,-0.13037713187367006,-2.4804572028715026,-0.038130981308164585,2.1578400501356243,0.6482483093999264,-0.7337850763191085,-0.621167648380087,-0.0059123707018417905,-0.5758143639177382,-0.08988947397684945,-0.032876586611374305,0.28273377058628457,0.9979781568793671,0.06330417257431464,0.0035954175767195454,0.0,0.0633360161522103,-0.9979367470860265,-0.009567903351055828,0.0,0.0029823685358538743,0.009776466204469349,-0.9999477617288162,0.0,0.4292776074306937,-0.04450820446517293,0.30508031798705837,1.0,-0.22998000000000002,-0.3022594285714286,-0.9524677950000002,2.3519999999998524
0.01608655090645735,-0.337520705578252,-0.13044602349067677,-2.4903791053125226,-0.039713680512511534,2.157068664249999,0.6528949883895131,-0.7485158822384717,-0.6213080646825261,-0.004518717276089333,-0.5727490299084073,-0.09085363580120963,-0.04164552541807686,0.2617675824140208,0.9988652217846252,0.04729943340537357,0.0034320853558937724,0.0,0.04733042831205653,-0.998823567196528,-0.009594741779144461,0.0,0.0029742791523629797,0.009746483595100844,-0.9999480785126067,0.0,0.42533004913981887,-0.049563778073924085,0.30502947601218744,1.0,-0.22998000000000002,-0.3022594285714286,-0.9524677950000002,2.3689999999998506
0.003064751061173864,-0.3479758066480174,-0.13063886174593906,-2.499918038703088,-0.04128120807155288,2.1562792349147855,0.6573613451956086,-0.7657311072792745,-0.6124580346089877,-0.004315113124591245,-0.5444809150691384,-0.09391290475528273,-0.03524052896065615,0.2553694073355593,0.9995058132197594,0.03093179990338596,0.0034785048300887637,0.0,0.03096400001600036,-0.9994645835205871,-0.009618934048870605,0.0,0.0031791726469204695,0.009722076102529814,-0.9999476856803746,0.0,0.421424412200755,-0.05476145779088306,0.3050467772555009,1.0,-0.22998000000000002,-0.3022594285714286,-0.9524677950000002,2.3859999999998487
-0.009950711658291572,-0.3582445997326976,-0.13075965004521675,-2.509136021528016,-0.042866378061061056,2.155547486440383,0.6616056302962915,-0.7714039873620484,-0.5946797473908054,-0.011215744494683363,-0.553262113349706,-0.09499356934684094,-0.04438077374140549,0.24308934897151097,0.9998730749350926,0.014858864606340116,0.0037141706559605256,0.0,0.014893759164275877,-0.9998338391700241,-0.009550753357455175,0.0,0.003571708921719541,0.009605044017571625,-0.9999474916338351,0.0,0.41758231130381784,-0.05985589314379819,0.3051035595550836,1.0,-0.22998000000000002,-0.3022594285714286,-0.9524677950000002,2.402999999999847
-0.02259237412253699,-0.3677459489261329,-0.1309350417160331,-2.517771048404043,-0.04433441998251636,2.154531310236124,0.6654040476432759,-0.7844350900320609,-0.5887703502259859,0.0012970259200801183,-0.5312452046488214,-0.09973018142251298,-0.05797061040291399,0.23020262315689485,0.9999841297084526,-0.000527365821938186,0.0034941547942786842,0.0,-0.0004939305932470384,-0.9999445266046176,-0.009562774034990678,0.0,0.003499071409804655,0.009561080481455396,-0.9999481697764621,0.0,0.4138269017450912,-0.06474087935487861,0.3050469172179917,1.0,-0.22998000000000002,-0.3022594285714286,-0.9524677950000002,2.418999999999845
-0.03597732080950322,-0.3776554933146591,-0.13103099675013252,-2.526482645346197,-0.04575583089773305,2.15351586569256,0.6691702644602587,-0.7890316530223527,-0.5868794581417501,-0.006620169707798559,-0.4942467675341238,-0.07653652158391014,-0.056963446794993954,0.2095413183788442,0.9998466793234374,-0.016562452400513572,0.0036124669665718585,0.0,-0.016527186485207568,-0.9998078657226918,-0.00958283085144691,0.0,0.003770560662658129,0.00952184101505496,-0.9999475573328702,0.0,0.40995837447340083,-0.06980071456411302,0.3050968416012031,1.0,-0.22998000000000002,-0.3022594285714286,-0.9524677950000002,2.435999999999843
-0.04980788581906718,-0.38727173976741047,-0.13123855753258873,-2.53495844918191,-0.04722680326918383,2.1525021625596943,0.6727438604609051,-0.8033138306431186,-0.5632477349586604,-0.002203722207184437,-0.5045491939832267,-0.0883228891428334,-0.07283100249455507,0.21019746641029402,0.9994726769682847,-0.031959953886150916,0.0036981404319101807,0.0,-0.03192331361548861,-0.9994348208853038,-0.009575372106413321,0.0,0.004002155825040099,0.009452447884275322,-0.9999473156010505,0.0,0.4063002369409975,-0.07470858329605368,0.30510944747736735,1.0,-0.22998000000000002,-0.3022594285714286,-0.9524677950000002,2.4519999999998414
-0.06363120025228541,-0.39673948007144966,-0.13136913859554253,-2.5432747894595664,-0.048665464215108284,2.1512880703301342,0.676109241975579,-0.8191612685041888,-0.5466133720869218,-0.009548852592911505,-0.4794286511121244,-0.08869621264661572,-0.07001569164475521,0.19198108352112633,0.9987826150672232,-0.04900463946304584,0.0035468368702374635,0.0,-0.04896885332078793,-0.9987449449400698,-0.009556843742164828,0.0,0.004010792296846588,0.009371705284504483,-0.9999480409927366,0.0,0.4021248467930152,-0.08009863763816134,0.30507125388374107,1.0,-0.22998000000000002,-0.3022594285714286,-0.9524677950000002,2.4699999999998394
-0.07694763968956177,-0.4054199030297547,-0.13154532337915165,-2.5507927918602635,-0.049962985132358466,2.1501280853776246,0.6790154020594843,-0.8214766277651906,-0.541135807467848,-0.0003923956239695013,-0.4460021292890941,-0.08408016231788208,-0.07040338330288953,0.17099973772329038,0.9979174208241328,-0.06425997161533953,0.003496307325525162,0.0,-0.06422403254790998,-0.9978799752062584,-0.009569515497163228,0.0,0.004103910874530103,0.009325218807352667,-0.9999480977579431,0.0,0.3984301694928519,-0.08495782951094699,0.3050626984927114,1.0,-0.22998000000000002,-0.3022594285714286,-0.9524677950000002,2.4859999999998377
-0.09117663337979227,-0.4144307852912508,-0.13169661525253898,-2.5583657388123213,-0.0513410972917627,2.14902544065412,0.6818862303870106,-0.8402650277568797,-0.5230175072716504,-0.012248004392929203,-0.4473499028816228,-0.08725634420184882,-0.07284582738750123,0.15760058269495972,0.9967541157193072,-0.08029782477560748,0.0037734644739854093,0.0,-0.08025904224212477,-0.9967191140055709,-0.009499516594801938,0.0,0.004523961786507713,0.009166004092578256,-0.9999477577047358,0.0,0.3946023978609584,-0.09008966219052682,0.3051435329844024,1.0,-0.22998000000000002,-0.3022594285714286,-0.9524677950000002,2.502999999999836
-0.10655218557434201,-0.423672076930798,-0.1318306703337048,-2.5663514617616894,-0.05263961129517305,2.1475630385030784,0.684790499714463,-0.8426415674984328,-0.499279929564397,-0.009407870132083837,-0.4327540614613604,-0.06625571184505587,-0.07227059948217801,0.1530146206286489,0.995221168897313,-0.09748420230618027,0.003521672983366028,0.0,-0.09744678213751523,-0.9951850125202649,-0.009574048636397076,0.0,0.004438120113768151,0.00918529702045616,-0.9999479653504486,0.0,0.39040214548675756,-0.09550266909576778,0.30507159949428847,1.0,-0.22998000000000002,-0.3022594285714286,-0.9524677950000002,2.520999999999834
-0.12031859198925568,-0.43168244792489724,-0.13204257539106082,-2.5731517234387415,-0.05378244038366122,2.146281455151959,0.6871307018546291,-0.8698460540882524,-0.49657701781275226,-0.019549411297204944,-0.4089092675945392,-0.07054600351185894,-0.08026588089467031,0.13761977282937926,0.9935036916448818,-0.11366397496063951,0.003415023476753784,0.0,-0.11362664153153768,-0.9934670479548305,-0.009641465831827428,0.0,0.004488687044174822,0.009190971203050222,-0.9999476875001834,0.0,0.3864624780749508,-0.10063491259549075,0.3050395855555342,1.0,-0.22998000000000002,-0.3022594285714286,-0.9524677950000002,2.537999999999832
-0.13602548429287248,-0.44040279732414156,-0.13217039896575156,-2.5802792115729427,-0.05508601940634111,2.1450355456133514,0.68948287048558,-0.8582029952630699,-0.481942341344591,-0.009030009555255954,-0.3779111618410158,-0.059567008759740095,-0.07407552497429178,0.13621544307075403,0.9915460074361555,-0.12962829204606352,0.0037105174636454883,0.0,-0.12958800462877557,-0.9915119683420414,-0.009576669151196145,0.0,0.004920524474850252,0.009015043074666412,-0.9999472573277324,0.0,0.38264338343092685,-0.10575889431070215,0.305122885269763,1.0,-0.22998000000000002,-0.3022594285714286,-0.9524677950000002,2.55499999999983
-0.15027382964705296,-0.44798609869650496,-0.13234965947007954,-2.586471345391379,-0.05618301362772956,2.143736765805516,0.691397776792234,-0.8851177999797757,-0.47030828219137494,-0.006475216389806021,-0.39213305959213446,-0.07631327114659518,-0.08422496397366724,0.11130872650786354,0.9894365665993005,-0.14485107838361366,0.003767315821684761,0.0,-0.1448096770962276,-0.9894032857167245,-0.009593879999482536,0.0,0.005117177037630538,0.008947164160031523,-0.9999468799654605,0.0,0.3789533411888676,-0.11063308394259316,0.3051582527951767,1.0,-0.22998000000000002,-0.3022594285714286,-0.9524677950000002,2.5709999999998283
-0.16536809640903466,-0.4556683587094215,-0.13245352220802417,-2.5928847235891244,-0.057353931743202205,2.1422597530387097,0.6932645410425091,-0.8872995292885733,-0.44671798786740646,-0.003871922363177118,-0.3678062709150169,-0.07175907307366503,-0.07953529117957742,0.10482459952689639,0.986987068660483,-0.16070117691414976,0.00352206425304315,0.0,-0.16066161285390745,-0.9869535268604381,-0.009556614156260222,0.0,0.005011969374536962,0.008866564777785163,-0.9999481307508056,0.0,0.3750078821365743,-0.11568807959752486,0.30509933754420027,1.0,-0.22998000000000002,-0.3022594285714286,-0.9524677950000002,2.5879999999998264
-0.18081697706862043,-0.4630615846301188,-0.13264534156919108,-2.5989577893433604,-0.05842437685719015,2.140956262703908,0.694813580818965,-0.8968854516503193,-0.41761739266493103,-0.006874645497073171,-0.3511323139515579,-0.06324836611298042,-0.08891842091687553,0.0895585972440178,0.9842499117108334,-0.17669336648386674,0.003508908522973635,0.0,-0.1766532511242802,-0.984216729768365,-0.00958147235528715,0.0,0.005146608166020694,0.008810872857875754,-0.999947939116766,0.0,0.37108920324910055,-0.12084763957941619,0.30507886831513814,1.0,-0.22998000000000002,-0.3022594285714286,-0.9524677950000002,2.6049999999998246
-0.1963240492501725,-0.47020808830837724,-0.13279886364609791,-2.6045951395476363,-0.05939065169406448,2.1396717105448917,0.6962645445897514,-0.9181081898350137,-0.4159101783587725,-0.014697580671732512,-0.3164629295014982,-0.05150263520383523,-0.07278612729244888,0.0784755775933316,0.9810608900076272,-0.19361355817356085,0.0037506119532511864,0.0,-0.19357052248608836,-0.981029316012762,-0.009627089342249245,0.0,0.005543502031127079,0.00871892078909993,-0.9999466235782309,0.0,0.367017793759871,-0.12628160542736022,0.30516113072707574,1.0,-0.22998000000000002,-0.3022594285714286,-0.9524677950000002,2.6229999999998226
-0.21209411916432275,-0.4770758528671592,-0.13295302884883972,-2.609974188745751,-0.060401836529945914,2.138415253533718,0.6974765488341375,-0.9148469854058374,-0.39119078191611084,-0.005286546862664973,-0.3147559083476111,-0.04991380846432643,-0.08206864087301068,0.06558480595714239,0.9779938262823081,-0.20855098134513989,0.003912906193372832,0.0,-0.20850630914780843,-0.9779641970081778,-0.009586204510496419,0.0,0.005826006690091812,0.008559547998146566,-0.9999463944552801,0.0,0.363374180827265,-0.131132354619939,0.3052147436571412,1.0,-0.22998000000000002,-0.3022594285714286,-0.9524677950000002,2.638999999999821
