nelsonifechukwu/NELSON_IML_WORK/CNN-GradCAM/train2dof/data_sample_2022-02-21-17-25-13/robot_state.csv
position_joint1,position_joint2,position_joint3,position_joint4,position_joint5,position_joint6,position_joint7,velocity_joint1,velocity_joint2,velocity_joint3,velocity_joint4,velocity_joint5,velocity_joint6,velocity_joint7,ee_T_00,ee_T_10,ee_T_20,ee_T_30,ee_T_01,ee_T_11,ee_T_21,ee_T_31,ee_T_02,ee_T_12,ee_T_22,ee_T_32,ee_T_03,ee_T_13,ee_T_23,ee_T_33,v_x,v_y,time
0.465070171565,0.547850192594,-0.123998715472,-1.35587287637,0.0794672722485,1.89409791438,0.159168749538,-0.000177221708299,0.00100965626888,0.00129721239194,-0.000539425409228,4.52545732468e-05,-0.000251218735336,2.64896306616e-05,0.573817178975,0.818969627721,0.00182780892162,0.0,0.818925193349,-0.573759411699,-0.0119336534994,0.0,-0.00872474517055,0.00834473482242,-0.999927119455,0.0,0.661670659997,0.260871100876,0.303146565845,1.0,0.0,0.0,0.0
0.465072254892,0.547848083329,-0.124001300207,-1.35587852047,0.0794721410205,1.89409871461,0.159161583308,0.00175737929786,-0.000202558912502,-0.000348108191369,-0.00414781016257,8.11289874823e-05,-0.000207271408616,-0.00120551469186,0.573813010044,0.818972548716,0.00182780057973,0.0,0.818928076823,-0.573755207531,-0.011937911216,0.0,-0.00872827952036,0.0083471266901,-0.999927068647,0.0,0.661669357747,0.260871184098,0.303145537985,1.0,-0.00028,-0.000368,0.015
0.465061096816,0.547839564193,-0.124000925745,-1.35587667888,0.0794685522019,1.89409816021,0.159162145139,-0.00187932629605,-0.00273517211394,0.000971495640974,0.000351847111665,0.000327910139831,-0.000379882511964,-0.000454231824247,0.573821277357,0.818966741247,0.00183447105812,0.0,0.818922389684,-0.573763477511,-0.0119305678903,0.0,-0.00871835366801,0.00834846386296,-0.999927144076,0.0,0.661672923188,0.260863731449,0.303152382144,1.0,-0.00062,-0.000814857142857,0.032
0.465068637416,0.547814575581,-0.124003432371,-1.35590604802,0.0794707210544,1.89409952926,0.159162047051,0.000690030471532,-0.00104092396351,-0.000368409413123,-0.00370897860483,8.84432669569e-05,-0.000355204616565,-0.000383342783386,0.573818916131,0.818968396785,0.00183397343294,0.0,0.818924002379,-0.573761083869,-0.0119349849422,0.0,-0.00872228083006,0.00835056576183,-0.999927092277,0.0,0.6616656109,0.260864556362,0.303156312429,1.0,-0.00094,-0.00123542857143,0.048
0.465068204973,0.547698210794,-0.124003669039,-1.35602938325,0.0794673503043,1.89412700679,0.159162055508,-0.000357011032584,-0.00839585588604,0.000254404026109,-0.0146608379499,0.000254049703731,0.00119960474027,-0.00122827977054,0.573825270078,0.818963896988,0.00185519559661,0.0,0.818919719473,-0.573767290002,-0.0119305022344,0.0,-0.00870636767758,0.00836544098503,-0.999927106623,0.0,0.661646253121,0.260852346753,0.303182432375,1.0,-0.0013,-0.00170857142857,0.066
0.465058842893,0.547568291717,-0.123998141798,-1.35622031827,0.0794677919752,1.89416179567,0.159161507878,-0.00107491850628,0.000153356554721,0.00128595985882,-0.0114536942833,4.32709159548e-05,0.00266137496199,0.00110488687449,0.573839174347,0.818954183921,0.00184215195872,0.0,0.818909649729,-0.573781068841,-0.0119589933021,0.0,-0.00873704389557,0.00837125603039,-0.999926790388,0.0,0.661613991061,0.26083082206,0.30318642938,1.0,-0.00164,-0.00215542857143,0.083
0.465040078931,0.5474072299,-0.124006291342,-1.35641824024,0.0794611204704,1.89426911499,0.159149364178,0.00129614521245,-0.0100093149264,-0.000639005710177,-0.0148380279313,-3.04392014661e-05,0.00774490469584,-0.000608244492564,0.573859792246,0.818939598969,0.00190236301684,0.0,0.818895889858,-0.573801468532,-0.011922381704,0.0,-0.00867229876732,0.00839977446494,-0.999927114855,0.0,0.661601416403,0.260798534217,0.30321589369,1.0,-0.00196,-0.002576,0.099
0.46501590945,0.547216205648,-0.124001984542,-1.35663310281,0.0794560295932,1.89438985816,0.159140464636,-0.00248606949594,-0.0114204005235,-0.000152956105415,-0.0150803352735,-0.00329839129502,0.00544550498737,0.0011155709631,0.573880166378,0.818925113971,0.00198978572909,0.0,0.818882507088,-0.573821442786,-0.0118801635628,0.0,-0.00858734791483,0.00844735360618,-0.999927447204,0.0,0.661586881757,0.260769434497,0.303259268584,1.0,-0.0023,-0.00302285714286,0.116
0.464982141872,0.546999996316,-0.124003469648,-1.35693046096,0.079451424668,1.89453319233,0.159127447502,-0.00434202120299,-0.0114993511895,-0.00201384095946,-0.0221839779558,-0.000193540715324,0.00629778465825,-0.00127997742658,0.573913809762,0.818901391445,0.00204864717718,0.0,0.818859483663,-0.573854776723,-0.0118569872786,0.0,-0.00853424172298,0.00848260622756,-0.999927603434,0.0,0.661562383286,0.260722775623,0.303283364903,1.0,-0.00266,-0.003496,0.134
0.464948056888,0.546788919486,-0.124001081425,-1.35725332301,0.0794435664521,1.89464401379,0.159095678004,-0.00154518578156,-0.0088373315172,0.000498613881957,-0.0274344737022,-0.000113622043818,0.00486363874661,-0.00227321277515,0.573929957495,0.818890058317,0.00205503771869,0.0,0.818848104073,-0.573870767773,-0.0118689196494,0.0,-0.00854017865534,0.00849485584195,-0.999927448755,0.0,0.661524763739,0.260672307993,0.303288718717,1.0,-0.00296,-0.00389028571429,0.149
0.464912181603,0.546502128618,-0.124001345435,-1.35767421328,0.0794349048797,1.894805894,0.158951634149,-0.00134093490549,-0.0218651450912,0.000288949329121,-0.0253716696933,-0.000187653792708,0.0140196570102,-0.0113469608775,0.573862831518,0.818937014503,0.00208896615739,0.0,0.818895350111,-0.57380336182,-0.0118682109851,0.0,-0.00852082552009,0.00852153389973,-0.99992738686,0.0,0.661477933621,0.260611821578,0.303305543261,1.0,-0.0033,-0.00433714285714,0.166
0.464866447256,0.546201499647,-0.124004864265,-1.35817424587,0.0794138997758,1.89497677638,0.158920648335,-0.00261563889875,-0.0201572176127,-0.00082416927539,-0.0279838599378,-0.000168644779777,0.00830961284684,0.00437114891282,0.573899703423,0.818911228161,0.00206826108493,0.0,0.818869207819,-0.573840226676,-0.0118895598928,0.0,-0.00854980729461,0.00851721419527,-0.999927176277,0.0,0.661419062491,0.260532319542,0.303295346855,1.0,-0.00366,-0.00481028571429,0.184
0.464822327206,0.545928846316,-0.124001765152,-1.35865805627,0.0793818503995,1.89513698042,0.158887857193,-0.00108071063124,-0.0168441632303,0.000501476478121,-0.0325506239499,-0.00541430080883,0.0140442205878,-0.00742798102249,0.573925288311,0.818893410037,0.00202319949227,0.0,0.818850782907,-0.573865973007,-0.0119158406755,0.0,-0.00859692357645,0.00849566435126,-0.999926955628,0.0,0.661359679937,0.260456759796,0.303271879383,1.0,-0.00396,-0.00520457142857,0.199
0.464765827476,0.545597583683,-0.124003787736,-1.35922060892,0.0792919400923,1.89532859312,0.158799912767,-0.00550079282223,-0.0205196252474,5.10591345898e-05,-0.0351160207576,-0.000663229697945,0.0136188105967,-0.00598225485121,0.573908426056,0.818905386716,0.00195780783778,0.0,0.818862398094,-0.573849864299,-0.0118934071205,0.0,-0.00861625328495,0.00842906406763,-0.99992735289,0.0,0.661297615026,0.260354237521,0.303255200676,1.0,-0.00428,-0.00562514285714,0.215
0.464699716666,0.545158202052,-0.124004476154,-1.36000409442,0.0792703865874,1.89557218896,0.158704795569,-0.00369233943335,-0.0206759054576,0.000454855818421,-0.0377931568868,-0.000586240038556,0.00456208818939,-0.00137999543742,0.573922952897,0.818895374359,0.00188597248952,0.0,0.818851144452,-0.573864393655,-0.0119669472354,0.0,-0.00871755311705,0.00841259839455,-0.999926613535,0.0,0.661196281532,0.260235920892,0.303214479289,1.0,-0.00466,-0.00612457142857,0.234
0.464632097916,0.544724341708,-0.124005223954,-1.36072235413,0.0792490807556,1.89582222449,0.158627591925,-0.00384022060867,-0.0259088279334,0.00146692503358,-0.0458557020743,-0.000597432633589,0.0118325983018,-0.00419650578523,0.573952003917,0.818875048834,0.00187042712861,0.0,0.818830421081,-0.57389331961,-0.0119977547842,0.0,-0.00875140489251,0.00841786010408,-0.999926273554,0.0,0.661115470135,0.260132845681,0.303205092838,1.0,-0.00498,-0.00654514285714,0.25
0.464570445715,0.544290846835,-0.124008795888,-1.36144220541,0.0792183479169,1.89608494574,0.158502396825,-0.00614872943569,-0.0264189768863,0.000147530115225,-0.0484162709345,0.000236512114629,0.0184227751391,-0.00428766004446,0.573932417994,0.818888814683,0.00185355455504,0.0,0.818843817148,-0.573873665345,-0.0120235703054,0.0,-0.00878243017824,0.00841865055057,-0.999925994883,0.0,0.661028180504,0.260015006784,0.303188463317,1.0,-0.00532,-0.006992,0.267
0.464496806981,0.543741266934,-0.124010926869,-1.36230793863,0.0791776003775,1.89638701423,0.158433002786,-0.0111669673467,-0.0335527073171,-0.000539505031598,-0.0499269952232,-0.00195803425429,0.0140524207869,-0.00339945549127,0.573974646475,0.818859231002,0.001847135065,0.0,0.818814023845,-0.573915796019,-0.0120416085729,0.0,-0.00880045178081,0.00842420031074,-0.999925789695,0.0,0.660925553203,0.259883454924,0.303191523978,1.0,-0.00568,-0.00746514285714,0.285
0.464424890913,0.543266059502,-0.124022566324,-1.36306484043,0.0791290091317,1.8966603602,0.158322579051,-0.00935373735856,-0.0277877225264,-0.000526256748361,-0.0540083553455,-0.00179204742309,0.0105116711483,-0.00675736912255,0.573980419051,0.818855211077,0.00183541265783,0.0,0.818809919907,-0.573921685113,-0.0120399884283,0.0,-0.0088057936792,0.00841373368527,-0.999925830791,0.0,0.660842348171,0.259756261536,0.303191508909,1.0,-0.00598,-0.00785942857143,0.3
0.464348665215,0.542685598473,-0.124022609193,-1.36396379252,0.0790805397599,1.89697799971,0.158197050415,-0.0013748355605,-0.041096639356,-0.00198029818131,-0.0536147067801,-0.0012794931584,0.0230503811818,-0.00528134927623,0.57397703976,0.818857573123,0.00183838760924,0.0,0.818812236693,-0.573918212856,-0.0120479415397,0.0,-0.00881063367106,0.0084206982149,-0.99992572953,0.0,0.660736362861,0.259620494915,0.30320174272,1.0,-0.00632,-0.00830628571429,0.317
0.464261344073,0.542089050311,-0.124021218615,-1.36488552286,0.0790224033879,1.8973214219,0.158089225912,-0.00794839292254,-0.0323166659094,0.000504614821332,-0.0507810056157,-0.00269965330752,0.0178353064429,-0.00908066366442,0.573985101543,0.818851881426,0.00185644637438,0.0,0.818806808822,-0.573926221636,-0.0120353166411,0.0,-0.00878984765361,0.00842832564728,-0.999925848203,0.0,0.660628144441,0.259471819002,0.303215159097,1.0,-0.00668,-0.00877942857143,0.335
0.464184684747,0.54144630033,-0.124026396624,-1.36585542289,0.0789664681058,1.89768861369,0.157943093288,-0.00184148397564,-0.0372999483307,0.000684616467572,-0.0596386774959,-0.00149388734875,0.0107705298129,-0.0065899928569,0.573980651833,0.818854930955,0.00188686878473,0.0,0.818810244222,-0.573921629739,-0.012020556397,0.0,-0.00876034573423,0.00844471687353,-0.999925968809,0.0,0.660524233352,0.259331471057,0.303239415847,1.0,-0.007,-0.0092,0.351
0.464090985857,0.540757726577,-0.124024399776,-1.3669184771,0.078897949242,1.89808154073,0.15781849338,-0.00382171035048,-0.0379027675376,0.000745489376116,-0.0605098111833,-0.00570895202926,0.0175070178022,-0.00662991116244,0.573994560967,0.818845149924,0.00190034935399,0.0,0.818800659598,-0.573935498808,-0.0120112427414,0.0,-0.00874483827417,0.00845055800794,-0.999926055203,0.0,0.660402953359,0.25916917758,0.303254164008,1.0,-0.00734,-0.00964685714286,0.368
0.463998809492,0.540027464659,-0.124029719068,-1.36801955229,0.0788404064347,1.89848895837,0.157673176334,-0.00399557408768,-0.0460991442981,-0.00020277233241,-0.0588389255722,-0.0083416762882,0.0291966412137,-0.0106528768638,0.574000334765,0.818841020267,0.00193548913112,0.0,0.818796924261,-0.573941059099,-0.0120001834614,0.0,-0.00871555358856,0.00847304500396,-0.999926120588,0.0,0.660277348312,0.259002451581,0.303281684748,1.0,-0.00768,-0.0100937142857,0.385
0.463898654424,0.539333720883,-0.124033220588,-1.36910324003,0.0787741986553,1.89890857058,0.157545081587,-0.00860231308126,-0.0478840622291,0.000156274331892,-0.0638280605178,-0.0085729308754,0.029203879406,-0.00911274871275,0.574022272233,0.818825588007,0.00195813882104,0.0,0.818781828709,-0.573962937694,-0.0119837402265,0.0,-0.00868886131486,0.00848238559163,-0.999926273694,0.0,0.66015915266,0.2588325281,0.303292551256,1.0,-0.008,-0.0105142857143,0.401
0.463793211966,0.538573564284,-0.124036819805,-1.37029967514,0.0787104474098,1.89936155899,0.157393052017,-0.00599555417442,-0.0503023600538,-0.00123671513729,-0.071418523126,-0.00947098385302,0.0278429106861,-0.0134095117079,0.574035771137,0.8188160839,0.00197512098683,0.0,0.818772487749,-0.573976306024,-0.0119816663825,0.0,-0.00867727556236,0.00849524338512,-0.999926265146,0.0,0.660024303536,0.258649217528,0.303299469415,1.0,-0.00834,-0.0109611428571,0.418
0.463679542876,0.537743762945,-0.124042547637,-1.37159865199,0.0786343257441,1.89986994975,0.157249516417,-0.00286658804891,-0.0501479442823,-0.000982808799596,-0.0723156402354,0.000547117704758,0.0334612898219,-0.0181505984747,0.574066804783,0.818794250586,0.00200642856378,0.0,0.81875109745,-0.574007238296,-0.0119615094719,0.0,-0.00864247705966,0.00850963494832,-0.999926444146,0.0,0.659881632783,0.258449755737,0.303311493721,1.0,-0.0087,-0.0114342857143,0.436
0.463578169565,0.537018950946,-0.12404815932,-1.37275149641,0.0785717774012,1.90029221633,0.157099171642,-0.00873502631854,-0.0479368654405,-0.000261500704807,-0.0769195284749,-0.00241563193305,0.0306465430306,-0.0150861716834,0.574077397315,0.818786831101,0.00200349926887,0.0,0.81874358253,-0.574017785442,-0.0119697520192,0.0,-0.00865079766607,0.0085120801386,-0.999926351384,0.0,0.659748646125,0.258270810471,0.30331133814,1.0,-0.009,-0.0118285714286,0.451
0.463468298363,0.536173333026,-0.1240520469,-1.37406542071,0.0784932716893,1.90078891975,0.156943319829,-0.00564680612334,-0.0515284406959,6.01662184362e-06,-0.0820394379753,-0.00397144949957,0.0285994970596,-0.00738564016877,0.57409377234,0.818775293728,0.00202628791875,0.0,0.818732355273,-0.574034075944,-0.011956462087,0.0,-0.00862666353423,0.00852328200316,-0.999926464466,0.0,0.659598758562,0.258072209959,0.303326041406,1.0,-0.00934,-0.0122754285714,0.468
0.463354734613,0.535219554474,-0.124055227525,-1.37556724138,0.0784104813659,1.90132526716,0.156761915169,-0.00231463389653,-0.0548774618974,0.000621155464526,-0.0824527849982,0.000234415703453,0.0327355067425,-0.00699804141949,0.574100618642,0.818770509043,0.00201992530536,0.0,0.818727384955,-0.574040846611,-0.0119717353896,0.0,-0.00864275064641,0.00852691302594,-0.999926294592,0.0,0.659416686428,0.257852715715,0.303330894476,1.0,-0.0097,-0.0127485714286,0.486
0.4632295909,0.534317972792,-0.124058202668,-1.37704437613,0.0783308550555,1.90186149185,0.156578125746,-0.00266257527792,-0.0536157397461,-0.001556120197,-0.0825719354001,-0.00145667035844,0.0389498310549,-0.0068648491899,0.57411432551,0.818760971962,0.00198970799605,0.0,0.818717341859,-0.574054569097,-0.0120005307929,0.0,-0.00868353247468,0.00851884909779,-0.99992601,0.0,0.659241324968,0.257628464366,0.303310481081,1.0,-0.01004,-0.0131954285714,0.503
0.463095117698,0.533392599891,-0.124055588863,-1.37852962262,0.0782412013718,1.90241104389,0.156385851583,-0.00794854809803,-0.0539653050018,0.00276580703579,-0.0877272259123,-0.0005759631935,0.0282453405338,-0.0104364026512,0.57412240194,0.818755331115,0.00198047049402,0.0,0.81871154382,-0.574062647837,-0.012009632587,0.0,-0.00869620399844,0.00851659713378,-0.999925919061,0.0,0.659068664609,0.257399969883,0.303303752166,1.0,-0.01038,-0.0136422857143,0.52
0.462980873167,0.532500462636,-0.12406081963,-1.37997541914,0.0781639135658,1.90296085959,0.156201308683,-0.00979247296073,-0.0597142543806,0.000531572516374,-0.0949018941602,-0.00324926051871,0.0382919320735,-0.011525286593,0.57412693437,0.818752155223,0.00197950775879,0.0,0.818708286386,-0.574067116264,-0.0120181000282,0.0,-0.00870364256117,0.00852071838147,-0.999925819231,0.0,0.658899896439,0.257186522057,0.303292484359,1.0,-0.0107,-0.0140628571429,0.536
0.462854436819,0.531590094314,-0.124053989511,-1.38144665729,0.0780754156742,1.90349416664,0.156016574681,-0.00421052625029,-0.051400910102,0.000663925284677,-0.0898067649739,-0.00135624577365,0.0346737793791,-0.0136094858253,0.574130800372,0.818749498216,0.00195707319179,0.0,0.818705257427,-0.574071000688,-0.0120388758449,0.0,-0.00873349273823,0.00851431946271,-0.999925613468,0.0,0.658723008583,0.256966375228,0.303279932902,1.0,-0.01102,-0.0144834285714,0.552
0.46270927602,0.530508354787,-0.124059088984,-1.38319479547,0.077964187406,1.90410574243,0.155796083761,-0.0108986982827,-0.0570992958461,-0.00126928061227,-0.0938969366132,-0.0110488537763,0.037499252508,-0.0168422128096,0.574137735088,0.818744755645,0.00190608300273,0.0,0.818699843278,-0.574078150096,-0.0120661137138,0.0,-0.00878499585844,0.00848828448033,-0.999925383653,0.0,0.658509968139,0.256698019576,0.303263302952,1.0,-0.01138,-0.0149565714286,0.57
0.462570013889,0.529465009691,-0.124061346986,-1.3848472637,0.0778583013148,1.90471364101,0.15557649478,-0.00712692005121,-0.0637972651518,0.000109170314696,-0.103407346533,-0.00612342253542,0.0390721795136,-0.0167103602472,0.574134782433,0.818746838825,0.00190063573733,0.0,0.818701889313,-0.574075254441,-0.0120650559299,0.0,-0.00878728764088,0.00848318565803,-0.999925406786,0.0,0.658314584054,0.256446687788,0.303264485213,1.0,-0.01172,-0.0154034285714,0.587
0.46245412904,0.528485384813,-0.124065168338,-1.38633576429,0.0777578684669,1.90528381064,0.155373485218,-0.00338421932288,-0.0654582585049,0.0016650966049,-0.0996206997892,-0.0124479975961,0.0295652453772,-0.016862015758,0.57411983096,0.818757216939,0.00194584457731,0.0,0.818712981497,-0.574060228954,-0.0120272341863,0.0,-0.0087305208959,0.0084983254925,-0.99992577548,0.0,0.658141988223,0.256226807571,0.303295348829,1.0,-0.01202,-0.0157977142857,0.602
0.462296899312,0.52730037732,-0.124065256407,-1.38817708612,0.0776579531163,1.90599700807,0.155108337663,-0.0134288295611,-0.0692887774741,0.000457941424371,-0.10630102114,-0.0118180187895,0.0428752313954,-0.0123715656751,0.574104477826,0.818767853679,0.00199930574552,0.0,0.818724228829,-0.574044564125,-0.0120092642181,0.0,-0.00868527611136,0.00853161667777,-0.999925886001,0.0,0.657929973983,0.255952487399,0.303314952051,1.0,-0.01238,-0.0162708571429,0.62
0.462147848872,0.52612727393,-0.1240712335,-1.38999142634,0.0775372057734,1.90666991999,0.154870897909,-0.00337651425278,-0.0686311210325,6.08008743245e-05,-0.106928284633,-0.0051352057019,0.0400682970144,-0.0132976804075,0.574101638362,0.818769797074,0.00201869543297,0.0,0.818726530175,-0.574041746335,-0.0119870410551,0.0,-0.00865597837492,0.00853470373564,-0.999926113706,0.0,0.657715732083,0.255677143577,0.303335354324,1.0,-0.01272,-0.0167177142857,0.637
0.462001511924,0.525017216751,-0.124074425562,-1.39172356131,0.0774263434294,1.90728902712,0.154632303521,-0.00662601303047,-0.0644803226932,0.000236917236398,-0.111493039004,-0.00732460792602,0.0354963840143,-0.0113109764658,0.574091543571,0.81877688947,0.00201290102817,0.0,0.818733556806,-0.574031686892,-0.0119888408457,0.0,-0.00866088359208,0.00853088601101,-0.999926103809,0.0,0.657505956417,0.255412127876,0.303345493668,1.0,-0.01304,-0.0171382857143,0.653
0.461839949291,0.523834889272,-0.124088667499,-1.39361630291,0.0773055481876,1.90798162831,0.154374013139,-0.0128470127412,-0.0717503172271,-0.00136746540848,-0.106921609198,-0.00897688988797,0.0392102259291,-0.0176121718388,0.574091487476,0.818776984149,0.00199026069904,0.0,0.818733434625,-0.574031803558,-0.0119915984134,0.0,-0.00867613888794,0.00851393146782,-0.999926116063,0.0,0.657281384185,0.255115958862,0.303336476639,1.0,-0.01338,-0.0175851428571,0.67
0.461691003272,0.522604391187,-0.124092909793,-1.39555555593,0.0771955274852,1.90871805654,0.154120855511,-0.0123639398985,-0.0742802740665,-0.000434396804532,-0.115460579498,-0.000721827250248,0.0432902302462,-0.0128060603403,0.574083598068,0.818782454104,0.0020154856459,0.0,0.818739179108,-0.574023755095,-0.0119846602394,0.0,-0.00865605953958,0.00853051817399,-0.999926148719,0.0,0.65704917951,0.254833734346,0.30334234859,1.0,-0.01372,-0.018032,0.687
0.461528348016,0.521444448873,-0.124092866795,-1.3974244158,0.0770829739765,1.90944663852,0.153861120524,-0.0112280281168,-0.0753696804482,-0.000609330855249,-0.118311173952,-0.00333976525152,0.0525299947036,-0.0132587463104,0.574073932609,0.818789195299,0.00202989172973,0.0,0.818746116711,-0.574014038745,-0.0119760843277,0.0,-0.00864086846298,0.00853728816755,-0.99992622233,0.0,0.656832165494,0.254551515412,0.30333101963,1.0,-0.01404,-0.0184525714286,0.703
0.461354896702,0.520076365205,-0.124098556791,-1.39957726998,0.0769374992038,1.91022903821,0.153573966836,-0.0112411914505,-0.0804583763246,-0.000355127752664,-0.121631051625,-0.0125040732318,0.0425127859717,-0.0174339295322,0.574060186134,0.818798861615,0.00201836907665,0.0,0.818755734871,-0.574000443061,-0.0119701663721,0.0,-0.00864278025486,0.00852431131162,-0.999926316518,0.0,0.656569514008,0.254226335431,0.303335158606,1.0,-0.0144,-0.0189257142857,0.721
0.461173610253,0.518736662095,-0.124099053218,-1.40165471173,0.0767986680956,1.91097150988,0.153293010001,-0.0118129967713,-0.079344369653,0.00417497383015,-0.120008931371,-0.0128722097991,0.0426147227715,-0.0122646110401,0.574051578328,0.81880490119,0.00201645914833,0.0,0.818761793455,-0.573991887631,-0.0119660107081,0.0,-0.00864056338027,0.00852027108363,-0.999926370112,0.0,0.656315630551,0.253906048922,0.303351201595,1.0,-0.01474,-0.0193725714286,0.738
0.461015736737,0.517469373765,-0.12410790269,-1.40365833917,0.0766719974718,1.91169006194,0.153025916123,-0.00194028238098,-0.0751145933752,-0.00074141213154,-0.126009336136,-0.00836041179017,0.0457593077563,-0.0134055412092,0.574040274637,0.818812874025,0.0019968292533,0.0,0.818769525716,-0.573980682857,-0.011974404638,0.0,-0.00865882196714,0.00850889729029,-0.999926309019,0.0,0.656067089473,0.253604446078,0.303349405103,1.0,-0.01506,-0.0197931428571,0.754
0.460822094966,0.516108545632,-0.124106682294,-1.40580599083,0.0765363973924,1.91249695285,0.152719416183,-0.0104410989556,-0.0790618578616,-0.000271925701512,-0.130212590145,-0.0103564809627,0.0479084810322,-0.0173199221387,0.574027870614,0.818821565752,0.00199852914793,0.0,0.818778269796,-0.573968302902,-0.0119699237762,0.0,-0.00865430596721,0.00850758589191,-0.999926359274,0.0,0.655827432998,0.253289453083,0.303342645405,1.0,-0.01538,-0.0202137142857,0.77
0.460628364155,0.514732711725,-0.12411267473,-1.40803199485,0.0763991850122,1.91332028572,0.152410348037,-0.0121556652512,-0.0847268786432,0.000488789747115,-0.135610553702,-0.00731704128626,0.0520147481156,-0.00958628890646,0.574014123862,0.818831238533,0.00198376176634,0.0,0.818787729246,-0.573954599648,-0.0119799365853,0.0,-0.00867112406729,0.00850109626739,-0.999926268767,0.0,0.655541028782,0.252931025688,0.303328373519,1.0,-0.01574,-0.0206868571429,0.788
0.460453923449,0.513417300725,-0.124115740374,-1.41016734942,0.0762756815674,1.91404775774,0.152125765092,-0.00671077442605,-0.0838184403922,0.000111954365363,-0.128609646371,-0.00343871809993,0.0456393174552,-0.0182333661085,0.574004685197,0.818838032582,0.00190910215951,0.0,0.818793362311,-0.573945299601,-0.0120403406487,0.0,-0.00876353736276,0.00847453528098,-0.999925688571,0.0,0.655264663325,0.252608241832,0.303297107866,1.0,-0.01606,-0.0211074285714,0.804
0.460248027716,0.511985412221,-0.1241159775,-1.41244761606,0.076136777308,1.91486933015,0.151796598588,-0.0177371607768,-0.0826782279377,0.00261781511632,-0.13304673236,-0.00517244397023,0.0384203238751,-0.0239668618958,0.573985749506,0.818851358448,0.0018865397004,0.0,0.818806310298,-0.57392638414,-0.0120614553518,0.0,-0.00879397350211,0.00846797713633,-0.99992547692,0.0,0.654982987289,0.252254765093,0.303286085149,1.0,-0.0164,-0.0215542857143,0.821
0.460052703982,0.510529559771,-0.124122729427,-1.41477027458,0.0759878568119,1.91576094539,0.151462637311,-0.0148688963859,-0.0908204438085,-0.000739407613011,-0.138185863354,-0.0109579830539,0.0563262016075,-0.0215379866024,0.573958311903,0.818870559956,0.00189977260879,0.0,0.818825779313,-0.573898983609,-0.0120435313132,0.0,-0.00877198454889,0.00846823072846,-0.999925667915,0.0,0.654704275389,0.251902848341,0.303277475473,1.0,-0.01674,-0.0220011428571,0.838
0.459858406363,0.509137304511,-0.124130489978,-1.41699840736,0.0758542363561,1.91657457765,0.151157946681,-0.0177757860541,-0.086928228366,-0.000488958685055,-0.144527675154,-0.014323712638,0.0444679500373,-0.0107094034762,0.573953366132,0.818874072711,0.00187974691847,0.0,0.818828979588,-0.573894076607,-0.0120597646545,0.0,-0.00879682234267,0.0084610966717,-0.999925510106,0.0,0.654429103903,0.251558679723,0.303262169203,1.0,-0.01706,-0.0224217142857,0.854
0.459641130087,0.507526494472,-0.124136713046,-1.41951739661,0.0756904180862,1.91746947371,0.150803538869,-0.013670625874,-0.0881318272686,-0.00102139105471,-0.139240667219,-0.0116062334138,0.0500707826294,-0.0160255145448,0.573931583344,0.818889378062,0.00186307238164,0.0,0.818844079859,-0.573872381809,-0.0120668628296,0.0,-0.00881242967913,0.00845128219321,-0.999925455678,0.0,0.654112468937,0.251169518269,0.303267751342,1.0,-0.01742,-0.0228948571429,0.872
0.459424811621,0.505963273258,-0.124139810777,-1.42196632227,0.0755383585716,1.9183978578,0.150476975352,-0.0158390411721,-0.0936197319459,-0.00154378684948,-0.146259814188,-0.00641517067601,0.062056432794,-0.0198131985961,0.573929198335,0.818890974145,0.00189595994152,0.0,0.818846124913,-0.573869872092,-0.0120474279986,0.0,-0.00877766475784,0.00846703316098,-0.99992562821,0.0,0.6538154192,0.250794658837,0.303275657129,1.0,-0.01776,-0.0233417142857,0.889
0.459212481941,0.504412798167,-0.124141565876,-1.42429914775,0.0753897893523,1.9193005585,0.150152196595,-0.0126629596316,-0.0976987464965,-0.00130988713146,-0.147269711278,-0.0134841832667,0.0510452796029,-0.0191263024047,0.573918540338,0.818898210169,0.00199432697132,0.0,0.818854727591,-0.573858874442,-0.0119864184559,0.0,-0.00867136133939,0.00851245574405,-0.999926170069,0.0,0.653538285604,0.250435689095,0.303326978549,1.0,-0.01808,-0.0237622857143,0.905
0.458985570504,0.502741733218,-0.124146492392,-1.42676891317,0.0752261983507,1.92022627449,0.149810471784,-0.0117542614274,-0.0992488812504,0.00172645368821,-0.143298977362,-0.0127900517369,0.0546885239463,-0.0219156116229,0.573910417088,0.818903649019,0.00209611137922,0.0,0.818861611202,-0.573850446034,-0.0119194877188,0.0,-0.00855822230974,0.00855730806411,-0.999926761973,0.0,0.653240189162,0.250049959623,0.303398787689,1.0,-0.01842,-0.0242091428571,0.922
0.458756249656,0.501032748832,-0.124148298682,-1.42934124201,0.0750687505397,1.92113008902,0.149444516015,-0.0151004164496,-0.0979413526736,-0.000224399554795,-0.153481729534,-0.00732579453482,0.0482539485679,-0.017824986287,0.573888453832,0.818918943002,0.00213406944761,0.0,0.818877292537,-0.5738282234,-0.0119120400118,0.0,-0.00853057017562,0.00858388850214,-0.999926770434,0.0,0.652912469037,0.249652490009,0.303445661128,1.0,-0.01876,-0.024656,0.939
0.458508463784,0.499317177776,-0.124147933439,-1.43194379118,0.074899614794,1.92208512854,0.149076919135,-0.0167137502918,-0.0934339596264,-0.0024544856402,-0.144407494169,-0.00491977000714,0.0582485258982,-0.0243045228421,0.573876741634,0.818927007241,0.00218840673957,0.0,0.818886090977,-0.573816320712,-0.0118805298902,0.0,-0.00847370642899,0.00861018139536,-0.999927027875,0.0,0.652591461146,0.249242402841,0.303486455145,1.0,-0.0191,-0.0251028571429,0.956
0.45825774687,0.497635370925,-0.124150064991,-1.43458380097,0.074739652943,1.92305592932,0.148689158698,-0.0153298917729,-0.0935478420853,-0.000818219201943,-0.151476631823,-0.0125199793181,0.0567284979629,-0.0225547416538,0.573856900657,0.818940879762,0.00219998269635,0.0,0.818900038106,-0.573796358595,-0.0118833225056,0.0,-0.00846955959236,0.00862105851854,-0.999926969288,0.0,0.65226326417,0.248826698195,0.303486785251,1.0,-0.01944,-0.0255497142857,0.973
0.457972305011,0.495850856284,-0.124150473283,-1.43744671906,0.0745627659029,1.92404669216,0.148263688581,-0.0174703660563,-0.0965065360625,0.000851318469909,-0.159865610119,-0.0121940263425,0.0537416520255,-0.0316941943675,0.573839142825,0.818953515878,0.00212694507909,0.0,0.818911556945,-0.573778730876,-0.0119405526352,0.0,-0.00855852649213,0.00859390185452,-0.999926445532,0.0,0.651895638232,0.248363172433,0.30345366869,1.0,-0.0198,-0.0260228571429,0.991
0.4577151948,0.494267833353,-0.124150020537,-1.44002830222,0.0744048859532,1.9249585841,0.147902226902,-0.0170606422197,-0.0986921934865,0.00265518007297,-0.164253878759,-0.0154528055362,0.053662627805,-0.0232323989516,0.573840610375,0.818952673819,0.00205397921027,0.0,0.818909615523,-0.573780353799,-0.0119955866554,0.0,-0.00864545129927,0.00856574301064,-0.999925939367,0.0,0.65156556654,0.247947142113,0.303406636725,1.0,-0.0222977142857,-0.0293055673469,1.007
0.457427921291,0.492143961376,-0.12423113351,-1.44330662142,0.0742156643662,1.92619214307,0.147443723453,-0.0163189518776,-0.126657577129,-0.00637645992386,-0.205254413066,-0.0171733654927,0.0812108155052,-0.0239665401336,0.573866811561,0.818934151062,0.0021179505183,0.0,0.81889212314,-0.573806481452,-0.0119398242575,0.0,-0.00856280096783,0.00858640718885,-0.999926473323,0.0,0.651195583311,0.247439612342,0.303443758231,1.0,-0.0284782857143,-0.0374286040816,1.023
0.457048065639,0.489541551087,-0.124240697079,-1.44750288921,0.0739780170498,1.9277311136,0.146819913413,-0.0289940429112,-0.163141663683,-0.00160851144531,-0.260329218446,-0.0185841858986,0.0916183827603,-0.0367216928245,0.57382541796,0.818963275756,0.00207112719972,0.0,0.818920382516,-0.573765033055,-0.0119933666932,0.0,-0.00863395273851,0.00857835209395,-0.999925930625,0.0,0.650633510904,0.246755024848,0.303380647,1.0,-0.0354314285714,-0.0465670204082,1.041
0.456606068002,0.486706725252,-0.124274793498,-1.45194784568,0.073719356107,1.92938373221,0.146169448527,-0.0287096987918,-0.200061084103,-0.00569501929314,-0.306500835303,-0.0169648000384,0.115185718875,-0.0465919369677,0.57383036752,0.818959713608,0.002108008619,0.0,0.818917222003,-0.57376974861,-0.0119835715704,0.0,-0.00860471643338,0.00860298747487,-0.999925970991,0.0,0.650083014393,0.246028537762,0.303379227783,1.0,-0.0412257142857,-0.0541823673469,1.056
0.455997285561,0.482729566682,-0.124373921038,-1.45810767234,0.0733427057286,1.9316178022,0.145220352121,-0.036377899635,-0.230104979362,-0.00503255452234,-0.361530233307,-0.0308852987064,0.124849762023,-0.0613896664721,0.573824676492,0.818963628446,0.00213607906677,0.0,0.818921698157,-0.573764138045,-0.0119462580923,0.0,-0.00855811007919,0.00860450484522,-0.999926357913,0.0,0.649316029245,0.244988466433,0.303404484117,1.0,-0.0481788571429,-0.0633207836735,1.074
0.455307132359,0.478409049528,-0.124463176323,-1.46490318465,0.0729424085485,1.9339896661,0.144204060531,-0.0423870242955,-0.259792041697,-0.00623420623185,-0.420922035939,-0.02392242944,0.144471749901,-0.0637461973224,0.573845264657,0.818949428946,0.00204742780051,0.0,0.818906151367,-0.573784902683,-0.0120144749237,0.0,-0.0086646310376,0.00857126578606,-0.999925726028,0.0,0.648440962718,0.243837198482,0.303373156921,1.0,-0.0547457142857,-0.0719515102041,1.091
0.454563156571,0.473825846132,-0.124533880783,-1.47195492455,0.072514066963,1.93656816716,0.143207535497,-0.0468101082687,-0.293960765445,0.000112556270208,-0.45221349614,-0.0302478194117,0.167176190681,-0.0646780141042,0.573914547157,0.81890065497,0.00213465539843,0.0,0.81885853157,-0.573853827833,-0.0119681434854,0.0,-0.00857590548024,0.00861683833455,-0.99992609924,0.0,0.647552961877,0.2426453724,0.30341423146,1.0,-0.0609262857143,-0.0800745469388,1.107
0.453663610399,0.468438313625,-0.124581426651,-1.48012031065,0.0720292949997,1.93957283052,0.141924552229,-0.0519694981382,-0.325040577068,-0.00337736323178,-0.488754071053,-0.0330232512574,0.190261822385,-0.0818871859329,0.573894242159,0.818914330945,0.00233758232606,0.0,0.818874647215,-0.573832497799,-0.0118879568929,0.0,-0.00839399917077,0.00873678512465,-0.999926601988,0.0,0.646520656059,0.241266400436,0.303511573786,1.0,-0.0674931428571,-0.0887052734694,1.124
0.452675352694,0.462530666168,-0.124612828989,-1.48918268749,0.0714427600145,1.94280536258,0.140501131772,-0.0620764879856,-0.352602752638,-0.000993139900449,-0.558052564925,-0.0314894652015,0.185585986074,-0.0877952503147,0.573827504216,0.818960924589,0.00239714493545,0.0,0.818921911541,-0.57376542586,-0.0118695318806,0.0,-0.0083454445943,0.00877430730064,-0.999926679855,0.0,0.645333981302,0.239741997243,0.303552829859,1.0,-0.07406,-0.097336,1.141
0.451631034964,0.456516853089,-0.124680459794,-1.49855250827,0.0708214194019,1.94595912486,0.139115369016,-0.0621937285455,-0.376743485831,-0.00396817175014,-0.602873989053,-0.0406568989889,0.204772309807,-0.091241085414,0.573861153575,0.818937871512,0.00221041224706,0.0,0.818896229013,-0.573799615823,-0.0119880728808,0.0,-0.00854931779118,0.00868975489088,-0.999925695902,0.0,0.644065246579,0.238117426613,0.303507051391,1.0,-0.0802405714286,-0.105459036735,1.157
0.450436066241,0.449531997043,-0.124777042802,-1.50892876,0.0701076143631,1.94982206432,0.137433844756,-0.0693304088888,-0.421210737398,-0.00904802618156,-0.625963110132,-0.0476407818164,0.242772201531,-0.0939364580999,0.573811967181,0.818971293288,0.00256787678615,0.0,0.818935061503,-0.573749852069,-0.0117140595879,0.0,-0.00812031594543,0.00882476181362,-0.999928089438,0.0,0.64274013632,0.236307751742,0.303700723141,1.0,-0.0868074285714,-0.114089763265,1.174
0.449105269384,0.442206168482,-0.124796466367,-1.52008524251,0.0693895061962,1.95377171335,0.135726888645,-0.0827251049044,-0.438517302305,-0.000558438225012,-0.67846918196,-0.0457244032635,0.229490347812,-0.110989205876,0.573822489751,0.818963578653,0.00267469568312,0.0,0.818928370809,-0.57375959388,-0.0117046493632,0.0,-0.00805120423107,0.00890694670375,-0.999927919608,0.0,0.641238037664,0.234378401984,0.303750598548,1.0,-0.0933742857143,-0.122720489796,1.191
0.447759782912,0.434851906289,-0.1248315215,-1.53135944526,0.0686297805409,1.95759098317,0.133902792649,-0.0885186999158,-0.473360485345,-0.00411160749594,-0.697893729187,-0.0489402326709,0.254494396947,-0.117144454097,0.573742759885,0.819019727898,0.00258412342776,0.0,0.8189829673,-0.573679790331,-0.0117959458483,0.0,-0.0081788104402,0.00888436265071,-0.999927084922,0.0,0.639666834765,0.232406768437,0.303740286212,1.0,-0.0995548571428,-0.130843526531,1.207
0.446198123774,0.426603335718,-0.124867735102,-1.54387720811,0.0677387180155,1.96205701013,0.131855590996,-0.0985580171733,-0.486400653299,-0.00309272489358,-0.747108364389,-0.0538634068507,0.258366835485,-0.129925008542,0.573660965363,0.819076544261,0.00273100022904,0.0,0.819042011071,-0.573597829744,-0.0116816400817,0.0,-0.00800181564476,0.00893827693565,-0.999928036487,0.0,0.637859749392,0.230054904808,0.303800139407,1.0,-0.106508,-0.139981942857,1.225
0.444375215864,0.417376983027,-0.124970982067,-1.55789881598,0.0667417138067,1.96679577239,0.129554501492,-0.103518974618,-0.532374914489,-0.00556364510135,-0.802496485508,-0.0511710502877,0.280741802136,-0.124321776353,0.573661904234,0.819076230606,0.00262583077903,0.0,0.819040416354,-0.57359923412,-0.0117244145479,0.0,-0.00809717064584,0.00887668241378,-0.999927817563,0.0,0.635992989282,0.227612397455,0.303794368604,1.0,-0.113074857143,-0.148612669388,1.242
0.442517684029,0.408222161052,-0.125054566127,-1.57173615663,0.0658014220628,1.97165128535,0.127249828582,-0.11313286772,-0.536056770187,-0.00295864336608,-0.83539054417,-0.0561911803348,0.280162854091,-0.137212664991,0.573666149323,0.819072823354,0.00275790942891,0.0,0.819038629037,-0.573602907954,-0.0116694059064,0.0,-0.00797630194283,0.00895334988859,-0.999928105482,0.0,0.634060858523,0.225069519828,0.303827585597,1.0,-0.119641714286,-0.157243395918,1.259
0.440567957911,0.399176645832,-0.125150709599,-1.58539193052,0.0648697344063,1.97621064422,0.124963888045,-0.122485764027,-0.588375589928,-0.0116140142208,-0.829285408681,-0.0548592326749,0.308717106874,-0.140315933541,0.573749755747,0.819014410862,0.00271283652052,0.0,0.818979163424,-0.573686140077,-0.0117511472511,0.0,-0.00806819756847,0.00896414703673,-0.999927271483,0.0,0.632102542072,0.222471872753,0.303827589559,1.0,-0.125822285714,-0.165366432653,1.275
0.438373897848,0.389205476387,-0.125287133896,-1.60035033662,0.0637146777177,1.98136254631,0.12239712756,-0.131801107113,-0.586600487012,-0.00557119891091,-0.887251052837,-0.0755936614673,0.306799362467,-0.147125342963,0.573801381816,0.818978063195,0.00276642956651,0.0,0.818944405379,-0.573738573124,-0.0116128166506,0.0,-0.00792358729025,0.00892917417154,-0.999928740768,0.0,0.629977163801,0.219571898195,0.303860395701,1.0,-0.132389142857,-0.173997159184,1.292
0.436036099217,0.378745733114,-0.125392538463,-1.61593530011,0.0625676384796,1.98650673437,0.11959894657,-0.136201984069,-0.630585830001,-0.00698536680311,-0.921445818413,-0.0638880524526,0.311151884288,-0.158625624951,0.573766628272,0.819002458507,0.00275247912473,0.0,0.818968514781,-0.573703753193,-0.011632810121,0.0,-0.00794834551431,0.0089288838899,-0.999928546865,0.0,0.627676636787,0.216548094046,0.303894821535,1.0,-0.138956,-0.182627885714,1.309
0.433656474525,0.368662896541,-0.125490649377,-1.63106676866,0.0614372090269,1.99151440304,0.116909134641,-0.14982005004,-0.63713991298,-0.00856593117321,-0.96620826304,-0.0732418820649,0.305983279532,-0.166375051603,0.573817961446,0.818966725534,0.00268262783406,0.0,0.818931796555,-0.573755233031,-0.0116787012347,0.0,-0.00802545046542,0.00889850909035,-0.999928201763,0.0,0.625424419141,0.213556504352,0.303855349533,1.0,-0.145136571429,-0.190750922449,1.325
0.430957036527,0.357483784302,-0.125638322052,-1.64752973703,0.0601386482731,1.99696381632,0.113924141026,-0.16269058736,-0.656902472181,-0.00299846567664,-0.984774986239,-0.0822659797796,0.315251786354,-0.187499491363,0.57390294564,0.818906954641,0.00274873198285,0.0,0.818873476851,-0.573840644443,-0.0115711103816,0.0,-0.00789848070224,0.00889172924142,-0.999929273076,0.0,0.622966063952,0.210216697264,0.303921070729,1.0,-0.151703428571,-0.19938164898,1.342
0.42823735007,0.346686183366,-0.12576075173,-1.66357033101,0.0589801398877,2.00207961112,0.110865347509,-0.17327329294,-0.689011270703,-0.0150438176552,-1.00261708239,-0.072184637463,0.329656224665,-0.198785780085,0.573934342843,0.818885271368,0.00265129096704,0.0,0.818849680934,-0.573871429178,-0.0117273061068,0.0,-0.00808197371027,0.00890188387498,-0.99992771647,0.0,0.620489765961,0.206939967583,0.303875700504,1.0,-0.157884,-0.207504685714,1.358
0.425031660356,0.334119695483,-0.125853221973,-1.6820365877,0.0575246190569,2.00809876733,0.107377070212,-0.17959890925,-0.700370089901,-0.0038789318115,-1.0436429846,-0.085168202283,0.331325985153,-0.196179209631,0.573953978578,0.818871334435,0.00270462859273,0.0,0.818836466269,-0.573890905934,-0.0116968583107,0.0,-0.00802621474983,0.00892827878079,-0.99992793026,0.0,0.617620115887,0.203163441053,0.303884582436,1.0,-0.164837142857,-0.216643102041,1.376
0.421863104407,0.321815408003,-0.125864894008,-1.69989518485,0.0560242611994,2.01378415118,0.103884575078,-0.194146449612,-0.723324039061,0.000771607264519,-1.06427809668,-0.0802703095106,0.333773628269,-0.204425692511,0.573810077462,0.818972027953,0.00274942454762,0.0,0.818937984304,-0.573747139551,-0.0116423633085,0.0,-0.0079574486249,0.00893228556311,-0.999928444083,0.0,0.61476330403,0.199519141985,0.303938101697,1.0,-0.171404,-0.225273828571,1.393
0.418665277863,0.309956742794,-0.125937004731,-1.71704771895,0.0546770809928,2.01916503269,0.100431280379,-0.204818019339,-0.7555628392,-0.00613802991719,-1.06119224564,-0.0856938600894,0.351304060904,-0.220110972882,0.573771983059,0.818998490841,0.00281608908412,0.0,0.818964757389,-0.573708195295,-0.011678172271,0.0,-0.00794894512133,0.00900705918981,-0.999927840975,0.0,0.611986637923,0.195921033262,0.30397314939,1.0,-0.177584571429,-0.233396865306,1.409
0.415068368219,0.297062848176,-0.126049755842,-1.73580185579,0.0530548997032,2.0248916202,0.0965986057455,-0.21637893843,-0.774072132918,-0.0105174282239,-1.1139100374,-0.0969477779871,0.325457466073,-0.224801148057,0.573709441447,0.819042936839,0.00262513038373,0.0,0.81900688796,-0.573646520672,-0.0117530292502,0.0,-0.0081204950276,0.00889299493023,-0.999927483472,0.0,0.60888526619,0.191902195944,0.303910428277,1.0,-0.184151428571,-0.242027591837,1.426
0.411220702185,0.283712268923,-0.126178005687,-1.75471630441,0.0515222661108,2.03073920125,0.0926328995221,-0.233030232173,-0.787340434056,-0.00247279887761,-1.11597756686,-0.0927233032204,0.334694954507,-0.239704345128,0.573762727425,0.819004855078,0.00285076809978,0.0,0.818971383599,-0.57369860757,-0.011684494867,0.0,-0.00793432909624,0.00903899916718,-0.999927668842,0.0,0.60575367852,0.187761349516,0.304027987836,1.0,-0.190718285714,-0.250658318367,1.443
0.407392631703,0.270913498104,-0.12631822132,-1.77289578903,0.0499586651237,2.03619892291,0.0886563278136,-0.242688818835,-0.801869837913,-0.00881629173886,-1.1401439521,-0.10267754262,0.354335214159,-0.254009021283,0.573735721623,0.819023698484,0.00287227364303,0.0,0.818990428347,-0.573671442515,-0.011683373675,0.0,-0.00792137106489,0.00905570779807,-0.999927620399,0.0,0.602675894283,0.183702640681,0.304061540187,1.0,-0.196898857143,-0.258781355102,1.459
0.403038023336,0.257060487811,-0.126493427217,-1.79257059999,0.0482099398191,2.04195853726,0.0843652795671,-0.257450233135,-0.80373938849,-0.0115754786857,-1.16022690785,-0.106323653732,0.340338433664,-0.256484715128,0.57385452607,0.818940857122,0.0027572353479,0.0,0.818906039992,-0.573790574381,-0.0117482474329,0.0,-0.00803919894789,0.00899987491831,-0.999927184115,0.0,0.59928672382,0.179190774777,0.304036486668,1.0,-0.203465714286,-0.267412081633,1.476
0.398178880018,0.242031691475,-0.12664953814,-1.81376879649,0.046305343392,2.04813801209,0.0795472874992,-0.271943566696,-0.85819706648,-0.0111126990883,-1.19548820874,-0.0973304737308,0.34031666834,-0.285668445671,0.573888210082,0.818917415734,0.00270840127549,0.0,0.818881818014,-0.573824267682,-0.0117908797858,0.0,-0.00810176640902,0.00898468043888,-0.999926815771,0.0,0.595571780805,0.174292577489,0.304012098757,1.0,-0.210418857143,-0.276550497959,1.494
0.394007277846,0.229145642465,-0.126739801443,-1.83145002416,0.0447307318627,2.05333691776,0.0753894895168,-0.279232724458,-0.844606803011,-0.00265236177911,-1.18394268623,-0.109066966159,0.347801257079,-0.281106258467,0.573842067137,0.81894865359,0.00302186507291,0.0,0.818917098441,-0.573777007154,-0.011639537949,0.0,-0.00779845737869,0.00915408973917,-0.999927690737,0.0,0.592437070303,0.17020719014,0.304162624515,1.0,-0.216213142857,-0.284165844898,1.509
0.388653031471,0.213442411087,-0.126852514982,-1.85314471433,0.0426439766746,2.05944041103,0.0701186308606,-0.305151094566,-0.870990807432,-0.0118677434631,-1.21266530927,-0.107569444636,0.34009145486,-0.289756509043,0.573741982596,0.819018744087,0.0030300401024,0.0,0.81898756633,-0.573677227891,-0.0115996249015,0.0,-0.00776219465868,0.00913693287199,-0.999928129813,0.0,0.58849268867,0.165068292028,0.304194861183,1.0,-0.223166285714,-0.293304261224,1.527
0.382946649755,0.197471126912,-0.127035037791,-1.87508029893,0.0405628992819,2.06540796321,0.0646104297537,-0.324763284653,-0.92773869796,-0.0104309757092,-1.23186687552,-0.117114167583,0.337347310241,-0.313365815083,0.573755074818,0.819009727753,0.00298778629616,0.0,0.818977642025,-0.573690036799,-0.0116666379369,0.0,-0.00784117769724,0.00914089888868,-0.99992747732,0.0,0.5844271253,0.159717420835,0.304197470822,1.0,-0.230119428571,-0.302442677551,1.545
0.377522300286,0.183071881009,-0.127252559149,-1.89484181915,0.0386872911455,2.07069615629,0.059496177108,-0.344304607652,-0.900805769695,-0.0128046572259,-1.23576648412,-0.112801901412,0.321580401494,-0.336724998412,0.573879141877,0.818923107547,0.00290195540869,0.0,0.818889300205,-0.573813684458,-0.0117862818265,0.0,-0.00798703058972,0.00914045751651,-0.999926326976,0.0,0.58071554217,0.154753811497,0.304138078623,1.0,-0.2363,-0.310565714286,1.561
0.371845494619,0.168319776693,-0.127433920876,-1.91471302736,0.0367011191033,2.07594183102,0.0542240782401,-0.350158018174,-0.918898172025,-0.00699442247924,-1.25333807685,-0.133878250556,0.32547236685,-0.33519044588,0.573972900621,0.818857223498,0.00295021671556,0.0,0.818824078856,-0.573907300516,-0.0117594728581,0.0,-0.00793633118222,0.00916550369505,-0.999926501394,0.0,0.576925396119,0.14969931639,0.304173985183,1.0,-0.242480571429,-0.31868875102,1.577
0.365653376317,0.152382921407,-0.127582689465,-1.93595427013,0.0345301534052,2.08144450559,0.0483223535618,-0.371186307166,-0.940030185672,-0.0073374279809,-1.26378820523,-0.13192160336,0.322670684914,-0.345258397585,0.573859146448,0.818936559747,0.00305582222357,0.0,0.818904867605,-0.573793291177,-0.0116971669275,0.0,-0.0078259780258,0.00921513134212,-0.99992691504,0.0,0.572778932268,0.144309046645,0.30423229196,1.0,-0.249047428571,-0.327319477551,1.594
0.359469957238,0.137125694714,-0.127750239667,-1.95616459792,0.0324433294711,2.08647271963,0.0426015940475,-0.396350434627,-0.976331769025,-0.0086224561038,-1.27185811692,-0.126987609223,0.32333328796,-0.366036423097,0.573874944681,0.8189253995,0.00307974386278,0.0,0.818893738701,-0.573808676545,-0.0117215331456,0.0,-0.0078320282548,0.00924885522064,-0.999926556308,0.0,0.568752074784,0.139055766472,0.304256654711,1.0,-0.255228,-0.335442514286,1.61
0.352110179034,0.119683588312,-0.127982536993,-1.97902711283,0.030014161154,2.0920105374,0.0358080096046,-0.42480032828,-0.998173943644,-0.0192094405028,-1.26896881495,-0.138726973914,0.318796157903,-0.377347635014,0.573886371016,0.818917226874,0.00312339439941,0.0,0.818886019954,-0.573819818737,-0.0117153253734,0.0,-0.00780176636676,0.00928114826315,-0.999926493663,0.0,0.564123749215,0.132953771569,0.304295111727,1.0,-0.262181142857,-0.344580930612,1.628
0.344309854845,0.102017614597,-0.12823039369,-2.00201371693,0.0274761067566,2.09737973568,0.0286748367813,-0.431444777406,-0.986009068012,-0.00929216036136,-1.26176543382,-0.138833919808,0.288970194352,-0.395875650364,0.573897879071,0.818909280052,0.00309230396255,0.0,0.818877693896,-0.573831460315,-0.011727083789,0.0,-0.0078291071788,0.0092625455846,-0.99992645246,0.0,0.55937519922,0.126663506034,0.304300180415,1.0,-0.269134285714,-0.353719346939,1.646
0.337624534758,0.0870391561267,-0.128361994923,-2.02135238367,0.0253857499023,2.10179072459,0.022471179758,-0.456324286584,-0.988924926138,-0.0136725544861,-1.29387706864,-0.124855724445,0.286613155042,-0.419476573853,0.573757679127,0.819007369197,0.00313077402932,0.0,0.818975628539,-0.573690370711,-0.0117908996602,0.0,-0.00786089014416,0.00932932647077,-0.999925582268,0.0,0.555276234669,0.121429323468,0.304288951979,1.0,-0.274928571429,-0.361334693878,1.661
0.329131258183,0.0687289782752,-0.128602892887,-2.04449327135,0.022743484668,2.10689783278,0.0147067183994,-0.480880974262,-1.0274376829,-0.015478259932,-1.31447444634,-0.14133008879,0.282454084444,-0.433453438951,0.573667535823,0.819069761723,0.00332124604549,0.0,0.81904086906,-0.57360004921,-0.0116526931,0.0,-0.00763944874877,0.00940518906286,-0.999926587926,0.0,0.550600247919,0.115301803982,0.304405019719,1.0,-0.27998,-0.367973714286,1.678
0.320631168515,0.0514722591453,-0.128896201343,-2.06615168976,0.0202057984984,2.11138454425,0.00714665871829,-0.504355939549,-1.01867431925,-0.0127464203055,-1.27707102805,-0.139465041064,0.248979681468,-0.438326569828,0.573783531087,0.818988503594,0.00332224862705,0.0,0.818959420276,-0.573715774672,-0.0116800999523,0.0,-0.00765998861555,0.00942281722213,-0.999926264827,0.0,0.545567717994,0.108589421769,0.30443253695,1.0,-0.27998,-0.367973714286,1.696
0.312481975717,0.0353963968538,-0.129064078265,-2.08621170429,0.0178916170961,2.11537753434,-7.13449545971e-05,-0.510408770249,-1.01248392366,-0.0127262529924,-1.24660564365,-0.147575819446,0.263586600254,-0.465382369243,0.573822695176,0.818960974067,0.00334430225699,0.0,0.818931344831,-0.573753835858,-0.0117785904591,0.0,-0.00772754844656,0.00949775932876,-0.999925035972,0.0,0.541062700866,0.102726177154,0.304428601723,1.0,-0.27998,-0.367973714286,1.712
0.303553195576,0.018498085761,-0.129247607391,-2.10704071215,0.015313300104,2.11932274167,-0.00795264850053,-0.525698956156,-0.990717872721,-0.00917956596179,-1.20762854675,-0.14595173218,0.231651761338,-0.466138815562,0.573816792996,0.818965274851,0.00330356848647,0.0,0.818935070982,-0.573748019799,-0.0118028044494,0.0,-0.00777082072495,0.00947823797595,-0.999924885854,0.0,0.536300682955,0.0964595168969,0.304435370293,1.0,-0.27998,-0.367973714286,1.729
0.294300496624,0.00163182423049,-0.129522398213,-2.12752213321,0.0127775040051,2.12301902886,-0.0160248540832,-0.552836449205,-0.988953294608,-0.0142735526048,-1.2034893343,-0.142623391634,0.199949332901,-0.476119498993,0.573966082168,0.818860463298,0.00335038336092,0.0,0.818830626341,-0.573896829371,-0.0118144616826,0.0,-0.00775177042464,0.00952468017041,-0.999924592418,0.0,0.531537605975,0.0901033827061,0.304474799355,1.0,-0.27998,-0.367973714286,1.746
0.285522617671,-0.0140824503316,-0.12964575646,-2.14628240623,0.0104352744573,2.12638799538,-0.0238117746096,-0.550794530346,-0.968778295518,-0.00893197075287,-1.18396549135,-0.143999000459,0.196886936515,-0.49273969329,0.573864826453,0.818930404709,0.00359167144038,0.0,0.818904056603,-0.573795229867,-0.0116587804864,0.0,-0.00748699003015,0.00963198379851,-0.999925582165,0.0,0.526825472097,0.0839229465457,0.304577676434,1.0,-0.27998,-0.367973714286,1.763
0.275882167028,-0.0306364341324,-0.129864217268,-2.16582993537,0.00781962132141,2.12954428428,-0.0322507277925,-0.575222892187,-0.984605249445,-0.0171429512498,-1.14415792449,-0.152055365007,0.192619979723,-0.498324330364,0.573877003366,0.818921603399,0.00365231355678,0.0,0.818896558904,-0.573807887173,-0.0115620644468,0.0,-0.00737283998007,0.00962625523638,-0.999926485518,0.0,0.522370756879,0.0780093969167,0.304657646352,1.0,-0.27998,-0.367973714286,1.779
0.265930163343,-0.0469079353248,-0.130105048304,-2.18516443888,0.00536245842764,2.13240685559,-0.0408854575373,-0.580033786061,-0.971503029824,-0.00675652991244,-1.1139490673,-0.13403049599,0.162813146592,-0.517438796341,0.574020004601,0.818821821894,0.00355038156445,0.0,0.818794052459,-0.573949390719,-0.0117959082855,0.0,-0.00762115450837,0.00967830497463,-0.99992412133,0.0,0.517566484059,0.0716933588936,0.304582011511,1.0,-0.27998,-0.367973714286,1.796
0.256475364153,-0.0621647546686,-0.130250510496,-2.20285705761,0.00297967939211,2.13504596823,-0.0492111334227,-0.601893504684,-0.92815338462,-0.0167666433449,-1.11158168918,-0.141583029019,0.153297519007,-0.519746353989,0.573932348054,0.818882675363,0.00368384981259,0.0,0.818857021906,-0.573861797361,-0.011685979034,0.0,-0.00745556864374,0.00972369488424,-0.999924929309,0.0,0.513119286493,0.0658677260243,0.304630599112,1.0,-0.27998,-0.367973714286,1.812
0.246107936898,-0.0782651747861,-0.13050527305,-2.22128807133,0.000444393228277,2.13747289928,-0.0582971352013,-0.616784806834,-0.950587755881,-0.0191483536053,-1.08005358246,-0.143343445043,0.134396395731,-0.547875278886,0.573950259253,0.818869824346,0.00374934401882,0.0,0.818845044186,-0.573879528477,-0.011654497339,0.0,-0.00739198672988,0.00975942143708,-0.999925053304,0.0,0.508375333555,0.0595846679283,0.304680085992,1.0,-0.27998,-0.367973714286,1.829
0.235536625721,-0.094101855138,-0.130655907362,-2.2394445922,-0.00199385863671,2.13958864201,-0.0675843187953,-0.622485143388,-0.926323290658,-0.00204219527236,-1.04608185874,-0.140549840266,0.116918087962,-0.548346847262,0.573893498136,0.818910008072,0.00366037948669,0.0,0.818882682191,-0.573821260537,-0.0118768962342,0.0,-0.00762585244123,0.00981368384258,-0.999922766009,0.0,0.503565452898,0.0533888857477,0.304613706473,1.0,-0.27998,-0.367973714286,1.846
0.224052559371,-0.11071780885,-0.13089305684,-2.25826394243,-0.00474987380197,2.14164160245,-0.0776109938829,-0.644640742066,-0.913234895537,-0.0196092454218,-1.0548182058,-0.151474868471,0.0973881231754,-0.564994946156,0.573863415163,0.81893176584,0.00350578603308,0.0,0.818902251709,-0.573791514532,-0.0119644013308,0.0,-0.00778658794749,0.00973701575232,-0.999922276766,0.0,0.498492386525,0.0467669293533,0.304548340056,1.0,-0.27998,-0.367973714286,1.864
0.213477230854,-0.125466078902,-0.131164701025,-2.2745517486,-0.00708293633876,2.14327488634,-0.0867851671288,-0.657719135559,-0.917183514257,-0.0141272472372,-1.02353280957,-0.14737467184,0.092885466642,-0.570094728472,0.57399613498,0.818838317762,0.00360462109773,0.0,0.818809966442,-0.573923697668,-0.0119404778188,0.0,-0.00770869171755,0.0098054765837,-0.999922211325,0.0,0.494028192151,0.0408122492364,0.304588885367,1.0,-0.27998,-0.367973714286,1.88
0.201450106664,-0.14188392716,-0.13136801753,-2.29250969708,-0.00969135530443,2.14479947528,-0.0974110026994,-0.6828402592,-0.917188389256,-0.0117515102834,-0.978015904404,-0.148642358169,0.091984358023,-0.598539171856,0.573895144631,0.818908965441,0.00363540789836,0.0,0.818880515124,-0.573821973009,-0.0119913361801,0.0,-0.00773388467379,0.00985892411871,-0.99992149124,0.0,0.488968943971,0.0342403694403,0.304606591684,1.0,-0.27998,-0.367973714286,1.898
0.190356934993,-0.156289591496,-0.131684885786,-2.30814024759,-0.0120663370426,2.14601205698,-0.107065225267,-0.701989440868,-0.895079286772,-0.0141943654138,-0.971838749216,-0.152234016435,0.0593923531556,-0.614316906662,0.574023322449,0.818819133472,0.00363302146707,0.0,0.818790567796,-0.573950033215,-0.0120046807943,0.0,-0.00774463864221,0.00986584041233,-0.999921339789,0.0,0.484487628114,0.028256121036,0.304596277441,1.0,-0.27998,-0.367973714286,1.914
0.17856994408,-0.171547980771,-0.131830088198,-2.32424548182,-0.0143925600866,2.14703399082,-0.117549108691,-0.696839014405,-0.894891514568,-0.014488703264,-0.935418483306,-0.132855321237,0.0555822486838,-0.61826619984,0.573885439576,0.818914752286,0.00385715336782,0.0,0.818888833786,-0.57381099861,-0.0119483336118,0.0,-0.00757153540971,0.0100157473443,-0.999921175222,0.0,0.479753745577,0.0221442572781,0.304696252816,1.0,-0.27998,-0.367973714286,1.931
0.167022764131,-0.1856452413,-0.132112064808,-2.33925300353,-0.0167476114079,2.14775894685,-0.127678419645,-0.738201181994,-0.883966128047,-0.0247943164603,-0.931203435917,-0.138762492643,0.0402625354966,-0.649013526164,0.573931104743,0.818883269686,0.00374493506926,0.0,0.818855235743,-0.573856219002,-0.0120784813331,0.0,-0.00774196106439,0.00999896833523,-0.999920038139,0.0,0.47522918277,0.0162040668401,0.304643686233,1.0,-0.27998,-0.367973714286,1.947
0.155322993856,-0.199640761268,-0.132290752015,-2.35369798867,-0.0190251609595,2.14846164825,-0.138067533342,-0.733775230063,-0.855323694408,-0.0126253620746,-0.897097467083,-0.133391886675,0.0423262423732,-0.666595222913,0.57382599045,0.818956054467,0.00393197622744,0.0,0.818931421673,-0.573751709653,-0.0118764122972,0.0,-0.00747042550222,0.0100352061402,-0.999921740628,0.0,0.47081935858,0.0103691016504,0.304733592063,1.0,-0.27998,-0.367973714286,1.963
0.141836596862,-0.21515288388,-0.132620405712,-2.36968946331,-0.0214669009923,2.14883945568,-0.150009342233,-0.763105365593,-0.871041516811,-0.0305214769903,-0.860205096886,-0.13628412227,0.0148332816416,-0.66254647109,0.57389899105,0.818904610913,0.00399164110958,0.0,0.818879557351,-0.573822874614,-0.0120135766011,0.0,-0.00754762361142,0.0101634484731,-0.999919865636,0.0,0.465769252815,0.00374768104215,0.304732022249,1.0,-0.27998,-0.367973714286,1.981
0.128818296256,-0.229609474337,-0.132846653736,-2.38444122623,-0.0239125337873,2.14910778153,-0.161523691288,-0.770397693637,-0.839067799182,-0.0111855273937,-0.879208177102,-0.133636420262,0.00907429108507,-0.687434014783,0.573850887322,0.818938413015,0.00397261989041,0.0,0.81891330259,-0.573775105113,-0.0119949362246,0.0,-0.00754386888362,0.0101367312337,-0.999920165174,0.0,0.460728904671,-0.00284345190738,0.304720065892,1.0,-0.27998,-0.367973714286,1.999
0.116261636594,-0.24309967888,-0.133147255623,-2.39794384845,-0.0261455303088,2.14922033888,-0.172698481079,-0.799075485763,-0.842575111894,-0.0267474071077,-0.837793103061,-0.129942752782,0.0193907806355,-0.70597492038,0.573872760397,0.81892257306,0.00407689931824,0.0,0.818899262504,-0.57379720237,-0.0118960213331,0.0,-0.00740274950198,0.0101655681638,-0.999920927136,0.0,0.456558974977,-0.00838925640493,0.304759748085,1.0,-0.27998,-0.367973714286,2.014
0.101060836988,-0.258888814055,-0.133463087929,-2.4136802404,-0.0286949984269,2.14913488877,-0.186307681745,-0.807168374691,-0.810786547621,-0.0101139070655,-0.857378767264,-0.133602738927,-0.0168987092612,-0.717828636277,0.573847105053,0.81894012576,0.00416141119576,0.0,0.818917413876,-0.573770561292,-0.0119314352175,0.0,-0.00738357797668,0.0102548690912,-0.999920157031,0.0,0.451221920839,-0.0153543052159,0.304740595119,1.0,-0.27998,-0.367973714286,2.033
0.0887304924296,-0.271183500447,-0.133795492007,-2.42556282226,-0.0307515797598,2.1489739129,-0.197279311304,-0.83743583845,-0.807477071524,-0.0316244613661,-0.774510694159,-0.135948095324,-0.00385699715901,-0.73316014119,0.573950100429,0.818866956063,0.0043517106744,0.0,0.818847854785,-0.573874514556,-0.0117038095693,0.0,-0.00708666350586,0.010280989569,-0.999922037188,0.0,0.447093109182,-0.020932986744,0.304828116272,1.0,-0.27998,-0.367973714286,2.048
0.0737779986322,-0.285687775181,-0.134040812855,-2.43966851663,-0.0331236811229,2.14845871979,-0.210796298952,-0.827753267013,-0.819901508799,-0.0146977527004,-0.7864481139,-0.126083186939,-0.0239115348149,-0.761159014108,0.573818573484,0.818959068253,0.00436304399344,0.0,0.81893957335,-0.573742188284,-0.011773847507,0.0,-0.00713917422691,0.0103293206388,-0.999921165556,0.0,0.442030141632,-0.0274788674319,0.304803686828,1.0,-0.27998,-0.367973714286,2.066
0.0609450085229,-0.29757135325,-0.134367099746,-2.45090378909,-0.0350713055844,2.14795677312,-0.222321412625,-0.867551086516,-0.79140143762,-0.0321445529246,-0.73806458762,-0.142988660744,-0.0335250903538,-0.777840883023,0.573906759843,0.818896368136,0.00452947680484,0.0,0.818879540423,-0.573830577744,-0.0116410147441,0.0,-0.00693376590008,0.01039015298,-0.999921980762,0.0,0.437887010606,-0.0330431837169,0.304869641747,1.0,-0.27998,-0.367973714286,2.081
0.0462549145818,-0.310850863928,-0.134588243519,-2.46347782179,-0.0372610494279,2.14716736864,-0.235591528421,-0.871450190627,-0.79379597839,-0.0162447275715,-0.746572137761,-0.135191718849,-0.0618553542687,-0.795059536812,0.573834213183,0.818947115359,0.00454586912041,0.0,0.818930286901,-0.573757672171,-0.0116647213092,0.0,-0.00694469629005,0.0104165666286,-0.999921630096,0.0,0.433115366104,-0.0392213636031,0.304863954022,1.0,-0.27998,-0.367973714286,2.098
0.0311497995702,-0.323843605593,-0.134966000172,-2.47555537511,-0.0394290940759,2.14626057378,-0.249239192741,-0.887169544034,-0.766789934642,-0.0191046400906,-0.688513800706,-0.125347888585,-0.044605137641,-0.814629729078,0.573921880154,0.818885182208,0.00463473220205,0.0,0.818869584827,-0.573845170485,-0.0116219730495,0.0,-0.00685757485719,0.010465547352,-0.999921719929,0.0,0.428377694937,-0.0455194635268,0.304890788582,1.0,-0.27998,-0.367973714286,2.115
0.0159256395225,-0.336586208823,-0.135184707772,-2.48732531679,-0.0414819462096,2.14524979104,-0.26325153207,-0.907258239304,-0.739279080484,-0.0107915785981,-0.695900348984,-0.13458272414,-0.0644077785494,-0.822859872426,0.573730328922,0.819018923582,0.00471798588429,0.0,0.819004226056,-0.573653121439,-0.0116155441396,0.0,-0.00680699418436,0.0105284430427,-0.99992140527,0.0,0.423635950114,-0.0516632726787,0.304891066105,1.0,-0.27998,-0.367973714286,2.132
0.000214088209585,-0.349004464468,-0.135551921873,-2.49867163478,-0.0435953171741,2.14397093489,-0.277515957429,-0.919673322016,-0.72199211913,-0.00807903475883,-0.65476867527,-0.115365261682,-0.085109942475,-0.850683964645,0.573817513828,0.818958056263,0.0046807912881,0.0,0.818942168854,-0.573739322022,-0.0117329169482,0.0,-0.00692334613389,0.0105660540319,-0.999920209707,0.0,0.418857542244,-0.0579563418127,0.304869057815,1.0,-0.27998,-0.367973714286,2.149
-0.014750807654,-0.360535047642,-0.135880401308,-2.50889825831,-0.0455499332922,2.1428660651,-0.291282899444,-0.947764013973,-0.704350744857,-0.0253600734682,-0.64247541162,-0.109934394954,-0.0692447913674,-0.854353784582,0.573758903119,0.818998258187,0.00482919035755,0.0,0.81898559723,-0.573682298839,-0.0114873160087,0.0,-0.00663779857471,0.0105461902289,-0.999922355737,0.0,0.414727162098,-0.0634727248191,0.304951291626,1.0,-0.27998,-0.367973714286,2.164
-0.0309578836748,-0.37240873004,-0.136185579153,-2.51962887162,-0.0475247228393,2.14138061944,-0.306239418515,-0.954476633365,-0.701394016058,-0.0156599475894,-0.622265735722,-0.120232307852,-0.0985970504452,-0.877987370567,0.573705396656,0.819036081096,0.00477101792518,0.0,0.8190211373,-0.573626580982,-0.011733249708,0.0,-0.00687330449156,0.0106391980425,-0.999919779358,0.0,0.409625840902,-0.0700583516382,0.304872661587,1.0,-0.27998,-0.367973714286,2.182
-0.0485085889952,-0.384722068273,-0.136580517114,-2.53028320516,-0.0496327872964,2.13984185182,-0.322303914532,-0.977644088192,-0.686602242297,-0.0176715995481,-0.572478971477,-0.113034148402,-0.0736868341635,-0.898773156165,0.573829316807,0.818948522001,0.00489697726899,0.0,0.818936211827,-0.57375166523,-0.0115435915418,0.0,-0.00664408628829,0.0106345680104,-0.99992137795,0.0,0.404637995979,-0.0767262053323,0.304956258422,1.0,-0.27998,-0.367973714286,2.2
-0.0632499216487,-0.394659953414,-0.136815533031,-2.53898849438,-0.0513286390725,2.13844933569,-0.336089682514,-0.992535966655,-0.666739879842,-0.0153929025105,-0.579546471036,-0.122972332827,-0.0930112803062,-0.930188983358,0.573654094675,0.819071421967,0.0048715789109,0.0,0.819058440371,-0.573576002553,-0.0116011832602,0.0,-0.00670810606338,0.0106453790617,-0.999920835475,0.0,0.400431162037,-0.082176061636,0.30492947721,1.0,-0.27998,-0.367973714286,2.215
-0.0803373152641,-0.405607704337,-0.137172956258,-2.54847145836,-0.0531023856289,2.13669010184,-0.351920419702,-1.00433835712,-0.634562480647,-0.00892598036363,-0.537874179823,-0.0955354530943,-0.100342106668,-0.934667707779,0.573737668678,0.819012686412,0.00490448131253,0.0,0.818998572492,-0.573656993202,-0.0118211381881,0.0,-0.00686830437708,0.0107992033771,-0.999918098447,0.0,0.395628234796,-0.0884109723311,0.304890840649,1.0,-0.27998,-0.367973714286,2.232
-0.0987456615831,-0.416862298562,-0.137592477799,-2.55782801517,-0.0550297789704,2.13504019644,-0.369118732441,-1.030309512,-0.615674325654,-0.0244639422254,-0.519215905802,-0.112695421195,-0.0935225662403,-0.956611933393,0.573754108325,0.818999928955,0.00510748988602,0.0,0.818990096396,-0.573675449703,-0.0115085757172,0.0,-0.0064956061981,0.0107862839022,-0.999920728448,0.0,0.390676096364,-0.0950762594598,0.305001657361,1.0,-0.27998,-0.367973714286,2.25
-0.115329724643,-0.426453478204,-0.137849826225,-2.56601868836,-0.0566989662754,2.13329200964,-0.384713761529,-1.04673057874,-0.588102211813,-0.0195494372921,-0.517656974076,-0.107980343981,-0.113511568728,-0.98076675111,0.573628431594,0.819088535616,0.00501399951963,0.0,0.819076277131,-0.573548098266,-0.0117208411828,0.0,-0.00672476622399,0.0108304643247,-0.999918735979,0.0,0.386149445688,-0.100908830156,0.304939266871,1.0,-0.27998,-0.367973714286,2.266
-0.133236224909,-0.436257321999,-0.138210002575,-2.57429958394,-0.0584042655881,2.13151046863,-0.401475034344,-1.05268015357,-0.566196515645,-0.0160053922556,-0.478134010249,-0.0948163950889,-0.100557987018,-1.0042579166,0.573678268691,0.819053687749,0.00500474956682,0.0,0.81904035286,-0.573596426589,-0.0118653568009,0.0,-0.00684778961789,0.0109061991762,-0.99991707786,0.0,0.381360194416,-0.107146873496,0.304885351584,1.0,-0.27998,-0.367973714286,2.283
-0.151488765662,-0.445756471051,-0.138594616918,-2.58184376034,-0.0599509407536,2.12978413011,-0.418650758438,-1.08264515445,-0.547365711754,-0.0129484034907,-0.441586021835,-0.0984971179079,-0.0982151017798,-1.01745279545,0.573763016195,0.818992766971,0.00525317020349,0.0,0.818984090781,-0.573682696876,-0.0115745087739,0.0,-0.00646591060641,0.0109434985842,-0.999919212656,0.0,0.376411571663,-0.113817267624,0.305020324916,1.0,-0.27998,-0.367973714286,2.301
-0.168841567577,-0.454222994523,-0.138828340112,-2.58889144024,-0.0614882455065,2.12807034773,-0.43508481459,-1.09564377258,-0.51739125983,-0.0212064877676,-0.44544816513,-0.0986308950477,-0.112393662636,-1.02349967171,0.573675861077,0.81905432528,0.00517354415247,0.0,0.819043714632,-0.573594304081,-0.0117351927979,0.0,-0.00664437288614,0.0109697668557,-0.99991775488,0.0,0.372175233762,-0.119291866805,0.304958802915,1.0,-0.27998,-0.367973714286,2.316
-0.18746098602,-0.462816936746,-0.139172772938,-2.59587016335,-0.0629927413285,2.12624531387,-0.45283091339,-1.09382719234,-0.495812428303,-0.0222020223806,-0.399421138686,-0.0778114855918,-0.0972750059736,-1.0545816593,0.573621380042,0.819092260941,0.00520839004855,0.0,0.819081389462,-0.573538536791,-0.0118309405811,0.0,-0.00670354852625,0.0110527886216,-0.99991644566,0.0,0.367413917094,-0.125508356044,0.304942486331,1.0,-0.27998,-0.367973714286,2.333
-0.207597381239,-0.471441815428,-0.139539749895,-2.60278566752,-0.0646074933996,2.12443908417,-0.471921832726,-1.12029365833,-0.473751125274,-0.0145302763874,-0.37758196478,-0.0891558624443,-0.0955869625526,-1.04544040877,0.573672890458,0.819056115353,0.00521934449468,0.0,0.819045656162,-0.573590446196,-0.011788131995,0.0,-0.00666150371617,0.0110376256996,-0.99991689414,0.0,0.362374140005,-0.132167847288,0.304944720732,1.0,-0.278494285714,-0.366021061225,2.351
-0.224416257185,-0.47813869015,-0.139763948369,-2.60796972849,-0.0656295574275,2.12297652511,-0.487945368715,-1.13199137506,-0.431133082271,-0.0317005943815,-0.343913818041,-0.06130019887,-0.100110630958,-1.06146469482,0.573760650805,0.818993251129,0.00543296371481,0.0,0.818985901172,-0.573678041987,-0.0116766744057,0.0,-0.00644646966232,0.0111493516498,-0.999917064054,0.0,0.358283522544,-0.137631915418,0.305011415361,1.0,-0.2727,-0.358405714286,2.366
-0.243308793637,-0.485158034765,-0.139857685082,-2.61360790577,-0.0668106727593,2.12129045494,-0.506005482259,-1.10162199349,-0.404644519633,-0.00215248639041,-0.323972549999,-0.0668045264772,-0.100121600094,-1.04751964062,0.573664205473,0.819060928734,0.00541491288582,0.0,0.819052177163,-0.57357967505,-0.0118589356897,0.0,-0.00660743411994,0.0112383594817,-0.999915016934,0.0,0.353380244627,-0.143968486625,0.304958445999,1.0,-0.265746857143,-0.349267297959,2.384
-0.263336378194,-0.491886036116,-0.139947822504,-2.61899712416,-0.0679245870278,2.11961743073,-0.525007337316,-1.10594363405,-0.360458112444,-0.00132935880401,-0.28243172414,-0.0469281900752,-0.0886141101486,-1.04859572297,0.573810498491,0.818958239275,0.00544619550197,0.0,0.818948654172,-0.573723720363,-0.0120391620686,0.0,-0.0067350890962,0.0113685709449,-0.999912693274,0.0,0.348826253996,-0.149922156146,0.304906465693,1.0,-0.25918,-0.340636571429,2.401
-0.280887540103,-0.497345194386,-0.139968814392,-2.62320424074,-0.0687740320154,2.1183581888,-0.541694286369,-1.09290568348,-0.332716392406,0.000359177888229,-0.262381078743,-0.0568465930913,-0.07853691731,-1.02758696432,0.573928422352,0.818874821992,0.00556226809476,0.0,0.818867237792,-0.573842009669,-0.0119390833395,0.0,-0.0065848784219,0.0114071579991,-0.999913254299,0.0,0.344711901793,-0.15539142716,0.304934666338,1.0,-0.252999428571,-0.332513534694,2.417
-0.301261325831,-0.503166162999,-0.139801738303,-2.62764299549,-0.0696095773509,2.11687601194,-0.561206690102,-1.07374993605,-0.298800743151,0.0011824785537,-0.220693591892,-0.0384373868726,-0.0773436369825,-1.01581920523,0.573899830561,0.81889425767,0.00565032195456,0.0,0.818887958034,-0.573813333036,-0.0118961303903,0.0,-0.0064995679285,0.0114543883554,-0.999913272541,0.0,0.339983127726,-0.1616139392,0.304969223541,1.0,-0.24566,-0.322867428572,2.436
-0.317162461675,-0.507232132247,-0.139706582968,-2.63071591251,-0.0702383625464,2.11589014818,-0.576423982964,-1.0565986981,-0.267955408187,0.00544748457292,-0.200396305701,-0.0273162267157,-0.0663191345111,-1.0138461178,0.573907009395,0.818888712808,0.0057242906895,0.0,0.81888414561,-0.573821614168,-0.0117583197158,0.0,-0.00634415571812,0.0114359331713,-0.999914481904,0.0,0.336117865553,-0.166775395658,0.305009470397,1.0,-0.239479428571,-0.314744391837,2.452
-0.334858549155,-0.511449504445,-0.139530877665,-2.63391212088,-0.0708580203431,2.11477956585,-0.593385423793,-1.02910084517,-0.242317324638,0.0164017949304,-0.183539168128,-0.045402977269,-0.0701068729487,-0.992583461448,0.573968643918,0.81884522929,0.00576482165183,0.0,0.818841279189,-0.573883257731,-0.0117351137101,0.0,-0.00630102856122,0.011456281807,-0.99991452167,0.0,0.332298713673,-0.171789803473,0.305024248453,1.0,-0.233298857143,-0.306621355102,2.468
-0.352053226756,-0.515041305668,-0.139268379322,-2.63679490198,-0.071293731408,2.11371323162,-0.610057864649,-1.01279713541,-0.204212971623,0.0134388858713,-0.165986112134,-0.0218684725436,-0.060125621011,-0.978202097803,0.573855529857,0.818924178917,0.00581093269086,0.0,0.818919281149,-0.573767195931,-0.0119650631718,0.0,-0.00646448143919,0.0116251263079,-0.999911529546,0.0,0.328360366785,-0.176866571636,0.30495743114,1.0,-0.226732,-0.297990628572,2.485
-0.369031412025,-0.518145867194,-0.139046725672,-2.63930091815,-0.0717322725108,2.1128420552,-0.626393636959,-0.982175668087,-0.174834695404,0.0159071645418,-0.142390799321,-0.0226835481677,-0.0472854705533,-0.949337495988,0.573890718018,0.8188993397,0.00583627564299,0.0,0.818893799678,-0.573800530572,-0.0121096187218,0.0,-0.00656782716581,0.0117291135422,-0.999909641689,0.0,0.324512158498,-0.181885491202,0.304894211114,1.0,-0.220165142857,-0.289359902041,2.502
-0.383683166498,-0.520519691474,-0.138866298849,-2.6411526674,-0.0720250286943,2.11216682697,-0.64050041986,-0.975479509075,-0.150803302564,0.0148689341365,-0.108949970231,-0.0153957031649,-0.0512954528024,-0.927987352074,0.573991685367,0.818828034489,0.00591117298333,0.0,0.818823080932,-0.573900455757,-0.0121563117898,0.0,-0.006561630352,0.0118180543004,-0.999908635126,0.0,0.321015430424,-0.186492372722,0.304876539699,1.0,-0.213984571429,-0.281236865306,2.518
-0.400737594624,-0.523014663115,-0.138515821385,-2.64302167636,-0.0723075103159,2.1114224331,-0.657092744242,-0.939110259321,-0.136014657036,0.0140967378268,-0.0977724167715,-0.0143295436571,-0.0394481839423,-0.913560354162,0.573874620369,0.81890969588,0.00596464507231,0.0,0.818905413779,-0.573783134697,-0.0121484370275,0.0,-0.00652618577394,0.0118563881004,-0.999908413286,0.0,0.317444460672,-0.191186809693,0.304884738033,1.0,-0.207417714286,-0.272606138776,2.535
-0.416612753746,-0.525005411448,-0.138280279255,-2.64446030184,-0.0725520904068,2.11082096894,-0.672344474966,-0.927815325108,-0.105696232995,0.0204531242042,-0.0756157320692,-0.0145601311977,-0.0312379425599,-0.887133984953,0.574028775338,0.818801114316,0.0060371499558,0.0,0.818798123912,-0.573937577653,-0.0120845412455,0.0,-0.00643001241389,0.011880310202,-0.999908752422,0.0,0.313931354522,-0.195840532007,0.304915109532,1.0,-0.200850857143,-0.263975412245,2.552
-0.431004581638,-0.526528812128,-0.138005018157,-2.64557355462,-0.0727057826076,2.11038616237,-0.686335241002,-0.903225865729,-0.0926724150014,0.011252190133,-0.06276365586,-0.0100614448445,-0.0227463894184,-0.864182600255,0.57403113478,0.818798975591,0.00610252199964,0.0,0.818797281629,-0.573940487695,-0.0120031280288,0.0,-0.00632578627224,0.0118871264917,-0.999909336216,0.0,0.310768552215,-0.200028892101,0.304936637633,1.0,-0.194670285714,-0.25585237551,2.568
-0.445935501166,-0.527821244356,-0.137688555386,-2.6465450368,-0.0728373339795,2.10996975433,-0.700823689457,-0.862507439196,-0.0693002616548,0.0316102250883,-0.0525843533839,-0.00969772824755,-0.0204028521576,-0.84631167807,0.574056532744,0.81878088779,0.00614018773965,0.0,0.818779755785,-0.573965857385,-0.0119855318913,0.0,-0.00628938741233,0.0119080635657,-0.999909316702,0.0,0.307484719903,-0.204348892131,0.30494017779,1.0,-0.188103428571,-0.24722164898,2.585
-0.461269091506,-0.528832104582,-0.1373792069,-2.64732457507,-0.0728885912905,2.10962123847,-0.715655599951,-0.859234921635,-0.0499910945982,0.0137229825718,-0.0381737309681,-0.00193202706538,-0.0179479560694,-0.817551084047,0.574181298404,0.818692779014,0.00622230299623,0.0,0.818692600868,-0.574090030439,-0.0119920446488,0.0,-0.00624575849329,0.0119799918423,-0.999908730983,0.0,0.304118268012,-0.208775729736,0.304933348945,1.0,-0.181150285714,-0.238083232653,2.603
-0.473567675511,-0.529425579294,-0.137003671152,-2.64778065762,-0.0729058010384,2.10937127109,-0.727654970678,-0.795416138446,-0.0401633936117,0.0229058935415,-0.027292132892,-0.000134348327996,-0.0146193106231,-0.795223729947,0.574127256376,0.818730682154,0.00622177526934,0.0,0.818730403532,-0.574035822819,-0.0120061381775,0.0,-0.00625839230742,0.01198723854,-0.999908565139,0.0,0.301441348062,-0.212289690528,0.304931090398,1.0,-0.175356,-0.230467885714,2.618
-0.487927559094,-0.529850481713,-0.136632954002,-2.64813880837,-0.0729213893104,2.10915258089,-0.741597364413,-0.79610169038,-0.0155949667989,0.0155148494323,-0.0181049363547,-0.000455896430444,-0.00774587989607,-0.762059142324,0.574180266074,0.818693441817,0.00623035131394,0.0,0.818693005863,-0.574088269297,-0.0120485728733,0.0,-0.00628743704436,0.0120190292266,-0.999908001304,0.0,0.298304897067,-0.216408841068,0.304914270251,1.0,-0.168402857143,-0.221329469388,2.636
-0.500852879464,-0.530040526427,-0.136153609485,-2.64831156454,-0.0729097487346,2.1090095417,-0.754358337471,-0.749099204123,-0.0128680082203,0.0249552215398,-0.0117973106237,0.000660606376067,-0.00326508888503,-0.732625426247,0.573971945091,0.818839958853,0.00617048902118,0.0,0.818838657869,-0.573880092211,-0.0120681002507,0.0,-0.00634084398516,0.0119796165677,-0.999908137023,0.0,0.295505979537,-0.220075993181,0.304905278179,1.0,-0.161836,-0.212698742857,2.653
-0.512737242186,-0.53008964644,-0.135798365114,-2.6483763033,-0.0729089659417,2.10890804609,-0.765898715678,-0.746058260642,0.00187473740642,0.0132590294878,-0.00293756912786,0.00325142742578,-0.00290390940664,-0.717723396381,0.573999938484,0.818820599937,0.00613535988764,0.0,0.818818706771,-0.573907980271,-0.0120955580381,0.0,-0.00638308298209,0.0119668274171,-0.999908021417,0.0,0.292902521592,-0.223460776692,0.304894272309,1.0,-0.155655428571,-0.204575706123,2.669
-0.524099800837,-0.53002846079,-0.135375656519,-2.64834579809,-0.072876871747,2.1088463667,-0.777006502211,-0.691291718443,0.00855317925099,0.0240606016959,0.00893594524809,0.00290109595699,-0.000191482083327,-0.680662799502,0.573891838988,0.818896761143,0.00608265018313,0.0,0.818894271458,-0.573800302467,-0.0120885054354,0.0,-0.00640913482891,0.0119187714784,-0.999908428746,0.0,0.290125359733,-0.22705564333,0.304892677429,1.0,-0.148702285714,-0.195437289796,2.687
-0.537076177693,-0.529794035187,-0.134960286711,-2.64819226477,-0.0728138109505,2.10884652773,-0.789638365049,-0.679470182654,0.0119643623311,0.0149080464136,0.00920253589644,0.0104841537383,3.91596548344e-05,-0.661351339847,0.573951279694,0.818855344093,0.00604986692747,0.0,0.818852475385,-0.573859962021,-0.0120877808514,0.0,-0.00642649127304,0.011891974755,-0.9999086364,0.0,0.287574265375,-0.230345711571,0.304886453882,1.0,-0.142135428572,-0.186806563265,2.704
-0.547550394049,-0.529473900757,-0.134562657328,-2.64793127409,-0.072717206808,2.1088715124,-0.799837364811,-0.636153961597,0.0245138679364,0.0304927139761,0.0252424653627,0.0106093082119,0.00119448000663,-0.619696852606,0.573952295133,0.818854850903,0.00602021301851,0.0,0.818851897221,-0.573861661248,-0.0120462055629,0.0,-0.00640944781802,0.0118438382129,-0.999909317126,0.0,0.285292600658,-0.233301294668,0.304900648753,1.0,-0.135954857143,-0.178683526531,2.72
-0.55865425988,-0.528916119541,-0.134065595757,-2.64755907589,-0.0725463965547,2.10895004524,-0.810782652088,-0.614067795163,0.0356725230811,0.0243437264131,0.0257885575314,0.00620034772695,0.00954250389518,-0.584982247504,0.573825944188,0.818943606967,0.00599176812814,0.0,0.818940142469,-0.573735198921,-0.0120711007745,0.0,-0.00644798667315,0.0118338380818,-0.999909187749,0.0,0.282888344398,-0.23641085725,0.304885717616,1.0,-0.129001714286,-0.169545110204,2.738
-0.568854040584,-0.52830913658,-0.133698960913,-2.64711406244,-0.0723440864974,2.10904415609,-0.820591474044,-0.591384225665,0.0413731922322,0.0209735861875,0.024609103223,0.00703628943945,0.00493840995562,-0.55706858293,0.573999026521,0.818821978774,0.00603585377652,0.0,0.818819076178,-0.573908034163,-0.0120679622013,0.0,-0.00641761127297,0.0118694992935,-0.999908960482,0.0,0.280662670113,-0.239287327659,0.304883799412,1.0,-0.122434857143,-0.160914383674,2.755
-0.577149189282,-0.527621517959,-0.133244812556,-2.6466326696,-0.0721091552567,2.1091627945,-0.828913107407,-0.542733251084,0.0458574360184,0.0293683634588,0.0335913228575,0.0140455593536,0.00648457095128,-0.545289630277,0.573784426133,0.818972343744,0.0060398188057,0.0,0.818969313288,-0.573693129919,-0.0120914630239,0.0,-0.00643769520279,0.0118845482464,-0.999908652625,0.0,0.278899895959,-0.241599312521,0.304873130324,1.0,-0.116640571429,-0.153299036735,2.77
-0.586323002671,-0.52683258349,-0.132816477985,-2.6460834706,-0.0718756315504,2.10929223855,-0.837815027018,-0.533913058243,0.0428536338284,0.0251187877458,0.0308582571837,0.0139873038145,0.00556662261727,-0.509689592964,0.573835467276,0.818936471327,0.00605469468929,0.0,0.818933337931,-0.573743547675,-0.0121357499821,0.0,-0.00646469072147,0.0119225446397,-0.999908026122,0.0,0.276914266409,-0.244164113708,0.304856297768,1.0,-0.110073714286,-0.144668310204,2.787
-0.595530643109,-0.525929486535,-0.132391302782,-2.64540016848,-0.0716100538777,2.10944235449,-0.846719490781,-0.496163007351,0.054066131696,0.0301015730508,0.0424446046895,0.0167051257578,0.010791954984,-0.482614469548,0.573934977767,0.818866517789,0.00608393309174,0.0,0.818863720125,-0.573842823791,-0.0121395365782,0.0,-0.00644956287431,0.0119494468045,-0.99990780268,0.0,0.274931859306,-0.246753162246,0.304860096913,1.0,-0.103120571429,-0.135529893878,2.805
-0.602507237102,-0.525097714019,-0.131920969856,-2.64482369953,-0.0713284520765,2.10958243303,-0.853689681861,-0.458171429012,0.0597224206193,0.0284736422724,0.0363982539587,0.0192572077289,0.00752973237047,-0.461605218745,0.573760410729,0.818988765103,0.00609431021562,0.0,0.818985685836,-0.573667476149,-0.0121991845953,0.0,-0.00649501261581,0.0119907928555,-0.999907013526,0.0,0.273466269066,-0.248678095701,0.304841463675,1.0,-0.0973262857144,-0.127914546939,2.82
-0.610631958284,-0.524183155358,-0.131445217311,-2.6441343956,-0.0710471594869,2.10975111619,-0.861527840515,-0.442819372892,0.0525013825078,0.0336883393283,0.0357526445475,0.0183288641131,0.00565239017798,-0.432561628642,0.573816985958,0.818949091675,0.00609907963422,0.0,0.818946094037,-0.573724053471,-0.0121964106138,0.0,-0.00648917564041,0.0119935559347,-0.999907018285,0.0,0.271730075654,-0.250935934569,0.304846069698,1.0,-0.0903731428572,-0.118776130612,2.838
-0.617390853782,-0.523346959943,-0.131054806933,-2.64347927962,-0.0707642791664,2.10992420679,-0.868039127233,-0.412778140877,0.0516199680597,0.0213515039536,0.0423031517497,0.019352811732,0.00702735216651,-0.395520999416,0.573900306532,0.818890429946,0.0061358622721,0.0,0.818888162493,-0.573807655088,-0.012153155654,0.0,-0.00643142194119,0.0119995157643,-0.999907319922,0.0,0.270297637944,-0.252824834307,0.304861829264,1.0,-0.0841925714286,-0.110653093878,2.854
-0.623973961489,-0.522413995152,-0.130599469878,-2.64278076884,-0.0704648170729,2.11009528468,-0.874475115809,-0.373913774864,0.0484181972117,0.0342473117123,0.0382783076665,0.0143519990034,0.0100114530621,-0.369864318281,0.573864771085,0.818915230433,0.00614953448619,0.0,0.818913044348,-0.573771884689,-0.0121654033118,0.0,-0.00643412794119,0.0120174617675,-0.999907086989,0.0,0.268919903468,-0.25465132978,0.304862978495,1.0,-0.0776257142858,-0.102022367347,2.871
-0.630024800417,-0.521604760921,-0.130103181517,-2.64215129416,-0.0701610806761,2.110263068,-0.880421963143,-0.34847861386,0.0469646183525,0.0271350265721,0.0379545150707,0.016414438134,0.00965723885904,-0.35045292421,0.573762446726,0.818986933457,0.00614853273761,0.0,0.818984958095,-0.573670005228,-0.0121289083603,0.0,-0.00640631199779,0.0119948989023,-0.999907536509,0.0,0.26766190413,-0.256302530477,0.304878618157,1.0,-0.0710588571429,-0.0933916408164,2.888
-0.635763850807,-0.520810904232,-0.129646341406,-2.64153056626,-0.0698606855435,2.11042839752,-0.885857158415,-0.32429836194,0.0482368704623,0.0267589009309,0.0408877718271,0.0192779115984,0.00286697020805,-0.307890934356,0.573849517466,0.818925843868,0.00615958199888,0.0,0.818924249639,-0.573757453533,-0.0120915164459,0.0,-0.00636807183173,0.0119831726577,-0.999907921378,0.0,0.266463538052,-0.257871173735,0.304894494702,1.0,-0.0644920000001,-0.0847609142858,2.905
-0.640865155684,-0.520008510786,-0.129222878771,-2.64090999467,-0.0695494615586,2.11060092752,-0.890821012232,-0.295292325381,0.0430704598922,0.0254933870757,0.0374505405341,0.0167037682434,0.012273982421,-0.291742983034,0.573828332938,0.81894045485,0.00619052733097,0.0,0.818939445919,-0.573736482097,-0.0120573600112,0.0,-0.00632265024924,0.0119887526379,-0.999908142733,0.0,0.265416234933,-0.259272057072,0.304906720868,1.0,-0.0579251428572,-0.0761301877552,2.922
-0.645295267202,-0.519316142794,-0.128865229925,-2.64040829807,-0.0692694542066,2.11074795327,-0.894979733848,-0.269449843953,0.0322383890405,0.0218058638175,0.0280891756118,0.0189115746077,0.0036938070565,-0.259339472468,0.573943729604,0.818859250181,0.00623462448471,0.0,0.818858750303,-0.573851536608,-0.0120626649678,0.0,-0.00629999724451,0.0120287993264,-0.999907804761,0.0,0.264490702744,-0.260476550814,0.304901389072,1.0,-0.0517445714287,-0.0680071510205,2.938
-0.649469226106,-0.51865524136,-0.128368299607,-2.63994997083,-0.0689778860625,2.11088405111,-0.898932791907,-0.232016523974,0.0360664479381,0.0345768170743,0.0221744383512,0.0136474608337,0.0070479884027,-0.231103390377,0.573921533087,0.818874888046,0.00622402516577,0.0,0.818874067435,-0.573829043745,-0.0120928548688,0.0,-0.00633113066164,0.0120372743639,-0.999907506128,0.0,0.26364743024,-0.261566561355,0.304890211925,1.0,-0.0451777142858,-0.0593764244899,2.955
-0.652907023844,-0.518107709513,-0.127848072073,-2.63954307095,-0.06870567117,2.11100194866,-0.902293860675,-0.209040595597,0.0350351758077,0.0376749127981,0.0219770239159,0.0162256037192,0.0049523265285,-0.209920009989,0.573753281286,0.818993084471,0.00618439195312,0.0,0.818991819005,-0.573661139088,-0.0120848998595,0.0,-0.00634982633289,0.0119989483805,-0.999907848226,0.0,0.262984405723,-0.262443279853,0.304896236602,1.0,-0.0389971428572,-0.0512533877552,2.971
-0.656276065084,-0.517527431628,-0.12735298504,-2.63913011459,-0.0684404424117,2.11113613469,-0.905381976727,-0.174981050487,0.0324650742317,0.0239116935521,0.0239637746766,0.0173950422968,0.00379714079026,-0.167787416226,0.573767342882,0.818983514579,0.00614703113684,0.0,0.818981772012,-0.573675380189,-0.0120897550831,0.0,-0.00637503242302,0.0119712435867,-0.999908019914,0.0,0.262333732282,-0.263309736467,0.304893572793,1.0,-0.0320440000001,-0.0421149714287,2.989
-0.658985964365,-0.517046593334,-0.126945108861,-2.63879720903,-0.0681455220124,2.11123777349,-0.90791299631,-0.152362549074,0.0262906882663,0.0241594753898,0.0169147248065,0.0159193186817,0.00943816982731,-0.134256559823,0.573768021541,0.818982765277,0.00618340821913,0.0,0.818981360805,-0.573675642293,-0.0121051639941,0.0,-0.00636677258048,0.0120098833005,-0.999907609187,0.0,0.261816762219,-0.263994275771,0.304886202078,1.0,-0.0254771428572,-0.0334842448981,3.006
-0.661127114275,-0.516711187862,-0.126544693187,-2.63858262399,-0.0679021649443,2.11128856096,-0.909798870749,-0.125088977443,0.0163051153054,0.0244108654108,0.0111883940012,0.0161271667301,0.000592700028468,-0.110983845306,0.573808244173,0.818954531729,0.0061903780934,0.0,0.818952920403,-0.573715264153,-0.0121514090398,0.0,-0.00640006031801,0.0120424387576,-0.999907005124,0.0,0.261410723732,-0.264500476249,0.304874060221,1.0,-0.0199446153846,-0.0262129230769,3.022
-0.662971286675,-0.516413390982,-0.12622044007,-2.63837299496,-0.067671324238,2.11133438809,-0.911401242142,-0.0990244710324,0.0167617175698,0.0130218359686,0.00951027268911,0.016095721035,0.00207919406779,-0.0951522425434,0.573885693237,0.818900030722,0.00622074623945,0.0,0.818898668744,-0.573792281733,-0.0121710580937,0.0,-0.00639758684141,0.0120791894874,-0.999906577668,0.0,0.261063343776,-0.264944882947,0.304871227704,1.0,-0.0196046153846,-0.0257660659341,3.039
-0.664591689949,-0.516140396598,-0.125969613039,-2.63816165276,-0.0675156938768,2.11142403791,-0.913005946175,-0.0909263810558,0.0157023670259,0.012349989366,0.0132220522671,0.0086524169457,0.00100525851896,-0.0940074347685,0.573797895057,0.818961582034,0.0062168868357,0.0,0.818960446268,-0.573705042915,-0.0121267507909,0.0,-0.00636480622601,0.0120499204934,-0.999907140017,0.0,0.260759241533,-0.265360976712,0.304880221711,1.0,-0.0192646153846,-0.0253192087912,3.056
-0.666056112439,-0.515887866349,-0.125808108639,-2.63794270804,-0.0674380353054,2.11146743055,-0.914387407566,-0.0938418545155,0.00933253448908,0.00377528956678,0.0131840958513,0.00164463886258,-9.53594231133e-05,-0.0819090435475,0.5737955914,0.818963383952,0.00619208664027,0.0,0.818962070349,-0.573703125699,-0.0121077575774,0.0,-0.00636351317489,0.0120186934115,-0.999907524078,0.0,0.260463930183,-0.265758862568,0.30489407391,1.0,-0.0189446153846,-0.0248986373626,3.072
-0.667532894065,-0.515607624696,-0.1257158577,-2.6377388333,-0.0673880959775,2.11151079004,-0.915874673134,-0.086209013828,0.0215959000666,0.00444080393522,0.0122041661464,0.000654039237111,0.00287284345517,-0.0890441196324,0.573753537508,0.818992912872,0.00618334569084,0.0,0.818991336066,-0.573660838463,-0.0121318079979,0.0,-0.00638884450213,0.0120250058225,-0.999907286653,0.0,0.260142768425,-0.266172900198,0.304889169004,1.0,-0.0186046153846,-0.0244517802198,3.089
-0.669045302483,-0.515355054349,-0.125689501678,-2.63751529486,-0.0673418427417,2.11157121368,-0.917318403097,-0.0871473962522,0.0151646558391,0.00151369555759,0.0141903656017,0.00357537192738,0.00160386896518,-0.0897360748936,0.573822311881,0.818944629388,0.00619639302798,0.0,0.818943478236,-0.573730022382,-0.0120908135662,0.0,-0.00634677231934,0.0120127055337,-0.999907702434,0.0,0.259804098427,-0.266618423826,0.304903279096,1.0,-0.0182446153846,-0.0239786373626,3.107
-0.670354388058,-0.515120310291,-0.125641346349,-2.63730285478,-0.067302114813,2.11163015322,-0.918659999322,-0.0807505964893,0.0131091844058,-0.000529864694334,0.0186899141317,0.00104345323263,0.000421025893225,-0.0810177315055,0.573789327041,0.818967766886,0.0061928892254,0.0,0.818966851181,-0.573697592778,-0.0120463939554,0.0,-0.00631288425828,0.0119840940005,-0.999908260284,0.0,0.259520930733,-0.267003925966,0.304919295436,1.0,-0.0179246153846,-0.0235580659341,3.123
-0.67162474256,-0.514871790485,-0.125602044186,-2.63708991115,-0.0672701472784,2.1116814428,-0.919958750913,-0.0744075692832,0.0166968356994,0.00375520286867,0.0154836634814,0.00192809260813,0.00555960484482,-0.0704034335379,0.573762286758,0.818986757383,0.00618679447996,0.0,0.818985878663,-0.573670805536,-0.0120284798812,0.0,-0.00630210369616,0.0119686158691,-0.999908513677,0.0,0.259226186627,-0.267402235615,0.304927020816,1.0,-0.0175846153846,-0.0231112087912,3.14
-0.673018158443,-0.51458431015,-0.125570868929,-2.6368761227,-0.067226137888,2.11174261937,-0.921336444937,-0.0793935670698,0.0184938670503,0.00647420239558,0.0109967082172,0.000170597707241,0.00374789884758,-0.0798952901138,0.573783480049,0.818971811023,0.00619981231717,0.0,0.818971098547,-0.573691932025,-0.0120272098076,0.0,-0.00629328465651,0.0119787120302,-0.999908448322,0.0,0.258932725822,-0.267790295335,0.304926473256,1.0,-0.0172446153846,-0.0226643516484,3.157
-0.674248157491,-0.514343509692,-0.125551246424,-2.63668186435,-0.067201928146,2.11178527384,-0.922602835067,-0.0788275542864,0.0186738461769,0.00230323698873,0.0102186599109,0.0031910481888,-0.00134559049327,-0.0749474306819,0.573760146291,0.818988142897,0.00620187260499,0.0,0.818987471066,-0.573668620686,-0.0120242578898,0.0,-0.00629002603836,0.0119785265503,-0.999908471048,0.0,0.258654527284,-0.268154874598,0.30492986376,1.0,-0.0169246153846,-0.0222437802198,3.173
-0.675505971405,-0.514084676492,-0.125535253383,-2.63647588202,-0.0671690456717,2.11184667647,-0.923815054697,-0.0789475593004,0.015745050759,9.83405627066e-05,0.0105082969294,0.00129519001707,-6.18145169811e-05,-0.0669195446889,0.573810845546,0.818952568629,0.00620892675677,0.0,0.818952086284,-0.573719465006,-0.0120084447553,0.0,-0.00627228530136,0.0119756199276,-0.999908617307,0.0,0.258373461887,-0.268531750182,0.304933416516,1.0,-0.0165846153846,-0.0217969230769,3.19
-0.676816027101,-0.513810781326,-0.12551573491,-2.63625821602,-0.0671367599703,2.11191945596,-0.925173746851,-0.0786273598866,0.0178324600708,0.00284125788481,0.00918350957926,0.00279153570404,0.00167739492466,-0.0746023166025,0.573782203944,0.818972606281,0.00621284961709,0.0,0.818972319618,-0.57369108927,-0.0119841851076,0.0,-0.00625058319055,0.0119646943633,-0.999908883998,0.0,0.258082587068,-0.268925582402,0.304937741537,1.0,-0.0162246153846,-0.0213237802198,3.208
-0.677971772546,-0.5135800165,-0.125493741906,-2.63607974499,-0.0671024860173,2.11194169089,-0.926317096607,-0.0759153256363,0.0113016003321,0.000384037570317,0.00728071851232,2.23566250003e-05,0.000424734395938,-0.0739873961809,0.573800659016,0.818959578644,0.00622568560424,0.0,0.818959307273,-0.573709195054,-0.0120066415945,0.0,-0.00626134161469,0.0119882328399,-0.999908534754,0.0,0.257817851829,-0.269261730208,0.304935934266,1.0,-0.0159046153846,-0.0209032087912,3.224
-0.679163242803,-0.513325341642,-0.125479530443,-2.63588801142,-0.0670802697667,2.11198360602,-0.927499718973,-0.0689805629837,0.017401544327,-0.00107348487511,0.00915892858689,0.00271951743999,0.00413698483474,-0.074933980448,0.573817295524,0.818947895246,0.00622921591379,0.0,0.81894757592,-0.573725633032,-0.0120213476297,0.0,-0.00627111723433,0.0119996894891,-0.999908336069,0.0,0.257545643443,-0.269615599993,0.304932781511,1.0,-0.0155646153846,-0.0204563516484,3.241
-0.680302948753,-0.513077217705,-0.125463581507,-2.63569281809,-0.0670474133047,2.11204210121,-0.928707569224,-0.069106126084,0.0199943573887,-0.000660449294237,0.010570444527,0.000906151909636,0.00424175992655,-0.0715219738725,0.573774294069,0.818977958562,0.00623776862471,0.0,0.818977818451,-0.573682733943,-0.0120083538104,0.0,-0.00625619738214,0.0119989098869,-0.999908438886,0.0,0.257291777526,-0.26995790218,0.304935064727,1.0,-0.0152246153846,-0.0200094945055,3.258
-0.681374362771,-0.512853779473,-0.125438765515,-2.63551393349,-0.0670222879329,2.11208411178,-0.929780229237,-0.0618335086664,0.0156525662125,-0.000296079351694,0.0108761381131,6.90412391539e-05,0.00290516459622,-0.0640172677835,0.573775606448,0.81897704208,0.00623737862598,0.0,0.818976917558,-0.573684087356,-0.0120051373828,0.0,-0.00625376744337,0.0119967550777,-0.999908479942,0.0,0.257051613125,-0.270275026036,0.304937851349,1.0,-0.0149046153846,-0.0195889230769,3.274
-0.682583388963,-0.512598953823,-0.125403677088,-2.63531930677,-0.0669949547275,2.11211938076,-0.930937954845,-0.0652746989388,0.0166468712893,-0.000536136035068,0.0100412092008,0.00416395442467,0.00208807183444,-0.0703282365363,0.573814457163,0.818949838171,0.00623523944737,0.0,0.818949574096,-0.573722724868,-0.0120240159009,0.0,-0.006269888025,0.0120061320021,-0.999908266442,0.0,0.256778139077,-0.270627498573,0.304935828047,1.0,-0.0145446153846,-0.0191157802198,3.292
-0.683614739484,-0.512370233822,-0.125395642192,-2.6351459568,-0.0669671225241,2.11215747036,-0.932026725579,-0.0652921580425,0.0212305040823,-0.000829091719241,0.0144464192509,0.00027604758416,0.00225546002888,-0.0620966560223,0.573782627126,0.818972046059,0.00624751815025,0.0,0.818971860935,-0.573690693301,-0.0120343806643,0.0,-0.0062717990882,0.0120218915778,-0.999908065104,0.0,0.256542524855,-0.270935081069,0.304933385649,1.0,-0.0142246153846,-0.0186952087912,3.308
-0.684671857196,-0.512145351348,-0.125377948401,-2.63496081591,-0.0669434868437,2.11221751234,-0.933051602646,-0.0643321771103,0.0160576988328,0.000197580088291,0.00967490174635,0.000358805946627,0.0052256687189,-0.0563909791244,0.573816053298,0.818948644266,0.00624515274022,0.0,0.818948594124,-0.573724440592,-0.0120088863143,0.0,-0.00625178477019,0.0120055819507,-0.999908386398,0.0,0.25630742741,-0.271253816151,0.304939799598,1.0,-0.0138846153846,-0.0182483516484,3.325
-0.685711335182,-0.511919838064,-0.125341740453,-2.63477742288,-0.0669056856817,2.11225672899,-0.934102682702,-0.0599247820337,0.0163957326315,0.000448226439868,0.00924317707136,0.000204973080505,0.00112478212487,-0.0628816434334,0.573815115106,0.818949290847,0.00624656693657,0.0,0.818949375196,-0.573723719651,-0.01199004906,0.0,-0.00623555861085,0.0119959244301,-0.999908603626,0.0,0.256093100855,-0.271544660772,0.304949978752,1.0,-0.0135646153846,-0.0178277802198,3.341
-0.686599425722,-0.511740595069,-0.125306363439,-2.6346179118,-0.0668893502335,2.11229416752,-0.93500829707,-0.0536547865725,0.00363876492959,0.00388653686137,0.0108066369526,-0.000234942222107,0.00303327880816,-0.049837981058,0.573781952884,0.818972610921,0.00623538349241,0.0,0.818972595642,-0.573690700535,-0.0119839312482,0.0,-0.00623745002977,0.0119830023883,-0.999908746772,0.0,0.255884035499,-0.271821774677,0.304953961219,1.0,-0.0132446153846,-0.0174072087912,3.357
-0.687524726775,-0.511523554265,-0.125275808395,-2.6344579767,-0.0668655453876,2.11233120502,-0.935938390837,-0.0591385643847,0.0147227515599,0.000316360120439,0.0115736206374,0.00173547238297,0.00305237486546,-0.060595366686,0.573774771667,0.818977659085,0.00623315487655,0.0,0.818977521017,-0.573683350354,-0.0119991872996,0.0,-0.00625132951017,0.0119898755242,-0.999908577703,0.0,0.255677804348,-0.27209360115,0.304950127929,1.0,-0.0129246153846,-0.0169866373626,3.373
-0.688577863143,-0.511294549489,-0.125249097268,-2.63426980923,-0.0668335501199,2.1123899661,-0.937000281282,-0.0567041465595,0.0142707763786,0.00386782903169,0.0104903131522,0.000698694457356,0.00837999284342,-0.055162021931,0.573771905873,0.818979662518,0.00623372390838,0.0,0.818979680525,-0.573680768188,-0.0119752243808,0.0,-0.00623141767565,0.0119765711173,-0.999908861436,0.0,0.255445630738,-0.272408412494,0.304956438,1.0,-0.0125446153846,-0.0164872087912,3.392
-0.689466632086,-0.511104600234,-0.12523180126,-2.6341170491,-0.0668156334817,2.11243682844,-0.937910872346,-0.0604908802694,0.0143652146664,0.000480950654898,0.00843711407452,0.000417089565043,0.00168341411116,-0.0584645774657,0.573757223918,0.818989972574,0.00623054787582,0.0,0.818990038346,-0.57366627408,-0.0119611861834,0.0,-0.00622195615079,0.0119658040019,-0.999909049262,0.0,0.255245681958,-0.27267399507,0.304959874096,1.0,-0.0122246153846,-0.0160666373626,3.408
-0.690382812402,-0.510915612108,-0.125218253879,-2.63394305235,-0.066787281735,2.11247566216,-0.938838344178,-0.0586248390057,0.0121492578739,0.00293868280191,0.0107667002778,0.000741763730429,0.0035392333693,-0.05866650179,0.573759266284,0.81898850536,0.00623533021359,0.0,0.818988811411,-0.573668638987,-0.0119317361216,0.0,-0.00619506060945,0.0119528399722,-0.999909371314,0.0,0.255041562307,-0.27295069288,0.304972532503,1.0,-0.0118846153846,-0.0156197802198,3.425
-0.69134548163,-0.510701066071,-0.125214974011,-2.63377242037,-0.0667690194339,2.11252957716,-0.939779337097,-0.0501706455333,0.0100611473598,-0.00105836491672,0.00978954326658,1.34519296305e-05,0.000119586088628,-0.0629295787771,0.573791261114,0.818966076233,0.00623711076671,0.0,0.818966498498,-0.573700799301,-0.0119169677679,0.0,-0.00618147591383,0.0119460667283,-0.999909536331,0.0,0.254822157093,-0.273243109688,0.304975221685,1.0,-0.0115246153846,-0.0151466373626,3.443
-0.692176053675,-0.510517984304,-0.125205392094,-2.63361840686,-0.0667398074735,2.1125583621,-0.940601026997,-0.051062033166,0.0117914648429,-0.000379861460116,0.0101653049397,2.33894993877e-05,-0.000778974651245,-0.0492042118224,0.573812078565,0.818951407103,0.00624805551465,0.0,0.818951995986,-0.573721614045,-0.0119115385179,0.0,-0.00617044553567,0.011952072325,-0.999909532692,0.0,0.254634245585,-0.273491769762,0.304980020451,1.0,-0.0112046153846,-0.0147260659341,3.459
-0.693010022922,-0.510328986636,-0.125191907985,-2.63346477763,-0.0667233866886,2.11259432145,-0.9414702221,-0.0468957667059,0.0115270678013,0.00144185482308,0.00896999796722,0.00471975928249,0.00161243550867,-0.053266014103,0.57378852446,0.818967923137,0.00624635669285,0.0,0.818968518321,-0.573698126972,-0.0119068051744,0.0,-0.00616788712076,0.0119477876897,-0.999909599683,0.0,0.254445749369,-0.27374243438,0.304983137905,1.0,-0.0108646153846,-0.0142792087912,3.476
-0.693823524743,-0.510140793163,-0.125166449222,-2.63330632875,-0.0667017732894,2.11263520619,-0.942278035867,-0.0489907553724,0.0128429907852,0.00251942353661,0.00984150855941,0.000232429941707,0.00611349270692,-0.037458603996,0.573792369446,0.818965272312,0.00624070626661,0.0,0.818965892418,-0.573702184985,-0.0118918837907,0.0,-0.00615885160292,0.011934627533,-0.999909812539,0.0,0.254267688893,-0.27398676019,0.30498943532,1.0,-0.0105246153846,-0.0138323516484,3.493
-0.694604914726,-0.509957807641,-0.125144264993,-2.63316323847,-0.0666781191157,2.11266230441,-0.943033454679,-0.0488126897762,0.0125649793134,2.25222838397e-05,0.00694228082357,0.000257025995196,0.00510919726675,-0.0483648396149,0.573815314358,0.818949183063,0.00624239298282,0.0,0.818949773521,-0.573725018166,-0.0119003731999,0.0,-0.00616450256849,0.0119410526104,-0.999909701008,0.0,0.25409230919,-0.274217274118,0.304989425941,1.0,-0.0101846153846,-0.0133854945055,3.51
-0.69533356653,-0.509779347912,-0.125119218306,-2.63302017607,-0.0666639715661,2.11270631794,-0.94373556714,-0.0438367121797,0.0118326729725,-0.000102483430509,0.0103621234738,0.00029834423964,0.00190372435858,-0.0527692276041,0.573832574471,0.818937175501,0.00623104806867,0.0,0.818937700196,-0.573742479347,-0.0118893856438,0.0,-0.00616176156276,0.0119255865525,-0.999909902481,0.0,0.253933627524,-0.274437172378,0.304992576349,1.0,-0.00986461538462,-0.0129649230769,3.526
-0.696045955902,-0.50960571831,-0.125099591823,-2.63288985487,-0.0666361240289,2.11273179344,-0.944484717482,-0.0466815780277,0.00902800662479,0.00069310154546,0.0048693498646,0.00516577468705,0.00251746303709,-0.0550933059166,0.573807126895,0.818954942738,0.00623937430353,0.0,0.818955485882,-0.573716829241,-0.0119020540541,0.0,-0.00616773070241,0.0119394831273,-0.999909699843,0.0,0.253773779379,-0.274646621833,0.304990021385,1.0,-0.00954461538462,-0.0125443516484,3.542
-0.696733517853,-0.509432303114,-0.125071982424,-2.63276176956,-0.0666206535821,2.11276643047,-0.945170550254,-0.0378796625247,0.0132720201451,0.0014305530851,0.0147886176332,0.000703770980268,0.000375614773237,-0.0471489758442,0.573810491097,0.818952633932,0.00623302363226,0.0,0.818953043093,-0.573720119459,-0.0119115338312,0.0,-0.006179089909,0.0119397466258,-0.999909626566,0.0,0.253610506699,-0.274862038863,0.304987456273,1.0,-0.00920461538462,-0.0120974945055,3.559
-0.697566194041,-0.509238820695,-0.12505838658,-2.63261707469,-0.066594114489,2.11280764337,-0.945968528008,-0.0425191598292,0.0110331297988,0.00182367918473,0.0114359125088,0.000327584049608,0.00122629957194,-0.0423972477047,0.573831246268,0.818938065473,0.00623639536939,0.0,0.8189384928,-0.573740806662,-0.0119154808111,0.0,-0.00618008528052,0.0119449294049,-0.999909558514,0.0,0.253424044685,-0.275106869261,0.30498505289,1.0,-0.00880461538462,-0.0115717802198,3.579
