nelsonifechukwu/NELSON_IML_WORK/CNN-GradCAM/train2dof/data_sample_2022-02-22-08-01-04/robot_state.csv
position_joint1,position_joint2,position_joint3,position_joint4,position_joint5,position_joint6,position_joint7,velocity_joint1,velocity_joint2,velocity_joint3,velocity_joint4,velocity_joint5,velocity_joint6,velocity_joint7,ee_T_00,ee_T_10,ee_T_20,ee_T_30,ee_T_01,ee_T_11,ee_T_21,ee_T_31,ee_T_02,ee_T_12,ee_T_22,ee_T_32,ee_T_03,ee_T_13,ee_T_23,ee_T_33,v_x,v_y,time
0.465070558379,0.54770934191,-0.124016190288,-1.35581982779,0.0795192375316,1.89413598235,0.159129536937,-0.00660778350038,-0.00215153365386,0.00119999378905,-0.000510645267094,8.67391121534e-06,0.0003622544897,-0.000437815136656,0.573807856246,0.818975630836,0.00205112359687,0.0,0.818933826379,-0.573748896931,-0.0118464418184,0.0,-0.00852528139827,0.00847747909724,-0.999927723351,0.0,0.661695173087,0.260880449921,0.303275574444,1.0,0.0,0.0,0.0
0.465078036214,0.547716062112,-0.124023932933,-1.35582177485,0.0795185254547,1.89413635257,0.159137488255,-0.000348645614282,0.000548451282153,0.000720477136559,-0.00149020934398,-0.00030530117029,-0.000494411804812,-0.0011186688773,0.573813586056,0.818971640301,0.00204150475897,0.0,0.818929754827,-0.573754708556,-0.0118464328293,0.0,-0.00853073380102,0.00846965616264,-0.999927743142,0.0,0.661694489143,0.260880505706,0.303270174235,1.0,-8e-05,-0.000105142857143,0.005
0.46507546117,0.547715340674,-0.124013710941,-1.35581953128,0.0795192375316,1.89413353866,0.159137725202,0.000933360619023,0.00206180753444,0.00174545282838,-0.000166121812726,-0.000100094574221,-0.000363832482732,0.000549206193244,0.5738087922,0.818974991321,0.00204462382824,0.0,0.818933086925,-0.573749843644,-0.0118517070468,0.0,-0.00853331336673,0.00847518698289,-0.999927674269,0.0,0.661692745584,0.260884917792,0.303271171539,1.0,-0.00042,-0.000552,0.022
0.465072351541,0.547697260462,-0.124018359479,-1.35583264528,0.0795185210736,1.89413712144,0.159137369944,0.00100957088332,-0.00320972503246,-0.000929068446408,-0.000608997938966,-2.83708264694e-05,0.00943094232284,-0.00136470743446,0.573810749827,0.818973596162,0.00205403822653,0.0,0.818931851271,-0.573751799987,-0.0118423767353,0.0,-0.00852024977348,0.008477563621,-0.999927765521,0.0,0.661693835544,0.260879185607,0.303278568725,1.0,-0.00078,-0.00102514285714,0.04
0.465076823381,0.547639901472,-0.124016157648,-1.35588527868,0.0795159466701,1.89414660399,0.159139722606,0.000913802127811,-0.00475523633214,0.00131983097817,-0.00198036228552,0.000171728092205,0.00484011527281,0.000900133224671,0.573813696036,0.818971504251,0.00206503450228,0.0,0.818929858829,-0.573754658356,-0.0118416736462,0.0,-0.0085133340216,0.0084861963212,-0.999927751198,0.0,0.661682667347,0.260877947623,0.303294529582,1.0,-0.00108,-0.00141942857143,0.055
0.465068698668,0.547502024927,-0.124019145913,-1.35605613059,0.0795164241273,1.89418099091,0.15912515474,-0.000794187202013,-0.00454564329357,0.000453667107948,-0.0141878113275,-1.09549657124e-05,-0.000109872996674,0.000270500628075,0.573819957991,0.818967095918,0.00207328651039,0.0,0.818925438228,-0.573760767145,-0.0118513969905,0.0,-0.00851649768616,0.0084985988117,-0.999927618923,0.0,0.661656778493,0.260854784391,0.303313965977,1.0,-0.00144,-0.00189257142857,0.073
0.465056637279,0.547373753276,-0.124016907204,-1.35623715176,0.07951377956,1.89424371939,0.15912900168,-7.36826683489e-05,-0.00773236594611,0.000639386320534,-0.0129655542155,-0.00106896258619,0.00548743283793,0.00106903909337,0.573841793055,0.818951776255,0.00208125274786,0.0,0.818910141108,-0.573782486546,-0.0118568893547,0.0,-0.00851619818426,0.00850850144379,-0.99992753726,0.0,0.661630619481,0.260827757495,0.303319788899,1.0,-0.00176,-0.00231314285714,0.09
0.46503967477,0.54719317874,-0.12401944797,-1.35645696317,0.0795102682394,1.89435610398,0.159118119276,-0.00113304335199,-0.00509974717203,0.000126813157677,-0.00851368878479,0.00013253806727,0.00954238043085,0.000483074266438,0.573859089621,0.818939469154,0.00215360672538,0.0,0.818898736908,-0.573799454694,-0.011823340701,0.0,-0.00844702462407,0.00854868194679,-0.999927781298,0.0,0.661615944964,0.260802788934,0.303357160805,1.0,-0.0021,-0.00276,0.106
0.465025395324,0.546966431231,-0.124021944999,-1.35670824317,0.0795078731547,1.89448463314,0.159106108896,-0.00157512660034,-0.0172689193297,-0.00136988675929,-0.014924449695,-0.000454428984456,0.0107364692696,-1.76663294738e-05,0.573876246143,0.818927191281,0.00224864272518,0.0,0.818887647009,-0.573816191369,-0.0117790916153,0.0,-0.00835607168835,0.00860129223089,-0.999928094334,0.0,0.661594377144,0.260773400764,0.303409405579,1.0,-0.00246,-0.00323314285714,0.124
0.465000809714,0.546755915012,-0.124021571046,-1.35700909247,0.079501433987,1.89461008608,0.159086225959,-0.00282232084133,-0.0111464131248,-0.000215209864629,-0.0233857408619,-2.42274973213e-06,0.0119500070336,-0.000237696369123,0.573892979104,0.818915351571,0.00228962831154,0.0,0.818876218809,-0.573832640663,-0.0117722418926,0.0,-0.00832676646416,0.00863109532003,-0.999928081991,0.0,0.661560293732,0.260729397251,0.303428337848,1.0,-0.0028,-0.00368,0.141
0.464968547217,0.546508218223,-0.124017173233,-1.35737284825,0.0794969812635,1.89474515984,0.159012323554,-0.00472559020247,-0.0154050514115,4.30127111755e-06,-0.0277951414216,0.000183601137549,0.0158771586578,-0.0091408670854,0.57387702191,0.818926470847,0.00231213570841,0.0,0.818887489068,-0.573816452943,-0.0117773291206,0.0,-0.00831818521268,0.00865228414973,-0.999927970293,0.0,0.661520304768,0.260681608169,0.303440035672,1.0,-0.0031,-0.00407428571429,0.156
0.464932516838,0.546208959455,-0.124017699698,-1.35784238831,0.0794840922213,1.89490713572,0.158925452027,-0.00116046170639,-0.0178760788087,0.000433512501395,-0.0285099437515,0.000127733314539,0.0116397957916,0.000111362554798,0.573858540143,0.818939416732,0.00231398550439,0.0,0.81890030397,-0.573797805203,-0.0117948210127,0.0,-0.00833164444686,0.0086636490026,-0.999927759834,0.0,0.66146298219,0.260614566865,0.303442521932,1.0,-0.00346,-0.00454742857143,0.174
0.464879241987,0.54590438948,-0.124025114516,-1.35835034325,0.0794657989328,1.89507866792,0.158887026679,-0.00221026186384,-0.0213107256419,-0.00312895373148,-0.029332577296,-0.00498170204796,0.00371165293322,-0.00521526508267,0.573899379903,0.818910860977,0.00229138001201,0.0,0.818871356303,-0.573838625079,-0.0118186756751,0.0,-0.00836372054459,0.00865924281669,-0.99992753022,0.0,0.661405222931,0.260527412628,0.303431511791,1.0,-0.0038,-0.00499428571429,0.191
0.464829857494,0.545606848895,-0.124019314221,-1.35886227549,0.0794241841938,1.89524695635,0.15882146922,3.34955022656e-05,-0.0206953424436,-5.74183665527e-05,-0.0356510104509,-0.0022839703524,0.0184137757238,-0.00629067079552,0.573899570619,0.81891084921,0.00224739646599,0.0,0.818870801562,-0.573839016801,-0.011838076132,0.0,-0.00840484701918,0.00863436039281,-0.999927400548,0.0,0.66134292894,0.260445922665,0.303412850196,1.0,-0.0041,-0.00538857142857,0.206
0.464755407902,0.545214947487,-0.124017558607,-1.35956472154,0.0793272075551,1.89546484583,0.158731431714,-0.00378884776251,-0.0189108801336,0.00115360424271,-0.0428773290564,-0.000748994935473,0.0135141601726,-0.00240884503379,0.57389887767,0.818911626292,0.00213855892819,0.0,0.818870571003,-0.573839168712,-0.011846657669,0.0,-0.00847433997752,0.00855015112792,-0.999927537613,0.0,0.661259737577,0.260318539811,0.303374627325,1.0,-0.00446,-0.00586171428571,0.224
0.464686058188,0.54476592784,-0.124020103683,-1.3603055731,0.0793162030957,1.89569837451,0.158657562443,-0.00174853511295,-0.0241180496769,0.000453669674339,-0.0432185281409,-0.00176060395629,0.0172984138939,-0.00428279204401,0.573935165077,0.81888627577,0.00210726007275,0.0,0.818844461015,-0.573875223418,-0.0119047684836,0.0,-0.00853951159442,0.0085582482761,-0.999926913893,0.0,0.661167100144,0.260203225265,0.303360178435,1.0,-0.00482,-0.00633485714286,0.242
0.464610105046,0.544357980525,-0.12401549697,-1.360990302,0.0792924762809,1.89594815945,0.158544338747,-0.00722467608468,-0.0255529286182,0.00292033988081,-0.0456067293575,-0.00354763030793,0.0197876143514,-0.0105766038469,0.573933348669,0.81888758186,0.00209438811907,0.0,0.818845401554,-0.573873261834,-0.0119345970761,0.0,-0.00857134502367,0.00856480824439,-0.999926585357,0.0,0.661090229013,0.260092862501,0.30334448673,1.0,-0.00514,-0.00675542857143,0.258
0.464548789831,0.543864310333,-0.124026374315,-1.36178373901,0.0792588586337,1.89623504493,0.158466775239,-0.00417422726389,-0.0304489102501,0.000878506256914,-0.0437364902106,-0.000148099636117,0.0105410360129,-0.0136201495528,0.573962931257,0.818866864233,0.00208784704533,0.0,0.818824508684,-0.573902777807,-0.0119487448962,0.0,-0.00858637536009,0.00856788193487,-0.999926430072,0.0,0.660998213672,0.259972352508,0.303341385652,1.0,-0.00548,-0.00720228571429,0.275
0.464467109188,0.543352380597,-0.124026515055,-1.36262137248,0.0792133638527,1.89651419509,0.158344523707,-0.00349508795237,-0.0318492718658,-0.000838519543012,-0.0495514977909,-0.00156641696361,0.0158930929498,-0.0101652570079,0.573964187271,0.81886607606,0.00205136759309,0.0,0.818823144298,-0.573904085312,-0.0119794042376,0.0,-0.00863240570003,0.00855562100215,-0.999926138733,0.0,0.660898337122,0.259837150033,0.30332906603,1.0,-0.00582,-0.00764914285714,0.292
0.464401752053,0.542865285703,-0.124034691537,-1.3633838632,0.0791637034639,1.89678509995,0.158263053237,0.000254657380971,-0.0334870090881,-0.000458628640837,-0.0495770793511,-0.00137471418544,0.0203023739691,-0.00570154199044,0.573985094765,0.818851457487,0.00203677700481,0.0,0.818808380961,-0.573925096413,-0.0119818978752,0.0,-0.00864260349662,0.00854532539306,-0.999926138682,0.0,0.66080374572,0.259708131788,0.303331007101,1.0,-0.00614,-0.00806971428571,0.308
0.464317163755,0.542243562755,-0.124032862102,-1.36435294099,0.0791086549088,1.89713530067,0.158123552582,-0.00315653302481,-0.0342709040867,-0.000157470288344,-0.0563111239,-0.00171914050816,0.0163250986134,-0.0117375624011,0.57397875525,0.818855872275,0.00204838072463,0.0,0.818812892447,-0.573918654951,-0.0119821351464,0.0,-0.00863620409037,0.00855489627077,-0.999926112135,0.0,0.6606986801,0.259568604771,0.303343160282,1.0,-0.00648,-0.00851657142857,0.325
0.464241643569,0.541622596715,-0.124038481112,-1.36530964432,0.0790518115837,1.89748629009,0.157999805039,-0.00712783550509,-0.0396637044915,-0.000393024430525,-0.0594039410998,-0.00181118687193,0.0223107769665,-0.00265858154852,0.573981146891,0.818854165496,0.00206047670589,0.0,0.81881135141,-0.573921003612,-0.0119749453128,0.0,-0.00862334901821,0.0085606993807,-0.999926173414,0.0,0.660588451524,0.259424663179,0.303357473408,1.0,-0.00682,-0.00896342857143,0.342
0.464164800853,0.541007806417,-0.124036085033,-1.36625939022,0.0790027525516,1.8978317085,0.157886473941,-0.00403640243533,-0.0449976972209,-0.0004773714804,-0.0568314982756,-0.00433201848906,0.0188664857922,-0.00625948068004,0.573989146748,0.818848522478,0.00207450025092,0.0,0.818805788263,-0.573928841534,-0.0119796854329,0.0,-0.00861909813504,0.00857498732822,-0.999926087638,0.0,0.66047646783,0.25928612633,0.30336991327,1.0,-0.00714,-0.009384,0.358
0.46407620114,0.540299124362,-0.124041750212,-1.36732878871,0.078928856019,1.89822001477,0.157730720379,-0.0064935706656,-0.045244429456,-0.000226944866869,-0.0649446584923,0.000142396106518,0.0228730932158,-0.0128221500615,0.573977566582,0.818856594571,0.00209224505374,0.0,0.818814185849,-0.573917282822,-0.011959449501,0.0,-0.00859246392669,0.0085777808014,-0.999926292904,0.0,0.660353990175,0.259121084797,0.303395617964,1.0,-0.00748,-0.00983085714286,0.375
0.463979450455,0.539597682664,-0.124039273883,-1.36839727429,0.0788691222117,1.89862462094,0.157608593949,-0.00771494629938,-0.046333975789,0.000732795546997,-0.0687495220782,-0.000398150625761,0.029497340657,-0.00452915202681,0.573998273172,0.818841990401,0.00212698218905,0.0,0.81879998649,-0.573937795464,-0.0119472157502,0.0,-0.00856229130674,0.00859941976299,-0.999926365863,0.0,0.660234043762,0.258958798627,0.303417704934,1.0,-0.0078,-0.0102514285714,0.391
0.46387410244,0.538850272843,-0.124040101573,-1.36955932495,0.0787942934296,1.89905862297,0.157469230821,-0.00399964864346,-0.0425554024495,-0.000475642878737,-0.0722002309047,-0.0025905422002,0.0216156575484,-0.0140614794704,0.574015255321,0.818830051775,0.00214006311858,0.0,0.81878826045,-0.573954764217,-0.011935664363,0.0,-0.00854514576623,0.00860367763232,-0.999926475905,0.0,0.660103137689,0.25877798332,0.303430259849,1.0,-0.00814,-0.0106982857143,0.408
0.463761348222,0.538070956927,-0.124048167751,-1.37075369466,0.0787419131292,1.89952913106,0.157321835811,-0.0101842357779,-0.0428172137404,0.000276536857339,-0.0758804643877,-0.00352936849745,0.0183966581417,-0.0120780180272,0.574044684055,0.818809275702,0.00219491091535,0.0,0.818768095281,-0.573983861417,-0.0119197266452,0.0,-0.00850030295541,0.00863974508739,-0.99992654713,0.0,0.659974961554,0.258590774285,0.303453288505,1.0,-0.00848,-0.0111451428571,0.425
0.463650710944,0.537223443011,-0.124052157644,-1.37208821224,0.0786646765831,1.90003527349,0.15716836775,-0.00499370333401,-0.048030025404,-0.000125448729974,-0.0763711838247,-0.0101680549099,0.0246796440477,-0.00389165689095,0.574070161804,0.818791389591,0.00220375997935,0.0,0.818750305108,-0.574009280561,-0.01191765987,0.0,-0.00849326212697,0.00864606854899,-0.999926552301,0.0,0.659831293168,0.258398839056,0.303456247043,1.0,-0.00882,-0.011592,0.442
0.463545385974,0.536470664704,-0.124059894219,-1.3732448661,0.0785889421558,1.90046472336,0.157022232916,-0.0058124908775,-0.0487180871341,0.00057910269343,-0.0767013607004,-0.00131741733677,0.0279566346668,-0.0131217373175,0.574080820471,0.81878385311,0.0022271854108,0.0,0.818743170171,-0.574019942283,-0.011894286931,0.0,-0.00846056413448,0.00865194142076,-0.999926778701,0.0,0.659693290542,0.258205491637,0.303478893013,1.0,-0.00914,-0.0120125714286,0.458
0.463420746701,0.535563892118,-0.124066655802,-1.37469584789,0.0785072661711,1.90099318044,0.156853351524,-0.00376200305227,-0.0478277621514,-0.000784450407199,-0.0839795609559,-0.00856318671724,0.0287272872772,-0.00906780067951,0.574107224248,0.818765374259,0.00221447103465,0.0,0.818724475463,-0.574046342288,-0.0119070182614,0.0,-0.00847800849345,0.00864911336161,-0.999926655415,0.0,0.659524045066,0.257981656391,0.303474265618,1.0,-0.0095,-0.0124857142857,0.476
0.463296239289,0.534657427739,-0.124069855547,-1.37614265396,0.0784285386756,1.90150980934,0.156669268014,-0.0136211875559,-0.0517758807196,-0.00124324026338,-0.0821015930436,-0.00264450232567,0.0305176649839,-0.00993393272672,0.574118916876,0.818757219651,0.00219805712488,0.0,0.818715998368,-0.574057988952,-0.0119283795433,0.0,-0.0085047983608,0.00864805937887,-0.999926437031,0.0,0.659352019401,0.257760164766,0.303470085901,1.0,-0.00984,-0.0129325714286,0.493
0.463185686305,0.533799653644,-0.124070807985,-1.37753482657,0.0783477500338,1.90201835591,0.156501213011,-0.00710584231942,-0.0548908619707,0.000523420180501,-0.087974150044,-0.00973064820732,0.0351154050587,-0.013257190055,0.574127134903,0.818751514794,0.00217644012548,0.0,0.818709954788,-0.574066235982,-0.0119462771131,0.0,-0.00853177595496,0.00864072140911,-0.999926270648,0.0,0.659185453089,0.2575541614,0.303456613587,1.0,-0.01016,-0.0133531428571,0.509
0.463055072879,0.532873951837,-0.124076248143,-1.37902032624,0.0782683530914,1.90258141338,0.156315617819,-0.00559015718541,-0.0540525337228,-0.00162454061736,-0.0924087232748,-0.00571679925348,0.0307843005393,-0.0109872074139,0.574146058696,0.818738230289,0.00218184518848,0.0,0.818696672289,-0.574085065961,-0.0119516829283,0.0,-0.0085328992755,0.00864844755274,-0.999926194269,0.0,0.659015595013,0.257326072442,0.303451335118,1.0,-0.0105,-0.0138,0.526
0.462912560334,0.531903994274,-0.124068452814,-1.38057958206,0.0781825623951,1.90315399766,0.15611851708,-0.0058602548536,-0.0616847252055,-0.000169163602486,-0.0903575821655,-0.00696639174906,0.0284771371845,-0.0145677542465,0.574153881149,0.818732766596,0.00217360644605,0.0,0.818690975414,-0.57409279386,-0.011970702371,0.0,-0.00855311914697,0.00865270379922,-0.999925984696,0.0,0.65882025477,0.257076097524,0.303444601176,1.0,-0.01086,-0.0142731428571,0.544
0.462790406771,0.530958124161,-0.124071238212,-1.38210002484,0.078086792801,1.90369824611,0.155925687217,-0.010193765828,-0.0610308008388,-0.000927133361187,-0.0944356613021,-0.00675436107529,0.0286050396387,-0.0135264028118,0.574159139642,0.818729156889,0.00214404446757,0.0,0.818686956593,-0.574098150103,-0.0119886635635,0.0,-0.00858474173186,0.008638868322,-0.999925833331,0.0,0.658647688029,0.25686059746,0.303432505355,1.0,-0.01116,-0.0146674285714,0.559
0.462641199045,0.529884712608,-0.124077272771,-1.3838420535,0.0779818052899,1.90431420512,0.155695381636,-0.00830392634852,-0.0545861517396,-0.000774176414072,-0.093443266549,-0.00948887363855,0.031863630948,-0.016542908773,0.574163395797,0.818726292294,0.00209764975181,0.0,0.818683437862,-0.57410255083,-0.012018177963,0.0,-0.00863549847064,0.00861787490158,-0.99992557743,0.0,0.65843744321,0.256590957387,0.303413176836,1.0,-0.01152,-0.0151405714286,0.577
0.462502470149,0.528822709115,-0.124074425722,-1.38550343175,0.0778782159129,1.9049437852,0.155460922297,-0.00752775835644,-0.0567713245684,0.000124154698995,-0.0969822036799,-0.00384106746745,0.0439025789247,-0.0141521830394,0.574145400424,0.818738850518,0.00212149142542,0.0,0.818696318264,-0.574084468722,-0.0120045047517,0.0,-0.00861080492828,0.0086293545486,-0.999925691378,0.0,0.65824318457,0.256343971519,0.303424814131,1.0,-0.01186,-0.0155874285714,0.594
0.462380029436,0.527779794,-0.124077619098,-1.38712863602,0.0777718432167,1.90556194005,0.155247302744,-0.00798472411697,-0.0654647312401,0.000295879288094,-0.0991676033199,-0.00978865117601,0.0315519001237,-0.0180011496501,0.574132471668,0.818747853332,0.00214581986745,0.0,0.818705728179,-0.574071530464,-0.0119814631369,0.0,-0.00857810828284,0.00863590833008,-0.999925915829,0.0,0.658051495582,0.256107041684,0.303439173465,1.0,-0.01218,-0.016008,0.61
0.462218063139,0.526558243923,-0.124077700979,-1.3890115263,0.0776542925664,1.90627915807,0.15498636819,-0.00955162590423,-0.0654392858199,-0.000608768590868,-0.108272204995,-0.00830734356592,0.0411876267605,-0.00920180768967,0.574121689089,0.818755295396,0.00219072583139,0.0,0.818713794158,-0.574060603304,-0.0119538233161,0.0,-0.00852981097315,0.00865669335887,-0.999926149265,0.0,0.657833415656,0.255822607887,0.303464818696,1.0,-0.01254,-0.0164811428571,0.628
0.46207172138,0.525458033307,-0.124085010162,-1.39073735132,0.0775419524835,1.90689969222,0.154756981222,-0.00900724078549,-0.074680641364,-0.00169761652906,-0.107341434871,-0.00799672254276,0.0445509031914,-0.00703112207738,0.574121495626,0.818755457891,0.00218067302288,0.0,0.818713877608,-0.574060503688,-0.0119528916847,0.0,-0.00853482137232,0.00864792581682,-0.999926182377,0.0,0.657626461187,0.255555645891,0.303471392486,1.0,-0.01286,-0.0169017142857,0.644
0.461927599475,0.524343906973,-0.12408903336,-1.39249631367,0.0774319334888,1.90752781765,0.154512432152,-0.00410129253964,-0.06738452751,-0.00154549808675,-0.112392325692,-0.000367943700896,0.0389099915422,-0.0103329387559,0.57410693996,0.818765708373,0.00216406666524,0.0,0.818723897606,-0.574046003784,-0.0119629398498,0.0,-0.00855273576589,0.00863994623067,-0.999926098289,0.0,0.657411632947,0.255289229518,0.303472271037,1.0,-0.01318,-0.0173222857143,0.66
0.46175555949,0.523072436,-0.124092676499,-1.39450146993,0.077312940145,1.90828301252,0.154240793966,-0.00864778110242,-0.0708642560899,5.23770820854e-05,-0.11649892746,-0.0131710316483,0.0482798927854,-0.014938158206,0.574103632236,0.818767980831,0.00218172423033,0.0,0.818726381118,-0.57404260468,-0.0119560768732,0.0,-0.00853701462428,0.00865042889148,-0.999926142003,0.0,0.657175355214,0.254984700634,0.30347730203,1.0,-0.01354,-0.0177954285714,0.678
0.46159983191,0.521902967632,-0.124095280825,-1.39633386894,0.077201419176,1.90899646515,0.153999776194,-0.01580242215,-0.0708057358084,-0.000875750332194,-0.116275919195,-0.00470166349869,0.0407348760936,-0.0140730258775,0.57410391202,0.818767676607,0.0022219019899,0.0,0.818726640508,-0.574042761653,-0.0119307509537,0.0,-0.00849321000478,0.00866878804864,-0.999926356037,0.0,0.656963291544,0.254709066684,0.30348887202,1.0,-0.01386,-0.018216,0.694
0.461451411222,0.520738935418,-0.124098240001,-1.39823696352,0.0770792903584,1.90971923502,0.153739401326,-0.00706646712023,-0.0717071923977,0.000734584756718,-0.116845191182,-0.00645480142112,0.0459203937965,-0.0249245210044,0.574083218995,0.818782241887,0.00220112242718,0.0,0.818740992481,-0.574022213928,-0.01193448993,0.0,-0.00850841906534,0.00865370616734,-0.999926357376,0.0,0.656734465229,0.254428540092,0.30346352059,1.0,-0.01418,-0.0186365714286,0.71
0.461263700488,0.519344894548,-0.124102498478,-1.40039519086,0.0769439871122,1.91049699059,0.153449274688,-0.0134779281758,-0.0794769382294,-0.000105970963161,-0.121275474839,-0.00627924828053,0.0464449986869,-0.0124461940149,0.574080622049,0.818784038091,0.00221026162776,0.0,0.818742902811,-0.574019575228,-0.0119303500232,0.0,-0.00849981037478,0.00865878549209,-0.999926386619,0.0,0.656472741881,0.254095874056,0.303482640829,1.0,-0.01454,-0.0191097142857,0.728
0.461079376271,0.517910036962,-0.124108282458,-1.40262093629,0.0767935186945,1.91129172097,0.153150768218,-0.0128137982412,-0.0792518798799,9.47550248733e-07,-0.126617319187,-0.0135303125586,0.0467651115775,-0.0148170104261,0.574068482493,0.818792563709,0.00220497725917,0.0,0.818751444358,-0.574007544907,-0.0119229884466,0.0,-0.00849694428668,0.00865010674141,-0.999926486093,0.0,0.656198992534,0.253755852201,0.303499324689,1.0,-0.0149,-0.0195828571429,0.746
0.460924668022,0.516726146105,-0.124111471635,-1.4045029336,0.07667666798,1.91196950479,0.152886226183,-0.00736353820567,-0.0755159995654,-0.00158023132814,-0.123204589818,-0.00580612938761,0.0443095260201,-0.0214076171315,0.574048828862,0.81880639444,0.00218572810122,0.0,0.818764995516,-0.573987942547,-0.0119361144833,0.0,-0.00851894930408,0.00864167657836,-0.999926371754,0.0,0.655965992414,0.253471801374,0.303492972512,1.0,-0.0152,-0.0199771428571,0.761
0.460734354696,0.515355646911,-0.124117779574,-1.40668665311,0.0765419989651,1.91280585707,0.152584614156,-0.00910222241049,-0.0810810698041,-0.000590596612438,-0.131686954675,-0.0102501948781,0.0502029593789,-0.0216643225718,0.574041381389,0.81881157551,0.0022007192858,0.0,0.818770416505,-0.573980480524,-0.0119230841451,0.0,-0.00849975304719,0.00864639400917,-0.999926494333,0.0,0.655708043781,0.253137097835,0.303487392552,1.0,-0.01554,-0.020424,0.778
0.46053519118,0.513885913304,-0.124120278627,-1.40906222003,0.0763927705098,1.91364292908,0.152266568848,-0.00884301330476,-0.0834670276111,-0.00131150192423,-0.133074682339,-0.00591479732714,0.0503903551301,-0.0215636436302,0.574030356003,0.818819467839,0.00213924675646,0.0,0.818777444657,-0.573969643718,-0.0119620697126,0.0,-0.0085670778005,0.00861832405786,-0.999926162108,0.0,0.65540854529,0.252775197968,0.303459570196,1.0,-0.0159,-0.0208971428571,0.796
0.460374543223,0.512646365928,-0.124123225012,-1.41107363578,0.0762842996864,1.91433374177,0.151981874203,-0.0075499816735,-0.0796391806406,-0.00067715226968,-0.132025898644,-0.005606786863,0.042253117589,-0.0212771045404,0.574007038022,0.818835971044,0.00207839528445,0.0,0.81879291146,-0.573946340024,-0.012021389935,0.0,-0.00865082568932,0.00860230337664,-0.999925579027,0.0,0.655147678606,0.252475176241,0.303430717658,1.0,-0.0162,-0.0212914285714,0.811
0.460164338255,0.511126732798,-0.124127107235,-1.41351106136,0.0761301582614,1.91525576322,0.151639928857,-0.00612087709035,-0.0859745760272,-0.0007437735412,-0.135969577972,-0.00382295578297,0.0511617971583,-0.026874723,0.573988018936,0.818849309476,0.00207590698196,0.0,0.818806261293,-0.573927377474,-0.0120174354457,0.0,-0.00864921539058,0.00859779513309,-0.999925631731,0.0,0.654853291376,0.252103589121,0.303414901556,1.0,-0.01656,-0.0217645714286,0.829
0.459959901545,0.509652603488,-0.124126290644,-1.4158591036,0.0759814019987,1.91614662037,0.151318286449,-0.0128419315754,-0.0900021776476,-0.0021136354556,-0.143006137093,-0.011886643245,0.0508893678116,-0.0115524032906,0.57397389959,0.818859182125,0.0020855069818,0.0,0.818816287549,-0.573913247627,-0.0120090941964,0.0,-0.00863702325631,0.00860071930144,-0.999925711969,0.0,0.654568997694,0.251747365224,0.303406397904,1.0,-0.0169,-0.0222114285714,0.846
0.459764495525,0.508249235231,-0.124128063698,-1.41808929199,0.075840805767,1.91693956248,0.150997069205,-0.0120244795394,-0.0854646094383,0.000304940417117,-0.133622485846,-0.00778445123876,0.0514934095492,-0.0185757650298,0.573949886875,0.81887609117,0.00205464557613,0.0,0.818832742612,-0.573889317618,-0.0120306962521,0.0,-0.00867267734926,0.0085875931629,-0.999925516182,0.0,0.654288374584,0.251403417109,0.303395582524,1.0,-0.01722,-0.022632,0.862
0.459551330406,0.506716985337,-0.124130944225,-1.42048921718,0.0756941781698,1.91781860321,0.150679223873,-0.017502820989,-0.0901201089897,8.61699481996e-05,-0.136095117261,-0.0086293631251,0.0543998053908,-0.0191097721679,0.573950937994,0.818875331809,0.00206364514347,0.0,0.818832054016,-0.573890284077,-0.0120314612336,0.0,-0.00866812780053,0.00859541274039,-0.999925488444,0.0,0.653991860843,0.251033664136,0.303401117926,1.0,-0.01756,-0.0230788571429,0.879
0.459336061653,0.505115413895,-0.124139804574,-1.42294188631,0.0755354917812,1.9187542119,0.150343012059,-0.00854985427491,-0.0938856081679,-0.00035497556838,-0.145659840153,-0.00847619560088,0.0591613889012,-0.0150578270254,0.573942067785,0.81888138403,0.00212805489827,0.0,0.818839069679,-0.573881267049,-0.0119839975881,0.0,-0.00859238711987,0.00862082082668,-0.999925923422,0.0,0.65369735829,0.250655635585,0.303434476339,1.0,-0.0179,-0.0235257142857,0.896
0.459125419353,0.503538910689,-0.124138351662,-1.42527736379,0.0753898701804,1.91964534874,0.150019516997,-0.011379827872,-0.0939337960854,0.000893123433317,-0.142250609073,-0.00649214874752,0.0578863746203,-0.0207619455843,0.5739294717,0.818889913345,0.00224014209205,0.0,0.818849092773,-0.573868247193,-0.0119224590605,0.0,-0.00847779827496,0.00867715601185,-0.999926414243,0.0,0.653416256216,0.25029939771,0.303501261115,1.0,-0.01822,-0.0239462857143,0.912
0.458888999438,0.501848214702,-0.124146551374,-1.42778281843,0.0752324424083,1.92057200775,0.149667280073,-0.0119297994519,-0.0981308699917,-3.33616365222e-06,-0.152085307945,-0.00714081626427,0.051947536178,-0.0265454344936,0.573926254069,0.818891907797,0.00233348149975,0.0,0.818852348142,-0.57386470645,-0.0118691842814,0.0,-0.00838063763757,0.0087229812233,-0.999926834579,0.0,0.653112623909,0.249902649241,0.3035696426,1.0,-0.01856,-0.0243931428571,0.929
0.45863903792,0.500041246152,-0.124144710422,-1.43051837951,0.0750464588105,1.92153337946,0.149286005066,-0.0139690547211,-0.0972338806494,0.000151340599463,-0.154347927215,-0.0164404192938,0.0500704426436,-0.0186979222448,0.573906195393,0.818905903078,0.00235535444113,0.0,0.818866662027,-0.573844600464,-0.0118537437343,0.0,-0.00835565416161,0.00873182631152,-0.999926966459,0.0,0.652765004578,0.24947515892,0.303611664162,1.0,-0.01892,-0.0248662857143,0.947
0.458418597484,0.498548772081,-0.124149827513,-1.43282695297,0.0749058420718,1.92240413934,0.148950645595,-0.0141898118375,-0.0898561216477,-0.00108696222309,-0.150224743663,-0.00752572820029,0.0602676259032,-0.0227321120875,0.573895403486,0.818913333886,0.00240090475821,0.0,0.818874682697,-0.573833631354,-0.011830657875,0.0,-0.00831072359371,0.00875576887242,-0.999927131537,0.0,0.652484674389,0.249110494232,0.30362938131,1.0,-0.01922,-0.0252605714286,0.962
0.458143823084,0.49678340407,-0.124150411505,-1.43565589486,0.0747348899233,1.92342100519,0.14853693821,-0.0200930852914,-0.0932257660723,-0.000520757950667,-0.154919941601,-0.0103668057297,0.0528419943162,-0.0179463562226,0.573879303344,0.818924727311,0.00236285693616,0.0,0.81888544471,-0.573817537135,-0.0118663145399,0.0,-0.00836193064418,0.008744909841,-0.999926799655,0.0,0.65212796684,0.248660140985,0.30360172075,1.0,-0.01958,-0.0257337142857,0.98
0.457877075556,0.495113639526,-0.124147933149,-1.43837946456,0.0745657487497,1.92436017088,0.1481442824,-0.0131274415009,-0.096047916897,0.000136243715233,-0.159434886077,-0.0100146423232,0.0656110794757,-0.02256799682,0.573865968134,0.818934345073,0.00226626967866,0.0,0.818893625526,-0.573804400928,-0.0119367687798,0.0,-0.00847519758149,0.00870610678533,-0.999926184641,0.0,0.651774558744,0.248223317799,0.303550135599,1.0,-0.01992,-0.0261805714286,0.997
0.457605778979,0.493409131743,-0.12417994385,-1.44109407884,0.0743938716775,1.92533247157,0.147759644299,-0.0141894330201,-0.119973815539,-0.00438254785732,-0.18314086078,-0.0177890482992,0.0677535714316,-0.027215451081,0.573886142255,0.818920321607,0.00222474439841,0.0,0.818879133994,-0.573824815521,-0.0119495565599,0.0,-0.0085092849872,0.00867964879229,-0.999926125154,0.0,0.65143858722,0.247766722402,0.30353022723,1.0,-0.0261514285714,-0.0343704489796,1.013
0.457276955826,0.490719614557,-0.124252488006,-1.44523938292,0.0741676416923,1.92689573712,0.147152011005,-0.02012962481,-0.163140687016,-0.00112462786096,-0.260043976974,-0.0213111405574,0.103848966643,-0.0381831322604,0.573857338544,0.818940254143,0.0023156089057,0.0,0.8189002857,-0.573795687084,-0.0118986749788,0.0,-0.00841577953785,0.00872456272483,-0.999926525631,0.0,0.650923322114,0.247123516468,0.303566243659,1.0,-0.0354085714286,-0.0465369795918,1.031
0.456793298737,0.487500525433,-0.124272017685,-1.45041927789,0.0738847771472,1.92880241613,0.146392113983,-0.0329994413132,-0.212275498181,-0.00305452733246,-0.328427296563,-0.019223992013,0.128223251361,-0.0404711816388,0.573827461109,0.818961278471,0.00228388783888,0.0,0.818920502169,-0.573765533055,-0.0119612335042,0.0,-0.00848553433223,0.0087341749893,-0.999925852198,0.0,0.650264232703,0.24630955436,0.303504547897,1.0,-0.0441514285714,-0.0580275918367,1.048
0.456259163717,0.483986673467,-0.124353967705,-1.45588416288,0.0735507091454,1.93084860392,0.145557742824,-0.0424875073476,-0.24328529214,-0.00773895556112,-0.381918341291,-0.0263802503294,0.1392087373,-0.0633636333116,0.573820744472,0.818965801708,0.00234856265354,0.0,0.818926116827,-0.573758816067,-0.0118988682441,0.0,-0.00839741931976,0.00875128521757,-0.999926446473,0.0,0.649595302241,0.245397988588,0.303523051774,1.0,-0.0518657142857,-0.0681663673469,1.063
0.455626502982,0.479909633763,-0.124460906214,-1.46233468599,0.0731617169554,1.93307657043,0.144578566771,-0.0426364970068,-0.289008468531,-0.0101261803245,-0.449962171938,-0.0267420318,0.149947322446,-0.0624655359202,0.573824580925,0.818963487643,0.00221430228025,0.0,0.818922007535,-0.573763145368,-0.0119726978593,0.0,-0.00853488167719,0.00868373638914,-0.999925871511,0.0,0.648762047329,0.244303024912,0.303476542522,1.0,-0.05958,-0.0783051428571,1.078
0.454602969019,0.473552603623,-0.124595152597,-1.47223305685,0.072559809988,1.93662612329,0.143144285426,-0.0511188245256,-0.334472285335,-0.00484841016085,-0.52170292335,-0.0327163434765,0.181983492338,-0.0713800458422,0.573901733569,0.818909445502,0.00220616740611,0.0,0.818867912437,-0.573840375618,-0.0119713070718,0.0,-0.00853759287827,0.00867708064064,-0.999925906145,0.0,0.647504405972,0.242616939154,0.303477480652,1.0,-0.0698657142857,-0.0918235102041,1.098
0.453647823715,0.467731732922,-0.124669559772,-1.48105605307,0.072038897133,1.93991317414,0.141771302094,-0.0619502662542,-0.381240344938,-0.00268558443003,-0.574458773323,-0.0386708646009,0.219727268255,-0.0934623434889,0.57389476139,0.81891362678,0.00245390000257,0.0,0.818875246362,-0.573832343213,-0.0118540996697,0.0,-0.00829951635568,0.00881261334072,-0.999926725253,0.0,0.646397054532,0.2411272976,0.303585779193,1.0,-0.0780942857143,-0.102638204082,1.114
0.452476338974,0.460937311595,-0.124698339526,-1.49155697136,0.0713700273363,1.94363489461,0.140102163329,-0.0705096395556,-0.413872903335,-0.00461573828566,-0.643012007862,-0.0417453014507,0.222235403286,-0.103239102325,0.573819582636,0.818966265997,0.00246751767446,0.0,0.818927754847,-0.573756794377,-0.011883608396,0.0,-0.00831667948554,0.00883993611537,-0.999926341473,0.0,0.645016963854,0.239348155092,0.303594425364,1.0,-0.0868371428571,-0.114128816327,1.131
0.451242532505,0.453924753148,-0.124819763566,-1.5025291044,0.0706518090508,1.94731172821,0.138443323518,-0.0768004039164,-0.450907949266,-0.00641273614986,-0.697308327429,-0.0375756196381,0.237086525136,-0.113030755865,0.573870110681,0.818931602689,0.00220750677353,0.0,0.818889499407,-0.573808154472,-0.0120389585489,0.0,-0.00859256366494,0.00871667041458,-0.999925090948,0.0,0.643532455664,0.237414745796,0.303516869938,1.0,-0.0950657142857,-0.124943510204,1.147
0.449826694237,0.445645642946,-0.12492095007,-1.51476161656,0.0698068506745,1.95189226274,0.136522521484,-0.0853475779759,-0.492828479863,-0.0044765676803,-0.738331204346,-0.0460472392708,0.264822743571,-0.115816701439,0.573854163573,0.818941333409,0.00269040618885,0.0,0.818906441811,-0.573791332756,-0.0116830182962,0.0,-0.00802412931836,0.00890771115257,-0.999928130433,0.0,0.641965198691,0.235287599473,0.303771131955,1.0,-0.103808571429,-0.136434122449,1.164
0.448227873917,0.436902350828,-0.124956145223,-1.52819254267,0.0689295042991,1.95647083978,0.134380806155,-0.0967849589354,-0.52396164449,-0.0036980420356,-0.786654486385,-0.0523369046563,0.276900920867,-0.12488726591,0.573790524362,0.818986197289,0.00260570593516,0.0,0.818949558368,-0.573727295684,-0.0118049962724,0.0,-0.00817332174839,0.00890770822705,-0.999926922103,0.0,0.640105219049,0.232948863158,0.303754773375,1.0,-0.112551428571,-0.147924734694,1.181
0.446366138408,0.426905564879,-0.125029829707,-1.54320749422,0.0678832930551,1.96184891357,0.131918317464,-0.104976418631,-0.55405030461,-0.00185282110365,-0.87338866448,-0.0639912397857,0.299854170868,-0.139368072589,0.573714335196,0.819038680341,0.00287203705113,0.0,0.819005898549,-0.573650622129,-0.0116210487765,0.0,-0.00787069414817,0.00901955121312,-0.999928347368,0.0,0.638073677112,0.230283240656,0.303888311371,1.0,-0.121808571429,-0.160091265306,1.199
0.444517257371,0.417494379058,-0.125104170505,-1.55746145826,0.0668759692862,1.96670393755,0.129564153247,-0.114562671401,-0.611886813777,-0.00632062042949,-0.891498803348,-0.0711561897094,0.321316114681,-0.137278636019,0.57367660576,0.819065177116,0.0028521116525,0.0,0.819032123482,-0.573612949122,-0.0116323774409,0.0,-0.00789181905471,0.00900936732864,-0.999928272674,0.0,0.636075407185,0.227687452094,0.303917855363,1.0,-0.130037142857,-0.170905959184,1.215
0.442398680189,0.406950255244,-0.125207530431,-1.57342387649,0.0657706677968,1.97225595523,0.126896832489,-0.128909504596,-0.623890232497,-0.00753311023808,-0.963087546216,-0.061297177223,0.319030494934,-0.160535702814,0.573652918214,0.819081460899,0.00293883253013,0.0,0.819049517052,-0.573588959507,-0.0115905586335,0.0,-0.00780808013481,0.00905618150792,-0.999928507175,0.0,0.633831454728,0.224758998835,0.303939221547,1.0,-0.13878,-0.182396571429,1.232
0.440028621147,0.395720516779,-0.125326858506,-1.59016874955,0.0646292675881,1.97795774698,0.124065895781,-0.138547546637,-0.670843688975,-0.00721725434596,-0.990255248354,-0.0639579242013,0.342000897243,-0.161933225252,0.573714154602,0.819038001363,0.00309322369435,0.0,0.819007729306,-0.573649303219,-0.0115569526379,0.0,-0.00769130585492,0.00916393786079,-0.999928430467,0.0,0.631442059521,0.221596836142,0.304034350252,1.0,-0.147522857143,-0.193887183673,1.249
0.437627482664,0.384840986516,-0.125439935864,-1.60676059545,0.0633486056822,1.98347513937,0.121174417973,-0.158332570642,-0.69154524146,-0.0113370942123,-1.0537140576,-0.0798480670696,0.334101701841,-0.190220313761,0.573672449946,0.819068091691,0.00285100829145,0.0,0.819035035404,-0.57360881087,-0.0116314132339,0.0,-0.00789170790517,0.00900787043258,-0.999928287037,0.0,0.629008173606,0.218413488015,0.303921838172,1.0,-0.155751428571,-0.204701877551,1.265
0.434862912155,0.372574083584,-0.125568385853,-1.62489381984,0.0620160912512,1.98953841426,0.117895126701,-0.163698051141,-0.725287686527,-0.00584000383861,-1.08171336485,-0.0732811194833,0.352907030574,-0.19299664545,0.573644423028,0.819087247987,0.00298379205444,0.0,0.819055922923,-0.573580361377,-0.011563350203,0.0,-0.00776009757634,0.00907731867693,-0.999928689043,0.0,0.626335372367,0.214877185467,0.30401662852,1.0,-0.164494285714,-0.216192489796,1.282
0.431815849191,0.359840676853,-0.125739384056,-1.64372221773,0.0605416131865,1.99580142344,0.114559359437,-0.180172477798,-0.761748396466,-0.00648968361453,-1.1345743175,-0.09256891929,0.37361173858,-0.203736977101,0.57378672508,0.818987357083,0.00304137477636,0.0,0.818957429509,-0.573723233164,-0.0114510820854,0.0,-0.00763353105204,0.00906140981764,-0.999929807564,0.0,0.623538257894,0.211077489922,0.304070323456,1.0,-0.173237142857,-0.227683102041,1.299
0.428510909398,0.346688067806,-0.125908070692,-1.6632611943,0.0590887149464,2.00205689912,0.110856900705,-0.198497642816,-0.786013492651,-0.0117002668728,-1.15056497399,-0.0870977608599,0.386229063154,-0.228795402861,0.573842716248,0.818948590776,0.00291368760681,0.0,0.818916441664,-0.573778955178,-0.0115896103825,0.0,-0.00781963301181,0.00903685417669,-0.999928591754,0.0,0.620538999371,0.207071177903,0.304021260449,1.0,-0.18198,-0.239173714286,1.316
0.425024130518,0.332995723705,-0.126035844699,-1.68334930915,0.0575243201388,2.00858841598,0.107062148159,-0.207874284902,-0.825093307752,-0.00116396677134,-1.20691500643,-0.0953284211159,0.374678534905,-0.228434774548,0.573891261834,0.818914316241,0.00298481942264,0.0,0.818883029934,-0.573827194622,-0.0115620456866,0.0,-0.00775570350333,0.00907974977438,-0.999928701062,0.0,0.61741766361,0.202949223213,0.30404225739,1.0,-0.190722857143,-0.250664326531,1.333
0.421353561284,0.318758789677,-0.126121535627,-1.70393341069,0.0557972036081,2.01518676665,0.103007203263,-0.221763719377,-0.844672172091,-0.00359668692028,-1.22131074625,-0.103955048734,0.382433724338,-0.231865761788,0.573769847246,0.818998922894,0.00311023969956,0.0,0.818969801887,-0.573706050134,-0.0114270966597,0.0,-0.00757456235688,0.00910389117357,-0.999929870126,0.0,0.61414317854,0.1987016199,0.304136727889,1.0,-0.199465714286,-0.262154938775,1.35
0.417653687882,0.304963632232,-0.126207937919,-1.72382198137,0.0541565737568,2.02143433184,0.0989179258669,-0.230456636613,-0.895088380943,-0.00398700689448,-1.25140079359,-0.105301828109,0.396886364206,-0.255498593331,0.57361536442,0.819106814806,0.00319163607272,0.0,0.819078711053,-0.573551306169,-0.0113890821463,0.0,-0.0074984521305,0.00914732978078,-0.99993004734,0.0,0.610908702715,0.194530337973,0.30419182252,1.0,-0.207694285714,-0.272969632653,1.366
0.413365592993,0.289869796977,-0.126361901974,-1.74553710902,0.0523549684793,2.02806407225,0.0944641087847,-0.254087583654,-0.916475302038,-0.0118768581909,-1.27177399698,-0.111370791789,0.406103847023,-0.265893706743,0.57366252727,0.819073926198,0.00315517515974,0.0,0.819045058389,-0.573598214658,-0.0114467188083,0.0,-0.00756605174778,0.0091509604478,-0.999929504907,0.0,0.607313042305,0.189815835958,0.304199421251,1.0,-0.216437142857,-0.284460244898,1.383
0.408805552336,0.274448044253,-0.126504852017,-1.76767699272,0.0504937636895,2.03467721585,0.0897340706158,-0.27680074518,-0.920275988729,-0.00436604788563,-1.30167730395,-0.105441194104,0.393380453811,-0.28886780688,0.573647619495,0.819084815018,0.00303666842403,0.0,0.819053789928,-0.573582934253,-0.0115867872595,0.0,-0.00774892950501,0.00913410357028,-0.999928258548,0.0,0.603558692578,0.184936968418,0.304152406012,1.0,-0.22518,-0.295950857143,1.4
0.404169548673,0.259447779128,-0.126715785862,-1.78895225269,0.0486192588786,2.04102059217,0.0850637898312,-0.300089318795,-0.908380797528,-0.017764162228,-1.33580304192,-0.107162844115,0.37563074386,-0.295969508542,0.57372483426,0.819030782472,0.00302304777045,0.0,0.818999719256,-0.573660345956,-0.0115764519066,0.0,-0.00774741699529,0.00911774877165,-0.999928419532,0.0,0.599926951874,0.180087272586,0.304160076222,1.0,-0.233408571429,-0.30676555102,1.416
0.398895724945,0.243091987656,-0.126905315939,-1.81192176455,0.0465275205939,2.04772052051,0.0798732607184,-0.316695959717,-0.953295007778,-0.00943663136269,-1.37386133922,-0.122669586904,0.396532396476,-0.309814648018,0.573805192002,0.818974520329,0.00301389854499,0.0,0.81894351972,-0.573740935779,-0.0115584177627,0.0,-0.0077370016327,0.00910066802215,-0.999928655779,0.0,0.595923412546,0.174751773602,0.304185575364,1.0,-0.242151428571,-0.318256163265,1.433
0.393454758695,0.226283910924,-0.127035845524,-1.83516053925,0.0444872529313,2.05447835847,0.0743796087292,-0.330110345269,-1.00439331083,-0.0107040347947,-1.40260724605,-0.137778687074,0.395950662591,-0.329502089901,0.573706316619,0.819042774515,0.00327760389724,0.0,0.819014659085,-0.573640614968,-0.011496954532,0.0,-0.00753647592366,0.00928045975302,-0.999928534745,0.0,0.591774551355,0.169400690712,0.304293599264,1.0,-0.250894285714,-0.32974677551,1.45
0.387977124529,0.210143385632,-0.12718490404,-1.85739163904,0.0423544103044,2.06066955216,0.0689642114963,-0.349097453418,-1.01150189078,-0.00397462862676,-1.38215841677,-0.122646613145,0.372710686791,-0.338485854034,0.57362225856,0.819101548009,0.00330233786076,0.0,0.819073842612,-0.573556604831,-0.0114720662626,0.0,-0.00750285399633,0.00928566989904,-0.999928739219,0.0,0.587452553437,0.163788745875,0.304350641967,1.0,-0.259637142857,-0.341237387755,1.467
0.381724341125,0.192635039895,-0.127385425517,-1.88136908269,0.0400285775237,2.06719391989,0.0629108406674,-0.373662327119,-1.03269686147,-0.0153910852939,-1.4133622382,-0.130887235481,0.378334136097,-0.355768136152,0.573599029437,0.81911815691,0.00321641876178,0.0,0.819089162049,-0.573533422877,-0.0115370861906,0.0,-0.00760565954725,0.00925237332672,-0.999928271193,0.0,0.582970341446,0.157926251874,0.304325542873,1.0,-0.26838,-0.352728,1.484
0.374532829663,0.173643045685,-0.127716248191,-1.90703801605,0.0375646381238,2.07404992912,0.0561493273827,-0.40528384055,-1.07649534495,-0.0174174040566,-1.44166460637,-0.139880800494,0.381182207273,-0.377335372195,0.573767269743,0.818999718483,0.00336573892377,0.0,0.818972527892,-0.573701027506,-0.0114837493079,0.0,-0.00747440347686,0.00934562713372,-0.999928393709,0.0,0.578411821861,0.151751758432,0.304405972609,1.0,-0.277122857143,-0.364218612245,1.501
0.367428567356,0.155347207329,-0.127925082111,-1.93152399396,0.0350238145161,2.08037295665,0.0494317072874,-0.418674809592,-1.11976342849,-0.0188670749185,-1.43578047078,-0.151273983869,0.400348422485,-0.412459518366,0.573708613112,0.819040748281,0.00338035470801,0.0,0.819014051491,-0.573642717648,-0.0114351585373,0.0,-0.00742688793437,0.00932918656578,-0.999928901279,0.0,0.573659407691,0.1455044692,0.304448235616,1.0,-0.285865714286,-0.37570922449,1.518
0.36037629163,0.137902514757,-0.128150610889,-1.95477854472,0.0325976703412,2.08617124353,0.0428867154206,-0.447915724765,-1.12856953239,-0.022433127964,-1.4476246157,-0.155621517475,0.375217878908,-0.426630305614,0.573730379941,0.819025796483,0.00330797944349,0.0,0.81899795671,-0.57366443821,-0.011498092876,0.0,-0.00751970928446,0.00930621277284,-0.999928421626,0.0,0.569037039933,0.13946077889,0.304421673262,1.0,-0.294094285714,-0.386523918367,1.534
0.352394981439,0.118963611258,-0.128442105908,-1.97966042861,0.0299756060689,2.09219430784,0.0354926667098,-0.491038769139,-1.15139833461,-0.0226155318092,-1.46791696292,-0.159087845001,0.360858178196,-0.431698009294,0.573761354836,0.819004012103,0.00332907766169,0.0,0.818976107042,-0.573694925532,-0.0115332308669,0.0,-0.00753603248327,0.00934393713098,-0.999927946931,0.0,0.564001124178,0.132814045769,0.30443756382,1.0,-0.302837142857,-0.398014530612,1.551
0.344402704774,0.100870823454,-0.128786042264,-2.00319990146,0.0273602955314,2.09769604233,0.0281957821208,-0.495323062342,-1.12617149122,-0.0189263164772,-1.44434703313,-0.158458279673,0.340773785562,-0.460989879423,0.573848603021,0.818943039143,0.00329034219327,0.0,0.818914803918,-0.573782492784,-0.0115300390525,0.0,-0.00755464992775,0.00931118600426,-0.999928111956,0.0,0.559147210179,0.126321173903,0.304438994752,1.0,-0.311065714286,-0.40882922449,1.567
0.335020740266,0.0801025720249,-0.129070214078,-2.02989423212,0.0244536992226,2.10359945177,0.0195107126319,-0.537805609832,-1.15681583254,-0.015129381091,-1.45078330169,-0.152081687871,0.307221656212,-0.490532904353,0.573743042923,0.819017046539,0.00327796835033,0.0,0.818987518996,-0.573675597873,-0.0116832801538,0.0,-0.007688463179,0.00938799662136,-0.999926373816,0.0,0.553456148994,0.118970854661,0.3044344661,1.0,-0.31998,-0.420545142857,1.585
0.325606910285,0.060403333499,-0.129419756991,-2.0550475368,0.0214927882743,2.10903911802,0.0110024167458,-0.562429821855,-1.13768739609,-0.0282614339522,-1.44614324583,-0.170213742051,0.298373890832,-0.498669385715,0.573755293035,0.819008864382,0.0031765829541,0.0,0.818978125795,-0.573688312599,-0.0117173528909,0.0,-0.00777439705124,0.00932462472364,-0.999926302346,0.0,0.548008724922,0.111788889929,0.304374021804,1.0,-0.31998,-0.420545142857,1.602
0.316305340021,0.0418913648465,-0.129708239971,-2.07830945535,0.0187377996006,2.11371282028,0.00283036431386,-0.5840654824,-1.13884505144,-0.0130914616536,-1.43235573009,-0.170680502809,0.281123067617,-0.515079565799,0.573910832591,0.818900242629,0.00308151885311,0.0,0.8188676907,-0.573843476236,-0.0118370946319,0.0,-0.00792524276083,0.00931697244335,-0.999925189478,0.0,0.542837051947,0.10495748942,0.304344509747,1.0,-0.31998,-0.420545142857,1.618
0.306244331842,0.0223726506472,-0.129944906566,-2.10228075909,0.0157748130549,2.11840451824,-0.00610258265775,-0.604263586451,-1.12328294305,-0.0162712193938,-1.40295839615,-0.192106728536,0.270646025733,-0.538249389853,0.573879435238,0.818921782659,0.00320228028544,0.0,0.818891226834,-0.573812169502,-0.0117260243963,0.0,-0.00776533891098,0.0093518235413,-0.999926118725,0.0,0.537405952876,0.0978161385468,0.304434033065,1.0,-0.31998,-0.420545142857,1.635
0.295797158083,0.00305669295688,-0.130236414412,-2.12563041394,0.0129093849909,2.12268072275,-0.0152889631797,-0.628404764923,-1.13522752781,-0.0241218718921,-1.38105324176,-0.167181551227,0.246575965183,-0.543698945913,0.573981051829,0.818849811284,0.00338904146558,0.0,0.818821482808,-0.573912911553,-0.0116660253215,0.0,-0.00760785445288,0.00947127979435,-0.999926204982,0.0,0.531997181732,0.0906214383269,0.304546280686,1.0,-0.31998,-0.420545142857,1.652
0.285817283401,-0.0148996845846,-0.130377617432,-2.14708772527,0.0102609342774,2.12646082955,-0.0241764806178,-0.628750433844,-1.10607930969,-0.00857146531117,-1.34231996273,-0.15706381075,0.224257811143,-0.552613606907,0.573858818914,0.818934449926,0.00362899162749,0.0,0.818908975495,-0.573789610092,-0.0115896550825,0.0,-0.00740903276567,0.00962282486219,-0.999926251018,0.0,0.52690555291,0.0840057323791,0.304644079923,1.0,-0.31998,-0.420545142857,1.668
0.274160668568,-0.0348606486666,-0.130663737544,-2.17070442772,0.00708366297504,2.13025447482,-0.0343490919016,-0.654534738657,-1.08919441308,-0.0142873343792,-1.3032723805,-0.173438342195,0.186356509211,-0.560586072244,0.573889184518,0.818913052832,0.00365550220675,0.0,0.818888468559,-0.573820605053,-0.0115037463039,0.0,-0.00732310650916,0.0095955089324,-0.999927146506,0.0,0.521168004789,0.0764172066118,0.304707169879,1.0,-0.31998,-0.420545142857,1.686
0.263432409247,-0.052517388853,-0.130921009277,-2.1912529849,0.00440838669166,2.13337554699,-0.0437500301452,-0.665193853017,-1.10911493001,-0.0143934959909,-1.26601262877,-0.173976633681,0.200991036191,-0.59071060056,0.573920067517,0.818890442504,0.00386602877037,0.0,0.818868414832,-0.573850658963,-0.0114318546134,0.0,-0.00714305085147,0.00972692689597,-0.999927179207,0.0,0.515752614514,0.0692497385586,0.304796167867,1.0,-0.31998,-0.420545142857,1.703
0.252568955357,-0.069728344864,-0.13111070732,-2.21141737916,0.00167976111442,2.13611447176,-0.0533607237021,-0.694491743528,-1.08331938276,-0.0111389315013,-1.23269080071,-0.17249919914,0.163945562924,-0.617507019512,0.573809896247,0.818968432326,0.00369550048215,0.0,0.818943306937,-0.573739818896,-0.0116287203997,0.0,-0.00740344167751,0.00969926697261,-0.999925553865,0.0,0.510908774221,0.0630049814885,0.304698812309,1.0,-0.31998,-0.420545142857,1.718
0.239829849691,-0.0890073004777,-0.131469525682,-2.23357252935,-0.00140797766474,2.13892329183,-0.0644815911329,-0.706211298739,-1.07180459439,-0.0101232108667,-1.24224664421,-0.167013741442,0.135854932179,-0.630818080232,0.573894043649,0.818909703095,0.00364304027306,0.0,0.818883418037,-0.573823498367,-0.0117169657692,0.0,-0.00750481933607,0.00970770903892,-0.999924716202,0.0,0.505137297628,0.0553632269625,0.304653843624,1.0,-0.31998,-0.420545142857,1.736
0.226926159369,-0.108139518478,-0.131657855519,-2.25508453353,-0.00446838942199,2.14133296451,-0.0758620655028,-0.732510317284,-1.04608240185,-0.0127087454205,-1.19934081611,-0.181593031005,0.130192767763,-0.619149257845,0.573724214381,0.81902858673,0.00366699506811,0.0,0.819002420516,-0.573653366072,-0.0117302039786,0.0,-0.00750393279645,0.00973336729646,-0.999924473425,0.0,0.499366419425,0.0479229943318,0.304676730336,1.0,-0.31998,-0.420545142857,1.754
0.217192902916,-0.121791406347,-0.131963677508,-2.27028525936,-0.00670782185711,2.14288056495,-0.0843102426813,-0.759814087131,-1.05165753839,-0.0294955325786,-1.16566705512,-0.165133991695,0.123051222896,-0.650302549697,0.573849755461,0.818940667841,0.00365890883025,0.0,0.8189143381,-0.573778839861,-0.0117429418127,0.0,-0.00751751288212,0.00973520462334,-0.999924353534,0.0,0.495216373535,0.0423756741461,0.304673573187,1.0,-0.31998,-0.420545142857,1.767
0.202753514075,-0.141571864944,-0.132236456878,-2.29205811399,-0.00988612795852,2.14473901987,-0.0970509609247,-0.76485619756,-1.05934688703,-0.0221606529347,-1.11298161762,-0.168457168702,0.106748147672,-0.681394744693,0.573745196544,0.819014141253,0.00361009295006,0.0,0.818986222232,-0.573673236358,-0.0118883380604,0.0,-0.00766585087265,0.0097776814948,-0.999922812859,0.0,0.489092722634,0.0344406273243,0.304645975088,1.0,-0.31998,-0.420545142857,1.786
0.189338030409,-0.159070282524,-0.132646894491,-2.31104977608,-0.0127771042177,2.14617297169,-0.108773291864,-0.802042935036,-1.02567019774,-0.0156779004073,-1.10677375468,-0.176824555563,0.0697923107,-0.678256263319,0.573868974829,0.818927510908,0.00358866383162,0.0,0.818898915726,-0.573796568318,-0.0119503518703,0.0,-0.00772745769772,0.00979687771755,-0.999922150762,0.0,0.48363097121,0.0271992583197,0.304619509873,1.0,-0.31998,-0.420545142857,1.803
0.175741114384,-0.176368146089,-0.132912886356,-2.32938188425,-0.0155157959897,2.14729704081,-0.120820795016,-0.802755680812,-1.01060031784,-0.0154729017414,-1.08461875732,-0.16868983007,0.0611220143989,-0.707339928961,0.573796019553,0.818977970081,0.00373622367475,0.0,0.818950883241,-0.573722559695,-0.0119424552513,0.0,-0.00763719898897,0.00991250781179,-0.999921704625,0.0,0.478215377405,0.0201346066163,0.304673083169,1.0,-0.31998,-0.420545142857,1.82
0.162427926416,-0.19245339579,-0.133318248409,-2.34616600829,-0.0182150352489,2.14811104488,-0.132472217277,-0.828373189519,-0.99906608164,-0.0244747201226,-1.02817921736,-0.167584586012,0.0619113039176,-0.738076380224,0.573937087759,0.818878712646,0.00382363326038,0.0,0.818853218977,-0.573863895946,-0.0118482742054,0.0,-0.00750819900498,0.0099313496051,-0.999922494618,0.0,0.473136939193,0.0133099425873,0.304733617071,1.0,-0.31998,-0.420545142857,1.836
0.148134922285,-0.209333450626,-0.133563252027,-2.36373086136,-0.0209193931004,2.14865460294,-0.145253967374,-0.843899185464,-0.990871001159,-0.00881863003325,-1.02910754984,-0.15508713962,0.014253833294,-0.755202912998,0.573772739259,0.818993843245,0.00383083702655,0.0,0.818967273872,-0.573698005012,-0.0119979279057,0.0,-0.00762863240158,0.0100216070631,-0.999920682534,0.0,0.467650891598,0.00626413283608,0.304705226629,1.0,-0.31998,-0.420545142857,1.853
0.134223662523,-0.225009884523,-0.133949274338,-2.37963302154,-0.0235773701534,2.14900959677,-0.157483160272,-0.866045509594,-0.947988503191,-0.0200331391347,-0.987872919291,-0.164759740422,0.00109598822807,-0.771404425861,0.573886433381,0.818913817027,0.00390752675092,0.0,0.818888727097,-0.57381204272,-0.0119054258734,0.0,-0.00750747638055,0.010032385154,-0.999921491441,0.0,0.462250612121,-0.000922998601054,0.304751669038,1.0,-0.31998,-0.420545142857,1.87
0.11832148503,-0.242378901786,-0.134247800379,-2.397065861,-0.0264139970119,2.14910404319,-0.171732833086,-0.897206450706,-0.960156487307,-0.0256552098001,-0.943766433453,-0.145673211887,0.00765612810487,-0.800801693583,0.573751975798,0.81900744105,0.00402848294965,0.0,0.818983939155,-0.573677204514,-0.0118540848717,0.0,-0.00739767730798,0.0101007619223,-0.999921621418,0.0,0.456832766213,-0.00798232208131,0.304803442286,1.0,-0.31998,-0.420545142857,1.887
0.102797402864,-0.258527357305,-0.134626540211,-2.41317470474,-0.0291019628047,2.14905296571,-0.185629646409,-0.913648147066,-0.957872780207,-0.0137475351829,-0.949980428449,-0.161166381592,0.000184138068696,-0.823820938517,0.573730399839,0.819022223516,0.0040954349965,0.0,0.818999390096,-0.573655124568,-0.0118551246145,0.0,-0.00736038495899,0.010155999684,-0.999921337108,0.0,0.451381378357,-0.0151354834987,0.304781412206,1.0,-0.31998,-0.420545142857,1.904
0.0878328911573,-0.273564870982,-0.135043337155,-2.42769872621,-0.0316248957096,2.14886454406,-0.198978068067,-0.949872117702,-0.942819950544,-0.0312515331332,-0.915194967588,-0.155290913277,-0.0218107287756,-0.845545672445,0.573818780302,0.818959014639,0.00434587338737,0.0,0.818940774516,-0.57374459648,-0.0115712033004,0.0,-0.00698305432549,0.0101989830443,-0.999923605931,0.0,0.446333056848,-0.0219007202204,0.304887491124,1.0,-0.31998,-0.420545142857,1.92
0.0706823726984,-0.290065292196,-0.13541386823,-2.44370886307,-0.0343064673034,2.14819704905,-0.214465658308,-0.965314646647,-0.917222611033,-0.0202845701713,-0.864254723215,-0.14829750334,-0.0377932197132,-0.866753803956,0.573763686163,0.818997427383,0.00438101376512,0.0,0.818978477065,-0.573687702896,-0.0117226512445,0.0,-0.00708762394685,0.0103141861511,-0.999921688509,0.0,0.440539967851,-0.0294041040437,0.304848898108,1.0,-0.31998,-0.420545142857,1.938
0.0539699826993,-0.305312533898,-0.135882090769,-2.45808413449,-0.0369471188549,2.14749408105,-0.22952886738,-0.989011782328,-0.894988795081,-0.0247666195868,-0.849071001385,-0.148778681717,-0.0448001039087,-0.893294633136,0.57381484359,0.818960870204,0.00451278755756,0.0,0.818944684599,-0.573740014879,-0.0115215361489,0.0,-0.00684665228943,0.0103071502908,-0.999923440072,0.0,0.435172543371,-0.0366178070102,0.30491489275,1.0,-0.31998,-0.420545142857,1.955
0.0379887207702,-0.3193957694,-0.136250435524,-2.47137121372,-0.0392957877621,2.14651544514,-0.243985838929,-1.015805601,-0.867334504299,-0.0349266652027,-0.78486379383,-0.143738912514,-0.0573643492516,-0.915890221741,0.57383003422,0.818950223342,0.00451335980962,0.0,0.818933175519,-0.573753897379,-0.0116475824781,0.0,-0.00694936628759,0.0103800725817,-0.999921977157,0.0,0.430023263172,-0.0433068437721,0.304878217916,1.0,-0.31998,-0.420545142857,1.971
0.0206635623808,-0.334055149216,-0.136649914556,-2.48482557654,-0.0417357415469,2.14547193986,-0.259861879781,-1.02025848726,-0.868610768141,-0.0226475208611,-0.813066654122,-0.145629832947,-0.0733718427341,-0.943951030126,0.573737314841,0.819014097035,0.00470630614222,0.0,0.819000250648,-0.573661696694,-0.0114714465504,0.0,-0.00669557778208,0.0104362637817,-0.999923123863,0.0,0.424652426082,-0.0504123897594,0.304940185178,1.0,-0.31998,-0.420545142857,1.988
0.0028013368983,-0.348279431907,-0.137097720145,-2.49793239717,-0.0442685743491,2.14407920797,-0.276082675059,-1.05977851851,-0.807106565722,-0.0210930442679,-0.766765485455,-0.153652254427,-0.0876063549026,-0.972499029059,0.573788225022,0.818979113251,0.0045860426298,0.0,0.818963068855,-0.573711964697,-0.0116112151218,0.0,-0.00687840756755,0.0104183786472,-0.999922069411,0.0,0.419173517411,-0.0576034087679,0.304877050093,1.0,-0.31998,-0.420545142857,2.005
-0.0142013398041,-0.36146512034,-0.137522461943,-2.50961376766,-0.0464290750551,2.14276099952,-0.291766965135,-1.08269874835,-0.787237092349,-0.0404889238311,-0.729358717198,-0.140513371304,-0.0922680051441,-0.984801394733,0.573757997186,0.818998904482,0.00482721690782,0.0,0.818986637085,-0.573682065725,-0.0114246506897,0.0,-0.00658761546355,0.0105086131634,-0.999923083228,0.0,0.414124591381,-0.0642953046808,0.30497030769,1.0,-0.31998,-0.420545142857,2.021
-0.0327147083537,-0.374976922114,-0.137945873638,-2.52179725555,-0.0487957798938,2.14106451183,-0.308872768714,-1.09054467261,-0.796193940189,-0.0213244278372,-0.710195031286,-0.136197810441,-0.106095786065,-1.01275937939,0.573669400706,0.819061628622,0.00471318504935,0.0,0.819046589955,-0.573591787423,-0.0116572631542,0.0,-0.00684470448918,0.0105479363905,-0.999920942404,0.0,0.408624037793,-0.0714162313324,0.304882340442,1.0,-0.31998,-0.420545142857,2.038
-0.0516845541327,-0.388233451471,-0.138424494793,-2.53316667862,-0.0510859709918,2.13941668503,-0.326287206646,-1.11380945636,-0.776657884884,-0.0224226812715,-0.673211946694,-0.13576000387,-0.0962641953246,-1.04592681071,0.573791997754,0.818974573666,0.00491303404166,0.0,0.818963595737,-0.573716121071,-0.0113660978942,0.0,-0.00648998329637,0.0105455750771,-0.999923332543,0.0,0.403254891164,-0.0786118387432,0.305003913342,1.0,-0.31998,-0.420545142857,2.055
-0.069863692011,-0.400167290961,-0.13885737164,-2.54358928672,-0.0530684071068,2.13768357472,-0.343171483692,-1.15722292491,-0.732998352494,-0.0370204095206,-0.64440737385,-0.118760853103,-0.109062877402,-1.04789068855,0.573830697116,0.818947071997,0.00497706901722,0.0,0.818935781781,-0.573752783724,-0.0115184803275,0.0,-0.00657754517276,0.0106857632367,-0.999921272083,0.0,0.398114365951,-0.0853328692388,0.304959472107,1.0,-0.31998,-0.420545142857,2.071
-0.0905513462219,-0.413238748692,-0.139209644904,-2.55462741234,-0.0553521132952,2.13563087889,-0.362575471542,-1.16396688493,-0.723128598941,-0.0223539754716,-0.589325411763,-0.133385352441,-0.0937843309099,-1.08160014908,0.573620525148,0.819094047079,0.00501817404536,0.0,0.819083900438,-0.573543532342,-0.0114073420467,0.0,-0.00646566917972,0.010653996228,-0.999922340728,0.0,0.392397877786,-0.092810044655,0.305019662521,1.0,-0.31998,-0.420545142857,2.089
-0.11060710084,-0.424997480482,-0.139671762251,-2.56456203075,-0.0574405681014,2.13363976145,-0.381350141141,-1.18186697219,-0.685606277744,-0.0236344618569,-0.585767304604,-0.116013284666,-0.12434376543,-1.11595910499,0.573615322602,0.819097604992,0.00503210427554,0.0,0.81908730675,-0.573537745853,-0.0114535978898,0.0,-0.00649563791818,0.010691897839,-0.999921741942,0.0,0.386956528301,-0.0999671630928,0.305009900861,1.0,-0.31998,-0.420545142857,2.106
-0.129741130225,-0.43562017973,-0.140033499971,-2.57355505388,-0.0593216268349,2.13162825987,-0.399336342287,-1.18006631433,-0.655611348584,-0.0137449790698,-0.551385865791,-0.119624232014,-0.126547162974,-1.13501724481,0.573551704328,0.819142617583,0.00495594822744,0.0,0.81912989359,-0.573472033941,-0.0116957520763,0.0,-0.00673852099771,0.0107678911962,-0.999919319172,0.0,0.381785761981,-0.106628679433,0.304938579454,1.0,-0.31998,-0.420545142857,2.122
-0.152950134829,-0.447721252898,-0.140548637106,-2.58326034197,-0.0613925361162,2.12945525879,-0.421240250092,-1.22950823594,-0.620993689175,-0.0236560146763,-0.499291556754,-0.121763292061,-0.10929330502,-1.16611261114,0.573597110839,0.819109244302,0.00521030107036,0.0,0.819101262321,-0.573519064936,-0.0113908349238,0.0,-0.00634225329651,0.0108017221528,-0.999921546233,0.0,0.375799273051,-0.114643365642,0.305066570121,1.0,-0.31998,-0.420545142857,2.141
-0.172834682019,-0.457346070136,-0.140948142141,-2.59116966477,-0.0631028973641,2.12741335557,-0.440051131498,-1.2443931682,-0.600096849374,-0.0328563933743,-0.484540879475,-0.102134731697,-0.130326006531,-1.17421836972,0.573608763666,0.819101145402,0.00520064878061,0.0,0.819091779952,-0.573528617954,-0.0115899656173,0.0,-0.00651075855694,0.0109081245305,-0.999919308166,0.0,0.370627738652,-0.121347960225,0.305022919053,1.0,-0.31998,-0.420545142857,2.157
-0.191629534367,-0.465833886825,-0.14131531859,-2.59811068853,-0.0647141620931,2.12562015316,-0.458040212776,-1.25450363744,-0.55488998272,-0.0239865721231,-0.456381209516,-0.100567917284,-0.107052689767,-1.21652832265,0.573464219267,0.819202659815,0.00515153107741,0.0,0.819192054584,-0.573383252325,-0.0116948946763,0.0,-0.00662681476818,0.0109269073493,-0.999918340677,0.0,0.365822001507,-0.127608685946,0.304976130612,1.0,-0.317751428571,-0.417616163265,2.172
-0.21448691839,-0.475309528065,-0.141671854103,-2.60553735939,-0.066302671864,2.12363197293,-0.479643709111,-1.26640565545,-0.516632759339,-0.0212849854938,-0.39326214427,-0.0855792139675,-0.10182800591,-1.19973169818,0.573654039587,0.819068430973,0.00535678546159,0.0,0.819061160877,-0.573573534464,-0.0115309239459,0.0,-0.00637222809862,0.0110025078529,-0.999919166498,0.0,0.360207938851,-0.135112163476,0.30504645898,1.0,-0.308494285714,-0.405449632653,2.19
-0.235884464208,-0.48341792802,-0.141820829183,-2.61191950622,-0.0676940213498,2.12177681474,-0.499986708966,-1.22926943027,-0.468076873542,-0.00172218371072,-0.365443207725,-0.0784828944415,-0.101586273775,-1.17835823727,0.573667020058,0.819059026487,0.00540445460661,0.0,0.819052382599,-0.573586384968,-0.0115152264168,0.0,-0.00633185046594,0.0110326494587,-0.999919090885,0.0,0.355007308057,-0.141976006612,0.305063189456,1.0,-0.299751428571,-0.393959020408,2.207
-0.254608060204,-0.489874278682,-0.1419274389,-2.61713012062,-0.0687003193145,2.12015699787,-0.517728182224,-1.2389888399,-0.408396607489,-0.00507293872446,-0.329387380908,-0.0732950617123,-0.100959476891,-1.18200141556,0.573819685567,0.818951650861,0.00546890389803,0.0,0.818944049639,-0.573735703596,-0.011778492316,0.0,-0.00650843560858,0.0112376734226,-0.999915673926,0.0,0.35046688941,-0.147870965595,0.304991863923,1.0,-0.292037142857,-0.383820244898,2.222
-0.276690992057,-0.496892872783,-0.141840297764,-2.62259963624,-0.0697804093488,2.11853321604,-0.538766921085,-1.22602049286,-0.372907973527,-0.00329223995825,-0.2878024454,-0.055870224665,-0.083707046817,-1.16834967357,0.573833015897,0.818941671779,0.00556372112032,0.0,0.818935627756,-0.573749274843,-0.0117027394566,0.0,-0.00639180311877,0.0112719647452,-0.999916040307,0.0,0.345273126376,-0.154721391126,0.305005440785,1.0,-0.28278,-0.371653714286,2.24
-0.297077777654,-0.502712767657,-0.141671102234,-2.62711034691,-0.070660012847,2.11701738015,-0.558255607225,-1.18394189957,-0.32489234564,0.0192262693202,-0.25092561753,-0.0511653894778,-0.083539922276,-1.12754277117,0.573807279429,0.818959480492,0.00559663182377,0.0,0.818953457532,-0.573722713338,-0.0117571041185,0.0,-0.00641780064801,0.0113299110467,-0.999915218881,0.0,0.340524255077,-0.160951930944,0.30500462594,1.0,-0.274037142857,-0.360163102041,2.257
-0.317201077648,-0.507847790845,-0.141517597716,-2.63099609981,-0.0713752572964,2.11575022861,-0.577457750104,-1.17406554369,-0.285967097004,0.0180018474704,-0.220107174971,-0.0354246203338,-0.0730645266145,-1.12762287597,0.573917252759,0.818881508781,0.00572786726874,0.0,0.818877703894,-0.573833139962,-0.011643901755,0.0,-0.00624825607542,0.0113732778747,-0.999915800378,0.0,0.335933760233,-0.167074713805,0.305044435033,1.0,-0.265294285714,-0.348672489796,2.274
-0.336828455152,-0.51241803636,-0.141268107706,-2.63446897874,-0.0719900508742,2.11451491737,-0.596245448028,-1.13401214056,-0.256507988977,0.0295587839923,-0.197665918572,-0.042353822993,-0.0809913712772,-1.09271298238,0.573958752974,0.818851902261,0.00580163329134,0.0,0.818848966794,-0.573874224726,-0.0116400462296,0.0,-0.00620218560163,0.0114317879422,-0.999915419982,0.0,0.331454454322,-0.172948371556,0.305060404477,1.0,-0.256551428572,-0.337181877551,2.291
-0.357024804145,-0.51647547396,-0.140984842011,-2.63771600255,-0.0724545388656,2.11331734603,-0.615696603721,-1.1267158201,-0.209925865074,0.00373726744322,-0.167354073567,-0.0327516177871,-0.0590108553316,-1.06641028013,0.573977554974,0.81883803589,0.00589781877827,0.0,0.818834667418,-0.573889581012,-0.0118862585495,0.0,-0.00634834608254,0.0116520084351,-0.999911960725,0.0,0.326846462134,-0.178911160749,0.304987984354,1.0,-0.247294285714,-0.325015346939,2.309
-0.373369474558,-0.519329937449,-0.140625769044,-2.64001943538,-0.0728103263636,2.11252207648,-0.631441950619,-1.0745847119,-0.182382809212,0.0277733193881,-0.144175889283,-0.0192426567638,-0.0496346086389,-1.02727702797,0.573925419738,0.818874570192,0.00589896366436,0.0,0.818870503738,-0.573836149031,-0.0119966276663,0.0,-0.00643881869882,0.0117158824833,-0.999910635863,0.0,0.323176456746,-0.18369015098,0.304933649594,1.0,-0.23958,-0.314876571429,2.324
-0.392546308976,-0.522261347766,-0.140242076074,-2.64223915661,-0.0731990767805,2.11166840347,-0.649912374926,-1.04520263135,-0.145940807056,0.029206337068,-0.116173226159,-0.0166054722949,-0.0413628381463,-1.01213093246,0.573933692489,0.818868672963,0.0059126953653,0.0,0.818864834642,-0.57384445427,-0.0119863168639,0.0,-0.00642237558951,0.0117212750805,-0.999910678412,0.0,0.318919514878,-0.189311124054,0.304938792917,1.0,-0.230322857143,-0.302710040816,2.342
-0.410071030313,-0.524576509705,-0.139897662023,-2.64394827737,-0.0733981164546,2.1109852906,-0.666822069271,-1.02367694346,-0.135015152119,0.0199967523087,-0.0949616879217,-0.00868552276556,-0.0475512729898,-0.984661084779,0.574006427441,0.818816877861,0.00602400922848,0.0,0.81881465827,-0.573917037749,-0.0119388477159,0.0,-0.00631857013228,0.0117857492952,-0.999910581895,0.0,0.315051698627,-0.194418207131,0.304961481582,1.0,-0.22158,-0.291219428572,2.359
-0.425004565323,-0.526229815919,-0.139480677909,-2.64517854135,-0.0735302378191,2.11048232605,-0.681334564358,-0.980959049375,-0.110134651536,0.0328323243574,-0.0759026869438,-0.00215331444171,-0.0281072417799,-0.96245020932,0.573926549014,0.818872652421,0.00605329290489,0.0,0.818871017423,-0.5738374398,-0.011899428985,0.0,-0.00627063160146,0.0117864912589,-0.99991087493,0.0,0.3117836543,-0.198724480757,0.304975511627,1.0,-0.213865714286,-0.281080653061,2.374
-0.441540330131,-0.527715599821,-0.139101579764,-2.64630859153,-0.0736794003656,2.11000444469,-0.697232949369,-0.965241590172,-0.0821137244416,0.0267826296714,-0.0583618420454,-0.00163709800189,-0.026459004635,-0.920181546925,0.574049861525,0.818786007391,0.00608091151065,0.0,0.818784737782,-0.573960628426,-0.0118952551048,0.0,-0.006249584966,0.0118076544164,-0.99991075701,0.0,0.30815158372,-0.20350434117,0.304974184735,1.0,-0.205122857143,-0.269590040816,2.391
-0.458189585841,-0.528868851169,-0.138576237014,-2.64718821045,-0.0737035101132,2.10962392149,-0.713426197672,-0.923624885644,-0.0549168025932,0.0221952602575,-0.0411087594346,-0.00218081838566,-0.0161264680586,-0.893335210441,0.573989930061,0.818827803857,0.00611021442319,0.0,0.818827031183,-0.573900812647,-0.0118700104338,0.0,-0.00621295717104,0.0118167027029,-0.999910878379,0.0,0.304533721062,-0.208262420599,0.304976915274,1.0,-0.195865714286,-0.257423510204,2.409
-0.471652260602,-0.529546293138,-0.138151336728,-2.64769708998,-0.0736993510854,2.10935485001,-0.726389030694,-0.874723758716,-0.0422265138851,0.0359241001339,-0.0254827125472,0.000661690510503,-0.0130836689414,-0.857547951378,0.574071013077,0.818770863773,0.00612302880698,0.0,0.818770279892,-0.5739818703,-0.0118654217703,0.0,-0.00620067348755,0.0118251763776,-0.999910854453,0.0,0.301610859658,-0.212105654758,0.304981052526,1.0,-0.188151428572,-0.247284734694,2.424
-0.488784562903,-0.530065319459,-0.137615233981,-2.64808883078,-0.0736942003331,2.10911235622,-0.742985135711,-0.84384632434,-0.0224064740806,0.02425384315,-0.0112663113916,0.00251396936288,-0.0101308375704,-0.82180026432,0.574111035342,0.818742924571,0.00610651003093,0.0,0.818742263426,-0.574022211328,-0.0118471044016,0.0,-0.00619457977884,0.0118014384324,-0.999911172671,0.0,0.297896982272,-0.217002201329,0.304985673844,1.0,-0.177865714286,-0.233766367347,2.444
-0.500942907554,-0.530207190709,-0.137079698822,-2.64823603491,-0.0736421557365,2.10898885947,-0.754935979571,-0.788379543648,-0.0145558029838,0.0351253569152,-0.00691999355874,0.00178147591803,-0.0052698263463,-0.786746131944,0.573917143723,0.818879372273,0.0060359513453,0.0,0.818877690105,-0.573828440068,-0.0118742123403,0.0,-0.00626006752834,0.0117577462986,-0.999911279543,0.0,0.295282156346,-0.220426843385,0.304973974526,1.0,-0.170151428572,-0.223627591837,2.459
-0.514332440857,-0.530230515832,-0.13658511685,-2.64830199696,-0.0735870421197,2.10888960338,-0.767839380576,-0.790799288505,0.00173451111423,0.0269934971754,-0.003234926529,0.00592080020419,-0.00651528318078,-0.74962909689,0.573986474857,0.818831124306,0.00598861002432,0.0,0.818828643867,-0.573897602659,-0.0119138803933,0.0,-0.00631872879621,0.0117422777089,-0.999911092338,0.0,0.292367027488,-0.224209356788,0.304956923597,1.0,-0.161408571429,-0.212136979592,2.476
-0.526152511412,-0.53008504131,-0.135993481213,-2.64824932734,-0.0734148778361,2.10887828288,-0.779407704094,-0.719447334717,0.0149628661316,0.0376472847741,0.00287812183395,0.0130352116342,0.00158415719903,-0.722773477196,0.573852224921,0.818925419435,0.00596055844395,0.0,0.818922534324,-0.573763417816,-0.0119235084377,0.0,-0.00634463591747,0.0117237931921,-0.999911145187,0.0,0.289829650042,-0.22749829788,0.304942304232,1.0,-0.15318,-0.201322285714,2.492
-0.538205681615,-0.529811647056,-0.135466470301,-2.64809451987,-0.0732185896169,2.10887689965,-0.791032969979,-0.706084945918,0.0180268856549,0.0211266948437,0.0117608067042,0.0134462323174,-0.00177049272778,-0.6777156651,0.573923894911,0.818875097671,0.0059736223968,0.0,0.818872184254,-0.573834654505,-0.0119533278141,0.0,-0.00636053339707,0.0117521599417,-0.99991071119,0.0,0.287215381587,-0.230861212123,0.304926564499,1.0,-0.144437142857,-0.189831673469,2.509
-0.548870862092,-0.529423077981,-0.134907196591,-2.64783937074,-0.0729867750984,2.10890793187,-0.801396449726,-0.634482697684,0.0329733304637,0.0368415034175,0.0182197431227,0.0203767546758,0.00419194370529,-0.635558946625,0.573890184337,0.818898719236,0.00597418249308,0.0,0.818895681766,-0.573800706095,-0.0119732606395,0.0,-0.00637702044728,0.0117637954907,-0.999910469355,0.0,0.284923877539,-0.233813406427,0.304917941866,1.0,-0.136208571429,-0.179016979592,2.525
-0.559545652461,-0.528863373025,-0.134289031012,-2.64748842765,-0.0726875937685,2.10896163249,-0.811821240749,-0.621772789405,0.0362767416295,0.0334348146671,0.0197645934097,0.0171412162935,0.00343385147648,-0.595180559563,0.573806817244,0.818957028866,0.00598901126535,0.0,0.818953702869,-0.573716407967,-0.0120441972449,0.0,-0.00642780971559,0.0118159929341,-0.999909528694,0.0,0.282640346971,-0.236747642976,0.304893746977,1.0,-0.127465714286,-0.167526367347,2.542
-0.569765463768,-0.528260184678,-0.133780720932,-2.64702614079,-0.0724059760005,2.10908733425,-0.821544248856,-0.580121442384,0.0359443587179,0.034772298727,0.03286853713,0.0229875402661,0.0145560266112,-0.566902136139,0.574001205128,0.818820526198,0.00602571899447,0.0,0.818818040509,-0.573911272611,-0.0119839312706,0.0,-0.00635458319779,0.0118129858478,-0.999910032272,0.0,0.280450818617,-0.239594469172,0.304907438894,1.0,-0.118722857143,-0.156035755102,2.559
-0.578442485687,-0.527529633173,-0.133168394555,-2.64655051491,-0.0720520799755,2.10919352519,-0.830146547124,-0.533873040999,0.0457376550836,0.0393782494602,0.0276805219825,0.0236333159001,0.00153662822843,-0.517668712728,0.573808358526,0.818955473089,0.00605373303156,0.0,0.818952811502,-0.573717344604,-0.012060179727,0.0,-0.00640374184597,0.0118781823108,-0.999908946292,0.0,0.278630313233,-0.241958665229,0.304881480113,1.0,-0.110494285714,-0.145221061225,2.575
-0.587282039217,-0.52679085221,-0.132619406753,-2.64601483525,-0.071746852136,2.10930921871,-0.838606440252,-0.507908892432,0.0438601431791,0.0362823129778,0.024590138188,0.0235810473662,0.00611158174365,-0.479522952941,0.573891991298,0.818896772628,0.00606671277432,0.0,0.818894149793,-0.573800662199,-0.0120796687087,0.0,-0.00641104134513,0.0119006498532,-0.999908632367,0.0,0.276749276513,-0.244389360198,0.304878736974,1.0,-0.101751428572,-0.13373044898,2.592
-0.595933258087,-0.525932831891,-0.132036645546,-2.64537311935,-0.0713848447474,2.10945863961,-0.846872331736,-0.455901648217,0.0473854205319,0.0406216181844,0.0381071908817,0.0212248934333,0.0167187290466,-0.441159403381,0.573986106602,0.818830592295,0.00609569124402,0.0,0.818828334407,-0.573894608869,-0.012078227692,0.0,-0.00639186105578,0.0119242891755,-0.999908473531,0.0,0.274933659686,-0.246768674736,0.304884066159,1.0,-0.0924942857144,-0.121563918367,2.61
-0.602716212116,-0.525137920734,-0.131410122201,-2.64483396421,-0.0710049723216,2.10959618418,-0.853561030879,-0.414500555193,0.0501890980693,0.0396949685866,0.0319860555956,0.0210477999643,0.00455167478023,-0.411548191889,0.573812808234,0.818951921749,0.00611210861323,0.0,0.818949469082,-0.573720513595,-0.0121361555663,0.0,-0.00643240967474,0.0119696200627,-0.999907671888,0.0,0.273548393172,-0.248586141949,0.304865686691,1.0,-0.0842657142858,-0.11074922449,2.626
-0.609550128703,-0.524398544799,-0.130803195427,-2.64428667942,-0.070675697366,2.1097477548,-0.859984914028,-0.391600927868,0.0451651262432,0.0313035607739,0.0324227163565,0.0177400766783,0.00891164992023,-0.357980642502,0.573890198465,0.818897840997,0.00609204543525,0.0,0.818895250746,-0.573798206698,-0.0121216004292,0.0,-0.00643087148922,0.0119454447371,-0.999907970886,0.0,0.272135609312,-0.250424179631,0.304871745755,1.0,-0.0755228571429,-0.099258612245,2.643
-0.61599806507,-0.523596651196,-0.130152739777,-2.64366732471,-0.0702589435106,2.10991401025,-0.86613601157,-0.34274511792,0.046397607029,0.031288864173,0.0320115279058,0.0172040154693,0.00897550530377,-0.331317462334,0.573884830435,0.818901449678,0.00611261095528,0.0,0.818899369112,-0.573793200145,-0.0120802995509,0.0,-0.00638532315077,0.0119385437682,-0.99990834521,0.0,0.270842680373,-0.252149851408,0.304889759482,1.0,-0.0662657142858,-0.0870920816328,2.661
-0.620803614021,-0.522956948198,-0.129656578066,-2.64320463153,-0.069924450811,2.11003931298,-0.870706426353,-0.312204678731,0.0436164708797,0.0360703356831,0.0291132999953,0.024252523295,0.000897554601098,-0.299427142514,0.573894344951,0.818894555618,0.00614284250876,0.0,0.818892790044,-0.57380243286,-0.0120877359321,0.0,-0.00637392588618,0.0119676431497,-0.999908070068,0.0,0.269876118695,-0.253426398233,0.304888469851,1.0,-0.0585514285715,-0.0769533061226,2.676
-0.624464823321,-0.522475113369,-0.129155909374,-2.64286065208,-0.0696141238005,2.11014318936,-0.874171696572,-0.268281533096,0.0361814486346,0.039471509784,0.0318287432817,0.0244048405665,0.0110501236524,-0.240962747488,0.573842638417,0.818930701911,0.00615456761954,0.0,0.818929100294,-0.573750706999,-0.0120831209265,0.0,-0.00636417370872,0.0119741950565,-0.999908053746,0.0,0.269115127994,-0.254428987102,0.304891278971,1.0,-0.0513514285715,-0.0674904489797,2.69
-0.629918548849,-0.521825192307,-0.128307951083,-2.64236367468,-0.069149774336,2.1102836854,-0.879227439017,-0.229674745465,0.0282543745261,0.0369286387477,0.0235710677342,0.0139241036586,0.00781890021872,-0.201474373988,0.573801937749,0.818959489528,0.00611863131863,0.0,0.818957704381,-0.573710705453,-0.0120437446694,0.0,-0.0063531370138,0.0119218538203,-0.999908749362,0.0,0.268120325895,-0.255725949065,0.304909408031,1.0,-0.0405514285715,-0.0532961632654,2.711
-0.633050901775,-0.521408080371,-0.127785367075,-2.6420526228,-0.0688222841824,2.11039283638,-0.882087494769,-0.196425255481,0.0327323889868,0.0303707483208,0.0212266333704,0.0219748245135,0.0093442614988,-0.184877712406,0.573811185635,0.818952941919,0.00612772914405,0.0,0.818951502292,-0.573720339704,-0.0120064818125,0.0,-0.00631726238319,0.0119079958181,-0.999909141788,0.0,0.267539134346,-0.256502611106,0.304919703735,1.0,-0.0328371428572,-0.0431573877552,2.726
-0.636093170489,-0.52097160566,-0.127212210853,-2.64176496975,-0.0684369112644,2.11044752813,-0.884742545473,-0.14876912333,0.0216276006193,0.0323179730145,0.0119266367512,0.0288945670823,0.0013876474582,-0.132505431842,0.573902260374,0.818888823254,0.00616746202756,0.0,0.818887509717,-0.573810486328,-0.0120631302307,0.0,-0.00633953018956,0.0119737458593,-0.999908215671,0.0,0.266980335123,-0.257223020461,0.304908742645,1.0,-0.0235800000001,-0.030990857143,2.744
-0.638211428185,-0.520694649465,-0.126707908279,-2.64158650349,-0.068129622866,2.11048473984,-0.88656545226,-0.12037761162,0.0146388674591,0.0304383007274,0.00602054874849,0.0149085051101,0.00587451861543,-0.10994099468,0.573927554188,0.81887101464,0.00617825432998,0.0,0.818869622383,-0.573835313333,-0.0120963470407,0.0,-0.00636016991836,0.0120018427345,-0.99990774775,0.0,0.266611660839,-0.257691530914,0.304903500769,1.0,-0.0198,-0.0260228571429,2.76
-0.640072784581,-0.520446285812,-0.12631185595,-2.64140144925,-0.0678878847553,2.11052957817,-0.888225551803,-0.101900759337,0.012522509043,0.0199320214296,0.00803738268728,0.0115831391616,0.00538681306043,-0.0979811879241,0.573924643878,0.818873017124,0.00618319306769,0.0,0.818871711717,-0.573832424302,-0.0120919589086,0.0,-0.00635378453655,0.0120033462033,-0.999907770298,0.0,0.26628276041,-0.258124805299,0.304909714054,1.0,-0.01946,-0.025576,2.777
-0.641760382138,-0.520171225329,-0.126014767444,-2.64118349366,-0.067722666053,2.11059083101,-0.889908976082,-0.0905737532668,0.0169297879821,0.0123455966343,0.0149710603866,0.00810708796502,0.00134314328632,-0.0919209129556,0.573799448678,0.818960867256,0.00616745508117,0.0,0.818959495908,-0.573707587624,-0.0120704128558,0.0,-0.00634700220354,0.011977122743,-0.999908127827,0.0,0.265979574567,-0.258551202626,0.304919998984,1.0,-0.0191,-0.0251028571429,2.795
-0.643252706609,-0.519910873123,-0.125840679851,-2.64100252769,-0.0676231499332,2.11067324293,-0.891337174535,-0.0849771410138,0.0162407799372,0.0101200517531,0.0125114668559,0.00482252690383,0.0023888014805,-0.0812548962245,0.573780658779,0.818974113224,0.00615665337754,0.0,0.818972707479,-0.573689049266,-0.012055125788,0.0,-0.00634095341221,0.0119593593566,-0.99990837882,0.0,0.26568900832,-0.258952799751,0.304917685898,1.0,-0.01876,-0.024656,2.812
-0.644648925679,-0.519695229042,-0.125709873579,-2.64085699906,-0.0675969404941,2.1106671253,-0.892724007093,-0.084891709672,0.0146482928501,0.00613034616364,0.0100630797963,0.00533613364101,-0.000176551657441,-0.0869344163078,0.573714623584,0.819020665031,0.00611782957136,0.0,0.819018346181,-0.573622434745,-0.0121242680842,0.0,-0.00642082543601,0.0119667149542,-0.999907781115,0.0,0.265385631503,-0.259324866982,0.304907066479,1.0,-0.01844,-0.0242354285714,2.828
-0.64608963188,-0.519487814475,-0.125620688303,-2.6406625609,-0.0675669178045,2.11069117584,-0.894128422642,-0.0870455323458,0.00883760264305,0.00301569955047,0.0156933527736,0.000463914943616,0.00174869536022,-0.0797317603437,0.573703954252,0.819028325504,0.00609276608385,0.0,0.819025824151,-0.573612146473,-0.0121058537017,0.0,-0.00642027606501,0.0119355386976,-0.999908157268,0.0,0.265077743009,-0.259733960052,0.304923269125,1.0,-0.0181,-0.0237885714286,2.845
-0.647458669577,-0.519258028923,-0.125572198502,-2.64048632533,-0.0675243258188,2.11080477912,-0.895502525965,-0.0821965975014,0.0134699582243,0.00263590453499,0.008961564648,0.00116719044028,0.0103509099642,-0.0816990276313,0.573692817711,0.819036133714,0.00609175499328,0.0,0.819034058232,-0.573601835007,-0.0120371605188,0.0,-0.0063647501108,0.0118952163689,-0.999908992751,0.0,0.264789671036,-0.260138831874,0.304929636083,1.0,-0.01776,-0.0233417142857,2.862
-0.648720158317,-0.519064011616,-0.125563339631,-2.64030402033,-0.067490759708,2.11082069297,-0.89677523315,-0.0803426632595,0.0193017112267,0.00165199479019,0.0134771621165,5.78771992968e-05,0.000256612834983,-0.0783172057153,0.573701068784,0.819030218316,0.00610999692721,0.0,0.819028441012,-0.573610120305,-0.0120245415251,0.0,-0.0063438289363,0.0119029827518,-0.999909033281,0.0,0.264506298503,-0.260512998275,0.304942631729,1.0,-0.01744,-0.0229211428571,2.878
-0.650052535141,-0.518850456088,-0.125574630459,-2.64014167172,-0.0674709522887,2.11084105769,-0.898066829749,-0.0800850843233,0.0145941493093,0.00114148521965,0.00732757830384,0.00443616832213,0.00892138198314,-0.0743475487194,0.573759493543,0.81898914139,0.00612998826077,0.0,0.818987463309,-0.573668144755,-0.0120474701195,0.0,-0.00635029047896,0.0119329636366,-0.999908634921,0.0,0.264193974541,-0.260906556909,0.304939247565,1.0,-0.0171,-0.0224742857143,2.895
-0.651526401235,-0.518632749475,-0.125572520862,-2.63994175128,-0.067438434935,2.11089615093,-0.899562875079,-0.078093932476,0.00966139407827,0.000986568517664,0.0106500107464,0.00136213138548,0.000864838843352,-0.0716252992879,0.573764006476,0.818985850403,0.00614724442913,0.0,0.818984674236,-0.573673105788,-0.0120007484597,0.0,-0.00630205571314,0.0119203259964,-0.999909090829,0.0,0.263862168748,-0.261347344305,0.304954680553,1.0,-0.01672,-0.0219748571429,2.914
-0.652580830671,-0.518456992915,-0.125565438607,-2.63979760562,-0.0674224625621,2.1109587117,-0.90060418601,-0.0739690152313,0.0120968423999,0.00104548253423,0.00969748786153,0.00123174553207,0.0056769416743,-0.0716788980278,0.573784040245,0.818971807339,0.00614823912904,0.0,0.818970875099,-0.57369356876,-0.0119641883934,0.0,-0.0062712484853,0.0119003182524,-0.999909522841,0.0,0.263628375054,-0.261665167701,0.304960955013,1.0,-0.01644,-0.0216068571429,2.928
-0.653861461521,-0.518219136776,-0.125552373107,-2.63961214792,-0.067389078611,2.11099613783,-0.901919934013,-0.069391081978,0.0129184005305,0.00142572107586,0.0109540651234,-0.000249349361226,-0.000425120442802,-0.0735018037222,0.57376998515,0.818981539417,0.00616353277371,0.0,0.818980747281,-0.573679340917,-0.0119706428125,0.0,-0.00626796473677,0.011916439654,-0.999909351433,0.0,0.263341911844,-0.262045341757,0.304961119811,1.0,-0.01608,-0.0211337142857,2.946
-0.654983974239,-0.518002860235,-0.125516238116,-2.63946588897,-0.0673655998344,2.11101133502,-0.903073425443,-0.0724875763852,0.0120899594626,0.00400385617848,0.00855734597607,-0.00100966135644,-0.0007663072237,-0.0701990103442,0.573736811259,0.819004770507,0.00616475422204,0.0,0.819003686912,-0.573645585679,-0.0120187252502,0.0,-0.00630713070086,0.0119447715111,-0.999908767106,0.0,0.263088606806,-0.262366717291,0.304950052716,1.0,-0.01576,-0.0207131428571,2.962
-0.656104535037,-0.517802286169,-0.125496202092,-2.6393098396,-0.0673435212325,2.11104964574,-0.904133257415,-0.0711407405813,0.00962732127384,-0.000909612222719,0.0167813793366,0.000256001932956,0.0101780823756,-0.0685360154604,0.57378992609,0.818967543993,0.00616680670175,0.0,0.81896648981,-0.573698685555,-0.0120188876906,0.0,-0.00630531143138,0.0119469547334,-0.999908752497,0.0,0.26283798444,-0.262697040635,0.30495079655,1.0,-0.01544,-0.0202925714286,2.978
-0.657393037253,-0.517555490585,-0.125471758533,-2.6391219248,-0.067312005749,2.11111415398,-0.905462217132,-0.0675668048768,0.0128383857855,-0.000694886377702,0.0122690333778,0.000679186288719,0.00196787879198,-0.0611570729019,0.573762744051,0.818986548808,0.00617197788684,0.0,0.818985638938,-0.573671633253,-0.012005303658,0.0,-0.00629161470862,0.0119431871665,-0.999908883781,0.0,0.262554948795,-0.263080468877,0.304951313952,1.0,-0.01506,-0.0197931428571,2.997
-0.658446272336,-0.517365170949,-0.125462203285,-2.63895727145,-0.0672860000152,2.11116141969,-0.906564697635,-0.0672814306387,0.0155300698154,-0.00136136409315,0.00730665158809,0.000631670851094,0.00203918611103,-0.0725381664528,0.573735236646,0.819005757603,0.0061801411832,0.0,0.81900512005,-0.57364441295,-0.011976966381,0.0,-0.00626412156744,0.0119334046676,-0.999909173192,0.0,0.262322820287,-0.263398185526,0.304960238041,1.0,-0.01474,-0.0193725714286,3.013
-0.659574452641,-0.517165862982,-0.125426995948,-2.63880423695,-0.0672582077163,2.11118503194,-0.907662645227,-0.0670318867215,0.00888263509805,0.00756210216926,0.00618917655472,-0.000144425922416,0.00481098764092,-0.0597497358584,0.57375489131,0.81899197327,0.00618217751867,0.0,0.818991261731,-0.573663863499,-0.0119929906395,0.0,-0.00627579205752,0.0119444163741,-0.999908968532,0.0,0.262069827933,-0.263723086913,0.304959147587,1.0,-0.0144,-0.0189257142857,3.03
-0.660664863869,-0.516969149489,-0.125410621903,-2.63865312435,-0.0672375947099,2.11120177412,-0.908762954499,-0.0649002146117,0.01229654938,0.000984666715097,0.0113660614802,0.00273826826949,0.00246316930883,-0.0723644601347,0.573751885722,0.818994030771,0.00618854536332,0.0,0.818993254191,-0.573660549983,-0.0120154019615,0.0,-0.0062905392594,0.0119624667535,-0.999908660081,0.0,0.261820147123,-0.264041232131,0.304957092527,1.0,-0.01406,-0.0184788571429,3.047
-0.661648066305,-0.516786211655,-0.125382218516,-2.63849469525,-0.0672100951713,2.11124048178,-0.909767048764,-0.0564655802867,0.00863738681617,0.000707824396847,0.0114530717148,0.00174533362192,0.00177460166547,-0.060829385925,0.573734521046,0.819006191153,0.00618911250764,0.0,0.819005546094,-0.573643422855,-0.0119952400134,0.0,-0.00627395294506,0.0119512308513,-0.999908898648,0.0,0.261607117221,-0.264333065169,0.304965592854,1.0,-0.01374,-0.0180582857143,3.063
-0.662661532216,-0.516587515633,-0.125347544814,-2.63833639753,-0.0671873819872,2.11128904043,-0.91074468486,-0.0599584352039,0.0148499802364,0.0037941754038,0.00823736278109,0.00271211290063,0.000954429727971,-0.0598432989527,0.57375648441,0.818990861667,0.00618158592489,0.0,0.818990188169,-0.573665545843,-0.0119858289943,0.0,-0.00627024227363,0.0119398352051,-0.999909058063,0.0,0.261374924805,-0.264651630596,0.304968327858,1.0,-0.01338,-0.0175851428571,3.081
-0.663650560325,-0.516385300168,-0.125306770065,-2.63818149856,-0.0671641677965,2.11132151351,-0.911777367288,-0.0605771254286,0.00876209636173,0.00363231052073,0.00913583358374,0.00320918087415,0.00469914991168,-0.0550893842774,0.573710470382,0.8190231429,0.00617531133561,0.0,0.819022354592,-0.573619505041,-0.0119913726066,0.0,-0.0062790535394,0.0119375238834,-0.999909030367,0.0,0.261172826805,-0.264921494135,0.304968715689,1.0,-0.01306,-0.0171645714286,3.097
-0.664570797893,-0.516204942281,-0.125282915272,-2.6380472094,-0.0671540041747,2.11135592923,-0.912740467666,-0.0536984228424,0.0123291001226,-0.00121023345828,0.0123070993252,7.02050705351e-05,0.000335286157268,-0.0571353300315,0.57366979901,0.819051691609,0.00616725849423,0.0,0.819050756761,-0.573578797152,-0.0119986752478,0.0,-0.00629024765668,0.0119348051366,-0.999908992464,0.0,0.26096689003,-0.265192260607,0.304966683385,1.0,-0.01274,-0.016744,3.113
-0.66554173394,-0.51600368753,-0.125254447194,-2.6379033668,-0.0671358413866,2.11140398128,-0.913677607585,-0.0569270388213,0.0146312234629,0.000222462539001,0.0082615054151,0.00249640772171,0.00373780957407,-0.0611410483138,0.573692576298,0.819035783059,0.00616123936255,0.0,0.819034749358,-0.573601556266,-0.012003370112,0.0,-0.00629721439303,0.0119327432031,-0.999908973222,0.0,0.260752799263,-0.26547836717,0.304962546627,1.0,-0.0124,-0.0162971428571,3.13
-0.666495283066,-0.515830440816,-0.125258653796,-2.63776064882,-0.0671198824951,2.11145399997,-0.914620950273,-0.0536220334601,0.0100641751373,0.0001641177581,0.00901350336562,0.000714017836965,0.00552400194385,-0.0563163370997,0.573718114224,0.819017844136,0.00616792506316,0.0,0.819017048812,-0.573627347822,-0.0119785844861,0.0,-0.00627270471502,0.0119241962627,-0.99990922924,0.0,0.260536219727,-0.265767519363,0.304967619756,1.0,-0.01206,-0.0158502857143,3.147
-0.66743041644,-0.515653792627,-0.125253329114,-2.63761442932,-0.0671040793698,2.11149373418,-0.915556153727,-0.0578599681705,0.00771562029993,0.000644849609206,0.011757578743,-0.000487945906774,0.000683504953482,-0.0497096804058,0.573728579885,0.819010492775,0.00617059547515,0.0,0.819009820121,-0.573637967347,-0.0119642745361,0.0,-0.0062592990487,0.0119182539924,-0.999909384093,0.0,0.260325449357,-0.266049049999,0.30497236599,1.0,-0.01172,-0.0154034285714,3.164
-0.668327120813,-0.515484019384,-0.125246539958,-2.63747580151,-0.0670902974885,2.11151318317,-0.91640635579,-0.0506994798928,0.00968386299881,0.000308213176191,0.00751575408345,-0.000225709429139,0.000408122747799,-0.0446028114067,0.573774914893,0.818978012006,0.0061733128147,0.0,0.818977331797,-0.573684199465,-0.0119714739651,0.0,-0.00626296251004,0.0119249643053,-0.999909281149,0.0,0.260120045489,-0.266315542482,0.304974494574,1.0,-0.01138,-0.0149565714286,3.181
-0.669263689663,-0.515301467439,-0.125228456403,-2.63732238717,-0.0670720898388,2.11155885241,-0.917284487755,-0.0505006207437,0.00666852829823,0.00104360306396,0.0114943958273,0.00107565524693,0.0082651411963,-0.0464342531477,0.573825602183,0.81894252773,0.00616939669156,0.0,0.818941937299,-0.573735160505,-0.0119505578947,0.0,-0.00624734056971,0.0119101430661,-0.999909555524,0.0,0.259913796951,-0.266596767138,0.304981119203,1.0,-0.01102,-0.0144834285714,3.199
-0.670062818457,-0.515137185919,-0.125216286666,-2.63718684845,-0.0670580126617,2.11158872153,-0.91809681865,-0.0455932162396,0.0171875768466,0.0035325495923,0.0112492421258,0.0013156932486,0.00418404531232,-0.056445292863,0.573819157558,0.818947053233,0.00616808897253,0.0,0.818946478998,-0.573728785978,-0.0119453580126,0.0,-0.00624392576112,0.0119060392458,-0.999909625727,0.0,0.259736161335,-0.266837205271,0.304984870282,1.0,-0.0107,-0.0140628571429,3.215
-0.670932775801,-0.514962071418,-0.125200136728,-2.63705740652,-0.0670400935359,2.11160856414,-0.918987754429,-0.0492916509177,0.0130684175197,0.00072242300339,0.010918529588,0.00158267530975,2.90393821993e-05,-0.0487891882514,0.573804932294,0.818956990888,0.00617200553093,0.0,0.818956331934,-0.573714288859,-0.0119661207049,0.0,-0.00625889094414,0.0119210516084,-0.999909353298,0.0,0.259537473185,-0.267091452482,0.304981083072,1.0,-0.01034,-0.0135897142857,3.233
-0.671688541263,-0.514802588712,-0.125185109097,-2.63694683365,-0.0670218884295,2.11164015856,-0.919706279519,-0.041538345986,0.0105170643535,0.000599350214414,0.0111723992497,0.00286336164845,0.00199758088623,-0.0456775185033,0.573838348747,0.818933551293,0.00617535227508,0.0,0.818932854037,-0.573747528328,-0.0119791993911,0.0,-0.00626719585752,0.0119315525805,-0.99990917603,0.0,0.25936677809,-0.267313177398,0.304975465845,1.0,-0.01002,-0.0131691428571,3.249
-0.672322194283,-0.514662712693,-0.125162169105,-2.63685847488,-0.0670033009253,2.11167222767,-0.920320608366,-0.0430562835134,0.00957870768428,0.0035246514813,0.00622413977247,0.00208563947888,0.00252108702174,-0.0436402240087,0.573842639632,0.818930558228,0.00617354372986,0.0,0.818929797849,-0.57375175059,-0.0119858996599,0.0,-0.00627365876437,0.0119339489834,-0.999909106903,0.0,0.259216478117,-0.267508691474,0.304970659859,1.0,-0.00972,-0.0127748571429,3.264
-0.673146117671,-0.514491983785,-0.125133312988,-2.63673964427,-0.0669853295627,2.11172047219,-0.92116237473,-0.0428248219791,0.0130326271968,0.00079639830315,0.00366467480096,6.70645222085e-05,0.00372388120757,-0.0423373159182,0.573829300028,0.818939922112,0.0061713290097,0.0,0.81893908105,-0.573738324583,-0.011994304296,0.0,-0.00628200760758,0.011936855568,-0.999909019791,0.0,0.259043885571,-0.267736605588,0.304962930701,1.0,-0.00936,-0.0123017142857,3.282
-0.673859938243,-0.514341043171,-0.125092823203,-2.63662519745,-0.0669610169266,2.11173294548,-0.921900050918,-0.040168590363,0.00969612350352,0.00397865880904,0.00646577812048,0.000666235572098,-0.000188469673456,-0.0447148533712,0.573795447124,0.818963674307,0.00616700304376,0.0,0.818962659169,-0.573704273733,-0.0120131630868,0.0,-0.00630042948209,0.0119438734532,-0.999908820081,0.0,0.258897590875,-0.267929015271,0.304961412965,1.0,-0.00904000000001,-0.0118811428571,3.298
-0.674505492523,-0.514209238317,-0.125064792726,-2.63652658499,-0.0669438867866,2.11176109511,-0.922526370906,-0.0405015424223,0.0102556124421,0.00041570661597,0.00431928127538,0.00189478645081,0.00171874152866,-0.0348476890523,0.573805599739,0.81895657721,0.00616484014959,0.0,0.818955521266,-0.573714409451,-0.0120157179027,0.0,-0.00630361494464,0.0119436460479,-0.99990880272,0.0,0.258746644651,-0.268126478861,0.304960337445,1.0,-0.00870000000001,-0.0114342857143,3.315
-0.675139087629,-0.514054099835,-0.125044639267,-2.63642243903,-0.0669203741759,2.11179617746,-0.923143291398,-0.0381447683746,0.00570329584894,0.00138721679396,0.00634830086551,0.00464968616881,0.00135272054724,-0.0373522979055,0.573820459842,0.818946130987,0.0061693849161,0.0,0.818945056522,-0.573729099754,-0.0120275265798,0.0,-0.00631046219988,0.0119542582681,-0.999908632714,0.0,0.258608711815,-0.268313387821,0.304953791125,1.0,-0.00836000000001,-0.0109874285714,3.332
-0.675765111297,-0.513910281552,-0.125029663833,-2.63632775999,-0.0668969256414,2.11182042272,-0.92377355604,-0.0367857863883,0.0101477098336,0.000475523998824,0.00904689682342,0.00730426326059,-1.83446171906e-05,-0.0381486817013,0.573821364816,0.818945424456,0.00617899228137,0.0,0.818944336744,-0.57372970102,-0.0120478372655,0.0,-0.0063215715188,0.0119737876909,-0.999908328869,0.0,0.258467967624,-0.268495536249,0.30494607548,1.0,-0.00802000000001,-0.0105405714286,3.349
-0.676355713518,-0.51379732062,-0.12501580259,-2.63626946855,-0.0668772549804,2.11184264958,-0.924353042141,-0.0348463158356,0.00738853051138,-0.000996133499315,0.0025110985309,0.00458315384935,0.00374789579511,-0.0395642707686,0.573829701436,0.818939503119,0.00618957850556,0.0,0.818938345971,-0.573737597096,-0.012078993236,0.0,-0.00634089290185,0.0120003993107,-0.999907887504,0.0,0.258319686547,-0.268669341366,0.304931779507,1.0,-0.00768000000001,-0.0100937142857,3.366
-0.676947667065,-0.513681427713,-0.124990977657,-2.63620700059,-0.0668556478346,2.11185701838,-0.924965191383,-0.0360309949246,-2.25748945334e-05,0.00235126781685,0.00110821194337,0.00275260357323,0.000458248711033,-0.0392873267989,0.573810650557,0.818952786943,0.00619814220548,0.0,0.81895153138,-0.573718115192,-0.0121103448313,0.0,-0.00636193667357,0.0120252544204,-0.999907455227,0.0,0.258190384197,-0.268821645909,0.304920387099,1.0,-0.00736000000001,-0.00967314285715,3.382
-0.677532244172,-0.513573151748,-0.124978946961,-2.63613235401,-0.0668302630262,2.11187478884,-0.925538105094,-0.0295297124692,0.00211476343553,0.0016066750128,0.00089899505309,0.00135318156159,-0.000126462406469,-0.0319100483969,0.573826414657,0.818941634366,0.00621226571669,0.0,0.818940480831,-0.573733657516,-0.0121213031438,0.0,-0.00636257637546,0.0120432316666,-0.999907234794,0.0,0.258055264442,-0.268987744639,0.304916076928,1.0,-0.00700000000001,-0.00920000000001,3.4
-0.678011133443,-0.513482918293,-0.124960472855,-2.63607648075,-0.0668119285909,2.11188700288,-0.925989013141,-0.0297425482725,0.0063996335356,-0.000471836435459,-0.000116392743493,0.000167233633812,0.00460366578606,-0.0303212933922,0.573847003304,0.818927158993,0.00621867856764,0.0,0.818925966053,-0.573753980043,-0.0121399921755,0.0,-0.00637390044099,0.0120593676638,-0.999906968195,0.0,0.257944642902,-0.26912040867,0.304909580722,1.0,-0.00670000000001,-0.00880571428572,3.415
-0.678543482763,-0.513396519186,-0.124936229895,-2.635996303,-0.0667853161922,2.11190218231,-0.92652812879,-0.0283382859772,0.00111937515451,0.00166505313045,0.002553162954,0.000977999621251,0.00199118467565,-0.025074470115,0.573839657816,0.818932255085,0.0062253995387,0.0,0.818931226949,-0.573746751989,-0.0121267064798,0.0,-0.00635927075472,0.0120571913175,-0.99990708759,0.0,0.257827581501,-0.269271654458,0.304915930989,1.0,-0.00634000000001,-0.00833257142858,3.433
-0.679010512868,-0.513302207761,-0.124910790033,-2.63591709289,-0.0667582855198,2.111921837,-0.926988999553,-0.0254073878748,0.00165505033363,0.00200270760936,0.00477558149851,0.00495164979917,0.000220277825608,-0.0230716516418,0.573842212485,0.81893042236,0.00623100343185,0.0,0.818929515447,-0.573749372303,-0.012118309016,0.0,-0.00634913985355,0.0120569820128,-0.999907154494,0.0,0.257728642507,-0.269405973606,0.304919323697,1.0,-0.00600000000001,-0.00788571428572,3.45
-0.679430322383,-0.513211846552,-0.124886171335,-2.63584941425,-0.0667383667083,2.11194474483,-0.927434810048,-0.0286618227669,0.00211638570143,0.000794823116626,0.00553811072221,0.00372226398888,0.00126295789205,-0.0266666968547,0.573815424384,0.818949184109,0.00623213342654,0.0,0.818948308899,-0.573722617162,-0.0121149828331,0.0,-0.00634616158993,0.0120557912576,-0.999907187758,0.0,0.257639542633,-0.269526472517,0.304919190978,1.0,-0.00568000000001,-0.00746514285715,3.466
-0.679852429301,-0.513124748763,-0.124853033967,-2.6357836192,-0.0667173653668,2.11197927468,-0.927877494847,-0.0245742253856,0.00678904233416,0.00283051156816,0.000533869343196,0.00265158445996,0.00176053672852,-0.0271011710674,0.573787363651,0.818968873,0.00622842452186,0.0,0.818968051732,-0.573694773448,-0.0120989281414,0.0,-0.00633555292851,0.0120433246486,-0.999907405263,0.0,0.257553238415,-0.269646854684,0.30492059861,1.0,-0.00534000000001,-0.00701828571429,3.483
-0.680209384728,-0.51305463293,-0.124818813963,-2.635729974,-0.0667004313387,2.11200001508,-0.928242518261,-0.0219653663733,0.00524644651003,0.00277065150173,0.00745696031435,0.000466010518153,0.00523726488603,-0.0264324501119,0.573766412223,0.818983594755,0.00622275081269,0.0,0.818982743382,-0.573673935091,-0.0120925241909,0.0,-0.0063338709324,0.0120348414597,-0.999907518059,0.0,0.257479871142,-0.269745702445,0.304921613117,1.0,-0.00504000000001,-0.00662400000001,3.498
-0.68060789593,-0.512987914522,-0.124796387102,-2.63568414976,-0.0666826152483,2.11201404308,-0.928621223966,-0.0230657379423,0.00337274019679,0.00174605870716,0.00127292453062,-9.20525714244e-05,0.00104951722733,-0.0215031136329,0.573776688502,0.818976371595,0.00622586558307,0.0,0.818975533884,-0.573684144133,-0.0120964693326,0.0,-0.00633516416614,0.0120397355082,-0.999907450949,0.0,0.257389967643,-0.269854683273,0.304919482048,1.0,-0.00470000000001,-0.00617714285715,3.515
-0.68101456687,-0.51290822395,-0.124772874725,-2.63562737226,-0.0666602389253,2.11202913694,-0.929018312698,-0.0198738162993,0.00298193620403,-0.000211857335709,0.00544058967543,0.000210739975941,0.000158892819021,-0.0209810585093,0.57378032884,0.818973779624,0.0062313262489,0.0,0.8189729799,-0.57368769628,-0.0121009186626,0.0,-0.00633562187392,0.0120467888543,-0.999907363096,0.0,0.257300798585,-0.26996786718,0.304917644981,1.0,-0.00432000000001,-0.00567771428572,3.534
-0.681336427126,-0.512859386185,-0.124755802135,-2.6355876284,-0.0666486526686,2.11203938304,-0.929318191358,-0.0243095966346,0.00186049966393,-0.00184271856478,0.00239932225295,0.00296170597007,0.00034318822435,-0.0147408486128,0.57379317277,0.818964781528,0.00623124392608,0.0,0.818964002066,-0.573700578375,-0.0120977928784,0.0,-0.00633291998555,0.0120450273269,-0.999907401433,0.0,0.257228172364,-0.270056991493,0.304918911406,1.0,-0.00400000000001,-0.00525714285715,3.55
-0.681642993693,-0.512803572109,-0.124725856749,-2.63553884552,-0.0666292172785,2.11204565346,-0.92961973185,-0.0149678309462,0.00691688963212,0.00185482231471,-0.000334858713992,0.00121730978747,2.93491510083e-05,-0.0210926524668,0.573786772043,0.818969268336,0.00623094307967,0.0,0.818968494759,-0.573694199021,-0.0120961772406,0.0,-0.00633186343316,0.0120438044484,-0.999907422855,0.0,0.25716453619,-0.270140328793,0.304921668705,1.0,-0.00366000000001,-0.00481028571429,3.567
-0.681943677675,-0.5127558061,-0.124702004493,-2.63548892379,-0.0666149288481,2.11205388449,-0.929890384702,-0.0207847076189,0.00453626354679,-0.000563062915167,0.00191333006103,0.00229342906361,0.000471709731855,-0.0183360782744,0.57380299658,0.818957924263,0.0062278651363,0.0,0.818957192037,-0.573710588715,-0.0120840766569,0.0,-0.00632347990839,0.0120344660418,-0.999907588345,0.0,0.257101335098,-0.270224672255,0.304927940637,1.0,-0.00332000000001,-0.00436342857144,3.584
