nelsonifechukwu/NELSON_IML_WORK/CNN-GradCAM/train2dof/data_sample_2022-07-05-18-56-22/robot_state.csv
position_joint1,position_joint2,position_joint3,position_joint4,position_joint5,position_joint6,position_joint7,velocity_joint1,velocity_joint2,velocity_joint3,velocity_joint4,velocity_joint5,velocity_joint6,velocity_joint7,ee_T_00,ee_T_10,ee_T_20,ee_T_30,ee_T_01,ee_T_11,ee_T_21,ee_T_31,ee_T_02,ee_T_12,ee_T_22,ee_T_32,ee_T_03,ee_T_13,ee_T_23,ee_T_33,v_x,v_y,w_z,time
0.46508246799065156,0.5472963469453979,-0.12398863268314542,-1.3555717060255088,0.07944288278950584,1.8941647005253681,0.15914694534189927,0.000362587752862416,-0.002460711395192297,-0.0012077867297819055,-0.0008653974947582489,0.0002513847334538949,-3.182458477907239e-05,-2.723768573439461e-05,0.5737585940782326,0.8190085641628149,0.0026066166850110097,0.0,0.8189747998081802,-0.5736985066687132,-0.01144760352422515,0.0,-0.007880424948432274,0.008703081842702562,-0.9999310752592258,0.0,0.6617635249402637,0.26092881424380615,0.3036877287877547,1.0,5e-324,6.94847521751573e-310,6.94826301793674e-310,0.0
0.46508402670306176,0.5473035528684266,-0.12398886850794379,-1.3555749131382588,0.07944145863586001,1.8941642324829793,0.15915077677172385,0.0003949864236021702,0.002045807126194717,-0.00045562662413007997,-0.0006328815432854513,-0.0001892324620066705,-0.00025101756182186125,0.0005352729078725981,0.5737604338509203,0.8190073078602411,0.0025963666790611026,0.0,0.8189734204737782,-0.5737003896867949,-0.011451913897156479,0.0,-0.007889816498626911,0.008697177833634676,-0.9999310525698001,0.0,0.6617622354606312,0.2609289708830252,0.30368106077374585,1.0,-0.00022000000000000006,-0.0002891428571428573,-0.00011000000000000003,0.012000000000000004
0.46507584509613487,0.5472973470779519,-0.123988260942712,-1.3555753581731038,0.07944288327629377,1.894164866416052,0.15914491519627758,-0.001557356350201523,0.0020358699029610684,0.0011619541197526117,-0.0007260448897591287,0.00030676001731726876,-0.0004373804982831796,-0.0011344948992541462,0.5737623007826247,0.8190059789765858,0.0026029795315130853,0.0,0.8189721627254716,-0.5737022192404801,-0.011450206134397537,0.0,-0.007884603953778158,0.008701631925939743,-0.9999310549344477,0.0,0.6617643378822745,0.26092421102516594,0.3036852833705381,1.0,-0.0005600000000000004,-0.0007360000000000007,-0.0002800000000000002,0.02900000000000002
0.46507581228535816,0.5472612752600903,-0.1239889764523555,-1.3555974233183161,0.07944217071268293,1.8941652750372393,0.15914828371960388,6.908370446739839e-06,-1.3407359944960558e-05,0.0005590712638580235,-0.0029682468790852333,-0.0003424444439699378,-0.0017461574538678321,0.0005109752967991447,0.5737662604155394,0.8190031728476053,0.002613077789005272,0.0,0.8189694729812935,-0.573706130272303,-0.011446628933005937,0.0,-0.007875838302403237,0.008707888070805192,-0.999931069552487,0.0,0.6617596706732661,0.26092195737684004,0.3036972398255766,1.0,-0.0008800000000000007,-0.0011565714285714298,-0.00044000000000000034,0.04500000000000003
0.4650782775263214,0.5471507151151745,-0.12399174907489426,-1.3557231855675096,0.07943942834106597,1.894187454269405,0.15914135578195704,0.0006765737194722833,-0.0037716985839259024,-0.0002768197334248302,-0.009251928254177526,5.7022003653755925e-05,0.005270349748917078,-0.00010966827324709385,0.5737668702215504,0.8190027045981195,0.002625909050269784,0.0,0.8189691178004981,-0.5737066403958356,-0.011446473518318373,0.0,-0.007868342800379458,0.008718313558555388,-0.9999310377172369,0.0,0.661739179212309,0.26090914904203155,0.30372085661622195,1.0,-0.001260000000000001,-0.0016560000000000014,-0.0006300000000000005,0.06400000000000004
0.46506944667349415,0.5470477865273655,-0.12398924343314084,-1.3558783616398666,0.07943773573742681,1.8942228466688937,0.15913815537095102,-1.0194980742167031e-05,-0.005020808247396919,-0.0003105022914497125,-0.01486614757747378,-0.0013306369635089728,0.006192551019757384,-0.0032396847572735833,0.5737778238966206,0.8189950587445262,0.0026171468658055435,0.0,0.8189612564685923,-0.5737175078255324,-0.01146422780011189,0.0,-0.007887794807642623,0.008721429479929682,-0.9999308572900925,0.0,0.6617152066556671,0.2608898130038184,0.30372288402243974,1.0,-0.0015400000000000012,-0.002024000000000002,-0.0007700000000000006,0.07800000000000006
0.46505597184339303,0.546925035417369,-0.12399453314668252,-1.3560289088035506,0.07943400990014685,1.8942845469760279,0.1591480046105124,-0.00026925972743859644,-0.013008855143372269,-0.001370024446308931,-0.015640442969644206,0.0002143829046565352,0.006771019992452211,0.00018427524602651553,0.5738080423620365,0.8189737888303532,0.0026477595645485307,0.0,0.8189403724005299,-0.5737476130783126,-0.011449447175683263,0.0,-0.007857802690368676,0.008738310313376574,-0.9999309460506492,0.0,0.6617011733963956,0.2608651642697109,0.3037436992911652,1.0,-0.0018000000000000013,-0.002365714285714288,-0.0009000000000000006,0.09100000000000007
0.46503329192194104,0.5467337218574227,-0.12398984201600385,-1.3562506894530395,0.07942838638849362,1.8943973343871285,0.15913736978198978,-0.00023862010498534457,-0.013711265808578073,0.0004190738832804782,-0.011341004724362447,0.0002902437541286122,0.011252651423990045,-0.0019189706647967412,0.5738256324464923,0.8189612170887772,0.0027231145881147474,0.0,0.8189287282756432,-0.5737649111459531,-0.011415412551579317,0.0,-0.007786502471423318,0.008780662148597004,-0.9999311328044019,0.0,0.6616830121128657,0.26083581147716606,0.3037832748803198,1.0,-0.0021400000000000017,-0.002812571428571431,-0.0010700000000000009,0.10800000000000008
0.4650035280254848,0.54652020199461,-0.12399209469212569,-1.356517610484108,0.07942079483806608,1.894537595836224,0.1591369108698973,-9.017693594047136e-05,-0.0024243912259407085,-0.0005265992783412098,-0.014001743290510422,0.00012087849931847053,0.016083234547600835,0.0006403941667049921,0.5738642911546531,0.8189338686027353,0.0028001953741805625,0.0,0.8189023700515773,-0.5738033221185609,-0.0113755329906325,0.0,-0.007709196257068007,0.008821268641456284,-0.9999313744015763,0.0,0.6616641087118155,0.2607942335238367,0.3038196962648442,1.0,-0.002500000000000002,-0.0032857142857142885,-0.001250000000000001,0.12600000000000008
0.46496844517096425,0.5462993236238801,-0.12398968561774507,-1.3568230022432362,0.07941118858501278,1.894653447154751,0.15912808532699757,-0.002046506227232783,-0.012668872158268063,0.00018133149728034797,-0.01920289732212775,-6.315894933661154e-05,0.010738381394517823,0.0004603931312657466,0.5738986080145737,0.8189097092517083,0.0028324394831145275,0.0,0.8188785504577704,-0.5738374496025888,-0.011368726181304686,0.0,-0.007684748357769833,0.008844090344686889,-0.99993136099867,0.0,0.6616321256105431,0.260745375142319,0.3038407177318,1.0,-0.002820000000000002,-0.003706285714285718,-0.001410000000000001,0.1420000000000001
0.4649314189261025,0.546051214242827,-0.12398712338675892,-1.3572350030321463,0.07939321558115116,1.8947979359789944,0.1591132965392668,-0.00041429951776701283,-0.01481475966898144,0.0014296591166810518,-0.0240440089927777,-0.0011740336558946826,0.007719648386463351,-0.002474538416539843,0.5739333009690172,0.8188854394496027,0.002819573983270666,0.0,0.818854036839653,-0.573872087816551,-0.011385959673449245,0.0,-0.007705870144094351,0.00884377122845327,-0.9999312012712581,0.0,0.6615830482823162,0.2606836136770811,0.3038327220305821,1.0,-0.003160000000000002,-0.0041531428571428605,-0.001580000000000001,0.1590000000000001
0.464889190566469,0.5457428235027529,-0.123990648264449,-1.3576864888085995,0.07936558474922012,1.8949588013319305,0.15909815720189288,-0.002401517997530067,-0.018545081295422945,0.0003055163516207717,-0.027615090125307443,-0.0005825577300453313,0.014425317517656683,-0.004368547873951703,0.5739757804402855,0.8188556163931852,0.0028337026150075427,0.0,0.8188244105511827,-0.5739145357320828,-0.011377049799682154,0.0,-0.007690006062206267,0.008850626313274254,-0.999931262747908,0.0,0.6615330186364656,0.2606105388806488,0.303850209635407,1.0,-0.0035000000000000027,-0.004600000000000004,-0.0017500000000000013,0.17600000000000013
0.46484182676059566,0.545433597733532,-0.12399563494462258,-1.3582126486077366,0.07932047229557838,1.895129524006658,0.1590706288776058,-0.0004656634360621905,-0.019777865281813765,-0.0012805882182031914,-0.02953612982155585,-0.003774314873669452,0.009027502431423662,-0.007092357592829677,0.5740128705160372,0.8188297832699848,0.002785213309051803,0.0,0.8187980523507181,-0.5739518842175032,-0.011389950441364465,0.0,-0.0077280010126472565,0.008818675167540105,-0.9999312521211835,0.0,0.6614704621228694,0.2605222082743639,0.30383358383368125,1.0,-0.003840000000000003,-0.005046857142857148,-0.0019200000000000016,0.19300000000000014
0.46479971209733695,0.5451019861680532,-0.12400134103986575,-1.3587639619545584,0.07928119323898264,1.8953086043588507,0.15895602363828076,-0.0015176838371671955,-0.020200342314475005,-0.0002109516300533387,-0.038993834243359324,-0.002265923562556251,0.015437066889788124,-0.004177433776196365,0.5739751807762712,0.818856316222101,0.0027517516650053964,0.0,0.8188241972004382,-0.5739143520087535,-0.01140164631265444,0.0,-0.0077571896746760904,0.008797632233128419,-0.99993121147179,0.0,0.6613981709124559,0.2604311675609859,0.3038263647554291,1.0,-0.004180000000000003,-0.005493714285714291,-0.0020900000000000016,0.21000000000000016
0.46473364122316246,0.5446991216270919,-0.12399962823546186,-1.3594122875581682,0.07925817438637538,1.8955311532001988,0.15893929593686826,-0.007571816131158425,-0.029518016537370975,-0.0012972231140330125,-0.042135871946885166,0.0003465335654693055,0.011549418336433753,0.0018729151867318832,0.5740469769921228,0.8188060402517046,0.002735608659422629,0.0,0.8187735444045694,-0.573985999097038,-0.011432529246067535,0.0,-0.007790972932888662,0.00880282233286643,-0.9999309031426796,0.0,0.6613269722622953,0.2603327637338764,0.30381735440943297,1.0,-0.004500000000000003,-0.005914285714285719,-0.0022500000000000016,0.22600000000000017
0.46466796997280657,0.5442652880059458,-0.12399948457971996,-1.360179957354414,0.07922233007032724,1.8957791719585886,0.1589230919013486,-0.007402460644098241,-0.02282283456652394,2.9882607910290404e-05,-0.045152124712213484,-0.002285789568547767,0.012881983539771559,0.0002770000255214114,0.5741205885171877,0.8187546546829657,0.002666866487859558,0.0,0.818721135336672,-0.5740596694520078,-0.011486747272009146,0.0,-0.007874038901279856,0.00877836707345428,-0.9999304674740664,0.0,0.6612305075956588,0.2602150257021539,0.3037804443619695,1.0,-0.004860000000000004,-0.006387428571428578,-0.002430000000000002,0.2440000000000002
0.46457932793731965,0.5436007959407602,-0.1239976947364942,-1.361258734539363,0.07917265399076252,1.8961458084853942,0.15882160308327323,-0.0057466834973225,-0.028573746003171883,0.0007842339315385382,-0.050157452034021985,-0.00165013402922884,0.011794460865518653,-0.0019351521379612979,0.57417001853728,0.8187201091557305,0.002630509102164371,0.0,0.8186859303557785,-0.5741090026188554,-0.011530284067814187,0.0,-0.00793002915120855,0.008774073136668684,-0.9999300626935133,0.0,0.6610893753964391,0.2600385771646701,0.30376550782180123,1.0,-0.005380000000000004,-0.007070857142857149,-0.002690000000000002,0.2700000000000002
0.4644868254069677,0.5430129524780519,-0.12400484980264365,-1.3622248768270782,0.07911716474872821,1.8965011791768471,0.1587732620431059,-0.004463988737815738,-0.029379009933995434,-0.0003738702968903547,-0.05005960169875284,-8.033423220752897e-05,0.018925308002825433,-0.007141156459375449,0.5741794450488096,0.8187135050184509,0.002628399713245422,0.0,0.8186793284164038,-0.574118467590389,-0.011527761991728003,0.0,-0.007929074268933023,0.008770989363839521,-0.9999300973202162,0.0,0.6610746321898519,0.2600133789515376,0.303765591109572,1.0,-0.005440000000000004,-0.007149714285714292,-0.002720000000000002,0.2730000000000002
0.46445905611914384,0.5427407983029909,-0.12400876932941682,-1.3626849032935202,0.07908630405916596,1.8966549768423386,0.15874496011516054,-0.0072184827622675035,-0.027896575776219186,-0.0011416660754104077,-0.051332884098527744,-0.005024699213784443,0.01531433114799479,-0.004370429921131759,0.5742554602137836,0.8186603402252977,0.0025808250742533206,0.0,0.8186255462871891,-0.5741946307397576,-0.011553696241601961,0.0,-0.007976810573816828,0.008747670908445873,-0.9999299219179046,0.0,0.6609330352223776,0.25983163998153264,0.30374281331959596,1.0,-0.005920000000000004,-0.007780571428571435,-0.002960000000000002,0.2970000000000002
0.46439319621864666,0.5423240720505075,-0.12400726575153966,-1.363359167093309,0.07904208722717959,1.896894539483081,0.15867975261382758,-0.001490565016719955,-0.027409984546111616,0.0008327207221714472,-0.05183378009478022,-0.0009199931316967877,0.019933232634856503,-0.004237490335813251,0.5742806188563396,0.8186427467711281,0.0025633700885211814,0.0,0.8186077324086813,-0.574219851401736,-0.01156242180918695,0.0,-0.007993708661543586,0.008738637573398989,-0.9999298659582055,0.0,0.6608557114255377,0.2597235235842622,0.3037372921612597,1.0,-0.006180000000000005,-0.008122285714285723,-0.0030900000000000025,0.3100000000000002
0.4643093388751979,0.5416890209569075,-0.12402189453192365,-1.36435810640794,0.07898384724088214,1.897256241124993,0.15859595949861394,-0.002670357351185557,-0.03769566222602585,-0.002324261443547517,-0.05282977092986412,-0.002901289198081916,0.02288849627852067,-0.008042566148536918,0.5743308452962194,0.8186075263390453,0.0025582931043143034,0.0,0.8185724828940334,-0.5742701288974648,-0.011560977726596405,0.0,-0.007994905994772705,0.008734142607846662,-0.9999298956582108,0.0,0.6607427170146267,0.25956451700503,0.30374268679884703,1.0,-0.006540000000000005,-0.00859542857142858,-0.0032700000000000025,0.32800000000000024
0.4642185846633758,0.5411188572193074,-0.1240127129066833,-1.3652729743839938,0.07893200789458998,1.8975802758318991,0.15856280971550799,-0.008436317503039253,-0.036580411713170655,0.0006842953610114255,-0.057831983896279957,-0.002571550272418837,0.018139864025825736,-0.0025499549873633574,0.5744084419014421,0.8185531253111809,0.0025435834690133736,0.0,0.8185177999416926,-0.5743476662805089,-0.011580859983290526,0.0,-0.008018802290488791,0.008734280245866005,-0.9999297031083798,0.0,0.6606356992817303,0.25942237148935293,0.3037380927002641,1.0,-0.006860000000000005,-0.009016000000000008,-0.0034300000000000025,0.34400000000000025
0.4641424812212201,0.5405332479073998,-0.12402016309506031,-1.366164419933269,0.07888160017975532,1.8979107242653934,0.1584791869950657,-0.006394620983508641,-0.029554639830814532,-0.00012846916017294075,-0.05572236782280564,-0.005900800963084546,0.029665397537667445,-0.008828051917933993,0.5744434431883534,0.8185284980262639,0.0025642538848235155,0.0,0.8184934438421136,-0.5743825964885334,-0.011569880715716773,0.0,-0.00799756825812975,0.008745235481572286,-0.9999297774135586,0.0,0.6605355534004066,0.2592839205753302,0.3037565981649303,1.0,-0.007160000000000006,-0.009410285714285723,-0.003580000000000003,0.35900000000000026
0.46403078138926707,0.5397468585561666,-0.12401907736740551,-1.3673529956989339,0.07881070794681615,1.8983558667272868,0.15837319310248044,-0.005549412110517553,-0.041890842280752454,0.0013603215573805478,-0.06251084404289549,-0.002925278942951733,0.019786411453408707,-0.006341351617763882,0.5744942036250006,0.8184927559566402,0.0026010284482487316,0.0,0.8184581691755078,-0.5744332167378028,-0.011552130511069162,0.0,-0.007961371281889618,0.008765633765468683,-0.9999298876581306,0.0,0.6604031963206882,0.25909875192516957,0.30378512767935373,1.0,-0.007540000000000006,-0.009909714285714294,-0.003770000000000003,0.3780000000000003
0.4639347632905119,0.5390134617783636,-0.12403294143396623,-1.3685184992765929,0.07874394667091304,1.898785137958838,0.1583252829915581,-0.0037327889245996177,-0.0404779028745564,-0.00011839896664462772,-0.06809645658711226,2.135387344895689e-05,0.033436968574085936,-0.0008643013671864679,0.5745899259870861,0.8184255790105177,0.0025952796885886165,0.0,0.8183909465737298,-0.5745289781819607,-0.011552432495150786,0.0,-0.007963896195922804,0.008762033429622354,-0.9999298991067117,0.0,0.6602705004306059,0.2589169179600524,0.30378618558709336,1.0,-0.007880000000000007,-0.010356571428571439,-0.003940000000000003,0.3950000000000003
0.4638273132205842,0.5382583836379221,-0.1240283751696574,-1.3696817587670074,0.07867573243154315,1.8992430588072764,0.15822945564379295,-0.011047842970942408,-0.04230068989816775,0.0008299015415621754,-0.07162031158994568,-0.002065350134126852,0.028243542937102108,-0.007327813031070258,0.5746423793602122,0.8183886143800888,0.0026379153664242115,0.0,0.8183545262904874,-0.5745812744620226,-0.011531489005241808,0.0,-0.007921695052753586,0.008785401405823928,-0.9999300292868646,0.0,0.6601431920198828,0.25874049364420904,0.30380538781766653,1.0,-0.008220000000000007,-0.010803428571428582,-0.004110000000000003,0.4120000000000003
0.46373033617090187,0.5374876255184733,-0.12404276302367702,-1.3709149444133666,0.07861359312861403,1.8997155764528557,0.15812102056103947,-0.007079669400906275,-0.044582959148082794,-4.318026892819684e-06,-0.0772469625704294,-0.0007441962594095558,0.027603198752076546,-0.0028601557567177367,0.5746946415727539,0.8183518842429569,0.0026475280497721947,0.0,0.8183178952575707,-0.5746334702747706,-0.011530136269879364,0.0,-0.007914502889849517,0.008792996404656736,-0.9999300194804805,0.0,0.660004069165466,0.2585538759572866,0.3038041552528967,1.0,-0.008560000000000007,-0.011250285714285725,-0.004280000000000003,0.4290000000000003
0.46363107942077236,0.5367236185338096,-0.12403614951013017,-1.3721156008200859,0.07853342179730172,1.9001516693899725,0.15804900227425756,-0.005307444310896933,-0.046231354746232176,0.0009522496024112014,-0.07781278120904882,-0.0006143132093229777,0.02557985566177845,-0.005566703297892628,0.5747568843308475,0.8183081840829888,0.0026432325487529334,0.0,0.8182741569804539,-0.5746957388911312,-0.011530768383443527,0.0,-0.007916820077589537,0.008790446638880331,-0.9999300235555227,0.0,0.6598615577570495,0.2583763475333982,0.3038096157137525,1.0,-0.008880000000000008,-0.011670857142857155,-0.004440000000000004,0.44500000000000034
0.4635126826424216,0.5358210586763155,-0.12404927467639125,-1.373530994711292,0.07845096265614698,1.9006822984152967,0.15791366836084497,-0.0056251417821196565,-0.04925588969308835,0.0009141507214656378,-0.0827650153101228,-0.010294964782718212,0.026377309565021403,-0.014840558487170112,0.574808033333071,0.8182722166274251,0.002655411948436281,0.0,0.8182383804744768,-0.574746878424755,-0.01152064931823612,0.0,-0.007900989644858802,0.008795091082273901,-0.9999301079252922,0.0,0.6597010620209818,0.25815711409193953,0.30381937923746205,1.0,-0.009240000000000007,-0.01214400000000001,-0.0046200000000000034,0.46300000000000036
0.4634012727643354,0.5349746375872114,-0.12404926115313296,-1.3748184370428145,0.07837667846030888,1.9011452262471917,0.15784491527547154,-0.00641700951578427,-0.05944298718743654,-0.0007143319528731835,-0.08105848579290863,-0.006977476933793173,0.026690103025361765,-0.0056908084606293804,0.574893550110408,0.8182120715676428,0.0026756090234489396,0.0,0.8181784479139622,-0.574832263824547,-0.011517062848413709,0.0,-0.007885525280313943,0.008810380412923757,-0.99993009540069,0.0,0.6595496805885708,0.2579613167998461,0.30384394681275817,1.0,-0.009560000000000008,-0.01256457142857144,-0.004780000000000004,0.47900000000000037
0.463282923653839,0.5340937779714636,-0.12405316062599138,-1.3762758372068764,0.07830612973863116,1.9016762185863207,0.15773930620504595,-0.008903936332691903,-0.05358774116161358,0.0008162809832655479,-0.08462008016263298,-0.0036327362589188006,0.038416000120348966,-0.013258681655852521,0.5749677664479692,0.8181600267054374,0.002642943132131585,0.0,0.8181258268020658,-0.574906407982831,-0.011554240819850613,0.0,-0.007933925787790341,0.008805745610247606,-0.999929753365626,0.0,0.6593754790973948,0.25774418625091683,0.30381782024568177,1.0,-0.009900000000000008,-0.013011428571428584,-0.004950000000000004,0.4960000000000004
0.46316476593860634,0.5332160960798817,-0.12405848911250197,-1.377669695812213,0.07821916740526269,1.9021951878249643,0.15763372973526169,-0.011016385933518107,-0.06085903378514959,-0.0022030729071469213,-0.08538710132703783,-0.010577935195002651,0.0384949450692555,-0.0026695352168034175,0.575034780291656,0.8181129355607424,0.0026406484657156533,0.0,0.8180787467462409,-0.574973466382068,-0.011550929828250518,0.0,-0.007931815020435329,0.008802614260984387,-0.9999297976821442,0.0,0.6592143916791336,0.2575304049669181,0.30381848688790386,1.0,-0.010220000000000007,-0.013432000000000012,-0.005110000000000003,0.5120000000000003
0.46303089719788426,0.532287527426486,-0.12405889910125044,-1.379167888744369,0.0781419060463158,1.9027609790335838,0.1575433458255506,-0.010897689408958008,-0.05737154347118673,-0.0005563474217462078,-0.08852826269036713,-0.0059073339383084586,0.03709268265214847,-0.0008514450840376315,0.575131895582352,0.8180446635735279,0.0026415873887360303,0.0,0.8180103814745782,-0.5750704493744563,-0.011564642548917316,0.0,-0.007941448174061172,0.008812210360806177,-0.9999296366992309,0.0,0.6590417311261534,0.2573021626363422,0.3038091276770647,1.0,-0.010560000000000007,-0.013878857142857155,-0.0052800000000000034,0.5290000000000004
0.4629020455745247,0.5313262817674648,-0.12405175614565812,-1.3807240917546775,0.07804845490083683,1.9033388844694972,0.15739992499199731,-0.008586494727759974,-0.057593351553522035,0.002023870157376475,-0.09260453373409375,-0.008189741314018178,0.04057221276344609,-0.005638246889922182,0.5751747694151899,0.818014566464126,0.0026268958676534974,0.0,0.8179800408287388,-0.5751133082355052,-0.01157939538299263,0.0,-0.007961504604933722,0.008809094060814385,-0.9999295046683307,0.0,0.6588563046622494,0.2570734005493691,0.30379577272357783,1.0,-0.010900000000000007,-0.014325714285714298,-0.0054500000000000035,0.5460000000000004
0.46276462373699484,0.5303005666408116,-0.124057048904293,-1.3823568571711424,0.07795111204222695,1.90391406943915,0.15729502336682402,-0.01364357529954043,-0.06139352656493507,-0.00014528339225068567,-0.0986071049983826,-0.0008725647358265658,0.035378280225684455,-0.007112281488694302,0.5752676253434542,0.8179493599638162,0.0025982047060805306,0.0,0.8179144239272277,-0.5752062072693694,-0.011600049645874596,0.0,-0.007993903616113629,0.008798411515753501,-0.9999293402334863,0.0,0.6586589812922,0.2568227475745455,0.3037913416652198,1.0,-0.011240000000000009,-0.014772571428571442,-0.005620000000000004,0.5630000000000004
0.4626183130454664,0.5292678217112993,-0.124062779309783,-1.3840040559137945,0.07783619250776526,1.9045158829907078,0.15718015460849713,-0.007999601869385297,-0.06309473794297901,-0.0008298354262922724,-0.09520572581385961,-0.010614803223874385,0.04522080876986061,-0.0021854379047525786,0.5753558556218276,0.8178873711743774,0.00257572831432729,0.0,0.8178522742496493,-0.5752946465506134,-0.011596294929404321,0.0,-0.00800281454395102,0.008778730468637225,-0.9999294419361471,0.0,0.6584666692415662,0.25656336380780514,0.30378705572270037,1.0,-0.011580000000000009,-0.015219428571428585,-0.005790000000000004,0.5800000000000004
0.4624775800050465,0.5281870086916381,-0.12406065739314125,-1.3856957030244312,0.07774125098787847,1.9051461638430032,0.1570630393768124,-0.009517475714573481,-0.06748634491890342,0.001152212368009274,-0.09873229776115133,-0.00662925727351709,0.04382863597579729,-0.005503360695920262,0.5754398305559304,0.8178282303595545,0.0025949832234780238,0.0,0.8177933036084936,-0.5753784580601498,-0.011596959715339156,0.0,-0.007991377454509618,0.008795681780825682,-0.9999293844409165,0.0,0.6582661051020374,0.256312739843114,0.30379746355067383,1.0,-0.011920000000000009,-0.01566628571428573,-0.005960000000000004,0.5970000000000004
0.46233175632501017,0.5270771644518422,-0.12407003660935825,-1.3874377128008517,0.07762620124626293,1.9058204115746835,0.1569339563387362,-0.007234406815578185,-0.0665871916848266,0.002344148309630556,-0.10763094530082279,-0.007142817231290502,0.044757205809969745,-0.012079578236775659,0.5755235036019887,0.81776926936493,0.0026202643470784404,0.0,0.8177348177545162,-0.5754621980427937,-0.01156604327127175,0.0,-0.007950644749316949,0.008799380549964403,-0.9999296766023135,0.0,0.6580678186782357,0.2560462408063347,0.3038082299725322,1.0,-0.012260000000000009,-0.01611314285714287,-0.006130000000000004,0.6140000000000004
0.4621860378747385,0.5259108002105739,-0.1240809875059618,-1.3892416636641736,0.07751992677583917,1.9064954808603893,0.15680198476590174,-0.005712429391527204,-0.07047882857644457,-0.00013108580766676417,-0.10659492021029984,-0.00850943452239667,0.04077759587764148,-0.006997424737257875,0.5756111858843062,0.817707459608374,0.002649544657194006,0.0,0.817673408219883,-0.5755497950126676,-0.011548932944886472,0.0,-0.007918856197746349,0.008814326901289651,-0.9999297972146828,0.0,0.6578559661154934,0.25577378872152157,0.30382912538316553,1.0,-0.012600000000000009,-0.016560000000000016,-0.006300000000000004,0.6310000000000004
0.46203163027431304,0.5247553473950394,-0.12408737381017647,-1.391055560969864,0.07740415805188149,1.9071602254801625,0.15667310400334306,-0.00498122584596586,-0.06871703451537534,-0.0004979731168209009,-0.10945844900691115,-0.0098291258683451,0.04098758220139838,-0.006552242731646695,0.575702928577937,0.8176428744036683,0.002648559023705017,0.0,0.8176088636050397,-0.5756415888818067,-0.011543578531497315,0.0,-0.00791405637685444,0.008811326945762948,-0.9999298616548656,0.0,0.6576405659029667,0.25549477265105747,0.30383625275147114,1.0,-0.012940000000000009,-0.017006857142857157,-0.006470000000000004,0.6480000000000005
0.46188683440471945,0.5236424860223838,-0.12409791750280402,-1.3928268204166592,0.07728623082074053,1.9077899076007148,0.15654946351643437,-0.010088468436092655,-0.07038864970085089,-0.0010113979790494422,-0.10723975427893552,-0.010549163208495112,0.03648277401732875,-0.006054361210655997,0.5757908132251498,0.8175810969820737,0.0026146059584561225,0.0,0.8175467303579568,-0.5757296683703733,-0.011551603367614295,0.0,-0.007939219186386126,0.008789038865836818,-0.9999298583373363,0.0,0.6574251063986429,0.25522148899703917,0.30383052401437816,1.0,-0.01326000000000001,-0.017427428571428587,-0.006630000000000005,0.6640000000000005
0.46173257380995,0.5224378378265423,-0.12409779447485511,-1.3947605814777784,0.0771663438360114,1.908519428391102,0.15640112272501938,-0.010355113832031443,-0.07782223384837168,0.0003594898570209948,-0.11439050476403945,-0.013065698617151303,0.04705602342106357,-0.008387451405629416,0.5758669481011831,0.8175274864680333,0.002610336203836431,0.0,0.8174930809757159,-0.5758058261585155,-0.011552489772727204,0.0,-0.007941584032045756,0.008786797987136954,-0.9999298592522353,0.0,0.6571932912156916,0.25493656823807725,0.3038200164685032,1.0,-0.01360000000000001,-0.01787428571428573,-0.006800000000000005,0.6810000000000005
0.4615659510732011,0.5212193536647494,-0.12409858556991886,-1.3967281481640705,0.07705620727382881,1.9092936378252314,0.1562588500917402,-0.008769386431940437,-0.07450123122559694,0.0005523589294789755,-0.11843311419000123,-0.004201817936122123,0.043259315078065894,-0.011759620520214694,0.5759632477267774,0.8174595759237466,0.002631710432276316,0.0,0.8174254106838154,-0.5759020021557915,-0.011546808327620756,0.0,-0.007923594285471014,0.00880193367065793,-0.9999298688494391,0.0,0.6569649805976187,0.25464376699376756,0.3038067544251616,1.0,-0.01394000000000001,-0.018321142857142873,-0.006970000000000005,0.6980000000000005
0.46141418309321286,0.5200248503882272,-0.12410679981313004,-1.3986223300302933,0.07693560589193377,1.9099912251296567,0.15610884403596584,-0.008617526347468173,-0.0747121423039157,-0.0009050554561703031,-0.11732328271078882,-0.00450453359253602,0.04119092738254324,-0.009022180743828549,0.5760388716401392,0.8174063159189381,0.0026229671352785665,0.0,0.8173720944566194,-0.5759777088957857,-0.011544910565670623,0.0,-0.007926264817171347,0.008794426716455056,-0.9999299137363464,0.0,0.6567358576991708,0.25435800440082973,0.30380478593915505,1.0,-0.01426000000000001,-0.018741714285714303,-0.007130000000000005,0.7140000000000005
0.4612277161999276,0.518607654516838,-0.12411390378518285,-1.4008185670369817,0.07679771535413002,1.910773889127662,0.15595634392951843,-0.010064584947790594,-0.08322313294375641,0.0002635671850103379,-0.11485735705600993,-0.009287561105459075,0.04744403268673308,-0.006856763577733233,0.5761508959585357,0.8173273639505435,0.0026214738298162166,0.0,0.8172931327587625,-0.576089734835667,-0.011545538685872306,0.0,-0.00792643314441599,0.008794654341353722,-0.9999299104000356,0.0,0.6564670436312587,0.25402022113240713,0.3038223284965939,1.0,-0.014620000000000011,-0.019214857142857162,-0.007310000000000006,0.7320000000000005
0.4610680838026262,0.5173402522229078,-0.12411944456866124,-1.402803310401585,0.07665854428288767,1.911497518616596,0.15579039073210893,-0.0076256567757966185,-0.07920034758313713,0.001024794628496189,-0.1252155725472914,-0.012615315652597638,0.03751673748486789,-0.010424451232956928,0.5762170454564172,0.8172807531784648,0.0026141749610953226,0.0,0.8172465687444569,-0.5761560569258172,-0.011532165638541893,0.0,-0.00791899674637414,0.00878162500250114,-0.999930083832288,0.0,0.6562246483501804,0.2537199481356096,0.3038298236992356,1.0,-0.01494000000000001,-0.01963542857142859,-0.007470000000000005,0.7480000000000006
0.46088591230944603,0.5159949284312638,-0.12413163158662563,-1.4049304564115013,0.07652416781564525,1.9122919107057217,0.15563574957654,-0.007611923388899582,-0.07744802195810771,-0.0012106604478375582,-0.12829037012085084,-0.0057290245375869395,0.04147203339634081,-0.008356748720502686,0.5763243355078531,0.8172050909018828,0.0026166021258904907,0.0,0.8171710186894077,-0.5762634152775462,-0.011521689458684904,0.0,-0.007907883455201103,0.008778610461377664,-0.9999301982526712,0.0,0.6559709574904066,0.2533907192400168,0.3038302072929152,1.0,-0.015280000000000012,-0.020082285714285733,-0.007640000000000006,0.7650000000000006
0.4606978237021919,0.5146068482583166,-0.12413864708019122,-1.4071282029486778,0.07638825090564093,1.9131231541699147,0.15545921293236914,-0.010072567311534825,-0.08106541558594103,0.0004108189069041191,-0.12780969127677333,-0.0024467805671234315,0.05349108848062294,-0.016095941868422267,0.5764154210013425,0.8171408087929671,0.0026282956889734253,0.0,0.8171069482710266,-0.5763545182553188,-0.011508747764094239,0.0,-0.007889589259536811,0.00878158742997992,-0.9999303166238763,0.0,0.6557261714271441,0.2530752121264196,0.3038284117353577,1.0,-0.015600000000000011,-0.020502857142857163,-0.007800000000000006,0.7810000000000006
0.460521620194735,0.5132960366868975,-0.12413954570232753,-1.4092388767793231,0.07627327732664789,1.913870389413852,0.1553077901189641,-0.007278812546590867,-0.08136000762867575,-0.000563176734833495,-0.12829867555804567,-0.005133738892788059,0.04831170127666219,-0.009661104097959587,0.5765265177517795,0.8170626134397903,0.0025703986374210905,0.0,0.8170278047839217,-0.5764655731790105,-0.011565295092174077,0.0,-0.007967977317649144,0.008767955272723615,-0.9999298146859114,0.0,0.6554223552413466,0.25271429594312733,0.30379723617332705,1.0,-0.015960000000000012,-0.02097600000000002,-0.007980000000000006,0.7990000000000006
0.46032353192547065,0.5118858128225476,-0.12414195242503391,-1.4115232540751268,0.076135230537126,1.914676228869664,0.15512129704107855,-0.014120421714900787,-0.08028234633186486,0.0005908249818235142,-0.1328217522847264,-0.0037045449862503814,0.04629226040808846,-0.01645022595059264,0.5766120223174116,0.817002398741653,0.0025304289395595425,0.0,0.8169669885044071,-0.5765511109506627,-0.011597545292229052,0.0,-0.00801645504858245,0.008754729510918519,-0.9999295430977349,0.0,0.6551542615609313,0.25238659957191756,0.3037788865741267,1.0,-0.016280000000000013,-0.02139657142857145,-0.008140000000000007,0.8150000000000006
0.460128587516411,0.5104262945024315,-0.12414192000556547,-1.413844985636811,0.07597970492648198,1.9155510154367015,0.15493991887162825,-0.011970650365143602,-0.08908996457473416,0.0006610414326266734,-0.13742898948422252,-0.01176581808030836,0.05539355648592883,-0.00916049591272092,0.5767022601688764,0.8169387053414746,0.002530164483447457,0.0,0.8169033967805256,-0.5766414532743912,-0.011585404405786058,0.0,-0.008005721686312472,0.008748397300486446,-0.999929684510343,0.0,0.6548715962822714,0.2520368430336246,0.30377150978219664,1.0,-0.016620000000000013,-0.021843428571428593,-0.008310000000000007,0.8320000000000006
0.4599304667327057,0.5089375177377856,-0.12414505263187119,-1.4162283507259137,0.07584032957148236,1.916435840880834,0.15476078742659252,-0.012808697141121317,-0.09327910093685142,-0.0012740572874664466,-0.14158062431025997,-0.005575512128197051,0.04669709666896201,-0.008669101366362024,0.5768064899058702,0.8168651437324844,0.002521320801653219,0.0,0.8168296527535939,-0.5767456262028375,-0.011599480141287647,0.0,-0.008021204701273876,0.008750313490573883,-0.9999295436624306,0.0,0.6545766948355476,0.251679568472985,0.30375580353043347,1.0,-0.016960000000000013,-0.022290285714285735,-0.008480000000000007,0.8490000000000006
0.4597317070359515,0.5075374595838494,-0.12414298186099879,-1.418458731303034,0.07570034797593725,1.917220429703213,0.15459218478322603,-0.011418785246955051,-0.08773333772721409,-0.0017113002001190368,-0.1405628302139825,-0.011757219145825391,0.05139344762646298,-0.013896894250907173,0.5769133090076981,0.816789846467824,0.002475378367972677,0.0,0.8167537224001915,-0.576852550139276,-0.011629240923330012,0.0,-0.008070872973494236,0.008731006457646531,-0.9999293127694988,0.0,0.6542769479248727,0.2513097514738888,0.30374028834857014,1.0,-0.017300000000000013,-0.02273714285714288,-0.008650000000000007,0.8660000000000007
0.4595345423738375,0.506070724968829,-0.12414878741643172,-1.4207410144352501,0.07554807399578678,1.9180529932030839,0.1544066885294249,-0.012317489474853203,-0.09242447100448697,0.0013213608089449763,-0.14125930805835724,-0.004523531454866496,0.05751045099154373,-0.01381329772118837,0.576997446202687,0.816730383089088,0.0024850182971473574,0.0,0.8166944447914999,-0.5769367091442295,-0.01161741751590188,0.0,-0.00805475465873623,0.00873288901180612,-0.9999294262981239,0.0,0.6540115106852622,0.2509832371175302,0.30375295490465926,1.0,-0.017600000000000015,-0.023131428571428594,-0.008800000000000007,0.8810000000000007
0.4593180807696036,0.5045419037824385,-0.12415758709823606,-1.4230628543763837,0.0754054801139383,1.9189736064388137,0.15422093501650394,-0.016487525842987724,-0.10057199736601591,-0.0005315880653999324,-0.14435273071263624,-0.013408576088470188,0.053755622570204796,-0.009534449692125562,0.5771101616854359,0.8166504212086155,0.0025879954422119364,0.0,0.8166159163312836,-0.5770491691009466,-0.011551992708333783,0.0,-0.00794069197442121,0.008780339697946185,-0.9999299230674897,0.0,0.6537427993379864,0.2506205355401562,0.3037962055081769,1.0,-0.017920000000000016,-0.023552000000000024,-0.008960000000000008,0.8970000000000007
0.45910005062524667,0.5028974866284076,-0.12416113009904509,-1.4255356369102135,0.07525185077890884,1.9199129707264313,0.15402670903085053,-0.017847052642398265,-0.09464143633725954,0.0010068357909541956,-0.14473228131217228,-0.015059625259745073,0.05595690068263435,-0.010931767579799617,0.5772175243629218,0.8165742456900406,0.0026791314431481124,0.0,0.8165409603294296,-0.5771562643983118,-0.011500150924552678,0.0,-0.007844600603849117,0.008825879133430053,-0.999930280619048,0.0,0.6534434294339206,0.2502431276664667,0.303849205954669,1.0,-0.018260000000000016,-0.02399885714285717,-0.009130000000000008,0.9140000000000007
0.4588722971331139,0.5011926312774305,-0.12416432688373101,-1.4280653196266955,0.07508366223322477,1.9208315114313177,0.15381553225046987,-0.016999834085388202,-0.10359734328640983,-0.000918330702438996,-0.15799520400057798,-0.01263344537846774,0.05407702727061999,-0.01831517991618835,0.5773167684451197,0.8165038401898586,0.0027522224667288365,0.0,0.8164715738425383,-0.5772553479413649,-0.011453352408387829,0.0,-0.0077631205509798296,0.008859494381969008,-0.9999306192524595,0.0,0.6531298337970993,0.24985003761166,0.3039147869832818,1.0,-0.018600000000000016,-0.02444571428571431,-0.009300000000000008,0.9310000000000007
0.45863334869969474,0.49948093042221414,-0.12416498925520904,-1.4306727461771895,0.07491903574665112,1.9217576812095758,0.153622913776789,-0.01494875411618457,-0.10133269864844534,-0.0016317420881615979,-0.15614769045887134,-0.006669011386915851,0.05269591538143587,-0.008680215307363775,0.5774430075857933,0.816414486163011,0.00277608981638109,0.0,0.8163824904223489,-0.5773814536206702,-0.011446975491101543,0.0,-0.007742762912303969,0.008876497973368216,-0.9999306262967511,0.0,0.6528001088065908,0.24944321776685494,0.30394812479418365,1.0,-0.018940000000000016,-0.024892571428571455,-0.009470000000000008,0.9480000000000007
0.4583641291906303,0.4976216427281182,-0.12416964908336335,-1.4335968671472954,0.07473602934374357,1.9228512985596597,0.15338817026020085,-0.015995548880631122,-0.09257984850138255,-0.004080181355099119,-0.15252984581973747,-0.014318149902168174,0.052335477480857054,-0.011730829558477176,0.5775628758490396,0.8163296378839038,0.0027917117562189725,0.0,0.8162978355915051,-0.5775012487793325,-0.011441073732142312,0.0,-0.0077276193319328335,0.008886978813614985,-0.9999306503488266,0.0,0.6524561597713388,0.2490143951570828,0.303945579254811,1.0,-0.019300000000000015,-0.02536571428571431,-0.009650000000000008,0.9660000000000007
0.45811760606120655,0.49605157492566343,-0.12415983290776457,-1.4361221207406503,0.07458282709078219,1.9237524538013635,0.15318993045148027,-0.015950996016908643,-0.0977989202575797,0.0017376277153812957,-0.1592595103853743,-0.01019421329625025,0.0582363736942092,-0.012235264346497342,0.5776919864827165,0.8162384169000941,0.0027499875071166167,0.0,0.8162059636665796,-0.5776303455899444,-0.011478485525529035,0.0,-0.007780854425223693,0.008875756194183987,-0.9999303372017447,0.0,0.6521173376509027,0.24858978950290422,0.30391773585960724,1.0,-0.019640000000000015,-0.025812571428571452,-0.009820000000000008,0.9830000000000008
0.45784624197259766,0.4943654943948441,-0.12415980947156112,-1.4388727128913235,0.07441570377281022,1.924693972533416,0.1529724476826069,-0.015271798859257323,-0.09791752836637392,0.002641270567950793,-0.1655988476989578,-0.006691610468477666,0.05807898538540833,-0.008306782572275434,0.5778289768786796,0.81614178989366,0.002645594398190341,0.0,0.8161078176199338,-0.5777674659618364,-0.011555613219359872,0.0,-0.007902632634928797,0.008836428562995172,-0.9999297304949426,0.0,0.6517596611582536,0.24814604592435277,0.3038646045963561,1.0,-0.019980000000000015,-0.026259428571428597,-0.009990000000000008,1.0000000000000007
0.45759087499526974,0.4926830738900688,-0.12419964454021264,-1.4415639892025782,0.07424104560005076,1.9256812694474301,0.15278310940979808,-0.014462563213446742,-0.1166140640265366,-0.0023391495981743074,-0.1740443879336138,-0.012103374601862905,0.0635008080419243,-0.005392360044886609,0.578016158003062,0.8160092888134086,0.002628413746521518,0.0,0.8159752744146442,-0.57795488166846,-0.011543535019688259,0.0,-0.007900679358522067,0.008817240149142827,-0.9999299153149814,0.0,0.6514088605999818,0.24767250536320304,0.30385186215940047,1.0,-0.022942285714285526,-0.030152718367346697,-0.023284707181713382,1.0169999999999988
0.4573094992924742,0.4906162683015625,-0.12425487134821137,-1.4448120952626127,0.07405300419743958,1.926879267000441,0.1527203215197306,-0.01731207942503703,-0.1240913449090912,-0.004925823559403071,-0.19922018056312163,-0.006977619940458755,0.06535457267641934,-0.0013253751497553376,0.5783523750100046,0.815771129488585,0.002596442645943122,0.0,0.8157368016348034,-0.5782912739853288,-0.011550748558216101,0.0,-0.007921419584096034,0.00879858608146461,-0.9999299155414543,0.0,0.6509994945661169,0.24714200748063436,0.30382647588705136,1.0,-0.02608971428571375,-0.034289338775509506,-0.03741033356228326,1.033999999999997
0.45697531572126937,0.4883349477159285,-0.12430088173974548,-1.4485307063221196,0.07385206751889567,1.9282093846627775,0.15274309145227832,-0.01967411920403982,-0.14378956786982391,-0.005990021340292841,-0.22810705801513778,-0.015320223008082773,0.07807328778704624,-0.0016601589707534313,0.5787838166065918,0.8154653188998726,0.0025207552527976122,0.0,0.8154298665571132,-0.5787227576939711,-0.01161246549798944,0.0,-0.008010898683785017,0.008776775200670578,-0.9999293943670999,0.0,0.6505482556230867,0.24657849774700255,0.30377201386234487,1.0,-0.02905199999999914,-0.03818262857142744,-0.05070504074399608,1.0499999999999952
0.4565960878366523,0.48568753426260913,-0.12440261572759354,-1.4526124321193803,0.07362270184770006,1.9297888416544149,0.1529786079029082,-0.023061995337617366,-0.16215487245845872,-0.0038123322021117686,-0.24584512070590828,-0.017310764241939332,0.09829677523462649,0.01553861758535369,0.5794986387281889,0.8149571746289044,0.002622619731813735,0.0,0.8149233630260255,-0.5794375058712147,-0.011525453800468245,0.0,-0.00787325861392052,0.008816388622685259,-0.9999301391049537,0.0,0.65006445435138,0.24589329503439833,0.3038081584317762,1.0,-0.032199428571427366,-0.04231924897959026,-0.06483066712456596,1.0669999999999933
0.45618864218648647,0.4829780483413568,-0.12447788542547442,-1.4568110885304475,0.07338069803067426,1.9313028177701763,0.15344551597964284,-0.026670848211262844,-0.17577507381661767,-0.006666464231027582,-0.2759656893919547,-0.013768701547704385,0.09219453675132044,0.03600867686962106,0.580405914050691,0.8143112553022442,0.002627037166320792,0.0,0.8142776180607201,-0.5803447844003322,-0.011516893934573787,0.0,-0.007853900251062862,0.008823780802593384,-0.999930226137401,0.0,0.6495391926620063,0.2451863318463189,0.303823560430182,1.0,-0.035161714285712756,-0.0462125387755082,-0.07812537430627878,1.0829999999999915
0.4556714861752198,0.4796240795826745,-0.12457847765334361,-1.4620584348729926,0.07308719045640416,1.9331697451939034,0.1541270113481981,-0.029931259916020365,-0.19819475815637208,-0.005404732426408295,-0.3011621944816944,-0.014580781759611035,0.10779830005236946,0.03452218798758365,0.5816306301294938,0.8134370693819246,0.0025867260624576017,0.0,0.8134029719059144,-0.5815695463452859,-0.011541878511439476,0.0,-0.007884382527640288,0.008817330499131304,-0.9999300431505331,0.0,0.6488753901983825,0.24429361803042113,0.30381615125797656,1.0,-0.038494285714283816,-0.05059248979591588,-0.0930819198857057,1.1009999999999895
0.45517670488350065,0.47639980354410655,-0.12464540714128292,-1.4670017159082172,0.07280236147842949,1.9349965431445275,0.15491972972122342,-0.03563944283348568,-0.20768942534096602,-0.006151302273084169,-0.3100274545122136,-0.017342836887194787,0.12138877316223255,0.04351670974846078,0.5829797205996174,0.8124704411874726,0.002678519634759134,0.0,0.81243767758553,-0.582918337601045,-0.01148819520519996,0.0,-0.007772610460928142,0.008873685948304469,-0.999930419691447,0.0,0.6482199549576861,0.24340785535598083,0.303870068164253,1.0,-0.041641714285712034,-0.05472911020407869,-0.10720754626627559,1.1179999999999877
0.4545885523739798,0.47272040459742243,-0.12471699618618501,-1.4726705733411185,0.07247416520357924,1.9370638409776884,0.15595378971976684,-0.036112495566911255,-0.21725101233673652,-0.004665933862786977,-0.33859397803021607,-0.019397461512961678,0.12479885964431459,0.06771760674443547,0.5844402409221017,0.8114203735641803,0.0027072231327355915,0.0,0.8113880246672638,-0.5843786328645091,-0.011481889181299701,0.0,-0.007734744373343039,0.008907258001681795,-0.9999304148211368,0.0,0.6475405387143514,0.24251027715052212,0.30388448065104956,1.0,-0.044603999999997423,-0.05862239999999663,-0.1205022534479884,1.133999999999986
0.45396867592878337,0.46879766529514183,-0.124778728221052,-1.4786500295503133,0.0721225919931434,1.939285442760296,0.15711475829190363,-0.0375944851252599,-0.2350547121176122,-0.0039472697850499875,-0.35181389112732425,-0.0254095114314703,0.13586020824464215,0.06600667579697232,0.5861180353917043,0.8102088677707711,0.002825964504780767,0.0,0.8101781760999228,-0.5860559968420189,-0.011420964850582197,0.0,-0.007597339827884797,0.008983741213564461,-0.9999307840152474,0.0,0.6467850581814839,0.24151109659135506,0.303942487875985,1.0,-0.047751428571425655,-0.06275902040815944,-0.13462787982855828,1.150999999999984
0.45334838975830694,0.4648503337325281,-0.12479105553566158,-1.4846366764953407,0.07175336253526633,1.941496608110477,0.15837264193613465,-0.041613901348412675,-0.2515786147083864,-0.000166367599201182,-0.38307980159977595,-0.026551623438650137,0.12972304191204806,0.08610269884014708,0.5879477389602942,0.8088815851110802,0.0029638523702348093,0.0,0.8088526943786464,-0.5878850932223936,-0.011365864001920644,0.0,-0.00745137692515363,0.009080028835356621,-0.9999310126495069,0.0,0.645958876819551,0.24047449242357277,0.3040161115722366,1.0,-0.05089885714285387,-0.06689564081632225,-0.14875350620912814,1.1679999999999822
0.45258479080447334,0.4602049114963796,-0.1248386991396967,-1.4919020954230766,0.07129351646969125,1.9440270944067641,0.16009271920281062,-0.04168063046501253,-0.2551694844397094,-0.0028644086691134644,-0.40938185020465245,-0.03161770655445708,0.13496112100467417,0.09172382216513393,0.5900827925883053,0.8073258215648559,0.00283947654080612,0.0,0.8072954161931291,-0.5900203346105718,-0.011439521003939215,0.0,-0.007560217351699983,0.009042734996327961,-0.9999305336159013,0.0,0.6450371130642911,0.2393176878028149,0.30397062608223013,1.0,-0.054046285714282105,-0.07103226122448505,-0.16287913258969802,1.1849999999999803
0.4518798704714042,0.4558738450045854,-0.12488371540608374,-1.4986526153437347,0.07085670927285428,1.9464411056311794,0.1617007916729064,-0.04397834615702709,-0.26846945606331624,0.0005306439100658175,-0.42840126868483985,-0.02864806869477968,0.1585574143055719,0.10509500271841399,0.5921717839920009,0.8057949617457212,0.002793701872233512,0.0,0.8057641700172933,-0.5921094329737062,-0.011457251027485366,0.0,-0.007578163825074702,0.009035899620014207,-0.999930459557612,0.0,0.6441373050691028,0.23819072253711565,0.3039470883050319,1.0,-0.05700857142856748,-0.07492555102040299,-0.17617383977141085,1.2009999999999785
0.45103767238066306,0.4509836557982392,-0.12494000431313197,-1.5060858198566696,0.07035036295805254,1.9491875982892464,0.16360580271678327,-0.04691498128775565,-0.2929055380628069,-0.0022385945400635334,-0.43549806946188035,-0.032443674805362914,0.17082161026811604,0.10559764351921425,0.594622173234232,0.8039880405721094,0.0029066503792796634,0.0,0.8039592695553426,-0.5945598630488211,-0.011349407412518725,0.0,-0.007396752586218469,0.00908561274253071,-0.9999313674909247,0.0,0.6431765428857459,0.23690806302493334,0.3040065157051554,1.0,-0.06015599999999571,-0.07906217142856581,-0.1902994661519807,1.2179999999999767
0.4501620435314308,0.44585112512985237,-0.12503693672518768,-1.5138995463651996,0.06983557787498793,1.9519874331968,0.16567067594187898,-0.04929163541137532,-0.30190978274387414,-0.008283249666408048,-0.4816073952709931,-0.034926809320879736,0.15931669798887194,0.13221630276794316,0.5972620359047255,0.8020287435043303,0.00294990864535934,0.0,0.8020009909954445,-0.5971998355443757,-0.011292199489196759,0.0,-0.007295124063585401,0.009110407117252431,-0.9999318885039394,0.0,0.6421433246753879,0.23554249743991956,0.3040509079259551,1.0,-0.06330342857142393,-0.08319879183672862,-0.2044250925325506,1.2349999999999748
0.4492134287926462,0.44055146707323645,-0.12509690683524632,-1.5222074570066617,0.06928687249007229,1.9548099644794696,0.16793300482659482,-0.05526760919598939,-0.31531388836597146,-0.0017032479158696414,-0.4967162083340391,-0.030224764132159805,0.16579152793828433,0.13326059336264787,0.6000926075200974,0.7999138129979586,0.002738809231298679,0.0,0.7998834801393064,-0.6000307793031727,-0.011411791720284958,0.0,-0.007485224104452071,0.009039034138688146,-0.9999311312695218,0.0,0.6409925201098204,0.2340948254668349,0.3039695311719375,1.0,-0.06645085714285216,-0.08733541224489143,-0.21855071891312047,1.251999999999973
0.44826327379425984,0.43532549438224205,-0.12514598905661684,-1.530197333555788,0.06877292377494709,1.9576547553300487,0.17024138877691772,-0.05844201130344279,-0.333273159894925,-0.0005867552797573704,-0.5038628813296685,-0.025434053033643392,0.18461258537946224,0.14026867515524075,0.6029375571613621,0.7977715233255112,0.0027650743916064697,0.0,0.7977416775773468,-0.6028754603883517,-0.0114079804883126,0.0,-0.007434109605027772,0.009084289872284379,-0.9999311024725137,0.0,0.6399100612435005,0.23269759048718983,0.30398364851377513,1.0,-0.06941314285713755,-0.09122870204080936,-0.23184542609483327,1.2679999999999712
0.44716916588352706,0.42957391903593234,-0.12520089576108392,-1.5389001369007418,0.06819370687998935,1.960898415727026,0.17286088192912605,-0.07042931894746689,-0.3359617286824523,-0.0027341048052751437,-0.5276609756176704,-0.027808891580935777,0.18137303217866066,0.15239765564168628,0.6061489789443002,0.7953335352526951,0.0029546452309666092,0.0,0.7953065981649012,-0.6060865394398105,-0.011281335313526568,0.0,-0.007181791865717546,0.009188195630084772,-0.9999319971511368,0.0,0.6387637519581488,0.23114642948596364,0.30404427309693877,1.0,-0.07256057142856577,-0.09536532244897218,-0.24597105247540316,1.2849999999999693
0.4462799332748153,0.4250422663338201,-0.12529384658398995,-1.5459258188059408,0.0676711779419283,1.9632495496091817,0.17497545425578181,-0.0672026700363992,-0.35693222391926566,-0.0066420819583427205,-0.5448359517387995,-0.037579311703115965,0.18641160468795845,0.17285918080993368,0.6089477879082204,0.7931934255733459,0.00274374381349546,0.0,0.7931644194020973,-0.6088863235810249,-0.011331180508919516,0.0,-0.007317330681502865,0.009076512025097197,-0.9999320344909226,0.0,0.6377079850982792,0.22973904018898778,0.3039888200588201,1.0,-0.07515257142856549,-0.09877195102040037,-0.2576039212594019,1.2989999999999677
0.4447883326511676,0.41740644749756206,-0.12543877639809245,-1.5575613121398506,0.0668533735184206,1.9672919282789698,0.17853807585969397,-0.0719798057029101,-0.3728811634887259,-0.00838950554470556,-0.5390830447396648,-0.04157052218622769,0.19738330377007743,0.16982393703587254,0.6129010715680052,0.7901430122918783,0.0026539589890850626,0.0,0.7901135583891263,-0.6128401926210097,-0.01132298808285383,0.0,-0.0073204681155478735,0.00903697449978047,-0.9999323696322965,0.0,0.6362531826078467,0.2277843800182156,0.30397378133524766,1.0,-0.07867028571427943,-0.10339523265305299,-0.27339138603768603,1.3179999999999659
0.4434619132639896,0.4109540625418389,-0.12547767227349232,-1.567194330552244,0.066202572086739,1.9708197400478855,0.1817342324398533,-0.08050495189521598,-0.3731603133774359,-0.002226877978894688,-0.5715448514859172,-0.029547393337446583,0.19249243945019665,0.1920491606166295,0.6166915153893783,0.7871872435879519,0.002926650024010778,0.0,0.78716172378249,-0.616630026129819,-0.011161468905386749,0.0,-0.006981640079451512,0.009187106931320174,-0.9999334246678793,0.0,0.6349583247916931,0.22601697426485454,0.3040831061925565,1.0,-0.08181771428570765,-0.10753185306121579,-0.2875170124182559,1.334999999999964
0.4420867465579556,0.40438982851601774,-0.12558627368238454,-1.5773189652818778,0.06551028902870801,1.9741943274112337,0.1850246682457822,-0.08186972575927297,-0.3802069650904117,-0.007095446670461693,-0.594022241206357,-0.03939027155178349,0.19764251803685765,0.18605380029582808,0.6208692920535883,0.7838972126538508,0.0026886947777862453,0.0,0.7838689028258505,-0.6208081327953314,-0.011293907161823888,0.0,-0.007184237078297295,0.009119799953986943,-0.9999326057222067,0.0,0.6334224108579403,0.22400363096538517,0.30399227940320894,1.0,-0.08515028571427871,-0.11191180408162348,-0.30247355799768283,1.352999999999962
0.4407163173810515,0.3979099205312794,-0.125707852162364,-1.5869133897815884,0.06485227496138522,1.9776434084199557,0.18830120287267274,-0.08873323070743122,-0.40976233395872136,-0.009567963056388637,-0.6042912020329281,-0.04214528869727232,0.22046156770130315,0.19868772731080636,0.6247832873490884,0.7807804817371942,0.002903461504726805,0.0,0.7807554578192939,-0.624721797454052,-0.011150684838676374,0.0,-0.0068925140922244665,0.009233832725979219,-0.9999336125876943,0.0,0.6321048682011592,0.2221630140798279,0.3040940543202863,1.0,-0.0881125714285641,-0.11580509387754141,-0.31576826517939566,1.3689999999999602
0.43918550804419243,0.390907785168772,-0.12574753039998487,-1.5974632171373355,0.06405930198272126,1.9812669803090364,0.19195781960791058,-0.09283323378297878,-0.4077305655848823,-0.0016871726611862184,-0.6231518460901715,-0.0423342146110868,0.2038791664587165,0.22177618228094434,0.6290320079348063,0.7773617125479046,0.002871891241511006,0.0,0.7773368914486126,-0.6289708137523196,-0.011127422970360817,0.0,-0.006843828570210708,0.009232109971165955,-0.9999339628975414,0.0,0.6305881334243325,0.22016260637682689,0.30409481241784675,1.0,-0.09125999999999232,-0.11994171428570423,-0.3298938915599655,1.3859999999999584
0.4375220335723175,0.3832974998504197,-0.1258240620916701,-1.6090138576185244,0.06320521079879741,1.9850290413145315,0.1960611329806239,-0.09601705262990924,-0.4327526384809869,-0.007323858058081274,-0.6256551066466998,-0.04862223538034917,0.21207359478829782,0.22828292878272438,0.6337472068336443,0.7735233448488045,0.0026191039841485225,0.0,0.7734957569167258,-0.6336865303344997,-0.011244652313567407,0.0,-0.007038445664842019,0.00915230902451121,-0.9999333455396628,0.0,0.628864730042489,0.21795636736711554,0.3040275755726718,1.0,-0.09459257142856342,-0.12432166530611197,-0.3448504371393926,1.4039999999999566
0.43597583003738516,0.376274629563778,-0.12585639002982368,-1.6193435919271335,0.06246601158505587,1.9887392400884434,0.19975391225582845,-0.0983756005532405,-0.43584629426031996,-0.0006854028541937629,-0.6569973005397036,-0.0455640806970966,0.22717018276151366,0.23990557755361658,0.6379820729838813,0.770033267748282,0.002896206708851409,0.0,0.7700095738548313,-0.6379206975345544,-0.01109895175846536,0.0,-0.006699140866457842,0.00931121841429998,-0.9999342091974314,0.0,0.6273825386634131,0.2160012093321925,0.30412774466641146,1.0,-0.09755485714284881,-0.1282149551020299,-0.35814514432110545,1.4199999999999549
0.43433568196183786,0.3691695645831792,-0.12591343691695783,-1.6300898002300128,0.061651308880312186,1.9922474756654738,0.20370027016021627,-0.10294216703531389,-0.44020229314197457,-0.007357410332403489,-0.68840827259526,-0.04860448045278748,0.21612066326907417,0.23264225385582707,0.6427313806314057,0.7660743904321191,0.002673495261317633,0.0,0.7660484254376645,-0.6426705618032017,-0.011185069389152633,0.0,-0.006850550406990619,0.00923719977101535,-0.9999338698631582,0.0,0.6256574777125428,0.21378182344319557,0.30405335080996476,1.0,-0.10070228571427704,-0.1323515755101927,-0.37227077070167536,1.436999999999953
0.4325478454944205,0.3613512673150299,-0.1260305501623327,-1.6415505250693982,0.06075646325407902,1.9961864955432298,0.20795388538651172,-0.10535300498598539,-0.46040650443224895,-0.004076695404656109,-0.6743727586019488,-0.052397185563361856,0.23781571138756452,0.24845501867630992,0.6473064123138713,0.7622120379286791,0.002822182694713726,0.0,0.7621887679347806,-0.6472457613703227,-0.011043247865557899,0.0,-0.006590777566883921,0.009299580152853204,-0.9999350376199669,0.0,0.6240675528750007,0.21163946697531458,0.30414293989406815,1.0,-0.10366457142856243,-0.13624486530611063,-0.3855654778833882,1.4529999999999512
0.43074374687496164,0.35389454096093526,-0.12605902029207627,-1.652687861143186,0.05991286455099648,1.9998420608368115,0.21216485975183275,-0.11433559443160307,-0.46653399142849583,-0.002553665733723714,-0.6965697433647597,-0.049009628798427275,0.2240933367735751,0.26247823901408335,0.6523271033003943,0.757920044063438,0.0027025927923028954,0.0,0.7578955742128242,-0.6522664017144092,-0.011116954815004474,0.0,-0.006663080692255519,0.009300353108796289,-0.999934551252101,0.0,0.6222501342983203,0.20930555674297857,0.3040964514324766,1.0,-0.10681199999999065,-0.14038148571427345,-0.39969110426395804,1.4699999999999493
0.4286030545051497,0.3452606220271443,-0.12617854469476614,-1.6653459846844154,0.05895826100443958,2.0040364157037027,0.2171148667823897,-0.11725236292644467,-0.4963428482264569,-0.010013464903855188,-0.6842898256960672,-0.05287250973730565,0.24274230661329335,0.2731250364927054,0.6576199562848956,0.7533320385033927,0.002753136644476347,0.0,0.7533087547654206,-0.6575591627595879,-0.011073137129538618,0.0,-0.006531524491604712,0.009356058025522876,-0.999934899563986,0.0,0.6204382582733909,0.20685195132366113,0.3041493295908487,1.0,-0.10995942857141888,-0.14451810612243626,-0.4138167306445279,1.4869999999999475
0.4265332432709017,0.33696697564325,-0.12620937254342923,-1.67749908036162,0.0580123713558122,2.008129837104009,0.22192951749782075,-0.1229333077203499,-0.48900698568217116,-0.0015458089335028645,-0.7275755440548021,-0.06036980097808126,0.2388792374853345,0.29009182563178576,0.6629272264706809,0.748665545138833,0.002853213464263569,0.0,0.7486440148541704,-0.6628661876583032,-0.011013772450166036,0.0,-0.006354455566767725,0.009437552508620814,-0.9999352746538632,0.0,0.6185667511802687,0.20441561231666228,0.3041823668,1.0,-0.1131068571428471,-0.14865472653059908,-0.4279423570250978,1.5039999999999456
0.42436577877302883,0.3284670765946435,-0.12622682822128364,-1.6899364031269477,0.05699871056823818,2.012101029103227,0.22690670683174768,-0.12796514979153964,-0.5038576244874653,-0.0036436459895803678,-0.7214325493145596,-0.06160356643857133,0.25083154118419443,0.2969577630417884,0.6683607816514451,0.7438191772862048,0.0027647699273063587,0.0,0.7437970929827386,-0.6682999041981894,-0.011039448370562676,0.0,-0.0063637804496302075,0.009434943828552228,-0.9999352399697398,0.0,0.6165884626469051,0.20189190288797726,0.3041863956749875,1.0,-0.11625428571427532,-0.1527913469387619,-0.44206798340566766,1.5209999999999437
0.4221183079127689,0.31984315188412477,-0.12623164543082951,-1.7025131937904232,0.05596630189071092,2.0162723784538765,0.2320266942573759,-0.13613772893417073,-0.5062422351024012,-0.001181665001590134,-0.7304166341015,-0.05484105096064582,0.23792934968303744,0.298743045728322,0.6739019046593044,0.7388023692524143,0.002833546327333264,0.0,0.7387817939333852,-0.6738410430818981,-0.010975268200686405,0.0,-0.006199313693015518,0.009489809291725715,-0.9999357539508936,0.0,0.6146000850005192,0.19933305124141096,0.30420325322408126,1.0,-0.11940171428570355,-0.1569279673469247,-0.4561936097862375,1.5379999999999419
0.419759285733593,0.3110167985111842,-0.12628926578927763,-1.715353191621313,0.05494599893258156,2.0203215528507705,0.23737447394523228,-0.14209147850703954,-0.5186452668908801,-0.003470232186016627,-0.718859020196451,-0.06208798026590798,0.23678403062537434,0.3124433612005377,0.679689837567143,0.7334813384079403,0.0027564136945832964,0.0,0.7334601808333758,-0.6796287878728503,-0.01102817879617988,0.0,-0.006215744917849209,0.009517643985657478,-0.999935387396645,0.0,0.6125192767399565,0.19665576992140024,0.30419752532444216,1.0,-0.12254914285713177,-0.1610645877550875,-0.47031923616680743,1.55499999999994
0.41730147183619515,0.302032786517116,-0.1263520530308578,-1.7283090874781237,0.05382143480184927,2.0245209768573655,0.2428139694061212,-0.1484407281655856,-0.5159678105004066,0.0017945912964154396,-0.7690238594781671,-0.06570380037889101,0.24124916436105998,0.32328793129598526,0.6855360761756858,0.7280200301496352,0.0028055059751376675,0.0,0.7280004648225623,-0.6854755560213671,-0.010923928622023554,0.0,-0.006029849169811086,0.009531340325764859,-0.9999363952125074,0.0,0.6104332989429503,0.19391127498360147,0.3042306426857492,1.0,-0.12569657142856,-0.16520120816325032,-0.4844448625473773,1.5719999999999381
0.41481423832648384,0.29344503573443237,-0.12644454879354455,-1.7407819253880517,0.05281142166106324,2.028335890086797,0.24804098690956244,-0.1626845855330679,-0.5427497542879107,-0.00880846057171557,-0.7364678784759815,-0.0632381506341593,0.2506792966321862,0.3217738460252446,0.6908634071074797,0.7229672993365005,0.0026045558430518034,0.0,0.722945630749281,-0.6908029713780149,-0.011027992430082241,0.0,-0.0061737618528266425,0.009501971632977502,-0.999935796538793,0.0,0.6084964887256392,0.19135478934728486,0.3041716596554107,1.0,-0.12847371428570256,-0.1688511673469234,-0.49690865053023303,1.5869999999999365
0.41227692932584736,0.2846869735236762,-0.12655508258193507,-1.7532541899552498,0.0517724702208646,2.032343742404026,0.2534993218339274,-0.15908828731349164,-0.5342038565493056,-0.00401651442673474,-0.7828957875468094,-0.06761537650140713,0.23760053676563328,0.33503361435357176,0.6970867290151433,0.7169680321472562,0.002771283288983884,0.0,0.7169490807180324,-0.6970260613243482,-0.010928512865113323,0.0,-0.00590385135489524,0.00960517522197546,-0.9999364405541658,0.0,0.6063414264416369,0.1884445064860783,0.30424373472710675,1.0,-0.13162114285713078,-0.1729877877550862,-0.5110342769108029,1.6039999999999346
0.4094613676997353,0.2752471502169946,-0.1266008372495358,-1.766823241899855,0.05058021773703143,2.036452394900762,0.25938896097900943,-0.17134247062313723,-0.5575595376195367,-0.0049090530163500064,-0.7660336129848625,-0.07365996463425094,0.24320545841530064,0.34529909473846915,0.7036874069409392,0.7104912500587075,0.002638902036902772,0.0,0.7104714720383111,-0.7036271549049684,-0.010948114050537267,0.0,-0.005921850119218142,0.009579099029179375,-0.9999365842656996,0.0,0.6039162908225693,0.18529411597516074,0.30422035551615595,1.0,-0.13495371428570185,-0.1773677387754939,-0.5259908224902299,1.6219999999999326
0.40652326234047936,0.2656530705195641,-0.12670137184777575,-1.7803371820329572,0.049377500982613884,2.040739089049191,0.2654715500244998,-0.17621985930620143,-0.5552649204387177,-0.010379032342438428,-0.8089256558953267,-0.06925972521135694,0.2485696077956966,0.3521118427014801,0.7097401576407905,0.7044444162652379,0.002778475474509802,0.0,0.7044272025207927,-0.7096801154573795,-0.010825755139418363,0.0,-0.005654422829433681,0.009640892482068356,-0.9999375383965816,0.0,0.6017969442556569,0.18241126171541,0.30428297171052954,1.0,-0.13791599999998724,-0.18126102857141183,-0.5392855296719428,1.6379999999999308
0.40344910416439167,0.2559097491322622,-0.1268501391457731,-1.7941677027438554,0.04813973215801293,2.0448406779482307,0.27170777627141623,-0.1855288816157438,-0.5768845033959745,-0.009919692526057285,-0.792811031943877,-0.06743772513569665,0.2505300487081135,0.3697190443606993,0.7163186980283348,0.6977544928851286,0.002633897267623345,0.0,0.697736370715471,-0.7162591762889284,-0.010839569360297441,0.0,-0.00567691443294438,0.009602537010298715,-0.999937780027081,0.0,0.5994222912566902,0.17922199939228795,0.30426499130688056,1.0,-0.1410634285714155,-0.1853976489795747,-0.5534111560525128,1.6549999999999292
0.4002586535908175,0.2460272638496127,-0.1269225693891522,-1.8080726753156326,0.04685077048418392,2.049114874546768,0.27810675120400924,-0.1877047800960923,-0.5844614811418632,-0.0020799351365123394,-0.7911377215422173,-0.07864946084660136,0.23956818218707415,0.3675515129107604,0.7229476648292791,0.6908836206155028,0.002691390776985543,0.0,0.6908671696242973,-0.7228886098477166,-0.0107405115779644,0.0,-0.005474973199114497,0.009624406592461082,-0.9999386958540069,0.0,0.5970356024884704,0.1760246184171768,0.3042863272072663,1.0,-0.14421085714284373,-0.1895342693877375,-0.5675367824330827,1.6719999999999273
0.3967753384861386,0.23530187153574128,-0.12694268622174226,-1.8229260996574304,0.04554501818314027,2.0535647841096307,0.2849838413586493,-0.19695664257714673,-0.6184301965511735,0.0007766810758650635,-0.8368027804114173,-0.07803659550158516,0.25632842140905443,0.3938541249595228,0.7300035126867964,0.6834233694391257,0.0028489420174742297,0.0,0.6834092227799885,-0.7299437583577703,-0.01070937696569466,0.0,-0.005239571924906206,0.009765064061294543,-0.9999385933195712,0.0,0.5944256088359987,0.1726275529108039,0.3043726013039777,1.0,-0.14754342857141478,-0.19391422040814518,-0.5824933280125096,1.6899999999999253
0.39361857653247945,0.22574886602103783,-0.12692618031130692,-1.8363455554000898,0.044298199922124464,2.0575261056612826,0.29119949100003256,-0.1983747246625163,-0.6034312666911298,0.0015267041868236373,-0.8569037768104112,-0.08007307566740214,0.24625697412906708,0.3934301315156035,0.7362621185000067,0.6766764821388787,0.0027889573754840604,0.0,0.6766622443920287,-0.736202444801725,-0.010719803333725967,0.0,-0.005200701700430799,0.009779955564051923,-0.9999386507036262,0.0,0.5920131819995751,0.1695807224786517,0.3043338074467381,1.0,-0.15050571428570017,-0.19780751020406312,-0.5957880351942224,1.7059999999999236
0.3900713523344294,0.21532339379253967,-0.12695933122833597,-1.8506349070007475,0.04292748062219974,2.0616222586663118,0.29802163175336893,-0.2158136590582096,-0.617633858876112,-0.005510452786028562,-0.8228052624182237,-0.07825535027770195,0.24760676596940515,0.4031039082444309,0.7431218596155617,0.6691357183108511,0.0028353383112208553,0.0,0.6691228209584047,-0.7430623434969552,-0.010665413760744855,0.0,-0.0050298730083780385,0.00982308080137477,-0.9999391018762538,0.0,0.5894288083218812,0.1662112081333051,0.30440913975721484,1.0,-0.15365314285712842,-0.20194413061222594,-0.6099136615747923,1.7229999999999217
0.3866154720945215,0.20552717536160497,-0.1270465936968848,-1.8642644542077311,0.041675496491615525,2.065466454986737,0.30453687425887993,-0.22023848297328602,-0.6080036534394715,-0.0025179615773653855,-0.8595994043513093,-0.0842137414564467,0.24768127064696538,0.41180444530954025,0.7496856885785961,0.6617739709355779,0.0027067755358575014,0.0,0.661760061264687,-0.7496260353892428,-0.010731974784339838,0.0,-0.005073169829619584,0.009837033243817642,-0.9999387459863929,0.0,0.5869282154551798,0.1629494175398125,0.30435876912378934,1.0,-0.15661542857141378,-0.20583742040814387,-0.6232083687565051,1.73899999999992
0.3828121916582384,0.19485986300613906,-0.12707974607217254,-1.8787244846697235,0.040261313573241496,2.069606537398315,0.31158595955717816,-0.2257122884500951,-0.6361236363797422,0.001821238025978426,-0.8535840777385111,-0.08270143637887462,0.24737065016818705,0.40781379501669773,0.7566685136684708,0.653777754240819,0.0028557632582306195,0.0,0.6537664197804012,-0.7566089339006525,-0.010636560085049603,0.0,-0.0047933426576685645,0.009915543136105306,-0.9999393510960964,0.0,0.58426990931268,0.15946396621688166,0.30444553817164843,1.0,-0.15976285714284202,-0.20997404081630666,-0.637333995137075,1.755999999999918
0.37880716061497943,0.18418040336220246,-0.12718721902973873,-1.8934677070581254,0.038855855391827884,2.0735974872306095,0.31879885755978066,-0.23691911568915489,-0.6187020868863727,-0.005781912065024941,-0.8725289264876429,-0.08070202229768302,0.22706747387566192,0.4150774790881641,0.7638408885089598,0.6453843243411044,0.002630178288110915,0.0,0.6453709525998017,-0.7637813279568477,-0.010731426098475723,0.0,-0.004917107785686492,0.009894733217609572,-0.9999389562896206,0.0,0.5814940826942884,0.15581485409125045,0.30436427632340396,1.0,-0.16291028571427024,-0.21411066122446948,-0.6514596215176449,1.7729999999999162
0.37463142905773095,0.17325597909878224,-0.12731599759009335,-1.9081097331718921,0.03741071832663269,2.077702942529466,0.32603328365262463,-0.24301590426135336,-0.6428054979481296,-0.0036455191451315798,-0.8611859108706862,-0.08318259409928572,0.24120784530667627,0.4155047861973365,0.7710263548667218,0.6367818833022693,0.002817818333234053,0.0,0.6367715365683697,-0.7709667967817987,-0.010628046743313857,0.0,-0.0045953917222762986,0.009989002968935345,-0.9999395492701574,0.0,0.5787660753892673,0.1520977046897497,0.30445358067794237,1.0,-0.16605771428569846,-0.2182472816326323,-0.6655852478982147,1.7899999999999143
0.37063101682251676,0.1629718082121331,-0.1273334295191518,-1.9221749764043883,0.03592243663921404,2.081364906593017,0.3330489781542089,-0.24922367751698496,-0.6516028481753935,-0.000932910033882211,-0.8692575434353613,-0.09129285042716524,0.222392577110459,0.43429056679333605,0.7777606269176442,0.6285402285531237,0.0025169839626480606,0.0,0.6285273474539248,-0.7777019775288031,-0.010665577880753882,0.0,-0.00474637273604378,0.009877449964121293,-0.9999399521611572,0.0,0.5760257194734895,0.14859560438602773,0.3043572359776565,1.0,-0.16901999999998385,-0.22214057142855023,-0.6788799550799276,1.8059999999999126
0.3659745996816271,0.1511468021754229,-0.12733457504762194,-1.9378120679240922,0.03428108547236753,2.085647688353361,0.34107028578612486,-0.2635398024730302,-0.6426855142802763,0.0003232097967385309,-0.8748231224527839,-0.09147389267284177,0.2302287283065263,0.45248486311982195,0.7853864010926793,0.6189841373140123,0.00275420288380993,0.0,0.61897499922323,-0.7853280085588857,-0.01051742414974163,0.0,-0.004347249746212589,0.009965216490895254,-0.9999408961933369,0.0,0.5730131002096636,0.1446440934167701,0.3044630909603504,1.0,-0.17235257142855492,-0.22652052244895793,-0.6938365006593545,1.8239999999999106
0.36161401623941164,0.14053936057513286,-0.1273852815407927,-1.951957100202865,0.03283084712121066,2.0892439720766287,0.3482752540612262,-0.27552535074690937,-0.6699782460018342,-0.0015142062120929427,-0.8425624311377831,-0.09213195732352926,0.22727902540207015,0.4365103289521527,0.7922674055205838,0.6101525156275279,0.0026481548840971226,0.0,0.6101427984813139,-0.7922089655783487,-0.010557803743282947,0.0,-0.0043440621087009745,0.00998054856796883,-0.9999407571324803,0.0,0.5702119978910035,0.1409816409294566,0.30444838826470905,1.0,-0.1753148571428403,-0.23041381224487587,-0.7071312078410673,1.8399999999999088
0.3577165918196834,0.13115517645526556,-0.12746659838093718,-1.9642736896549207,0.031562686858418953,2.0925092377120555,0.35471647140089574,-0.28697849355609517,-0.6794015131931593,0.0003002751999221596,-0.8486506359781334,-0.08649407197743698,0.22485317908015012,0.4586786581219839,0.7983488628097657,0.6021726557756434,0.002816520489989478,0.0,0.6021654926492988,-0.7982902944206746,-0.010491529792575213,0.0,-0.004069389735511353,0.010072106246705126,-0.999940994630651,0.0,0.567789435193054,0.13774873388671727,0.304507020974171,1.0,-0.17790685714284002,-0.23382044081630404,-0.718764076625066,1.8539999999999073
0.3521845097445188,0.11822828794186892,-0.12761027146038298,-1.9811798873442945,0.02968997667747031,2.0967443543159363,0.36345872100436727,-0.29512896090602947,-0.679771098004359,-0.012112258246406615,-0.8674146020720823,-0.09328129482467068,0.2330961027515497,0.47200077205844504,0.8065761746074296,0.5911071253760348,0.00282626724390525,0.0,0.5911012465244798,-0.8065184527947643,-0.0103946409247111,0.0,-0.0038649840445026395,0.010054873391825772,-0.9999419790264883,0.0,0.5643945042294357,0.1332053062209364,0.3045505462528514,1.0,-0.18142457142855395,-0.23844372244895665,-0.7345515414033502,1.8729999999999054
0.3470007748045209,0.10661758066243693,-0.12772003872486334,-1.9964521210682864,0.028034160190106253,2.100432184427037,0.37140250135543423,-0.3060228298014471,-0.6921410487813277,-0.0005044064646145567,-0.8912932094739042,-0.09949995624129511,0.2146054436862447,0.48192698674156637,0.813993497867888,0.5808513064790402,0.0026630981208370617,0.0,0.580844409504468,-0.8139360468852614,-0.010422592259483273,0.0,-0.0038864596002681218,0.01003096111268291,-0.9999421359513416,0.0,0.5612647895651129,0.1290513694909855,0.3044973903464659,1.0,-0.18457199999998217,-0.24258034285711946,-0.74867716778392,1.8899999999999035
0.3417504326499892,0.0948131864689779,-0.12772784306282464,-2.011586417044621,0.026335300061053647,2.1041356454685536,0.3794962736166772,-0.3136302211701584,-0.6852380452870042,-0.0008486865270291533,-0.8775477120397847,-0.0937429322615679,0.21466798165927128,0.4681849369209331,0.8213160453752046,0.5704496058669848,0.0028191624012592993,0.0,0.5704453759114456,-0.821258934645744,-0.010323868799785408,0.0,-0.0035740533892114623,0.010087531467593919,-0.9999427322858351,0.0,0.5581343934959356,0.12496956220719614,0.30457876741526657,1.0,-0.1877194285714104,-0.24671696326528228,-0.7628027941644899,1.9069999999999017
0.33597449758183073,0.08229099565139397,-0.12773536291719761,-2.0278612183932188,0.02460051221198577,2.1078259168169557,0.38815559581012765,-0.3247174690457253,-0.7037377848358152,-0.0016336265500997843,-0.8720516928321884,-0.10047849216065367,0.20076267824889052,0.4776074284286933,0.8290980769063947,0.5590799842801066,0.0025878463404665226,0.0,0.5590737184182242,-0.8290403746968109,-0.010458556200527151,0.0,-0.0037018116077698893,0.010118160515278113,-0.9999419580248683,0.0,0.554661354003454,0.12055763809571458,0.3044980817571445,1.0,-0.19105199999998146,-0.2510969142856899,-0.7777593397439169,1.9249999999998997
0.3306099160505256,0.07094414832063584,-0.1277645536784632,-2.0421745193960987,0.022935553236845162,2.111221720438052,0.39593646756887907,-0.3392887311591014,-0.6912176968911011,-0.004332046935659966,-0.903304636308573,-0.09110749198540308,0.19298158257237782,0.48718602287237034,0.8360173866428242,0.5486782541730433,0.002801701221073995,0.0,0.5486753313674013,-0.835960190765141,-0.010328945056959006,0.0,-0.0033252208748717482,0.010172597853192827,-0.999942728939538,0.0,0.5516394293374505,0.11654314951161375,0.3045888158264082,1.0,-0.19401428571426685,-0.2549902040816079,-0.7910540469256296,1.940999999999898
0.324665863231228,0.05879518539014952,-0.12790267728564347,-2.057544724874876,0.021116888841930793,2.1146016990347496,0.4041801203762284,-0.3614365999139714,-0.7285211637600135,-0.012382790584123225,-0.8768718952602353,-0.10564473294603809,0.2047668179999958,0.4794378794183307,0.8433737511404897,0.5373024535301207,0.002745217466780962,0.0,0.5372998941881919,-0.8433172216783538,-0.01027785129628242,0.0,-0.003207287301740913,0.010143270345220876,-0.9999434120863377,0.0,0.5483207865172364,0.1121076481038698,0.30460056123698204,1.0,-0.19716171428569507,-0.2591268244897707,-0.8051796733061996,1.957999999999896
0.31892959139181676,0.04731662111414045,-0.12798545059375524,-2.071997778065041,0.019466076901882293,2.117795337507328,0.4120933923238909,-0.35315628013292916,-0.712890966138364,-0.00037659895881363495,-0.9026435770421363,-0.09850409290489595,0.19922652611614608,0.49472948832070907,0.8507176664901726,0.5255972121747248,0.0027873601994903184,0.0,0.5255958891830266,-0.8506610635196779,-0.010269527091481528,0.0,-0.003026594289243456,0.010201689599884989,-0.9999433810253039,0.0,0.54495940176121,0.1076840824651988,0.3046051519113907,1.0,-0.19998000000000002,-0.2628308571428572,-0.8178281100000001,1.9749999999998946
0.3127130510038302,0.035019887856097366,-0.12798500591837336,-2.0872648948928973,0.017685870290837933,2.1209999194376468,0.42055364598802847,-0.37090794762423374,-0.7271630990712338,-0.0012460700241986942,-0.892066202421352,-0.10521915690237478,0.18496446567720698,0.49921823568868434,0.8575022634790498,0.5144537420003781,0.0028217674112553898,0.0,0.5144535197360994,-0.8574455830989545,-0.010266204578169777,0.0,-0.00286203046102268,0.010255159283311319,-0.9999433186384687,0.0,0.5417567578926045,0.10354530487418986,0.3046402254835561,1.0,-0.19998000000000002,-0.2628308571428572,-0.8178281100000001,1.9909999999998929
0.306242804215239,0.02286744479914369,-0.12801960190637993,-2.102473577769751,0.015803261921160904,2.1240155753801804,0.42884776342798864,-0.3809741676932882,-0.703840472146701,0.00012744263950661543,-0.8734494151397058,-0.10862074586548634,0.17215045864381331,0.47456854533482534,0.8645696866164608,0.5024871894757208,0.0025745480989270296,0.0,0.5024852323337868,-0.8645137312056528,-0.010263856222139756,0.0,-0.0029317805289342247,0.010167687116580185,-0.9999440098333654,0.0,0.5383035986106044,0.09903313178894267,0.3045639673577125,1.0,-0.19998000000000002,-0.2628308571428572,-0.8178281100000001,2.007999999999891
0.29961143298828735,0.010673944090734968,-0.1280845148831516,-2.1172256757317274,0.013963012953235385,2.127032455010788,0.4370724536428426,-0.40315403593548593,-0.7099632755170359,-0.006485269632297477,-0.84457667474388,-0.10838362344822507,0.16771959454013302,0.47236574848398616,0.8711244822477948,0.49103438340575745,0.0028491477756128376,0.0,0.4910363277654104,-0.8710691632170765,-0.010128406003445611,0.0,-0.0024916387997681033,0.01022233430835727,-0.9999446462766726,0.0,0.5351748956500815,0.09478150671148228,0.3046880484809855,1.0,-0.19998000000000002,-0.2628308571428572,-0.8178281100000001,2.0239999999998894
0.2932451196536751,-0.0006284298914413099,-0.1281613338572711,-2.1310762185330128,0.012326034424621005,2.1295741547821674,0.4447481315553479,-0.38881328887135713,-0.6958803566791042,0.0001248116823462219,-0.8229113107600597,-0.10551619773085233,0.15975912398694725,0.4700013108898223,0.8779633715033384,0.47870033724549327,0.0026556205961258245,0.0,0.4787008380706743,-0.8779075614908987,-0.010225850025607223,0.0,-0.0025637778147576396,0.010249366902006327,-0.9999441872031782,0.0,0.5317384945788677,0.09023618486292866,0.30463254031457276,1.0,-0.19998000000000002,-0.2628308571428572,-0.8178281100000001,2.0409999999998876
0.28610960922320794,-0.013322854471133664,-0.12812134154392674,-2.146259838558129,0.010416545683151738,2.1325195569908826,0.4532161164075996,-0.3956020843786819,-0.6812867473740258,0.0016990390704327667,-0.8575228683998773,-0.09989491046233549,0.143283744785933,0.46599826677121864,0.8848413769576542,0.4658627262469278,0.002899106529614532,0.0,0.4658667821090527,-0.8847860852198287,-0.010122827171041762,0.0,-0.0021508001558230294,0.010307892221539078,-0.9999445591714766,0.0,0.5281891186429559,0.08558765304959855,0.30471740123413976,1.0,-0.19998000000000002,-0.2628308571428572,-0.8178281100000001,2.0589999999998856
0.280402191314501,-0.023117269663178897,-0.12814199655920963,-2.1580969802237835,0.008864915620649071,2.1344776711325464,0.45978393455182126,-0.4098422796005376,-0.7093623354166124,-0.0030403463081322027,-0.8122895992164597,-0.10652632145372831,0.14062121431418123,0.47578102101660885,0.8901225212224073,0.45569243104104645,0.0026556366043834568,0.0,0.4556946103537017,-0.8900677649092275,-0.010126345110088284,0.0,-0.0022508456196549953,0.010224043972364177,-0.9999451998078933,0.0,0.5253276217327886,0.0818866529687522,0.3046654264849199,1.0,-0.19998000000000002,-0.2628308571428572,-0.8178281100000001,2.072999999999884
0.2724615055744291,-0.03635313922280696,-0.12818953169323702,-2.173702711101184,0.006859220491072876,2.137255455981362,0.46854611821968395,-0.427383942135929,-0.6888423352057016,-0.0015956750697801712,-0.7930489289307158,-0.10230494748690862,0.12441780934680034,0.44817112616054283,0.8971418819475905,0.4417115115048782,0.0028515190372842493,0.0,0.44171672133518824,-0.8970876237565719,-0.010043918403045032,0.0,-0.0018784881087038352,0.010270581238725165,-0.9999454917361466,0.0,0.5215849774612201,0.07685712092541008,0.30473802275323875,1.0,-0.19998000000000002,-0.2628308571428572,-0.8178281100000001,2.0919999999998824
0.2656790722880081,-0.047405514818977826,-0.12820885321189693,-2.1867793154020303,0.005272510528449936,2.1393161263946365,0.4758316064840833,-0.41887777258287723,-0.6859941400252387,-0.0005483593807632133,-0.7678549822829382,-0.10421058991587112,0.13697366770549546,0.4504036927852138,0.902888059282338,0.42984453944767936,0.0027515838337968117,0.0,0.42984925113865835,-0.9028330181497728,-0.010144433710901188,0.0,-0.0018763448245132652,0.010342253436583827,-0.999944757036084,0.0,0.5183501895236585,0.07264987735079129,0.30471373305309857,1.0,-0.19998000000000002,-0.2628308571428572,-0.8178281100000001,2.1079999999998806
0.25801951553802727,-0.05972650120006914,-0.1281804976492581,-2.2011861054883566,0.003326923897889944,2.1416039228022377,0.4838256739172953,-0.4211740052771817,-0.6700223982172155,0.00335776541432435,-0.814002777294062,-0.1001148332988993,0.11607175605005594,0.44690866035177435,0.9090256728716494,0.4167079229518853,0.002753163740006908,0.0,0.4167135835770869,-0.9089715195771655,-0.010065424041206993,0.0,-0.0016918270903565347,0.01029720784322933,-0.9999455511335253,0.0,0.5147561567568377,0.0679840622007798,0.304718838381289,1.0,-0.19998000000000002,-0.2628308571428572,-0.8178281100000001,2.125999999999879
0.2514885407835432,-0.0699669850658716,-0.12817913768895167,-2.2130948318363566,0.0017494938736801627,2.1432722540975884,0.49046199528912443,-0.4335946891398775,-0.6877253602787048,-0.0009642504796158604,-0.7964367529251615,-0.0981535668883116,0.11652487456684962,0.43391189910684996,0.9140544503735657,0.40555938234749517,0.0026069222092258777,0.0,0.4055641685809325,-0.9140004173712981,-0.010084101822070243,0.0,-0.0017070069843750368,0.01027489021029964,-0.9999457549078958,0.0,0.5117138974860165,0.06406472690805141,0.304696321743569,1.0,-0.19998000000000002,-0.2628308571428572,-0.8178281100000001,2.1409999999998774
0.24384317804100494,-0.08151760581265313,-0.12826705387712706,-2.226307928834948,-1.1436521908012749e-05,2.145255808565648,0.4979118252388292,-0.4551580333104199,-0.6642433555126617,-0.00493060163130036,-0.797283537369796,-0.10936822004177736,0.10329731177925322,0.4291741811711851,0.9196889953415852,0.3926134155030197,0.0027576649265543293,0.0,0.39262058881196643,-0.9196353064186338,-0.010036101357531755,0.0,-0.0014042890394990182,0.010313006559198687,-0.9999458334669951,0.0,0.5083571783188177,0.05952891459622104,0.3047398466900295,1.0,-0.19998000000000002,-0.2628308571428572,-0.8178281100000001,2.1579999999998756
0.23665041067102488,-0.09227066372420965,-0.12823225490194062,-2.238665637204177,-0.0016071462518545494,2.1468227371481174,0.5047717774022757,-0.4496775161061176,-0.6633584874529863,0.007075771828366498,-0.7372661713498405,-0.09283634734225517,0.09929018567931922,0.42727594260468654,0.9247264312570895,0.38059832278195416,0.002586683455426406,0.0,0.3806043208520537,-0.9246722616986306,-0.01011465743831381,0.0,-0.0014578152829702318,0.010337993014532545,-0.9999454988523284,0.0,0.5051073002867547,0.05538193436613172,0.3046928757542031,1.0,-0.19998000000000002,-0.2628308571428572,-0.8178281100000001,2.1739999999998743
0.22887677210527457,-0.10367812778051945,-0.12823767455980614,-2.2514652683550893,-0.0034718783412366738,2.1485496377566857,0.5119634880858643,-0.46642079003197284,-0.6558731760190911,-0.002107363663552354,-0.7537207899761795,-0.10624887285108293,0.08818944439262355,0.4185241462415702,0.9298939604853049,0.36779139923473353,0.0027305316550087825,0.0,0.3677998169563363,-0.9298413000936201,-0.009959828728453917,0.0,-0.0011241998844676027,0.010266071278647579,-0.9999466705555459,0.0,0.5017488164860217,0.050940460139113214,0.3047495773749736,1.0,-0.19998000000000002,-0.2628308571428572,-0.8178281100000001,2.1909999999998724
0.2209039988226485,-0.11498209959433137,-0.1282883680441901,-2.2642362358113797,-0.005228292413252496,2.149954405966445,0.5189805563905032,-0.4797764313004196,-0.6728087309980351,-0.009323472167245613,-0.7166379925489835,-0.10188406312402176,0.08647336870852618,0.4104039263433333,0.9349223785551564,0.3548162163693143,0.002519043338466908,0.0,0.3548231609601333,-0.9348697342946803,-0.009992559595109092,0.0,-0.0011905677329903108,0.010236279584566035,-0.9999468991545201,0.0,0.4982940700508516,0.046448849923311164,0.304698353210335,1.0,-0.19998000000000002,-0.2628308571428572,-0.8178281100000001,2.2079999999998705
0.21278174425443563,-0.12623795529874984,-0.12834646840365097,-2.2766578678659206,-0.006907469801872381,2.151450867129058,0.5258566115089098,-0.46939933629482644,-0.6478905218290397,0.002120694671494632,-0.7354965281300518,-0.10096105968852065,0.07512194598055698,0.3977238719390309,0.9397837705586553,0.341730730677194,0.00270540322248275,0.0,0.3417403370985287,-0.9397311815858966,-0.009979742289598656,0.0,-0.0008680495703087265,0.010303543622504664,-0.9999465403104121,0.0,0.494939066577119,0.04196551032966682,0.3047498272684335,1.0,-0.19998000000000002,-0.2628308571428572,-0.8178281100000001,2.2249999999998686
0.20409399270106698,-0.13804544657696266,-0.12835576772699162,-2.289701926024569,-0.00878388142259637,2.1527379617578712,0.5330873808926692,-0.48206832221841006,-0.6454597139813654,-0.0006353089091454005,-0.6916287128312294,-0.10550997580111622,0.07705771886513571,0.38742204518727125,0.9447026000734107,0.32788873937621793,0.0025920852648986595,0.0,0.3278979792021825,-0.9446506054263835,-0.009944636941622296,0.0,-0.000812135191658403,0.010244861141140368,-0.999947190233879,0.0,0.4913117167890908,0.0372562919649877,0.3047298308083911,1.0,-0.19998000000000002,-0.2628308571428572,-0.8178281100000001,2.2429999999998667
0.1962309329978253,-0.14851915100468288,-0.12837671364226147,-2.3009669328410394,-0.01038106512813594,2.153893186476821,0.5393580120282471,-0.4918949407569917,-0.6476381776967488,-0.004696956185798038,-0.7036200958251037,-0.0959720117739099,0.07139081561372561,0.39092610810697226,0.9489103504256231,0.3155026989738978,0.0028179241500510014,0.0,0.3155149673183765,-0.9488589229390743,-0.009889219291337008,0.0,-0.0004462714953292757,0.010273277581715631,-0.9999471289070645,0.0,0.48816746687200646,0.033072520243143694,0.3048149638383954,1.0,-0.19998000000000002,-0.2628308571428572,-0.8178281100000001,2.258999999999865
0.1871844345593628,-0.1601843439060753,-0.1284844098877685,-2.313670978171877,-0.012254783487821252,2.1549156375671212,0.5462931914008945,-0.49695814248041337,-0.6441139018351209,0.004822680567474654,-0.686972773836128,-0.11052559630597716,0.05318554447338603,0.3759340189419332,0.9534809646017532,0.3014096746838804,0.0026467055514554916,0.0,0.30142095781944533,-0.9534300075525883,-0.009867815699943222,0.0,-0.0004508153056383968,0.010206743465920223,-0.9999478082146993,0.0,0.48451934213618686,0.028283936225747593,0.30477296376982926,1.0,-0.19998000000000002,-0.2628308571428572,-0.8178281100000001,2.276999999999863
0.17963496649831126,-0.1698704795609445,-0.12847835462881468,-2.3238612572588306,-0.013634607654866729,2.1558188777944793,0.5519536182090536,-0.4952257353657419,-0.6409822931328585,-0.0007923382512833941,-0.6838281164241943,-0.08758389854449758,0.05568184034206624,0.36484754623941595,0.957097191408524,0.28971895354800337,0.0029395670043594183,0.0,0.2897338618988427,-0.9570462125407697,-0.009878422533904727,0.0,-4.8665708161532706e-05,0.010306500995312218,-0.999946885423862,0.0,0.48158664936832835,0.024419613045507875,0.3048737454317743,1.0,-0.19998000000000002,-0.2628308571428572,-0.8178281100000001,2.2919999999998613
0.17191917096844267,-0.17941978815703497,-0.12848651757159033,-2.334120189868615,-0.015151096319555527,2.1564689687655316,0.557465596216329,-0.5160899953083384,-0.633518732589632,-0.0013455506864612672,-0.6769555815975177,-0.09819701706506188,0.03466589361073325,0.3678729836101478,0.9603263937085985,0.2788301690841361,0.002775113755884034,0.0,0.278843964742194,-0.9602756390537606,-0.009873564095805946,0.0,-8.817510856246047e-05,0.010255865380666696,-0.9999474033420177,0.0,0.47874750674106936,0.02076352679464933,0.3048286154070835,1.0,-0.19998000000000002,-0.2628308571428572,-0.8178281100000001,2.3059999999998597
0.16240232900656304,-0.19089861581754033,-0.12861569421879368,-2.3460692016926683,-0.016926287819707845,2.15727097030509,0.5639344235622794,-0.5268299103050785,-0.6365785489817741,-0.006944758069620956,-0.6468046518862651,-0.10347552440039641,0.0523430986371253,0.3576937525727634,0.9645787585216766,0.26374200043507945,0.002953424536301697,0.0,0.26375841100041153,-0.9645287449161029,-0.00982587188566725,0.0,0.0002571727054304085,0.010257015346904303,-0.999947362363826,0.0,0.47498668281241346,0.015694178700101032,0.3049038719752513,1.0,-0.19998000000000002,-0.2628308571428572,-0.8178281100000001,2.3249999999998576
0.15290621583864575,-0.20215873052164196,-0.12862416971591442,-2.357910089121216,-0.01870351538064442,2.157923888584094,0.5703184189681595,-0.5303387932523747,-0.6188977793097236,-0.0005106353636202361,-0.6602768976530127,-0.09199711510972977,0.02720887750198657,0.3481443136252331,0.9683304178136595,0.2496169149670785,0.002888702191247118,0.0,0.2496333784868846,-0.9682810114024815,-0.009788064355099789,0.0,0.00035381586361382666,0.010199393303931149,-0.9999479222392367,0.0,0.4713782584725462,0.011029562700028275,0.304874772793406,1.0,-0.19998000000000002,-0.2628308571428572,-0.8178281100000001,2.3429999999998556
0.14364551598443093,-0.21276675419984992,-0.1286841614627882,-2.368861892493467,-0.020265370471535385,2.1583462442765864,0.5761941721394882,-0.5542600255673419,-0.6264162131523602,-0.0084163282145245,-0.6207541501829543,-0.08626013433400867,0.030163982557976244,0.3345801187067953,0.9717408440290953,0.23599214843574445,0.00286091305549264,0.0,0.23600904877500684,-0.9716910488597733,-0.009847911622179831,0.0,0.0004559025638019021,0.010245016568831911,-0.9999474145115615,0.0,0.46796875273355776,0.006546691672929136,0.30488499407116154,1.0,-0.19998000000000002,-0.2628308571428572,-0.8178281100000001,2.3599999999998538
0.13429444911468005,-0.22329298497196445,-0.12879384791851983,-2.379606537990128,-0.021931377417803825,2.15877497108987,0.581886868695729,-0.5454114347456154,-0.608112490613904,0.0008940687986207204,-0.6403811872938854,-0.09459946463750347,0.021319899524028976,0.34578792888256854,0.9749344276641891,0.22242959292953718,0.0029470061941734224,0.0,0.22244803020756293,-0.9748854844170896,-0.009793519839163179,0.0,0.0006946383039541648,0.010203791836728076,-0.9999476986871763,0.0,0.4645885141612188,0.0020545575659799776,0.30491517002989266,1.0,-0.19998000000000002,-0.2628308571428572,-0.8178281100000001,2.376999999999852
0.12486858799812545,-0.2336721339475085,-0.12882480827067552,-2.3902876611680473,-0.023544946749587962,2.1589826586446015,0.5874541575334029,-0.5682804937293675,-0.5977531644248572,-0.0030189881217407935,-0.6082557553492399,-0.09090051564079357,0.01085118971363336,0.33093008172471605,0.9779158619262232,0.20893490397974562,0.002742224147491877,0.0,0.20895194128601702,-0.9778668928056129,-0.009806787889482173,0.0,0.000632562099226186,0.010163402167716412,-0.9999481512166356,0.0,0.4611364457962639,-0.0023620594773082417,0.30485299595981974,1.0,-0.19998000000000002,-0.2628308571428572,-0.8178281100000001,2.39399999999985
0.11513554862112085,-0.24406294713948465,-0.12892046604275895,-2.4004954749037886,-0.02517255702258753,2.159271823202706,0.5928127199881631,-0.5778136939209816,-0.6100200299709437,-0.010623739316674536,-0.5995647964109478,-0.09472146716072842,0.010703304237555097,0.2980764966386544,0.980739051329647,0.1952487730838367,0.0030946255812823085,0.0,0.1952699692589847,-0.9806916855884934,-0.009705865463891484,0.0,0.0011398371994296164,0.010123403636405511,-0.9999481073885652,0.0,0.4578248433780347,-0.006886751474824208,0.3049824021602384,1.0,-0.19998000000000002,-0.2628308571428572,-0.8178281100000001,2.410999999999848
0.10542222477993872,-0.2542540293364185,-0.12897010584484087,-2.4108096323280352,-0.02666835795488556,2.1593411331574033,0.5980842931389229,-0.5661890118982941,-0.5901026452316899,0.000490364420815799,-0.6001976304979637,-0.09099144513250806,0.001757709573155284,0.29999157412726635,0.9833545607598275,0.1816200771407806,0.002949968378065589,0.0,0.18164055332285617,-0.9833065599855593,-0.00978086801572502,0.0,0.0011243429014671236,0.01015409055763853,-0.9999478137872931,0.0,0.4543804642940132,-0.01129381117796481,0.30492041117791363,1.0,-0.19998000000000002,-0.2628308571428572,-0.8178281100000001,2.4279999999998463
0.096054373025941,-0.2637807313764448,-0.12901885929651724,-2.4202376669039247,-0.02816676322064875,2.159357061132021,0.6028187121728419,-0.592816511526207,-0.5957173871227746,-0.0008250132996089517,-0.5720977775748066,-0.093247702760702,0.002976897398835561,0.2887907460284626,0.9856337916959933,0.16881347582317136,0.002964110100398176,0.0,0.16883465649409868,-0.9855865678949005,-0.009732566613099774,0.0,0.001278423315686561,0.010093385373360509,-0.9999482432633853,0.0,0.4511835450837635,-0.015497526981565157,0.3049247728913847,1.0,-0.19998000000000002,-0.2628308571428572,-0.8178281100000001,2.4439999999998445
0.08590781564690549,-0.2737931122748719,-0.1291541709735071,-2.4299302053132754,-0.029692473968402886,2.1593435844024826,0.6077845526316276,-0.5933468289269969,-0.5770688327307103,-0.004386281286631143,-0.5763612910994081,-0.08956435935957566,-0.0021531057972510505,0.2925278193221893,0.9879100626992592,0.15493352045108189,0.003171617787255253,0.0,0.1549574140918511,-0.9878637242431404,-0.009706134330792465,0.0,0.0016293519674273615,0.010080447545953877,-0.9999478635356143,0.0,0.4478452515924878,-0.020017737305629533,0.3049920735612718,1.0,-0.19998000000000002,-0.2628308571428572,-0.8178281100000001,2.4609999999998426
0.07582773195278131,-0.28368068218313836,-0.12918544902959178,-2.43968514210913,-0.031205780636232496,2.159194205830982,0.6125454497661996,-0.5984448011827233,-0.5898581975920039,-0.006894805342038698,-0.5648021446710887,-0.08634438544974879,-0.009615145792046424,0.2711111342298693,0.989938136032924,0.14139961857971778,0.0030629388467534628,0.0,0.1414230488368995,-0.9898919614827895,-0.00970426455946418,0.0,0.0016598311925034581,0.01003998502049866,-0.9999482204900414,0.0,0.444413118288547,-0.024388887601468567,0.30493355396822786,1.0,-0.19998000000000002,-0.2628308571428572,-0.8178281100000001,2.4779999999998408
0.06535091060114527,-0.2935076442928876,-0.129299259038948,-2.4490472465162676,-0.03267379509294535,2.1590342636678854,0.6171835177575856,-0.6208735152262618,-0.56923132564338,-0.018091003432287776,-0.5351508546211111,-0.08643995483247906,-0.004074243049090429,0.26557211059714125,0.9918283683872291,0.1274616867332582,0.003279173470190953,0.0,0.1274879077610993,-0.9917830654926173,-0.009691814998870767,0.0,0.00201693246148521,0.010030865147178858,-0.9999476554939486,0.0,0.4410611809282018,-0.028906651252242534,0.30499304511085795,1.0,-0.19998000000000002,-0.2628308571428572,-0.8178281100000001,2.494999999999839
0.05540544823517073,-0.30264513344816857,-0.12941573572179116,-2.4577180029245382,-0.0340381720794446,2.158755578617428,0.6214142294178014,-0.6147428917659614,-0.5642100656105049,-0.004473513935964542,-0.5435838643535333,-0.08369489520424028,-0.025535022065968953,0.2669212741952796,0.9935148406553874,0.11356782361870427,0.003370124214181964,0.0,0.1135955816763855,-0.9934701298859716,-0.009689775495985068,0.0,0.0022477143018277967,0.01000995970105479,-0.9999473728587922,0.0,0.4376801686452133,-0.03339100612023197,0.305016810578459,1.0,-0.19998000000000002,-0.2628308571428572,-0.8178281100000001,2.511999999999837
0.0448114174068592,-0.31218318368040787,-0.12947697535957944,-2.4669331694006504,-0.035555340180412835,2.1582949706561134,0.6256707423914266,-0.6324654826631231,-0.5567946215379632,-0.0031790783387554027,-0.5375016207612939,-0.07831249313298505,-0.030162231734753166,0.24880747075907556,0.9948988196166446,0.10073272517632975,0.003162863444086288,0.0,0.10075893828285515,-0.9948542446886295,-0.009665147817632044,0.0,0.0021730332814420272,0.009934722191930125,-0.9999482882736122,0.0,0.4344241154727599,-0.037552004380289696,0.3049404730987306,1.0,-0.19998000000000002,-0.2628308571428572,-0.8178281100000001,2.5279999999998353
0.03385444517719184,-0.3216635290358016,-0.12963638556579304,-2.475649361450268,-0.036959964958963316,2.157911771945176,0.6298309790133948,-0.642791152433462,-0.5592232923478462,-0.0029758775267181422,-0.5040287571310319,-0.08634383065917074,-0.018235493432483763,0.2349041347812809,0.9962224509251781,0.08665776288739419,0.0034651558682973495,0.0,0.08668757234229163,-0.9961791049955762,-0.00965414278024344,0.0,0.002615359809400142,0.009918250689186434,-0.9999473927144036,0.0,0.43109501745642503,-0.04210217218517141,0.3050340236823694,1.0,-0.19998000000000002,-0.2628308571428572,-0.8178281100000001,2.5449999999998334
0.023022719684927917,-0.330971538616081,-0.12964415972042873,-2.484325207463931,-0.038354019083211434,2.1573589997243854,0.6337753232740042,-0.641517963674393,-0.5344296476324613,-0.0015515251320990988,-0.5067525492676509,-0.07663765998227162,-0.04105557662691923,0.232331423842318,0.997312354164092,0.07305324801979485,0.003469594593540639,0.0,0.07308362285585535,-0.997269672327545,-0.009629726225714764,0.0,0.00275669175993859,0.009857605264308317,-0.9999476127622856,0.0,0.4277074641142708,-0.04646406901703608,0.30503147244074696,1.0,-0.19998000000000002,-0.2628308571428572,-0.8178281100000001,2.5619999999998315
0.012490139826387348,-0.33960881456270664,-0.12977911015083832,-2.4923750930633632,-0.039634110245538055,2.1566843435185974,0.6373264276599231,-0.6674601732608739,-0.5361501824002515,-0.01869997835370356,-0.49785939428543097,-0.08014607487333532,-0.0366996228196047,0.21361313767501217,0.9982372127247354,0.059094985226001484,0.0033161353859859134,0.0,0.05912459903622286,-0.9981939858529993,-0.009684797205744087,0.0,0.0027378761633755078,0.009863980055695006,-0.9999476015929909,0.0,0.4242632805249236,-0.050963526087418415,0.30498594394578954,1.0,-0.19998000000000002,-0.2628308571428572,-0.8178281100000001,2.5789999999998297
0.0005225088253917611,-0.34924167946579054,-0.12986857677475422,-2.501038511063572,-0.0410389590939885,2.1560266902851035,0.6412042892303587,-0.6482472637533103,-0.5327282262681643,0.00407498988887952,-0.4620120882612874,-0.07829660024938041,-0.03922114906227609,0.21585731432473576,0.998962984369294,0.04517771831276424,0.003560411388474082,0.0,0.04521027117097437,-0.9989211012690413,-0.00966497394208629,0.0,0.0031199886643393793,0.009816107367875998,-0.99994695344647,0.0,0.42091989084006326,-0.0554285416619847,0.30506398030486326,1.0,-0.19998000000000002,-0.2628308571428572,-0.8178281100000001,2.595999999999828
-0.010168756597242756,-0.3576157645143415,-0.12995259762125502,-2.5085912151181913,-0.04233550313267969,2.155401253299242,0.6444606952172698,-0.6795915543785108,-0.5191377649033391,-0.0030232703911371424,-0.47680656015563067,-0.07905632499084314,-0.04492771039281845,0.19939423610690948,0.999490493401592,0.0314024815851342,0.0036585039764737053,0.0,0.03143637378824399,-0.9994499499091203,-0.00960723325995165,0.0,0.0033548652420512526,0.009717535502394486,-0.9999471557952287,0.0,0.41755581605684267,-0.05986502694305899,0.30508169893195225,1.0,-0.19998000000000002,-0.2628308571428572,-0.8178281100000001,2.612999999999826
-0.022555911938128597,-0.36690563880007493,-0.13010846716461824,-2.51705452739874,-0.04373117816280486,2.15440624849778,0.6479986495687604,-0.6839800830409942,-0.5238691334636019,-0.0011380578798792628,-0.45489362410752726,-0.08500287646020134,-0.053062926483970874,0.18690931714777267,0.9998203255773304,0.018115672057100463,0.003447591850753976,0.0,0.018148184762540376,-0.9997791559102438,-0.009645190430120366,0.0,0.0032721643630132524,0.009706211844647143,-0.9999475398199688,0.0,0.4142872569700463,-0.06413163782587072,0.30502524138539544,1.0,-0.19998000000000002,-0.2628308571428572,-0.8178281100000001,2.628999999999824
-0.03344266957792283,-0.3750042899546413,-0.1301381356804976,-2.524272221648461,-0.04494201711084861,2.15357867756787,0.6509208764586794,-0.6865346358335852,-0.5065831341397861,-0.005910080998581665,-0.43786524254268444,-0.0758440214247601,-0.050639810712225855,0.18187691262840688,0.9999742958344919,0.00449715186022398,0.003454011677226707,0.0,0.004530143293257238,-0.999933993143632,-0.00960385645364091,0.0,0.0034106593536197827,0.00961944196642605,-0.9999479155131172,0.0,0.41090449597513884,-0.06849390719647665,0.3050314149090956,1.0,-0.19998000000000002,-0.2628308571428572,-0.8178281100000001,2.6459999999998223
