nelsonifechukwu/NELSON_IML_WORK/CNN-GradCAM/train2dof/data_sample_2022-02-22-08-43-02/robot_state.csv
position_joint1,position_joint2,position_joint3,position_joint4,position_joint5,position_joint6,position_joint7,velocity_joint1,velocity_joint2,velocity_joint3,velocity_joint4,velocity_joint5,velocity_joint6,velocity_joint7,ee_T_00,ee_T_10,ee_T_20,ee_T_30,ee_T_01,ee_T_11,ee_T_21,ee_T_31,ee_T_02,ee_T_12,ee_T_22,ee_T_32,ee_T_03,ee_T_13,ee_T_23,ee_T_33,v_x,v_y,time
0.465072358486,0.547763896155,-0.123996986515,-1.35582991426,0.0795301486948,1.89411560702,0.159155258866,-0.000475580678445,0.000636133427366,-0.00227040820686,0.00142260405391,-4.66067853909e-05,0.000118151736863,0.000173816067928,0.573817428137,0.818969078113,0.00198875873821,0.0,0.818926225483,-0.573758488004,-0.0119072062387,0.0,-0.00861073229283,0.00846137205469,-0.999927127581,0.0,0.661681850215,0.260891208406,0.303229740984,1.0,0.0,0.0,0.0
0.46507479225,0.547763981481,-0.123993822643,-1.35583520397,0.0795286899531,1.89411561138,0.159158933683,0.000772590019359,0.000547780616897,0.000432884492097,-0.000346559069217,-1.61844583642e-05,7.41662223784e-05,-9.72122098975e-07,0.573816136321,0.818969994133,0.00198426535319,0.0,0.818927074478,-0.573757206558,-0.0119105629698,0.0,-0.00861607302552,0.00845960471905,-0.999927096529,0.0,0.661679355614,0.260893783486,0.303227055819,1.0,-8e-05,-0.000105142857143,0.005
0.465069577778,0.547755852806,-0.123996691631,-1.35583840971,0.0795306008394,1.89411488187,0.159157598151,0.000881203390228,-0.00209324124347,0.000689651924967,-0.000991186462969,0.00043296427097,-2.65261692933e-05,0.000677478585571,0.573821979475,0.818965889666,0.00198855104983,0.0,0.818923019368,-0.573763024937,-0.0119090916928,0.0,-0.00861234862215,0.00846233172495,-0.99992710554,0.0,0.66168060301,0.260888660166,0.303231323634,1.0,-0.00042,-0.000552,0.022
0.465069458623,0.547743018153,-0.124001684428,-1.35584551696,0.0795287279143,1.89411832838,0.159145689093,0.000617015199727,-0.00102785697679,-0.00137325388925,-0.00212213820388,-4.56623200125e-05,-0.000327171157949,-0.00288614714711,0.573815705879,0.818970270467,0.00199466257925,0.0,0.818927519058,-0.573756765547,-0.0119012360348,0.0,-0.00860247296873,0.00846276316793,-0.999927186898,0.0,0.661681284785,0.260884949202,0.3032374943,1.0,-0.00078,-0.00102514285714,0.04
0.46506905671,0.547684337333,-0.123994207454,-1.35590240463,0.0795266805826,1.89412466227,0.159156382002,-0.000632337184031,-0.00857339825554,0.000608655996611,-0.00565929498957,0.000127022496286,0.00472476081882,-0.000602081652888,0.573822071196,0.818965784809,0.00200519858477,0.0,0.818923102519,-0.573763019676,-0.0119036260918,0.0,-0.00859831923357,0.00847282995316,-0.999927137375,0.0,0.661669562015,0.260883128527,0.303252286828,1.0,-0.0011,-0.00144571428571,0.056
0.465063476589,0.547555115428,-0.123994571561,-1.35607290051,0.0795240862807,1.89416183292,0.159151631296,5.19231050858e-05,-0.00515950109232,0.000685806531403,-0.0114432088641,-3.93619962524e-05,0.00130970342224,0.000580480955284,0.57383165575,0.818959064204,0.00200721648573,0.0,0.818916306308,-0.573772494328,-0.011914483503,0.0,-0.00860595434174,0.00848081338835,-0.999927004013,0.0,0.661642986812,0.260862787357,0.303265912925,1.0,-0.00146,-0.00191885714286,0.074
0.465047501004,0.547417768813,-0.123997729446,-1.35626251085,0.0795231077741,1.89422441587,0.159144473243,-0.000301596124374,-0.00970149418733,0.000550761500299,-0.0132835875928,0.000426156726895,0.00628257360019,-0.00165353460007,0.573851367366,0.81894521718,0.00202146756855,0.0,0.818902557184,-0.573792058159,-0.0119173290709,0.0,-0.00859990318229,0.00849432408589,-0.999926941393,0.0,0.661620570856,0.260833779336,0.303278495572,1.0,-0.00178,-0.00233942857143,0.09
0.465035428858,0.547243130236,-0.123998111432,-1.35646620502,0.0795210591771,1.89434376451,0.159132533463,0.000176984445477,-0.00901740516007,0.000625899613322,-0.0156548525912,-5.15379701245e-05,0.0166688288791,-0.00171114111276,0.573862835387,0.818936975646,0.00210308882663,0.0,0.818895351807,-0.573803165351,-0.0118775891305,0.0,-0.00852040193894,0.0085384810328,-0.9999272459,0.0,0.661605639784,0.260811474605,0.3033156225,1.0,-0.0021,-0.00276,0.106
0.465011613045,0.547037317622,-0.123995931862,-1.35670090684,0.0795196251643,1.89446614968,0.159125891821,-0.000470212534898,-0.0137537402765,-0.000774802101998,-0.0152383774488,0.000145831899031,0.0160392863813,0.000981887529342,0.573888280498,0.818918916838,0.00218998932543,0.0,0.818878354282,-0.57382819059,-0.0118404169823,0.0,-0.00843982633088,0.0085885767538,-0.999927500212,0.0,0.661587456945,0.260779916185,0.303360245087,1.0,-0.00244,-0.00320685714286,0.123
0.464986841632,0.546823705557,-0.124000925632,-1.35701373184,0.079511844883,1.89459695327,0.159106927601,-0.00215408456897,-0.00994446473598,-0.000753207067065,-0.0204329718639,1.23548614912e-05,0.00931433962056,-0.00281561984774,0.573919633393,0.818896870424,0.00221741216832,0.0,0.818856601371,-0.573859367308,-0.0118338432118,0.0,-0.00841837650707,0.00860758327236,-0.999927517597,0.0,0.661553060006,0.260728560385,0.303371412186,1.0,-0.0028,-0.00368,0.141
0.464950137732,0.546573482269,-0.123995627261,-1.35738255495,0.0795032697397,1.89472132326,0.159070665134,-0.0025329792874,-0.0144696513011,0.000868141351038,-0.0268377881929,2.36988794904e-05,0.00919574613911,-0.00359050938562,0.573926980247,0.818891672224,0.00223548831081,0.0,0.818851485994,-0.573866486412,-0.0118425740273,0.0,-0.00841507544258,0.00862747178063,-0.999927373981,0.0,0.661511093318,0.260679279966,0.303386424403,1.0,-0.0031,-0.00407428571429,0.156
0.464913590363,0.54627856771,-0.124000922822,-1.35784793688,0.0794917402561,1.89488982681,0.15890985016,-0.00301798780769,-0.0129264657024,-0.00119450550088,-0.0245544392226,-7.68721810305e-05,0.00640294276445,-0.00863620216461,0.573851890549,0.81894427467,0.00224267693817,0.0,0.81890404324,-0.573791235575,-0.0118546549386,0.0,-0.00842163556141,0.00863951969822,-0.999927214728,0.0,0.661457065349,0.260610239036,0.303388546791,1.0,-0.00346,-0.00454742857143,0.174
0.46486761399,0.545966602863,-0.123998150475,-1.35836588796,0.0794746671102,1.89506307872,0.158903232335,-0.000725687534716,-0.0148369970128,-0.000769735969535,-0.0298464753527,-0.00467013509913,0.00569007701218,-0.00185423644506,0.573906540086,0.818906032717,0.00222254966919,0.0,0.818865372863,-0.573845787568,-0.0118852899914,0.0,-0.00845769774615,0.00864118098999,-0.999926895998,0.0,0.661393238186,0.260533036947,0.303377836076,1.0,-0.0038,-0.00499428571429,0.191
0.464816348604,0.545679584443,-0.123993947799,-1.35887541303,0.0794362568694,1.89523167946,0.158840468564,-0.001702071512,-0.0210528848536,0.000404429059697,-0.0331659465558,-0.00590551021334,0.00805155755603,-0.00257485133844,0.573911702262,0.818902556501,0.00216976113705,0.0,0.818861294428,-0.573851247304,-0.011902661731,0.0,-0.00850216367882,0.00860797599897,-0.999926805302,0.0,0.661329745032,0.26043990309,0.303354922929,1.0,-0.00412,-0.00541485714286,0.207
0.464745878341,0.545276482468,-0.123998221121,-1.35957412985,0.0793357018356,1.89545372995,0.158733004064,-0.00227525111612,-0.0245954358261,-0.000345246100304,-0.0426321548929,-0.00194977287382,0.00997622019918,-0.0118198181649,0.573897250102,0.818912925118,0.00207708945621,0.0,0.818870864407,-0.573837582902,-0.0119030573927,0.0,-0.00855582028038,0.00853216421456,-0.999926997392,0.0,0.661251292442,0.260322120626,0.303325007045,1.0,-0.00446,-0.00586171428571,0.224
0.464682981222,0.544866770113,-0.123998848381,-1.3602737555,0.0793234869424,1.89568454136,0.158678761586,-0.00116373003106,-0.0252063774734,0.00145576647277,-0.0455345988405,-0.00238121774971,0.010157504221,-0.00809966671045,0.573940465643,0.818882724819,0.00204249638112,0.0,0.818839898925,-0.573880623156,-0.0119581435144,0.0,-0.00862033401697,0.00853590432974,-0.999926411382,0.0,0.661164501379,0.260216181281,0.303302067957,1.0,-0.0048,-0.00630857142857,0.241
0.464606943212,0.544458009584,-0.123996364303,-1.36096129496,0.0793015076947,1.89593309193,0.158545743573,-0.00342997533641,-0.0327338749167,0.000755570287762,-0.0486297435301,-0.000677130038074,0.0167884422323,-0.0136152606809,0.573924602128,0.818893879803,0.00202770686408,0.0,0.818850649301,-0.573864614237,-0.0119902280213,0.0,-0.00865526176733,0.00854204038952,-0.999926057261,0.0,0.661087172723,0.260104409847,0.303285591558,1.0,-0.00512,-0.00672914285714,0.257
0.464536953981,0.54394877643,-0.124007692095,-1.36180414951,0.0792692788858,1.89623179296,0.158486473576,-0.00868342315461,-0.0287673574055,0.00125371053062,-0.0498710342448,0.0003038034858,0.0148602002368,-0.000174603035147,0.573979689517,0.818855326742,0.00200419288017,0.0,0.818811651291,-0.573919658292,-0.012018836772,0.0,-0.00869161015946,0.00853978909785,-0.999925761202,0.0,0.660988830834,0.259973268679,0.30327104128,1.0,-0.00548,-0.00720228571429,0.275
0.464454720403,0.543429344391,-0.124005540613,-1.36264326401,0.0792309305861,1.89651233403,0.158357156808,-0.000868977860034,-0.0286187665119,0.000320289768996,-0.0493252387574,-0.00228140439285,0.018491286742,-0.00534808891424,0.573975985513,0.818857984781,0.00197881681999,0.0,0.818813799343,-0.573915888397,-0.0120524666059,0.0,-0.00873375225513,0.0085382733048,-0.999925406948,0.0,0.660888304633,0.259840205964,0.303263394794,1.0,-0.00582,-0.00764914285714,0.292
0.46438225259,0.54294266236,-0.124016643717,-1.3634123585,0.0791715541267,1.8967878814,0.158263603434,-0.00378299879271,-0.032821924635,-0.000369000784653,-0.0522260347531,-0.00390629249063,0.0191888737515,-0.0052466743855,0.573993421333,0.818845801187,0.00196291749286,0.0,0.818801564306,-0.573933543087,-0.012042977684,0.0,-0.00873492569329,0.00851999391395,-0.999925552617,0.0,0.660803610296,0.259710068722,0.303265810671,1.0,-0.00612,-0.00804342857143,0.307
0.464302640271,0.54232169632,-0.124019362716,-1.36438630976,0.0791184066801,1.89714365644,0.158139981635,-0.00475830455318,-0.0362277563127,-0.00144230258162,-0.0558877736887,-0.000318591935799,0.0220781000719,-0.0120332330737,0.573999251197,0.818841703703,0.00196743539987,0.0,0.818797471985,-0.573939300221,-0.0120468433166,0.0,-0.00873543739324,0.00852597432616,-0.999925497172,0.0,0.660690705549,0.259563974,0.303272343468,1.0,-0.00648,-0.00851657142857,0.325
0.464218457677,0.541696232303,-0.124025689056,-1.36534302722,0.0790600120714,1.89749016254,0.158013276031,-0.00234080367226,-0.0403166893791,-0.00203207086694,-0.058956198385,-0.000218499991196,0.0194148272326,-0.00821454548036,0.574006354313,0.81883669693,0.00197885566958,0.0,0.818792634752,-0.573946373247,-0.0120386383125,0.0,-0.00872208972388,0.0085306915784,-0.999925573456,0.0,0.660582188757,0.259413406632,0.303289473187,1.0,-0.00682,-0.00896342857143,0.342
0.464141299111,0.541086313952,-0.12401800267,-1.36629347788,0.0790075865147,1.89784403945,0.157895035734,-0.00194899049734,-0.0391399284515,9.10830046335e-05,-0.0611734635581,-0.000234461494389,0.0177540195829,-0.00293028432015,0.574006085443,0.818836847802,0.00199435611873,0.0,0.818792897956,-0.573945949675,-0.0120409306197,0.0,-0.00871507284885,0.00854469658801,-0.999925515059,0.0,0.660470652806,0.259277613687,0.303298701638,1.0,-0.00714,-0.009384,0.358
0.46404764993,0.540339193946,-0.124023700355,-1.36742109581,0.0789369951722,1.89825705776,0.157740618585,-0.00170637813757,-0.0377468427955,0.000351630427582,-0.0615914369308,-0.00536032157155,0.0120577378739,-0.00337591306418,0.574003887232,0.818838326309,0.00201982930084,0.0,0.818794747253,-0.573943680451,-0.0120233290696,0.0,-0.0086860616228,0.00855542796379,-0.999925675731,0.0,0.660341791924,0.259105028714,0.303326031437,1.0,-0.0075,-0.00985714285714,0.376
0.463952929359,0.539628224284,-0.124021897019,-1.36850326147,0.0788764392356,1.89866920961,0.15760429982,-0.00676412999566,-0.0444509117302,0.00138937082926,-0.0679358536992,0.000225071556037,0.032371393569,-0.0093961553056,0.574012330746,0.818832313935,0.00205735473627,0.0,0.818789182087,-0.573951921827,-0.0120088979207,0.0,-0.00865261755718,0.00857796043927,-0.999925772647,0.0,0.660220096077,0.258942578467,0.303349024044,1.0,-0.00782,-0.0102777142857,0.392
0.463863110436,0.538912415664,-0.124035276012,-1.36959117949,0.0788120292621,1.89907890065,0.157470591913,-0.00721355487094,-0.0456197827199,-0.000800387083574,-0.0678425019515,-0.00884653364182,0.0249233981092,-0.00518243697467,0.57402872513,0.818820747111,0.00208655884725,0.0,0.818778055548,-0.573968250432,-0.0119870826505,0.0,-0.00861781936034,0.0085895237426,-0.999925973896,0.0,0.66009891996,0.258773158695,0.303372860478,1.0,-0.00814,-0.0106982857143,0.408
0.463740957169,0.538098627596,-0.124036084042,-1.37086251378,0.0787429056616,1.89957546838,0.157316655466,-0.0103258082104,-0.0433304187524,-0.000557868769288,-0.0718218093992,-0.00707536423707,0.022523813325,-0.00758939581516,0.57405515898,0.818802123801,0.00212212347853,0.0,0.818759857972,-0.573994494874,-0.011973375882,0.0,-0.00858590371239,0.00861105350282,-0.999926063274,0.0,0.659960716255,0.25857433882,0.303385616011,1.0,-0.0085,-0.0111714285714,0.426
0.463635921751,0.537288734913,-0.124036726548,-1.37212924139,0.0786655196675,1.9000482145,0.157159810235,-0.0118906295126,-0.0498470625956,-0.000318643344132,-0.0726365085793,-0.0024590326109,0.0252141923704,-0.0100563663549,0.574062334612,0.818797061321,0.00213430373943,0.0,0.818754958322,-0.574001623237,-0.0119666889964,0.0,-0.00857336103689,0.00861726310112,-0.999926117399,0.0,0.659814430418,0.258384477243,0.303395575886,1.0,-0.00884,-0.0116182857143,0.443
0.463531905456,0.536483929739,-0.12404473896,-1.37336168984,0.0786018206079,1.90050895104,0.15700560182,-0.00648331688149,-0.0538636578206,-0.00366510120358,-0.076821034543,-0.00986283365795,0.0276516488905,-0.00498408338942,0.574077677707,0.818786220144,0.00216623214954,0.0,0.818744474003,-0.574016773106,-0.0119573150707,0.0,-0.00854719578155,0.00863818458107,-0.99992616088,0.0,0.659673953976,0.258196422198,0.303417330031,1.0,-0.00916,-0.0120388571429,0.459
0.463421636273,0.535671649853,-0.124046074283,-1.37464980634,0.0785231514268,1.90097027624,0.156849086496,-0.00601362693387,-0.0518030933967,-0.000146630981457,-0.0790392058722,-0.00279117296401,0.031526628679,-0.00319244434908,0.574095493957,0.818773753391,0.00215672852415,0.0,0.818731897382,-0.574034640303,-0.0119607208344,0.0,-0.00855525212337,0.00863254457546,-0.99992614069,0.0,0.659515017457,0.257984087039,0.303420092564,1.0,-0.0095,-0.0124857142857,0.476
0.463289267517,0.534728126366,-0.124046769354,-1.37617167956,0.0784471600229,1.90152249439,0.156658070178,-0.00744493350316,-0.0492583083626,0.00132831336579,-0.0838739896127,-0.00268843538327,0.037475006849,-0.0148867967116,0.574106026166,0.818766416828,0.00213829280089,0.0,0.818724103605,-0.574045029152,-0.0119955651298,0.0,-0.00859425499198,0.00863756438483,-0.999925762876,0.0,0.659341423213,0.257768455834,0.303406817508,1.0,-0.00984,-0.0129325714286,0.493
0.46316970783,0.533879994627,-0.124055338594,-1.37756358847,0.0783562571234,1.90203282479,0.156488748845,-0.00896666690297,-0.0483323982161,-0.000746935647777,-0.0861337295075,-0.00647431697242,0.0387883234891,-0.0108403405439,0.574123217079,0.81875445542,0.00210243697412,0.0,0.818711747017,-0.574062440502,-0.0120056904372,0.0,-0.00862294845399,0.00861420131522,-0.999925717389,0.0,0.659179631479,0.25755048769,0.303387077232,1.0,-0.01016,-0.0133531428571,0.509
0.463034127017,0.532944194946,-0.124060591312,-1.37904952438,0.0782756540347,1.90259891186,0.156300273357,-0.00659548207965,-0.0546578770947,-0.00150671543941,-0.0902473134021,-0.0011832013746,0.0368162116042,-0.0112056851988,0.574143411698,0.818740253572,0.00211822689005,0.0,0.818697698175,-0.574082513392,-0.0120039044273,0.0,-0.0086122085494,0.00862631620402,-0.999925705506,0.0,0.659011837335,0.257319330222,0.303388981547,1.0,-0.0105,-0.0138,0.526
0.462901636415,0.531985615203,-0.12405382594,-1.38060363686,0.0781935603949,1.90317276943,0.156107325888,-0.0092894714918,-0.0517129395213,0.00144782471898,-0.0953038912173,-0.00360639609626,0.0267182417059,-0.0141843153651,0.574152037824,0.81873423477,0.00210646148304,0.0,0.818691357025,-0.574091019019,-0.0120295766599,0.0,-0.00863989196665,0.00863151394693,-0.999925421836,0.0,0.658826443248,0.25708971247,0.303374592609,1.0,-0.01084,-0.0142468571429,0.543
0.462768842063,0.530978849951,-0.124062595028,-1.3822185346,0.0780897758004,1.90374383755,0.155909945664,-0.00723208523657,-0.0554247585057,-0.00114776439462,-0.093476531542,-0.00496637873357,0.0262078911225,-0.00741198237907,0.574165292952,0.818725034201,0.0020692132459,0.0,0.818681703508,-0.574104463633,-0.0120449192026,0.0,-0.00867369932099,0.00860996735616,-0.999925314912,0.0,0.658631963946,0.256840637531,0.303365241866,1.0,-0.01118,-0.0146937142857,0.56
0.462631108341,0.529949887242,-0.124058844115,-1.38385494757,0.0779831347874,1.90433461006,0.155682042244,-0.00402742961745,-0.0604771351619,0.00139598462733,-0.0936417775483,-0.00117776979618,0.0390393110124,-0.0125296875902,0.574149038403,0.818736477527,0.002051576954,0.0,0.818692917662,-0.574088287552,-0.012053695195,0.0,-0.00869118097701,0.00860039461194,-0.999925245499,0.0,0.658435090532,0.256594226875,0.303362355876,1.0,-0.01152,-0.0151405714286,0.577
0.462490403433,0.528901735771,-0.124068001451,-1.38550712537,0.0778911156139,1.90495692907,0.15546160485,-0.00938270342546,-0.0593135303306,-0.000993405626506,-0.0981356905241,-0.0074687711323,0.0400622040574,-0.0151483051988,0.574155262252,0.818732070952,0.0020682659504,0.0,0.818688694035,-0.57409440464,-0.0120492207953,0.0,-0.00867787066155,0.00861155527462,-0.999925265046,0.0,0.658243772671,0.256341241865,0.303368422659,1.0,-0.01186,-0.0155874285714,0.594
0.462361915346,0.527861426706,-0.124065347489,-1.38712934185,0.0777836827341,1.90558982768,0.155226290091,-0.00401333521735,-0.0660871345883,-0.000358615813178,-0.1032351042,-0.00524024978929,0.0432062044658,-0.0204024021681,0.574125053308,0.818753159313,0.00210574960252,0.0,0.818710366724,-0.574064135285,-0.0120187728136,0.0,-0.00863173907519,0.00862444365885,-0.999925553255,0.0,0.658055934762,0.256104878274,0.303383480877,1.0,-0.01218,-0.016008,0.61
0.46222092574,0.526693663586,-0.124068426466,-1.388906116,0.0776764659191,1.90626280419,0.154986385128,-0.0054083172169,-0.0691409546367,0.000475481074899,-0.105172233231,0.000302666218127,0.0383325681959,-0.0196710022235,0.574113448787,0.818761156427,0.00215952523189,0.0,0.81871908135,-0.574052323513,-0.0119892703755,0.0,-0.00857683353089,0.0086514124442,-0.999925792741,0.0,0.657847245215,0.255843063396,0.303418070536,1.0,-0.01252,-0.0164548571429,0.627
0.462068834842,0.525529219201,-0.124074308589,-1.39074549804,0.0775561382848,1.90692526668,0.154740515397,-0.0103103922161,-0.0709184139497,-0.000744930242282,-0.110406374934,-0.00718459164733,0.0328254495487,-0.0145623870865,0.574107446901,0.818765409189,0.00214266873404,0.0,0.818723165416,-0.574046443932,-0.0119918940409,0.0,-0.00858872202356,0.00863905452827,-0.999925797542,0.0,0.657625300188,0.255562068499,0.303419407218,1.0,-0.01286,-0.0169017142857,0.644
0.46192245901,0.524413238127,-0.124079798406,-1.39250084383,0.0774535295043,1.90754683545,0.154503832694,-0.0079547811596,-0.0772583399323,-0.000753764935034,-0.11437330865,-0.00477820496856,0.0449638922273,-0.0198788614618,0.574104016549,0.818767850105,0.00212901803325,0.0,0.818725350608,-0.574042992971,-0.0120078888353,0.0,-0.00860969120533,0.00863702453584,-0.999925634747,0.0,0.657410564762,0.25529451883,0.30342282115,1.0,-0.01318,-0.0173222857143,0.66
0.461771182575,0.523221747267,-0.124080817942,-1.3943934078,0.0773356052304,1.9082615731,0.154244383758,-0.00865030602028,-0.0721803947437,4.63909392291e-05,-0.109238534857,-0.00702722759633,0.0418216512659,-0.0180589352548,0.574086077496,0.818780406951,0.00213722264146,0.0,0.818738035209,-0.574025042694,-0.012001123415,0.0,-0.00859963096516,0.00863966967356,-0.999925698467,0.0,0.65718465995,0.255014912352,0.303421656099,1.0,-0.01352,-0.0177691428571,0.677
0.46159886009,0.521915133643,-0.124084030839,-1.39646840995,0.0772134743473,1.90906974076,0.153969842501,-0.00919082877308,-0.0783077162887,-0.00108010591405,-0.120956784702,-0.00498024861851,0.0448249269305,-0.0203316800142,0.574083155261,0.81878237061,0.00216963689643,0.0,0.818740427884,-0.574021992424,-0.011983775028,0.0,-0.00856684937058,0.00865621948002,-0.999925836728,0.0,0.656942912668,0.254705723646,0.303422411609,1.0,-0.01388,-0.0182422857143,0.695
0.461444450408,0.520749538287,-0.12408409198,-1.39835780886,0.0770853902859,1.90978434414,0.153706259902,-0.00998295028027,-0.0771192727895,0.000509363147729,-0.119316276801,-0.00654211004526,0.0468752584275,-0.0179868041,0.574060240592,0.818798482292,0.00215231720658,0.0,0.818756415876,-0.573999255426,-0.0119805314308,0.0,-0.00857437756192,0.00863993662303,-0.999925913028,0.0,0.656716879293,0.254423094625,0.303403861425,1.0,-0.0142,-0.0186628571429,0.711
0.461266171084,0.519348303925,-0.124091116172,-1.40052747755,0.076950284432,1.91055978986,0.153422690819,-0.00586465077099,-0.0789658798581,-0.00189810568411,-0.118862909215,-0.0118131995028,0.0411251250286,-0.0197826390041,0.574057860007,0.818800141886,0.00215590192718,0.0,0.818758112724,-0.573996850738,-0.0119797784935,0.0,-0.00857172844589,0.00864241459172,-0.999925914326,0.0,0.65645035885,0.254093627673,0.303422483812,1.0,-0.01456,-0.019136,0.729
0.461084859549,0.518005772716,-0.124096787998,-1.40262677963,0.0768090941495,1.91131854293,0.153137819388,-0.0129923382282,-0.0784740603643,-0.000705421241396,-0.1234977362,-0.0106998373925,0.0402941715292,-0.0129967589449,0.5740502286,0.818805509772,0.00214921198321,0.0,0.818763480055,-0.573989335312,-0.0119730354744,0.0,-0.00857012765899,0.00863298624563,-0.999926009493,0.0,0.656195594297,0.253768488578,0.303431468596,1.0,-0.0149,-0.0195828571429,0.746
0.460917806702,0.516729686053,-0.124102488736,-1.40464862784,0.0766841888643,1.91204578144,0.152865435938,-0.0100398836382,-0.07589799237,-0.00151440974982,-0.124209357691,-0.00738061855241,0.0578514885622,-0.0116031327412,0.574041253679,0.818811848999,0.0021311768815,0.0,0.818769558836,-0.573980410859,-0.011985173105,0.0,-0.00859051336265,0.0086250926096,-0.999925902684,0.0,0.655945884062,0.253461541564,0.303427616313,1.0,-0.01522,-0.0200034285714,0.762
0.460727844309,0.515347761447,-0.12410318222,-1.40682516381,0.0765471374494,1.91287661266,0.152556750258,-0.0110524724714,-0.0875583348993,8.61254234947e-05,-0.132500571373,-0.00711816976069,0.0480656469648,-0.0161121303327,0.574022613755,0.818824846944,0.00215773640548,0.0,0.818782945072,-0.57396170562,-0.0119664632196,0.0,-0.00856014415599,0.00863590453142,-0.99992606981,0.0,0.655687556692,0.253130597752,0.303432789625,1.0,-0.01556,-0.0204502857143,0.779
0.460532615567,0.513960364628,-0.12410851665,-1.40907442364,0.0764086900302,1.91366836828,0.152245441057,-0.00988884804597,-0.0834865428768,6.00510993632e-05,-0.133593597268,-0.0138635583896,0.0404194638746,-0.0164835717759,0.57401640434,0.818829352427,0.00209906032558,0.0,0.818786568592,-0.573955624107,-0.0120101436847,0.0,-0.00862965684434,0.00861286771915,-0.999925671004,0.0,0.655421651657,0.252803366121,0.30340286346,1.0,-0.01588,-0.0208708571429,0.795
0.460350065318,0.512634360898,-0.124109821883,-1.41123147386,0.076289635669,1.91440601341,0.151953444344,-0.0122881527779,-0.0858972940595,0.000252203418298,-0.13545759316,-0.0131307637892,0.0491192458695,-0.019669882467,0.574004377718,0.818837971561,0.00202425102195,0.0,0.818794002028,-0.573943710579,-0.012072540373,0.0,-0.00872381628843,0.00858730095181,-0.999925073839,0.0,0.655127694101,0.252454111406,0.303369993073,1.0,-0.01622,-0.0213177142857,0.812
0.46015214004,0.5111898353,-0.124121324365,-1.41352192896,0.0761487120293,1.91528220052,0.15162642191,-0.0105002267517,-0.0819144947837,-0.000418124250608,-0.136123042095,-0.00789356984786,0.0524305187817,-0.0197708058367,0.573988901645,0.818848769279,0.00204468587231,0.0,0.818805129343,-0.573928210384,-0.0120547247418,0.0,-0.00869766107227,0.00859364294859,-0.999925247202,0.0,0.65485508044,0.252101581888,0.303367796616,1.0,-0.01656,-0.0217645714286,0.829
0.459950706418,0.509715315152,-0.124127372602,-1.41586311465,0.0759977717184,1.91616737088,0.151294993506,-0.00685809084315,-0.0942923444024,-0.000889697244379,-0.136143954425,-0.0116516697974,0.0605521500463,-0.0125423933127,0.573968213238,0.818863250122,0.00205297204495,0.0,0.818819798848,-0.573907568737,-0.012041032483,0.0,-0.00868190995251,0.00859234948604,-0.999925395202,0.0,0.654572206548,0.25174340377,0.303362568124,1.0,-0.0169,-0.0222114285714,0.846
0.459752857361,0.50830313298,-0.124125549167,-1.41809876256,0.0758581734765,1.9169567893,0.150990499582,-0.0113015749939,-0.0898345406319,-0.000178892060317,-0.136940945058,-0.0155766147571,0.0549008100729,-0.0152290867817,0.573957853687,0.81887058416,0.00202373173057,0.0,0.81882666426,-0.57389725021,-0.012065943833,0.0,-0.00871920027129,0.00858259396896,-0.999925154513,0.0,0.654289548896,0.251399354052,0.303354917873,1.0,-0.01722,-0.022632,0.862
0.459544242427,0.506776689312,-0.124131260019,-1.42051371206,0.0757065756976,1.91783250916,0.150652536454,-0.00845921047638,-0.0844615956885,-0.000539998287017,-0.140825700305,-0.00408352930902,0.0530907331163,-0.0200777274047,0.573940086785,0.818883072004,0.00200949437242,0.0,0.818838949433,-0.573879530648,-0.0120750194942,0.0,-0.00873498954626,0.00857595511096,-0.999925073669,0.0,0.65398836992,0.251028059324,0.303349084332,1.0,-0.01756,-0.0230788571429,0.879
0.459319135933,0.50517146713,-0.12413511584,-1.42297355535,0.0755545506755,1.91877685095,0.150320112255,-0.0143288694174,-0.0917076383897,7.67565543078e-05,-0.140373441464,-0.00820541769638,0.0603607538525,-0.0211866758507,0.573941111449,0.818882169967,0.00208307448329,0.0,0.818839054738,-0.573880285895,-0.0120319074804,0.0,-0.00865744580908,0.0086114748906,-0.999925442787,0.0,0.653694960038,0.250647367171,0.303382219805,1.0,-0.0179,-0.0235257142857,0.896
0.459112842958,0.503604490587,-0.124140620541,-1.42531089892,0.0754019793636,1.91966370518,0.149987084839,-0.0131532738937,-0.0961150537999,-0.000381768099872,-0.142531007895,-0.0118385701474,0.0570941690251,-0.0176823549452,0.573920252393,0.818896546389,0.0021764894593,0.0,0.818854766017,-0.5738591557,-0.0119703170921,0.0,-0.00855361760606,0.00865240275923,-0.999925983037,0.0,0.653413140094,0.250288172676,0.303441339285,1.0,-0.01822,-0.0239462857143,0.912
0.458879768768,0.501915901445,-0.124144036468,-1.42781088294,0.075239662989,1.92058975662,0.149638883268,-0.0186051368636,-0.0972578597118,-3.52328429997e-05,-0.146615261671,-0.0188096447227,0.0552271989107,-0.0238851798424,0.573912505517,0.818901720914,0.0022703295495,0.0,0.818861236051,-0.573851102988,-0.0119136305819,0.0,-0.0084534242243,0.00869663387534,-0.999926451384,0.0,0.653108982726,0.249896216168,0.30351066856,1.0,-0.01856,-0.0243931428571,0.929
0.458627710651,0.500100704865,-0.124144320415,-1.43054934386,0.075066246565,1.92155475532,0.1492598855,-0.0152967424537,-0.0951762762986,0.00208123702659,-0.15152028989,-0.00716924227012,0.05006343574,-0.0142760097906,0.573901304723,0.818909469832,0.00230641667031,0.0,0.818869393419,-0.573839696292,-0.0119023687695,0.0,-0.0084236112378,0.00871960686535,-0.999926502914,0.0,0.652761928393,0.249468116603,0.3035574771,1.0,-0.01892,-0.0248662857143,0.947
0.458398745144,0.498523768564,-0.124142701228,-1.43302228298,0.0749053719541,1.92247601968,0.148903539567,-0.0126519232964,-0.0907381998884,0.000644991725303,-0.155627589405,-0.0118474053763,0.0527020007723,-0.0198407892554,0.573878163604,0.818925640649,0.00232278436599,0.0,0.818885807717,-0.573816524791,-0.0118901933402,0.0,-0.0084044939584,0.00872578546909,-0.999926609882,0.0,0.652455874333,0.249083663215,0.30356006634,1.0,-0.01924,-0.0252868571429,0.963
0.458137415423,0.496844321223,-0.124147854194,-1.43568752118,0.0747447781424,1.92343664235,0.148506579112,-0.0158146385362,-0.0927117339883,-0.000292862077221,-0.160279627883,-0.0109885482029,0.0549910736599,-0.0249084368406,0.573862523963,0.818936657296,0.00230256978714,0.0,0.818896455931,-0.573800858313,-0.011912865483,0.0,-0.00843482811382,0.00872208121899,-0.999926386777,0.0,0.652122325534,0.248655535089,0.303545678332,1.0,-0.01958,-0.0257337142857,0.98
0.457867526688,0.495167087687,-0.124147933147,-1.43841260485,0.0745832728913,1.92437381242,0.148119238455,-0.0166357172555,-0.0959709141012,-0.000737975871217,-0.158720993925,-0.0129776043915,0.062950042551,-0.0218420105054,0.573860198958,0.818938532691,0.0022132841216,0.0,0.818896928473,-0.573798650324,-0.0119865059317,0.0,-0.00854639668269,0.0086911975803,-0.999925708335,0.0,0.651769279616,0.248216162468,0.303498513367,1.0,-0.01992,-0.0261805714286,0.997
0.457596480926,0.493456555843,-0.124174742085,-1.44112833085,0.0744099334142,1.92535320584,0.147735239742,-0.0145779036297,-0.12319563884,-0.000520787952973,-0.186882380837,-0.0117814007253,0.0698723533576,-0.0245553936063,0.573876618019,0.818927110406,0.00218220865954,0.0,0.818885174563,-0.573815270501,-0.0119938785453,0.0,-0.00857009264823,0.00867015170289,-0.99992568823,0.0,0.651433447986,0.247762964199,0.30348273721,1.0,-0.0265697142857,-0.0349201959184,1.013
0.457284120934,0.490879058141,-0.124250400237,-1.44506858182,0.0741969493634,1.92685388961,0.147150070036,-0.0261435898289,-0.163782229929,-0.0061264094378,-0.255328775413,-0.0121948022172,0.103463896991,-0.0472885289801,0.573848385017,0.818946576135,0.00229855426305,0.0,0.818906233271,-0.573786645026,-0.0119253511923,0.0,-0.00844750842984,0.00872581193489,-0.999926247184,0.0,0.650948575739,0.247149338703,0.303533111063,1.0,-0.0359051428571,-0.0471896163265,1.03
0.456766597409,0.48738566283,-0.124273442693,-1.45068948532,0.0738816595374,1.92892698783,0.146325892655,-0.0287075796667,-0.210397307439,-0.00646511850568,-0.339275730709,-0.0233993742815,0.127933876529,-0.0510832084158,0.573809258649,0.818974091347,0.00226258542051,0.0,0.818932937127,-0.573747316893,-0.0119836450232,0.0,-0.00851630644489,0.00872940025857,-0.999925632283,0.0,0.650233194645,0.24626870296,0.303466752477,1.0,-0.0457897142857,-0.0601807673469,1.048
0.456213858525,0.483737394216,-0.124365405791,-1.45636353006,0.0735435481116,1.93103458399,0.145454443107,-0.0404207990513,-0.251299295943,-0.00917801011696,-0.396765312837,-0.0257072629687,0.14089499012,-0.0612600844051,0.573803877213,0.818977702519,0.002319519836,0.0,0.818937476112,-0.573741896827,-0.0119328515125,0.0,-0.00844209614226,0.00874682658787,-0.999926109289,0.0,0.649535528879,0.245319708903,0.303484528784,1.0,-0.0540268571429,-0.0710067265306,1.063
0.455449488187,0.478874155081,-0.124485244464,-1.46406869116,0.0730850917183,1.93371131076,0.144282478047,-0.0507639147829,-0.300777903737,-0.00588868944114,-0.479676515444,-0.0286622391933,0.162543879375,-0.0770236864854,0.573806128542,0.818976503349,0.00218190518803,0.0,0.818934308924,-0.573744533802,-0.0120230819651,0.0,-0.00859493093137,0.00868592236374,-0.99992533817,0.0,0.648480236743,0.243937251398,0.303430061123,1.0,-0.0639114285714,-0.083997877551,1.081
0.454490556663,0.472843842598,-0.124605455937,-1.47343145868,0.0725168499999,1.93706992512,0.142935237457,-0.0543414176775,-0.348070883548,-0.0045531426786,-0.539774511883,-0.0318604365624,0.202139452612,-0.0802188594024,0.573877015724,0.818926833266,0.00218162367227,0.0,0.818884692835,-0.573815471411,-0.0120171340193,0.0,-0.00858946946531,0.00868302241438,-0.999925410286,0.0,0.647346517396,0.242428714126,0.30343615225,1.0,-0.0732468571429,-0.0962672979592,1.098
0.453487775991,0.4667410005,-0.124676302546,-1.48265083417,0.0719740771241,1.94053198513,0.141477006064,-0.0684315287038,-0.400249454901,-0.000300839292348,-0.600244246036,-0.0346510563666,0.224022473188,-0.0933093117103,0.573849053585,0.818945568851,0.00248311494768,0.0,0.818907289847,-0.57378623225,-0.011872540444,0.0,-0.00829834698646,0.0088466573552,-0.99992643434,0.0,0.646192736656,0.240875718389,0.303564346201,1.0,-0.0820331428571,-0.107814987755,1.114
0.452268812704,0.459602555158,-0.124721443548,-1.49372651884,0.071260405881,1.94439660253,0.139776433308,-0.0781943866923,-0.438766313366,-0.00203587911411,-0.671173616589,-0.0454063005153,0.228221370941,-0.106072442054,0.573811794992,0.818971874813,0.00241642185358,0.0,0.818932417986,-0.573748912072,-0.0119426784634,0.0,-0.00839445998127,0.00883190599911,-0.999925762483,0.0,0.644720191285,0.23899620026,0.30354756588,1.0,-0.0913685714286,-0.120084408163,1.131
0.450874409431,0.451694338505,-0.124858087247,-1.50589304629,0.0704490947151,1.94857982711,0.137859912215,-0.0829150280146,-0.49305743328,-0.012473793845,-0.712079423074,-0.0521458279184,0.2637668882,-0.119746832636,0.573821259328,0.818965518627,0.002321323794,0.0,0.818924944292,-0.573758884789,-0.0119760028466,0.0,-0.00847621642453,0.00877324390598,-0.999925589205,0.0,0.64310039038,0.23684133849,0.303557925039,1.0,-0.100704,-0.132353828571,1.148
0.449463227577,0.443543087693,-0.124951358325,-1.51809437939,0.0696360543965,1.95305628642,0.135987532097,-0.0917123616865,-0.51737796631,-0.00391633709097,-0.785402285784,-0.040055225208,0.270823624226,-0.124519101057,0.573840400194,0.818951095027,0.00265442269166,0.0,0.818915299892,-0.573777217133,-0.0117551521975,0.0,-0.00810400352641,0.00891950032396,-0.999927381184,0.0,0.641505086621,0.234723381308,0.303726353082,1.0,-0.109490285714,-0.143901518367,1.164
0.447758330246,0.434306859052,-0.12499768476,-1.53214713823,0.068696309082,1.95789001889,0.133699362781,-0.104543506488,-0.561277661768,-0.00515087512935,-0.812381966584,-0.056081606387,0.296287068137,-0.141019648309,0.573758011817,0.819008785837,0.00266448847453,0.0,0.818972745932,-0.573694389294,-0.0117955930403,0.0,-0.00813224881695,0.00895013177125,-0.999926878162,0.0,0.639571523684,0.232252424635,0.30376788674,1.0,-0.118825714286,-0.156170938775,1.181
0.445789705022,0.423800931484,-0.125089868965,-1.54798911643,0.067578079977,1.96351152022,0.131087408736,-0.11547380452,-0.587667416366,-0.00230065613614,-0.894697347957,-0.0711568934482,0.318190233905,-0.145196665918,0.573670761994,0.819069250177,0.00285782245387,0.0,0.819036183691,-0.57360698757,-0.0116404689107,0.0,-0.00789523522133,0.0090186303028,-0.999928162204,0.0,0.637408790019,0.22942513421,0.303869266146,1.0,-0.128710285714,-0.169162089796,1.199
0.443943980869,0.414494824524,-0.125190511357,-1.56201321818,0.0665592863357,1.96837587767,0.128810104829,-0.122961590663,-0.642385904245,-0.00901922872467,-0.959388479474,-0.078631032653,0.34001343943,-0.150023374951,0.573694620275,0.819052290804,0.00292822430305,0.0,0.819020586797,-0.573631128291,-0.0115478984852,0.0,-0.00777876186271,0.00902341695216,-0.999929031887,0.0,0.635463096095,0.226842374516,0.303931192662,1.0,-0.136947428571,-0.17998804898,1.214
0.441550224449,0.402789756448,-0.125283142887,-1.57986923816,0.0653627031485,1.9744027453,0.125812073292,-0.140229242973,-0.670744431933,-0.00323032898669,-1.01155027672,-0.069393807949,0.329226819756,-0.169682483932,0.573663464595,0.8190744552,0.00283074706258,0.0,0.819040681065,-0.573599378301,-0.0116988407075,0.0,-0.00795866005258,0.009029868347,-0.99992755798,0.0,0.632894402262,0.223562843878,0.30386804078,1.0,-0.146832,-0.1929792,1.232
0.439014526813,0.390977045817,-0.125410410148,-1.59739047397,0.064089187746,1.98045030656,0.122791443851,-0.154236444287,-0.68723314123,-0.003203919559,-1.05121757238,-0.0925001711188,0.357590504045,-0.185229699072,0.573692534953,0.819053235283,0.00306920404729,0.0,0.819022956567,-0.573628124504,-0.0115290196973,0.0,-0.00768244703224,0.00912803685177,-0.999928826943,0.0,0.630407025619,0.220216937174,0.304003175625,1.0,-0.156167428571,-0.205248620408,1.249
0.436460429956,0.379415396755,-0.12554633531,-1.61473827384,0.0627657217658,1.98620337544,0.119706148861,-0.167849023629,-0.735208407322,-0.00748189221527,-1.08690858039,-0.0835011586761,0.374406922656,-0.191767348172,0.573641420832,0.819089385342,0.00297422727766,0.0,0.819058197135,-0.573577695176,-0.0115344789075,0.0,-0.0077419678686,0.00905289439723,-0.999929051001,0.0,0.627852242464,0.216861244531,0.303993780864,1.0,-0.164953714286,-0.216796310204,1.265
0.433474785494,0.366606993854,-0.125690221618,-1.63391388702,0.0613571411647,1.99249800991,0.116327316876,-0.183440112263,-0.775601890881,-0.0159893210381,-1.13678329215,-0.0900433039474,0.368290588039,-0.199896794061,0.573728988006,0.819028379744,0.00288242919287,0.0,0.818995688074,-0.573665187083,-0.0116216585541,0.0,-0.00786507032028,0.00902855330895,-0.999928310377,0.0,0.624982656111,0.213078257131,0.303957615812,1.0,-0.174289142857,-0.229065730612,1.282
0.430211855975,0.353244295959,-0.125883010877,-1.65371474806,0.0598175320368,1.99901388204,0.112666237636,-0.201319330845,-0.76472958407,-0.0105503665551,-1.19563886767,-0.0867736605867,0.37897414324,-0.225335568803,0.573799842218,0.818978772747,0.00287363216289,0.0,0.818946383605,-0.573736539636,-0.0115737101989,0.0,-0.00783006595455,0.00899451692595,-0.999928891838,0.0,0.622005302273,0.209047021901,0.303968427138,1.0,-0.183624571429,-0.24133515102,1.299
0.42689064557,0.340057169801,-0.126026307029,-1.67289005393,0.0584019424732,2.00525983206,0.109039213697,-0.210124793228,-0.814664573628,-0.00759118797702,-1.20475731556,-0.0910612849429,0.400626838286,-0.226407590713,0.573895565208,0.818910921091,0.00308714338548,0.0,0.81888086584,-0.573831061528,-0.0115233366861,0.0,-0.00766523507321,0.00914137046875,-0.999928837227,0.0,0.619066789801,0.205103965048,0.304088963139,1.0,-0.192410857143,-0.252882840816,1.315
0.422991398339,0.324823395374,-0.126156597245,-1.6951658151,0.056580075857,2.01243261677,0.104672276337,-0.22451706069,-0.870875077934,-0.00703440108018,-1.25103430233,-0.1088288985,0.408294436577,-0.248019461165,0.573786809513,0.818987021996,0.00311479260622,0.0,0.818957686184,-0.573722667717,-0.0114610509185,0.0,-0.00759957115258,0.00912725891397,-0.999929467344,0.0,0.61555602098,0.20052047991,0.30410917041,1.0,-0.202295428571,-0.265873991837,1.333
0.419274522562,0.310839895706,-0.12623605999,-1.71554881517,0.0549212371701,2.01881506624,0.100617696856,-0.237143982235,-0.912306044871,-0.00443497878985,-1.26487210766,-0.103554742106,0.41129368677,-0.261994577908,0.573698283019,0.819049080472,0.0031033435007,0.0,0.81901937604,-0.573633923375,-0.0114948042935,0.0,-0.00763477277196,0.00913642384888,-0.99992911549,0.0,0.612046793457,0.196012108027,0.304106911241,1.0,-0.211630857143,-0.278143412245,1.35
0.415010449485,0.295480269002,-0.12636354387,-1.7378403262,0.0530101252814,2.02564816254,0.0960472106543,-0.254367269565,-0.901507001077,-0.012652709417,-1.32273559763,-0.109130645903,0.390745267688,-0.264429039617,0.573602080795,0.819117223526,0.00289377475807,0.0,0.819084804017,-0.573538402274,-0.011598786448,0.0,-0.00784122576814,0.00902350870234,-0.999928543182,0.0,0.608563428835,0.191520629819,0.304033823471,1.0,-0.220417142857,-0.289691102041,1.366
0.410408434992,0.27954252057,-0.126540550003,-1.76054835741,0.051157926766,2.03260040138,0.0912350836171,-0.275419238404,-0.943484403347,-0.00729888039674,-1.36303586723,-0.10720117213,0.407080386457,-0.287695215022,0.573617677476,0.819105812448,0.00302902659814,0.0,0.819074622173,-0.573552943101,-0.0115987789704,0.0,-0.00776346962275,0.00913443933727,-0.999928142697,0.0,0.60477238474,0.186546760595,0.304099601212,1.0,-0.229752571429,-0.301960522449,1.383
0.405443114802,0.2631083807,-0.12674062908,-1.78369323691,0.049126388918,2.03952094824,0.0861774710613,-0.298260897015,-0.983228380717,-0.0142943239944,-1.379186185,-0.124845539188,0.413345196334,-0.301969283828,0.573649011707,0.819083478715,0.00313259712728,0.0,0.819053837096,-0.573584189289,-0.0115211387297,0.0,-0.00764011330169,0.00917503219099,-0.999928721186,0.0,0.600837072719,0.181323592007,0.304200759384,1.0,-0.239088,-0.314229942857,1.4
0.400390889588,0.247383045412,-0.12693058108,-1.80588449056,0.0471607388974,2.04600631726,0.081229342085,-0.318156942593,-0.98372284888,-0.00914816182367,-1.39471983075,-0.1280368048,0.392951776296,-0.31935901488,0.573784096144,0.81898899748,0.0030951447201,0.0,0.818958665917,-0.573719128903,-0.0115676942874,0.0,-0.00769821882954,0.00917233119778,-0.999928300313,0.0,0.596986358933,0.176183927633,0.304196306715,1.0,-0.247874285714,-0.325777632653,1.416
0.394125556769,0.228131910635,-0.127101905607,-1.8327036692,0.0447712935748,2.05374369601,0.074950037923,-0.328886755728,-1.02158591434,-0.00331074725861,-1.4097645423,-0.126664158282,0.404768076734,-0.331770751693,0.573722333951,0.819031848443,0.00320338318978,0.0,0.819002380092,-0.573656382125,-0.0115846256934,0.0,-0.00765068348337,0.00927011542602,-0.999927763392,0.0,0.592206888658,0.169981302941,0.304242027981,1.0,-0.258308,-0.339490514286,1.435
0.388869889672,0.212491451863,-0.127258839215,-1.85424201958,0.0426626675898,2.05983813283,0.0697116943113,-0.360059101422,-1.0692903555,-0.0101009397555,-1.43607126676,-0.132268416782,0.407847901568,-0.345933306884,0.573590448984,0.819124005162,0.00325697739892,0.0,0.819095919888,-0.573525190134,-0.0114663510381,0.0,-0.00752454967584,0.00924494433259,-0.999928953554,0.0,0.588293840126,0.164887781164,0.304303648055,1.0,-0.266545142857,-0.350316473469,1.45
0.382882850127,0.195548181839,-0.127455607055,-1.8775008689,0.0404182745654,2.06616845528,0.0638584920734,-0.382563806877,-1.08482713194,-0.0201287958691,-1.47877870473,-0.145722856134,0.418000532153,-0.371196665275,0.573527545659,0.819168261397,0.00320324714634,0.0,0.819139338495,-0.573462284113,-0.0115108527146,0.0,-0.00759252995998,0.00922587448098,-0.999928615817,0.0,0.583968105466,0.15924851825,0.304304351478,1.0,-0.275331428571,-0.361864163265,1.466
0.375543636237,0.176013087089,-0.127785515622,-1.90394820153,0.0378908885561,2.07323652877,0.0569274681664,-0.413342361932,-1.1142800111,-0.0248206559196,-1.47656303858,-0.145220031564,0.400131372157,-0.394582972236,0.573699476515,0.81904748682,0.00329725354702,0.0,0.819019340894,-0.573633364816,-0.0115251426203,0.0,-0.00754836978106,0.00931266201245,-0.999928145638,0.0,0.578994628502,0.152557426753,0.304357193526,1.0,-0.285216,-0.374855314286,1.484
0.368269502474,0.157143712287,-0.128015068647,-1.92925348262,0.0353033284998,2.0797658324,0.0500399242796,-0.426959900408,-1.14632040195,-0.017997504632,-1.48792198144,-0.158384418762,0.405749968863,-0.417022613579,0.573661551894,0.819074055091,0.00329591517895,0.0,0.819045912034,-0.573595474289,-0.0115227061316,0.0,-0.00754757292069,0.00930981857805,-0.999928178131,0.0,0.574086369017,0.146125931068,0.3043890051,1.0,-0.294551428571,-0.387124734694,1.501
0.361029269207,0.13918507438,-0.128222204571,-1.95321521199,0.0328049563562,2.08576921199,0.0433058675976,-0.463770832745,-1.14882472977,-0.0172536802185,-1.48343072468,-0.14884171962,0.378462658625,-0.427115202885,0.573655588539,0.819078487351,0.00323174841553,0.0,0.819049298782,-0.573589448951,-0.0115817579947,0.0,-0.00763281898178,0.00929108035443,-0.999927705337,0.0,0.569331696138,0.139921181988,0.304362152508,1.0,-0.303337714286,-0.39867242449,1.517
0.352827755223,0.119594874929,-0.128538801511,-1.97890560326,0.0301120759253,2.09200177407,0.0356937901455,-0.495284394537,-1.16795505071,-0.0198909352082,-1.49330745158,-0.14385231724,0.370794998687,-0.448094840722,0.573695545809,0.819050226027,0.00330073705979,0.0,0.81902157034,-0.57362874015,-0.0115966673454,0.0,-0.00760500178912,0.00935651139412,-0.999927307179,0.0,0.564139370843,0.133068860476,0.304406100241,1.0,-0.312673142857,-0.410941844898,1.534
0.344048278768,0.0996520582201,-0.128929145097,-2.00478540402,0.0272052542605,2.09808822145,0.0276610375711,-0.521467288954,-1.177928723,-0.0105099562057,-1.50064238863,-0.165221893834,0.361509050769,-0.480599236698,0.573773146736,0.818995827129,0.00331030697681,0.0,0.818967853875,-0.573706989789,-0.011519161797,0.0,-0.00753514426771,0.00932060016294,-0.999928171427,0.0,0.558811723641,0.125927269956,0.304438424594,1.0,-0.322008571429,-0.423211265306,1.551
0.33541589416,0.0805973553595,-0.129213104566,-2.02932913541,0.0245432319711,2.10348936855,0.0196870785884,-0.549647281463,-1.19232350596,-0.0150017268292,-1.49369014507,-0.153312414674,0.315553125085,-0.514944265004,0.573712464792,0.819038563703,0.00325358424714,0.0,0.819008603617,-0.573644963772,-0.0117093826372,0.0,-0.00772418243391,0.00938271291129,-0.999926148125,0.0,0.553573485765,0.11915506608,0.304407075148,1.0,-0.32998,-0.433688,1.567
0.325098148656,0.0590581755678,-0.129614476357,-2.05674309592,0.0213144071461,2.10940829879,0.0103815575098,-0.590250191338,-1.19365903095,-0.0252468069196,-1.48354616076,-0.17192726478,0.316206310136,-0.521776895475,0.573760931661,0.819004848479,0.00319348855443,0.0,0.818974299052,-0.573693856878,-0.0117133673392,0.0,-0.00776136930751,0.00933623735929,-0.999926295193,0.0,0.547641898087,0.111288015018,0.304376270726,1.0,-0.32998,-0.433688,1.585
0.314305105447,0.0376470520957,-0.129910452511,-2.08352941819,0.0181680284818,2.11475915386,0.000910119163684,-0.601574908086,-1.19411680832,-0.00685270177918,-1.45994569173,-0.165577747465,0.297351115247,-0.524648078087,0.573929151821,0.818887102968,0.00316040879825,0.0,0.818855273519,-0.573861151524,-0.0118392019648,0.0,-0.00788148570914,0.00938296120388,-0.999924918292,0.0,0.541665202219,0.103422299231,0.304373221308,1.0,-0.32998,-0.433688,1.603
0.305080729963,0.0199901909862,-0.130154027979,-2.1053339823,0.0154547663854,2.11895596151,-0.00732103400226,-0.621341889857,-1.14702738492,-0.0129596363756,-1.41696326876,-0.174335110856,0.2653990254,-0.556382828246,0.573879957753,0.818921666934,0.00313758139015,0.0,0.818889611271,-0.573812129768,-0.011840235857,0.0,-0.00789599544751,0.00936438715179,-0.99992497794,0.0,0.536696672043,0.0968893433237,0.304377340196,1.0,-0.32998,-0.433688,1.618
0.294256460478,6.96452583684e-05,-0.130482459767,-2.12939371313,0.0124484298504,2.12333260096,-0.01680695928,-0.644232126138,-1.15154791883,-0.0175850298808,-1.4122138415,-0.181437645575,0.241192598482,-0.56064128275,0.574007963398,0.818831324051,0.00329660582438,0.0,0.818801381944,-0.573939617536,-0.0117626208772,0.0,-0.00773969875434,0.00945128542519,-0.99992538235,0.0,0.53110665548,0.089444159611,0.304482996673,1.0,-0.32998,-0.433688,1.635
0.283270308322,-0.0195643765208,-0.130667515491,-2.15288506753,0.009451401765,2.1273952179,-0.0265943779537,-0.655055754183,-1.1426552718,-0.018328688088,-1.38776075413,-0.192499984149,0.227210670894,-0.582945746507,0.573846866349,0.818943656473,0.00343633591535,0.0,0.818915518536,-0.573778061824,-0.0116985542227,0.0,-0.00760890910438,0.00952743092207,-0.999925663518,0.0,0.525497570149,0.0821711147861,0.304546879013,1.0,-0.32998,-0.433688,1.652
0.272499294258,-0.0378732271223,-0.130946690241,-2.1743447904,0.00658697636775,2.13081051583,-0.0359659455117,-0.677829717851,-1.13178869594,-0.0213914857494,-1.3428367069,-0.18077812048,0.199492395426,-0.596238659745,0.573930227748,0.818884560998,0.00359393062176,0.0,0.818859002775,-0.573861596218,-0.0115563342449,0.0,-0.00740102742431,0.00957563635077,-0.999926763309,0.0,0.520270906714,0.0752073835534,0.304669238267,1.0,-0.32998,-0.433688,1.668
0.260759523046,-0.0571292295441,-0.131189843039,-2.19673411627,0.00365009623069,2.13415498836,-0.046300648102,-0.689386156222,-1.11173074526,-0.00541017705767,-1.30436098166,-0.169862538985,0.179873051946,-0.611749021643,0.573901802461,0.818903646872,0.00377957303598,0.0,0.818880251622,-0.57383230655,-0.011504971289,0.0,-0.00725276147084,0.00969792819392,-0.999926671131,0.0,0.514679660151,0.0678680032071,0.304745831441,1.0,-0.32998,-0.433688,1.685
0.248690596387,-0.076109093405,-0.131469104194,-2.21859761666,0.000659364397839,2.1371472245,-0.0569010068082,-0.722304039527,-1.11736162498,-0.0201618983562,-1.2760490041,-0.174279381717,0.174236434486,-0.627234876038,0.573879439057,0.818918956465,0.00385733987377,0.0,0.818896488537,-0.573809615298,-0.0114809997289,0.0,-0.00718876801417,0.00974765943459,-0.999926649685,0.0,0.509082576594,0.0605143167708,0.304773879987,1.0,-0.32998,-0.433688,1.702
0.236984668521,-0.0936304034869,-0.131738591786,-2.23872097819,-0.00212423104773,2.13951552448,-0.067179831467,-0.7284050559,-1.10270355167,-0.00842545552634,-1.22508385011,-0.167398089325,0.142064877241,-0.639231528618,0.573869532116,0.818926558065,0.00371476876633,0.0,0.818901069199,-0.573798581484,-0.0117035743735,0.0,-0.00745298232305,0.00975854074649,-0.999924609127,0.0,0.503771192415,0.0535793111209,0.304692041408,1.0,-0.32998,-0.433688,1.718
0.224298112167,-0.112124040417,-0.131969077622,-2.25966108194,-0.00518037205677,2.1417879119,-0.0783364301971,-0.756031882351,-1.06673022194,-0.0170228237149,-1.23566048833,-0.183399987724,0.109069937854,-0.659641659241,0.57373278165,0.819023205738,0.00352570899944,0.0,0.818994652407,-0.57366170876,-0.0118638161167,0.0,-0.00769432459855,0.00969438368501,-0.999923405214,0.0,0.497775697145,0.0458465498186,0.304602683398,1.0,-0.32998,-0.433688,1.736
0.210320641829,-0.131581288533,-0.132341117706,-2.28118764488,-0.00832794589209,2.14384391081,-0.0905572261485,-0.774331927412,-1.07495637432,-0.0104850259365,-1.19513728258,-0.176396214985,0.0990817595037,-0.693566304167,0.573802649345,0.818974062214,0.00357098396126,0.0,0.818945860026,-0.573731106101,-0.0118761584397,0.0,-0.00767762896106,0.00973920121785,-0.99992309803,0.0,0.492167477612,0.0384314825358,0.304619862743,1.0,-0.32998,-0.433688,1.753
0.197651286247,-0.148705165145,-0.132612278845,-2.29983191774,-0.0110965557031,2.14541577626,-0.101769604425,-0.803755284777,-1.05875256451,-0.0214376751602,-1.16079420208,-0.171059144836,0.0896785642526,-0.701169920027,0.573704017233,0.819042863756,0.00363797238783,0.0,0.819015342487,-0.573632009562,-0.0118715322562,0.0,-0.00763658339258,0.00979048944451,-0.999922911484,0.0,0.486883899787,0.0315431231173,0.304638584605,1.0,-0.32998,-0.433688,1.769
0.183706076544,-0.166650448038,-0.133024580727,-2.31912577058,-0.0139977152848,2.14669461351,-0.113922114758,-0.819981480711,-1.0707206892,-0.016614916256,-1.10651979623,-0.162258000647,0.0816718391706,-0.721158867466,0.573882417882,0.818917776136,0.00365968235501,0.0,0.81888966306,-0.57380918561,-0.0119785285002,0.0,-0.00770961900307,0.00987133300269,-0.999921556203,0.0,0.481260996108,0.0241139395133,0.304635215401,1.0,-0.32998,-0.433688,1.786
0.168579972545,-0.185429983868,-0.133412432662,-2.33905262285,-0.0170897626935,2.14771499743,-0.12730434747,-0.85488577662,-1.04665723338,-0.0326505284828,-1.097839487,-0.180948740512,0.0418203285956,-0.750655226904,0.573858215126,0.818934871407,0.00362935624846,0.0,0.818905507227,-0.573784010818,-0.0121006637609,0.0,-0.00782733963659,0.00991635604781,-0.999920196134,0.0,0.475281253024,0.0162986069014,0.304613376466,1.0,-0.32998,-0.433688,1.804
0.154770855272,-0.201917284623,-0.133733770921,-2.35607273573,-0.0198035756823,2.14848423271,-0.13954116597,-0.859638030078,-1.01635203253,-0.0146836124574,-1.06348562122,-0.161226512631,0.0350610099262,-0.775515102182,0.573826687601,0.818956077725,0.0038239057339,0.0,0.818929980504,-0.573752710092,-0.0119273465182,0.0,-0.00757414246993,0.00997593286011,-0.999921553488,0.0,0.470067597043,0.00937016523795,0.304704630572,1.0,-0.32998,-0.433688,1.82
0.139706103425,-0.219221723679,-0.13416884069,-2.37372833066,-0.0226138936003,2.14893514091,-0.152857992651,-0.891409565556,-1.02136885416,-0.0314813513617,-1.02581295064,-0.168251900815,0.0267792853843,-0.791499392955,0.57393601006,0.818878685572,0.00398767776017,0.0,0.818854508665,-0.573861155766,-0.0118917804318,0.0,-0.00744969559053,0.0100906432027,-0.999921337384,0.0,0.464483377867,0.00196967600714,0.304768360533,1.0,-0.32998,-0.433688,1.837
0.12527769573,-0.235182636528,-0.134426833876,-2.39004575692,-0.0253595978323,2.14907777086,-0.165712570926,-0.909462772466,-1.00185148401,-0.0166063638038,-1.01804796689,-0.172796772132,0.00341903394829,-0.818309006171,0.573771333677,0.818994738752,0.0038498633503,0.0,0.818968367825,-0.573696464638,-0.0119969106585,0.0,-0.0076169003661,0.0100365929684,-0.999920621665,0.0,0.458827133913,-0.00531612614565,0.304709814127,1.0,-0.32998,-0.433688,1.854
0.109441612156,-0.251945722521,-0.134860406974,-2.40664912437,-0.028093006965,2.14911816402,-0.179851428704,-0.935014023731,-0.966924434825,-0.0206064523045,-0.975610533019,-0.167728485477,-0.0052622580292,-0.836427654488,0.573844797941,0.818942137901,0.00408283570227,0.0,0.818919045523,-0.57376941735,-0.0118743207675,0.0,-0.0073819174982,0.0101577246855,-0.999921160854,0.0,0.453610868736,-0.012276607023,0.304780250143,1.0,-0.32998,-0.433688,1.87
0.0932884164767,-0.268428414329,-0.135195749393,-2.42284028334,-0.0308559040499,2.14895245301,-0.194331727583,-0.964550166965,-0.966193440399,-0.0235808007496,-0.927388269878,-0.160538785809,-0.00834761391355,-0.863028284941,0.573769159468,0.81899447603,0.00421269232788,0.0,0.818973656296,-0.573694171418,-0.0117428648825,0.0,-0.00720068307251,0.0101879739021,-0.999922174647,0.0,0.448038080326,-0.0195881542873,0.304810225563,1.0,-0.32998,-0.433688,1.887
0.0767008919373,-0.284600165196,-0.135616024147,-2.43856771631,-0.0335387835799,2.1484282975,-0.209294726765,-0.971991450615,-0.952811528621,-0.0187143845208,-0.912544230473,-0.151277162656,-0.0406091612821,-0.886316822779,0.573738811364,0.819015415267,0.00427466851231,0.0,0.818994786199,-0.573662751958,-0.0118039864794,0.0,-0.00721556770783,0.0102735341937,-0.999921191934,0.0,0.442417369985,-0.0269374642637,0.304793562559,1.0,-0.32998,-0.433688,1.904
0.0606413657691,-0.299660289009,-0.136087099598,-2.45278187777,-0.0360715812433,2.14782011652,-0.223771859464,-1.01277818982,-0.951958962883,-0.0355019339138,-0.877026130626,-0.15900608902,-0.0384385795437,-0.905673327212,0.573799703893,0.818971559313,0.00449797170548,0.0,0.818954762971,-0.573724292545,-0.011587892491,0.0,-0.00690969178084,0.0103329635735,-0.999922740027,0.0,0.437182988526,-0.0339250326705,0.304885847255,1.0,-0.32998,-0.433688,1.92
0.0422363243552,-0.31614102283,-0.136501912138,-2.46834659823,-0.0388663326192,2.1467684347,-0.240399970303,-1.02742388899,-0.918572008546,-0.0254680524467,-0.8410340755,-0.161782849199,-0.0637232789741,-0.942373324695,0.573784572979,0.818982131373,0.00450324378038,0.0,0.818964953161,-0.573708475813,-0.0116506298899,0.0,-0.00695824254133,0.0103731502433,-0.999921987264,0.0,0.43122014919,-0.0416843939114,0.304867413484,1.0,-0.32998,-0.433688,1.938
0.0243829735319,-0.331282326185,-0.136975936776,-2.48227480599,-0.0413816859641,2.1456798608,-0.256640206076,-1.05324004889,-0.858277552885,-0.0221673882273,-0.839124970327,-0.151381348832,-0.0699354797736,-0.972800888857,0.57383624026,0.818944803827,0.00470367421343,0.0,0.818930587244,-0.573760090677,-0.0115238241716,0.0,-0.00673872512371,0.010464972105,-0.999922533971,0.0,0.425682952524,-0.0490665233412,0.304929409171,1.0,-0.32998,-0.433688,1.955
0.00721130118896,-0.345221003327,-0.137452597443,-2.4951046376,-0.0438000543993,2.14439660737,-0.272307626219,-1.09141193642,-0.845789697328,-0.0417502340448,-0.77041696791,-0.148656372315,-0.0815612119213,-0.979100480852,0.57386199186,0.818926834638,0.00469049135599,0.0,0.818911864186,-0.573784975299,-0.0116149781696,0.0,-0.00682061515798,0.0105066958146,-0.999921541198,0.0,0.420375459178,-0.0560189310462,0.304892868328,1.0,-0.32998,-0.433688,1.971
-0.0102612203136,-0.358853350596,-0.1378005392,-2.50722320466,-0.0461312043784,2.14304064209,-0.288402126463,-1.10556973193,-0.834859013538,-0.0277332283666,-0.747163305465,-0.138721907876,-0.0791921839613,-1.01701324077,0.573730209818,0.819018353276,0.0048301387789,0.0,0.819006287432,-0.573654536535,-0.0113982788637,0.0,-0.00656469495321,0.0104956530269,-0.999923370088,0.0,0.415175871099,-0.0629050307604,0.304984919931,1.0,-0.32998,-0.433688,1.987
-0.0304224325366,-0.37366955537,-0.138307192208,-2.52059711635,-0.048731932285,2.1412430598,-0.306985123756,-1.12539006128,-0.789894459817,-0.0254773868105,-0.728212330845,-0.147728950713,-0.109550656722,-1.04485499736,0.57369257711,0.819045255347,0.00473746378894,0.0,0.819030729972,-0.573615192023,-0.0116198856704,0.0,-0.0067998619434,0.0105465736354,-0.999921262731,0.0,0.409177806062,-0.070702974979,0.304895514417,1.0,-0.32998,-0.433688,2.005
-0.0487459095255,-0.386538064801,-0.138765391261,-2.53170237795,-0.050963488389,2.1395901309,-0.323832566676,-1.15108969056,-0.809265801507,-0.0237696349449,-0.693666962136,-0.147821284877,-0.101286270478,-1.06099142697,0.573773007165,0.818988112802,0.00487383207588,0.0,0.818976201713,-0.573696550778,-0.0114453288894,0.0,-0.00657761429594,0.0105587765453,-0.99992262062,0.0,0.403951662662,-0.0776626660402,0.30498391468,1.0,-0.32998,-0.433688,2.021
-0.06859013466,-0.399660049115,-0.139253342795,-2.54318521387,-0.0531476071535,2.13771404978,-0.342293711547,-1.19218696665,-0.76890960107,-0.0437777180552,-0.665796172931,-0.117193802646,-0.112635641052,-1.09611538341,0.573788459487,0.818976813424,0.00495275021353,0.0,0.818964645451,-0.573709716448,-0.0116111005546,0.0,-0.00666790958979,0.01071864919,-0.999920321596,0.0,0.39831964984,-0.085014444075,0.304931474951,1.0,-0.32998,-0.433688,2.038
-0.0899215733403,-0.413119285213,-0.139673164709,-2.55458959567,-0.0555214868321,2.13561805645,-0.362266204702,-1.20298632011,-0.747093600139,-0.0243816328053,-0.619217995621,-0.132702949036,-0.102746222955,-1.13365937792,0.573632626638,0.81908570509,0.0049964262618,0.0,0.819074575089,-0.573554543239,-0.0115227285901,0.0,-0.00657250583049,0.0107024648401,-0.999921126596,0.0,0.392419996581,-0.0927490246732,0.304977166908,1.0,-0.32998,-0.433688,2.056
-0.109396392934,-0.424550032575,-0.140147472066,-2.5642473113,-0.0575883301569,2.1337040856,-0.380466932416,-1.22028303969,-0.691696479581,-0.0303882885504,-0.610947111523,-0.122916280629,-0.127452608287,-1.14265774128,0.573652320664,0.81907186028,0.00500495713583,0.0,0.819060687699,-0.573573959671,-0.0115433771198,0.0,-0.00658426905664,0.0107214551279,-0.999920845768,0.0,0.387136639488,-0.0997151465201,0.304969606532,1.0,-0.32998,-0.433688,2.072
-0.130351432618,-0.436192159867,-0.140561372733,-2.57408741103,-0.0596254966736,2.13149640038,-0.400166487916,-1.23590659953,-0.668170269243,-0.0153891742015,-0.567595168547,-0.117935999485,-0.1274209885,-1.16228797776,0.573603111785,0.819106609341,0.00495778028609,0.0,0.819093130081,-0.573522186173,-0.0118107206977,0.0,-0.00683097391371,0.0108357585393,-0.999917958701,0.0,0.381474024995,-0.107011565771,0.304897557118,1.0,-0.32998,-0.433688,2.089
-0.151749050102,-0.447376256289,-0.141069170476,-2.58299942588,-0.06155118976,2.12949752716,-0.420385518466,-1.26243093527,-0.63786781851,-0.0238920895364,-0.514143463873,-0.122470320814,-0.114451937673,-1.17503214768,0.573641468582,0.819078087102,0.00522490711652,0.0,0.819069761954,-0.573562469547,-0.0114701997001,0.0,-0.00639830178726,0.0108595547091,-0.999920562748,0.0,0.375963437014,-0.114415067985,0.305041445239,1.0,-0.32998,-0.433688,2.106
-0.172226895627,-0.45732620721,-0.141469564876,-2.59118733621,-0.0633552578429,2.12737975504,-0.439765709905,-1.29440077414,-0.615683341502,-0.0369821778904,-0.494939310463,-0.106402921216,-0.139005313902,-1.23066223306,0.573622441147,0.819091710097,0.00517806577849,0.0,0.819081346457,-0.573541190045,-0.0117046191162,0.0,-0.00661744988558,0.0109555002073,-0.999918089831,0.0,0.370289395849,-0.121757579027,0.304984566429,1.0,-0.32998,-0.433688,2.123
-0.195519574676,-0.467748754209,-0.141893903318,-2.59967372221,-0.06524991442,2.12519588037,-0.462013412667,-1.30596519568,-0.563762130141,-0.0190724330426,-0.453231688029,-0.0914792072411,-0.111201041886,-1.23116514367,0.573500868373,0.819176688197,0.00520138357749,0.0,0.819166077121,-0.573418651033,-0.0117786095774,0.0,-0.00666632037803,0.0110160518948,-0.99991709995,0.0,0.364703867787,-0.129050459607,0.304949462986,1.0,-0.324506285714,-0.42649397551,2.14
-0.217667178542,-0.476788969197,-0.142208342102,-2.60669561608,-0.0667583518164,2.12327227287,-0.482949678847,-1.30071960434,-0.51383306851,-0.0198110923789,-0.396020791551,-0.0747058283964,-0.117847160923,-1.21114403846,0.573678981987,0.819050615345,0.00540943907488,0.0,0.819043601482,-0.573597573994,-0.0115822657973,0.0,-0.00638374370521,0.0110752821471,-0.999918289633,0.0,0.359296414783,-0.136297611752,0.305038827619,1.0,-0.315170857143,-0.414224555102,2.157
-0.238391341842,-0.48452391442,-0.142334676117,-2.6128085887,-0.0680933850644,2.12146355003,-0.502574350275,-1.29088243915,-0.46994868802,-0.00380362894301,-0.371085389169,-0.0783403148469,-0.114246453801,-1.1865062013,0.573749965706,0.819000748499,0.0054311796467,0.0,0.818993721672,-0.573667964632,-0.011623128569,0.0,-0.00640378051707,0.0111170856881,-0.999917697614,0.0,0.354259400032,-0.142921913696,0.305037407231,1.0,-0.306384571429,-0.402676865306,2.173
-0.258794399343,-0.491469523621,-0.142390706107,-2.6183870762,-0.0691776672442,2.11971102816,-0.521973174611,-1.26148970469,-0.414331529853,0.0040882355763,-0.338002192776,-0.0717136497217,-0.107350712928,-1.22295282352,0.573827830674,0.818945829201,0.00548602587384,0.0,0.818937767563,-0.573742609492,-0.011878460065,0.0,-0.00658037521958,0.0113091224884,-0.999914397541,0.0,0.349330216126,-0.149314553449,0.304970625369,1.0,-0.297598285714,-0.39112917551,2.189
-0.281422221365,-0.4984790047,-0.142334336628,-2.62379090514,-0.0702534362535,2.11811118337,-0.543471554461,-1.24760629696,-0.37130750202,0.00218623035828,-0.280952676374,-0.0559152118908,-0.0874986223205,-1.19539681085,0.573936780926,0.818868544926,0.00562356929804,0.0,0.818863030242,-0.573852377531,-0.0117274637382,0.0,-0.0063762753181,0.0113359740351,-0.999915415826,0.0,0.344045166434,-0.156339173952,0.305008403618,1.0,-0.287713714286,-0.37813802449,2.207
-0.300990001112,-0.503908434518,-0.142101667941,-2.62800495437,-0.0710420419858,2.11670161735,-0.562219757327,-1.22668739611,-0.320570659372,0.00504317693065,-0.25097686945,-0.0409873918065,-0.0766887738586,-1.18753790537,0.573891802628,0.818899735481,0.00567177281421,0.0,0.818894369298,-0.573806388179,-0.01178930523,0.0,-0.0063998826788,0.0114105881408,-0.999914416328,0.0,0.339229723431,-0.162659349554,0.304998820608,1.0,-0.278378285714,-0.365868604082,2.224
-0.322639544088,-0.509298050803,-0.141881032851,-2.6320794657,-0.0717665460977,2.11536889232,-0.582908928835,-1.18683289399,-0.283880983564,0.0203459516372,-0.213531877917,-0.0371458626037,-0.0737563497742,-1.14039798531,0.573934600559,0.818868881945,0.00579442532317,0.0,0.818865838065,-0.573850073797,-0.0116438376355,0.0,-0.00620976446399,0.0114278782727,-0.999915417635,0.0,0.334590494481,-0.168838100212,0.305047720191,1.0,-0.269042857143,-0.353599183674,2.241
-0.342613826892,-0.513728055326,-0.141585561758,-2.63553294768,-0.0723534208274,2.11409575913,-0.602048165087,-1.16393612695,-0.246166728634,0.0208286092655,-0.195830371121,-0.0241222944343,-0.0743796305432,-1.10853502831,0.573952532303,0.818856036529,0.00583343844988,0.0,0.818852533683,-0.573866093066,-0.0117890716459,0.0,-0.00630606136118,0.011543315624,-0.999913488985,0.0,0.330023747305,-0.174775877181,0.305016668026,1.0,-0.259707428572,-0.341329763265,2.258
-0.359770092929,-0.517025365111,-0.141336544683,-2.63821612367,-0.0727555344445,2.11312730602,-0.618537274194,-1.13641872213,-0.204852969915,0.0143962601702,-0.16817323087,-0.0227908503154,-0.0586467330783,-1.08325704158,0.573991534049,0.818828301527,0.00588883344584,0.0,0.818823982155,-0.573902071428,-0.0120185506758,0.0,-0.00646164013039,0.0117206900514,-0.999910432305,0.0,0.326116862771,-0.179833921732,0.304937569977,1.0,-0.251470285714,-0.330503804082,2.273
-0.378631678049,-0.520242624629,-0.140881566994,-2.64075456384,-0.0731551038529,2.11223928844,-0.636718214487,-1.10323641929,-0.177233706272,0.0202675080366,-0.136393545205,-0.0208237640164,-0.0503658461254,-1.0642835122,0.573904597561,0.81888927387,0.00588361616382,0.0,0.81888454852,-0.573814562726,-0.012070240208,0.0,-0.00650821090627,0.0117453948502,-0.999909840381,0.0,0.321905189799,-0.18533907261,0.304903917769,1.0,-0.242134857143,-0.318234383674,2.29
-0.396979416833,-0.522915294592,-0.140503606329,-2.64276619608,-0.0734375047198,2.11143812183,-0.654414586803,-1.04890539387,-0.151823838472,0.0225221263271,-0.110745013002,-0.0122859270438,-0.0469829459411,-1.0403900757,0.573898668287,0.818892885653,0.00595879731689,0.0,0.818889013681,-0.573808088543,-0.012075085746,0.0,-0.00646912026322,0.0118096966599,-0.999909336664,0.0,0.317614873936,-0.190998125126,0.304911899474,1.0,-0.232250285714,-0.305243232653,2.308
-0.413739438058,-0.525037964714,-0.140132543914,-2.64432579457,-0.0736662293921,2.11079699795,-0.670545509316,-1.0393186041,-0.11620047663,0.0252236583809,-0.0905170509469,-0.0219142763161,-0.0449829300675,-1.00189640654,0.573990846774,0.818827995406,0.00599738787083,0.0,0.818824929072,-0.573900641604,-0.0120223125021,0.0,-0.00640242456573,0.0118117354437,-0.999909741859,0.0,0.314152470947,-0.195575199337,0.304936350236,1.0,-0.224013142857,-0.294417273469,2.323
-0.4318832263,-0.526877490425,-0.139652380263,-2.64571943711,-0.0737677796913,2.11023682964,-0.6880931013,-1.0070260702,-0.091664540977,0.0152558719175,-0.0741072491024,-0.0116352895765,-0.0285215326994,-0.958539014981,0.57401314705,0.818811773541,0.00607728759919,0.0,0.818809805322,-0.573922711205,-0.0119987988051,0.0,-0.00633698636088,0.0118638393546,-0.999909541868,0.0,0.310187516863,-0.200806302538,0.304940820731,1.0,-0.214128571429,-0.281426122449,2.341
-0.448372153784,-0.528238728737,-0.139149454294,-2.6467446913,-0.0738526801548,2.10980560292,-0.704049135706,-0.943981401345,-0.0690909445104,0.0347525096659,-0.0498599108983,7.46933867297e-05,-0.0234960919469,-0.920579171524,0.573997015565,0.818822997102,0.00608871416624,0.0,0.818821398728,-0.573906950678,-0.0119614317153,0.0,-0.00630006128175,0.011851623737,-0.999909920064,0.0,0.306592741019,-0.205530029275,0.30494867498,1.0,-0.204793142857,-0.269156702041,2.358
-0.463368848087,-0.52915827051,-0.138722556681,-2.64744355885,-0.073866537829,2.10948117532,-0.718485994298,-0.939033809928,-0.0555268374147,0.0268269465323,-0.0376066914974,-0.00110286484826,-0.0167165994809,-0.885359919369,0.574106692671,0.81874578968,0.00613059654244,0.0,0.818744767464,-0.574016491148,-0.0119507548562,0.0,-0.00626568733999,0.0118806309249,-0.999909791817,0.0,0.303327001454,-0.209825257609,0.304950302651,1.0,-0.196006857143,-0.257609012245,2.374
-0.478495332428,-0.52978963775,-0.138129008289,-2.64793685804,-0.0738606279166,2.10921454834,-0.733226728979,-0.874726246555,-0.0345713076284,0.0316320417158,-0.022084988459,-0.00174172921897,-0.0134926674588,-0.855545103869,0.573977269554,0.818836923779,0.00607726847059,0.0,0.818835246343,-0.573887387138,-0.0119521182864,0.0,-0.00629928932759,0.0118367537388,-0.999910101067,0.0,0.300062173001,-0.214112510466,0.304949300481,1.0,-0.186671428572,-0.245339591837,2.391
-0.493095652823,-0.530130391863,-0.137624086092,-2.64820245336,-0.0738519994943,2.10901614797,-0.74730568404,-0.845635285876,-0.00954124340634,0.0366981205614,-0.010700473961,-0.0031114084382,-0.00508366693654,-0.826186228884,0.574036193526,0.818795953444,0.00603175331063,0.0,0.818793692485,-0.573946501204,-0.0119603429336,0.0,-0.00633129858419,0.0118046585725,-0.999910278322,0.0,0.296900287985,-0.218269076827,0.304949159078,1.0,-0.177336,-0.233070171429,2.408
-0.506017050728,-0.530250662118,-0.137023602885,-2.64831361944,-0.073774832943,2.10890426243,-0.759992991307,-0.803661288593,-0.00598516470203,0.0356186445811,-0.00708408956833,0.000137141554749,-0.0110636172647,-0.779393973015,0.573830973357,0.818940328833,0.00595808094354,0.0,0.818937205878,-0.573741801151,-0.0119559751511,0.0,-0.00637295282886,0.0117402290545,-0.999910772266,0.0,0.29412637512,-0.221896914122,0.304948675354,1.0,-0.168549714286,-0.221522481633,2.424
-0.520114138809,-0.530188759932,-0.136443893127,-2.64831054409,-0.0736724014199,2.10885833737,-0.773492471648,-0.754576901113,0.00521583576262,0.0432720442905,0.00140898428713,0.0111811170175,-0.00717222864271,-0.729690741071,0.573955733988,0.818853257626,0.00590802831304,0.0,0.818849577059,-0.573866909236,-0.0119535574257,0.0,-0.0063979106702,0.0116988245501,-0.99991109817,0.0,0.291077178031,-0.225865525105,0.304938727285,1.0,-0.158665142857,-0.208531330612,2.442
-0.532445868348,-0.529955695626,-0.135790314568,-2.6481814537,-0.0734463308726,2.10886555004,-0.785558276928,-0.714477505574,0.0166308267691,0.0384505103293,0.0101379336499,0.00789532482111,0.0107464297566,-0.701014360325,0.573816706766,0.818950804896,0.00589178219249,0.0,0.818946926353,-0.57372799954,-0.0119524584125,0.0,-0.0064083184064,0.0116838021907,-0.999911207169,0.0,0.288440355088,-0.22928554527,0.304930102228,1.0,-0.149329714286,-0.196261910204,2.459
-0.543639677749,-0.529633536052,-0.135293395634,-2.64797978919,-0.07321373035,2.1088656009,-0.796279162119,-0.686247834426,0.0215171823559,0.0315673613414,0.0159786303082,0.0118225295983,0.000132744116621,-0.652207314395,0.573964508451,0.818846908137,0.00593556851665,0.0,0.818843314383,-0.57387507366,-0.011990547255,0.0,-0.00641227118305,0.0117426752411,-0.999910492172,0.0,0.28601306769,-0.232400298692,0.304917210672,1.0,-0.140543428572,-0.184714220408,2.475
-0.554568835456,-0.529122399392,-0.13458947665,-2.6476643956,-0.0728672129237,2.10892493643,-0.807020150149,-0.63193171487,0.0314385388603,0.0345363559537,0.0150868491972,0.0176911297069,0.00653185293994,-0.621591317653,0.573788206604,0.818970313838,0.00595532667261,0.0,0.818966631541,-0.573698093489,-0.012037476942,0.0,-0.00644190073737,0.0117844030176,-0.999909810813,0.0,0.283698021727,-0.235385222567,0.304897393423,1.0,-0.131208,-0.1724448,2.492
-0.565048327462,-0.528532756495,-0.134002440711,-2.64727483351,-0.0725620824178,2.10901338236,-0.817052775104,-0.608320751784,0.0329165028551,0.0267721259456,0.0237963499882,0.0181293110237,0.00134880626491,-0.580695447935,0.573892539604,0.818897006566,0.00598268543294,0.0,0.818893455912,-0.573801878164,-0.0120689428423,0.0,-0.00645046921963,0.011825685889,-0.999909268184,0.0,0.281453886581,-0.238272252808,0.304881902761,1.0,-0.121872571429,-0.160175379592,2.509
-0.574138708598,-0.527875992087,-0.133395997951,-2.64680131947,-0.0722275844183,2.10914237597,-0.825889058345,-0.544686899617,0.0411982862507,0.0428004500564,0.0310560856962,0.0242015940546,0.00447222030283,-0.542833558839,0.573842121162,0.8189321977,0.00600187067821,0.0,0.818928989718,-0.573751559319,-0.012050098753,0.0,-0.00642475489028,0.0118301878873,-0.999909380484,0.0,0.279547238265,-0.240766632702,0.304883831345,1.0,-0.113086285714,-0.148627689796,2.525
-0.583055788424,-0.527127555224,-0.132762214379,-2.64628790088,-0.0718759944451,2.1092517995,-0.834545936512,-0.51561286066,0.0403782982477,0.0336051907937,0.0299933506212,0.0205973970931,0.0108704860831,-0.503390463252,0.573786842078,0.818970831044,0.0060153684829,0.0,0.818967432965,-0.573695560904,-0.0121034723424,0.0,-0.00646152501132,0.0118714326202,-0.999908654719,0.0,0.27767200573,-0.243195289158,0.304869186281,1.0,-0.103750857143,-0.136358269388,2.542
-0.591461523561,-0.526387204011,-0.132183080728,-2.64575915845,-0.0715168624544,2.10935786339,-0.842466328314,-0.478113023957,0.0461036528897,0.0272949748525,0.0290045688666,0.0290846427944,0.00253032341185,-0.459067812701,0.573958148803,0.818850493145,0.00605476676098,0.0,0.8188473322,-0.573866150468,-0.0121422731484,0.0,-0.00646820519539,0.0119273158657,-0.999907946492,0.0,0.275894184722,-0.24548328856,0.304862548109,1.0,-0.0944154285715,-0.12408884898,2.559
-0.598970750157,-0.525594066763,-0.131544895609,-2.64518510094,-0.071119946946,2.10951333458,-0.849737684117,-0.413249091934,0.0441150759491,0.0406768338965,0.0270509177451,0.0321655266222,0.00369459416426,-0.405729364637,0.573903336631,0.818888708413,0.00608196835905,0.0,0.818885871807,-0.573811173392,-0.0121413815639,0.0,-0.00645266310031,0.0119486474013,-0.999907792231,0.0,0.274352823742,-0.247512019445,0.304862648087,1.0,-0.0850800000001,-0.111819428572,2.576
-0.605754315541,-0.524841087081,-0.130878025566,-2.64464903701,-0.0707311302475,2.10964425173,-0.85630521577,-0.390268376921,0.0363879482444,0.0406942048092,0.0273550169957,0.0130255123568,0.00467187100763,-0.372958845852,0.573804502589,0.818957932111,0.00608647211461,0.0,0.818954969343,-0.573711998135,-0.0121675094312,0.0,-0.00647292090799,0.0119665486741,-0.999907447221,0.0,0.272970872244,-0.249315379687,0.304858516996,1.0,-0.0757445714287,-0.0995500081634,2.593
-0.611971655533,-0.524138619203,-0.130210199441,-2.64411721133,-0.0703548429996,2.10980274465,-0.862078844527,-0.350585347603,0.0496634586803,0.0380882985484,0.0298410202855,0.0274986295765,0.0110594862806,-0.323152494669,0.573885288518,0.818901446634,0.00606986203645,0.0,0.81889856273,-0.573793387195,-0.0121259915815,0.0,-0.00644726948021,0.0119297591598,-0.999908052554,0.0,0.271723180349,-0.250961752985,0.304873068204,1.0,-0.0664091428572,-0.0872805877552,2.61
-0.617110051331,-0.523471342353,-0.129624415571,-2.64362549135,-0.0699598575317,2.10994045936,-0.866912962787,-0.311182298552,0.0359939526979,0.0363456921612,0.0309161354407,0.0262280791458,0.00608676950117,-0.288170808427,0.573915446287,0.818880046858,0.0061054297759,0.0,0.818877664406,-0.573823452208,-0.0121145917937,0.0,-0.00641708225318,0.0119525815552,-0.99990797419,0.0,0.270710461965,-0.252313965877,0.304878274178,1.0,-0.057622857143,-0.0757328979593,2.626
-0.621877054729,-0.522850325688,-0.128983338809,-2.64319310598,-0.0695584191716,2.11006590809,-0.871420674562,-0.265206441293,0.0362437547069,0.0399440267098,0.021762929913,0.0171699022523,0.00420236953171,-0.249334010994,0.573869036122,0.818912438006,0.00612332927337,0.0,0.818910167186,-0.573776745902,-0.0121297503504,0.0,-0.00641990309035,0.0119755753079,-0.999907680959,0.0,0.269782745223,-0.25353312543,0.304873586771,1.0,-0.0482874285715,-0.0634634775511,2.643
-0.625880675997,-0.522373694191,-0.128250782817,-2.64283308537,-0.0691487069462,2.11018102654,-0.875115752908,-0.224020425434,0.0276792895331,0.0449226132696,0.0177651559419,0.0169596680856,0.0111625655089,-0.207454375427,0.573797292918,0.818962871849,0.00610148127471,0.0,0.818960601473,-0.573705645935,-0.0120876779649,0.0,-0.00639902840534,0.0119329794153,-0.999908324017,0.0,0.269048889058,-0.254505129229,0.304890162441,1.0,-0.0389520000001,-0.051194057143,2.66
-0.629063508838,-0.522003335259,-0.127588242614,-2.6425551636,-0.0688004015056,2.11024955901,-0.878018016897,-0.185914538662,0.025410769481,0.0384623486527,0.0194373409845,0.0254241800964,0.00811059368257,-0.159193305414,0.573721408588,0.819016296637,0.00606614141189,0.0,0.819013669667,-0.573630123942,-0.0120762869718,0.0,-0.0064110778159,0.0118969061627,-0.999908676683,0.0,0.268476682821,-0.255251140764,0.304902572194,1.0,-0.0301657142858,-0.0396463673471,2.676
-0.631805419525,-0.521659555312,-0.126962604316,-2.64230247553,-0.0684160031096,2.11034216372,-0.880408455061,-0.142435054983,0.0160753576127,0.0343710714273,0.0144221690705,0.0290908800591,0.00255146316645,-0.131109789344,0.57374360505,0.819000686069,0.00607443693442,0.0,0.818998394751,-0.573652703477,-0.0120396050073,0.0,-0.00637595034825,0.0118828292599,-0.999909068679,0.0,0.268009208338,-0.255879497511,0.30491433701,1.0,-0.0208302857144,-0.0273769469389,2.693
-0.634074928119,-0.521361745468,-0.126499159813,-2.64211065879,-0.0680731283286,2.11038790343,-0.882268529957,-0.115000370177,0.0124821376721,0.0157947922144,0.0124560070623,0.015551490756,-0.000565020145658,-0.0959668050298,0.57390725933,0.818885573883,0.00613363477908,0.0,0.8188838214,-0.573815634482,-0.0120686194185,0.0,-0.00636336532056,0.0119492326411,-0.999908357511,0.0,0.267602448896,-0.256399535458,0.304907310909,1.0,-0.0196509677419,-0.0258269861751,2.711
-0.635735769487,-0.521138714485,-0.126169921924,-2.64196447029,-0.0678866513029,2.11038830071,-0.88381925588,-0.102929502369,0.0130463171123,0.0227935480064,0.0051491741721,0.0152652254782,-0.000107788078894,-0.0881273642513,0.573851653582,0.818924551177,0.00613237826758,0.0,0.818922411157,-0.573759350838,-0.0121259528282,0.0,-0.00641185455159,0.0119806707438,-0.999907671563,0.0,0.26729230146,-0.256785309578,0.304899791892,1.0,-0.0193309677419,-0.0254064147465,2.727
-0.637324874651,-0.520878592807,-0.125929804352,-2.64174895199,-0.0677357929418,2.11044786339,-0.88530371821,-0.0874383532953,0.0175661551745,0.0146455140176,0.0143512467829,0.00239837231167,0.00401869520812,-0.0813506518849,0.573842860683,0.81893072671,0.00613049710804,0.0,0.818928760171,-0.573750938472,-0.0120951754639,0.0,-0.00638785534928,0.0119614007786,-0.999908055871,0.0,0.267002527456,-0.257199998671,0.304913005249,1.0,-0.0189909677419,-0.0249595576037,2.744
-0.638791973873,-0.52059880043,-0.125768612903,-2.64155960088,-0.0676607009175,2.11054657473,-0.886845558014,-0.0857373372443,0.0159626718401,0.0130166148836,0.0100647523063,-7.13932044211e-06,0.000769985971735,-0.0908499046152,0.573709590819,0.819024289618,0.00610453270337,0.0,0.819022121006,-0.573618064813,-0.0120759232789,0.0,-0.0063889272557,0.0119280499775,-0.999908447425,0.0,0.266719626743,-0.257605398144,0.30490847681,1.0,-0.0186509677419,-0.0245127004608,2.761
-0.640176189442,-0.520395499267,-0.12565828742,-2.64141102426,-0.0676324136246,2.11054083439,-0.888173792253,-0.0855353018605,0.0112501094119,0.00908349255627,0.0096961745844,-0.000119365240443,0.000727658140818,-0.0800680755838,0.573697235189,0.819033158392,0.00607574620803,0.0,0.819030303841,-0.573605260033,-0.0121290540826,0.0,-0.00644914165599,0.0119348548384,-0.999907979672,0.0,0.266418011872,-0.257980794047,0.304903373129,1.0,-0.0183309677419,-0.0240921290323,2.777
-0.64165210015,-0.520179937878,-0.125600370393,-2.64122705355,-0.067599432696,2.11055559194,-0.889687075525,-0.0831087650859,0.0129607849126,0.00799513267778,0.01234471885,-0.000269497228567,0.000349970793709,-0.089531606594,0.573649248019,0.819066791584,0.00607273192094,0.0,0.819063845348,-0.57355719943,-0.0121368500007,0.0,-0.00645795601225,0.0119364798494,-0.999907903386,0.0,0.266092478921,-0.258402930935,0.304910334895,1.0,-0.0179709677419,-0.0236189861751,2.795
-0.642913610414,-0.519973136173,-0.125580025321,-2.64105008786,-0.0675626147939,2.11062942239,-0.890934627097,-0.0758787891856,0.0130700926194,0.00185071825619,0.0140670550108,0.000497415891528,0.00677441138009,-0.0749708679393,0.573680704505,0.819044672245,0.00608449235107,0.0,0.819042218967,-0.573589227573,-0.0120825685406,0.0,-0.00640628746324,0.011915221954,-0.999908489296,0.0,0.265802857573,-0.258807817138,0.304921182898,1.0,-0.0176309677419,-0.0231721290323,2.812
-0.644188801624,-0.519782255406,-0.125582495696,-2.64089159773,-0.0675358022903,2.11068046653,-0.892172341787,-0.0813344606263,0.0133050105975,-0.000502518188758,0.0108816117025,0.000705697821063,0.00237165021588,-0.0843257197975,0.573723308705,0.819014712121,0.00610026871311,0.0,0.819012606792,-0.57363202016,-0.0120582861372,0.0,-0.00637672705571,0.0119145461928,-0.999908686301,0.0,0.265534039543,-0.259163058699,0.304927569169,1.0,-0.0173309677419,-0.022777843318,2.827
-0.645622629235,-0.519582199113,-0.12558143665,-2.64070731261,-0.0675104632049,2.11069153216,-0.893592202586,-0.0771803472094,0.0103618624945,0.000312078438935,0.0124600849566,0.00174966140251,0.000738522900887,-0.0720071296889,0.573754342968,0.818992841705,0.00611768437367,0.0,0.818990973049,-0.57366299131,-0.012054267561,0.0,-0.00636299223405,0.0119267462692,-0.999908628352,0.0,0.265204412941,-0.259585998105,0.304938669425,1.0,-0.0169709677419,-0.0223047004608,2.845
-0.646930586996,-0.519397865362,-0.125574994878,-2.64053932184,-0.0674821864602,2.11074187668,-0.894856644821,-0.0730728772694,0.00753161555194,-0.000130803926226,0.00812447562723,-1.55583373665e-05,0.00345819538085,-0.0711022045266,0.573806146467,0.818956451641,0.00613053774386,0.0,0.818955007848,-0.573715212939,-0.0120123463631,0.0,-0.00632052747602,0.0119136221369,-0.999909054134,0.0,0.26491111213,-0.259975296249,0.304951622296,1.0,-0.0166309677419,-0.021857843318,2.862
-0.648117460487,-0.519211681225,-0.125544894303,-2.64038667003,-0.0674574181996,2.11080984162,-0.896055732989,-0.0720128327788,0.0149581174049,0.00346101076677,0.00910674658211,0.000252172000956,0.00371198596735,-0.0684586505486,0.573793313961,0.818965460424,0.00612816344788,0.0,0.818964247315,-0.573702886906,-0.0119710515926,0.0,-0.0062882537862,0.0118878850091,-0.999909563938,0.0,0.264652833657,-0.260325916996,0.30495897649,1.0,-0.0163109677419,-0.0214372718894,2.878
-0.649326918435,-0.519013088976,-0.125488926868,-2.64021036794,-0.0674336418218,2.11082993592,-0.897264287605,-0.0669501493014,0.00646274762102,0.00753566375977,0.00814465645642,-0.000189384217146,-0.000258143813397,-0.0766129889031,0.573773639566,0.818979346622,0.00611451112158,0.0,0.818977995117,-0.573683347506,-0.0119669214314,0.0,-0.00629298944596,0.0118741827384,-0.999909696957,0.0,0.264391338496,-0.260675851139,0.304969023885,1.0,-0.0159709677419,-0.0209904147465,2.895
-0.650499315144,-0.51879145176,-0.125423986114,-2.64004582402,-0.0674011063973,2.11086765728,-0.898471476388,-0.0642857888727,0.0155724339924,0.00914602829327,0.0110873320747,0.0041125104578,0.00130618153762,-0.0737214036118,0.573721642359,0.81901584804,0.00610447784684,0.0,0.819014293517,-0.573631266366,-0.0119793223494,0.0,-0.00630965697562,0.0118726796896,-0.999909609768,0.0,0.264141387639,-0.261011956173,0.304966951516,1.0,-0.0156309677419,-0.0205435576037,2.912
-0.65158340374,-0.518590858559,-0.125379400934,-2.63990641287,-0.0673804392265,2.11090974294,-0.899647321175,-0.065739605258,0.0118810880226,0.00153813096589,0.0120719485136,-0.000507634910768,0.00406472587791,-0.071030383642,0.573631082645,0.819079336761,0.00609655775463,0.0,0.819077597414,-0.573540605051,-0.0119921087958,0.0,-0.00632598689034,0.0118728288186,-0.999909504818,0.0,0.263903987687,-0.261324674534,0.30496107806,1.0,-0.0153109677419,-0.0201229861751,2.928
-0.652812034008,-0.518375727838,-0.125372342877,-2.63973781859,-0.0673521444383,2.11093814916,-0.900845231597,-0.0684715712307,0.00857948062662,-0.00171016196494,0.00478903530012,0.000827300781273,0.00163269016862,-0.0634602023017,0.5736721449,0.819050464337,0.00611178671445,0.0,0.819048844097,-0.573581446165,-0.0120026038468,0.0,-0.00632525257235,0.0118916402879,-0.999909285921,0.0,0.26362507362,-0.261688031792,0.304961045796,1.0,-0.0149509677419,-0.019649843318,2.946
-0.653941929474,-0.518173671148,-0.125372065252,-2.63958127919,-0.0673301138746,2.11098150208,-0.901993768489,-0.066380149952,0.0116577493617,0.00106061379203,0.00823733379727,0.000729765443271,0.0081381724884,-0.0698776637869,0.573674280377,0.81904887713,0.00612403518399,0.0,0.819047433005,-0.573583561018,-0.0119978297591,0.0,-0.00631428465309,0.0118989507419,-0.999909268274,0.0,0.263369384039,-0.262026430173,0.304961450475,1.0,-0.0146109677419,-0.0192029861751,2.963
-0.655005789503,-0.517993272685,-0.12537505179,-2.63943720718,-0.0673085483062,2.11102746938,-0.903033517927,-0.0702595476653,0.0105824125147,0.000850925040751,0.0134353489331,0.00469692492071,0.00208686214637,-0.059162186527,0.573712862643,0.819021756383,0.00613683226596,0.0,0.819020570186,-0.573622253905,-0.0119817502351,0.0,-0.00629321172971,0.0119005052101,-0.999909382625,0.0,0.263127882239,-0.262345492767,0.304964304755,1.0,-0.0142909677419,-0.0187824147465,2.979
-0.656112529546,-0.517807444767,-0.125372595514,-2.63928497219,-0.067290954543,2.11104126556,-0.904051799242,-0.0627720429896,0.0117113299937,0.00122129568504,0.00643614295694,-0.000328232685063,0.00138727577223,-0.0630849473439,0.573799012267,0.818961333603,0.00614609520286,0.0,0.818960179959,-0.573708179948,-0.0119956159965,0.0,-0.00629800183731,0.0119167092773,-0.99990915948,0.0,0.262872254494,-0.262672296453,0.304966237801,1.0,-0.0139509677419,-0.0183355576037,2.996
-0.657154403853,-0.517629867514,-0.125367737116,-2.63912943483,-0.0672717074455,2.11108026761,-0.905135924029,-0.0609836406625,0.0120461934857,-0.000916463028513,0.0113672313732,0.00338031572021,0.00332267783581,-0.0605890970891,0.573777204223,0.818976564777,0.00615249222958,0.0,0.818975630642,-0.573686607822,-0.0119724400822,0.0,-0.00627566627971,0.011908483677,-0.99990939791,0.0,0.262638863104,-0.26298569305,0.30497491054,1.0,-0.0136109677419,-0.0178887004608,3.013
-0.658164304356,-0.51743747752,-0.125352405273,-2.63897268505,-0.0672536535743,2.1111293671,-0.90619648302,-0.0574985199844,0.00972255071118,0.000280166509666,0.0108900252917,-0.000711082881469,0.00668075687136,-0.0611527024642,0.573740682684,0.819002156809,0.00615167261132,0.0,0.819001328559,-0.573650318704,-0.0119533497824,0.0,-0.00626103084308,0.0118965801521,-0.999909631353,0.0,0.262417258852,-0.263289834729,0.304979772332,1.0,-0.0132709677419,-0.017441843318,3.03
-0.659105429662,-0.517247545403,-0.125307707388,-2.6388375891,-0.0672394739263,2.11117173103,-0.907128761085,-0.057914962095,0.0137610859609,0.00633153391356,0.0079227333309,0.000936192060647,0.00106113438157,-0.0620089179751,0.573729380348,0.819010195,0.00613559396024,0.0,0.819009121762,-0.573639017558,-0.0119617267189,0.0,-0.00627728089819,0.0118881303625,-0.999909629967,0.0,0.262213643797,-0.263563265811,0.304975807618,1.0,-0.0129509677419,-0.0170212718894,3.046
-0.659869748227,-0.5171082398,-0.125284675163,-2.63873750958,-0.0672272786494,2.11119014028,-0.907881982086,-0.0559876273045,0.0122174600322,-0.00232480568762,0.00881793646063,-0.000451226264912,-0.00060964138182,-0.0601237313015,0.573732605423,0.819007959879,0.00613237566564,0.0,0.819006742413,-0.573642061711,-0.0119786400927,0.0,-0.00629293412293,0.0118952224269,-0.999909447232,0.0,0.262040843573,-0.263783515549,0.304972034071,1.0,-0.0126909677419,-0.0166795576037,3.059
-0.660992583524,-0.516879987852,-0.125233696672,-2.63858061013,-0.0672072237411,2.11122287279,-0.909035044515,-0.0518308855688,0.00946179927194,0.00430412694829,0.00826602815438,0.000423644270837,9.8320031558e-06,-0.0539815343518,0.57368853248,0.819038920764,0.00612052910165,0.0,0.819037349305,-0.573597671099,-0.0120116216289,0.0,-0.00632738619879,0.0119041007076,-0.999909124156,0.0,0.26179325425,-0.26410590749,0.304963153317,1.0,-0.0122909677419,-0.016153843318,3.079
-0.661961645838,-0.51668252111,-0.125224345701,-2.63844290055,-0.0671914569137,2.11129396798,-0.909996799055,-0.0526277097941,0.0122843841114,-0.00122164863786,0.00526647648079,-4.03693914695e-05,0.00389065867929,-0.0548926822938,0.573701862055,0.819029587163,0.00612010848734,0.0,0.819028115276,-0.573611197403,-0.0119953116725,0.0,-0.00631407397486,0.0118945025682,-0.999909322528,0.0,0.261578671178,-0.264398299954,0.304959182021,1.0,-0.0119309677419,-0.0156807004608,3.097
-0.662855270307,-0.516507880133,-0.125205826994,-2.6382971256,-0.0671743931856,2.11131481972,-0.910858861804,-0.0528802810257,0.0110031745097,0.000834514206314,0.0110115503106,-0.000443968052429,0.000109494818283,-0.0551110631731,0.573729395253,0.819010309763,0.00611885815632,0.0,0.819008803844,-0.573638696621,-0.0119988277388,0.0,-0.00631727143256,0.011895707911,-0.999909287993,0.0,0.261380358529,-0.264664028668,0.304963213418,1.0,-0.0115909677419,-0.015233843318,3.114
-0.663678628251,-0.516351981602,-0.12518954584,-2.63817259967,-0.0671572979609,2.11133595362,-0.911701652811,-0.0506765212529,0.0143388623523,-0.00168367353074,0.0116441989798,-0.000125417155393,-0.000325956671675,-0.0522421222783,0.573715690747,0.819019894467,0.00612091166728,0.0,0.819018376589,-0.573624913499,-0.0120043460642,0.0,-0.00632081251619,0.0119004499517,-0.999909209189,0.0,0.261195555689,-0.264906584819,0.304964468376,1.0,-0.0112709677419,-0.0148132718894,3.13
-0.664601900145,-0.51616971984,-0.125178755071,-2.63803343349,-0.0671380172146,2.1113762662,-0.912629027329,-0.0562802518313,0.0117769182152,0.00017024356572,0.0110343609817,0.000741594543492,0.000960348843872,-0.0482391878288,0.573720158987,0.819016732722,0.00612516083977,0.0,0.819015281635,-0.573629384495,-0.0120018579068,0.0,-0.00631627181481,0.0119025373174,-0.999909213037,0.0,0.260988742298,-0.265182146257,0.304964147203,1.0,-0.0109109677419,-0.0143401290323,3.148
-0.665442713349,-0.516013438226,-0.12516600818,-2.63792242938,-0.0671216963375,2.11140171415,-0.913425470705,-0.0494094413818,0.00531740455691,0.000413756756755,0.00391588235244,-5.65547065327e-05,0.00216292349902,-0.0463987268322,0.573760258507,0.818988609615,0.00612943554607,0.0,0.81898711769,-0.573669275685,-0.0120170750596,0.0,-0.006325700534,0.0119150782458,-0.999909004071,0.0,0.260795592963,-0.265426920648,0.304959386199,1.0,-0.0105709677419,-0.0138932718894,3.165
-0.666172416713,-0.515869773375,-0.125167360843,-2.63783265141,-0.0671014691065,2.11142791939,-0.914133297547,-0.0433196558657,0.00970050624812,0.00055381948685,0.00652479624093,0.00146610794441,0.00137191128507,-0.0417533740708,0.573792579328,0.818965844596,0.00614558329449,0.0,0.818964406373,-0.573701225665,-0.0120395874708,0.0,-0.00633440421004,0.0119414698338,-0.999908634137,0.0,0.260624560395,-0.265640054258,0.304949366715,1.0,-0.0102709677419,-0.0134989861751,3.18
-0.667005738121,-0.515703985871,-0.125167359892,-2.6377154303,-0.0670871655305,2.1114657763,-0.91497511563,-0.0443712878986,0.00393524319105,0.000944704668303,0.00524497404467,0.00173924368083,0.0068205888464,-0.0418041481764,0.573797895332,0.818962064716,0.0061529480172,0.0,0.818960677939,-0.57370642498,-0.0120454484563,0.0,-0.00633490149465,0.011950905544,-0.999908518255,0.0,0.260433084549,-0.265888797537,0.304944664233,1.0,-0.00991096774194,-0.013025843318,3.198
-0.667763172912,-0.515532757496,-0.125143975442,-2.63760326966,-0.0670640690596,2.11149460204,-0.915730435535,-0.0482394646189,0.00713046128411,0.00227412242847,0.00879265272561,3.19076246858e-05,0.00513584319166,-0.0419284680291,0.573798838026,0.818961369967,0.00615750628664,0.0,0.818959876295,-0.573707034248,-0.0120709061111,0.0,-0.00635312345275,0.0119692529325,-0.999908183188,0.0,0.260264921388,-0.266109033903,0.304935432322,1.0,-0.00957096774194,-0.0125789861751,3.215
-0.668447794993,-0.515392814808,-0.125121198461,-2.63749384628,-0.0670447714333,2.1115109542,-0.916376679217,-0.0406758222784,0.00592917940158,0.00116454792782,0.0114493367621,0.000670880140515,-0.000739021306727,-0.0414949839913,0.573828018053,0.818940919402,0.00615817568358,0.0,0.818939371197,-0.573736086,-0.0120812592723,0.0,-0.00636079242739,0.0119759681604,-0.999908054026,0.0,0.260113617831,-0.266308779978,0.304935417859,1.0,-0.00925096774194,-0.0121584147466,3.231
-0.669141485062,-0.515245365293,-0.125075576542,-2.63738371137,-0.0670219473899,2.11155569855,-0.917053575408,-0.0391635566512,0.00963169722831,0.00475681817374,0.0102275134154,-0.000144958951923,0.00028447607109,-0.0382765649128,0.573824832151,0.818943231478,0.00614756253453,0.0,0.81894162531,-0.573733098254,-0.0120703439819,0.0,-0.00635798881691,0.0119609882492,-0.99990825116,0.0,0.259969583839,-0.266509653552,0.304935910675,1.0,-0.00891096774194,-0.0117115576037,3.248
-0.669819467126,-0.515115660831,-0.125023561681,-2.6372905125,-0.067002107263,2.1115798116,-0.91773563018,-0.0389055096438,0.004996878061,0.00211227299456,0.00147515905892,-9.89100352982e-05,0.00462249872853,-0.0346008044617,0.573797886651,0.81896219908,0.0061358499549,0.0,0.818960392614,-0.573706119892,-0.0120793306867,0.0,-0.00637246324237,0.0119563427049,-0.999908214578,0.0,0.259824122495,-0.266698217408,0.304933644799,1.0,-0.00857096774194,-0.0112647004608,3.265
-0.670427794382,-0.515000988126,-0.124998725498,-2.63721266335,-0.0669806846709,2.11160246562,-0.918385478407,-0.039272682721,0.00478301535389,0.00201739188846,0.00356744919658,0.00337216587839,0.000265035016367,-0.0366803192146,0.573759485729,0.818989069335,0.00614033774017,0.0,0.81898724988,-0.573667573446,-0.0120891112808,0.0,-0.00637846015055,0.0119653309603,-0.999908068825,0.0,0.259687839021,-0.266870347059,0.304929189377,1.0,-0.00825096774194,-0.0108441290323,3.281
-0.671010744,-0.514893361052,-0.1249791636,-2.63712960843,-0.0669634022551,2.11161948886,-0.918984283433,-0.0348031116382,0.00827818481947,0.00117338729279,0.00551633899681,-0.000448058306681,0.00045736431446,-0.0363399186157,0.573744292909,0.818999694431,0.00614278252205,0.0,0.818997878139,-0.573652319305,-0.0120929343583,0.0,-0.00638041094613,0.0119694083722,-0.999908007578,0.0,0.25955711134,-0.267038042085,0.304929089658,1.0,-0.00793096774194,-0.0104235576037,3.297
-0.671656429547,-0.514781875068,-0.124965668617,-2.63706054395,-0.0669297826355,2.11164723263,-0.919609201495,-0.037029807999,0.00546457659689,0.000588430939067,0.0038751536791,0.000130050795877,-0.000160417746828,-0.028014878653,0.573769750034,0.818981704653,0.00616346418975,0.0,0.818980083822,-0.573677540797,-0.012101586254,0.0,-0.00637525950362,0.0119915094124,-0.999907775631,0.0,0.259408090899,-0.267219445934,0.304921988036,1.0,-0.00757096774194,-0.00995041474655,3.315
-0.6722502316,-0.514671012461,-0.124955719975,-2.63698662574,-0.0669089937473,2.11166096416,-0.920173764393,-0.0387111421608,0.00870036097977,0.000947757270876,0.00300437545614,0.00240800038435,0.000941500976694,-0.0357913553925,0.573799417051,0.818960829713,0.00617537757921,0.0,0.818959235136,-0.573706905835,-0.0121204077503,0.0,-0.00638340532466,0.0120122966744,-0.999907474152,0.0,0.259269777031,-0.267388617204,0.304916031306,1.0,-0.00723096774194,-0.00950355760369,3.332
-0.672814269978,-0.514582306546,-0.124939882322,-2.63691053732,-0.0668850386187,2.11167878799,-0.920731820925,-0.0346990372697,0.00590416313816,0.00187999338384,0.00674096033455,-0.000195591580162,0.00100592179332,-0.0253849487217,0.573807189933,0.818955313083,0.00618472763005,0.0,0.818953893107,-0.573714734737,-0.0121107808008,0.0,-0.00637004155371,0.0120144911858,-0.999907533011,0.0,0.25914253679,-0.26754997156,0.304919730715,1.0,-0.00689096774194,-0.00905670046084,3.349
-0.67333349301,-0.514479295049,-0.124917121257,-2.63683019713,-0.0668626931047,2.11169398373,-0.921251812462,-0.0300277232474,0.00440833855873,-0.000100737342619,0.00610264880623,0.00161772405277,0.001373328093,-0.0279064443092,0.573804089042,0.818957450627,0.00618937495514,0.0,0.818956062615,-0.573711559843,-0.0121144752027,0.0,-0.00637044641856,0.012020392981,-0.999907459501,0.0,0.25902883319,-0.267698816557,0.304920011376,1.0,-0.00655096774194,-0.00860984331798,3.366
-0.673721967961,-0.514417083329,-0.124878015451,-2.63676320983,-0.0668436774126,2.11171113799,-0.921641849488,-0.0280359263237,0.00669938182699,0.00145273406416,0.00251734410077,0.00287293711535,-0.000435276563295,-0.0322470234063,0.573786480613,0.818969850375,0.00618107950793,0.0,0.818968514412,-0.573694294272,-0.0120903276109,0.0,-0.00635568611497,0.011999607061,-0.999907803092,0.0,0.258951637717,-0.267808079133,0.304929846501,1.0,-0.00629096774194,-0.00826812903226,3.379
-0.674289536262,-0.514322022976,-0.124850701534,-2.63668342863,-0.0668204118577,2.1117348537,-0.922217357456,-0.0289335965179,0.00462396034299,-0.00107223274278,0.00207808676857,0.000821011960738,0.00407419932825,-0.0307702309692,0.57377458596,0.818978166563,0.00618337295766,0.0,0.81897693574,-0.573682534256,-0.012077893706,0.0,-0.00634436032331,0.0119942592245,-0.999907939181,0.0,0.258827312077,-0.267969511209,0.304933639568,1.0,-0.00589096774194,-0.00774241474655,3.399
-0.674719434752,-0.514229523442,-0.124822989335,-2.63660833973,-0.0668006355932,2.11175714325,-0.922639656035,-0.0229747217067,0.00598687821247,0.00121392971685,0.00345373296113,-2.15981774219e-05,-0.000183389130639,-0.0201918514287,0.573773415632,0.818979000566,0.00618150848089,0.0,0.818977795482,-0.573681466945,-0.0120702896674,0.0,-0.00633921896474,0.0119883603317,-0.999908042532,0.0,0.258738354502,-0.268094137489,0.30493613023,1.0,-0.00555096774194,-0.00729555760369,3.416
-0.675098769589,-0.514155723844,-0.124805553317,-2.63656436181,-0.0667798616222,2.11177804065,-0.9230244017,-0.022734899756,0.00883359390313,-0.000309305366158,0.00369858500844,0.00149757617735,0.000219164021479,-0.0276760899655,0.573767809049,0.81898286883,0.00618940734778,0.0,0.818981722983,-0.573675744326,-0.0120757895748,0.0,-0.00633927397285,0.0119979418183,-0.99990792726,0.0,0.258653919082,-0.268199728519,0.304931038475,1.0,-0.00523096774194,-0.00687498617512,3.432
-0.675517345469,-0.514086081031,-0.124784393158,-2.63651348824,-0.0667600243367,2.11180112446,-0.92343481601,-0.0247395675385,0.00445226389119,0.00157004894487,0.00248678583739,7.10513541755e-05,0.000368940936737,-0.0175559712748,0.57377056204,0.818980911054,0.00619325164477,0.0,0.818979859349,-0.573678563311,-0.0120682591253,0.0,-0.00633086003614,0.0119967911575,-0.999907994374,0.0,0.258561635016,-0.268316931976,0.304930886472,1.0,-0.00487096774194,-0.00640184331798,3.45
-0.675909363054,-0.514024011561,-0.124762687592,-2.63645988272,-0.0667423931492,2.11181550251,-0.923805911786,-0.0249691534008,0.0031413491197,0.000308442277852,0.00146594160713,0.000357986526639,0.00016159088678,-0.0157770656111,0.573782529843,0.818972515196,0.00619473178294,0.0,0.818971537243,-0.573690625352,-0.0120596214589,0.0,-0.00632276070084,0.0119931400259,-0.999908089421,0.0,0.258475778706,-0.268426934037,0.304934041512,1.0,-0.00453096774194,-0.00595498617512,3.467
-0.676253272469,-0.513957928556,-0.124742498948,-2.63641522172,-0.0667258747787,2.11182379211,-0.924135742079,-0.024690543884,0.00517384198485,0.00118188601467,0.00444935566641,0.000402012228603,0.000886451867409,-0.0196419024146,0.57378911166,0.818967877877,0.00619816491839,0.0,0.818966875269,-0.57369705916,-0.012070145983,0.0,-0.00632931471439,0.0120020411733,-0.999907941154,0.0,0.258399324969,-0.268521614961,0.304931093691,1.0,-0.00421096774194,-0.00553441474655,3.483
-0.676572572339,-0.513894481006,-0.124721367635,-2.63636774068,-0.0667183167575,2.11183428694,-0.924437290424,-0.0173745141553,0.00154551231227,0.000342129664629,0.00549922332256,0.000455768522905,0.000906371244794,-0.0200663963648,0.573799073638,0.818960935024,0.00619329464977,0.0,0.818959842411,-0.57370699005,-0.0120753048521,0.0,-0.00633618851165,0.0120010894066,-0.999907909044,0.0,0.258324131679,-0.268616954445,0.304930703438,1.0,-0.00387096774194,-0.00508755760369,3.5
-0.676890145685,-0.513832904901,-0.124707204756,-2.63632967747,-0.0667037836678,2.11184416975,-0.924771321302,-0.0185975642987,0.00640040768155,0.0016014811859,8.21667745207e-05,0.0049388797896,0.00274958564949,-0.0154150833059,0.573779000893,0.818974965182,0.0061976963999,0.0,0.818973859977,-0.573686769769,-0.0120852706719,0.0,-0.00634211980554,0.0120102571099,-0.999907761366,0.0,0.258257751683,-0.268699607038,0.304926316253,1.0,-0.00353096774194,-0.00464070046084,3.517
-0.677158603573,-0.513791413022,-0.12468491105,-2.63630852906,-0.0666904679835,2.11185228061,-0.925023450311,-0.0210148841332,0.00315579080164,0.00155998762036,-0.000441076319001,0.000236413606532,0.000180665915768,-0.0189074410294,0.573783364094,0.818971898661,0.00619896718479,0.0,0.818970744506,-0.573691002393,-0.0120954668232,0.0,-0.00634967798233,0.0120171817826,-0.9999076302,0.0,0.258196923713,-0.268768840259,0.304921807305,1.0,-0.00321096774194,-0.00422012903227,3.533
-0.677430607427,-0.513749445089,-0.124659025245,-2.6362828703,-0.0666751670114,2.11186607682,-0.92528323724,-0.0156891115157,0.00452515896112,0.00145308610259,0.00012239955084,0.000673217076829,0.000165912671438,-0.0182549599181,0.573782855433,0.81897225703,0.00619870373494,0.0,0.818971096806,-0.573690490023,-0.0120959147649,0.0,-0.00635020349377,0.0120172190782,-0.999907626414,0.0,0.25813799052,-0.268840009216,0.304919740552,1.0,-0.00285096774194,-0.00374698617512,3.551
-0.677665405365,-0.513723181773,-0.124630893579,-2.63625578397,-0.0666641493815,2.11187136885,-0.925499633007,-0.00992203791865,0.00255884216998,0.000178224641176,0.00206794071693,0.00030488761521,0.00018221258709,-0.0139187983179,0.573783981026,0.818971510795,0.00619310308523,0.0,0.818970330156,-0.573691739612,-0.0120885535506,0.0,-0.00634737108863,0.0120084172587,-0.999907750143,0.0,0.258088504461,-0.268900926686,0.304923451496,1.0,-0.00251096774194,-0.00330012903227,3.568
