nelsonifechukwu/NELSON_IML_WORK/CNN-GradCAM/train2dof/data_sample_2022-02-21-09-25-16/robot_state.csv
position_joint1,position_joint2,position_joint3,position_joint4,position_joint5,position_joint6,position_joint7,velocity_joint1,velocity_joint2,velocity_joint3,velocity_joint4,velocity_joint5,velocity_joint6,velocity_joint7,ee_T_00,ee_T_10,ee_T_20,ee_T_30,ee_T_01,ee_T_11,ee_T_21,ee_T_31,ee_T_02,ee_T_12,ee_T_22,ee_T_32,ee_T_03,ee_T_13,ee_T_23,ee_T_33,v_x,v_y,time
0.465088621753,0.54759817171,-0.123978553235,-1.3557504491,0.0794660241131,1.89408946471,0.159180003826,-0.0001495860614,-0.000474906088815,-0.000938138700152,-0.000630086314822,-0.000459310619438,-0.000535370581678,0.00145889906428,0.57378967609,0.818988120632,0.00214773800949,0.0,0.818947881545,-0.57373064908,-0.0117582532932,0.0,-0.0083978083281,0.00850581360474,-0.999928561423,0.0,0.661694379678,0.260912117942,0.303381966956,1.0,0.0,0.0,0.0
0.465090608383,0.547600348159,-0.123976801027,-1.35574793151,0.0794681717702,1.89408686678,0.159175675664,0.00126331339804,0.0007198596728,-0.00040498066962,-7.62540545366e-05,-0.000276646396207,-1.7735034182e-06,-0.000329773352346,0.573783697666,0.818992309861,0.00214745958909,0.0,0.818952037897,-0.573724642826,-0.0117618340062,0.0,-0.00840096285976,0.00850757881144,-0.999928519908,0.0,0.661693339574,0.260914888012,0.303381343683,1.0,-0.00026,-0.000341714285714,0.014
0.465083227657,0.547590397459,-0.123976360407,-1.35575496532,0.0794678129697,1.89408573491,0.159176776433,-0.00116278043632,0.000297597296473,0.000324911011696,-0.000299551955214,-0.000170258471575,-0.000162692287947,-0.000610704281952,0.573790599163,0.818987469537,0.00214940779222,0.0,0.818947216032,-0.573731529021,-0.0117616691623,0.0,-0.00839963836475,0.0085091505509,-0.999928517661,0.0,0.661693608969,0.260909420026,0.303384931276,1.0,-0.00062,-0.000814857142857,0.032
0.465082114557,0.547562888823,-0.123979050261,-1.35577864482,0.0794640474044,1.89409552891,0.15917794837,-0.00011188067026,0.000151040042831,0.00372889170334,-0.00131070030573,3.3601044007e-05,0.000975187102478,0.000749165015527,0.573794662601,0.81898459661,0.00215930275271,0.0,0.81894450792,-0.573735590648,-0.0117521007723,0.0,-0.0083860821282,0.00851180570641,-0.999928608847,0.0,0.661691981382,0.260904734209,0.303394080704,1.0,-0.00092,-0.00120914285714,0.047
0.465087128835,0.54744593215,-0.123973309763,-1.35589541705,0.0794653289356,1.89411392745,0.159173227387,-0.000317543337349,-0.00383792408646,0.00152270976129,-0.0105820055578,0.000132225793259,0.000765637385412,-0.0015956958083,0.573789308894,0.818988284145,0.00218319336278,0.0,0.818948372187,-0.573730010043,-0.0117552613674,0.0,-0.00837501903209,0.00853313023569,-0.999928519818,0.0,0.661669272312,0.260900507455,0.303422760677,1.0,-0.00124,-0.00162971428571,0.063
0.465080868376,0.547288725878,-0.123978599481,-1.35609307153,0.0794612297042,1.89415937801,0.159175085564,-0.0016834699324,-0.00791464247226,-0.00573360458795,-0.00827717427961,-0.000409404049195,0.00188751358768,-0.00149745283338,0.57380718158,0.818975744481,0.00218979916482,0.0,0.81893582727,-0.573747762361,-0.0117627760113,0.0,-0.00837719715721,0.00854303482111,-0.999928417,0.0,0.661638331534,0.260869754904,0.303443203529,1.0,-0.00164,-0.00215542857143,0.083
0.465062062103,0.547141516559,-0.123979333149,-1.3562903806,0.0794586104221,1.89425481104,0.159165048846,-2.3781666616e-05,-0.00593339997363,-0.000122922642063,-0.0148970535387,-0.00160891582409,0.008263898361,0.000617934598446,0.573827552578,0.818961349255,0.00223500121316,0.0,0.818921985542,-0.573767923879,-0.0117429989983,0.0,-0.00833485076971,0.00856891298442,-0.999928549444,0.0,0.661623155881,0.260846035239,0.303462821814,1.0,-0.00194,-0.00254971428571,0.098
0.465036033786,0.54694646515,-0.123968670332,-1.3565005903,0.0794524158937,1.89438674882,0.159147189585,-0.00384396495812,-0.0121121446693,0.000874831195522,-0.0150030158325,-7.49769436218e-05,0.00620110830979,-0.00208750853275,0.573837159,0.818954325083,0.00233993156524,0.0,0.818916288983,-0.573777101493,-0.0116917211191,0.0,-0.00823254492895,0.00862551817263,-0.999928910293,0.0,0.6616111072,0.260820567453,0.303512021267,1.0,-0.00228,-0.00299657142857,0.115
0.465003884019,0.546710019285,-0.123977412739,-1.35679303757,0.0794494295978,1.89452110637,0.159128548794,-0.00223419990109,-0.0167032391922,-0.00142823066089,-0.0230902387272,0.000302778494999,0.00803836703605,-0.000501719441553,0.573869980986,0.818931115217,0.002412540878,0.0,0.818893974829,-0.573809606699,-0.0116593374286,0.0,-0.00816401225328,0.00866672579882,-0.999929115872,0.0,0.661587630942,0.260771276275,0.303552241367,1.0,-0.00264,-0.00346971428571,0.133
0.464968704248,0.5464898814,-0.123971537894,-1.3571381398,0.0794405133345,1.89464506933,0.159094212004,-0.00304986355624,-0.010525843344,0.000774855778688,-0.023091624514,7.69595191089e-05,0.00663730578861,-0.00264817989335,0.573883491308,0.818921626966,0.00241954396432,0.0,0.818884440199,-0.573822944393,-0.0116725742737,0.0,-0.00817069098454,0.00868019170209,-0.999928944516,0.0,0.661547321328,0.260720301549,0.303554434381,1.0,-0.00296,-0.00389028571429,0.149
0.464931081958,0.546212627766,-0.123973424734,-1.35755216839,0.0794258296174,1.89479637718,0.158955766883,-0.00367982678547,-0.0174164057262,0.00135996950936,-0.0252492223326,-0.000148408687598,0.00849417125294,-0.00131448344807,0.5738214765,0.818965026408,0.00243834552824,0.0,0.81892799237,-0.573760772449,-0.0116733119855,0.0,-0.00816116437236,0.00869539394056,-0.999928890232,0.0,0.661500875098,0.260656711171,0.303566874967,1.0,-0.0033,-0.00433714285714,0.166
0.464889202268,0.545922562765,-0.123974372273,-1.3580391039,0.079401172001,1.89496334823,0.158933299707,-0.00307738211577,-0.0193685650726,0.000831604403855,-0.0296596514269,-0.000631852210822,0.00930634777514,0.000682188618164,0.57385868539,0.818939024861,0.0024144693621,0.0,0.818901625404,-0.573798004072,-0.0116929609046,0.0,-0.00819056199376,0.00868748731918,-0.999928718589,0.0,0.661442577849,0.260581807638,0.303554975236,1.0,-0.00364,-0.004784,0.183
0.464836343982,0.545614676554,-0.123979697387,-1.35854341307,0.0793332869999,1.89513763206,0.158885700185,-0.0063106934016,-0.0196071715912,-0.000451714888362,-0.0312774384721,-0.00827584453568,0.0117889155239,-0.00608535826518,0.57387683353,0.818926428006,0.00237325778686,0.0,0.818888824977,-0.573816650052,-0.0116743886821,0.0,-0.00819880844208,0.00864326190031,-0.999929034264,0.0,0.661388463673,0.260488778133,0.303548104253,1.0,-0.00396,-0.00520457142857,0.199
0.464780919301,0.545270416933,-0.123977539234,-1.35915190163,0.0792693708689,1.89533413012,0.1587806613,-0.00447998631047,-0.0184473729413,0.00125402861298,-0.0370643623785,-0.000259757359264,0.0117981430814,-0.00941269247539,0.573851607967,0.818944310863,0.00230100840672,0.0,0.818905949546,-0.573791879867,-0.0116906500078,0.0,-0.00825385028707,0.00859317322457,-0.999929013145,0.0,0.661314484822,0.260388647451,0.30351906279,1.0,-0.0043,-0.00565142857143,0.216
0.464729405826,0.544916062226,-0.123978595073,-1.35976296363,0.0792598479352,1.89553365234,0.158698335289,-0.00456961962354,-0.02016392455,0.00118467024824,-0.0388724722908,0.000271594904039,0.0180232487541,-0.0105350592459,0.57385859071,0.818939512843,0.00226695239753,0.0,0.818900432277,-0.573798701403,-0.0117421968661,0.0,-0.00831553473922,0.00859493432284,-0.999928486936,0.0,0.661237390329,0.26029808784,0.303496387392,1.0,-0.0046,-0.00604571428571,0.231
0.464664745012,0.544500085882,-0.123980760327,-1.36047085111,0.0792328252751,1.89577113259,0.158639273701,-0.00545976673941,-0.0190747671676,0.00174041917789,-0.0390384020675,-0.00285523956434,0.00637819134781,-0.00547831053354,0.573896907915,0.818912768313,0.00222797689392,0.0,0.818873015472,-0.573836991609,-0.0117829747292,0.0,-0.00837089406194,0.00858680824333,-0.999928094843,0.0,0.661151816402,0.260187255256,0.303474511679,1.0,-0.00494,-0.00649257142857,0.248
0.464590884054,0.543975358914,-0.123984190482,-1.3613283483,0.0791980702702,1.89608171269,0.158526429503,0.000889200594718,-0.0273807557474,0.000773769332227,-0.0439847084281,-0.000948767430999,0.0167701658326,-0.00873463311004,0.573905946769,0.818906464012,0.00221683631633,0.0,0.818866414298,-0.573845916637,-0.0118070485177,0.0,-0.00839690755059,0.00859159357836,-0.999927835628,0.0,0.661052296903,0.260056994839,0.30346471852,1.0,-0.00532,-0.006992,0.267
0.464524257613,0.543508211312,-0.123996700424,-1.36211617485,0.0791589117063,1.89635027689,0.158415469823,-0.0066094105768,-0.0232747167711,-0.00140149332396,-0.0527574977977,0.000455428367679,0.015209399724,-0.00835454807867,0.573911781124,0.818902490871,0.00217366838988,0.0,0.8188618247,-0.573851863125,-0.011836305952,0.0,-0.00844557937502,0.0085730945535,-0.999927584497,0.0,0.660959234466,0.259930208251,0.303443932119,1.0,-0.00564,-0.00741257142857,0.283
0.464438291907,0.542942760305,-0.123993467016,-1.36301582312,0.0791013810692,1.89666912943,0.158313121758,-0.00197257750591,-0.0315751856297,-0.00103369736804,-0.0549346612439,-0.00212236716386,0.0159931275564,-0.0084931145958,0.573930766848,0.818889222679,0.00215933929362,0.0,0.818848356585,-0.573870889442,-0.011845592853,0.0,-0.00846120926706,0.00856688656093,-0.999927505568,0.0,0.660855369439,0.259788228659,0.303443224018,1.0,-0.006,-0.00788571428571,0.301
0.464369464328,0.542360146077,-0.124000593938,-1.36392328906,0.0790443751789,1.89698086311,0.158182341426,-0.00506395029782,-0.0315332319441,-0.000988017799853,-0.0560191902987,-0.00512723661991,0.0191589083805,-0.00684112988166,0.573920118776,0.818896720473,0.0021460114353,0.0,0.818855693878,-0.573860308643,-0.0118509775615,0.0,-0.00847337901374,0.00855895291902,-0.999927470456,0.0,0.660746484667,0.25965047968,0.303450584021,1.0,-0.00634,-0.00833257142857,0.318
0.464294677807,0.541805886148,-0.124002081406,-1.36480000096,0.0789962394356,1.89731744067,0.158071358436,-0.00272942120303,-0.0323991309371,-0.00167093294104,-0.0577923168656,-0.0058558460705,0.017979578278,0.000217192498071,0.573927478873,0.818891527437,0.00215920983799,0.0,0.818850645315,-0.573867587864,-0.0118473274872,0.0,-0.00846273849457,0.0085677421209,-0.999927485297,0.0,0.66064852288,0.259518466649,0.303454448463,1.0,-0.00666,-0.00875314285714,0.334
0.464213292289,0.541203244352,-0.124002706121,-1.36571081201,0.0789366447227,1.89765610726,0.157946620598,-0.0096439532217,-0.0356566416817,0.000756215847478,-0.0546489084807,-0.00397726382238,0.02258923345,-0.0011414485039,0.573924835994,0.818893330264,0.00217788395125,0.0,0.818852752843,-0.573864934217,-0.0118301876061,0.0,-0.00843801295387,0.00857316981054,-0.999927647731,0.0,0.660539576753,0.25936860457,0.3034742504,1.0,-0.007,-0.0092,0.351
0.464140196365,0.540554716126,-0.124001324675,-1.36669613565,0.0788810172768,1.89802175221,0.157822484441,-0.00336829355469,-0.0432863224946,0.000359714241466,-0.0616124069306,-0.006234136843,0.0311948030257,-0.00790967064562,0.573923998132,0.818893832198,0.0022097191145,0.0,0.818853599438,-0.573863900966,-0.0118217070296,0.0,-0.00841280691414,0.00859436328197,-0.999927678185,0.0,0.660430684182,0.259237368512,0.303497414371,1.0,-0.0073,-0.00959428571429,0.366
0.464043847936,0.539838254937,-0.124002102492,-1.36780364726,0.0788133181681,1.89843412258,0.157675863704,-0.00143312382418,-0.0451492934353,0.00101713098756,-0.066141703891,-0.00269956202634,0.0197665699583,-0.00736290947729,0.573926608866,0.818891955848,0.0022269225986,0.0,0.818851951492,-0.573866449138,-0.0118121544245,0.0,-0.00839508370667,0.00860299528226,-0.999927752911,0.0,0.660304862258,0.259068262489,0.303512347246,1.0,-0.00764,-0.0100411428571,0.383
0.463941249507,0.539132573786,-0.124010669014,-1.36888392991,0.0787556343789,1.89883791022,0.157542399751,-0.0113580585672,-0.0435790079896,6.13234751329e-07,-0.0661390376969,-0.00358661735336,0.0291478530037,-0.019152521544,0.573951670863,0.81887431746,0.00225357912744,0.0,0.818834632944,-0.573891377311,-0.0118016033424,0.0,-0.00837088141801,0.00861902453778,-0.999927817775,0.0,0.660185970855,0.258894650708,0.303532036094,1.0,-0.00796,-0.0104617142857,0.399
0.463835336873,0.538376688861,-0.12401256442,-1.3700664704,0.0786907818725,1.89929761445,0.157399803248,-0.00987789395016,-0.0476797766313,-0.000721028973394,-0.0721696016657,-0.000274661664636,0.0288709818271,-0.00685085605327,0.573971084269,0.818860627765,0.0022833354874,0.0,0.818821301207,-0.573910644112,-0.0117896634955,0.0,-0.00834382135514,0.00863673595846,-0.999927891119,0.0,0.660055409428,0.258713884811,0.303543032838,1.0,-0.0083,-0.0109085714286,0.416
0.463717843622,0.537502985422,-0.124022635144,-1.37144172584,0.0786075441405,1.89982350722,0.157222756347,-0.0068428811976,-0.0512142710099,-0.000396491576889,-0.0737799954809,-0.00698439150662,0.0266548109175,-0.00422425525375,0.573983086368,0.818852168049,0.00230007518413,0.0,0.818813118008,-0.573922641985,-0.0117739414155,0.0,-0.00832121243723,0.00864154134199,-0.999928038004,0.0,0.659902142408,0.258500935699,0.303551358368,1.0,-0.00868,-0.011408,0.435
0.463608321968,0.536726914447,-0.124029776149,-1.37265603726,0.0785368366021,1.90027564863,0.15707317514,-0.00614637874825,-0.0521173832753,-0.00149041831102,-0.076123323096,-0.00251970714677,0.0299273209786,-0.00816937270649,0.574003260345,0.818837995904,0.00231094747543,0.0,0.818799090503,-0.573942775702,-0.0117680292405,0.0,-0.00830991786211,0.00864725532941,-0.999928082534,0.0,0.659765156718,0.258309809153,0.303560711407,1.0,-0.009,-0.0118285714286,0.451
0.46349810601,0.535883551101,-0.124036476362,-1.37397628329,0.0784687603197,1.90077003917,0.156907813718,-0.00744354447633,-0.0470493471114,-0.00148037357532,-0.081327960899,-0.00739518869815,0.0290427713665,-0.0110360841639,0.57401723585,0.818828145372,0.00232984879436,0.0,0.818789409712,-0.573956598915,-0.0117674129437,0.0,-0.00829841659672,0.00866252015043,-0.999928045925,0.0,0.659613455994,0.258110090527,0.30357066286,1.0,-0.00934,-0.0122754285714,0.468
0.463393777774,0.53509118878,-0.124039314568,-1.37523854433,0.0783745871412,1.90122096011,0.156757512509,-0.0089471128355,-0.0584882401664,-0.00115079457079,-0.0831959799868,-0.0026909300466,0.0275564502572,-0.00560058794571,0.574029389865,0.818819686119,0.00230826686278,0.0,0.818780796068,-0.573968964328,-0.0117636252921,0.0,-0.0083075743752,0.00864279762908,-0.999928140547,0.0,0.659456010779,0.2579035386,0.303570928368,1.0,-0.00966,-0.012696,0.484
0.463274671533,0.53420155165,-0.124042510557,-1.37669004041,0.0782992651107,1.90175345292,0.156580294729,-0.00608265721633,-0.0552496573658,-0.00084285792632,-0.0899341253672,-0.001400809098,0.0327375401635,-0.0210425439123,0.574039630466,0.818812579621,0.00228232560307,0.0,0.818773238396,-0.573979184054,-0.0117909821398,0.0,-0.00834475777723,0.00863736445152,-0.999927877876,0.0,0.659291837637,0.257698502879,0.303551132854,1.0,-0.00998,-0.0131165714286,0.5
0.463128111534,0.533174639807,-0.124048292405,-1.37834205337,0.0782314826818,1.90237385734,0.156362612926,-0.00830517573037,-0.0583260146406,-0.00111884867418,-0.0871295865905,-0.00064831293071,0.0364910245549,-0.00842417555066,0.574057875096,0.818799759084,0.0022929164938,0.0,0.818760290629,-0.573997111332,-0.0118173420135,0.0,-0.00836007030695,0.00866135397831,-0.999927542461,0.0,0.659101084563,0.257447017551,0.303543066324,1.0,-0.01036,-0.013616,0.519
0.463012786836,0.532289555537,-0.124049274982,-1.37977531888,0.0781318353892,1.90290633935,0.156191055012,-0.00710659678894,-0.0571152602009,0.000321035116839,-0.0909205154262,-0.000660625488619,0.0294916526055,-0.0105421454578,0.574064089222,0.818795464726,0.0022705309204,0.0,0.818755805508,-0.57400351499,-0.0118170481608,0.0,-0.0083726139101,0.00864291976538,-0.999927597016,0.0,0.658932185219,0.257231947776,0.303531047267,1.0,-0.01068,-0.0140365714286,0.535
0.462877491795,0.531303498023,-0.124040006269,-1.38134763057,0.0780266540779,1.90348529742,0.155996061723,-0.00837092973168,-0.0630343029298,-0.000190528540854,-0.0915894101196,-0.00704710427352,0.0336187872086,-0.0157223890985,0.574066113851,0.818794074489,0.00225995840835,0.0,0.818754295883,-0.57400559901,-0.0118204137133,0.0,-0.00838141729477,0.00863621589376,-0.999927581187,0.0,0.658745519743,0.256996781499,0.303527522539,1.0,-0.01102,-0.0144834285714,0.552
0.46276020129,0.530413197674,-0.124041516273,-1.38281230285,0.0779567943987,1.90399241204,0.155795508434,-0.00435499594965,-0.0570361748814,4.75130717273e-05,-0.0941880174765,-0.00433872562079,0.0357213077893,-0.0146122224145,0.574061115802,0.818797675276,0.0022246770318,0.0,0.818757224679,-0.574000521106,-0.0118640509875,0.0,-0.00843745403954,0.00863232693925,-0.999927143496,0.0,0.658556060049,0.256762468188,0.303511518581,1.0,-0.01134,-0.014904,0.568
0.462625621425,0.529358092719,-0.124049973115,-1.38445854529,0.0778453324469,1.90459564145,0.155583992339,-0.00713590080637,-0.0608085684326,0.000401470381167,-0.0978553609613,-0.00453268928944,0.0374556277557,-0.0109191115631,0.574062161459,0.818796970837,0.00221409825345,0.0,0.818756476194,-0.574001704163,-0.0118584657146,0.0,-0.00843894211099,0.00862046971439,-0.999927233231,0.0,0.658368669564,0.256527404208,0.303513906108,1.0,-0.01166,-0.0153245714286,0.584
0.462485980324,0.528268692412,-0.124052134026,-1.38613340395,0.0777366655575,1.90523169518,0.155343711028,-0.00745008977406,-0.0625454720532,-0.000751194261934,-0.09663721871,-0.0086150362257,0.033669511459,-0.0079200056202,0.574042862966,0.818810396792,0.00225221778351,0.0,0.818770473797,-0.573982336113,-0.01182945351,0.0,-0.00839350789859,0.00863482902912,-0.999927491748,0.0,0.658174750689,0.256275298699,0.303538989881,1.0,-0.012,-0.0157714285714,0.601
0.462345350861,0.527157439013,-0.124055323502,-1.38785892491,0.0776320975132,1.90590587512,0.155104640033,-0.00430171085153,-0.0704299454063,-0.000666308005239,-0.0994081083491,-0.00541206387141,0.0353382225079,-0.00799351184111,0.574029908187,0.818819343865,0.00230076536554,0.0,0.818780094193,-0.573969238767,-0.0117990340556,0.0,-0.00834086936577,0.00865698599213,-0.999927740635,0.0,0.657976922077,0.256019476735,0.303558434429,1.0,-0.01234,-0.0162182857143,0.618
0.462178407158,0.525836141477,-0.124058536375,-1.38988582151,0.0775033384144,1.90666035255,0.154834449962,-0.00565637541756,-0.0709882942882,-0.00127595317108,-0.107634023867,-0.0065466791014,0.0410922582655,-0.0110259525513,0.574022270662,0.818824591673,0.00233832331335,0.0,0.818785878514,-0.573961509549,-0.0117735977402,0.0,-0.0082985635565,0.00867306040038,-0.999927953338,0.0,0.657737468647,0.255714907441,0.303588848474,1.0,-0.01272,-0.0167177142857,0.637
0.462033805534,0.524746810583,-0.124059515198,-1.39161557639,0.0773863685111,1.90728790346,0.154585082038,-0.012508186422,-0.0682120278023,0.000839581101868,-0.107218291685,-0.0125775896277,0.0463134421521,-0.0176303756715,0.57399865002,0.81884120119,0.00232032539767,0.0,0.818802317128,-0.573938025737,-0.0117751849212,0.0,-0.00831044358912,0.0086589947731,-0.999927976575,0.0,0.657528815641,0.255451912697,0.303586122503,1.0,-0.01304,-0.0171382857143,0.653
0.46187627794,0.523554741504,-0.124066970577,-1.39351752611,0.0772728315266,1.90797178807,0.154331067087,-0.00917801372422,-0.0676665387391,0.000128377869873,-0.108915346108,-0.00529567656809,0.0368616582862,-0.0146763451546,0.573996378008,0.818842859077,0.00229718814022,0.0,0.818803633543,-0.573935799772,-0.011792130324,0.0,-0.00833762372169,0.00864975262564,-0.999927830301,0.0,0.657297665067,0.255161961511,0.303578513928,1.0,-0.01338,-0.0175851428571,0.67
0.461740399333,0.52247975086,-0.12406661277,-1.39522783967,0.0771727303835,1.90862042598,0.154109678446,-0.00917284487029,-0.0712588661013,0.00283985756528,-0.116036540064,-0.0105898210011,0.0377363077736,-0.00398870170326,0.573990910294,0.818846658705,0.00230896710391,0.0,0.818807545804,-0.573930245682,-0.0117907984268,0.0,-0.00832983021303,0.00865857751421,-0.999927818877,0.0,0.657092888457,0.254911786427,0.303576229932,1.0,-0.01368,-0.0179794285714,0.685
0.461568659083,0.521241607143,-0.124074747006,-1.39721079165,0.0770516325942,1.90939724542,0.153833619599,-0.00693762738156,-0.0765914753135,-0.000342386982677,-0.121587067315,-0.00536085580767,0.0517513511645,-0.0161163770296,0.573984926476,0.818850791155,0.00233085914747,0.0,0.818812031977,-0.573924251495,-0.0117710125782,0.0,-0.00830112619324,0.00866508613382,-0.999928001201,0.0,0.656865411651,0.25460820364,0.303569918558,1.0,-0.01402,-0.0184262857143,0.702
0.461407458699,0.520042643905,-0.124082980365,-1.39912262036,0.0769256433823,1.91009408048,0.153581654706,-0.0137621026713,-0.0715381175917,-0.00187375710802,-0.117328586973,-0.00411517179747,0.0408095865456,-0.0150044138697,0.573984286202,0.818851301399,0.00230917565105,0.0,0.818812336656,-0.573923772853,-0.0117731557507,0.0,-0.00831533320212,0.00864855442196,-0.99992802628,0.0,0.656634638609,0.254313298631,0.303562639337,1.0,-0.01434,-0.0188468571429,0.718
0.461221502638,0.518611451821,-0.124084054657,-1.40132429806,0.0767894415876,1.91087829406,0.153279162004,-0.0124113815632,-0.0849021903013,0.000571795458091,-0.122727622725,-0.0137281142068,0.0347742988233,-0.0141824060242,0.573969648949,0.818861528202,0.00232090857925,0.0,0.818822666294,-0.573909041258,-0.0117728682173,0.0,-0.00830851840694,0.00865784827933,-0.999928002501,0.0,0.656363453776,0.25397929537,0.303587375804,1.0,-0.0147,-0.01932,0.736
0.461032578007,0.517192820987,-0.124087970351,-1.40356579826,0.0766343311635,1.91169009027,0.152974545408,-0.00829591855518,-0.079218462748,0.00017255166877,-0.12455722561,-0.0123503992182,0.0516061863824,-0.0112214494642,0.573954399455,0.818872275483,0.00230015034057,0.0,0.818833261347,-0.573893994628,-0.0117694495353,0.0,-0.00831779359828,0.00863873326731,-0.999928090713,0.0,0.656089597254,0.253635691947,0.303586376152,1.0,-0.01506,-0.0197931428571,0.754
0.460865546562,0.515928330986,-0.124091418028,-1.40558609469,0.0765213740447,1.91244057714,0.152687786533,-0.00818984441502,-0.074892234217,0.00138384815748,-0.1260387123,-0.00438211801018,0.0464838487144,-0.0202839706056,0.573935258502,0.818885693724,0.00229925293384,0.0,0.818846561074,-0.573874748528,-0.011782585509,0.0,-0.00832926787342,0.00864534306749,-0.999927938074,0.0,0.655843108696,0.253333595355,0.303576866405,1.0,-0.01538,-0.0202137142857,0.77
0.460659063327,0.514462985879,-0.124097201826,-1.40793090896,0.076370722711,1.91331208136,0.152375839949,-0.0164457217573,-0.087329757754,-0.000455801015816,-0.131588770683,-0.00595425620112,0.0426165955395,-0.0187332719733,0.573935928292,0.818885263647,0.0022851912153,0.0,0.818846004439,-0.573875530168,-0.0117831994628,0.0,-0.0083378336076,0.0086341874528,-0.999927963074,0.0,0.655560832576,0.252970597907,0.303563860077,1.0,-0.01574,-0.0206868571429,0.788
0.460466976967,0.513076237094,-0.124092578458,-1.41019333833,0.076232385145,1.91410230002,0.152060329884,-0.00955253064787,-0.0845226971779,0.00649585312901,-0.135433388372,-0.0119517031537,0.0522574022041,-0.0192335892462,0.573912855426,0.818901631259,0.00221350383673,0.0,0.818861304713,-0.573852598715,-0.0118366166346,0.0,-0.00842296190979,0.00860590478141,-0.999927493429,0.0,0.655272218337,0.252628452291,0.303527179327,1.0,-0.01608,-0.0211337142857,0.805
0.460282424637,0.511748197585,-0.124097902261,-1.41233273681,0.0761051967377,1.91486582149,0.151765102683,-0.010902168034,-0.0787223619939,0.000594611625999,-0.13316147423,-0.00321716193748,0.0477546329396,-0.017630788241,0.573903643134,0.818908195232,0.00217326502382,0.0,0.818867254779,-0.573843454792,-0.0118682494165,0.0,-0.0084720559141,0.00859101254532,-0.999927206737,0.0,0.655004913427,0.252299293832,0.303505503229,1.0,-0.0164,-0.0215542857143,0.821
0.460081667739,0.51027940171,-0.124106056216,-1.41466192678,0.0759555820988,1.91575286454,0.151422355609,-0.0127037477035,-0.0841687432253,-0.000808363975712,-0.140252259163,-0.00846159868224,0.0534688841806,-0.013468312816,0.573874522834,0.818928562758,0.00218815952016,0.0,0.818887908251,-0.573814372534,-0.0118493246734,0.0,-0.0084483156986,0.00859204833876,-0.999927398698,0.0,0.654725850045,0.251941977572,0.303502381421,1.0,-0.01674,-0.0220011428571,0.838
0.459894427256,0.50886085765,-0.124109549475,-1.4168895344,0.0758205016277,1.9165700929,0.151118469066,-0.00705923369609,-0.0868572066963,-0.000956085143274,-0.146303973469,-0.00964810980622,0.052989270521,-0.0180494691665,0.573860929284,0.818938071035,0.00219466427181,0.0,0.818897455784,-0.573800708782,-0.0118511776767,0.0,-0.00844624328768,0.00859829836702,-0.999927362482,0.0,0.654449610369,0.251605331041,0.303505751195,1.0,-0.01706,-0.0224217142857,0.854
0.459693242792,0.507443264948,-0.124104610983,-1.41912889438,0.0756842157488,1.91736891439,0.150800842699,-0.0133996295433,-0.0909863433486,0.000325525227864,-0.143442151431,-0.00430111606597,0.0480485274457,-0.0194067505327,0.573841254044,0.818951903927,0.00217740994492,0.0,0.818910946614,-0.573780985125,-0.0118739010692,0.0,-0.00847496063368,0.00859700463807,-0.999927130622,0.0,0.654167652945,0.251261743203,0.30350055041,1.0,-0.01738,-0.0228422857143,0.87
0.459465268395,0.505780525092,-0.124112363577,-1.42171462163,0.0755173105632,1.91833324851,0.150454924038,-0.00972497376749,-0.0947268846736,0.000831199425701,-0.146529976615,-0.00836312613089,0.0516683689463,-0.0242680710507,0.573838754805,0.818953580232,0.0022054050568,0.0,0.818913064697,-0.573778453837,-0.011850117391,0.0,-0.00843944464541,0.00860625731903,-0.999927351416,0.0,0.653852544163,0.250861681807,0.303516080968,1.0,-0.01774,-0.0233154285714,0.888
0.459239176622,0.504144457359,-0.124119090604,-1.42418749276,0.0753569999943,1.91928775476,0.150111531386,-0.017913885559,-0.096574017998,0.00122681122412,-0.146117131108,-0.0131697807584,0.0547434657638,-0.0197662845926,0.573831651559,0.81895830166,0.00229841521805,0.0,0.818919124523,-0.573771122815,-0.0117861365777,0.0,-0.00833375056498,0.00864564085142,-0.999927898149,0.0,0.653559672013,0.250476932587,0.303565109186,1.0,-0.01808,-0.0237622857143,0.905
0.45900948054,0.502466182447,-0.124125558678,-1.42666082924,0.0751929618638,1.92021753464,0.149759488618,-0.0135752903424,-0.0937163289774,9.89892810162e-05,-0.148492061953,-0.00480658286153,0.0486985268395,-0.0172370245781,0.573818477156,0.818967222661,0.00240632123186,0.0,0.81892957476,-0.573757679462,-0.0117142537986,0.0,-0.00821310274063,0.00869263025895,-0.999928489004,0.0,0.653262821084,0.250088336976,0.303640530838,1.0,-0.01842,-0.0242091428571,0.922
0.458799158745,0.500964950382,-0.124126622477,-1.42892710944,0.0750472626706,1.92101947998,0.149437358093,-0.0159614245421,-0.0967841924487,0.00133368572761,-0.159699209019,-0.00766618230011,0.0517560494267,-0.0197982673496,0.57380381388,0.818977406851,0.00243662572276,0.0,0.818940127875,-0.573742881216,-0.0117012867557,0.0,-0.00818525041281,0.00870986124053,-0.999928567445,0.0,0.652977528327,0.249732248468,0.303679135422,1.0,-0.01872,-0.0246034285714,0.937
0.458553120694,0.499244851468,-0.124129906017,-1.43152990302,0.074892527279,1.92195658882,0.1490776671,-0.0200898507479,-0.10229718837,-0.000709599486809,-0.1544093372,-0.0133233709179,0.0610113809414,-0.0177995271825,0.573803787174,0.818977273298,0.00248727706062,0.0,0.81894054777,-0.573742560021,-0.0116876404443,0.0,-0.00814501201084,0.00874351272826,-0.999928602333,0.0,0.652652789851,0.249322272513,0.303721499942,1.0,-0.01906,-0.0250502857143,0.954
0.458289657474,0.497482576236,-0.124129892253,-1.43432765206,0.0747223623969,1.92300069482,0.148671690696,-0.0105235003221,-0.0964504503967,-0.000857557078144,-0.15215086671,-0.00813717007027,0.0526133101021,-0.0158773338691,0.573783337231,0.818991579439,0.00249431869367,0.0,0.818954882777,-0.573722020131,-0.0116914709805,0.0,-0.00814432752805,0.00875127419886,-0.999928540011,0.0,0.652306656205,0.248885151482,0.303709116855,1.0,-0.01942,-0.0255234285714,0.972
0.458035164301,0.49591228709,-0.124129601031,-1.43685688914,0.0745616725653,1.92388316547,0.148301625924,-0.0134834131809,-0.10020640773,-0.00077364203584,-0.162210476775,-0.0100810520658,0.0610512143817,-0.0218685614917,0.573763447305,0.819005706454,0.00243027451087,0.0,0.818968065548,-0.573702245965,-0.0117382915301,0.0,-0.00821963205538,0.00872548782138,-0.999928149174,0.0,0.651961777926,0.248450007328,0.303681389836,1.0,-0.01976,-0.0259702857143,0.989
0.457745772231,0.494144165658,-0.124127350886,-1.43975880244,0.0743795070893,1.92488872969,0.147891927321,-0.0158585832037,-0.100460955348,0.00132602982077,-0.164229811253,-0.00811232567647,0.0586680693844,-0.0203152065037,0.573769236727,0.819001976598,0.00231780407939,0.0,0.818962734413,-0.573708312121,-0.0118135154824,0.0,-0.00834570974523,0.00867659397942,-0.999927530297,0.0,0.651608982001,0.248005127092,0.303613540718,1.0,-0.0204628571429,-0.0268940408163,1.006
0.457461601558,0.49233341215,-0.124140740905,-1.44263703466,0.0741886722734,1.92595860778,0.147482780301,-0.0180869830432,-0.111734727805,-0.00297256238399,-0.173635578783,-0.00932145863213,0.0594044939052,-0.0299766704467,0.573769248162,0.819001995944,0.0023081171506,0.0,0.818962746222,-0.573708483819,-0.0118043549409,0.0,-0.0083437645098,0.00866340461712,-0.999927660891,0.0,0.651254898087,0.247536672257,0.303597171116,1.0,-0.0221045714286,-0.029051722449,1.023
0.45716401126,0.490410275023,-0.124142705322,-1.44576093432,0.0739963138579,1.92705634483,0.1470347931,-0.0194281162297,-0.11246619179,4.45043426879e-05,-0.186648447143,-0.0105672276638,0.0640390702764,-0.02570773176,0.573751355014,0.819014772214,0.00222090430714,0.0,0.818974223017,-0.573690763407,-0.0118691581894,0.0,-0.00844706623568,0.00862897510791,-0.999927091272,0.0,0.650848838874,0.247040457086,0.303543453275,1.0,-0.0237462857143,-0.0312094040816,1.04
0.456843226631,0.488467738029,-0.12416002261,-1.44887151857,0.0738067777206,1.92817804508,0.146597141626,-0.0193349510266,-0.126016530012,0.000447964021672,-0.198476786799,-0.00983046920239,0.0719859828087,-0.0269572339945,0.57377158483,0.819000712792,0.00217894219713,0.0,0.818959551691,-0.573711091588,-0.0118988648276,0.0,-0.00849525902885,0.00861186185975,-0.999926830528,0.0,0.650458647707,0.246524181428,0.30351121249,1.0,-0.0252914285714,-0.0332401632653,1.056
0.456501438522,0.486327190395,-0.124179209457,-1.45213233688,0.0736066450964,1.92946290758,0.146125947732,-0.0223814029762,-0.136952536236,-0.00190569802724,-0.205081842829,-0.00916944129429,0.0826505651197,-0.0288443194581,0.573787268796,0.81898935718,0.00231298371978,0.0,0.818950073855,-0.573726382871,-0.0118135952027,0.0,-0.00834834968947,0.0086728756939,-0.999927540517,0.0,0.650074029001,0.245987270434,0.303558079886,1.0,-0.0268365714286,-0.035270922449,1.072
0.456137140083,0.484079910597,-0.124207290642,-1.45554936766,0.0733920936918,1.93069570866,0.145589636747,-0.0285335183062,-0.138713512203,-0.0035622280858,-0.220133197999,-0.0168023518419,0.0759963909064,-0.0371179392998,0.573776663162,0.818996647218,0.00236210870535,0.0,0.81895804158,-0.573715631746,-0.0117833324097,0.0,-0.00829549076232,0.00869563648823,-0.999927782762,0.0,0.649649834336,0.245408056827,0.303599304323,1.0,-0.0283817142857,-0.0373016816327,1.088
0.455666423047,0.48126401288,-0.12425412133,-1.45993330134,0.0731189648679,1.93219617385,0.144935896097,-0.0262014372611,-0.153555548965,-0.00614433531409,-0.238474253547,-0.011830002255,0.0852999646165,-0.0349360230003,0.57380076375,0.818979939636,0.00229975974137,0.0,0.818940460815,-0.573739902759,-0.0118233888342,0.0,-0.00836381537269,0.0086678027276,-0.999927455263,0.0,0.64908760906,0.244650986245,0.30359727705,1.0,-0.0302165714286,-0.0397132081633,1.107
0.455220250744,0.478615488789,-0.124263308511,-1.46401952537,0.0728677274884,1.93371033297,0.144328366517,-0.0285977606931,-0.154703321645,-7.92877859653e-05,-0.244263612683,-0.0147720087114,0.0872452375911,-0.0289434464644,0.573806274243,0.818975892896,0.00236503603714,0.0,0.818937199526,-0.573745096145,-0.0117972362981,0.0,-0.00830488419722,0.00870631181911,-0.999927611896,0.0,0.648578235394,0.243969554114,0.30361918016,1.0,-0.0318582857143,-0.0418708897959,1.124
0.454774298004,0.47596204949,-0.124284211471,-1.46802163901,0.0726188727463,1.93519601031,0.143752871128,-0.0256593952117,-0.1675414869,-0.000851434218255,-0.254882431545,-0.0194507856805,0.0961062891602,-0.0411807101712,0.573841547344,0.818950841265,0.0024789179186,0.0,0.81891365954,-0.573779973154,-0.0117348850576,0.0,-0.00818809817954,0.00876415308088,-0.999928069748,0.0,0.648083542509,0.24329023294,0.303680591298,1.0,-0.0334034285714,-0.0439016489796,1.14
0.45424670146,0.47289195755,-0.124296763546,-1.47279972326,0.0723237084158,1.93687857713,0.143067175508,-0.03025359304,-0.174094705468,-0.000782585808882,-0.268750370588,-0.0158079870817,0.092689065083,-0.0361279975756,0.573870493089,0.81893061415,0.00246033972878,0.0,0.818892988599,-0.573808767631,-0.0117693803444,0.0,-0.00822669975531,0.00876902388593,-0.999927710203,0.0,0.647464292457,0.242483270436,0.303676118047,1.0,-0.0351417142857,-0.0461862530612,1.158
0.453803446282,0.470216040376,-0.124296391331,-1.47692278844,0.0720643977804,1.93833041002,0.142438762579,-0.0257318002718,-0.179987096659,5.56520485331e-05,-0.275036429901,-0.0243706339856,0.100615933251,-0.0382407008555,0.573844618993,0.818948721207,0.00246823569383,0.0,0.818911011745,-0.57378266844,-0.0117877538755,0.0,-0.00823749369681,0.00878577367412,-0.999927474309,0.0,0.646922204873,0.241801405334,0.303688496042,1.0,-0.0365902857143,-0.0480900897959,1.173
0.453244836826,0.46684273409,-0.124296157966,-1.48198174017,0.0717316856438,1.94028260297,0.141612661381,-0.0271390556202,-0.18945615286,0.000412872533826,-0.284998164766,-0.0193733148118,0.100970145952,-0.0508999710284,0.573774829259,0.818996933553,0.00268608304121,0.0,0.818962232273,-0.573712297199,-0.0116537142242,0.0,-0.00800347143367,0.00888657954689,-0.999928484017,0.0,0.646293963469,0.240965640795,0.30377800646,1.0,-0.0383285714286,-0.0503746938775,1.191
0.452717181614,0.463759246248,-0.124299137987,-1.48678875502,0.0714114080344,1.94191249483,0.140888745887,-0.0325541337226,-0.194366766548,0.000902975091738,-0.304036302957,-0.0182301534345,0.102876411599,-0.0532020333969,0.573754054968,0.81901175521,0.0026031012468,0.0,0.81897580686,-0.57369163102,-0.0117169610914,0.0,-0.00810310747916,0.00885470136249,-0.999927964362,0.0,0.645644593337,0.24015554278,0.303757547812,1.0,-0.0398737142857,-0.0524054530612,1.207
0.452119991472,0.460382633402,-0.124305739366,-1.4920920096,0.0710473793497,1.94376216843,0.140115163148,-0.0368273245232,-0.200632530761,0.0012358572471,-0.311242128506,-0.0270173819363,0.111228805078,-0.0475248657303,0.573761529688,0.819006765679,0.00252422724547,0.0,0.818969772549,-0.573699369601,-0.0117597564395,0.0,-0.00818333006172,0.00881473136749,-0.999927664194,0.0,0.644937991105,0.239252259029,0.303719712467,1.0,-0.0415154285714,-0.0545631346939,1.224
0.45149615164,0.456928298053,-0.124304191416,-1.49751654314,0.0706842147831,1.94569659272,0.139280969739,-0.04065062351,-0.201638773995,0.00145731793425,-0.324927946755,-0.0140988127215,0.119736791965,-0.0461812165182,0.573739392979,0.819022390905,0.00248576777253,0.0,0.818984820018,-0.573677294781,-0.0117886782146,0.0,-0.00822932132569,0.00879960457433,-0.999927419981,0.0,0.6442193995,0.238329879811,0.303682066506,1.0,-0.0431571428571,-0.0567208163265,1.241
0.450815786992,0.453324609514,-0.124345968152,-1.50316329866,0.0702906196517,1.94764776966,0.138380994409,-0.0418270025062,-0.220063864649,-0.000800417134657,-0.332896325541,-0.0212412545408,0.11458117396,-0.0495760774719,0.573740151616,0.819022157183,0.00238565892228,0.0,0.818983404815,-0.573678559735,-0.0118253811859,0.0,-0.00831680795814,0.00873867930806,-0.999927230447,0.0,0.643471091754,0.237318838373,0.303641080541,1.0,-0.0447988571429,-0.0588784979592,1.258
0.450174275975,0.449700034929,-0.124400964869,-1.50854449158,0.0699416090435,1.94968150487,0.137552192009,-0.038831734629,-0.225681441473,-0.00170435275658,-0.33926258488,-0.0214539126525,0.131192612396,-0.042946140084,0.573776585312,0.818995958898,0.00260698266173,0.0,0.818960367855,-0.573714480432,-0.0116772311242,0.0,-0.00806809673445,0.00883530738705,-0.999928419017,0.0,0.642793046078,0.236369363541,0.30374456632,1.0,-0.046344,-0.0609092571429,1.274
0.449399692791,0.445545353774,-0.124416728363,-1.5148921515,0.0695048627669,1.9517509399,0.136609158677,-0.0480965371036,-0.234466540742,0.00243427323769,-0.357654560079,-0.0182834392325,0.115839026107,-0.0516860528154,0.573813999754,0.818970089981,0.00249645833505,0.0,0.8189328405,-0.573752047744,-0.0117616904199,0.0,-0.00820028246055,0.00879362364375,-0.999927711163,0.0,0.641911834902,0.235241667365,0.303750210041,1.0,-0.0480822857143,-0.0631938612245,1.292
0.448752450846,0.44203608407,-0.124432042283,-1.52029878287,0.0691216324382,1.95366994453,0.135754537534,-0.0440475482474,-0.23369738883,-0.00109854239118,-0.361423790073,-0.02450949137,0.123277726034,-0.0560292611081,0.573790081335,0.818986850304,0.00249569481982,0.0,0.81894972459,-0.57372827855,-0.0117455475815,0.0,-0.00818775596575,0.00878349639697,-0.999927902823,0.0,0.641184230176,0.234297016705,0.303745365643,1.0,-0.0495308571429,-0.0650976979592,1.307
0.447961778166,0.437978466645,-0.124430244008,-1.52658742115,0.0687098751117,1.95589492027,0.134720993718,-0.0495445756411,-0.239678117965,-0.000295146389606,-0.374070709897,-0.0253611898356,0.138757168099,-0.0606837014954,0.573754119698,0.819012054936,0.00249216780098,0.0,0.81897464283,-0.573692076658,-0.0117763526898,0.0,-0.00821539606682,0.00879792249273,-0.999927549289,0.0,0.640332196642,0.233191387002,0.30371856075,1.0,-0.0511725714286,-0.0672553795918,1.324
0.447135054775,0.433736290442,-0.124455703701,-1.53292964611,0.0682680433914,1.95821036892,0.1337012286,-0.0530605339357,-0.257695406918,-0.0024691271337,-0.382434312291,-0.0254496933418,0.138363513801,-0.0596314943424,0.573769321451,0.819000889996,0.00265609645566,0.0,0.818965854561,-0.573706955182,-0.0116621413309,0.0,-0.00802763767595,0.00886680193513,-0.99992846587,0.0,0.639498054162,0.232045252563,0.303796040178,1.0,-0.0528142857143,-0.0694130612245,1.341
0.44632071077,0.429705076261,-0.124487387979,-1.53918396392,0.067811166223,1.96033520979,0.13271738892,-0.04800446236,-0.254743105698,-0.00121721533749,-0.400601005699,-0.0363618290979,0.129674194918,-0.06112391553,0.573789051001,0.818987453607,0.00253430209096,0.0,0.818950986163,-0.573727276785,-0.0117064527898,0.0,-0.00813359632086,0.0087926729197,-0.999928264184,0.0,0.638574676924,0.230829819212,0.303749676644,1.0,-0.054456,-0.0715707428571,1.358
0.445440781071,0.425246015826,-0.12453692205,-1.54604192509,0.0673093747571,1.96258156854,0.13156999158,-0.0542067347711,-0.266407790232,-0.00525478151794,-0.405593442992,-0.0273866847543,0.137677367419,-0.0661532040092,0.573764861593,0.819004829126,0.00239172961225,0.0,0.81896653552,-0.573703643172,-0.01177668926,0.0,-0.00827318066739,0.00871596480706,-0.999927790612,0.0,0.637664122894,0.229636665425,0.303717949146,1.0,-0.0560011428571,-0.0736015020408,1.374
0.444564953765,0.420969669171,-0.124561286502,-1.55255084584,0.0668522521588,1.96481628966,0.130524078479,-0.0555561913828,-0.263803514635,-0.000535261376842,-0.40738999318,-0.0317134851966,0.147523316542,-0.0613732289067,0.573790371778,0.81898698932,0.00238064701538,0.0,0.81894852529,-0.5737291642,-0.0117858377724,0.0,-0.00828676071723,0.0087123953402,-0.999927709269,0.0,0.636760485871,0.228438665496,0.303719572536,1.0,-0.0575462857143,-0.0756322612245,1.39
0.443479488768,0.415704310207,-0.124583853755,-1.56031506724,0.0663297169151,1.96766612761,0.129266571387,-0.0599828027387,-0.276622226319,0.000646896954033,-0.415328287514,-0.0342597844175,0.157029827195,-0.0692428781272,0.573835137349,0.818954696671,0.0026808291101,0.0,0.818920230882,-0.573772952966,-0.0116189843969,0.0,-0.00797738819696,0.00886293734007,-0.999928902282,0.0,0.63566302245,0.226932326209,0.303843830797,1.0,-0.0594777142857,-0.0781707102041,1.41
0.44254048373,0.411240953823,-0.124594962334,-1.56713191689,0.0658467793718,1.96997229589,0.128086598058,-0.0606971336723,-0.280339657723,0.000120535475921,-0.436016997333,-0.0293312069558,0.139610541294,-0.0731588786807,0.573800347087,0.818979262187,0.00262234457577,0.0,0.818943890828,-0.573738207405,-0.0116670450517,0.0,-0.00805068367288,0.00884227781137,-0.999928497751,0.0,0.634751166072,0.22574829445,0.303819463092,1.0,-0.0609262857143,-0.0800745469388,1.425
0.441407723638,0.405789304477,-0.124638380416,-1.57550054054,0.0652513529424,1.97268106204,0.12674923449,-0.0595125257144,-0.290607101137,-1.10758283668e-05,-0.446252536556,-0.0377224021107,0.151198940878,-0.0746727413851,0.573836023007,0.818954846843,0.00243401573616,0.0,0.818916746228,-0.573774259288,-0.0117986875449,0.0,-0.00826617592467,0.00876393691732,-0.999927429239,0.0,0.633525888959,0.224192822023,0.303756907202,1.0,-0.0627611428571,-0.0824860734694,1.444
0.440528521621,0.401729928343,-0.124649710021,-1.58164967624,0.0648299490534,1.97484335227,0.125690282354,-0.0611524951314,-0.301528463791,-0.000505006114971,-0.438304952289,-0.0357117331593,0.15278459539,-0.0734410134865,0.573825443945,0.818962082084,0.00249296849869,0.0,0.818924620525,-0.573763324768,-0.0117838851861,0.0,-0.00822033951966,0.00880361592694,-0.999927458551,0.0,0.632658950763,0.223048196273,0.303756517723,1.0,-0.0641131428571,-0.0842629877551,1.458
0.439406077277,0.396594914036,-0.124653277229,-1.58909892644,0.0642790714782,1.9775445524,0.124388386539,-0.0667811617979,-0.304436660652,0.00432877305983,-0.446083402411,-0.0319294162243,0.15021158676,-0.0815374365197,0.573810748414,0.818971372179,0.00280418567612,0.0,0.818938346519,-0.573747973883,-0.0115755763574,0.0,-0.00787132135046,0.00893881741384,-0.999929067406,0.0,0.631568721765,0.221548948941,0.303909721486,1.0,-0.0658514285714,-0.0865475918367,1.476
0.438061859419,0.390481357876,-0.124674170591,-1.59841255826,0.0635699866962,1.98051339417,0.122854932835,-0.0715887689811,-0.304905906817,-0.00283599487974,-0.467211648574,-0.0351683063049,0.15123749888,-0.0729909067608,0.573837504003,0.818953373644,0.00257637289579,0.0,0.818917188115,-0.573775285393,-0.011717840385,0.0,-0.00811826212325,0.0088341424108,-0.999928023284,0.0,0.630239421067,0.219868747679,0.303836246711,1.0,-0.0676862857143,-0.0889591183673,1.495
0.436964581028,0.385531710997,-0.124678848879,-1.60595745684,0.0630054812454,1.98299233344,0.121497955359,-0.0691059515741,-0.309536266154,-0.000471015813187,-0.466616171078,-0.0353049192386,0.162691717322,-0.077402674294,0.573754541467,0.819011846863,0.00246327923992,0.0,0.818974016613,-0.57369256086,-0.0117962972119,0.0,-0.00824830099579,0.00878570994315,-0.999927385779,0.0,0.629111589015,0.218448949804,0.303780342384,1.0,-0.0692314285714,-0.090989877551,1.511
0.435904069007,0.380712490414,-0.124679290242,-1.6128989777,0.0625198243559,1.9854637249,0.120260000716,-0.0711051211998,-0.312348531119,-0.000958721176859,-0.467865371969,-0.0332400069266,0.171180884679,-0.0811818478862,0.573733402508,0.819025710446,0.00275959712843,0.0,0.81899172724,-0.573670359243,-0.0116454515114,0.0,-0.00795497827958,0.00894164389245,-0.999928380098,0.0,0.628119108468,0.217135500889,0.303915564713,1.0,-0.07068,-0.0928937142857,1.526
0.434698240155,0.375629861211,-0.1246933017,-1.62059935775,0.0619357575194,1.98801447744,0.118896554748,-0.0819892545468,-0.318725234181,-0.000243233273335,-0.489001490408,-0.0389444912502,0.155662292521,-0.0848607272713,0.57373206617,0.81902690138,0.00268290235401,0.0,0.818991860507,-0.573669219785,-0.0116921168015,0.0,-0.00803721443563,0.0089055889811,-0.999928044246,0.0,0.626973480413,0.215633584844,0.303868660364,1.0,-0.0722251428571,-0.0949244734694,1.542
0.433441357265,0.370396959089,-0.124750719632,-1.62849728126,0.0613055575899,1.99051146484,0.117528309281,-0.0821558111569,-0.328867178676,-0.00683976908127,-0.500410479476,-0.040305199995,0.160632099753,-0.083114254505,0.573788346856,0.818988041782,0.00250346389713,0.0,0.818950781674,-0.573726263108,-0.011770264048,0.0,-0.00820356046137,0.00880402357034,-0.999927592761,0.0,0.625777991399,0.214047093286,0.303817638103,1.0,-0.0737702857143,-0.0969552326531,1.558
0.431930482717,0.364016299656,-0.124804146536,-1.63780596045,0.0605752739859,1.99366815664,0.115862295148,-0.0822935165948,-0.341243170461,0.00135119738637,-0.486762507073,-0.0357217492061,0.172009833617,-0.0932060547824,0.573822805217,0.818963418958,0.00265584690485,0.0,0.818928567343,-0.573760639748,-0.0116394487208,0.0,-0.00800861649067,0.0088541004859,-0.999928730944,0.0,0.624405656445,0.212189370688,0.30390667893,1.0,-0.0756051428571,-0.0993667591837,1.577
0.430603459612,0.358625975168,-0.12481165473,-1.64580656973,0.0599820668976,1.99632824332,0.114350662243,-0.0806232389014,-0.336375936887,-0.000487672847649,-0.504483978985,-0.0443205771327,0.155640984664,-0.0854066657214,0.57378702827,0.818988365482,0.00269263726681,0.0,0.818953788927,-0.5737245161,-0.0116455196936,0.0,-0.0079928670136,0.00888736473883,-0.999928561861,0.0,0.623196772682,0.210602876052,0.303908146517,1.0,-0.0771502857143,-0.101397518367,1.593
0.429135200223,0.352792666205,-0.12484411164,-1.65456109138,0.0593238975424,1.99907247343,0.112775672035,-0.0833713800784,-0.341813468551,-0.000696808852905,-0.530127120097,-0.036268219638,0.16193766889,-0.0885089014918,0.57383453378,0.818955575565,0.0025377141512,0.0,0.81891856211,-0.573772103755,-0.0117774566417,0.0,-0.00818930186488,0.00883666269801,-0.99992742173,0.0,0.621833563607,0.208835234032,0.303845066458,1.0,-0.078792,-0.1035552,1.61
0.427713336057,0.347208379208,-0.124889546707,-1.66273810511,0.0587229571616,2.00178916693,0.111208386425,-0.0860412335327,-0.360748392157,-0.000921231961023,-0.507767580623,-0.036493527713,0.179112075363,-0.1011934364,0.573852933771,0.81894236569,0.00263798821533,0.0,0.818906515829,-0.573789983105,-0.011743956848,0.0,-0.0081041286197,0.0088997411771,-0.999927556229,0.0,0.620594914507,0.207161254767,0.303880454612,1.0,-0.0803371428571,-0.105585959184,1.626
0.426271082377,0.34148454661,-0.124893998148,-1.67097158353,0.0580698349976,2.00450395063,0.109687088374,-0.0874717315647,-0.358737695865,-0.000536783821255,-0.531663916327,-0.0491760545391,0.166338263451,-0.0967997796033,0.573872280749,0.818928303094,0.00279046247103,0.0,0.818894555511,-0.573808928322,-0.0116519368834,0.0,-0.00794106150974,0.00897199085796,-0.999928218885,0.0,0.61932955542,0.205491193756,0.303970713129,1.0,-0.0818822857143,-0.107616718367,1.642
0.424515140416,0.334681938153,-0.124903558439,-1.68114256341,0.0572330311884,2.00760640206,0.107736092792,-0.0901751666012,-0.357029939713,-0.000955799226829,-0.541577760811,-0.0390352744276,0.167830495274,-0.101313484178,0.573800214695,0.818979623271,0.00253716043054,0.0,0.818942316958,-0.573737483091,-0.011812234894,0.0,-0.00821847387496,0.00885582146169,-0.999927012893,0.0,0.617687752427,0.203426085762,0.303875351932,1.0,-0.0837171428571,-0.110028244898,1.661
0.423105751164,0.329156158244,-0.124890218524,-1.68905260705,0.0565801655232,2.01019196588,0.106184829892,-0.0944550081285,-0.381058337215,0.00113953900365,-0.522436218975,-0.0375534982004,0.175856732531,-0.108440789815,0.573729790672,0.819028500441,0.00268135440685,0.0,0.818993259239,-0.573666750462,-0.0117152736736,0.0,-0.00805709428381,0.00891758438842,-0.999927777352,0.0,0.616443786243,0.201823027098,0.303959387463,1.0,-0.0851657142857,-0.111932081633,1.676
0.421231140205,0.322171723489,-0.124902858825,-1.69923181161,0.0557874582505,2.01351553715,0.104192956469,-0.103203521485,-0.369018394216,-0.001142306804,-0.54963026427,-0.044402486833,0.166709115721,-0.100194886,0.573724949126,0.819031568033,0.00277852803789,0.0,0.818997438334,-0.573661400531,-0.0116850521975,0.0,-0.00797664591335,0.0089797862116,-0.999927865678,0.0,0.614837690482,0.199717087403,0.303974952227,1.0,-0.0870005714286,-0.114343608163,1.695
0.419491606607,0.31579115472,-0.124948958786,-1.70862590485,0.0550039014177,2.01634678588,0.102379150199,-0.0990071998958,-0.36714360782,-1.56935325889e-05,-0.562335334487,-0.0453755221592,0.151526174969,-0.116651582841,0.573747500962,0.819016369528,0.00259585955691,0.0,0.818979708349,-0.573684429509,-0.0117965907688,0.0,-0.00817255408229,0.00889439202093,-0.999927046914,0.0,0.613299197114,0.197732738555,0.303916513884,1.0,-0.0886422857143,-0.116501289796,1.712
0.417811355763,0.309638387588,-0.124988046035,-1.71734182137,0.0542494400146,2.01918908098,0.100546645015,-0.101931465749,-0.386895035,-0.00382185348894,-0.542643203968,-0.0506485720391,0.179330323133,-0.114036011109,0.573681500645,0.819061990842,0.00278170412121,0.0,0.819028335538,-0.573618435031,-0.0116285630845,0.0,-0.00792902992432,0.00894955832377,-0.99992851539,0.0,0.611920201941,0.195870575162,0.304020173288,1.0,-0.0901874285714,-0.11853204898,1.728
0.415825033008,0.302747310329,-0.124992296158,-1.72734578619,0.0534422413622,2.0222981876,0.098473209644,-0.110594158617,-0.378272577954,-0.00172121851823,-0.572047882445,-0.045415751114,0.175557416328,-0.11633406713,0.573658423139,0.819078190813,0.0027708840135,0.0,0.819044064905,-0.573595025529,-0.0116753301281,0.0,-0.00797379651229,0.00896730022503,-0.999928000456,0.0,0.61028499994,0.193727715804,0.304003954239,1.0,-0.0919257142857,-0.120816653061,1.746
0.413883657796,0.296194347568,-0.125084486837,-1.73702578718,0.0526540499058,2.02512748266,0.0965992045345,-0.115569787551,-0.380184228258,-0.0114040502137,-0.570997683766,-0.042963686921,0.176596902789,-0.110108389961,0.573817710988,0.818967457398,0.00250702632036,0.0,0.818929404836,-0.573754711127,-0.0118704782965,0.0,-0.0082832767451,0.00886473893056,-0.999926399156,0.0,0.608665525009,0.191586466302,0.303889734249,1.0,-0.0935674285714,-0.122974334694,1.763
0.412149354436,0.290167257949,-0.125148110151,-1.74536007415,0.0519672255285,2.02788510545,0.0947896193777,-0.114368217794,-0.397424361746,-0.00225162360608,-0.563853615287,-0.048291435588,0.180609087284,-0.124863587383,0.573825210026,0.818961049193,0.00285922104693,0.0,0.818928052992,-0.573761470501,-0.0116346848906,0.0,-0.00788799474098,0.00901794544935,-0.999928225524,0.0,0.607341656883,0.189741947355,0.304053582938,1.0,-0.095016,-0.124878171429,1.778
0.410125384347,0.283416421444,-0.125169672113,-1.75511843083,0.0511383042333,2.03073192563,0.0927483314533,-0.116304232734,-0.394008598717,-0.00277856579181,-0.577526673692,-0.0451889264216,0.15999469097,-0.11901951991,0.573832273066,0.818956605612,0.00271061120942,0.0,0.818921273495,-0.573768592783,-0.0117599598516,0.0,-0.00807578870693,0.00896819434188,-0.999927173912,0.0,0.605678479665,0.187597552474,0.304005821555,1.0,-0.0966577142857,-0.127035853061,1.795
0.407906061839,0.276157497578,-0.125198798296,-1.76555867219,0.0502119480234,2.03381705386,0.0905129323508,-0.127705799911,-0.411597487309,-0.00173769125415,-0.56858649643,-0.0377601505105,0.173779687964,-0.120742036155,0.573822963979,0.818963508954,0.00259305105478,0.0,0.818926595349,-0.573759658438,-0.0118250869229,0.0,-0.00819668440412,0.00890919642889,-0.999926717607,0.0,0.603900417196,0.185274189938,0.303967685003,1.0,-0.098396,-0.129320457143,1.813
0.406021825029,0.270003893831,-0.125247783373,-1.77413290112,0.0494572870791,2.03659567999,0.0885885930569,-0.12688580082,-0.413784966256,-0.00182655088505,-0.578419741378,-0.0538038337016,0.184800947941,-0.124508876888,0.573809191921,0.818972301675,0.0028508344469,0.0,0.818939329793,-0.573745634742,-0.0116218601813,0.0,-0.00788247952532,0.00900356399706,-0.999928398613,0.0,0.602494959486,0.183338621733,0.304067857759,1.0,-0.0998445714286,-0.131224293878,1.828
0.403667927589,0.262568639186,-0.125327363038,-1.78477086971,0.0485280544319,2.03963329881,0.0863010766574,-0.131556606364,-0.41872756786,-0.00692416890173,-0.599840349168,-0.0547045141863,0.164486611169,-0.130681575454,0.57389380521,0.818913557297,0.00268940842614,0.0,0.818878184633,-0.57383045378,-0.0117420589247,0.0,-0.00807262220947,0.00894116491219,-0.999927441538,0.0,0.600648273898,0.180903583152,0.304018286254,1.0,-0.101582857143,-0.133508897959,1.846
0.400724716173,0.253309870696,-0.125363481124,-1.79765882011,0.0473718426419,2.04346346367,0.083456738991,-0.13786857254,-0.429936652789,0.00234055896911,-0.58482989047,-0.0453585848333,0.175863105845,-0.125102975053,0.573939339341,0.818881214377,0.00281751630825,0.0,0.818847679113,-0.573875728779,-0.0116564673745,0.0,-0.00792851058263,0.00899739510158,-0.999928090215,0.0,0.598425358153,0.177956719308,0.304105924503,1.0,-0.103707428571,-0.136301191837,1.868
0.398693622857,0.247014658503,-0.125349312498,-1.80661638332,0.0465824812319,2.04607108563,0.0813722760965,-0.137459991631,-0.424669209977,-0.000423950898314,-0.60280755712,-0.0465192561508,0.167644698531,-0.132276681703,0.573836569172,0.818953420125,0.00276305050068,0.0,0.818918824808,-0.573772763041,-0.0117269633077,0.0,-0.00801862797174,0.00899224758881,-0.99992741791,0.0,0.596836385487,0.175948463277,0.304061182007,1.0,-0.105156,-0.138205028571,1.883
0.396894246987,0.241498682264,-0.125357746014,-1.81449437087,0.0459077351037,2.04826772622,0.0795950506172,-0.137162438095,-0.419407193538,0.00273100062555,-0.598191531313,-0.0527069786614,0.165933500423,-0.135139961455,0.573820306658,0.81896524153,0.00263357818177,0.0,0.818928290591,-0.573756233504,-0.0118737646032,0.0,-0.00821332672989,0.00897029163023,-0.999926034831,0.0,0.595410980336,0.174167012832,0.303992332818,1.0,-0.106411428571,-0.139855020408,1.896
0.394481712841,0.234056467229,-0.125355926018,-1.82451151931,0.0450321675795,2.05130811898,0.0772628369672,-0.141364602754,-0.424548760753,0.00156149303271,-0.593588469743,-0.0511592009274,0.174208340311,-0.132601181597,0.573818164453,0.818965431914,0.00301369781948,0.0,0.818933609854,-0.573752946178,-0.0116638888999,0.0,-0.00782335443167,0.00916114613366,-0.99992743163,0.0,0.593663146984,0.171860362805,0.304177269885,1.0,-0.108053142857,-0.142012702041,1.913
0.3921512785,0.2271252225,-0.125362288909,-1.83426440495,0.0440800569709,2.05403781784,0.0749093749541,-0.153049602698,-0.434185520111,-0.00392451743021,-0.609607459567,-0.0584756307852,0.165923703707,-0.147590063914,0.573692152422,0.819054162731,0.00288784751564,0.0,0.819020810272,-0.573627499769,-0.01171113795,0.0,-0.00793566032421,0.00908397004462,-0.999927250745,0.0,0.591888759801,0.169602613604,0.304130046244,1.0,-0.109598285714,-0.144043461224,1.929
0.389552653744,0.219667213186,-0.125408238987,-1.8447018072,0.0430983313295,2.05687072444,0.0724309214802,-0.154723067151,-0.445173978215,-0.00833692315871,-0.594761479062,-0.0559991666251,0.179525384903,-0.143550591056,0.573711147489,0.819041368117,0.00273924447616,0.0,0.819005801922,-0.57364670467,-0.0118195406273,0.0,-0.00810949029167,0.00902463308708,-0.999926393373,0.0,0.589974846979,0.167115767658,0.304082487221,1.0,-0.11124,-0.146201142857,1.946
0.386731998377,0.211625249709,-0.125451188619,-1.85556731072,0.042142255696,2.06008851338,0.0697702352184,-0.161432228151,-0.440347080141,0.000705622732535,-0.612972052297,-0.0526464717209,0.169057934461,-0.151417329433,0.573771657665,0.818997829295,0.00306388163239,0.0,0.818966535325,-0.573706133152,-0.0116547716492,0.0,-0.00778761493363,0.00919657123651,-0.999927385429,0.0,0.588037645446,0.164502250526,0.304208737591,1.0,-0.112978285714,-0.148485746939,1.964
0.384147934625,0.204531431922,-0.125524261454,-1.86555726812,0.0411600035507,2.06266309947,0.0672964999853,-0.159294170866,-0.442481279361,-0.00716003440056,-0.634423386178,-0.0590852457254,0.161324898583,-0.153896769256,0.573773032774,0.818997944296,0.0027606161951,0.0,0.81896235729,-0.573708169902,-0.0118465198086,0.0,-0.00811864361422,0.00905822874406,-0.999926015322,0.0,0.58615623678,0.162062063419,0.304094474801,1.0,-0.114523428571,-0.150516506122,1.98
0.381342400315,0.196774437872,-0.125596292319,-1.87598756601,0.0401728943402,2.06561872202,0.0646102570958,-0.169501650384,-0.461804252383,-0.00171547884788,-0.610645749792,-0.0508082526738,0.177402340549,-0.159520033252,0.573780450456,0.818992027959,0.00296643135221,0.0,0.818959407006,-0.573715181796,-0.0117101133033,0.0,-0.00788875462238,0.00914859708605,-0.999927032699,0.0,0.584249702603,0.159490656646,0.304194419849,1.0,-0.116165142857,-0.152674187755,1.997
0.378741334909,0.189991060927,-0.125662331057,-1.88533082628,0.0392931093035,2.06817740579,0.0622203854055,-0.176056439071,-0.454658610055,-0.00382812441809,-0.632221305311,-0.0552663295033,0.171883715516,-0.165194493967,0.573867083184,0.818931385278,0.0029502449994,0.0,0.818898367011,-0.57380164259,-0.0117425026877,0.0,-0.00792360111985,0.00915476283653,-0.999926700745,0.0,0.582514152428,0.157142446818,0.304162813649,1.0,-0.117613714286,-0.15457802449,2.012
0.375715707935,0.18218636087,-0.12582068584,-1.89601598949,0.0382616797767,2.07090506632,0.0594266043864,-0.186075539541,-0.466002220162,-0.00835053583275,-0.619379078819,-0.0564999247044,0.165363861571,-0.16942440609,0.574003902661,0.818836006813,0.00280367226754,0.0,0.818800720156,-0.573938558548,-0.0118599572329,0.0,-0.00810238039758,0.0091034858791,-0.999925736231,0.0,0.580488990835,0.15438264753,0.304122691138,1.0,-0.119255428571,-0.156735706122,2.029
0.372529313666,0.173802665304,-0.125836083463,-1.90718806022,0.0371202162509,2.07400708385,0.056490531437,-0.178345190784,-0.465960353612,0.00180241943246,-0.638960956243,-0.0583157072024,0.163477797595,-0.159012355011,0.573997128115,0.818840037777,0.00300605223119,0.0,0.818808039594,-0.57393182194,-0.0116792535206,0.0,-0.00783832227211,0.00916541417631,-0.999927275299,0.0,0.578385753955,0.151594147743,0.304214707705,1.0,-0.120993714286,-0.159020310204,2.047
0.369646698806,0.166350801504,-0.125834210886,-1.91739943165,0.0361093669056,2.07651173141,0.0537166041266,-0.182677828718,-0.464789924337,-0.00102448106269,-0.639792739923,-0.0639214182788,0.159938904031,-0.179557115082,0.573881012163,0.818922176142,0.00279288425562,0.0,0.8188866394,-0.573815601491,-0.0118774660111,0.0,-0.00812427617132,0.00910348308895,-0.999925558595,0.0,0.576359439335,0.149074838857,0.304127757377,1.0,-0.122538857143,-0.161051069388,2.063
0.366294641445,0.1577668232,-0.125843742193,-1.92860470291,0.0349929971869,2.07956350125,0.0505914544894,-0.193639458503,-0.475078684382,0.00142682652439,-0.62119031297,-0.0660725078123,0.172740227124,-0.172416190896,0.57383766551,0.818951365069,0.00312124892302,0.0,0.818920546295,-0.573771622301,-0.0116623839447,0.0,-0.00776019060099,0.00924854811346,-0.999927119244,0.0,0.57421461153,0.146230804595,0.304280154449,1.0,-0.124277142857,-0.163335673469,2.081
0.363039587281,0.149704022703,-0.12584665596,-1.93946481653,0.0338638771036,2.0822071279,0.0475832176254,-0.197046418604,-0.469946554929,-0.00263410568496,-0.64372305553,-0.0648825775044,0.14192884991,-0.178612231598,0.573781080628,0.818991576612,0.00296915028479,0.0,0.818958419279,-0.573715140204,-0.0117810141332,0.0,-0.00794525783794,0.00919151060914,-0.999926191781,0.0,0.572040835298,0.14346996607,0.304229794493,1.0,-0.125918857143,-0.165493355102,2.098
0.359855684403,0.142036178515,-0.125885128557,-1.94970392626,0.0328511345137,2.08466949412,0.0446809969767,-0.201088507705,-0.485884625697,-0.0026495655049,-0.627330126579,-0.0625998406727,0.166113621912,-0.185759085622,0.573807217576,0.818973549463,0.00288950500057,0.0,0.818938638623,-0.573740741667,-0.0119085861016,0.0,-0.00809514614327,0.00919973707112,-0.999924913904,0.0,0.569984283191,0.140805257557,0.30420166246,1.0,-0.127464,-0.167524114286,2.114
0.356447395875,0.133792348529,-0.125959147936,-1.96045017349,0.0317376609765,2.08752290299,0.0414906306324,-0.198696119905,-0.486532611505,-0.00444070599917,-0.647105165123,-0.061172299363,0.160520147481,-0.188817275711,0.573768154381,0.818999999209,0.00313898315096,0.0,0.818968920327,-0.573701476543,-0.011716238837,0.0,-0.00779491040585,0.00929331330092,-0.999926434144,0.0,0.567878200052,0.137977929013,0.304291364697,1.0,-0.129105714286,-0.169681795918,2.131
0.352866974041,0.12553502351,-0.126047739428,-1.97148334288,0.0305224834869,2.09002703907,0.0382905121721,-0.208517125703,-0.477564720745,-0.0116511063472,-0.644551841439,-0.0655404110754,0.145776298196,-0.183802979138,0.573823680051,0.818962077358,0.00287175268541,0.0,0.818927228405,-0.573757600936,-0.0118809446824,0.0,-0.00808250882015,0.00916950040876,-0.999925293866,0.0,0.565611668288,0.135012591607,0.304206607383,1.0,-0.130747428571,-0.171839477551,2.148
0.349427948827,0.117573363347,-0.12616297134,-1.98162000359,0.0294390569268,2.0926171254,0.0352195377038,-0.211856772606,-0.49611090985,-0.00303352869809,-0.64216355252,-0.0628042001171,0.16486485186,-0.196367419608,0.573921384524,0.818892515281,0.00316854938552,0.0,0.818862294054,-0.5738551549,-0.0116426574655,0.0,-0.00771594521393,0.00927675431708,-0.99992720036,0.0,0.5635992377,0.132225261149,0.304352457433,1.0,-0.132292571429,-0.173870236735,2.164
0.345242009319,0.108221295378,-0.126199135267,-1.99393240564,0.0280973070693,2.0954527626,0.0314041869956,-0.224098145147,-0.498192336087,-0.0038044642185,-0.654675922489,-0.0714594825625,0.142208715356,-0.199928229519,0.573868259716,0.818930241773,0.00303751553182,0.0,0.818898010223,-0.573802111647,-0.0117444634988,0.0,-0.00787511512662,0.0092273679098,-0.999926416414,0.0,0.561039797944,0.128899435564,0.304294597952,1.0,-0.134127428571,-0.176281763265,2.183
0.342132580002,0.10123268145,-0.126205445218,-2.00295246108,0.027089937941,2.097527803,0.0285714861323,-0.219363656593,-0.505818118201,-0.000649808036984,-0.64302886597,-0.0666990835316,0.153222575042,-0.206788437583,0.573797289028,0.818979952834,0.00304218031308,0.0,0.81894786742,-0.573731234633,-0.0117306332152,0.0,-0.00786191093647,0.00922257018024,-0.999926564581,0.0,0.559150652485,0.126466721258,0.304313766858,1.0,-0.135479428571,-0.178058677551,2.197
0.338301917218,0.092701508983,-0.126204182156,-2.01392795333,0.0259660779064,2.10010795493,0.0250507073597,-0.227199822352,-0.504232516323,0.00187338697966,-0.650320787519,-0.0698250779209,0.141138189456,-0.207564321795,0.573713737889,0.819037983084,0.00317429108128,0.0,0.819007147733,-0.573646690539,-0.0117266063686,0.0,-0.00778376431652,0.00932766184341,-0.999926201146,0.0,0.556842439599,0.123523011872,0.304338170422,1.0,-0.137121142857,-0.180216359184,2.214
0.334028666764,0.0836338778413,-0.126287498493,-2.025714808,0.0246671144758,2.10256134306,0.0212136623867,-0.239059980143,-0.500666276094,-0.00330448705187,-0.652273933409,-0.0770204468415,0.143775052876,-0.221055481014,0.57372484708,0.819031018805,0.00295583809456,0.0,0.818996495802,-0.57365758929,-0.0119355358378,0.0,-0.00808009068837,0.00926871296642,-0.999924398689,0.0,0.554298489904,0.120226903619,0.304260210203,1.0,-0.138859428571,-0.182500963265,2.232
0.329931767062,0.0749022983374,-0.126405171047,-2.03655813335,0.0234169130524,2.10513452541,0.0175411016981,-0.247119591047,-0.50585220597,-0.00306134288489,-0.637348681,-0.0755671412153,0.141346345337,-0.210156547009,0.573752938305,0.819010147124,0.0032698005655,0.0,0.818980824977,-0.573685898959,-0.0116466543428,0.0,-0.00766303714719,0.0093603863317,-0.999926827838,0.0,0.55203256578,0.117115241322,0.304412912221,1.0,-0.140501142857,-0.184658644898,2.249
0.325661799232,0.0661858372408,-0.126501959527,-2.04778499638,0.0221755379872,2.10740375511,0.0137923543805,-0.258305989159,-0.510677022657,-0.00607597881143,-0.669817645359,-0.0760627922561,0.134331979451,-0.225660493035,0.573837630343,0.818951528786,0.00308454252403,0.0,0.818918889914,-0.57377012468,-0.0118508509444,0.0,-0.00793560693476,0.00932663392977,-0.99992501721,0.0,0.549566280265,0.113907773145,0.304332014795,1.0,-0.142142857143,-0.186816326531,2.266
0.32179378676,0.0584042459798,-0.126641061344,-2.05747944402,0.0210293769325,2.10946078973,0.0103533410325,-0.257751125766,-0.522980115435,-0.00779580950119,-0.637513106676,-0.0763909944369,0.145166842472,-0.236324979416,0.57389730065,0.8189094274,0.0031598930201,0.0,0.81887819185,-0.573830022667,-0.0117626059412,0.0,-0.00781941796075,0.00933827507176,-0.99992582391,0.0,0.54746882976,0.11102769118,0.304393823776,1.0,-0.143591428571,-0.188720163265,2.281
0.318184840199,0.0511654430633,-0.126671747402,-2.06656348435,0.0199965096733,2.11143477573,0.00714374195989,-0.254831427828,-0.517052694836,0.00124274473788,-0.652392634976,-0.0779222777386,0.135872298054,-0.23422897453,0.573879036739,0.818921868696,0.00325131736944,0.0,0.818891889145,-0.573811532651,-0.0117109261464,0.0,-0.00772483884814,0.00938331309693,-0.999926137422,0.0,0.54547774956,0.108418796099,0.304409678325,1.0,-0.144943428571,-0.190497077551,2.295
0.312375934856,0.0396827563902,-0.126673169882,-2.08100370902,0.0183526091235,2.11422101908,0.00197549433442,-0.270834812228,-0.526517102618,-0.00360829518554,-0.634444189527,-0.0757495010226,0.12959492869,-0.240819658795,0.573796548854,0.818980130305,0.00313266512126,0.0,0.818947594108,-0.573728256927,-0.0118942090183,0.0,-0.00794397529825,0.00939052544696,-0.999924352783,0.0,0.542202913043,0.104284714237,0.304358454977,1.0,-0.147068,-0.193289371429,2.317
0.308252289845,0.0317426285647,-0.12674637096,-2.09068180792,0.0171481995092,2.11629511796,-0.0016556848473,-0.282419251589,-0.516144554767,-0.00676878631547,-0.657107563785,-0.0796672324621,0.139343407682,-0.243184337074,0.573806807049,0.818972193028,0.00332297058407,0.0,0.818943162192,-0.573739098116,-0.0116743861782,0.0,-0.00765462687995,0.00942034766605,-0.999926329155,0.0,0.539918329715,0.101176518734,0.304442320256,1.0,-0.148613142857,-0.195320130612,2.333
0.303214097322,0.0222405302782,-0.126860228405,-2.10255336549,0.015761238285,2.11841062456,-0.00612511200658,-0.288284973022,-0.523535392213,-0.00549633181882,-0.661949108277,-0.0678615492271,0.113827234399,-0.250127015313,0.573812364388,0.81896897442,0.00315219214623,0.0,0.818936736692,-0.573744051594,-0.0118798761637,0.0,-0.00792085100555,0.009398446729,-0.999924461806,0.0,0.537313383291,0.0978296714199,0.304376970227,1.0,-0.14998,-0.197116571429,2.35
0.298286909525,0.0131487131421,-0.126991397427,-2.11343737443,0.014406665885,2.120536309,-0.0104132944887,-0.290188121768,-0.522383964785,-0.0126379485178,-0.64725331962,-0.0838558868047,0.114213303057,-0.253664171432,0.573896435708,0.818909189215,0.0033716171102,0.0,0.818880668574,-0.573828405924,-0.0116686799374,0.0,-0.00762100628298,0.00945774798981,-0.999926232912,0.0,0.534844461565,0.0944316643753,0.304504038721,1.0,-0.14998,-0.197116571429,2.367
0.293582426701,0.0047365558439,-0.127062174895,-2.12381511689,0.01320074367,2.1223198804,-0.0145334505446,-0.297536119971,-0.525774059695,-0.00365165498274,-0.639770588078,-0.0724941017661,0.11346861675,-0.255037851402,0.573937146597,0.818881093882,0.00326385369074,0.0,0.818850132702,-0.573868203771,-0.0118529226243,0.0,-0.00783326320398,0.00947562205268,-0.999924423431,0.0,0.532398793574,0.0912487187003,0.304442837198,1.0,-0.14998,-0.197116571429,2.383
0.288610355127,-0.00423175259438,-0.127047077568,-2.13460793758,0.0118895158746,2.12423678392,-0.0189382830283,-0.29202535779,-0.531729544402,0.00119780422881,-0.628288568094,-0.0733908361196,0.117846958187,-0.264041513081,0.573837146292,0.818950872539,0.00333838354858,0.0,0.818920771153,-0.573767820565,-0.0118323944568,0.0,-0.00777484240152,0.00952392246389,-0.999924420507,0.0,0.529846745342,0.0879715433908,0.304478635654,1.0,-0.14998,-0.197116571429,2.4
0.283575649323,-0.0131346110995,-0.127049202244,-2.14528267521,0.0105323730421,2.12616745973,-0.0233463742861,-0.298620934753,-0.52333503622,-0.000611511134303,-0.636690551866,-0.0785655256396,0.0970980039072,-0.255662132546,0.573768121844,0.818998864377,0.00342774073361,0.0,0.818970385879,-0.573699070549,-0.0117315985757,0.0,-0.00764182136661,0.00953861908028,-0.999925305867,0.0,0.52731591049,0.0846850008184,0.304509983047,1.0,-0.14998,-0.197116571429,2.417
0.278683395728,-0.0214395766568,-0.127088785853,-2.15539255914,0.00925641673791,2.12762238381,-0.0276650077133,-0.300521627734,-0.519117000388,-0.00073270614577,-0.626684597555,-0.0731520730057,0.0910797805101,-0.258561611337,0.573709034207,0.819041308045,0.0031664942869,0.0,0.81900829179,-0.573639539531,-0.0119934801661,0.0,-0.00800688351589,0.00947433541006,-0.999923060433,0.0,0.524824952663,0.081506864278,0.304417919132,1.0,-0.14998,-0.197116571429,2.433
0.273403819054,-0.0303289578963,-0.127245027346,-2.16565958297,0.00791037931408,2.12948587178,-0.0321679448155,-0.314738969628,-0.514912263864,-0.00697991882438,-0.610771093529,-0.078752532888,0.102927202936,-0.27078724066,0.573870893482,0.818926569835,0.00349538736232,0.0,0.818899238986,-0.57380194474,-0.0116666833804,0.0,-0.00754864227069,0.00955772408225,-0.999925831205,0.0,0.522396659032,0.0780962361667,0.304574465246,1.0,-0.14998,-0.197116571429,2.45
0.267746916173,-0.0396094000226,-0.127333777943,-2.1767349003,0.0065267455738,2.1310923496,-0.0370941206658,-0.314514642212,-0.516009809959,-0.00330874046556,-0.61297622291,-0.0762694745869,0.0874627159865,-0.277170662559,0.573909216674,0.818900200109,0.00337937573308,0.0,0.818870407859,-0.573839461486,-0.0118437526041,0.0,-0.00775978162652,0.00956469371433,-0.999924148335,0.0,0.51964229958,0.0745115188525,0.304520064896,1.0,-0.14998,-0.197116571429,2.468
0.262721715373,-0.0477971138707,-0.127336318225,-2.18636621157,0.00533925455707,2.13257490841,-0.0414873039802,-0.311369191343,-0.518192649829,-0.000652719428856,-0.587889986184,-0.0788772118312,0.102722092157,-0.269760604092,0.573875507096,0.818923573991,0.00343936301934,0.0,0.818894163583,-0.573805051719,-0.0118683769789,0.0,-0.00774591895082,0.0096276305219,-0.999923651821,0.0,0.517244331131,0.0714154725077,0.304519414563,1.0,-0.14998,-0.197116571429,2.484
0.257282472722,-0.0564844157629,-0.127345925869,-2.19639489526,0.00393721135007,2.1341026462,-0.0462732568034,-0.323546860943,-0.507360433851,-0.00166740806357,-0.599258581948,-0.0915799064544,0.0809791087947,-0.294338021574,0.573758368569,0.819005318716,0.00351700353809,0.0,0.81897788471,-0.573688879232,-0.0117064556174,0.0,-0.00757012934439,0.00959720977092,-0.999925290562,0.0,0.51474067543,0.0680930961466,0.304578277838,1.0,-0.14998,-0.197116571429,2.501
0.252445614266,-0.0640894971231,-0.127377755971,-2.20541183704,0.00281073863716,2.13521589839,-0.0504791172539,-0.321510476102,-0.499756902134,-0.000594244459282,-0.59170424803,-0.078004442539,0.0758173197015,-0.282918031949,0.573757488683,0.819006679146,0.00333925081561,0.0,0.818975537265,-0.573686886591,-0.011965467643,0.0,-0.00788426531129,0.00960022623065,-0.999922834031,0.0,0.512402354652,0.0651600797404,0.304483130452,1.0,-0.14998,-0.197116571429,2.516
0.246804619653,-0.0727442247241,-0.127534428112,-2.21521489585,0.00146052573065,2.13661814663,-0.0553363097655,-0.335418155085,-0.504413906367,-0.00999200031569,-0.560558512329,-0.084317363783,0.0835243807841,-0.287496596747,0.57387094112,0.818926507367,0.00350219523435,0.0,0.818898313683,-0.573800768274,-0.0117888538666,0.0,-0.00764478979264,0.00963340790773,-0.999924374461,0.0,0.509920333518,0.061737492932,0.304572132895,1.0,-0.14998,-0.197116571429,2.533
0.241105188023,-0.0812987153485,-0.127637553721,-2.22503844395,0.000187900031172,2.13785750005,-0.0603305119407,-0.329730589568,-0.513542126879,-0.00541666903819,-0.581596167763,-0.0811295812493,0.0618176507847,-0.296370402429,0.573900083804,0.818906021553,0.00351689845364,0.0,0.818877457892,-0.573829149106,-0.0118559476432,0.0,-0.00769095614385,0.00968422466274,-0.999923529569,0.0,0.507365701278,0.0583527904474,0.304563639353,1.0,-0.14998,-0.197116571429,2.55
0.235802882283,-0.0892934868024,-0.127629768921,-2.23429270509,-0.000999243984306,2.13889225107,-0.0649823529502,-0.3361663088,-0.499800499737,-8.97921328211e-05,-0.567080548525,-0.0642720301718,0.0685678980303,-0.291545814855,0.57382617179,0.818958313463,0.00339886445643,0.0,0.818926987059,-0.573754160609,-0.0120623360979,0.0,-0.00792859045385,0.00970529283158,-0.999921469289,0.0,0.504895056967,0.0552819170233,0.304491429971,1.0,-0.14998,-0.197116571429,2.566
0.22998495031,-0.0978398649564,-0.127666119162,-2.24371874603,-0.00233983283882,2.14011179901,-0.0700613025883,-0.338966640893,-0.503703977264,-0.000768371237036,-0.555138934789,-0.0829538709383,0.0593246857195,-0.297016921485,0.573781435925,0.818988729489,0.0036154749364,0.0,0.818961469143,-0.573710204387,-0.0118093328391,0.0,-0.00759762191108,0.00973709808864,-0.999923729622,0.0,0.502427048483,0.0519442439143,0.304613194966,1.0,-0.14998,-0.197116571429,2.583
0.224106351445,-0.106284068527,-0.12772145083,-2.25328123563,-0.00365381742589,2.1410863362,-0.0751171621154,-0.349862265589,-0.498861257035,-0.00607901986097,-0.568200830078,-0.0788472307093,0.0584029841789,-0.30108588059,0.573821403858,0.818961122389,0.0035246832226,0.0,0.818932066613,-0.573749706487,-0.011928599258,0.0,-0.00774692222471,0.00973154905042,-0.999922638082,0.0,0.499834482944,0.048596070578,0.304577767606,1.0,-0.14998,-0.197116571429,2.6
0.217366890972,-0.11565456614,-0.127900088175,-2.2637722861,-0.00514310844858,2.14215415839,-0.0809483565425,-0.358379638289,-0.500414338822,-0.00866794371281,-0.535090799128,-0.0736699721264,0.0605486671302,-0.296916453151,0.573933093546,0.818883008108,0.00348856204893,0.0,0.818853262139,-0.57386123686,-0.0119734212003,0.0,-0.00780303087009,0.00972875039233,-0.999922229038,0.0,0.496981533446,0.0447578706217,0.304564569191,1.0,-0.14998,-0.197116571429,2.619
0.211724186697,-0.123526588849,-0.127902794331,-2.27237902694,-0.00630918797769,2.14312631107,-0.0859384177562,-0.355120378652,-0.485416457554,-0.00663719147405,-0.549567934314,-0.0745562200939,0.0497524239936,-0.30692147764,0.573848098276,0.818941711029,0.00368523318441,0.0,0.818914983605,-0.573776136233,-0.0118297091383,0.0,-0.00757348919814,0.00980653757118,-0.999923234095,0.0,0.494639328595,0.0416682578113,0.304633262957,1.0,-0.14998,-0.197116571429,2.635
0.205654633645,-0.131837062082,-0.127927246101,-2.28160825078,-0.00760042592485,2.14386699468,-0.0912470656855,-0.362732733311,-0.48945365978,-0.00554009248835,-0.537804813226,-0.0788178898426,0.0435986920553,-0.312314073885,0.573802036376,0.818974440332,0.00358274106875,0.0,0.818945607616,-0.573729458246,-0.011972777788,0.0,-0.00775002410776,0.00980426309979,-0.999921903726,0.0,0.491885156561,0.0381550161626,0.30459680499,1.0,-0.14998,-0.197116571429,2.653
0.199464852324,-0.140129426557,-0.128008207516,-2.2906445279,-0.00891338767264,2.14468531474,-0.0966719519886,-0.366631899464,-0.494032547236,-0.0116367951075,-0.522474824453,-0.0691406627746,0.0512692079666,-0.319009008858,0.5737781357,0.818990963832,0.00363305029859,0.0,0.818963048143,-0.573705711657,-0.0119175957754,0.0,-0.00767624933523,0.00981357877445,-0.999922381422,0.0,0.48950201721,0.0350037640225,0.3046188889,1.0,-0.14998,-0.197116571429,2.669
0.193534931105,-0.147906939101,-0.128156821399,-2.2989696601,-0.0100887868351,2.14544973629,-0.101799608047,-0.375850099897,-0.485552253728,-0.00889699291551,-0.525536196059,-0.0749610875767,0.0390959925366,-0.316051217262,0.573908279056,0.818898930415,0.00381783927303,0.0,0.818873837055,-0.573835741014,-0.0117867816741,0.0,-0.00746151393489,0.00989105071432,-0.999923243517,0.0,0.487158097789,0.0318044567569,0.304688785741,1.0,-0.14998,-0.197116571429,2.685
0.186427538294,-0.157052781794,-0.128246671247,-2.30896259928,-0.0115674320479,2.14604595379,-0.108047680936,-0.372787728603,-0.485882002149,-0.00105113240585,-0.53055514223,-0.0765641811345,0.0372662147779,-0.323748196208,0.573866751558,0.818928793845,0.00365088610582,0.0,0.818900693919,-0.573793717289,-0.0119653833911,0.0,-0.00770408980592,0.00985643863026,-0.999921745747,0.0,0.484239163093,0.028041491883,0.304628749699,1.0,-0.14998,-0.197116571429,2.704
0.181207883846,-0.163768275662,-0.128235483083,-2.31608789327,-0.012586369848,2.14652656205,-0.112630316399,-0.369570255119,-0.485675958405,-0.000724315952344,-0.492031173279,-0.0641166960365,0.0430421324511,-0.331780517455,0.573805252434,0.818971560497,0.00372320797785,0.0,0.818944487123,-0.573732075209,-0.0119239166831,0.0,-0.00762937170267,0.00989129710834,-0.99992197442,0.0,0.482157252571,0.0253564965634,0.30466825816,1.0,-0.14998,-0.197116571429,2.718
0.175088834396,-0.17138792433,-0.128271163768,-2.32410695121,-0.0137106355651,2.14711668887,-0.118054291787,-0.379345078757,-0.464670884697,-0.00427686590488,-0.505661929395,-0.0694335321591,0.0288649594682,-0.337670017402,0.573760970701,0.81900175158,0.00390209054755,0.0,0.818977310098,-0.573687580583,-0.0118098404461,0.0,-0.00743384225029,0.00997194112934,-0.999922646198,0.0,0.479813231372,0.0222282137384,0.304728753938,1.0,-0.14998,-0.197116571429,2.734
0.168486827081,-0.179406403848,-0.128402921101,-2.33274561301,-0.0150191442498,2.14749446356,-0.123763314644,-0.3917192157,-0.481984493641,-0.00746033881449,-0.503818868866,-0.0782125990175,0.0254363641159,-0.347529810959,0.573845732486,0.818943071681,0.0037506738135,0.0,0.818915863453,-0.57377181078,-0.0119776726012,0.0,-0.0076571485098,0.00994501406413,-0.999921229284,0.0,0.477055307979,0.0186292572739,0.304663574396,1.0,-0.14998,-0.197116571429,2.752
0.161778582135,-0.187434857954,-0.12851553392,-2.34117924802,-0.0162593981338,2.1479051579,-0.129646594237,-0.39574656848,-0.469291291337,-0.000392604977546,-0.485007589448,-0.0707172334796,0.0314504241086,-0.346782057756,0.573903229932,0.818902580338,0.00379387546234,0.0,0.818875658824,-0.573828781413,-0.0119971624841,0.0,-0.00764761962195,0.00999211494754,-0.999920832643,0.0,0.474654993931,0.0154416092909,0.304670683668,1.0,-0.14998,-0.197116571429,2.768
0.154331901444,-0.196377036432,-0.128543279742,-2.35032390868,-0.0176552999529,2.14839881241,-0.13628055236,-0.399573588508,-0.46938085137,-0.00264243101959,-0.487919881005,-0.076814465174,0.017610889404,-0.35215240419,0.573780738754,0.818987458795,0.00399412974072,0.0,0.818964297742,-0.573707153363,-0.011761296933,0.0,-0.00734103522128,0.0100196482104,-0.99992285495,0.0,0.471877808888,0.0117672436397,0.3047752824,1.0,-0.14998,-0.197116571429,2.787
0.147896579398,-0.203765047141,-0.128606072721,-2.35818108173,-0.0188239684632,2.14856488141,-0.141937203414,-0.403191732963,-0.46229536796,-3.69058026768e-05,-0.491006394388,-0.067372889486,0.0094399525618,-0.347778543167,0.573779418759,0.818989161178,0.0038313682327,0.0,0.818962602397,-0.573704686364,-0.0119973171658,0.0,-0.00762774566942,0.0100217539185,-0.999920687827,0.0,0.46940567068,0.00861339174444,0.304684516549,1.0,-0.14998,-0.197116571429,2.803
0.140550094086,-0.21209841396,-0.128800198305,-2.36676365544,-0.0200658547767,2.14880578263,-0.148401896677,-0.416474408626,-0.462271848742,-0.0112821137287,-0.470253764388,-0.0708815926306,0.0149493798143,-0.350012193751,0.573911548673,0.818896162924,0.00391861584801,0.0,0.818870084522,-0.573835604198,-0.012051179624,0.0,-0.0076201701719,0.0101253433962,-0.99991970199,0.0,0.466702262348,0.00501034825873,0.30469087154,1.0,-0.14998,-0.197116571429,2.821
0.133574441966,-0.219927164209,-0.128862007559,-2.37456196394,-0.0212791793321,2.1490551995,-0.154508909459,-0.414656727402,-0.462375560369,-0.00027146869724,-0.467301628397,-0.071208782795,0.0105119897703,-0.360260133172,0.573948821786,0.818869050688,0.00412003598186,0.0,0.818846698506,-0.573873652281,-0.0118263462262,0.0,-0.00731998974343,0.0101615909862,-0.999921576834,0.0,0.464235516611,0.00167756905861,0.304799519045,1.0,-0.14998,-0.197116571429,2.838
0.126989006874,-0.227133990659,-0.128874180943,-2.38211963984,-0.0224864293292,2.14912026508,-0.160409825957,-0.419202032548,-0.447221477995,-0.0031868993993,-0.471064624832,-0.077450020046,0.00176292280693,-0.367713735093,0.573798401575,0.818975422178,0.00392417105826,0.0,0.818949722536,-0.573722861593,-0.0120073704153,0.0,-0.00758250059283,0.0101037032784,-0.999920207249,0.0,0.461774241131,-0.00141990602999,0.304697220607,1.0,-0.14998,-0.197116571429,2.854
0.119815767919,-0.234832270619,-0.128936532039,-2.38992869196,-0.023666808253,2.14914041411,-0.166766647131,-0.417610231454,-0.455788841485,-0.00907960303114,-0.460401045392,-0.0620583383092,-0.000451093835127,-0.376463382792,0.573794906442,0.818977881941,0.00392187887632,0.0,0.818951557053,-0.573718584007,-0.0120863752334,0.0,-0.00764856645204,0.0101471247222,-0.999919264386,0.0,0.45920419344,-0.0047652645831,0.304684068658,1.0,-0.14998,-0.197116571429,2.871
0.112498408754,-0.242551564914,-0.129125171287,-2.39744593238,-0.0248972204557,2.14921124727,-0.173179484701,-0.427328604231,-0.445028852461,-0.00731048827274,-0.437661035975,-0.0648712278973,0.00501798346888,-0.37706209968,0.573936570646,0.818877700164,0.00410754801017,0.0,0.818854929395,-0.573861090741,-0.0118659192988,0.0,-0.00735971642168,0.0101739668461,-0.999921159378,0.0,0.456872819395,-0.00800595901847,0.304793149487,1.0,-0.14998,-0.197116571429,2.887
0.105663989176,-0.249700709532,-0.129164376313,-2.404593422,-0.0259785272399,2.14922455543,-0.179316734142,-0.429626199156,-0.440934475911,-0.000597733212979,-0.447015615058,-0.0707355240153,-0.00517948554637,-0.376057423943,0.573870414915,0.818923691796,0.00418100478996,0.0,0.818901747598,-0.573794513993,-0.0118545516109,0.0,-0.0073090762807,0.0102270054823,-0.99992098976,0.0,0.454325005945,-0.0113077070651,0.304795801278,1.0,-0.14998,-0.197116571429,2.904
0.0982563690343,-0.257176747318,-0.129211980463,-2.41216538146,-0.0271513540048,2.14914149847,-0.185923805155,-0.439248335919,-0.439876839784,-0.00760358957759,-0.445829627191,-0.0730607649761,-0.00902541505573,-0.3969621729,0.573832770755,0.818950413795,0.00411313180388,0.0,0.818926796648,-0.573756020608,-0.0119865528781,0.0,-0.00745660186619,0.0102468279854,-0.999919697578,0.0,0.451736731534,-0.0146399622253,0.30472569372,1.0,-0.14998,-0.197116571429,2.921
0.0912234781077,-0.264249110487,-0.129331179645,-2.41905873982,-0.0282644385995,2.14903135871,-0.192119037195,-0.448178190602,-0.436147619826,-0.0113253188327,-0.426039738061,-0.0715492119706,-0.0106806513106,-0.390489490099,0.573920600457,0.818888466812,0.00419168146397,0.0,0.81886613561,-0.573843919384,-0.0119228787601,0.0,-0.00735827865744,0.0102754095728,-0.999920132657,0.0,0.449353121144,-0.0178055118874,0.304760852566,1.0,-0.14998,-0.197116571429,2.937
0.0836201057255,-0.271691597918,-0.129478070495,-2.42611868103,-0.0294170378218,2.14896261991,-0.19892590505,-0.447363523679,-0.436465416684,-0.00331823277338,-0.419072460707,-0.0659286693615,-0.00221744772989,-0.395097252967,0.573968039756,0.818853986247,0.00442554469981,0.0,0.818835934384,-0.573892352801,-0.0116630552547,0.0,-0.0070106880044,0.0103182146491,-0.999922189323,0.0,0.446895278279,-0.0212014986691,0.30487196362,1.0,-0.14998,-0.197116571429,2.954
0.0765139928249,-0.278561894059,-0.129476468721,-2.43297483082,-0.0305291754158,2.14871756132,-0.2053550179,-0.4457891913,-0.423112705535,-0.000795790650433,-0.430679378481,-0.0718857736632,-0.0210694304175,-0.405003239262,0.573820258192,0.818958234986,0.00429738745017,0.0,0.8189377919,-0.573743954065,-0.0118116498789,0.0,-0.00720778664155,0.0102972552267,-0.999921004053,0.0,0.444447062538,-0.0242761652855,0.304792037895,1.0,-0.14998,-0.197116571429,2.97
0.0687697952489,-0.285847850718,-0.129539698797,-2.44005154387,-0.0317021853372,2.14845115799,-0.212267043841,-0.451265135896,-0.426622191324,-0.00493893342048,-0.417436126418,-0.0734610556736,-0.0132879903912,-0.402518365465,0.573810690041,0.818965022518,0.00428144693876,0.0,0.818944322501,-0.573734370082,-0.0118243871429,0.0,-0.00722748537183,0.0102914245502,-0.999920921891,0.0,0.441888162085,-0.027622960566,0.30477692328,1.0,-0.14998,-0.197116571429,2.987
0.0613671124809,-0.292679471297,-0.129712744578,-2.44651071763,-0.0326850672554,2.14818467815,-0.218910949959,-0.468538672179,-0.427804044091,-0.0139381058562,-0.399125897129,-0.0672546028115,-0.0220002526255,-0.4064076439,0.573931912524,0.818879025444,0.00447754130272,0.0,0.8188609123,-0.573854981056,-0.0117479328193,0.0,-0.00705081214859,0.0104091975165,-0.999920964204,0.0,0.439373638921,-0.0310207065365,0.304834300035,1.0,-0.14998,-0.197116571429,3.004
0.0535137160094,-0.299882182689,-0.129784506904,-2.45320575076,-0.0337743914165,2.14790307743,-0.226021845868,-0.458405467329,-0.419878367514,-0.00380230950101,-0.402471128602,-0.0700024964338,-0.0215845888242,-0.419252354542,0.573887657171,0.81890912193,0.00464261426578,0.0,0.818893943945,-0.573811414586,-0.0115722064405,0.0,-0.00681273152197,0.0104431562119,-0.999922260567,0.0,0.437037706826,-0.0341489875579,0.304910544716,1.0,-0.14998,-0.197116571429,3.02
0.0455236304254,-0.306910711905,-0.129820022485,-2.4600611236,-0.0349689135403,2.14739950266,-0.233143120592,-0.472278852474,-0.410984541997,-0.00149877806496,-0.400209491407,-0.06683013075,-0.0277073383172,-0.422436703513,0.57386780071,0.818924182931,0.00443585615388,0.0,0.818905400897,-0.573790828675,-0.0117803315345,0.0,-0.00710208153524,0.0103930996107,-0.99992076882,0.0,0.434420410266,-0.0374818907862,0.304814344138,1.0,-0.14998,-0.197116571429,3.037
0.0374712606341,-0.313962788991,-0.129955671601,-2.46672142117,-0.0360192696293,2.14695602398,-0.240432493884,-0.476155136673,-0.412622674163,-0.0118812343722,-0.38996198667,-0.0605812666889,-0.0164900311837,-0.437221692263,0.573905151201,0.818897638517,0.00450354942111,0.0,0.818879195522,-0.573827152459,-0.0118325459815,0.0,-0.00710552182498,0.0104788237674,-0.999919849694,0.0,0.431855632684,-0.0408321137461,0.30480424057,1.0,-0.14998,-0.197116571429,3.054
0.0293256317457,-0.320952131639,-0.130064847413,-2.47309295328,-0.0371048067568,2.14651625231,-0.247813780275,-0.474356942884,-0.415240988543,-0.00555916254177,-0.357314355043,-0.0622295741021,-0.0258712482278,-0.432972532004,0.573910864124,0.818892824876,0.00464847385587,0.0,0.81887711521,-0.573833670706,-0.0116591358882,0.0,-0.00688026437364,0.0104980357335,-0.999921223501,0.0,0.429363382422,-0.0441899123321,0.304882576197,1.0,-0.14998,-0.197116571429,3.071
0.021636440274,-0.327442191737,-0.130089802765,-2.4789956088,-0.0381357757296,2.14609431745,-0.254866721401,-0.492348558894,-0.40650315827,-0.00326883073526,-0.37203666427,-0.0584807569884,-0.0345464308341,-0.444849285403,0.573782740043,0.818982043678,0.00474618405332,0.0,0.818968627616,-0.57370686915,-0.0114700554309,0.0,-0.00667097948132,0.0104684972252,-0.999922951331,0.0,0.427026289045,-0.047298765704,0.304947743698,1.0,-0.14998,-0.197116571429,3.087
0.0118010961932,-0.335390242368,-0.130195483349,-2.48655780722,-0.0393696029731,2.14531185389,-0.263745742466,-0.493392881899,-0.389270452618,-0.010919904551,-0.37453267995,-0.0551418566647,-0.0420272085656,-0.455193407069,0.573826118856,0.818952417352,0.00461197714858,0.0,0.818935453883,-0.573747874645,-0.0117832768978,0.0,-0.00700396586094,0.0105386665511,-0.99991993728,0.0,0.423938344078,-0.0512372743652,0.304834274217,1.0,-0.14998,-0.197116571429,3.107
0.00434059156291,-0.341388818962,-0.130331316104,-2.4919602634,-0.0402720949173,2.14481424035,-0.270455266669,-0.489340000912,-0.402726790613,-0.00565432830093,-0.357208736155,-0.0634295936141,-0.0413084760268,-0.44582066968,0.573944656539,0.818868615191,0.00474016740982,0.0,0.818853634863,-0.573866462847,-0.0116942033371,0.0,-0.00685592498546,0.0105935327896,-0.999920383508,0.0,0.421706607749,-0.0542253247561,0.304880092259,1.0,-0.14998,-0.197116571429,3.122
-0.00460284327758,-0.348378106863,-0.130384742505,-2.49832909143,-0.0413833361767,2.14411191325,-0.278674611187,-0.505115436993,-0.386186329492,-0.00670839559622,-0.347751621543,-0.0650520169577,-0.0377880491831,-0.457217248254,0.573830913378,0.81894836637,0.00473317777888,0.0,0.818933224117,-0.573752650879,-0.0117054238679,0.0,-0.00687059673684,0.0105932945621,-0.999920285328,0.0,0.419171300066,-0.0575272594649,0.304880625619,1.0,-0.14998,-0.197116571429,3.139
-0.0116864518279,-0.353857670972,-0.130477443267,-2.50308750618,-0.0422393708855,2.143628472,-0.285145170623,-0.50783072977,-0.386470322269,-0.00571668595615,-0.340335635087,-0.057125483191,-0.0243047547852,-0.471245840681,0.573854192637,0.818931193256,0.00487987768629,0.0,0.818919143215,-0.573777357561,-0.0114772700752,0.0,-0.00659925821012,0.0105827085565,-0.999922225011,0.0,0.416983936477,-0.060512888688,0.30497439222,1.0,-0.14998,-0.197116571429,3.154
-0.02038135228,-0.360307741155,-0.130648592988,-2.50901417104,-0.0432441427734,2.14286406376,-0.293060133079,-0.513377727135,-0.380933208834,-0.00685654382606,-0.35238805924,-0.0544184455228,-0.0489774366801,-0.461714718774,0.573947480202,0.818866045751,0.00484107297628,0.0,0.818852304209,-0.573868857477,-0.0116698419501,0.0,-0.00677802681238,0.0106622054236,-0.999920184679,0.0,0.414384693581,-0.0638954418526,0.304911782941,1.0,-0.14998,-0.197116571429,3.171
-0.0290180106045,-0.366727058727,-0.130693572766,-2.51481640792,-0.0442968504124,2.14210668989,-0.301092397553,-0.517010620931,-0.378042187653,0.000791993597469,-0.33932591049,-0.0620452213318,-0.0462004484026,-0.472046585733,0.573779361614,0.81898424089,0.00477538069739,0.0,0.818969395371,-0.57370058393,-0.0117267363314,0.0,-0.00686450572088,0.0106396547748,-0.999919834941,0.0,0.411814633565,-0.0671796242605,0.304882505583,1.0,-0.14998,-0.197116571429,3.188
-0.037898102832,-0.373046673935,-0.130775830653,-2.52043834445,-0.0452791824773,2.14133164796,-0.309183351584,-0.523855043633,-0.371363310175,-0.00472974820589,-0.326353189287,-0.0466792837762,-0.0465891869162,-0.478709824704,0.573825661698,0.818951715069,0.0047901214893,0.0,0.81893683215,-0.573746473462,-0.0117556811192,0.0,-0.00687915234742,0.010668723821,-0.999919424551,0.0,0.409257819553,-0.0705407087352,0.304878486072,1.0,-0.14998,-0.197116571429,3.205
-0.0478966681529,-0.380005503795,-0.130948154821,-2.52639427531,-0.0463094650648,2.14049478959,-0.318323454633,-0.519102020611,-0.36304155791,-0.000550253053016,-0.307290881533,-0.0519701066192,-0.0408140215258,-0.489063914334,0.57395753579,0.818858162846,0.00498027625344,0.0,0.818846415842,-0.57387878366,-0.0115946465317,0.0,-0.0066364238509,0.0107331227576,-0.999920375807,0.0,0.406476076241,-0.0743262893153,0.304965395736,1.0,-0.14998,-0.197116571429,3.224
-0.0562960373923,-0.385764114815,-0.131023780487,-2.53145064187,-0.0472238739521,2.13975358623,-0.326169714271,-0.534698831335,-0.361266971365,-0.00541441098906,-0.326413923793,-0.0641749407441,-0.0559605146866,-0.495431844627,0.573851673249,0.81893226122,0.00499555229507,0.0,0.818920765186,-0.573772978775,-0.0115799859749,0.0,-0.00661703857685,0.0107363625442,-0.999920469497,0.0,0.404089508711,-0.0774426227135,0.304965077637,1.0,-0.14998,-0.197116571429,3.24
-0.0654550042207,-0.391836244567,-0.131118515553,-2.53686708872,-0.0482400805936,2.13884697177,-0.334554006317,-0.544074359151,-0.355883700777,-0.00801495123694,-0.316705957513,-0.0530041797431,-0.0508582188363,-0.488455324777,0.573878676261,0.818913986236,0.00488824936724,0.0,0.818900288808,-0.573799018928,-0.0117366847794,0.0,-0.00680659367468,0.0107386286953,-0.999919172802,0.0,0.401467582524,-0.0808115282216,0.304903885269,1.0,-0.14998,-0.197116571429,3.257
-0.0735269762672,-0.397117512159,-0.131246443466,-2.54137788627,-0.0490385217941,2.13809748036,-0.342039749895,-0.527328512246,-0.344856892599,6.69933592509e-05,-0.300127993837,-0.0479657848932,-0.0438843773165,-0.498513153803,0.573907818699,0.818893033937,0.00497609354467,0.0,0.818880565128,-0.573828012679,-0.0116952477915,0.0,-0.0067218644937,0.0107870281269,-0.999919225019,0.0,0.399231868299,-0.0837740650269,0.304934291987,1.0,-0.14998,-0.197116571429,3.272
-0.0826652697682,-0.402898319176,-0.131295802999,-2.54640745588,-0.0499542317718,2.13722449243,-0.350599856713,-0.546516079497,-0.339757757193,-0.00653499879654,-0.295396965776,-0.0516619731993,-0.0551437999359,-0.510557695516,0.573794616699,0.818972488926,0.00495450611807,0.0,0.818959435412,-0.573714413443,-0.0117457165865,0.0,-0.00677707765537,0.0107973763628,-0.99991874064,0.0,0.396699262852,-0.0870630869913,0.304913151011,1.0,-0.14998,-0.197116571429,3.289
-0.0920925712732,-0.40866541095,-0.131389156064,-2.55128148242,-0.0509091546469,2.1363332366,-0.359235404794,-0.555772556808,-0.33941175525,-0.00469035890595,-0.278869274076,-0.0545638766205,-0.0494084379613,-0.503004504645,0.573875329122,0.818915871524,0.0049647651811,0.0,0.81890340685,-0.573795807263,-0.0116759890013,0.0,-0.00671302051036,0.0107664324391,-0.999919506404,0.0,0.394159411856,-0.0904608119559,0.304943853652,1.0,-0.14998,-0.197116571429,3.306
-0.101494098629,-0.41433111494,-0.131518915058,-2.55602081178,-0.051750867709,2.13551449781,-0.368051544918,-0.543821345998,-0.330109779129,-0.00505010870431,-0.281610415519,-0.0463261843046,-0.0532138464589,-0.526076684003,0.57386793342,0.818920188776,0.00510551740784,0.0,0.818910083295,-0.573788850863,-0.0115488962245,0.0,-0.00652826099911,0.0108087089965,-0.999920273631,0.0,0.391652289916,-0.0938218444295,0.304990244824,1.0,-0.14998,-0.197116571429,3.323
-0.110332244451,-0.419625511734,-0.131598568085,-2.56054306059,-0.0525478032936,2.13455532092,-0.37638268842,-0.562058471354,-0.32978610213,-0.00847053333038,-0.283544207973,-0.045531898655,-0.0604251939693,-0.517476237559,0.573786077775,0.818977572451,0.00510094844824,0.0,0.818966542854,-0.573705599024,-0.011680506625,0.0,-0.00663975811156,0.0108798276691,-0.999918768182,0.0,0.389212275048,-0.096915808708,0.304966322505,1.0,-0.14998,-0.197116571429,3.339
-0.120015301991,-0.425079695337,-0.131716253803,-2.56517768959,-0.0534016662615,2.13356535144,-0.385302657339,-0.569812208876,-0.316320521056,-0.00686955798143,-0.276127936039,-0.0488107743166,-0.0520217926275,-0.530126809735,0.573909655825,0.818891000542,0.00509736043566,0.0,0.818879215083,-0.573828009605,-0.0117895461676,0.0,-0.00672947462735,0.0109404675338,-0.999917506768,0.0,0.386620806431,-0.100307450458,0.304942440926,1.0,-0.14998,-0.197116571429,3.356
-0.129545515907,-0.430352864958,-0.131799614976,-2.56957752925,-0.0542434301046,2.13270638467,-0.394275793037,-0.554857609769,-0.305800255576,-0.00268330310564,-0.253839174631,-0.0482746408909,-0.0536828667989,-0.539526783228,0.573852605303,0.818930703927,0.00514163924505,0.0,0.818919890474,-0.573771470735,-0.0117157695947,0.0,-0.00664440545504,0.0109339260644,-0.999918147219,0.0,0.384121403727,-0.103616787305,0.304956282339,1.0,-0.14998,-0.197116571429,3.373
-0.139236581526,-0.435495172688,-0.131874914341,-2.57394571421,-0.0550755179538,2.13172586724,-0.403427811356,-0.578824670849,-0.297934398016,-0.0035359396799,-0.257720544287,-0.0403918749245,-0.0612377926485,-0.533889056075,0.573778713071,0.818982759714,0.00509653007261,0.0,0.818970601571,-0.573696505725,-0.0118414518731,0.0,-0.00677421386464,0.0109684924936,-0.999916897646,0.0,0.381561483718,-0.106941653973,0.304914126551,1.0,-0.14998,-0.197116571429,3.39
-0.149766701428,-0.440943395197,-0.132040888793,-2.57833864844,-0.0559343311951,2.13070788387,-0.413159109459,-0.584277516114,-0.299640824307,-0.00911683830811,-0.23914749859,-0.0536658198357,-0.0533274542548,-0.53443210419,0.573968331588,0.818849306101,0.00518797978719,0.0,0.818838729801,-0.57388642139,-0.0117582661582,0.0,-0.00665106498387,0.0109972029186,-0.999917409021,0.0,0.37886522319,-0.11057401502,0.304966873565,1.0,-0.14998,-0.197116571429,3.408
-0.158895959503,-0.445725738887,-0.132072147468,-2.58215007003,-0.0566556025368,2.12986297462,-0.421941082762,-0.572367521104,-0.302732965942,-0.00338198297112,-0.238523529501,-0.0466328230122,-0.054010517137,-0.548860170494,0.573774851739,0.818984285733,0.00528262581384,0.0,0.818975874692,-0.573694242236,-0.0115836090568,0.0,-0.00645630608019,0.0109729379288,-0.999918952088,0.0,0.376521998247,-0.113648120624,0.305032609612,1.0,-0.14998,-0.197116571429,3.424
-0.169496942548,-0.450898920154,-0.13219713721,-2.58646176606,-0.0575447618865,2.12880747937,-0.431871475942,-0.58981355533,-0.28203783659,-0.00756409563358,-0.242988871876,-0.0446697156035,-0.057131481128,-0.566767895463,0.573816670231,0.818955347219,0.005226387564,0.0,0.818945651591,-0.573735295317,-0.011686639742,0.0,-0.00657239963433,0.0109863275929,-0.999918048727,0.0,0.373772624461,-0.117219138584,0.304995791971,1.0,-0.14998,-0.197116571429,3.442
-0.178999117135,-0.455298084094,-0.132311438076,-2.59011833083,-0.058217804131,2.12788651907,-0.440756346245,-0.585738912494,-0.271171502425,-0.00116543391354,-0.22693634255,-0.0441588020577,-0.0544281174989,-0.546608585958,0.57390654058,0.818892213532,0.00525092348451,0.0,0.818881970981,-0.573823623745,-0.0118115763077,0.0,-0.00665943214069,0.011078840772,-0.999916452135,0.0,0.371204046375,-0.120584505003,0.304960489823,1.0,-0.14998,-0.197116571429,3.459
-0.188920055935,-0.459873486637,-0.132347834132,-2.59381039121,-0.058895008764,2.12696818705,-0.450339927922,-0.598133673126,-0.261731441096,-0.00735124801758,-0.219604515314,-0.0376638920722,-0.0570912983286,-0.569092257606,0.573754933347,0.818998061713,0.00531020447392,0.0,0.818988623402,-0.573671895759,-0.0117871818098,0.0,-0.00660749120256,0.0111121647093,-0.999916426936,0.0,0.368856128112,-0.12365681458,0.304972843529,1.0,-0.14998,-0.197116571429,3.475
-0.199242168589,-0.464339334815,-0.132496263197,-2.59749473892,-0.0596189316458,2.12602136537,-0.459974406342,-0.611245280024,-0.263362180503,-0.00996368880179,-0.218713383265,-0.0461120341217,-0.0586725787136,-0.563689199555,0.573925936585,0.818878119754,0.00532833978167,0.0,0.81886822268,-0.573841637799,-0.0118893024966,0.0,-0.00667839502637,0.011187002582,-0.999915121404,0.0,0.366262269003,-0.127070218287,0.304935146573,1.0,-0.14998,-0.197116571429,3.492
-0.208224688831,-0.468212667832,-0.132559149353,-2.60059777864,-0.0602365916766,2.12519129431,-0.468528386294,-0.591897630718,-0.259903486634,0.000562126547896,-0.208693854548,-0.0361233628711,-0.0603143956981,-0.578414959116,0.573895886145,0.818899025414,0.00535209708297,0.0,0.818889400338,-0.573811444483,-0.0118879390781,0.0,-0.00666405547075,0.0112054306417,-0.999915010733,0.0,0.364020336508,-0.129998813531,0.304940180142,1.0,-0.14998,-0.197116571429,3.507
-0.218460678165,-0.472553622151,-0.132620623673,-2.60391698622,-0.0609584375354,2.12427282691,-0.478345629135,-0.614348153029,-0.258768952317,-0.008657741513,-0.192014115294,-0.0482362474794,-0.0540240663942,-0.583916670941,0.573798247157,0.818967130613,0.00539976257518,0.0,0.818959183618,-0.573715455306,-0.0117123358726,0.0,-0.00649421589179,0.0111429174798,-0.999916826816,0.0,0.361511742776,-0.133330220556,0.305013411524,1.0,-0.14998,-0.197116571429,3.524
-0.228960387711,-0.476707712912,-0.132783221876,-2.60712168275,-0.0616293623164,2.12338459974,-0.488227177814,-0.622337878769,-0.239239966939,-0.00743264536342,-0.19250768009,-0.0428438945254,-0.0490642120803,-0.582478803302,0.573964748943,0.818849799885,0.00549719019245,0.0,0.818843676066,-0.57388258086,-0.0116001919856,0.0,-0.00634419533634,0.0111596555639,-0.999917603242,0.0,0.358965572841,-0.136760334546,0.305061988655,1.0,-0.14998,-0.197116571429,3.541
-0.239210100458,-0.48064258123,-0.132801815623,-2.61032438476,-0.0622638060837,2.12246996464,-0.498206014227,-0.606769533703,-0.230309797735,-0.00279588705322,-0.191438683911,-0.0380270161028,-0.054365316366,-0.598175614876,0.573758160815,0.818994718589,0.00547455231968,0.0,0.818987691234,-0.573675038126,-0.0116986810838,0.0,-0.00644066801423,0.0111960202656,-0.999916579983,0.0,0.356431937807,-0.140010930651,0.305024190559,1.0,-0.14998,-0.197116571429,3.558
-0.251055196785,-0.484899632244,-0.132934182121,-2.61377263635,-0.0629897456627,2.12143625292,-0.509419451347,-0.632273915653,-0.228600484148,-0.0105068812763,-0.176927987728,-0.0386602330908,-0.057862656265,-0.59731299159,0.573875755725,0.818912385202,0.00546527714095,0.0,0.818904349905,-0.573791109651,-0.0118395562747,0.0,-0.0065597581291,0.0112701905149,-0.999914972575,0.0,0.353531729764,-0.143790967277,0.304978997982,1.0,-0.14998,-0.197116571429,3.577
-0.260959727891,-0.488302266292,-0.132988567647,-2.6164687354,-0.0635782759807,2.12060238514,-0.518955044971,-0.610286668111,-0.213290559294,-0.00309917288379,-0.16558330808,-0.0325970257808,-0.0548121224948,-0.609776854712,0.573842961199,0.818935502576,0.00544475934732,0.0,0.818926854172,-0.573757803187,-0.0118969617669,0.0,-0.0066189986379,0.0112860647053,-0.999914403137,0.0,0.351290087072,-0.146735867935,0.304964673104,1.0,-0.14998,-0.197116571429,3.592
