nelsonifechukwu/NELSON_IML_WORK/CNN-GradCAM/train2dof/data_sample_2022-02-21-15-56-57/robot_state.csv
position_joint1,position_joint2,position_joint3,position_joint4,position_joint5,position_joint6,position_joint7,velocity_joint1,velocity_joint2,velocity_joint3,velocity_joint4,velocity_joint5,velocity_joint6,velocity_joint7,ee_T_00,ee_T_10,ee_T_20,ee_T_30,ee_T_01,ee_T_11,ee_T_21,ee_T_31,ee_T_02,ee_T_12,ee_T_22,ee_T_32,ee_T_03,ee_T_13,ee_T_23,ee_T_33,v_x,v_y,time
0.465082164043,0.547854496303,-0.123902243211,-1.35584785313,0.0795163810485,1.89408685811,0.159169243051,-0.000515044284559,-0.000964861597357,0.00198492301225,-0.00147034087905,0.000254090157219,-0.000474315297428,-0.00343498732173,0.573751937798,0.81901520222,0.00188661263738,0.0,0.818970588931,-0.573693019161,-0.0120100430171,0.0,-0.00875423985666,0.00843602813651,-0.999926095626,0.0,0.661646035152,0.260944991253,0.303151363562,1.0,0.0,0.0,0.0
0.465079067918,0.547856977976,-0.12390483071,-1.35584471201,0.0795144474593,1.89408843628,0.159168481868,-0.000854896869971,-0.000884415971431,-0.000305219426401,-0.000335576984369,-0.000337241945954,-4.65017364998e-05,-0.000211194003746,0.573754989837,0.819013064179,0.00188659542721,0.0,0.818968487659,-0.573696106547,-0.0120058508337,0.0,-0.00875078470787,0.00843364140064,-0.999926146003,0.0,0.661648515522,0.260941579808,0.303151319505,1.0,-0.00026,-0.000341714285714,0.014
0.465078630518,0.547846699621,-0.123907593377,-1.35585105777,0.0795157692366,1.89409197441,0.1591706291,7.99402994269e-05,-0.000971714901721,8.2875188035e-05,-0.000642312672775,-0.000159982737765,0.000192410225433,-0.00554389541657,0.573759740671,0.819009720507,0.00189330438459,0.0,0.818965232592,-0.573700828977,-0.0120022305876,0.0,-0.00874392157169,0.00843710961564,-0.999926176784,0.0,0.661648714374,0.260939529774,0.303155981739,1.0,-0.0006,-0.000788571428571,0.031
0.465077967398,0.547822368299,-0.123901883479,-1.35587838784,0.0795163795882,1.89409234998,0.159166937949,-0.000200801614351,-0.000711562245144,0.000405002055487,-0.00974423054347,2.71647030529e-05,0.00138979751665,-0.00150784807141,0.573754883703,0.819013120711,0.00189431534315,0.0,0.81896858219,-0.573695906705,-0.0120089515385,0.0,-0.00874889636101,0.00844174187386,-0.999926094172,0.0,0.66164199454,0.260939595039,0.303160055959,1.0,-0.00094,-0.00123542857143,0.048
0.465079803099,0.547720905958,-0.123902935802,-1.35599449802,0.0795120812502,1.89411985969,0.15917001723,-0.00249822475608,-0.00731448157379,0.000366080022701,-0.0130886075122,-0.000237505164388,0.00544940066224,0.000898322868658,0.573761847314,0.819008211422,0.00190764011554,0.0,0.818963808613,-0.573702775316,-0.0120063599193,0.0,-0.00873905718857,0.00845124217392,-0.999926099962,0.0,0.661623552221,0.260928926364,0.303179086888,1.0,-0.00128,-0.00168228571429,0.065
0.465065546261,0.547571412394,-0.123902907551,-1.35620522244,0.0795143354488,1.89415946912,0.159158028213,-0.000465337938547,-0.00882293751712,0.000286739844366,-0.0149924945072,0.000272035611497,0.00655506913781,-0.000324314297623,0.573775789842,0.818998463304,0.00189920988292,0.0,0.81895375936,-0.573716567838,-0.01203273532,0.0,-0.00876535232096,0.00845962015951,-0.99992579896,0.0,0.661590672844,0.260899512027,0.303188136489,1.0,-0.00166,-0.00218171428571,0.084
0.465049862924,0.54743457199,-0.123905442436,-1.35638811129,0.079507660983,1.89426737234,0.159156032048,8.09342630727e-05,-0.00914859044008,0.00079954273856,-0.01378910126,0.000243937741455,0.0118041723116,-0.00432512805161,0.573793246406,0.818986102406,0.00195482625048,0.0,0.818942145542,-0.573733803846,-0.0120013116054,0.0,-0.00870752516175,0.00848732455821,-0.999926069431,0.0,0.66157628052,0.260873628892,0.303208318112,1.0,-0.00198,-0.00260228571429,0.1
0.46502933965,0.547238323453,-0.123903184656,-1.35661595547,0.0795037358883,1.89438986371,0.159138819921,-0.000109190344426,-0.00417090319694,-0.000235847417866,-0.0108149385277,-0.000186908202325,0.00692278336992,-0.0015033413953,0.573810525466,0.818973800422,0.00203518776297,0.0,0.818930861612,-0.573750712204,-0.0119629028986,0.0,-0.00862977977247,0.00853128192022,-0.999926369354,0.0,0.661561360369,0.260844979853,0.303248585558,1.0,-0.00232,-0.00304914285714,0.117
0.465007662634,0.547059786836,-0.123905678754,-1.35685263338,0.0795028936001,1.89449288659,0.159116339503,-0.00195752597504,-0.00959483349632,-0.00105705408635,-0.0197801150409,0.000419233471368,0.00860317893895,-0.00497730127788,0.573824696508,0.81896375846,0.00208012191356,0.0,0.8189213209,-0.573764610886,-0.0119494088198,0.0,-0.00859279785614,0.00856048689049,-0.999926438239,0.0,0.661538616506,0.26081031506,0.303271421459,1.0,-0.0026,-0.00341714285714,0.131
0.464970840617,0.546808890099,-0.123903341564,-1.35723769597,0.0794938785,1.89463615321,0.159057768757,-0.00235286820594,-0.0134113431849,0.00102645253288,-0.0243125037769,0.000204290293393,0.00342416728105,-0.00403580508386,0.573824411379,0.818963916997,0.00209629767247,0.0,0.818921548394,-0.573764117335,-0.0119575137537,0.0,-0.00859015730471,0.00857838178756,-0.999926307566,0.0,0.661495047289,0.260753166361,0.303278193369,1.0,-0.00296,-0.00389028571429,0.149
0.464939120658,0.546528427156,-0.123903316626,-1.35765086911,0.0794853846836,1.89479443906,0.158955817316,-0.00103432895647,-0.0129102634438,0.00292673227021,-0.0269801611757,-0.000156204548695,0.00977881850731,-0.0018225677392,0.573787751572,0.818989521115,0.00212775722832,0.0,0.818947416898,-0.573727186255,-0.0119578848317,0.0,-0.00857279525708,0.00860397479022,-0.999926236679,0.0,0.661447950549,0.260696213878,0.303293890982,1.0,-0.0033,-0.00433714285714,0.166
0.464901216749,0.546254361478,-0.123906126622,-1.35809808162,0.0794697178865,1.89494649528,0.158942278476,-0.0010883870302,-0.0164064678016,-0.000549426084019,-0.0266586160599,-0.000363828545642,0.00908350750663,-0.00188203340989,0.573833179698,0.818957722816,0.00211589674586,0.0,0.818915340812,-0.573772534336,-0.011978744749,0.0,-0.00859620758722,0.00860670719866,-0.999926012166,0.0,0.661391256634,0.260621253137,0.303289294894,1.0,-0.00364,-0.004784,0.183
0.464857523524,0.545952009506,-0.123906453804,-1.35861056129,0.0794452021571,1.89512053204,0.158860733131,-0.00507417808196,-0.0250875864903,-0.000375542589388,-0.036442561878,0.000329803857364,0.0121572966142,-0.00659651863675,0.573821766894,0.818965792704,0.00208737139305,0.0,0.818922965327,-0.573761168967,-0.0120018643366,0.0,-0.00863162987545,0.00859649287973,-0.999925794885,0.0,0.661332100351,0.260549701922,0.303273626364,1.0,-0.00394,-0.00517828571429,0.198
0.46479798745,0.54557838428,-0.123906225632,-1.35925760979,0.0793665484097,1.89533860735,0.158776863219,-0.00105789862668,-0.0234065596614,0.000262082445464,-0.036850474297,-0.00334460978452,0.00856220883152,-0.00261370924983,0.573816850087,0.818969411959,0.00201785352015,0.0,0.818925995031,-0.573756860215,-0.0120011215696,0.0,-0.00867096111746,0.0085390828822,-0.999925946506,0.0,0.661256671829,0.260440620173,0.303248969453,1.0,-0.0043,-0.00565142857143,0.216
0.464731668625,0.545161797554,-0.123907165871,-1.35999260326,0.0793282730437,1.89556947484,0.158714833439,-0.0033036889989,-0.0186824008474,-0.000489605202188,-0.0392177056918,-0.00302699777332,0.0150877537891,-0.00845546057898,0.573851681751,0.818945180023,0.00194585945193,0.0,0.818900702926,-0.573791877962,-0.0120526525208,0.0,-0.00875411188303,0.00851006443674,-0.999925469387,0.0,0.661164401585,0.260323909645,0.303214063352,1.0,-0.00466,-0.00612457142857,0.234
0.464658753209,0.544725032911,-0.123908912952,-1.36070718816,0.0793066182228,1.89581135312,0.15858424122,-0.0046801004854,-0.0278190754258,-0.000833517714374,-0.0396652830282,-0.00502177074652,0.0119504790828,-0.00513900960529,0.573839657656,0.81895364966,0.00192715069061,0.0,0.818908694224,-0.573779709976,-0.012088914144,0.0,-0.00879466971895,0.00851542275772,-0.999925067872,0.0,0.661080439589,0.260208511928,0.303204124778,1.0,-0.005,-0.00657142857143,0.251
0.46459532101,0.544290906544,-0.123912436851,-1.36143310378,0.0792775494528,1.89608439544,0.158542388858,-0.00515965622646,-0.0270755545305,-0.000685663115824,-0.0458892668557,-0.000689239686791,0.0234485064458,0.000728962539682,0.573892616604,0.818916563984,0.00191643960504,0.0,0.818871351132,-0.573832595828,-0.0121082270479,0.0,-0.00881608191359,0.00851830359544,-0.999924854778,0.0,0.660998282543,0.260097895304,0.303189637279,1.0,-0.00532,-0.006992,0.267
0.464522079057,0.543813353764,-0.123909367155,-1.36220647543,0.079243793193,1.89634660919,0.158427307725,-0.00597436065169,-0.0274119420705,-3.82848415209e-06,-0.0467316987639,8.26622883437e-05,0.0101889744144,-0.00976583582131,0.57387838879,0.818926586514,0.00189411766578,0.0,0.818880873672,-0.573818268383,-0.0121431669946,0.0,-0.00885765351458,0.00851992187357,-0.999924473601,0.0,0.66089830952,0.259974324365,0.303179800209,1.0,-0.00566,-0.00743885714286,0.284
0.4644453594,0.543270286723,-0.123915692368,-1.36305881314,0.0791940819264,1.89665116817,0.158305995987,-0.0066000712136,-0.0314218343134,-0.000337363695538,-0.0480023252607,-0.00488178039317,0.0177749186269,-0.00918648083515,0.573892200107,0.818916913671,0.00189157642439,0.0,0.818871185926,-0.573832106952,-0.0121425200079,0.0,-0.00885843827637,0.00851761894263,-0.999924486268,0.0,0.660808332795,0.259842279968,0.303187190279,1.0,-0.00598,-0.00785942857143,0.3
0.464367883485,0.542707999139,-0.123918880116,-1.36396346986,0.0791372249863,1.89697512815,0.158196651083,-0.00220037399954,-0.0288695105717,-0.000537787523151,-0.0535060426772,-0.000823765822594,0.013500716984,-0.00614809220614,0.573903433104,0.818909083396,0.00187336682607,0.0,0.818863128695,-0.573843430927,-0.0121507261595,0.0,-0.0088754916557,0.00850753827449,-0.999924420864,0.0,0.660703333598,0.259702021775,0.303182499806,1.0,-0.00632,-0.00830628571429,0.317
0.464279657988,0.542101519882,-0.123916242111,-1.36488810526,0.0790899047183,1.89732293455,0.158078978911,-0.00430671800342,-0.0426364664696,-0.00107744725162,-0.0503659399641,-0.00124822358175,0.0174528246721,-0.00912263352924,0.57391623436,0.818900041959,0.00190371196132,0.0,0.818854395726,-0.573856009589,-0.0121451949176,0.0,-0.00885341453373,0.00852935165682,-0.99992443075,0.0,0.660600438569,0.259559423012,0.303201370023,1.0,-0.00666,-0.00875314285714,0.334
0.464212335591,0.541489606845,-0.123924887404,-1.36580376812,0.0790328791344,1.89766024293,0.157946645595,-0.001564176904,-0.0398638795993,-0.00166301740301,-0.061423098545,-0.00178853026399,0.0223951480317,-0.00704434641912,0.57390459845,0.818908135697,0.00192978438401,0.0,0.818862884307,-0.573844311132,-0.0121256004759,0.0,-0.00882252695041,0.00853933108743,-0.99992461858,0.0,0.660495217192,0.259422956042,0.3032277081,1.0,-0.00698,-0.00917371428571,0.35
0.464111668038,0.540775889547,-0.123917270955,-1.36692489236,0.0789644201983,1.89808250675,0.157801910052,-0.00967970510347,-0.0447286655784,0.000690379446701,-0.0716064470864,-0.00422988582838,0.0282461627778,-0.0111770742185,0.573907091065,0.818906357604,0.00194298791342,0.0,0.818861247409,-0.573846714513,-0.0121224022404,0.0,-0.00881230469784,0.00854833469494,-0.99992463179,0.0,0.660367575431,0.259254758425,0.303234967464,1.0,-0.00734,-0.00964685714286,0.368
0.464027190112,0.540090954775,-0.123925277116,-1.36796488655,0.0789032818102,1.89846390031,0.157669419567,-0.00986341886658,-0.0480893787123,0.000717207265023,-0.0643238614619,-0.000402454287858,0.0279764105169,-0.00489215728495,0.573914576183,0.818901060228,0.00196461284056,0.0,0.818856247849,-0.573854118039,-0.0121096436417,0.0,-0.00878936807081,0.00855880128089,-0.999924744133,0.0,0.660248534859,0.259095871872,0.303257355968,1.0,-0.00766,-0.0100674285714,0.384
0.463923057871,0.539354990487,-0.123923344989,-1.36911426276,0.0788400664045,1.8988982421,0.157542656593,-0.00563656793637,-0.0430091858734,0.00132229961238,-0.0717312572982,-0.000234691607547,0.0260457594199,-0.00677213490611,0.573941411353,0.818882202816,0.00198523215373,0.0,0.818837598579,-0.573880799462,-0.0121062819422,0.0,-0.00877450114559,0.00857404435045,-0.999924744115,0.0,0.660118835681,0.258920720377,0.303267908859,1.0,-0.008,-0.0105142857143,0.401
0.463832942831,0.538597369081,-0.123931612716,-1.37031598999,0.0787749048213,1.89935874146,0.157382524796,-0.00391100320165,-0.0427462301575,0.000647283190459,-0.0786313765954,-0.000706109053391,0.0280802443544,-0.0177171326266,0.573938955933,0.818883888171,0.00199986427315,0.0,0.818839458088,-0.573878263637,-0.0121007149993,0.0,-0.00876157059904,0.00858280475598,-0.999924782343,0.0,0.65998138707,0.25874444276,0.30327132945,1.0,-0.00834,-0.0109611428571,0.418
0.463719271012,0.537811365603,-0.123932000311,-1.37153854501,0.078699525315,1.89983158204,0.157237233565,-0.00470768461794,-0.0496755988936,-0.000273050305174,-0.0731281128857,-0.00113900441886,0.0206390742347,-0.0187009426341,0.573960712732,0.818868568571,0.00202843485495,0.0,0.818824549483,-0.57389993044,-0.0120819661732,0.0,-0.00872959179529,0.00859567166554,-0.999924951512,0.0,0.659846932458,0.258554291043,0.303285541694,1.0,-0.00868,-0.011408,0.435
0.463620622308,0.537029046742,-0.123932194447,-1.37276713687,0.0786272898084,1.90028238987,0.157089949914,-0.0100032998266,-0.0483622488285,0.000737903989449,-0.0758853290991,-7.01700572222e-05,0.0200069588925,-0.0068626165352,0.573969314239,0.818862528726,0.00203279654823,0.0,0.818818531234,-0.573908477114,-0.012083861397,0.0,-0.0087285501807,0.00860042270811,-0.999924919752,0.0,0.659702212382,0.258372429253,0.303292230522,1.0,-0.009,-0.0118285714286,0.451
0.463501638969,0.536194323417,-0.12393530355,-1.37408077586,0.0785589166371,1.90078106428,0.156935382798,-0.00604160974869,-0.0551084545302,0.000645803887572,-0.0815336079572,-0.00563874522334,0.0294369548447,-0.0129820382168,0.573996392242,0.818843496309,0.0020535694483,0.0,0.818799691851,-0.573935384516,-0.0120824635832,0.0,-0.00871519834817,0.00861691844002,-0.999924894197,0.0,0.659554125115,0.25816993346,0.303299555049,1.0,-0.00934,-0.0122754285714,0.468
0.463384848408,0.535298279349,-0.123941387381,-1.37549574605,0.0784772934857,1.90128733444,0.156759952125,-0.00634778258494,-0.0518683357706,0.000206827432677,-0.0814353252355,-0.00450641714116,0.0347400214699,-0.0172613127461,0.574008354269,0.818835136577,0.00204334001337,0.0,0.818791150631,-0.573947342039,-0.0120932673485,0.0,-0.00872979072691,0.00861487107207,-0.999924784546,0.0,0.659386160151,0.257954333161,0.303302500439,1.0,-0.00968,-0.0127222857143,0.485
0.46326939812,0.534453813452,-0.123941284918,-1.37687465863,0.0783998382534,1.90179928103,0.15658581693,-0.00538319373554,-0.0491267384273,-0.000817469816733,-0.0905298871232,0.0002962674094,0.0363435357115,-0.0107505055524,0.574018425824,0.818828116923,0.00202698083797,0.0,0.81878383499,-0.57395740252,-0.0121110921058,0.0,-0.00875367062146,0.00861181497368,-0.999924602104,0.0,0.659214162766,0.257733257577,0.303287816635,1.0,-0.01002,-0.0131691428571,0.502
0.46313936656,0.533525849746,-0.123944480735,-1.37836714836,0.0783171162503,1.90234175242,0.156393714484,-0.00572321948456,-0.0544524322053,0.00218996023423,-0.0907454747655,-0.00419898642433,0.0394354057623,-0.0126123465909,0.574026006817,0.818822845391,0.00200954324824,0.0,0.818778251225,-0.573964976205,-0.0121296460011,0.0,-0.00877879282853,0.00860826830052,-0.9999244124,0.0,0.65904818388,0.257518755556,0.303277628985,1.0,-0.01034,-0.0135897142857,0.518
0.462993485147,0.532473748447,-0.123942445482,-1.38007770319,0.078218408259,1.90298858803,0.156186763225,-0.00310827708239,-0.0544061710426,7.57460224362e-05,-0.0958018244864,-0.00713672067037,0.027844066637,-0.0175037709615,0.57404166158,0.818811893347,0.00200024605204,0.0,0.818767116425,-0.573980610017,-0.0121414697296,0.0,-0.00879364667316,0.00860761087299,-0.99992428754,0.0,0.658848998065,0.257262483462,0.303261316699,1.0,-0.01072,-0.0140891428571,0.537
0.462862821513,0.53155101175,-0.123944618365,-1.38155064806,0.0781310789307,1.90353216063,0.155996127099,-0.00977234749061,-0.0626050115391,-0.000296681920464,-0.0943721094298,-0.00949114479457,0.0389991836235,-0.0186904858585,0.574050935988,0.818805406297,0.00199409402642,0.0,0.81876051915,-0.573989881337,-0.0121480576673,0.0,-0.00880247497533,0.00860645503559,-0.999924219812,0.0,0.658677160289,0.257035171327,0.30325784943,1.0,-0.01104,-0.0145097142857,0.553
0.462730148489,0.530536338189,-0.123944893345,-1.38320248394,0.0780271580567,1.90410183343,0.155783508211,-0.00944409367216,-0.0602446184483,-0.000114991612705,-0.101952262198,-0.0121460659794,0.0295895700967,-0.0109066675447,0.5740473552,0.818808059755,0.00193446887601,0.0,0.818762333547,-0.573986510019,-0.0121850064679,0.0,-0.00886699318233,0.0085788061557,-0.999923887362,0.0,0.658471762903,0.256786744922,0.30323601954,1.0,-0.01138,-0.0149565714286,0.57
0.462604837967,0.529618459484,-0.123952633017,-1.38464576658,0.0779412357836,1.90463950161,0.155586878966,-0.00212165141767,-0.0629345374139,-0.000711883319785,-0.09445438661,-0.00590616582266,0.0338336287115,-0.0151767724588,0.574049721104,0.818806380355,0.0019432166795,0.0,0.818760779815,-0.573988847094,-0.0121793164963,0.0,-0.00885728788426,0.00858272808591,-0.999923939722,0.0,0.658304572867,0.256563055776,0.303242510364,1.0,-0.01168,-0.0153508571429,0.585
0.462472932498,0.528512426176,-0.123955531615,-1.38634162105,0.0778339643291,1.90528913063,0.155363135796,-0.00847546380184,-0.0623816082043,-0.00121493495942,-0.0981270648198,-0.00275479286172,0.0352849261444,-0.0121823277023,0.574039708408,0.818813287421,0.00199007910432,0.0,0.818768374154,-0.573978698772,-0.0121470054648,0.0,-0.00880403596715,0.00860244293139,-0.999924240593,0.0,0.658106965651,0.256314497525,0.303270595249,1.0,-0.01202,-0.0157977142857,0.602
0.462334200545,0.527398508013,-0.123948536584,-1.38807469859,0.0777329531102,1.90595919418,0.155106422452,-0.00809661653585,-0.0660868538394,0.000345436552279,-0.104453551776,-0.0033134910913,0.0457883828393,-0.00880373128898,0.574004895948,0.818837578991,0.00203606507352,0.0,0.818793216093,-0.573943638034,-0.0121291608083,0.0,-0.00876339479839,0.00862948010165,-0.999924364632,0.0,0.657903570879,0.256065298511,0.30328771719,1.0,-0.01236,-0.0162445714286,0.619
0.462180687317,0.52622772688,-0.123949152706,-1.38988874644,0.0776111745335,1.9066320536,0.154872311301,-0.0079401868044,-0.0666871572044,-0.000230053303164,-0.106774714879,-0.00838613721664,0.0421109169881,-0.0158814629334,0.57400434068,0.818837922838,0.00205424042478,0.0,0.818793889992,-0.573943094623,-0.0121093661073,0.0,-0.00873675929337,0.00863299442875,-0.999924567377,0.0,0.657689360217,0.255789980823,0.303306478852,1.0,-0.0127,-0.0166914285714,0.636
0.46200307846,0.524905003086,-0.123959412396,-1.39194411342,0.0774881361213,1.90736681797,0.15458200832,-0.0109603149157,-0.0687918548783,-0.00164616795188,-0.110833287863,-0.00189331379201,0.0391306018646,-0.019342317964,0.573996604326,0.818843342761,0.00205551447444,0.0,0.818799294868,-0.573935322386,-0.0121122806817,0.0,-0.00873849628246,0.00863562804682,-0.999924529458,0.0,0.657442638288,0.255470595856,0.303322629833,1.0,-0.01308,-0.0171908571429,0.655
0.461851003581,0.523795214369,-0.123963298309,-1.39373113491,0.0773714357299,1.90801405122,0.154340998429,-0.00823652799761,-0.0752796246115,-0.00138686690423,-0.108208759204,-0.00660689099914,0.0375937324055,-0.0128707222074,0.573990929919,0.818847399452,0.00202377949301,0.0,0.818802974791,-0.573929824933,-0.0121240020886,0.0,-0.00876636895081,0.00861630979301,-0.999924452137,0.0,0.657226922967,0.255195894622,0.303308646064,1.0,-0.0134,-0.0176114285714,0.671
0.461692689403,0.522562586347,-0.12396362879,-1.39567377643,0.0772517489888,1.90876329918,0.154084101912,-0.00912075406191,-0.0702138647419,-0.000780128220231,-0.116742024551,-0.00236716603869,0.0455936614048,-0.0157790782505,0.573982431931,0.81885328093,0.00205403158637,0.0,0.818809286173,-0.573921229912,-0.012104612108,0.0,-0.00873321714617,0.00862986098389,-0.999924625368,0.0,0.65699855037,0.254908744099,0.303315368018,1.0,-0.01374,-0.0180582857143,0.688
0.46151740413,0.521240890167,-0.123969254384,-1.39777794062,0.0771266632954,1.9095844798,0.153800134468,-0.0116578834226,-0.0691274804427,-0.00105397535053,-0.116330497877,-0.0114955075274,0.0481544876242,-0.00937625955437,0.57397644943,0.818857398265,0.00208415620935,0.0,0.81881382908,-0.573915149453,-0.0120855879577,0.0,-0.00870041179909,0.00864354520646,-0.999924793152,0.0,0.656753943713,0.254593389515,0.303313865468,1.0,-0.0141,-0.0185314285714,0.706
0.461370538892,0.520103638086,-0.123967590919,-1.3995808925,0.0770143534308,1.91023017718,0.153552099168,-0.00833966303338,-0.0775643388806,0.000295617540137,-0.124146475417,-0.00349543882476,0.0489909636265,-0.0172911299371,0.573958042984,0.818870345422,0.00206620047081,0.0,0.818826492111,-0.573896773858,-0.0121002344315,0.0,-0.00872290530721,0.00863705284748,-0.999924653282,0.0,0.656530244185,0.254324541756,0.30331035334,1.0,-0.0144,-0.0189257142857,0.721
0.461195451214,0.518744551787,-0.123974761574,-1.40167045747,0.0768797956162,1.91097539862,0.153266955851,-0.0128567186165,-0.0870263815211,-0.000492169815358,-0.123155941792,-0.0128634723968,0.0510880611638,-0.0195976669114,0.573947449411,0.81887774986,0.00207436741839,0.0,0.81883403583,-0.573886178549,-0.012092259403,0.0,-0.00871179910916,0.00863905041546,-0.99992473285,0.0,0.65627429105,0.25400413159,0.303334695182,1.0,-0.01474,-0.0193725714286,0.738
0.461041228905,0.517563414556,-0.123973891943,-1.40353766085,0.0767618697895,1.91164693867,0.153005855171,-0.00725296006952,-0.0800245962653,-0.00550263364461,-0.128556861088,-0.0146226189869,0.0423979107215,-0.022242900606,0.573926295877,0.818892611981,0.00206005923045,0.0,0.818848681142,-0.573865060148,-0.0121027697075,0.0,-0.00872884074105,0.00863314078674,-0.99992463527,0.0,0.65604282673,0.253723880277,0.303333011477,1.0,-0.01504,-0.0197668571429,0.753
0.460853696567,0.516198864917,-0.123979179065,-1.40569223942,0.0766195557992,1.91244754314,0.152719379929,-0.0108933070402,-0.0828905985715,-0.002326112336,-0.128307306616,-0.00713361115523,0.0518134734722,-0.0174407531038,0.57392444614,0.818893906887,0.00206065224929,0.0,0.81885007839,-0.573863301651,-0.0120916103167,0.0,-0.00871938118453,0.00862720211017,-0.999924769058,0.0,0.655784366088,0.25339134585,0.303334239575,1.0,-0.01538,-0.0202137142857,0.77
0.460671374023,0.514832762484,-0.123974346254,-1.40790049721,0.0764881713638,1.91327051179,0.152423154769,-0.00816770991825,-0.084581914937,0.00181295555769,-0.134504718409,-0.00949728757711,0.0508837873926,-0.0247315918325,0.573908785499,0.818904921134,0.00204523122197,0.0,0.818860799216,-0.573847619192,-0.0121098453888,0.0,-0.0087433292518,0.00862487238818,-0.999924580041,0.0,0.655512638097,0.253065097815,0.303312272044,1.0,-0.01572,-0.0206605714286,0.787
0.460482901381,0.513423272209,-0.123980757133,-1.41016410421,0.0763552648994,1.91404926878,0.152118313735,-0.011176744163,-0.0817680179313,-0.0016244379034,-0.13537081468,-0.0153310839917,0.0448074595696,-0.0174717170612,0.57390080379,0.818910666521,0.00198357473693,0.0,0.818865580312,-0.573839754997,-0.0121591063167,0.0,-0.00881913761275,0.00860256759264,-0.999924106441,0.0,0.655223378181,0.252719146166,0.303290453519,1.0,-0.01606,-0.0211074285714,0.804
0.460301007205,0.512080664257,-0.123982533081,-1.41232794899,0.0762174938944,1.91482236779,0.1518026165,-0.012882687127,-0.0855601112729,-0.000747156737371,-0.132688628421,-0.0131104799824,0.0467312110668,-0.0216546307134,0.573871010211,0.818931628872,0.00194878768692,0.0,0.818886054449,-0.57381008865,-0.0121802665828,0.0,-0.00885674203708,0.00858590225363,-0.999923917307,0.0,0.654938241664,0.252366102936,0.303276367669,1.0,-0.0164,-0.0215542857143,0.821
0.460087308777,0.510533324315,-0.123990743396,-1.41477652682,0.0760715795119,1.91576324073,0.151449976333,-0.00751717277331,-0.0869855280896,-0.000842843652104,-0.137736169131,-0.005517540369,0.0560168775747,-0.013598428039,0.573849297685,0.818946791523,0.00197055895207,0.0,0.818901514086,-0.573788293103,-0.0121676549136,0.0,-0.00883414837899,0.0085962594407,-0.999924028187,0.0,0.654660050302,0.252015320275,0.303268042225,1.0,-0.01674,-0.0220011428571,0.838
0.459900499698,0.509139421361,-0.123991379126,-1.41700620313,0.0759342374387,1.91657482195,0.151161397902,-0.0105493350859,-0.0902893786984,0.000474137918988,-0.142365815211,-0.00732342727773,0.0495419184837,-0.0201710023387,0.573845310068,0.818949638688,0.0019484114868,0.0,0.81890401477,-0.57378435028,-0.0121852725917,0.0,-0.00886132717526,0.00858818886686,-0.999923857047,0.0,0.654380882513,0.251679331146,0.30325275163,1.0,-0.01706,-0.0224217142857,0.854
0.459680685015,0.507609104254,-0.123989622015,-1.41938934441,0.0757838803394,1.9174290786,0.150815462729,-0.00970480627626,-0.0886851849769,0.000527488843201,-0.138101919632,-0.00566157950255,0.0503214481865,-0.0171176525138,0.573823525534,0.818964902016,0.00194877173389,0.0,0.818919229216,-0.573762514968,-0.0121909532011,0.0,-0.00886600132066,0.00859150780485,-0.999923787103,0.0,0.654084695371,0.251307630804,0.303262935291,1.0,-0.0174,-0.0228685714286,0.871
0.459441090655,0.50586324183,-0.124003119708,-1.42210962835,0.0756046196105,1.91844510393,0.150442076107,-0.0139013165237,-0.0918098656541,-0.00162836195478,-0.140584679838,-0.0106427788563,0.050561511721,-0.0216511872652,0.57381569659,0.818970328756,0.00197328810653,0.0,0.818925126698,-0.573754722734,-0.0121614927042,0.0,-0.00882788827189,0.00859459609289,-0.999924097773,0.0,0.653754627869,0.250883285179,0.303277272957,1.0,-0.01778,-0.023368,0.89
0.459229844902,0.504313168763,-0.123999210407,-1.42445021795,0.0754631141798,1.91935129593,0.15012049965,-0.0133062356488,-0.0984193013608,0.00620434435874,-0.146263308606,-0.00759020951473,0.0498338630975,-0.0212966888146,0.573805085348,0.818977517475,0.0020728724557,0.0,0.818933619897,-0.573743676597,-0.0121106015046,0.0,-0.00872918095532,0.0086468361521,-0.999924513963,0.0,0.653474368008,0.250528783047,0.303324738754,1.0,-0.0181,-0.0237885714286,0.906
0.45899411238,0.502636028471,-0.124013742356,-1.42692359392,0.0753078652954,1.92028267434,0.149783972271,-0.0155062133078,-0.101399620816,-0.000803803149888,-0.143713623755,-0.012252666695,0.0479728505088,-0.0210040805991,0.573817856386,0.818968281075,0.00218384694283,0.0,0.818925945916,-0.573756084181,-0.0120415061962,0.0,-0.0086087819064,0.00869820766401,-0.999925112225,0.0,0.653180603869,0.250133039344,0.303399844317,1.0,-0.01844,-0.0242354285714,0.923
0.458786819563,0.501120968336,-0.124014752885,-1.42919364067,0.0751588132755,1.92108285328,0.149447600503,-0.0165482042101,-0.10187589829,0.000502505961212,-0.153969183789,-0.00615441530743,0.0585014395992,-0.0180929019257,0.57379246275,0.818985963655,0.00222439422703,0.0,0.818944105321,-0.573730470787,-0.0120268928578,0.0,-0.00857381876237,0.00872276295243,-0.999925198722,0.0,0.652872380278,0.249756577752,0.30345027301,1.0,-0.01876,-0.024656,0.939
0.458549460145,0.499418950896,-0.124017540267,-1.43179599858,0.0749916783688,1.92202405525,0.149090456597,-0.0100506375207,-0.0919824912646,-0.0012222824247,-0.158490935674,-0.00488860713747,0.0545573941731,-0.0195074740612,0.573779249549,0.81899514606,0.00225175914177,0.0,0.818953708167,-0.573717210326,-0.0120055552574,0.0,-0.00854078294499,0.00873279311841,-0.999925393892,0.0,0.652567783422,0.249372193017,0.303476609705,1.0,-0.01908,-0.0250765714286,0.955
0.458266222289,0.497540582435,-0.124021177495,-1.43475227957,0.0748109486024,1.92311196204,0.148655853805,-0.0149700151156,-0.102508380621,-0.00171099733098,-0.15707150867,-0.0121338905588,0.0588753508895,-0.0258264929609,0.573759171603,0.819009189912,0.00225981004628,0.0,0.818967794886,-0.573697038091,-0.0120085938731,0.0,-0.00853886680947,0.00874092081305,-0.999925339241,0.0,0.652201328772,0.24890407738,0.303473678872,1.0,-0.01946,-0.025576,0.974
0.458012047572,0.495972558641,-0.124021509725,-1.43728904444,0.0746580215016,1.92400277672,0.148280583232,-0.019908850935,-0.0979085073683,0.000254145087203,-0.161742581668,-0.00125307855273,0.0508946213678,-0.0199515533694,0.573747042912,0.81901786029,0.00219594562684,0.0,0.818975460204,-0.573685003407,-0.0120606529539,0.0,-0.00861827503008,0.0087183574036,-0.999924854966,0.0,0.651877965492,0.24849384904,0.303436312314,1.0,-0.01978,-0.0259965714286,0.99
0.457717067002,0.494174962149,-0.124026922857,-1.44020360924,0.0744747912263,1.92503002931,0.147877104294,-0.0239728590378,-0.100798820355,0.00103828866126,-0.163078063712,-0.011229588066,0.0601644440444,-0.0275787926409,0.573759096953,0.819009624792,0.00211661584557,0.0,0.818966084615,-0.573697291235,-0.0121126867843,0.0,-0.00870627790403,0.00868336800443,-0.999924397065,0.0,0.651507948382,0.248016822464,0.303390423847,1.0,-0.022096,-0.0290404571429,1.008
0.457451602179,0.492227776106,-0.124083485572,-1.44321286753,0.0742865010827,1.92615210017,0.147441204475,-0.0212456938734,-0.1342202686,-0.00319756461189,-0.198149852984,-0.0232350631112,0.0782807636438,-0.0310970108154,0.573760330993,0.819008664726,0.00215327295089,0.0,0.8189658501,-0.573698614634,-0.0120657713649,0.0,-0.00864680806346,0.0086864852265,-0.999924886021,0.0,0.651140771018,0.247525429823,0.303412433605,1.0,-0.0269325714286,-0.0353970938776,1.024
0.457097443586,0.489835253096,-0.124085181294,-1.44709516878,0.0740725444012,1.92756199862,0.146857410673,-0.0250279528675,-0.147404493051,0.00198560367633,-0.239856630785,-0.0127175921796,0.0829837480626,-0.0310942030188,0.573709975843,0.819044081835,0.00209822060896,0.0,0.81900016567,-0.573648121586,-0.012137056249,0.0,-0.00873731200096,0.00868176042455,-0.99992414033,0.0,0.650639389134,0.246926419842,0.303351256231,1.0,-0.0320714285714,-0.0421510204082,1.041
0.456661704755,0.487105334583,-0.12411453316,-1.45138484608,0.0738188094965,1.92913841987,0.146259498946,-0.0334336019747,-0.17542943096,-0.00045797912526,-0.27688090794,-0.0154093430093,0.110145178118,-0.0374861542318,0.573742883703,0.819020995093,0.00211184724364,0.0,0.818977179004,-0.573680887969,-0.0121394378542,0.0,-0.00873109616986,0.00869463817779,-0.999924082732,0.0,0.650106383423,0.246219482899,0.303344337754,1.0,-0.036908,-0.0485076571429,1.057
0.456150874485,0.483769488167,-0.124180906157,-1.45651203839,0.0735020102339,1.93104417407,0.145472003401,-0.0335491236969,-0.204810726968,-0.00435220028446,-0.320586588763,-0.0149786904445,0.114753993592,-0.0413462326892,0.573728370446,0.819030968732,0.00218543031285,0.0,0.818988248775,-0.573666193592,-0.0120869185325,0.0,-0.00864601956843,0.00872461779406,-0.999924560849,0.0,0.649430837683,0.245310674578,0.303381220064,1.0,-0.0423491428571,-0.0556588734694,1.075
0.455548975938,0.480014642454,-0.124244379403,-1.46242694243,0.0731548341903,1.93309420675,0.144579897238,-0.0335486564204,-0.229041623457,-0.00035039800459,-0.357578984322,-0.0176212637849,0.131643545044,-0.0483654564024,0.573734771343,0.819026693766,0.00210569488863,0.0,0.818982745709,-0.573672752307,-0.0121483493955,0.0,-0.0087420109686,0.0086946256426,-0.999923987476,0.0,0.64871111497,0.24436783894,0.303355263284,1.0,-0.0471857142857,-0.0620155102041,1.091
0.454859315534,0.47577500846,-0.124318393833,-1.46891239229,0.0727574455074,1.93544135162,0.14365221399,-0.0442554775782,-0.257162205129,-0.00472296881231,-0.397623270218,-0.0272379703527,0.142100272194,-0.0548411835634,0.573800115669,0.818980711841,0.00218352752582,0.0,0.818937860178,-0.573737829916,-0.0121008508998,0.0,-0.00865775782823,0.00873181112004,-0.999924396494,0.0,0.647896988489,0.243260784497,0.303409865443,1.0,-0.0523245714286,-0.0687694367347,1.108
0.45418177356,0.471747604215,-0.124356012282,-1.47516578942,0.0723853171326,1.93768946479,0.142726652755,-0.0445868764931,-0.270792873324,-0.00390038319867,-0.424382836556,-0.024494128998,0.149989546049,-0.0574411468643,0.573823950941,0.818963945542,0.00220819617159,0.0,0.818921176221,-0.573761313742,-0.0121164719159,0.0,-0.00865614276743,0.0087612290732,-0.999924153152,0.0,0.647095250961,0.242205971829,0.303414573608,1.0,-0.0568588571429,-0.0747287836735,1.123
0.453350216687,0.466708807565,-0.124394021318,-1.48270198022,0.0719135746211,1.94051609333,0.14150001882,-0.0516879907936,-0.301594723476,-0.00226436906712,-0.457657402462,-0.0311748497892,0.166897441831,-0.071069232984,0.573758335368,0.819009124537,0.00248463715434,0.0,0.818970106301,-0.573694711808,-0.0119620035705,0.0,-0.00837172805745,0.00889831413078,-0.999925364302,0.0,0.646151482442,0.240937034012,0.30355228008,1.0,-0.0619977142857,-0.0814827102041,1.14
0.452429867334,0.461326106015,-0.124420323079,-1.49104597963,0.0713683385947,1.94338813183,0.140236788982,-0.0563341233886,-0.318053227642,0.000821931240827,-0.50808123437,-0.0382956774491,0.172707686291,-0.0706616735214,0.573738494045,0.819023265719,0.00240365609566,0.0,0.818982936212,-0.573674931101,-0.0120320622227,0.0,-0.00847578483506,0.00887198139994,-0.999924721675,0.0,0.64503546305,0.23952064335,0.303540448467,1.0,-0.0671365714286,-0.0882366367347,1.157
0.451490692933,0.455920406976,-0.124474666202,-1.49944676316,0.0708104067906,1.94626603856,0.138979983754,-0.0606896027368,-0.340634980241,-0.00199683331462,-0.537395858244,-0.0381709219025,0.18969411002,-0.0812965977166,0.573753525197,0.819013063282,0.00228941005196,0.0,0.818971122095,-0.573690312866,-0.0121026030323,0.0,-0.00859894317051,0.00881904166692,-0.999924138463,0.0,0.643905812723,0.238069695348,0.303511961231,1.0,-0.0719731428571,-0.0945932734694,1.173
0.450267574391,0.448950990414,-0.124518911807,-1.50979586431,0.0700905806987,1.95019358388,0.137305026884,-0.0665848846176,-0.370832760451,-0.00172806696189,-0.557265053099,-0.0371149773333,0.207385042111,-0.0848006032159,0.573690439371,0.819055956441,0.00271420217276,0.0,0.819020356288,-0.573626415172,-0.0117957070344,0.0,-0.00810456208247,0.00899024427188,-0.999926743107,0.0,0.642594206752,0.236279399237,0.303711110635,1.0,-0.0777165714286,-0.102141779592,1.192
0.449154655686,0.442802801427,-0.124559830441,-1.51921831954,0.0694856924858,1.95342646592,0.135885438289,-0.0680223895385,-0.393729467908,-0.00315459991343,-0.595859622081,-0.0369032868523,0.20927866074,-0.0892253447928,0.573725942942,0.819031189341,0.00268331570542,0.0,0.818994793651,-0.573661593348,-0.0118596455207,0.0,-0.00817426179285,0.00900198121783,-0.999926070156,0.0,0.641306679467,0.234635895731,0.303718551482,1.0,-0.0825531428571,-0.108498416327,1.208
0.447896034055,0.435928177589,-0.124585795492,-1.52988572467,0.0687426587748,1.95703057682,0.134153976746,-0.0770431734445,-0.408343212794,-0.000153257242303,-0.623976814891,-0.0406920821495,0.217757374592,-0.105068642502,0.573621807411,0.819104692783,0.00250424143183,0.0,0.819065722005,-0.573557902149,-0.0119759266804,0.0,-0.00837337149556,0.00892096278044,-0.999925148735,0.0,0.639814553252,0.232778207267,0.30365234086,1.0,-0.087692,-0.115252342857,1.225
0.44642137184,0.428206891705,-0.124614314675,-1.54153718689,0.067937189055,1.96122841757,0.132279074468,-0.0899013403098,-0.423686930768,-0.00068358446551,-0.674710552579,-0.0448959600652,0.232482581185,-0.104877981179,0.573596433578,0.819121816845,0.00270692732422,0.0,0.819085708989,-0.57353199109,-0.0118491952144,0.0,-0.0081535818759,0.0090140351504,-0.999926130408,0.0,0.638242681742,0.230710016549,0.303733380475,1.0,-0.0931331428571,-0.122403559184,1.243
0.445091392606,0.421509836211,-0.124687136353,-1.5518273903,0.0671962910382,1.96463917971,0.130540846485,-0.091635237478,-0.450937945336,-0.00287934961329,-0.685659660077,-0.0470420341954,0.226702821754,-0.118595538562,0.573544925136,0.81915847765,0.00252076303651,0.0,0.819119929141,-0.573481185299,-0.0119423068993,0.0,-0.00833719228205,0.00891442838675,-0.999925509321,0.0,0.636789171156,0.228817421264,0.303686206694,1.0,-0.0976674285714,-0.128362906122,1.258
0.443387710983,0.413031485446,-0.124807959217,-1.56450531251,0.0662881088184,1.96917627315,0.128491251178,-0.09918779069,-0.474588248376,-0.00326964725662,-0.723067480836,-0.0393272533531,0.255965884371,-0.12719535186,0.573625364135,0.81910140404,0.00275289332665,0.0,0.819066601354,-0.573561536955,-0.0117393685649,0.0,-0.00803693428246,0.00898897561437,-0.99992730036,0.0,0.635066630284,0.226456387443,0.303795632232,1.0,-0.103108571429,-0.135514122449,1.276
0.44183992192,0.405733295242,-0.124859527259,-1.57563238505,0.0655410988675,1.97286436194,0.126638744614,-0.106116257608,-0.491773744201,-0.00507034577438,-0.740251586733,-0.0591547387294,0.248136465248,-0.121668419398,0.573658746997,0.819078391901,0.00264136621866,0.0,0.81904151543,-0.573594636007,-0.0118716657392,0.0,-0.00820890943503,0.00897384625759,-0.99992603921,0.0,0.633465519985,0.22437658259,0.303754542663,1.0,-0.107642857143,-0.141473469388,1.291
0.439970909484,0.397081560057,-0.124979348414,-1.58849596904,0.0646460717643,1.97729646575,0.124434923321,-0.11017211906,-0.521649170923,-0.00418449564545,-0.753714297555,-0.056920472287,0.266585253857,-0.129403393697,0.57373561898,0.819023998052,0.00280660458556,0.0,0.818989384527,-0.573671014074,-0.0117772044865,0.0,-0.00803590012171,0.00905575541943,-0.999926706116,0.0,0.631657866593,0.221901728399,0.303849918456,1.0,-0.112781714286,-0.148227395918,1.308
0.437994284919,0.388217968375,-0.125042158413,-1.60191583147,0.063626713403,1.98183030319,0.122153576157,-0.120353124515,-0.531097175843,-0.00284077856042,-0.789233796099,-0.0594318486919,0.268036490942,-0.139779569322,0.573763332205,0.819004827985,0.0027344569568,0.0,0.818969545199,-0.573699284882,-0.0117797056147,0.0,-0.00807903531645,0.00899837336271,-0.999926876559,0.0,0.629713973026,0.219328257716,0.303812352231,1.0,-0.117920571429,-0.154981322449,1.325
0.43605436675,0.379465325661,-0.125108585124,-1.61486972538,0.0626433013989,1.98614294263,0.119807699815,-0.120430790532,-0.560149653167,-0.0062894942155,-0.784846078722,-0.0605869680957,0.283321224767,-0.141297384301,0.573688436006,0.819057106903,0.00278943120468,0.0,0.819022732025,-0.573624418565,-0.0117276490547,0.0,-0.0080056825868,0.00901279773456,-0.999927336622,0.0,0.627806626224,0.216828422662,0.303882308209,1.0,-0.122757142857,-0.161337959184,1.341
0.433546724043,0.368876242535,-0.125177531364,-1.63082795353,0.061436935064,1.99141255873,0.116987933692,-0.132978490094,-0.566235579439,-0.00438719288387,-0.87180271671,-0.0638750693946,0.266879866326,-0.150851352261,0.57372366339,0.819032846832,0.00266472832127,0.0,0.818996742066,-0.573659969631,-0.0118035007026,0.0,-0.00813896351548,0.0089545238799,-0.999926784207,0.0,0.625423065878,0.213691483255,0.303810781602,1.0,-0.128500571429,-0.168886465306,1.36
0.431326564479,0.359536332523,-0.125308462453,-1.64452237602,0.0603503212305,1.99595834091,0.114513436088,-0.137272586619,-0.581666452755,-0.00540242019609,-0.863146777867,-0.0656766172821,0.284996463535,-0.1691039546,0.573785471565,0.818989237798,0.00275824105479,0.0,0.818955008398,-0.573722169502,-0.0116753304789,0.0,-0.00797965960119,0.0089581828035,-0.999928035407,0.0,0.623382755877,0.210923495683,0.303896346321,1.0,-0.133337142857,-0.175243102041,1.376
0.428793961117,0.349517343082,-0.125385707791,-1.65965496582,0.0592537763062,2.00070746313,0.1116933989,-0.150297774979,-0.595235612987,-0.00678432210084,-0.899587326585,-0.0689581982115,0.272008113437,-0.163409316556,0.573814087556,0.818970129592,0.00246305914639,0.0,0.818930942197,-0.573750661539,-0.011959815936,0.0,-0.00838171156626,0.00887995718279,-0.999925443857,0.0,0.62102233727,0.20786516252,0.303743233356,1.0,-0.138476,-0.181997028571,1.393
0.426295891216,0.339594678368,-0.125494881022,-1.67391862765,0.0581592882502,2.00546012448,0.108987469974,-0.15544763554,-0.61305699435,-0.0055326862297,-0.895193522123,-0.07191101123,0.294765711303,-0.165674120196,0.57388349624,0.818920484026,0.00277857659102,0.0,0.81888571334,-0.573819205581,-0.0117666773351,0.0,-0.00804172731471,0.00902821242307,-0.99992690833,0.0,0.61885963573,0.2049193386,0.303910965904,1.0,-0.143312571429,-0.188353665306,1.409
0.423714792116,0.329577131671,-0.125505865851,-1.68870371429,0.0569549759638,2.01010332894,0.106117644305,-0.161370857741,-0.646581605564,0.000640265394024,-0.909749617859,-0.0726070723411,0.301533174714,-0.18178326248,0.573773191065,0.818998239871,0.00263727231276,0.0,0.818961376094,-0.573709152759,-0.011866735357,0.0,-0.00820596609653,0.00896881145311,-0.999926108541,0.0,0.61649416543,0.201916929351,0.303858084455,1.0,-0.148149142857,-0.194710302041,1.425
0.420831362395,0.318576737234,-0.125517942546,-1.70462924994,0.0556418002543,2.01519237291,0.103017062068,-0.172413977746,-0.642918797458,-0.0009031191575,-0.944424913489,-0.074282459623,0.297717121505,-0.177293109058,0.573704856531,0.819045805552,0.00273000024054,0.0,0.819010243145,-0.573640586419,-0.0118087313906,0.0,-0.00810600904121,0.00901079819481,-0.999926546369,0.0,0.613945497348,0.198642750094,0.30391474361,1.0,-0.153288,-0.201464228571,1.442
0.417808181139,0.307270278758,-0.125581237613,-1.72088046578,0.0542878480156,2.02031916849,0.0996817054222,-0.174435644409,-0.669187719799,-0.00339722002598,-0.968661042189,-0.0908759198278,0.301342338694,-0.197543304488,0.573572562977,0.819138102563,0.00283387187522,0.0,0.819104069387,-0.573508137836,-0.0117339784913,0.0,-0.0079866540627,0.00905169837553,-0.999927137402,0.0,0.611310701949,0.195237722508,0.303987149421,1.0,-0.158426857143,-0.208218155102,1.459
0.41456052393,0.295847833591,-0.125637832408,-1.73756036128,0.0528843912573,2.0253491681,0.0963007823889,-0.196398000156,-0.669651720024,-0.00282710368845,-0.987897354977,-0.0749483527041,0.294818966049,-0.193562892081,0.57355402806,0.819151842769,0.00260428223274,0.0,0.819114385105,-0.573489965167,-0.0119008767701,0.0,-0.00825525434907,0.00895917334048,-0.999925789241,0.0,0.608529579964,0.191665350799,0.30389059161,1.0,-0.163565714286,-0.214972081633,1.476
0.411123926979,0.284032631419,-0.125774968416,-1.75430006228,0.0515146392237,2.03056532309,0.0927713742349,-0.20332712645,-0.680659994115,-0.00855620602684,-1.00344965744,-0.0835971676857,0.308014497722,-0.218430670358,0.573622464593,0.819103197014,0.00282270370783,0.0,0.819068570652,-0.573557566017,-0.011795844005,0.0,-0.00804318532396,0.00907852379115,-0.999926441082,0.0,0.605775663775,0.187969168885,0.303997335242,1.0,-0.168704571429,-0.221726008163,1.493
0.407297971867,0.271268253304,-0.125903198211,-1.77244851106,0.0499399037806,2.03599592653,0.0888105276293,-0.219247281803,-0.720498512463,-0.0115341399608,-1.011187702,-0.0864057400634,0.313440475861,-0.22521724142,0.573591299151,0.819125066056,0.00280973270788,0.0,0.819090262367,-0.573526441893,-0.0118029422719,0.0,-0.00805678498356,0.00907166435006,-0.999926393852,0.0,0.602700093246,0.183917842301,0.30402250351,1.0,-0.174145714286,-0.22887722449,1.511
0.403659979516,0.259754165096,-0.12607474728,-1.78887136798,0.0484809802663,2.04082159639,0.0852383694719,-0.231780113631,-0.713463564647,-0.0140741291212,-1.03878769744,-0.0978180916867,0.292607799725,-0.225077689015,0.573723205976,0.8190331185,0.00267966895988,0.0,0.818996674989,-0.573658870047,-0.0118614533199,0.0,-0.0081778646842,0.00900000427244,-0.999926058492,0.0,0.599885755484,0.180132039288,0.303978000906,1.0,-0.178982285714,-0.235233861224,1.527
0.399606033898,0.247251079887,-0.126234444119,-1.80643368491,0.0468717833751,2.04601070532,0.081288277816,-0.239748452369,-0.726853873997,-0.011438769115,-1.04514275189,-0.103071361193,0.304699761569,-0.242178005045,0.573832873137,0.818956201601,0.00270563653638,0.0,0.818920552315,-0.573768930709,-0.0117936444697,0.0,-0.00810622416553,0.0089834552169,-0.999926790651,0.0,0.59667397136,0.175782412905,0.304009148665,1.0,-0.184423428571,-0.242385077551,1.545
0.395679640485,0.23521717732,-0.1263226249,-1.82312869619,0.0454288549282,2.05085093556,0.0773864648724,-0.247403271754,-0.771801597164,-0.00554309395155,-1.0351444013,-0.091987617648,0.311042046735,-0.240685146095,0.573823440648,0.818962288031,0.00285948377237,0.0,0.818928107954,-0.573758347089,-0.0117838894121,0.0,-0.00801006257061,0.00910375887767,-0.999926477533,0.0,0.593899773259,0.172163151689,0.304083615739,1.0,-0.188957714286,-0.24834442449,1.56
0.391346352724,0.222330654975,-0.126370457152,-1.84124802112,0.0437242631449,2.05596487202,0.0730997840855,-0.259277766204,-0.776424150533,-0.00688231551577,-1.07746197394,-0.113367218441,0.29640896167,-0.261059952213,0.573723640114,0.81903257647,0.00275142818216,0.0,0.818996824691,-0.573658767506,-0.0118560748486,0.0,-0.00813228720192,0.00905569571435,-0.999925927397,0.0,0.590811397732,0.168218957362,0.304019136645,1.0,-0.193794285714,-0.254701061224,1.576
0.386454280122,0.208289433089,-0.126518050219,-1.86043236656,0.0419155142049,2.06141687518,0.0683821389809,-0.281783773328,-0.77546982137,-0.0107151243727,-1.07008164169,-0.102773984705,0.300474381713,-0.261036309646,0.57374522807,0.819016930831,0.00290296072557,0.0,0.818983402797,-0.573680089697,-0.011751065007,0.0,-0.00795910366403,0.00911976970956,-0.999926738551,0.0,0.587134277107,0.16332751327,0.304104609259,1.0,-0.199537714286,-0.262249567347,1.595
0.381631416283,0.194821246743,-0.126658356263,-1.8787991604,0.0401661729862,2.06642919603,0.0637178955438,-0.28547754063,-0.781732262771,-0.00683965791595,-1.08313793076,-0.106302034058,0.308055569619,-0.274659402059,0.57372711178,0.81902942399,0.0029581664797,0.0,0.818996468641,-0.57366161588,-0.0117423047317,0.0,-0.00792045901133,0.00915978283409,-0.999926679666,0.0,0.583720938673,0.158843006762,0.304151311624,1.0,-0.204676571429,-0.269003493878,1.612
0.376466385839,0.181160993201,-0.126858542913,-1.89741941667,0.0384013773226,2.07135458704,0.0588648668778,-0.315585995456,-0.827820225498,-0.0122482343859,-1.08686132353,-0.0984064220689,0.293835943975,-0.288925072993,0.57385046973,0.818943159118,0.00291331856579,0.0,0.818909003858,-0.573784407974,-0.0118424434783,0.0,-0.00802682584655,0.0091817113338,-0.999925630356,0.0,0.580210084186,0.154144683658,0.304137409227,1.0,-0.209815428571,-0.275757420408,1.629
0.371766357924,0.16893137888,-0.126968345589,-1.91392705018,0.0367331670278,2.07570051041,0.0544879388932,-0.315561835768,-0.832727014608,-0.00878854771257,-1.10187296773,-0.114235182487,0.283653825824,-0.302760733141,0.573875150954,0.818925859149,0.00291465869044,0.0,0.818891799213,-0.573809170142,-0.0118323431418,0.0,-0.00801750825059,0.0091772544963,-0.999925746024,0.0,0.577047631824,0.149977387343,0.304148700447,1.0,-0.214349714286,-0.281716767347,1.644
0.366641610592,0.155605801899,-0.127052825197,-1.93161759354,0.0349551706542,2.08030772304,0.0495730739616,-0.321562480785,-0.850933486498,0.00103749352267,-1.10718864062,-0.11348288528,0.295025705334,-0.312648033851,0.573737786121,0.81902149344,0.00308106486575,0.0,0.81898958719,-0.573671221997,-0.0117529582559,0.0,-0.00785855847814,0.00926665470447,-0.99992618336,0.0,0.573599315849,0.145527745477,0.304237838536,1.0,-0.219186285714,-0.288073404082,1.66
0.360899602696,0.141393808306,-0.127170099649,-1.95063950331,0.0329659239769,2.08498798215,0.0442524242357,-0.34825242539,-0.824163863534,-0.00808791736439,-1.11031248753,-0.105512992187,0.282148579854,-0.311197722725,0.573706134843,0.819044240577,0.00292399080272,0.0,0.819009917159,-0.573639702083,-0.0118741185218,0.0,-0.00804826612828,0.00920720937421,-0.999925223558,0.0,0.569799199729,0.140627419097,0.304185224458,1.0,-0.224325142857,-0.294827330612,1.677
0.354861264254,0.126899638689,-0.127327680185,-1.96971397421,0.0309544688079,2.08972760736,0.0385899556017,-0.366248878218,-0.846642891638,-0.00739247105068,-1.12949391127,-0.121839598285,0.278211389199,-0.340979885378,0.573626787257,0.819099525788,0.00300378045287,0.0,0.819066333732,-0.57356018196,-0.0118239383449,0.0,-0.00796228672687,0.00924300116481,-0.999925581691,0.0,0.565973103062,0.135595674446,0.304218720299,1.0,-0.229464,-0.301581257143,1.694
0.348443290333,0.112148962217,-0.12757092757,-1.98882710442,0.0288558145188,2.09439473869,0.032852871073,-0.390284027246,-0.868636500105,-0.0154127185422,-1.14177911892,-0.126565468781,0.267844609868,-0.358598761177,0.573795552693,0.818980695049,0.00316729366178,0.0,0.818950391692,-0.573729264948,-0.0116504674411,0.0,-0.00772448757843,0.00927902143933,-0.99992711337,0.0,0.562112424101,0.130351821933,0.304314351829,1.0,-0.234602857143,-0.308335183673,1.711
0.341857808539,0.0972121332862,-0.127680604334,-2.00804235561,0.0267231284862,2.09885523106,0.0267634852105,-0.387805671574,-0.886689757183,-0.00622430117239,-1.13092970895,-0.121253657307,0.26870982146,-0.362611868415,0.573654275563,0.819079294267,0.0032601736736,0.0,0.819050375228,-0.573587925642,-0.011581074992,0.0,-0.00761596910763,0.00931395897801,-0.999927620972,0.0,0.558105255018,0.125139938955,0.30438565105,1.0,-0.239741714286,-0.315089110204,1.728
0.335432292968,0.0831129344091,-0.127827597746,-2.02638637346,0.024788827924,2.10282109421,0.0208648396582,-0.41022879388,-0.882521134282,-0.00885699331678,-1.13640236378,-0.128308116316,0.239286478371,-0.381984598885,0.57359912915,0.819118509513,0.00310697812956,0.0,0.819086015472,-0.573531402087,-0.0118565163193,0.0,-0.00793009513152,0.00934594971032,-0.999924880586,0.0,0.553926176976,0.119813672117,0.304297261206,1.0,-0.244880571429,-0.321843036735,1.745
0.328196928227,0.0677823549244,-0.128013126569,-2.04572898705,0.0225468982118,2.10715808146,0.0143391911898,-0.436689384763,-0.904505753847,-0.0168472910086,-1.15421039111,-0.12746414453,0.241956570038,-0.381209994616,0.573583864907,0.819128581563,0.003265529955,0.0,0.819098796311,-0.573516365548,-0.0116998816694,0.0,-0.00771102106597,0.00938583570876,-0.999926220399,0.0,0.550026503482,0.114641308611,0.304370411954,1.0,-0.249717142857,-0.328199673469,1.761
0.319216574672,0.0497259125601,-0.128298864811,-2.06844595694,0.0198922588692,2.11183931876,0.00637640063223,-0.455937087878,-0.884876709546,-0.00652601899082,-1.13941608258,-0.135299849945,0.225086556992,-0.390631760269,0.573705681328,0.819043380068,0.0032372334626,0.0,0.819013012694,-0.573638000139,-0.0117420924498,0.0,-0.00776043237205,0.00938802222864,-0.999925817613,0.0,0.545040890918,0.107979915712,0.304382844449,1.0,-0.24998,-0.328545142857,1.781
0.31239615357,0.0362766818262,-0.128419656679,-2.08521948069,0.0179852125193,2.11516243391,0.000328119718105,-0.463476723,-0.885383195547,-0.00880570106779,-1.09149495577,-0.13055411536,0.226241849943,-0.414431694519,0.573727481584,0.819028005574,0.00326341265617,0.0,0.818997099687,-0.573658643398,-0.0118430765243,0.0,-0.00782787717927,0.00946760624974,-0.999924541538,0.0,0.541266915361,0.103089815396,0.304380961465,1.0,-0.24998,-0.328545142857,1.796
0.303973500643,0.0202592927998,-0.128604414787,-2.10504378114,0.0155281177965,2.11891232292,-0.00713212578787,-0.471376830493,-0.899432063432,-0.0131262514192,-1.09325990435,-0.127317247251,0.21093320934,-0.424131996716,0.573703350727,0.819045314797,0.00315983773496,0.0,0.819012983205,-0.573634795704,-0.0118996386907,0.0,-0.00793390319603,0.0094149919868,-0.99992420268,0.0,0.53673338193,0.0971510132279,0.304358426675,1.0,-0.24998,-0.328545142857,1.814
0.29570673024,0.0051900311467,-0.128840553315,-2.12326052686,0.0132692894887,2.12225847962,-0.0143227872972,-0.492047915922,-0.861909643168,-0.0120819285743,-1.06654526974,-0.130447218128,0.19443044881,-0.433663838576,0.573855091922,0.81893850593,0.00328692586714,0.0,0.818908043127,-0.573786319605,-0.0118162277318,0.0,-0.00779092078766,0.00947267485932,-0.999924782163,0.0,0.532528810453,0.0914677503929,0.30444811672,1.0,-0.24998,-0.328545142857,1.831
0.287893297565,-0.00890491729748,-0.128936358478,-2.14010814368,0.0111808455809,2.12530615564,-0.0212340750963,-0.484758183874,-0.870606915043,-0.00830333037794,-1.04490709658,-0.139282844206,0.194813088356,-0.432324740173,0.573798820791,0.818977085158,0.00349201193453,0.0,0.81894942208,-0.573729528431,-0.0117055192865,0.0,-0.00758322770569,0.00957657869784,-0.999925389116,0.0,0.52881310482,0.0865943791905,0.304536358315,1.0,-0.24998,-0.328545142857,1.846
0.27940464912,-0.0236190035173,-0.129071978726,-2.15785225417,0.00887902165047,2.12812565616,-0.0287211690999,-0.501525132709,-0.860476934789,-0.0172054713933,-1.02241733869,-0.138296563656,0.153609806412,-0.442593882158,0.573710003073,0.819040029689,0.00331798761253,0.0,0.819009616282,-0.573640709938,-0.0118461487308,0.0,-0.00779928739901,0.00951390095818,-0.999924325539,0.0,0.524256462544,0.0807043063932,0.304485664245,1.0,-0.24998,-0.328545142857,1.864
0.270593242307,-0.0383047108842,-0.12929876196,-2.17513325909,0.00662186362305,2.13093020969,-0.0363190418614,-0.527044578513,-0.846050952906,-0.0160010354701,-1.0121350629,-0.130012579174,0.152565517976,-0.460375702841,0.573868141721,0.818928662508,0.00345666628799,0.0,0.818900325154,-0.57379868616,-0.0117504095726,0.0,-0.00763946370401,0.0095740351829,-0.999924985409,0.0,0.519806864534,0.07471955076,0.304551387539,1.0,-0.24998,-0.328545142857,1.882
0.261692181475,-0.0529441525334,-0.129411750636,-2.19209433823,0.0044745935978,2.13350991905,-0.0441331368784,-0.518152801246,-0.861414024998,-0.00241994082304,-0.995696324696,-0.133439595248,0.157266057115,-0.462452312569,0.57384503512,0.818943802803,0.00369735313778,0.0,0.818918479776,-0.573774656671,-0.0116582050617,0.0,-0.00742611023549,0.00971802100586,-0.99992520368,0.0,0.515835334041,0.0695166061269,0.304649609081,1.0,-0.24998,-0.328545142857,1.898
0.252609767879,-0.0672165912878,-0.129554897355,-2.20893477357,0.00219005552643,2.1357705367,-0.0521314588041,-0.534787702334,-0.836741065932,-0.00760212678255,-0.977870426725,-0.133200495637,0.131902996682,-0.47325590716,0.573754351012,0.819008410883,0.00345173842469,0.0,0.818978980758,-0.57368364424,-0.011884961457,0.0,-0.00775382680308,0.00964613528246,-0.999923412189,0.0,0.511521033244,0.0639522816907,0.304521343439,1.0,-0.24998,-0.328545142857,1.915
0.24319337556,-0.0815674173798,-0.129804979893,-2.22527186685,-5.51575584992e-05,2.13792876983,-0.060310076115,-0.564703507908,-0.819489855025,-0.0156010075331,-0.953064098325,-0.132631200293,0.120525773336,-0.482211652858,0.573866145522,0.818929550643,0.00357561303953,0.0,0.818902002971,-0.573795332723,-0.0117971427149,0.0,-0.00760950521525,0.00969824421916,-0.999924016858,0.0,0.507313349195,0.0582849520677,0.304588163199,1.0,-0.24998,-0.328545142857,1.932
0.234292131538,-0.0948997045856,-0.129889209137,-2.24044744344,-0.00206260447273,2.13970207806,-0.0681261300526,-0.563501167221,-0.812346933385,-0.0081970882735,-0.921482111409,-0.134244151218,0.119703061326,-0.499909304365,0.573804476344,0.818972702929,0.00358910652769,0.0,0.818944306308,-0.573732322265,-0.0119244477914,0.0,-0.00770675919464,0.00978176820554,-0.99992245843,0.0,0.503287974331,0.0531120702377,0.304573759388,1.0,-0.24998,-0.328545142857,1.948
0.224586375805,-0.108950161063,-0.13006655352,-2.25629881881,-0.00435498383597,2.14142778624,-0.0765718541562,-0.574417855172,-0.81277258485,-0.0075663738286,-0.927732904532,-0.12947932993,0.0904809051858,-0.501714150078,0.573802089255,0.818974731643,0.00350687884336,0.0,0.818945175832,-0.573730123638,-0.0119704265598,0.0,-0.00779162486,0.00974078482057,-0.99992220082,0.0,0.499019080084,0.0475285478471,0.30454890777,1.0,-0.24998,-0.328545142857,1.965
0.214560852117,-0.122968127916,-0.130292885046,-2.27177739167,-0.00659171895143,2.14303509892,-0.0852889132403,-0.589679800372,-0.814510547855,-0.0107626997706,-0.893943975165,-0.119008867503,0.0937933350187,-0.529738807199,0.573880120269,0.81891958796,0.00361426583725,0.0,0.818891772667,-0.573808188706,-0.0118816721526,0.0,-0.00765638613903,0.00977853626939,-0.999922877016,0.0,0.494798133783,0.0418786571312,0.304603850239,1.0,-0.24998,-0.328545142857,1.982
0.20508894696,-0.135974562494,-0.130426240485,-2.2862140049,-0.00865352424011,2.14425960507,-0.0936635936846,-0.601780397917,-0.79038174496,-0.0104430558489,-0.905351944441,-0.140233297796,0.0769493586991,-0.528782695935,0.57377533,0.818993482704,0.00350611927919,0.0,0.818963192644,-0.573702467622,-0.0120629449373,0.0,-0.00786815549003,0.0097929913963,-0.999921091611,0.0,0.490737493834,0.0366791113366,0.304542503043,1.0,-0.24998,-0.328545142857,1.998
0.194685911392,-0.149738721521,-0.130664725146,-2.30101791811,-0.0108704118756,2.14558933503,-0.102739057219,-0.614579519175,-0.784793444295,-0.0181278042946,-0.877020155278,-0.138452053383,0.0727439341244,-0.532116921507,0.573845471707,0.818943447409,0.00370829454532,0.0,0.818916762255,-0.573773096425,-0.0118539958394,0.0,-0.0075801785165,0.00983933583433,-0.999922861207,0.0,0.486562729298,0.0310492218488,0.304635386199,1.0,-0.24998,-0.328545142857,2.015
0.184164771445,-0.163349502848,-0.130811868893,-2.31569563135,-0.0130490308593,2.14648125667,-0.111982606197,-0.612804920609,-0.817553971879,-0.00763708504851,-0.855272928462,-0.108216283723,0.0463584289369,-0.546808613255,0.573794190293,0.818979753124,0.00362464616381,0.0,0.818951095639,-0.573720988305,-0.01200322588,0.0,-0.00775101261957,0.00985597898002,-0.999921387651,0.0,0.482265661029,0.0255100576911,0.304614412374,1.0,-0.24998,-0.328545142857,2.032
0.17410163466,-0.176011150789,-0.130973003004,-2.32912680901,-0.0150044538276,2.14733121084,-0.120921023465,-0.635334834617,-0.765036906921,-0.0138172346589,-0.814872507761,-0.126628455332,0.0469458904748,-0.555336466733,0.573728480037,0.819025198553,0.00375529365795,0.0,0.818997929445,-0.573654401833,-0.0119902344716,0.0,-0.00766621103004,0.00995490839182,-0.999921061388,0.0,0.478295601142,0.0203199900256,0.304644213181,1.0,-0.24998,-0.328545142857,2.048
0.162322421395,-0.190164007354,-0.131249366956,-2.34400377977,-0.0173657253208,2.14800764804,-0.131185222524,-0.660430502558,-0.783157021295,-0.00919262879666,-0.83132806242,-0.12414957304,0.04515004972,-0.579719883855,0.573841974868,0.818945839558,0.00372110885318,0.0,0.818918137556,-0.573768021848,-0.012003665633,0.0,-0.00769544692501,0.00993568201684,-0.999921028041,0.0,0.473787921401,0.0143085638734,0.304653244383,1.0,-0.24998,-0.328545142857,2.066
0.152537423153,-0.201852047111,-0.131373161473,-2.35612252624,-0.0191803969774,2.14853805017,-0.139962069006,-0.664119371338,-0.778174458741,-0.011331138297,-0.79264743013,-0.121320517003,0.0267632465362,-0.590781840327,0.573698287709,0.819045870362,0.00385795584352,0.0,0.81901987257,-0.573623753628,-0.011957613073,0.0,-0.0075809644516,0.0100199975644,-0.999921061198,0.0,0.470058018424,0.00947424749147,0.304686847332,1.0,-0.24998,-0.328545142857,2.081
0.141034381133,-0.214942940133,-0.131657961595,-2.36961378492,-0.0212394341129,2.14883441195,-0.150048694994,-0.689069415179,-0.780459618701,-0.0225456300893,-0.761094619652,-0.116254170285,0.0279835114638,-0.594048865934,0.57385877396,0.818933275104,0.00389170632077,0.0,0.818906680367,-0.573782720138,-0.0120824592646,0.0,-0.00766188161308,0.0101207644202,-0.999919429603,0.0,0.465788741141,0.00383388002322,0.30468187349,1.0,-0.24998,-0.328545142857,2.098
0.130117873068,-0.227132867372,-0.131787890194,-2.38203675622,-0.0233095975146,2.14908830893,-0.159708152806,-0.675222137012,-0.763216508706,-0.00121292634606,-0.770523099794,-0.125390809357,0.0126580980228,-0.611682398371,0.573764661014,0.818999294104,0.00387516830482,0.0,0.818973107302,-0.573689507693,-0.0120060476808,0.0,-0.0076099476936,0.0100624982399,-0.999920414246,0.0,0.461796384922,-0.00137411487013,0.304690561441,1.0,-0.24998,-0.328545142857,2.114
0.118298495623,-0.23995338421,-0.132023895847,-2.39494589491,-0.0254038605389,2.14916884722,-0.170270527727,-0.710184274758,-0.742323971635,-0.0175218722238,-0.730803080422,-0.128349816049,0.00740494367834,-0.607950182708,0.573713351773,0.819035038106,0.0039170464954,0.0,0.819009295574,-0.573637917635,-0.012002504572,0.0,-0.00758365140336,0.0100942889649,-0.999920293604,0.0,0.457547271337,-0.00693779381319,0.304701517759,1.0,-0.24998,-0.328545142857,2.131
0.10469439949,-0.254097015019,-0.13226414069,-2.40892997357,-0.0276303010668,2.14919313644,-0.182337370438,-0.708976984247,-0.739105302357,-0.00404253808359,-0.741977154939,-0.120051706228,-0.000873465708498,-0.645248776558,0.573766883462,0.81899650013,0.00412833117172,0.0,0.818973877434,-0.573691189022,-0.0118724311231,0.0,-0.00735523393032,0.0101931994423,-0.999920996489,0.0,0.452595905707,-0.0135066515235,0.304763230518,1.0,-0.24998,-0.328545142857,2.151
0.0938978790547,-0.265113237368,-0.132467209986,-2.41982306343,-0.0294514249758,2.14904464128,-0.192063500566,-0.731634040797,-0.727117492661,-0.0147415780822,-0.710674397235,-0.131837798683,-0.0104602600584,-0.657712649818,0.573695948471,0.819046082139,0.00414981229432,0.0,0.819023721639,-0.573620167086,-0.0118656734694,0.0,-0.00733825862959,0.0102062800072,-0.999920987783,0.0,0.449098480944,-0.0180696230176,0.304751637121,1.0,-0.24998,-0.328545142857,2.165
0.0797568373101,-0.278865840983,-0.132755668065,-2.43311785129,-0.0317268917789,2.14875546207,-0.204666053536,-0.744350815581,-0.719684797358,-0.0104601464771,-0.71143083698,-0.12162631043,-0.0206508771865,-0.67188418878,0.573764317378,0.818997455928,0.00429210768508,0.0,0.81897782429,-0.57368930025,-0.0116900385442,0.0,-0.00711191249926,0.0102226648169,-0.999922455906,0.0,0.444408543315,-0.0243589879622,0.304810100021,1.0,-0.24998,-0.328545142857,2.184
0.0685611655857,-0.289561700469,-0.132915231093,-2.4435141062,-0.0333742708772,2.14827527831,-0.214843644087,-0.752432542682,-0.716520655396,-0.00893424183938,-0.677392008835,-0.108738124103,-0.0322139047351,-0.679481874643,0.573659327165,0.819070909234,0.00430916508461,0.0,0.819050254417,-0.57358248771,-0.0118556919808,0.0,-0.0072391301568,0.0103307499426,-0.999920432135,0.0,0.440625240742,-0.0291935064633,0.304767263753,1.0,-0.24998,-0.328545142857,2.199
0.0546440068297,-0.302291608224,-0.133229694905,-2.45538402838,-0.0355121661779,2.14774941405,-0.227315946613,-0.775524397428,-0.685145163264,-0.00188079584362,-0.660686577219,-0.111431487554,-0.0362826354108,-0.699886415179,0.573741184479,0.81901240834,0.00452494409709,0.0,0.818996334829,-0.573666264172,-0.0115224905376,0.0,-0.00684138666744,0.010317038635,-0.999923374135,0.0,0.436217904297,-0.0351872139005,0.304897430018,1.0,-0.24998,-0.328545142857,2.217
0.043031894129,-0.312669352907,-0.133395632474,-2.46530702018,-0.0371754676002,2.14703981039,-0.237859540042,-0.781581411716,-0.692467551508,-0.00798593377633,-0.658116311774,-0.116008130631,-0.0424282192464,-0.705074798898,0.573663455944,0.819067186069,0.00446440606964,0.0,0.819049141587,-0.573586962814,-0.0117152318368,0.0,-0.00703497230148,0.0103773681382,-0.999921406609,0.0,0.432415370815,-0.0400327314536,0.304831262327,1.0,-0.24998,-0.328545142857,2.232
0.0294713049888,-0.324287266829,-0.133699888025,-2.47600996977,-0.0390884659051,2.14624486133,-0.250103210172,-0.79114842699,-0.693468797771,-0.00761800342195,-0.617038601627,-0.115760315527,-0.0373679976612,-0.727901095282,0.573743544301,0.819010340253,0.00459943827594,0.0,0.818994665924,-0.5736675492,-0.0115770066698,0.0,-0.00684327144247,0.0104093486656,-0.999922404538,0.0,0.428209466454,-0.0456669893859,0.304897395141,1.0,-0.24998,-0.328545142857,2.249
0.0158581496491,-0.335629757767,-0.133876877992,-2.48654563619,-0.0408521577536,2.14535572551,-0.262613934564,-0.81391795167,-0.677849623322,-0.0160925449577,-0.619614036474,-0.108666485282,-0.0664179909667,-0.735516472666,0.573609446219,0.819103804968,0.00468046964327,0.0,0.819088602089,-0.573532343793,-0.0116301097675,0.0,-0.00684199816786,0.0105050624154,-0.999921412274,0.0,0.423970881662,-0.0511485400828,0.304873890568,1.0,-0.24998,-0.328545142857,2.266
0.00177108063795,-0.34674256074,-0.134165980017,-2.4967813612,-0.0428091824905,2.14422657935,-0.275348960686,-0.816277070905,-0.642506905171,-0.00891217147009,-0.58938336634,-0.0981612441356,-0.066571229565,-0.760515361788,0.573676832553,0.819057368527,0.00454596029135,0.0,0.81903991009,-0.573599372773,-0.0117529628577,0.0,-0.0070189259949,0.0104659269151,-0.999920596373,0.0,0.419679433997,-0.056798153875,0.304825411755,1.0,-0.24998,-0.328545142857,2.283
-0.0123520815467,-0.357753321836,-0.134386619099,-2.50644869185,-0.044556752955,2.14319645398,-0.288369874934,-0.841088042253,-0.633914898599,-0.0156515292512,-0.569390961735,-0.109772838327,-0.0556897368019,-0.766586020663,0.573588952681,0.819117462207,0.00480035114799,0.0,0.819104794801,-0.573513038636,-0.0114401289219,0.0,-0.00661787281097,0.0104941242533,-0.999923035596,0.0,0.415537999834,-0.0623348364859,0.304962177257,1.0,-0.24998,-0.328545142857,2.3
-0.0259740314297,-0.3678382303,-0.134661407938,-2.51556347923,-0.0462155926886,2.14196596333,-0.300856640614,-0.840888857925,-0.619056954048,-0.00391647215462,-0.552699544278,-0.101950434606,-0.0743471027071,-0.788523632109,0.573621485372,0.819094909151,0.00476111588368,0.0,0.819080610965,-0.573543916311,-0.0116222073826,0.0,-0.00678911256169,0.0105666890105,-0.999921123406,0.0,0.41148379845,-0.067598672215,0.304909652795,1.0,-0.24998,-0.328545142857,2.316
-0.0397258247752,-0.37770872555,-0.134888138735,-2.52436318848,-0.0478648885901,2.14068356032,-0.313527863824,-0.874356485684,-0.611396462453,-0.0198018440957,-0.533748592476,-0.0993370566208,-0.074672511048,-0.799073999255,0.573623476635,0.819093578745,0.00475007509536,0.0,0.819078617933,-0.573545136174,-0.0117021928829,0.0,-0.00686094067462,0.010603541661,-0.999920243018,0.0,0.407214451683,-0.0731575813629,0.304896322744,1.0,-0.24998,-0.328545142857,2.333
-0.0554959657077,-0.388559360754,-0.135160426708,-2.53367448248,-0.0496571910672,2.1393696797,-0.328087632611,-0.872810587264,-0.594709559994,-0.00922192956993,-0.517331392017,-0.1004508728,-0.0740043093166,-0.817316584384,0.573581533118,0.819122095184,0.00489540075402,0.0,0.81911025724,-0.573504717479,-0.0114661420941,0.0,-0.00658476168649,0.0105868441618,-0.999922276802,0.0,0.403044917545,-0.0787368827826,0.304974886901,1.0,-0.24998,-0.328545142857,2.35
-0.0706938184527,-0.398507687744,-0.13549778139,-2.54239452995,-0.0513957153586,2.13784643997,-0.342129635198,-0.899699992181,-0.576524835933,-0.0157476695311,-0.506487718715,-0.105336948069,-0.0942954860532,-0.839086861679,0.573628394308,0.819089813038,0.00480523893326,0.0,0.819075838004,-0.573550299685,-0.0116435488641,0.0,-0.00678119659106,0.0106151297192,-0.99992066405,0.0,0.398733664965,-0.0843650891588,0.304920658068,1.0,-0.24998,-0.328545142857,2.367
-0.0850360124502,-0.407615528224,-0.135684213267,-2.55025417498,-0.0527946235247,2.13640288526,-0.355549096741,-0.902579641236,-0.56575540749,-0.0120324801142,-0.482102165316,-0.0880819639223,-0.089777320661,-0.843188369986,0.573550523775,0.81914397884,0.00486677609269,0.0,0.819129719141,-0.57347054775,-0.0117805341125,0.0,-0.00685913289371,0.0107434592894,-0.999918761889,0.0,0.394731336847,-0.0895263290356,0.304898285975,1.0,-0.24998,-0.328545142857,2.383
-0.101644908735,-0.417573077826,-0.136037355654,-2.55855394337,-0.0545114182284,2.13494627397,-0.370952716193,-0.92344863994,-0.546546193238,-0.0120863178127,-0.461588914682,-0.100227909809,-0.089444245072,-0.856381251647,0.573659019443,0.819067116866,0.00501342010456,0.0,0.819056275386,-0.573580994012,-0.0115068657355,0.0,-0.0065494189518,0.010707496665,-0.99992122421,0.0,0.390303371306,-0.0955278260141,0.304983618162,1.0,-0.24998,-0.328545142857,2.401
-0.117400905105,-0.426636893099,-0.136263274402,-2.5663359685,-0.0560234712414,2.13324540126,-0.385778309292,-0.936920319572,-0.52153309716,-0.0192409938434,-0.452871272309,-0.0888706348868,-0.100794009428,-0.871993776216,0.573554687864,0.81914071378,0.00492523690791,0.0,0.819126914707,-0.573474044339,-0.0118052943134,0.0,-0.0068458334849,0.0108055840486,-0.999918183612,0.0,0.385992230577,-0.101046645993,0.3049012989,1.0,-0.24998,-0.328545142857,2.418
-0.133395163418,-0.435396294653,-0.136539689692,-2.57372634696,-0.0575758903139,2.13167652744,-0.400764611739,-0.943200426511,-0.509367749638,-0.0133860557238,-0.427870866905,-0.0767274144217,-0.0908074397743,-0.88016826947,0.573544967932,0.819147793679,0.00487942325542,0.0,0.819132958239,-0.573463792985,-0.0118836763226,0.0,-0.00693644822094,0.0108129273434,-0.999917479739,0.0,0.381726733812,-0.106613814003,0.304861333589,1.0,-0.24998,-0.328545142857,2.435
-0.147778566738,-0.442895440321,-0.136827144973,-2.57973854782,-0.0587779993968,2.13031144798,-0.414279729479,-0.974222681096,-0.493767344978,-0.0240207099427,-0.39257061321,-0.0848662100411,-0.0941215680603,-0.910117760271,0.57364136748,0.819079134229,0.00506954507485,0.0,0.819067478582,-0.573560659189,-0.0117210349972,0.0,-0.00669289244176,0.0108761794462,-0.999918453631,0.0,0.377787772652,-0.11192569842,0.304947945599,1.0,-0.24998,-0.328545142857,2.451
-0.164192916947,-0.451095885459,-0.137037782667,-2.58642711954,-0.0601402922305,2.12873801944,-0.429768313856,-0.964912400905,-0.472689986868,-0.0111682697117,-0.402392708454,-0.0819728037319,-0.0927885678459,-0.911714005692,0.573622602844,0.819091901032,0.00512972424157,0.0,0.819081125577,-0.573541864361,-0.0116870206095,0.0,-0.00663075998592,0.0109058094578,-0.999918544854,0.0,0.37380918369,-0.117139299793,0.30496607351,1.0,-0.24998,-0.328545142857,2.467
-0.182754746192,-0.45983415876,-0.137396806731,-2.59362341457,-0.0617176082973,2.12684310198,-0.447440423338,-0.969199652172,-0.44363252408,-0.0121916566877,-0.367181497657,-0.0841630856048,-0.101810398604,-0.925908195707,0.573556205036,0.819138764749,0.0050705671631,0.0,0.819125881232,-0.573473504017,-0.0119028479303,0.0,-0.00684237996929,0.0109805964944,-0.999916300666,0.0,0.36900318494,-0.123365957571,0.304909155671,1.0,-0.24998,-0.328545142857,2.486
-0.199689961226,-0.467234579439,-0.137691781779,-2.59965693897,-0.0629632237802,2.12532229923,-0.463486778902,-1.01183320343,-0.424096981105,-0.022569106044,-0.342337124956,-0.0684471859614,-0.0889022598375,-0.941689502558,0.573641532822,0.819078501818,0.00515233750429,0.0,0.81906608204,-0.57355754999,-0.011968166232,0.0,-0.0068478374332,0.0110857555505,-0.999915102969,0.0,0.364742296989,-0.128972049514,0.30487762429,1.0,-0.24998,-0.328545142857,2.503
-0.215723933787,-0.473978959462,-0.137888392616,-2.60484533398,-0.0641551632639,2.12388219974,-0.478736042075,-0.997016353635,-0.41366883316,-0.0134835582717,-0.314375940444,-0.0717562680841,-0.0964483750423,-0.957528744932,0.573631429868,0.81908510102,0.00522750958087,0.0,0.819074983335,-0.573549356238,-0.0117496610281,0.0,-0.00662586510376,0.0110219093848,-0.999917304293,0.0,0.360803231987,-0.134226984455,0.304971905768,1.0,-0.24998,-0.328545142857,2.519
-0.233957803712,-0.481055274216,-0.138151324464,-2.61042347691,-0.0653639736718,2.1223096952,-0.496158689802,-1.00568765222,-0.377369703323,-0.00664626093512,-0.308358658349,-0.0648644139749,-0.0854088340561,-0.962489143997,0.573660537783,0.819064108519,0.00532169408111,0.0,0.819055225998,-0.573578164333,-0.0117206256556,0.0,-0.00654766234447,0.0110826351401,-0.999917148226,0.0,0.356336646488,-0.140130529155,0.304988223601,1.0,-0.245669142857,-0.322879444898,2.537
-0.249042389257,-0.486494126678,-0.138253324854,-2.61483309531,-0.0662271561006,2.12095504287,-0.510616476902,-1.01600745104,-0.357483878658,-0.0114069561326,-0.284285226161,-0.0477384214607,-0.0956939788222,-0.96345540412,0.573633067959,0.81908318003,0.00534737672629,0.0,0.819073060747,-0.573547966914,-0.011949799524,0.0,-0.00672103214581,0.0112349086914,-0.999914298604,0.0,0.352634918057,-0.144897361088,0.304924862446,1.0,-0.241134857143,-0.316920097959,2.552
-0.266133663845,-0.492207910541,-0.138329842837,-2.61937876878,-0.0671809913098,2.11958012024,-0.526920811932,-0.993364332144,-0.328753294777,-0.0034835588554,-0.252395199032,-0.0441026896372,-0.0740005336014,-0.954052504004,0.5736690352,0.819057815686,0.00537396667641,0.0,0.819047398674,-0.573582750237,-0.0120388644777,0.0,-0.00677824195868,0.0113080749122,-0.999913087662,0.0,0.348532639015,-0.15026703981,0.304892833275,1.0,-0.235996,-0.310166171429,2.569
-0.282141541421,-0.497166661359,-0.138373899848,-2.62317898624,-0.0679576649275,2.11842428553,-0.542139217107,-0.999988223789,-0.303762941576,0.00122844957125,-0.232558831648,-0.0539415934206,-0.0685756460243,-0.944445316907,0.573799051638,0.818966017972,0.00548239437063,0.0,0.818957500033,-0.573713148247,-0.0119408361799,0.0,-0.00663394504717,0.0113417068267,-0.999913674504,0.0,0.34478410782,-0.155266859974,0.304926532081,1.0,-0.231159428571,-0.303809534694,2.585
-0.298703449851,-0.501983692812,-0.138301113865,-2.62687814482,-0.0686561087543,2.117198715,-0.558084694605,-0.975026923268,-0.270874972155,0.00296415568345,-0.210116908325,-0.0367681986843,-0.0632703331885,-0.93465465787,0.573741565619,0.819005722838,0.00556675321433,0.0,0.818998169693,-0.573655124444,-0.0119391431386,0.0,-0.00658495682918,0.0114093630357,-0.999913228625,0.0,0.340910909937,-0.160341490437,0.304942892447,1.0,-0.226020571429,-0.297055608163,2.602
-0.316206256292,-0.506562312025,-0.138282307805,-2.63033052025,-0.0693543885405,2.11607454791,-0.574820028674,-0.956011046915,-0.243532927345,0.0101807217668,-0.181898831367,-0.0416952833286,-0.0535282666827,-0.930911244806,0.573859244848,0.818922502233,0.00567885022958,0.0,0.818916975722,-0.573773361667,-0.0118263779907,0.0,-0.00642663780254,0.0114374034041,-0.999913938362,0.0,0.336889640814,-0.165712509127,0.30498306632,1.0,-0.220579428571,-0.289904391837,2.62
-0.332469135563,-0.510490390105,-0.138227699881,-2.63330350512,-0.0699352794618,2.11505454838,-0.590412029336,-0.952795292436,-0.221895112974,0.00193530091635,-0.170066291147,-0.0389095005012,-0.0584724279115,-0.908153951352,0.573949410709,0.818858669981,0.00577056706493,0.0,0.818854469153,-0.573863417137,-0.0117848937641,0.0,-0.00633876713976,0.0114894086686,-0.999913903053,0.0,0.333154293826,-0.170643767495,0.305003689778,1.0,-0.215440571429,-0.283150465306,2.637
-0.348283040385,-0.513930089323,-0.138072124267,-2.63600519538,-0.0704382959598,2.1140543257,-0.605765835187,-0.925041863183,-0.190978098686,0.00915437640495,-0.147196930818,-0.0273167838902,-0.0524870285241,-0.891936203019,0.573844241814,0.818932237584,0.00578992942147,0.0,0.818927336481,-0.573756477993,-0.0119276329227,0.0,-0.00644603771202,0.011586358024,-0.999912098589,0.0,0.329517149632,-0.175359559338,0.304966863816,1.0,-0.210301714286,-0.276396538776,2.654
-0.364065380048,-0.516926063808,-0.13799002022,-2.63842065766,-0.0708819526076,2.11321232336,-0.620908539276,-0.910620782091,-0.166743912605,0.00992734303602,-0.132973239986,-0.0195541155666,-0.0507946314337,-0.892840070424,0.5739806283,0.818836231612,0.00584902013692,0.0,0.818831035441,-0.573890686984,-0.0120814606819,0.0,-0.006536165394,0.0117241093334,-0.999909907843,0.0,0.325914241165,-0.180069888407,0.304904719325,1.0,-0.205162857143,-0.269642612245,2.671
-0.378455285749,-0.519397845692,-0.137810723466,-2.64037149713,-0.071204987167,2.11252153234,-0.634837638431,-0.902967104316,-0.148499388071,0.00747592868737,-0.110309725314,-0.0204212098891,-0.0509070426207,-0.872120481483,0.573979499052,0.818836610795,0.00590647016125,0.0,0.818831656846,-0.573888402163,-0.0121476957088,0.0,-0.00655744951115,0.0118091604088,-0.999908767632,0.0,0.322672622446,-0.18431903846,0.304873766429,1.0,-0.200326285714,-0.26328597551,2.687
-0.39355412634,-0.521711131468,-0.137608501231,-2.64212768679,-0.0715278731149,2.11183765245,-0.649445865868,-0.876382152516,-0.124206441092,0.0194938045517,-0.096217152397,-0.0269476769918,-0.0369069833856,-0.857840901085,0.573997392414,0.818823762718,0.00594861422746,0.0,0.818819212354,-0.573905844093,-0.0121625037335,0.0,-0.00654512861573,0.0118523132383,-0.99990833778,0.0,0.319298802119,-0.188770089946,0.304872425488,1.0,-0.195187428571,-0.25653204898,2.704
-0.406564866409,-0.523531004029,-0.137474523164,-2.64346498588,-0.0717398139663,2.11128998607,-0.662081268288,-0.870759484282,-0.109029493527,0.00556432839036,-0.0792271092022,-0.0219712596984,-0.0319510407896,-0.834693237516,0.574040853562,0.818792578543,0.00604637629068,0.0,0.818789336739,-0.57394892744,-0.0121407427179,0.0,-0.00647056342687,0.0119202202466,-0.999908015849,0.0,0.316393318949,-0.192597935047,0.304888956996,1.0,-0.190653142857,-0.250572702041,2.719
-0.421079717725,-0.525305151258,-0.137235381801,-2.64474389288,-0.0719515966839,2.11076423665,-0.676131449512,-0.84451734988,-0.0954683732112,0.0128947020013,-0.0714761585744,-0.0144532374772,-0.0274631417035,-0.823129509839,0.574086433398,0.818760170021,0.0061071988012,0.0,0.818758147248,-0.573995023901,-0.012064648878,0.0,-0.00637267493848,0.0119266996458,-0.999908567245,0.0,0.313183105613,-0.196840087827,0.304918903357,1.0,-0.185514285714,-0.24381877551,2.736
-0.436911622,-0.526897841615,-0.137046178091,-2.64591415417,-0.0721592800265,2.11028293748,-0.69149693452,-0.830800042028,-0.0839898914367,0.00300906023286,-0.0547814419965,-0.00768469847769,-0.0208728658883,-0.805371013645,0.574177243278,0.81869587744,0.00618873702263,0.0,0.818695172537,-0.574085947724,-0.0120119103838,0.0,-0.00628135548811,0.0119638850571,-0.999908700846,0.0,0.309676636893,-0.201475360553,0.304933450427,1.0,-0.179770857143,-0.236270269388,2.755
-0.449741625735,-0.527974486453,-0.136748499662,-2.64672072922,-0.072260274949,2.10992694148,-0.70408249499,-0.797954293986,-0.0663901546754,0.0158672052255,-0.0439231711136,-0.00291809517784,-0.0181557208155,-0.770824306841,0.574076816409,0.81876609786,0.00621552557107,0.0,0.818765791458,-0.573985522966,-0.0119977107935,0.0,-0.00625581759809,0.0119768979224,-0.999908705164,0.0,0.306853579913,-0.205173427303,0.304937631711,1.0,-0.174934285714,-0.229913632653,2.771
-0.464051104836,-0.528881865802,-0.136513282492,-2.64742084368,-0.072364043795,2.10958644276,-0.717894277003,-0.79562047718,-0.0441137943486,0.00982745216117,-0.0312794636957,-0.00666411003872,-0.0174321027555,-0.759814598587,0.574233203312,0.818656047207,0.00626510063688,0.0,0.818656168578,-0.574141244685,-0.0120272898478,0.0,-0.0062492812057,0.0120356641834,-0.999908040408,0.0,0.30369329929,-0.209320336164,0.304927752214,1.0,-0.169493142857,-0.222762416327,2.789
-0.474679804723,-0.529370272492,-0.136202568971,-2.64780765752,-0.0723881261222,2.109393153,-0.728393265477,-0.751503159363,-0.0315597916586,0.0169079259423,-0.0205664206667,-0.000515184067887,-0.0121841676342,-0.747594275941,0.574087480853,0.818758254888,0.0062634879387,0.0,0.81875830382,-0.573995461744,-0.0120331510843,0.0,-0.00625714860062,0.0120365958952,-0.999907979991,0.0,0.301379096086,-0.212362836109,0.304921732081,1.0,-0.165261142857,-0.217200359184,2.803
-0.487451711452,-0.529753139482,-0.135960889252,-2.64814073277,-0.0724120649217,2.10918969489,-0.740799404068,-0.753010959337,-0.0203648219491,0.0101282088082,-0.0201023318327,-0.00194766753828,-0.00987123761902,-0.717306246336,0.574187190019,0.818687999276,0.00630694534578,0.0,0.81868820258,-0.574094163719,-0.0120940084811,0.0,-0.00628056001298,0.012107879609,-0.999906972582,0.0,0.298569492679,-0.216046513147,0.304898892768,1.0,-0.160122285714,-0.210446432653,2.82
-0.500431425911,-0.529973529082,-0.135583008557,-2.6483191126,-0.0724122580036,2.10903067175,-0.753608006781,-0.713868794015,-0.0102238260187,0.0177702265522,-0.00988935067894,0.00992281006535,-0.012751814885,-0.704138270771,0.574050478767,0.818783980809,0.00629185977559,0.0,0.818783892182,-0.573957366983,-0.0121089095744,0.0,-0.0063034432752,0.0121030317955,-0.999906887277,0.0,0.2957401055,-0.219756435868,0.304894372019,1.0,-0.154681142857,-0.203295216327,2.838
-0.512441327358,-0.53003845959,-0.135312602143,-2.64841040142,-0.0724226434933,2.10892826984,-0.765281830893,-0.708173190875,-0.00346283338367,0.0129512999734,-0.00359131874665,-0.000170021185558,-0.00514473614364,-0.682416382548,0.574125615736,0.818731281317,0.00629390568224,0.0,0.818730968211,-0.574031996637,-0.0121497090565,0.0,-0.00633456557806,0.0121287082014,-0.999906379476,0.0,0.293089072931,-0.22319653637,0.304874757818,1.0,-0.149542285714,-0.196541289796,2.855
-0.525286196687,-0.529967071242,-0.134922167979,-2.64837076221,-0.0724091361319,2.10888888043,-0.777940978409,-0.657299396365,0.00473726908864,0.0224344518341,0.00626105963246,0.00458631525078,0.00474858758938,-0.655745926573,0.574010618574,0.81881221218,0.00625442641503,0.0,0.818811576212,-0.573917570924,-0.0121231739758,0.0,-0.00633719969687,0.0120802599266,-0.999906949281,0.0,0.290274282507,-0.226851588602,0.304873393683,1.0,-0.143798857143,-0.188992783674,2.874
-0.533807050137,-0.529816479421,-0.134683555592,-2.64826919866,-0.0724078874471,2.10888685458,-0.786279286458,-0.652105889113,0.00690502462221,0.0224758305519,0.00614997809253,-0.00052339471212,-0.00170172141872,-0.623309294569,0.573998376571,0.818821052434,0.00622050527437,0.0,0.818820075718,-0.573905676953,-0.0121121617996,0.0,-0.00634783199698,0.0120460677337,-0.999907294343,0.0,0.288398145669,-0.229281262094,0.304870547058,1.0,-0.139869142857,-0.183828016327,2.887
-0.544753573603,-0.52954114432,-0.134402944536,-2.64804900528,-0.0723788341737,2.10889439852,-0.796908775839,-0.628050768375,0.0215126659243,0.0184925552911,0.0169679403796,0.000719028960258,0.0026852702629,-0.621124289008,0.57408510097,0.818760385086,0.00620286700746,0.0,0.818759387956,-0.573992858437,-0.012083459716,0.0,-0.00633317869943,0.0120158211275,-0.99990775119,0.0,0.285977580554,-0.232403947889,0.304877990651,1.0,-0.134730285714,-0.177074089796,2.904
-0.555020609739,-0.529070881034,-0.133994135346,-2.64771448763,-0.0723089138498,2.10891877894,-0.807170050745,-0.601494208519,0.0327269997764,0.0213871915524,0.021741180427,0.00102485121899,-0.00109719041494,-0.591281367233,0.573850639829,0.818925256045,0.00613311340731,0.0,0.818923172736,-0.573758422129,-0.0121184608558,0.0,-0.00640531150998,0.0119769657998,-0.999907757883,0.0,0.283738214064,-0.235300339158,0.304870927161,1.0,-0.129591428571,-0.170320163265,2.921
-0.565175826832,-0.528528470402,-0.133700159291,-2.64733248083,-0.0722229723346,2.10900255992,-0.817021991645,-0.593899034354,0.037778420246,0.0163381958221,0.0253767487561,0.00265838128057,0.0101310664381,-0.57235658534,0.573950225889,0.818855538514,0.00612308328816,0.0,0.818853295311,-0.573857976981,-0.0121264139318,0.0,-0.00641612455201,0.0119740954818,-0.999907722934,0.0,0.281494807541,-0.238186262905,0.304861163183,1.0,-0.124452571429,-0.163566236735,2.938
-0.574761486644,-0.52783594718,-0.133345149529,-2.64680771147,-0.0720761130543,2.10913194449,-0.82652850743,-0.546712287424,0.0425075666222,0.0272445747599,0.0332264116152,0.0112669789873,0.00373607039585,-0.55261352913,0.573856898891,0.818921024622,0.00611244049372,0.0,0.818918830557,-0.573765067364,-0.0120972448618,0.0,-0.00639970653991,0.0119479100768,-0.999908141381,0.0,0.279415633707,-0.240909201242,0.304866802268,1.0,-0.119313714286,-0.156812310204,2.955
-0.583453760425,-0.527089741546,-0.133028731503,-2.64627647926,-0.0719126551987,2.10923912215,-0.835082213444,-0.544378429606,0.0468072438921,0.0196783761328,0.0343488215303,0.00864505250244,0.0092064025127,-0.526348050238,0.573846936121,0.818927925111,0.00612325726876,0.0,0.818925556173,-0.57375446977,-0.0121444953666,0.0,-0.00643234400714,0.0119838040466,-0.999907502418,0.0,0.27751794921,-0.243371024368,0.304852712126,1.0,-0.114477142857,-0.150455673469,2.971
-0.593496518052,-0.526154965014,-0.132692743067,-2.645554418,-0.071708614238,2.10939716064,-0.844820764323,-0.514074150702,0.0538031035433,0.0163654945989,0.042988395277,0.0069541857163,0.00642065574054,-0.506663669791,0.573986312842,0.818830041867,0.00614996808885,0.0,0.818828093552,-0.573893832675,-0.0121313201524,0.0,-0.00640418393136,0.0119992093918,-0.999907498423,0.0,0.275323800022,-0.246231796859,0.304861010191,1.0,-0.108733714286,-0.142907167347,2.99
-0.601763837945,-0.525174053268,-0.132271150089,-2.64486718143,-0.0714775803235,2.10955220877,-0.853088753404,-0.468071499333,0.0638834877763,0.030013967645,0.0383064880689,0.0141683637081,0.00293017039571,-0.487021822889,0.573825251041,0.818942971692,0.0061430679904,0.0,0.818940417909,-0.573731874624,-0.0122096215012,0.0,-0.00647463445813,0.0120372275443,-0.999906587768,0.0,0.273552303335,-0.248555702341,0.304838203935,1.0,-0.103594857143,-0.136153240816,3.007
-0.609353484159,-0.524300523538,-0.131942314812,-2.64422275048,-0.0712797454811,2.10971460609,-0.860524863665,-0.475458610929,0.0518616915885,0.0192020121451,0.043896565129,0.0131271606915,0.00679936182552,-0.453144808307,0.573838947171,0.818933315843,0.00615091973255,0.0,0.818930766203,-0.573745348802,-0.0122238208022,0.0,-0.00648155730444,0.0120519139056,-0.999906366009,0.0,0.271902661584,-0.250698947739,0.304833249971,1.0,-0.0987582857144,-0.129796604082,3.023
-0.616214651597,-0.523478566571,-0.131643625373,-2.64355639643,-0.07106529379,2.10987636853,-0.867175934997,-0.44939630644,0.0592288084021,0.017873234143,0.0453853188167,0.0156083401123,0.0147141458515,-0.432847508875,0.57392794345,0.81887075509,0.00617649470345,0.0,0.818868873794,-0.573834833572,-0.0121695608873,0.0,-0.00642113332937,0.0120424221685,-0.999906870221,0.0,0.270421855629,-0.252645600824,0.304856112649,1.0,-0.0942240000001,-0.123837257143,3.038
-0.623526144332,-0.522442732269,-0.131292570002,-2.64276235839,-0.070805118009,2.11006433521,-0.874371817435,-0.413645867739,0.0606986557627,0.0270412834823,0.0484671778528,0.0187311080726,0.0108297443068,-0.419889335089,0.573929067015,0.818869748478,0.00620547854527,0.0,0.818868211014,-0.573835760534,-0.0121704488307,0.0,-0.00640521019249,0.0120666757783,-0.999906679955,0.0,0.268856946809,-0.254720636866,0.304861835788,1.0,-0.0890851428572,-0.117083330612,3.055
-0.63111653388,-0.52134875377,-0.130854870666,-2.64193247072,-0.0705209705854,2.11028599989,-0.881943780197,-0.402507454164,0.0611564163352,0.0267456870676,0.0406260049678,0.0175525823697,0.0155914263289,-0.391856033773,0.573801161729,0.818959344054,0.0062101922226,0.0,0.818957933203,-0.57370798425,-0.0121572756871,0.0,-0.00639360075696,0.0120619773306,-0.999906810944,0.0,0.267237860877,-0.256851837489,0.304867162222,1.0,-0.0833417142858,-0.10953482449,3.074
-0.637319350359,-0.520459212876,-0.130517801514,-2.64121322765,-0.0703052004772,2.1104649695,-0.887916137074,-0.378014633318,0.0552180305062,0.0209949517378,0.0495908679751,0.0146633849606,0.0150076059012,-0.369330601329,0.573882316513,0.818902533337,0.00620278887258,0.0,0.818901365853,-0.573789797071,-0.0121065553321,0.0,-0.00635511421864,0.0120274418644,-0.999907472302,0.0,0.265905771729,-0.258602339497,0.304890790654,1.0,-0.0785051428572,-0.103178187755,3.09
-0.643091496957,-0.519523474136,-0.130221486915,-2.64049201226,-0.070043132365,2.11064412283,-0.893580769665,-0.354215609432,0.0613980717923,0.0161292177978,0.0452438287134,0.0189333398373,0.00363760241567,-0.339097215433,0.573911476968,0.818881720514,0.00625230463356,0.0,0.818881210172,-0.573818752782,-0.0120974991076,0.0,-0.00631885289379,0.0120630206157,-0.999907273517,0.0,0.264669260589,-0.260235991906,0.304897090571,1.0,-0.0736685714286,-0.0968215510205,3.106
-0.648516178341,-0.518616866067,-0.12991698836,-2.63982686775,-0.0697908378272,2.11083527959,-0.898834841274,-0.330027602108,0.0595477375384,0.0238121289046,0.0430856137232,0.0148429979452,0.0125974504627,-0.319514831025,0.573979251469,0.818833920881,0.00629092995178,0.0,0.818833830074,-0.57388617852,-0.012106185696,0.0,-0.00630279909938,0.0121001586366,-0.999906926111,0.0,0.263504582085,-0.261759201105,0.304889568847,1.0,-0.0688320000001,-0.0904649142858,3.122
-0.654395604382,-0.517603681028,-0.129453810964,-2.63909238164,-0.0695068702889,2.11103998881,-0.904726808673,-0.308785896418,0.0544220848643,0.0195802106782,0.0360947892699,0.0178821556722,0.00935573728432,-0.298472521907,0.573801565871,0.818958540229,0.0062784784603,0.0,0.818958092208,-0.573708214927,-0.0121356596153,0.0,-0.0063367094146,0.0121055043004,-0.999906647082,0.0,0.262264914318,-0.263377010375,0.304879056633,1.0,-0.0630885714286,-0.0829164081634,3.141
-0.659376422883,-0.51675470531,-0.129090396444,-2.63844062182,-0.0692572461191,2.11122342043,-0.909516721077,-0.284035354489,0.0468150111589,0.01895087929,0.0342378120288,0.0180464996953,0.0105174538409,-0.285149782357,0.573841579316,0.818930476472,0.00628199447666,0.0,0.81893022316,-0.573748488462,-0.0121123278008,0.0,-0.00631499112474,0.0120953053252,-0.999906907905,0.0,0.261210015782,-0.264757624963,0.304886878776,1.0,-0.0579497142858,-0.0761624816327,3.158
-0.663666614068,-0.51591323009,-0.128769714808,-2.63782819881,-0.0690170039766,2.11140111312,-0.913676857817,-0.251998090537,0.0535589903085,0.019896596643,0.0328743637156,0.0153352099927,0.00705865581566,-0.253475650898,0.57385596799,0.818920269639,0.00629816462201,0.0,0.81892010215,-0.573762561102,-0.0121299906836,0.0,-0.00631996585652,0.0121187944854,-0.999906592063,0.0,0.260311851096,-0.265953526489,0.304877814011,1.0,-0.0531131428572,-0.0698058448981,3.174
-0.667895932231,-0.515134889928,-0.128460493679,-2.63725352081,-0.0687778359821,2.11156328205,-0.917719220721,-0.248718630488,0.0399074846379,0.0188935891715,0.0312940788878,0.015793956327,0.00526389996011,-0.223584646984,0.573926411117,0.818870733082,0.00632012858665,0.0,0.818870812276,-0.573832812159,-0.0121343888879,0.0,-0.00630992024961,0.0121398488247,-0.999906400108,0.0,0.259363767789,-0.26718654921,0.304873891951,1.0,-0.0476720000001,-0.0626546285715,3.192
-0.671563823255,-0.51447024334,-0.128146060614,-2.63677535483,-0.0685528483932,2.11169980856,-0.921198246496,-0.224853046659,0.041493126741,0.0222110558318,0.0310546089406,0.0148677850033,0.00616430112235,-0.20836962379,0.573981777574,0.818831765819,0.00634075701533,0.0,0.818832028232,-0.573887906321,-0.0121460866552,0.0,-0.00630683924189,0.0121638815287,-0.999906127476,0.0,0.258592349851,-0.268173072406,0.304868304923,1.0,-0.0428354285715,-0.0562979918368,3.208
-0.674962023503,-0.513807933178,-0.127736302819,-2.63625409394,-0.0683233447423,2.11185039651,-0.924472858459,-0.19052864348,0.0366773875095,0.0277124531253,0.0336099430978,0.0124832274584,0.00559545091693,-0.186495372732,0.573910725352,0.818881860056,0.00630281674226,0.0,0.818881801611,-0.573817378156,-0.0121226407143,0.0,-0.00631046629491,0.0121188087793,-0.999906651888,0.0,0.257961205885,-0.269030470099,0.304879092153,1.0,-0.0379988571429,-0.0499413551021,3.224
-0.678300497946,-0.513166707584,-0.127300951996,-2.635756648,-0.0680628881225,2.1120099749,-0.9276792858,-0.171132536766,0.0254833024085,0.0143214475795,0.0243311026668,0.0168178115781,0.0116388548093,-0.152586339374,0.573846676395,0.818926920727,0.00627992041422,0.0,0.818926852301,-0.573754000119,-0.0120791071015,0.0,-0.00628889760641,0.0120745833947,-0.999907322807,0.0,0.257305132304,-0.269914842147,0.304892188542,1.0,-0.0322554285715,-0.0423928489797,3.243
-0.68079118833,-0.512684562559,-0.126975061905,-2.63540715965,-0.0678537264313,2.11211522181,-0.930067242009,-0.151020276279,0.030289620708,0.0241056473272,0.0179713014678,0.0138967342833,0.00782887521743,-0.13491205203,0.573806798202,0.81895485475,0.00628101260904,0.0,0.818954765942,-0.573714059278,-0.0120837257812,0.0,-0.00629264180451,0.0120778217475,-0.99990726014,0.0,0.25680842138,-0.270564116659,0.304889490964,1.0,-0.0274188571429,-0.036036212245,3.259
-0.683114683938,-0.512221365511,-0.12664486807,-2.6350782334,-0.0676237559725,2.11221018876,-0.93217008546,-0.123247279064,0.0286224222103,0.0193330107978,0.0187952953132,0.0149880812007,0.00205954457339,-0.127867974266,0.573868172513,0.8189117168,0.00629821924918,0.0,0.818911745218,-0.573775137489,-0.0120992580166,0.0,-0.00629458372902,0.0121012977914,-0.999906964076,0.0,0.256352696529,-0.271160063406,0.304883607673,1.0,-0.0222800000001,-0.0292822857144,3.276
-0.684834270878,-0.511896114995,-0.126385635366,-2.63482632632,-0.0674314311867,2.11227484049,-0.933691731567,-0.108838797094,0.018219920964,0.0166829753667,0.0124597602884,0.00901182481527,0.00131651724705,-0.0915913962466,0.57394107976,0.818860452299,0.00632008906596,0.0,0.818860821313,-0.57384803742,-0.0120885138973,0.0,-0.00627215600918,0.0121136012666,-0.999906956033,0.0,0.256021411644,-0.271597037567,0.304889424207,1.0,-0.019832173913,-0.0260651428571,3.291
-0.686550435343,-0.511581467184,-0.126152270227,-2.63458778453,-0.0672574398203,2.1123516362,-0.935282919792,-0.0962074617229,0.0179306052685,0.0113637902201,0.0135301901734,0.0108129263582,0.000546954133102,-0.090801049279,0.573964082641,0.818844175397,0.00633996511185,0.0,0.818844909019,-0.573871150488,-0.0120691554557,0.0,-0.0062445548011,0.0121189432218,-0.999907064057,0.0,0.255681880359,-0.272038434692,0.304893460634,1.0,-0.019492173913,-0.0256182857143,3.308
-0.687995152772,-0.511300804459,-0.125974936342,-2.63435693667,-0.0671436354141,2.11238455398,-0.93667864244,-0.0891702452364,0.0151283246887,0.00491998243887,0.0135978808268,0.0113872623875,0.00222994843727,-0.0830718527455,0.573938517065,0.818862096795,0.0063397131546,0.0,0.818862797231,-0.573845533633,-0.0120735140615,0.0,-0.00624864726765,0.0121210433713,-0.999907013034,0.0,0.255389493291,-0.272419986432,0.30490144233,1.0,-0.019172173913,-0.0251977142857,3.324
-0.689525742532,-0.510960023387,-0.125802768454,-2.63409215207,-0.067085135359,2.11247896158,-0.938233009195,-0.0835681596122,0.0180466378454,0.00862039687049,0.0118457825082,0.00155736117693,0.0111395143068,-0.0876548063654,0.573835146621,0.81893494926,0.00628651607173,0.0,0.818935144222,-0.57374278493,-0.0120496141251,0.0,-0.0062611274397,0.0120629732836,-0.999907637214,0.0,0.255082322217,-0.272846579069,0.304907624787,1.0,-0.018812173913,-0.0247245714286,3.342
-0.69109908738,-0.510627320664,-0.125717196735,-2.63383709014,-0.0670362067584,2.11254054855,-0.93985278147,-0.0820397965316,0.0142499477717,0.0018078645261,0.00832607849172,0.00257925303681,0.000907438449353,-0.0792553399987,0.573770324194,0.818980459145,0.00627451305876,0.0,0.818980454187,-0.57367794568,-0.0120572468428,0.0,-0.00627522061113,0.0120570261197,-0.999907620597,0.0,0.254735060793,-0.273295720591,0.304907497626,1.0,-0.018432173913,-0.0242251428571,3.361
-0.692328980334,-0.510372611679,-0.12568616722,-2.63363589344,-0.0669824495043,2.11257232176,-0.941072267654,-0.0841003294254,0.0131048054895,0.00326593030451,0.013267962925,0.0066192523864,0.00855334215878,-0.0803063175785,0.573790140549,0.818966404019,0.00629687206586,0.0,0.818966596401,-0.573697477897,-0.012069164665,0.0,-0.00627186151512,0.0120823281954,-0.999907336256,0.0,0.254454302444,-0.273650766321,0.304907953535,1.0,-0.018132173913,-0.0238308571429,3.376
-0.693756969136,-0.510047455141,-0.125672970745,-2.63338985047,-0.0669416438399,2.11265075285,-0.942517033175,-0.0760025829743,0.0170392001323,0.000112863826396,0.01278836872,0.00350001965214,0.00475684430068,-0.0710462879263,0.573797205298,0.818961355101,0.00630974993403,0.0,0.818961756414,-0.573704563232,-0.0120607859822,0.0,-0.00625750577792,0.0120881219126,-0.999907356174,0.0,0.254128828573,-0.274078474479,0.304906193241,1.0,-0.017772173913,-0.0233577142857,3.394
-0.694918991836,-0.509772995785,-0.125671209694,-2.63318637349,-0.0668982465997,2.1127253922,-0.943632404606,-0.073925567991,0.0153294222746,0.000203227751659,0.0153985159405,0.00417364670757,-0.000109693611603,-0.0762440953201,0.57386327707,0.818914895274,0.00633091072861,0.0,0.818915636186,-0.573770650424,-0.0120485859692,0.0,-0.00623439578204,0.0120989557577,-0.999907369499,0.0,0.253864486698,-0.274429443325,0.304903277604,1.0,-0.017472173913,-0.0229634285714,3.409
-0.696236198944,-0.509470708109,-0.125662467792,-2.63296159507,-0.0668598982728,2.11274943907,-0.945008050271,-0.0759182085878,0.0179229640067,0.00279800670202,0.012581333802,0.000407295510975,0.000492728290597,-0.0842298542999,0.573837305942,0.818932916674,0.0063538333275,0.0,0.818933658347,-0.57374400409,-0.0120924728401,0.0,-0.00625757075574,0.012142713793,-0.999906694302,0.0,0.253554552477,-0.274816265076,0.304895539338,1.0,-0.017132173913,-0.0225165714286,3.426
-0.697451804737,-0.509207181418,-0.125639660685,-2.63274486313,-0.0668314539861,2.11279909653,-0.946227001655,-0.0732072852867,0.0131545256592,-0.000128307211658,0.0108034547086,0.00105516236576,0.00136088489605,-0.0766585648803,0.573841599243,0.818929907258,0.00635396559662,0.0,0.818930708891,-0.573748408901,-0.0120832206109,0.0,-0.00624985341206,0.0121375458751,-0.999906805314,0.0,0.253277286896,-0.275177341596,0.304901004571,1.0,-0.016812173913,-0.022096,3.442
-0.698647584625,-0.508911168814,-0.125603270957,-2.63254170114,-0.0667950234461,2.11289185292,-0.947402363966,-0.0766901689494,0.024288964915,0.00328846840126,0.00905340512748,0.000247365676218,0.00221995388821,-0.0749618223886,0.573858569213,0.818918029387,0.00635221124942,0.0,0.818918851327,-0.573765466898,-0.0120768720141,0.0,-0.00624540902107,0.0121325956244,-0.99990689316,0.0,0.253011752501,-0.275531658463,0.304892235605,1.0,-0.016492173913,-0.0216754285714,3.458
-0.69994137018,-0.508604972173,-0.12556862575,-2.63229999419,-0.0667598066078,2.11293337701,-0.948737859258,-0.0707831736069,0.0229061721697,0.00202475991031,0.00956231014354,-0.00111609807116,0.00218810860273,-0.0737205318684,0.573827232893,0.818939974651,0.00635386573441,0.0,0.818940714839,-0.573733929412,-0.0120925894972,0.0,-0.00625779706353,0.0121427303014,-0.999906692685,0.0,0.252718604166,-0.275913546647,0.304892750596,1.0,-0.016132173913,-0.0212022857143,3.476
-0.701063019207,-0.508334486836,-0.125541657301,-2.63209943649,-0.0667252647923,2.11297022549,-0.949827094162,-0.062702801089,0.0214804230065,0.00183574901997,0.0131636657429,0.00183265082843,0.00210405421153,-0.0612541627297,0.573859731065,0.818917143394,0.00636146358406,0.0,0.818917814476,-0.573766059663,-0.0121189444373,0.0,-0.00627454026957,0.0121643242516,-0.999906325292,0.0,0.252461746873,-0.276242260817,0.30488722881,1.0,-0.015812173913,-0.0207817142857,3.492
-0.702417584795,-0.5079836719,-0.125513714747,-2.63184518324,-0.0666766814331,2.11304573233,-0.951229996142,-0.0661532374356,0.0164038732693,0.000528488195016,0.0180998657754,0.00403081295672,0.0105900571313,-0.0786101390661,0.57383419887,0.818934933395,0.00637447839156,0.0,0.818935685864,-0.573740301986,-0.0121307542033,0.0,-0.00627712408221,0.0121815639864,-0.999906099197,0.0,0.252157335132,-0.276646643553,0.304879570402,1.0,-0.015412173913,-0.020256,3.512
-0.703416356531,-0.507730435263,-0.125483868148,-2.6316456089,-0.0666502718154,2.11310384512,-0.952265539766,-0.0646606262464,0.0135540781869,-0.00240767374974,0.00881984960517,0.000686950674593,0.00543326475171,-0.0693279354845,0.573804334671,0.818955905752,0.00636842584177,0.0,0.818956639054,-0.5737105882,-0.0121215195995,0.0,-0.00627347751097,0.0121710794434,-0.999906249758,0.0,0.251936850475,-0.276947288463,0.304881830496,1.0,-0.015112173913,-0.0198617142857,3.527
-0.704550624763,-0.507461088229,-0.125447568818,-2.63143376322,-0.0666210996989,2.1131581105,-0.953367734688,-0.0655012084237,0.0152938906847,0.00140517341905,0.012375661163,0.00134213077385,0.00273441856174,-0.0676205440074,0.573828057728,0.818939333206,0.00636204326436,0.0,0.818940003433,-0.573734374359,-0.0121196269292,0.0,-0.00627523710196,0.0121649479269,-0.999906313332,0.0,0.251681953986,-0.277282691495,0.304883483654,1.0,-0.014772173913,-0.0194148571429,3.544
-0.705525798242,-0.507213755422,-0.125434084379,-2.63126005813,-0.0665967267203,2.11318788168,-0.954384539491,-0.0638664056582,0.0126893263844,0.00319820017303,0.0123626876899,0.00136294620573,0.00136056618079,-0.075298504484,0.573803828245,0.818956237341,0.0063714136748,0.0,0.818956781132,-0.573709625359,-0.0121574384573,0.0,-0.00630119001979,0.0121941319377,-0.999905794638,0.0,0.251453567961,-0.277569574336,0.304873351129,1.0,-0.014472173913,-0.0190205714286,3.559
-0.70657688285,-0.50695698564,-0.125433286536,-2.63104918199,-0.0665646843441,2.11323409549,-0.955470536685,-0.0646728061045,0.0176013588008,-0.000399850609391,0.0153743441474,0.00302618629178,0.00139149372358,-0.0635229661139,0.573799151667,0.818959409536,0.00638482418716,0.0,0.818960163214,-0.573704955139,-0.0121499966532,0.0,-0.00628746986438,0.0122008093341,-0.99990579955,0.0,0.251211809864,-0.27788957275,0.30487767675,1.0,-0.014132173913,-0.0185737142857,3.576
