nelsonifechukwu/NELSON_IML_WORK/CNN-GradCAM/train2dof/data_sample_2022-02-22-09-08-17/robot_state.csv
position_joint1,position_joint2,position_joint3,position_joint4,position_joint5,position_joint6,position_joint7,velocity_joint1,velocity_joint2,velocity_joint3,velocity_joint4,velocity_joint5,velocity_joint6,velocity_joint7,ee_T_00,ee_T_10,ee_T_20,ee_T_30,ee_T_01,ee_T_11,ee_T_21,ee_T_31,ee_T_02,ee_T_12,ee_T_22,ee_T_32,ee_T_03,ee_T_13,ee_T_23,ee_T_33,v_x,v_y,time
0.465071137556,0.547793254978,-0.123997038802,-1.35584194217,0.0795218823883,1.89411084302,0.159154902831,-3.10225787371e-05,-0.00178815111533,-2.92086249842e-05,0.00185513394841,8.44882489956e-05,0.000382809522524,0.00107819192289,0.573816657479,0.81896972416,0.00194458494024,0.0,0.818926350444,-0.573757953912,-0.01192433528,0.0,-0.00865011504001,0.00843501646144,-0.99992701034,0.0,0.661678153131,0.260886883404,0.303202790939,1.0,0.0,0.0,0.0
0.465070406652,0.54779816441,-0.123997374253,-1.35584795933,0.0795211703115,1.89411013095,0.159149009635,-0.000974571476084,0.000590305859543,0.000420929241274,-1.14332346677e-05,0.000102873309059,0.000108715139639,-0.00120128481789,0.573812807486,0.818972445961,0.00193432738628,0.0,0.81892893849,-0.573754147134,-0.0119297632274,0.0,-0.00866048575147,0.00842968990095,-0.99992696549,0.0,0.661676807489,0.26088526052,0.30319639722,1.0,-0.00028,-0.000368,0.015
0.465067757933,0.547795308835,-0.123996770227,-1.35585165599,0.0795205599599,1.89411013095,0.159152040622,0.000298397293628,0.000650473741852,0.000294869204405,-0.000109076207837,-0.000252336528891,0.000346106221605,0.000838513441886,0.573817071857,0.818969459894,0.00193357362464,0.0,0.818925941674,-0.573758413232,-0.0119303059429,0.0,-0.00866131883689,0.00842942911649,-0.999926960473,0.0,0.661676621995,0.260883357105,0.303196639612,1.0,-0.00062,-0.000814857142857,0.032
0.465063873423,0.547761648583,-0.123992573734,-1.35587990496,0.0795205424354,1.89411362474,0.159156078326,-0.00131871323126,-0.00459813121896,0.00140988015816,-0.00500761661161,-0.000304819473664,-3.29802643289e-05,0.00227350802044,0.57382213052,0.818965891384,0.00194375303188,0.0,0.8189224609,-0.573763384973,-0.0119301298425,0.0,-0.00865528174263,0.00843771799204,-0.999926942838,0.0,0.661671785332,0.260880540994,0.303207204252,1.0,-0.00094,-0.00123542857143,0.048
0.465069404048,0.547672693122,-0.123997716671,-1.35599426026,0.0795206447503,1.8941408524,0.159152277799,0.000656630690445,-0.00278333371868,-2.04794641441e-05,-0.0104501173193,6.15833646752e-05,0.00468290326159,-0.00107590812463,0.573824385082,0.818964299712,0.00194879013301,0.0,0.81892087709,-0.573765561861,-0.0119341522811,0.0,-0.00865566264826,0.0084441750957,-0.999926885033,0.0,0.6616530838,0.260870684364,0.303218328282,1.0,-0.00128,-0.00168228571429,0.065
0.465059567973,0.547530598591,-0.123994945385,-1.3561984698,0.0795133194649,1.89418114221,0.159146847489,0.000498358581842,-0.00822397727616,-0.000331076515835,-0.0105734978057,-0.000179635190668,0.00347140511115,0.000457335521174,0.573835291311,0.818956690435,0.00193508106918,0.0,0.818912981809,-0.573776419719,-0.0119538822481,0.0,-0.00867957506473,0.00844438509112,-0.99992667598,0.0,0.661620391374,0.260844950528,0.303225185258,1.0,-0.00164,-0.00215542857143,0.083
0.465045944471,0.547388552691,-0.123997067483,-1.35639132265,0.0795112743607,1.89428156488,0.159137466346,0.000766007964712,-0.00525777192284,-0.00509334272635,-0.0166803192873,0.000332525008802,0.00297674007418,0.000782496413488,0.573850683021,0.818945795243,0.00198114904008,0.0,0.818902651234,-0.573791581605,-0.0119338000169,0.0,-0.00863653498403,0.00847075058031,-0.999926825647,0.0,0.661604113248,0.260820179911,0.303242802763,1.0,-0.00194,-0.00254971428571,0.098
0.465026821778,0.547191675645,-0.124000314021,-1.35661706248,0.0795102021365,1.89440805072,0.159132930097,-0.00156754495321,-0.00738690381465,-0.00393647351333,-0.0179610518943,0.000445150449252,0.0085172965372,-0.00287122630799,0.573877462705,0.818926810503,0.00206971969276,0.0,0.81888478687,-0.57381796058,-0.0118912089121,0.0,-0.00855055207899,0.00851912278798,-0.99992715365,0.0,0.66158857713,0.260789872604,0.303285902815,1.0,-0.00228,-0.00299657142857,0.115
0.464997440848,0.546975629135,-0.123990645357,-1.35690174787,0.0795041784348,1.89453370222,0.159122694638,-0.000716772329777,-0.00659114239902,0.00191986136875,-0.0159785032789,-0.000222249280076,0.00255467810886,0.00148477178188,0.5739008071,0.818910305581,0.00212648186481,0.0,0.818868903567,-0.573840955177,-0.0118753456213,0.0,-0.00850474426986,0.00855674505363,-0.999927223071,0.0,0.66155983011,0.260752640937,0.303314007147,1.0,-0.00264,-0.00346971428571,0.133
0.464970781315,0.546744798505,-0.123992444064,-1.35724518175,0.079498308236,1.89466376195,0.159100480535,-0.00110907085433,-0.0153354444471,0.000288704231684,-0.0254793265277,-9.81380412829e-06,0.00900588456774,-0.0045741839204,0.573923375884,0.818894430271,0.00214885723927,0.0,0.818853200258,-0.57386331114,-0.0118778557367,0.0,-0.00849372310635,0.00857674281882,-0.999927145421,0.0,0.661520768399,0.260704109515,0.303325371506,1.0,-0.00296,-0.00389028571429,0.149
0.464930706968,0.54647028881,-0.123995596679,-1.3576515027,0.0794895627402,1.89481908625,0.158997416367,-0.000212419087904,-0.0155565368816,0.00134948614645,-0.0277893308637,-0.00167445287675,0.00581044959016,-0.00710614199157,0.573894429323,0.818914641319,0.00217741302808,0.0,0.818873659219,-0.573834128575,-0.0118772901889,0.0,-0.00847717613927,0.00859950241586,-0.999927090364,0.0,0.661477414673,0.260640279594,0.303339957031,1.0,-0.0033,-0.00433714285714,0.166
0.464888128687,0.546174648408,-0.123998680828,-1.35813569368,0.0794765378302,1.89498286696,0.158917337011,-0.00440262660632,-0.0204504939351,-0.00184108117414,-0.0257947982224,-0.00023949446392,0.0128651189057,-0.000847083876811,0.573889434754,0.818918175193,0.00216469817894,0.0,0.818876869675,-0.573829025764,-0.011902453716,0.0,-0.00850513278046,0.00860347934744,-0.999926818752,0.0,0.661419268896,0.260565740889,0.303333148798,1.0,-0.00364,-0.004784,0.183
0.464838152118,0.545868928269,-0.123995746774,-1.35865387552,0.0794572690765,1.89514860462,0.158886408008,-0.00500257613329,-0.0219312898612,-0.000868044495384,-0.0378518844276,0.000207624825484,0.00793677918813,-0.00616270480491,0.573926715644,0.818892133864,0.0021319161052,0.0,0.818850238056,-0.573866270676,-0.0119389244337,0.0,-0.00855342124075,0.00859795323607,-0.999926454388,0.0,0.661354824121,0.260485011093,0.303317239595,1.0,-0.00396,-0.00520457142857,0.199
0.464774961153,0.54552762636,-0.123994686019,-1.35925730771,0.0793492901655,1.89535655559,0.15880093387,-0.00632439913835,-0.0192746819654,-0.000317349051447,-0.0412009937645,-0.00284187028104,0.010439471773,-0.00780733793323,0.573912731525,0.818902154475,0.00204570072716,0.0,0.818859744566,-0.573853250119,-0.0119127225419,0.0,-0.00858158736635,0.00851216899447,-0.999926947,0.0,0.661288938917,0.260373307012,0.303289489202,1.0,-0.0043,-0.00565142857143,0.216
0.464706330589,0.545132485909,-0.124000925745,-1.35995667446,0.0793202038174,1.89557534244,0.158708792026,-0.00487835483612,-0.0250083861499,-0.000623406122583,-0.0375556693202,-0.000426297638486,0.0103109316771,-0.00427407594511,0.573928984067,0.818890929027,0.00197851134395,0.0,0.818847489529,-0.573869628046,-0.0119660268847,0.0,-0.00866363010504,0.00848791211884,-0.999926445726,0.0,0.661203182127,0.260256610919,0.303255493767,1.0,-0.00464,-0.00609828571429,0.233
0.464642166026,0.544718345437,-0.124001345429,-1.36063617148,0.0792991771036,1.89579983698,0.158633523332,-0.00152084276401,-0.0215010626356,0.000630031255853,-0.0425827264723,-0.000959840833896,0.0120107188151,-0.0048271190749,0.573952364412,0.818874599308,0.00195471116598,0.0,0.81883062394,-0.573892885963,-0.0120046507706,0.0,-0.0087086764263,0.00849083853232,-0.999926029572,0.0,0.661120606516,0.260150551877,0.303244684993,1.0,-0.00496,-0.00651885714286,0.249
0.464570881664,0.544243321275,-0.124004864384,-1.36143724735,0.0792720429285,1.89609415049,0.158534428015,-0.000779993708962,-0.0233017237734,-0.000869820041763,-0.046999513409,0.000241712858997,0.0169004133954,-0.00776895745778,0.573969565488,0.818862584514,0.00193713114593,0.0,0.818818188486,-0.573909974216,-0.0120358880385,0.0,-0.00874416785246,0.00849455519002,-0.999925688269,0.0,0.661028409256,0.260028112337,0.303225214736,1.0,-0.00532,-0.006992,0.267
0.46449416268,0.543726762758,-0.124007489543,-1.36226848019,0.0792327205061,1.89637890835,0.158424003387,-0.00391628350554,-0.0286450420828,-0.00123209298889,-0.0481068117653,-8.36162812913e-05,0.015984323886,-0.00537047441776,0.573979522364,0.818855652242,0.00191718501302,0.0,0.818810866894,-0.573919891368,-0.0120610716465,0.0,-0.00877613504324,0.00849278357779,-0.99992542326,0.0,0.66093023538,0.259896951278,0.303219843387,1.0,-0.00566,-0.00743885714286,0.284
0.46442435213,0.543258184818,-0.124016098213,-1.36301811046,0.079189048435,1.89663597983,0.158341185557,-0.00265470157807,-0.0317505662517,-0.00143954655395,-0.0478297547187,-0.00771277651945,0.0184061147119,-0.00692163059803,0.574004879734,0.81883792767,0.00189556091109,0.0,0.818792853704,-0.573945334083,-0.012073239347,0.0,-0.00879824734031,0.00848233333834,-0.999925317644,0.0,0.660843771422,0.25977337068,0.303217093544,1.0,-0.00596,-0.00783314285714,0.299
0.464340656992,0.542661491004,-0.124017143878,-1.36397083212,0.0791318774054,1.89698320593,0.158203788782,-0.00230316443792,-0.031858519824,-0.000514624768125,-0.0545413139382,-0.000200286748337,0.0208377710947,-0.00596346675179,0.573999383102,0.818841799118,0.00188762194243,0.0,0.81879660401,-0.573939856185,-0.0120793065108,0.0,-0.00880782918726,0.00847925617359,-0.999925259387,0.0,0.660734381809,0.259626513017,0.303215805846,1.0,-0.00632,-0.00830628571429,0.317
0.46426935291,0.542031240822,-0.124017696775,-1.36494739059,0.0790752274169,1.89734427006,0.158071695334,-0.0023073277167,-0.0324284464703,-0.00044282756971,-0.0541069131256,-0.000252207784314,0.0228174920364,-0.00472433744558,0.573989141379,0.818848947053,0.00190115492168,0.0,0.818803900126,-0.573929528782,-0.0120754309239,0.0,-0.00879699431833,0.00848800271277,-0.999925280559,0.0,0.660619626994,0.25948677376,0.303228005289,1.0,-0.00668,-0.00877942857143,0.335
0.464180227965,0.541418220154,-0.124012311412,-1.36587017002,0.0790153550457,1.89768370832,0.157947100715,-0.00441055206902,-0.0373584695258,-0.000548313271383,-0.0596050513003,-0.00180948306817,0.0174285746858,-0.00992218843505,0.573991509706,0.818847229182,0.00192586285493,0.0,0.818802507473,-0.573931791291,-0.0120623216036,0.0,-0.00877205359376,0.00850073518799,-0.999925391505,0.0,0.660515798187,0.259342885192,0.303251446536,1.0,-0.007,-0.0092,0.351
0.464101043106,0.540729855614,-0.124021839067,-1.36693714156,0.0789572738019,1.89807702813,0.157827310714,-0.00565435264803,-0.0390568665295,-0.000267306668809,-0.0607915830433,-0.0074201777448,0.0311125013195,-0.00808912829446,0.574008579766,0.818835231901,0.00193913740182,0.0,0.818790663358,-0.573948781907,-0.0120578707336,0.0,-0.00876061249759,0.00850923268347,-0.999925419533,0.0,0.660391981471,0.259184739082,0.30326461099,1.0,-0.00734,-0.00964685714286,0.368
0.464001607293,0.539990780536,-0.124023318732,-1.36803810057,0.0788930907751,1.89848199744,0.157682098345,-0.00312751087517,-0.0413567606358,-0.00150088881121,-0.061666184961,-0.00736511868636,0.0247399599279,-0.00437077838224,0.574015883043,0.81883002066,0.00197741787589,0.0,0.818785929558,-0.573955897033,-0.0120406278891,0.0,-0.00872444490499,0.00853075782728,-0.999925552345,0.0,0.660267519728,0.259014335179,0.303298056543,1.0,-0.00768,-0.0100937142857,0.385
0.463909662082,0.539289009121,-0.124021893027,-1.36912809674,0.0788313827773,1.89889742329,0.157548854554,-0.00535196310127,-0.0429018808969,-0.00115106729912,-0.0621750967677,0.000714992261491,0.0275942770768,-0.0104612150289,0.574024940676,0.818823610533,0.00200230273435,0.0,0.818779807365,-0.573964810621,-0.0120320455897,0.0,-0.0087030392626,0.00854630384578,-0.999925606132,0.0,0.660143736972,0.25885248805,0.303311067997,1.0,-0.008,-0.0105142857143,0.401
0.463804689597,0.53853313642,-0.124028624958,-1.37032064633,0.0787657725623,1.89935735705,0.157389664221,-0.00332081318916,-0.0457672989528,-0.00047133651029,-0.0711910915099,-0.00392729547187,0.0260936860597,-0.00996924110071,0.574033753914,0.818817382113,0.00202262674609,0.0,0.818773833243,-0.573973525241,-0.0120228623561,0.0,-0.00868376166551,0.00855776742869,-0.999925675688,0.0,0.660011760803,0.258668241875,0.303317504516,1.0,-0.00834,-0.0109611428571,0.418
0.463691173923,0.537748077956,-0.124035390149,-1.37153963599,0.0786897025742,1.89983629123,0.157253108822,-0.00816565626821,-0.0454058586447,-0.00132706197223,-0.0701760851332,-0.00695904281102,0.0325774706608,-0.00877095175381,0.574066708532,0.818794194558,0.00205621345158,0.0,0.81875117159,-0.574006420307,-0.0119956395147,0.0,-0.00864184665421,0.0085699894643,-0.999925934141,0.0,0.659880767625,0.258475195331,0.303333467352,1.0,-0.00868,-0.011408,0.435
0.463592504378,0.536970909862,-0.124033221928,-1.37276459209,0.0786245236886,1.900280747,0.157100155071,-0.00528623349612,-0.0475793909465,0.000762267517018,-0.0782263275153,-0.00614472811359,0.0223612073233,-0.00452465684862,0.574070726097,0.818791372133,0.0020584609325,0.0,0.818748260301,-0.574010310696,-0.0120081792602,0.0,-0.00865078232821,0.00857907066807,-0.999925779001,0.0,0.659734547237,0.258295755062,0.303337619531,1.0,-0.009,-0.0118285714286,0.451
0.463470882225,0.53611784012,-0.124041404745,-1.37407854626,0.0785457975064,1.90077663641,0.156935556699,-0.00837503236727,-0.0497096999641,-0.00202110756496,-0.083970088415,-0.0079527839953,0.0294807972063,-0.00179205822411,0.574092518357,0.818776022874,0.00208605702836,0.0,0.818733309141,-0.57403202216,-0.0119897013378,0.0,-0.00861958239615,0.00859128761815,-0.999925943546,0.0,0.659588718247,0.258086911369,0.303357624501,1.0,-0.00934,-0.0122754285714,0.468
0.463349342213,0.535222794978,-0.124048053752,-1.37550184113,0.0784649663732,1.90128491786,0.156764609836,-0.00813150481576,-0.0530682220047,-0.00132835644479,-0.0836266156314,-0.0102454295505,0.031103773086,-0.0124331648986,0.574113148888,0.818761597927,0.00207000843211,0.0,0.818718616342,-0.574052659215,-0.0120049408572,0.0,-0.00864105708135,0.00858711416566,-0.999925794048,0.0,0.659420487174,0.257867104435,0.303356078884,1.0,-0.00968,-0.0127222857143,0.485
0.463231194679,0.534380574559,-0.124048534917,-1.37687598253,0.0783920979215,1.90179466013,0.156593252769,-0.00625955810313,-0.0562708717231,-8.42281112118e-05,-0.0895717939187,-0.00363105231238,0.0323198337877,-0.00873138683943,0.574125819147,0.818752751195,0.00205501826808,0.0,0.818709463279,-0.574065281359,-0.0120255717733,0.0,-0.0086664221893,0.00858681947122,-0.99992557706,0.0,0.659259510506,0.25765965297,0.303340436964,1.0,-0.01,-0.0131428571429,0.501
0.463094808698,0.53339411496,-0.124056697629,-1.37844720519,0.0782978706969,1.90236827739,0.156398640947,-0.00706642451008,-0.0635688551833,-0.00102648762017,-0.0908593915575,-0.00217493110852,0.0356829355629,-0.0113845852106,0.574144586423,0.818739620515,0.00204317922333,0.0,0.818696178772,-0.574084097272,-0.0120317506753,0.0,-0.00867808136198,0.00858087274648,-0.99992552699,0.0,0.659076493567,0.257415126502,0.303338308161,1.0,-0.01036,-0.013616,0.519
0.462964275457,0.532451115014,-0.124060210342,-1.37998273869,0.078219195838,1.9029470912,0.156199968096,-0.00602125426455,-0.0561285707092,-0.00127277475797,-0.0934563168013,-0.00600805223902,0.0408699104169,-0.016721930869,0.574154227243,0.818732876518,0.00203645476377,0.0,0.818689224389,-0.574093644451,-0.0120494054239,0.0,-0.00869629605663,0.0085856059305,-0.999925328115,0.0,0.658897829172,0.257183698079,0.303322650938,1.0,-0.0107,-0.0140628571429,0.536
0.462839129069,0.531524728826,-0.124055676387,-1.38146364356,0.0781355170747,1.90348180491,0.156013262139,-0.011935458721,-0.0565751558283,0.000428713343935,-0.0936874551654,-0.00892875592857,0.0340179063154,-0.011173679494,0.574158873032,0.818729650831,0.00202343031833,0.0,0.818685709239,-0.574098227937,-0.0120698412954,0.0,-0.00872045708508,0.00858672528217,-0.999925108084,0.0,0.658719315257,0.256963001904,0.303316975501,1.0,-0.01102,-0.0144834285714,0.552
0.462708204872,0.5305086098,-0.124055611912,-1.38309857159,0.078026999138,1.90405712326,0.155808951639,-0.00617224451639,-0.062337073283,0.000812210773527,-0.0954130825117,-0.0087156465794,0.0392315440678,-0.0175847284599,0.574158370968,0.818730106665,0.00198100706824,0.0,0.818685625643,-0.574097924444,-0.0120899303575,0.0,-0.00876126660649,0.00856352160455,-0.999924950336,0.0,0.65851877347,0.256717580123,0.303304658398,1.0,-0.01136,-0.0149302857143,0.569
0.462569931655,0.52947373213,-0.124056358263,-1.38474176906,0.0779322641693,1.904671048,0.155574431727,-0.00781901218361,-0.0617076337061,0.00372537291771,-0.0938033010523,-0.0087289401998,0.0392920280698,-0.02089326416,0.574143966839,0.818740192534,0.00198730302586,0.0,0.81869573541,-0.574083437605,-0.0120932373708,0.0,-0.00876051040767,0.0085704207954,-0.999924897852,0.0,0.658325357104,0.256470961518,0.303304783283,1.0,-0.0117,-0.0153771428571,0.586
0.462439578194,0.528429621595,-0.124056673959,-1.38633758685,0.0778278317189,1.90528090134,0.15536575588,-0.0121907721974,-0.0637196374205,-0.000483725587303,-0.100662250104,-0.00648632678029,0.0397490137917,-0.0148177148796,0.574138534286,0.818743892864,0.0020318085806,0.0,0.81870010231,-0.57407789669,-0.0120605932865,0.0,-0.00870828836278,0.0085880585917,-0.999925202684,0.0,0.658140411663,0.256233743814,0.303333303582,1.0,-0.01202,-0.0157977142857,0.602
0.462280952516,0.527243241513,-0.124061792802,-1.38819367782,0.0777149176449,1.90599127163,0.155104654551,-0.00883211033205,-0.0688749411044,-0.000112810798491,-0.107926843979,-0.00629547864652,0.041162909649,-0.0154900661056,0.574128420111,0.818750905703,0.00206362139818,0.0,0.818707568286,-0.574067685038,-0.0120398308672,0.0,-0.00867313105282,0.00860207714759,-0.99992538775,0.0,0.657926620282,0.255951563998,0.303346726879,1.0,-0.01238,-0.0162708571429,0.62
0.4621418052,0.526142397075,-0.124064844163,-1.389894459,0.0776058062141,1.90662351651,0.15488060397,-0.0114994104336,-0.0754902670384,-4.30351968955e-05,-0.104954927297,-0.00929520298663,0.0375759452522,-0.0135076497693,0.574123436144,0.818754341622,0.00208687459237,0.0,0.818711360118,-0.574062655185,-0.0120217984216,0.0,-0.00864506932659,0.00861070993718,-0.999925556454,0.0,0.657725168758,0.255696082487,0.303366715216,1.0,-0.0127,-0.0166914285714,0.636
0.461979607501,0.524969032138,-0.124071144894,-1.39173679205,0.0774928659681,1.90728435937,0.154632577585,-0.0100381289448,-0.0679163330463,0.000690304001393,-0.102923325323,-0.00507766794359,0.0344124132191,-0.00998106644806,0.574126259221,0.818752384186,0.00207816362783,0.0,0.818709271551,-0.574065497388,-0.0120283118485,0.0,-0.00865537360975,0.00860734723431,-0.999925496265,0.0,0.65750439918,0.255409065284,0.303372661728,1.0,-0.01304,-0.0171382857143,0.653
0.461832575445,0.523856645732,-0.12408254997,-1.39352701868,0.0773751768684,1.90793094705,0.15438115238,-0.00750071267737,-0.0706176819741,-0.00145568367508,-0.109301120699,-0.00627002229033,0.0409037497814,-0.0145931963558,0.574113220115,0.81876161488,0.00204337699478,0.0,0.818718127,-0.574052685909,-0.0120369939581,0.0,-0.00868258972601,0.00858371241076,-0.999925463481,0.0,0.65728838874,0.255132739337,0.303359170507,1.0,-0.01336,-0.0175588571429,0.669
0.461662524925,0.52256843166,-0.124083279363,-1.39557173043,0.0772591673578,1.90871398173,0.154108058071,-0.00643966780297,-0.0786477980755,-0.000216974043109,-0.114812653518,-0.00681058862169,0.0475006580943,-0.0182742121471,0.574107944828,0.818765251681,0.00206814585074,0.0,0.818722021357,-0.574047240771,-0.0120317916339,0.0,-0.00866416629825,0.00860094931387,-0.99992547517,0.0,0.657047100688,0.254829118969,0.303359349691,1.0,-0.01372,-0.018032,0.687
0.461496955958,0.521329410723,-0.124086161597,-1.39755597094,0.0771302845268,1.90949475323,0.153849593368,-0.00871806504192,-0.0748000198055,-0.000984741079491,-0.122363578184,-0.00422760374958,0.0458405850988,-0.0220974720651,0.574105554505,0.818766872941,0.00208972795134,0.0,0.818724047313,-0.574044882005,-0.0120064439745,0.0,-0.0086310471273,0.0086040423562,-0.999925734983,0.0,0.656817662826,0.254531534568,0.30335324003,1.0,-0.01406,-0.0184788571429,0.704
0.461318441837,0.519964558313,-0.124091849904,-1.39971450778,0.0769991029187,1.9102740387,0.153543358405,-0.00896720633846,-0.0750652225723,-0.00139975479667,-0.120466757389,-0.00233690541232,0.0427540744137,-0.0214309195453,0.574084586241,0.818781609235,0.00207632392564,0.0,0.818738567258,-0.574023931591,-0.0120179593403,0.0,-0.00864839097366,0.00859945725758,-0.999925624568,0.0,0.656553417754,0.254204399857,0.303352131688,1.0,-0.01442,-0.018952,0.722
0.461148730489,0.518605399739,-0.124096827199,-1.40178699419,0.0768684962652,1.9110133049,0.153270549185,-0.0112561834336,-0.0799575897834,-0.00117580773026,-0.11932279564,-0.00908317701009,0.0444888681455,-0.0214391800428,0.574078340809,0.818785937058,0.00209637543735,0.0,0.818743154199,-0.574017599969,-0.0120078840464,0.0,-0.00862869632295,0.00861002495759,-0.999925703775,0.0,0.656298163384,0.253891046923,0.303384007618,1.0,-0.01476,-0.0193988571429,0.739
0.460997540667,0.517428707827,-0.124098930677,-1.4036740824,0.0767393596264,1.91168530757,0.153006232253,-0.0135741490638,-0.0837593136533,-2.10112646712e-05,-0.127243393802,-0.0153253264208,0.0434623500757,-0.0209257870936,0.574052153282,0.818804401247,0.00205541029465,0.0,0.818761143582,-0.573991648024,-0.0120218409234,0.0,-0.00866391472401,0.0085842190247,-0.999925621117,0.0,0.656062410053,0.253606867847,0.303369830274,1.0,-0.01506,-0.0197931428571,0.754
0.460813105691,0.516065981267,-0.124105670295,-1.40582406796,0.0766078717451,1.91248975598,0.15271566541,-0.0119026260109,-0.0832893701437,-0.00118735694205,-0.125208460086,-0.0055038544124,0.044373776224,-0.0209426170824,0.574048304202,0.818807070535,0.00206702337191,0.0,0.818763976674,-0.573987762446,-0.0120144065562,0.0,-0.00865120147879,0.00858941935838,-0.999925686533,0.0,0.655804639261,0.253278014531,0.303372313889,1.0,-0.0154,-0.02024,0.771
0.46062714101,0.514685910126,-0.124107089845,-1.40804419674,0.076472466156,1.91331441357,0.152412082363,-0.0119025144935,-0.0811938041978,-0.00302887369083,-0.132993745496,-0.0119903877112,0.0445053106462,-0.0199418605008,0.574033579841,0.818817431187,0.00205195057913,0.0,0.818774105668,-0.573973069119,-0.0120260847736,0.0,-0.00866957038609,0.00858362575577,-0.99992557719,0.0,0.655533277028,0.252943968049,0.303354767468,1.0,-0.01574,-0.0206868571429,0.788
0.460445982892,0.513366256997,-0.124105970351,-1.41017417218,0.0763511957063,1.91405125248,0.152123470997,-0.0069824456096,-0.077578036689,0.000187155793301,-0.134056769654,-0.00502973825537,0.0466219398108,-0.0197375182059,0.574023809252,0.818824420937,0.00199524167922,0.0,0.818780144889,-0.573963336403,-0.0120793088355,0.0,-0.0087458058753,0.00856764009572,-0.999925050403,0.0,0.655260811197,0.252620895051,0.303329690818,1.0,-0.01606,-0.0211074285714,0.804
0.460253282844,0.511923809843,-0.124108931806,-1.4124553901,0.0762080490815,1.91486427932,0.151795388627,-0.012217180182,-0.0848442896271,0.00120194794079,-0.132625192245,-0.0109164564978,0.0471720071469,-0.0214156213096,0.573995721017,0.818844169065,0.00197127994701,0.0,0.818799534918,-0.573935312145,-0.0120965281509,0.0,-0.00877395329634,0.00855760326194,-0.999924889764,0.0,0.654974999002,0.252273247055,0.303324912882,1.0,-0.0164,-0.0215542857143,0.821
0.46004721932,0.510467202618,-0.124117782761,-1.41478024327,0.0760565542785,1.91576572679,0.151462601429,-0.0152826525516,-0.0821885928911,-0.00149200913323,-0.135341674651,-0.0100932060268,0.057389025944,-0.0205002397563,0.573979036069,0.818855820935,0.00198936577979,0.0,0.818811565928,-0.573918690127,-0.012070771605,0.0,-0.00874265571261,0.00855745031723,-0.999925165207,0.0,0.654701076202,0.251913058962,0.30331667991,1.0,-0.01674,-0.0220011428571,0.838
0.459860137889,0.509065151427,-0.124116003769,-1.41700937797,0.0759174880564,1.91657007177,0.15116328654,-0.0107838777222,-0.0926786905742,-0.00533169181054,-0.137977903082,-0.0152737097439,0.0533655682357,-0.0169767420031,0.573964237699,0.818866243437,0.00196878216155,0.0,0.818821657739,-0.5739039228,-0.0120883048258,0.0,-0.00876898178666,0.00855050076132,-0.999924994135,0.0,0.654420389366,0.251577708838,0.303306594265,1.0,-0.01706,-0.0224217142857,0.854
0.459647369129,0.50755260301,-0.12412380545,-1.41939563656,0.075772496417,1.9174292859,0.150829056813,-0.00992969768154,-0.0811741028888,0.00370802025436,-0.139137579497,-0.00751659898221,0.0522204761152,-0.0159938057207,0.573954916245,0.818872808481,0.00195564571266,0.0,0.818827993952,-0.573894604355,-0.0121015005225,0.0,-0.00878742438234,0.00854721773506,-0.999924860298,0.0,0.654124038177,0.251205599751,0.303303604746,1.0,-0.0174,-0.0228685714286,0.871
0.45942731593,0.505982815483,-0.124126256192,-1.42182842856,0.0756194669867,1.91832790457,0.150495118711,-0.0153320578454,-0.0986069882726,-0.00233368713483,-0.1466960802,-0.00463141710345,0.05444867431,-0.0194451841155,0.573947832433,0.818877707188,0.00198323416316,0.0,0.818833256944,-0.573887404465,-0.012086820131,0.0,-0.00875964310004,0.00856130713601,-0.999924983523,0.0,0.653825980613,0.250828531475,0.303321149545,1.0,-0.01774,-0.0233154285714,0.888
0.459213709202,0.50444593969,-0.124131622704,-1.42416394862,0.0754744778628,1.91922917304,0.150171275152,-0.01026846154,-0.0952885657535,0.000142504842013,-0.152191923778,-0.00320209424817,0.0483309460884,-0.0253271105192,0.573942801834,0.818881024838,0.00206743415873,0.0,0.818837741046,-0.573882077835,-0.0120358414979,0.0,-0.00866962572698,0.00860094330287,-0.999925427902,0.0,0.653548552709,0.250466582823,0.30336171546,1.0,-0.01806,-0.023736,0.904
0.458972073964,0.502673704343,-0.12413515394,-1.42678143313,0.0753081591151,1.92022547844,0.149807973975,-0.0196680550362,-0.105379905392,0.000372705582252,-0.149797290351,-0.00677300618537,0.0499924090208,-0.0180482644904,0.573935161429,0.818886053376,0.00219293467905,0.0,0.8188444937,-0.573874001679,-0.011961280654,0.0,-0.00853662206484,0.00866083877804,-0.999926055244,0.0,0.653235266715,0.250060156348,0.303439943884,1.0,-0.01842,-0.0242091428571,0.922
0.458732808304,0.500959896186,-0.124138034733,-1.429347274,0.075141740156,1.92112488388,0.149447539171,-0.0156121748733,-0.0979070752704,0.00126983902386,-0.1515898378,-0.0131982768933,0.0544451346505,-0.0164378885478,0.573923745909,0.818893949633,0.00223159959836,0.0,0.818852878934,-0.573862414704,-0.0119431383195,0.0,-0.00849969622076,0.00868196959277,-0.99992618656,0.0,0.652911555986,0.24965467435,0.303492859149,1.0,-0.01876,-0.024656,0.939
0.458503451441,0.499350830594,-0.124146896563,-1.43180697211,0.0749868606134,1.92201720438,0.149101744297,-0.0199856342629,-0.102875839124,-0.00200663709259,-0.156430678939,-0.0044979095258,0.0594165953344,-0.0188408538531,0.573918099425,0.818897816753,0.00226445795888,0.0,0.818857183038,-0.57385664533,-0.01192523792,0.0,-0.00846624005051,0.00869854502149,-0.999926326333,0.0,0.652606410248,0.249264799765,0.30352222096,1.0,-0.01908,-0.0250765714286,0.955
0.458244763925,0.497668501461,-0.124144736739,-1.43444452095,0.0748271565587,1.92300504751,0.148709151565,-0.0197266354138,-0.100918927167,-0.000233013316889,-0.155932116398,-0.0117715635677,0.0501683742612,-0.0229629422876,0.573888145001,0.818918693012,0.00230611454204,0.0,0.818878493282,-0.573826415899,-0.0119165665085,0.0,-0.00843555203852,0.0087273718788,-0.999926334508,0.0,0.652262854433,0.248832361818,0.303531457774,1.0,-0.01944,-0.0255497142857,0.973
0.457975139104,0.495889318247,-0.124144736839,-1.43729466529,0.0746522299681,1.92399724861,0.148285864624,-0.0128357930882,-0.105051338591,-0.00051272747387,-0.164621986596,-0.0153683651359,0.0551351297527,-0.0292221606521,0.573868710737,0.81893252706,0.00222842144192,0.0,0.818891184323,-0.573807164093,-0.0119713647838,0.0,-0.00852521996367,0.00869499375356,-0.999925856105,0.0,0.651914868897,0.248396724021,0.303494804313,1.0,-0.01978,-0.0259965714286,0.99
0.457733907095,0.494418847111,-0.124144162579,-1.43971232541,0.0745009186949,1.92483335023,0.14794718353,-0.0149405108904,-0.0975954147751,-0.00200777974244,-0.158087793371,-0.00891683698304,0.0525087265425,-0.0229238191278,0.57386920295,0.818932435531,0.00213327034113,0.0,0.818889706695,-0.573807905664,-0.0120367175165,0.0,-0.00863333722339,0.00865458123875,-0.999925279064,0.0,0.651602219421,0.248005009716,0.303440864909,1.0,-0.0224691428571,-0.0295308734694,1.005
0.457406926436,0.491970474801,-0.124223624935,-1.44340292496,0.0742899830718,1.92621700494,0.147422038313,-0.0181750724827,-0.15044478926,-0.00413308401648,-0.231924514282,-0.0123397301429,0.0968918644975,-0.0410261199397,0.573892756994,0.818915628309,0.00224590342701,0.0,0.818874563625,-0.57383118716,-0.0119567801473,0.0,-0.00850298840595,0.00870119023709,-0.9999259915,0.0,0.651156615189,0.247399931625,0.303510683014,1.0,-0.0336702857143,-0.0442523755102,1.023
0.456992799708,0.488866972002,-0.124254333953,-1.44837355859,0.074024672897,1.92808305608,0.146673557498,-0.0314118111109,-0.199641283171,-0.00223523748126,-0.325195749229,-0.0192239748859,0.114335833798,-0.0467390127228,0.573818664637,0.818967513317,0.00225812902452,0.0,0.818926288378,-0.573756727041,-0.0119874633971,0.0,-0.00852189044378,0.00872803950146,-0.999925596587,0.0,0.650523508516,0.246647748529,0.303465984703,1.0,-0.0442491428571,-0.0581560163265,1.04
0.456416849832,0.485044711409,-0.124328017581,-1.45436053555,0.0736745775093,1.93034195828,0.145780084726,-0.0352484246078,-0.258800496397,-0.00760742934329,-0.394984891226,-0.0215906619557,0.146561000759,-0.0557451790471,0.573814562216,0.81897018382,0.00233090200722,0.0,0.818929996073,-0.57375242115,-0.0119401699508,0.0,-0.00844144503335,0.00876045763071,-0.999925995456,0.0,0.649788602709,0.245667598571,0.303469496687,1.0,-0.0542057142857,-0.0712417959184,1.056
0.455667010692,0.480157794822,-0.124470523071,-1.46212575362,0.0732075199291,1.93305661086,0.144588619355,-0.0451808274962,-0.306027789941,-0.00872122081693,-0.484976793365,-0.0295757033871,0.168017609581,-0.0688949125938,0.573810244067,0.818973639346,0.00217457156592,0.0,0.81893145353,-0.573748784826,-0.012014708961,0.0,-0.00859223755719,0.0086751551582,-0.99992545479,0.0,0.648792839195,0.244350888975,0.303402975854,1.0,-0.0647845714286,-0.0851454367347,1.073
0.454623017366,0.473572683825,-0.124619277445,-1.47239646482,0.072583765468,1.93670464452,0.143112950884,-0.0599082924421,-0.367702547567,-0.00570145517314,-0.566436563223,-0.0309117494054,0.202142907313,-0.0780915311769,0.573889756888,0.8189180103,0.00214155205713,0.0,0.818875439143,-0.573828471823,-0.0120269279235,0.0,-0.00862035030932,0.00865596177745,-0.999925379159,0.0,0.647554077179,0.242700941505,0.303404938718,1.0,-0.0759857142857,-0.0998669387755,1.091
0.453725841226,0.468022252976,-0.124702208463,-1.48083661318,0.0721080146609,1.93982395539,0.141803052996,-0.0647083143706,-0.411306251584,-0.00284239169971,-0.619275526684,-0.0346272696273,0.240265135114,-0.100444783603,0.573890915752,0.818916661063,0.00233793780959,0.0,0.818876369795,-0.573828533948,-0.0119604147294,0.0,-0.00845317021914,0.00877862440389,-0.999925737076,0.0,0.646411075176,0.241185499994,0.303483582482,1.0,-0.08532,-0.112134857143,1.106
0.45230734147,0.459646410862,-0.124760117726,-1.49378218061,0.0712775372092,1.94442652603,0.139774912478,-0.0755901544073,-0.468226589826,-0.0010339680547,-0.704272755164,-0.0488466534284,0.246456798108,-0.11271423915,0.573815501593,0.818969448249,0.0023579369839,0.0,0.818929195306,-0.573752817443,-0.0119759948924,0.0,-0.00845526373146,0.00880316444128,-0.999925503631,0.0,0.644709465888,0.238995759564,0.303494978087,1.0,-0.0971434285714,-0.127674220408,1.125
0.450917576536,0.451759248878,-0.124894746751,-1.50594478479,0.0704652512041,1.94859817897,0.137859973105,-0.0853333658828,-0.517833587698,-0.00481225012294,-0.745657070821,-0.0514704145237,0.276146062192,-0.124664328067,0.57382058276,0.818966223381,0.00223845090121,0.0,0.818924509261,-0.573758488668,-0.012024629473,0.0,-0.00856360005691,0.00873327033999,-0.999925194574,0.0,0.643086224345,0.236844279414,0.303491870497,1.0,-0.1071,-0.14076,1.141
0.449405972788,0.443079941737,-0.124995510163,-1.51899213996,0.0696000643227,1.95332533106,0.135869208391,-0.102914523184,-0.545227893107,-0.00637774379147,-0.835557370343,-0.0491237391228,0.289811588839,-0.127911707011,0.573854042511,0.818941969587,0.00251699108835,0.0,0.818904210478,-0.573791175388,-0.0118460123667,0.0,-0.0082571283996,0.00885922725182,-0.999926664272,0.0,0.641366918729,0.234573692078,0.303641146023,1.0,-0.117056571429,-0.153845779592,1.157
0.447590922591,0.433151186145,-0.125072845486,-1.53400876993,0.0686029778398,1.95855091231,0.133418731407,-0.112482820431,-0.607791540026,-0.00452457703574,-0.885794325054,-0.0685909684624,0.322188334347,-0.149877677778,0.573777889676,0.818994983895,0.00262613313657,0.0,0.818958403464,-0.573714360631,-0.0118200128169,0.0,-0.00817403828881,0.00893292779739,-0.999926691262,0.0,0.639314888421,0.231927403947,0.303729708178,1.0,-0.127635428571,-0.167749420408,1.174
0.445596163713,0.422514267487,-0.125182605975,-1.55008963104,0.0674661789868,1.9641944414,0.130758299082,-0.118760558503,-0.648473930466,-0.00736359117688,-0.981338131698,-0.068479026182,0.341229960231,-0.160396565061,0.57368813372,0.81905746709,0.0027454935848,0.0,0.819022847974,-0.573624637449,-0.0117088304357,0.0,-0.00801547655978,0.00896601167911,-0.99992767877,0.0,0.637103301022,0.22904665448,0.303805941359,1.0,-0.138214285714,-0.181653061224,1.191
0.44348589503,0.411821661871,-0.125297808405,-1.56606121193,0.0663114607824,1.96982494874,0.128107648265,-0.127975518851,-0.687381201709,-0.00666298110894,-1.03675934452,-0.0768474821365,0.36497465927,-0.167880393239,0.573674467846,0.819066203157,0.00298440747734,0.0,0.819035315253,-0.573610903032,-0.0115078752447,0.0,-0.00771397153284,0.00904628349508,-0.999929327202,0.0,0.634901087994,0.226109169973,0.303942541983,1.0,-0.148170857143,-0.194738840816,1.207
0.441001144391,0.399909683323,-0.125411186526,-1.58414650334,0.0651191547875,1.9758819,0.125077648344,-0.147681329546,-0.715610855124,-0.0110039453994,-1.07718721628,-0.0666182146783,0.367383789218,-0.179324144441,0.5737131016,0.819039423113,0.00290643075105,0.0,0.819006545596,-0.573648650436,-0.0116726613844,0.0,-0.00789325173809,0.00907731934272,-0.999927646808,0.0,0.632294514627,0.222741717463,0.303904754552,1.0,-0.158749714286,-0.208642481633,1.224
0.438261463803,0.387247696956,-0.125548915048,-1.60314301672,0.0637059932362,1.98236047139,0.121801959623,-0.161516240679,-0.763417214318,-0.00573142138507,-1.15417112928,-0.0893617983528,0.38406629309,-0.19802491406,0.57371846905,0.819035466117,0.00296148864386,0.0,0.819003738878,-0.57365433813,-0.0115897777959,0.0,-0.00779371830464,0.00907491456591,-0.999928449381,0.0,0.629560010659,0.219113342278,0.303937193139,1.0,-0.169328571429,-0.222546122449,1.241
0.43511526526,0.37308074405,-0.125702619019,-1.62421721622,0.0621348851891,1.98936427233,0.117985859755,-0.178510180182,-0.807136381804,-0.00723768223643,-1.19676269534,-0.0841494494941,0.398904504938,-0.214220943468,0.573627547869,0.819099039934,0.00299098745885,0.0,0.819067776406,-0.573563428135,-0.0115636698358,0.0,-0.00775641917531,0.00908323589989,-0.999928663849,0.0,0.626438696353,0.215032699651,0.303989677314,1.0,-0.180529714286,-0.23726762449,1.259
0.431985055744,0.359944585896,-0.125886830818,-1.64366721113,0.0606349574512,1.99580881004,0.114532334791,-0.191331613518,-0.857549158515,-0.0117422382049,-1.23970230466,-0.103653735578,0.412754344721,-0.220870042534,0.573769075854,0.818999772004,0.00302786257319,0.0,0.818969441542,-0.573705357431,-0.0114875400869,0.0,-0.00767133942932,0.00907109682686,-0.999929430387,0.0,0.623542050703,0.211114777884,0.304032551132,1.0,-0.190486285714,-0.250353404082,1.275
0.427883917262,0.343615055014,-0.12611434758,-1.66776036127,0.0588171294622,2.00357266503,0.109986299923,-0.221522656181,-0.907800192437,-0.0115071611605,-1.2651841092,-0.101177450002,0.428249164883,-0.23143046026,0.573878069856,0.818923542809,0.0029897948572,0.0,0.818892392683,-0.573814072417,-0.0115501689858,0.0,-0.00774326802509,0.00907688370647,-0.999928823458,0.0,0.619857455365,0.206150453507,0.304043148862,1.0,-0.202309714286,-0.265892767347,1.294
0.424710443501,0.331260560111,-0.126209587626,-1.68605388419,0.0574149676651,2.00943480241,0.106485714268,-0.222415105354,-0.899163095158,-0.00661074564046,-1.31215024154,-0.100703610341,0.418196510563,-0.250979111352,0.573870991657,0.81892879713,0.00290810361792,0.0,0.81889602447,-0.57380660986,-0.0116628679791,0.0,-0.00788252113008,0.00907459081821,-0.999927756221,0.0,0.616976837174,0.202411607895,0.303972325246,1.0,-0.211021714286,-0.27734282449,1.308
0.420145549953,0.313691154153,-0.126360032291,-1.71156128179,0.0552754766048,2.01753546546,0.101449143889,-0.248582926967,-0.9085339644,-0.006816158861,-1.36822461047,-0.107821031109,0.419915203445,-0.269190731475,0.573748962059,0.819014182105,0.00294022946128,0.0,0.818982367498,-0.573685115319,-0.0115765750522,0.0,-0.00779476334371,0.0090502182503,-0.999928665063,0.0,0.612889174698,0.1971162955,0.304021371278,1.0,-0.222845142857,-0.292882187755,1.327
0.416239620507,0.299264681393,-0.126483457473,-1.73226380755,0.0535264993221,2.02404495688,0.0971469515253,-0.269842798312,-0.967161633541,-0.00938086615134,-1.39953112383,-0.120707271547,0.429160709856,-0.291602783169,0.573593785303,0.819122411228,0.00306460237533,0.0,0.81909253583,-0.573529952355,-0.0114698909991,0.0,-0.00763775056775,0.00908942612572,-0.999929521066,0.0,0.609512833667,0.192729526305,0.304102127843,1.0,-0.232179428571,-0.305150106122,1.342
0.411727064548,0.283505041386,-0.126632523363,-1.75479670944,0.0517049581749,2.03092105862,0.0924681588597,-0.288765717186,-0.981699254473,-0.00949545853295,-1.42999129667,-0.120491595812,0.421159269316,-0.29410057108,0.573640634853,0.819089302638,0.00314376391648,0.0,0.819059715216,-0.57357567014,-0.0115273776139,0.0,-0.0076389122686,0.00918767948207,-0.999928614235,0.0,0.605753872931,0.187830680582,0.304146093369,1.0,-0.242136,-0.318235885714,1.358
0.406542680222,0.266209256778,-0.126814291908,-1.77936589642,0.0495800342036,2.0382740609,0.0871050964108,-0.313215385358,-1.02336034795,-0.00821536377501,-1.45332416752,-0.127882751894,0.424993728322,-0.315463127436,0.573607376329,0.819112566057,0.00315100764025,0.0,0.819082912811,-0.573542201313,-0.0115443559946,0.0,-0.00764903847158,0.00920304145681,-0.999928395556,0.0,0.601575482612,0.182346527665,0.304176028314,1.0,-0.252714857143,-0.332139526531,1.375
0.400562140757,0.247387425231,-0.127054077455,-1.80593675423,0.0472112677125,2.04607740935,0.0811953096382,-0.333843905723,-1.03655591573,-0.00874400430881,-1.47191883289,-0.129104294456,0.424378553111,-0.335684123457,0.57373506815,0.819023256732,0.00311823812511,0.0,0.818993150074,-0.57366994513,-0.0115655128484,0.0,-0.00768373244042,0.00918953289404,-0.999928253797,0.0,0.596974518557,0.176219495926,0.304177666868,1.0,-0.263916,-0.346861028571,1.393
0.394948232781,0.230113891629,-0.12723091856,-1.82996843876,0.04504267488,2.05305372827,0.0755705320283,-0.352251473154,-1.07382526293,-0.00592560715473,-1.5107177429,-0.122666494135,0.440794210698,-0.352926919667,0.573692823836,0.819052338957,0.0032491274781,0.0,0.819023803353,-0.57362714744,-0.0115174720622,0.0,-0.00756977044604,0.0092687822683,-0.999928391561,0.0,0.592712965502,0.170642285309,0.304241652291,1.0,-0.273872571429,-0.359946808163,1.409
0.388255073624,0.210184288959,-0.127426343168,-1.85746709365,0.042429005139,2.06076166424,0.0688999747438,-0.380948984773,-1.1200746365,-0.00692515981541,-1.52031655573,-0.143898957297,0.42028186392,-0.381764632885,0.573551097122,0.819151482975,0.00327625245539,0.0,0.819123386543,-0.573485465128,-0.011491118612,0.0,-0.00753422874602,0.00927457725783,-0.999928606258,0.0,0.587693637098,0.164159374744,0.304289133625,1.0,-0.285073714286,-0.374668310204,1.427
0.381383127292,0.190912563776,-0.127668385794,-1.88383252532,0.0398906447838,2.06792219551,0.0622279870707,-0.403563034468,-1.14341845756,-0.0157981284009,-1.56028693654,-0.146678749875,0.418242296208,-0.403918131241,0.573525927067,0.819169147935,0.00326572422007,0.0,0.81914070761,-0.573460075356,-0.0115234547903,0.0,-0.00756704187353,0.00928426649102,-0.999928268564,0.0,0.582780173033,0.15772329728,0.304309426015,1.0,-0.295652571429,-0.38857195102,1.444
0.374367818859,0.172337743878,-0.128016431713,-1.90892867135,0.0374741393599,2.0746098634,0.0556043249997,-0.43908207604,-1.19142456367,-0.0209636548101,-1.58918015163,-0.164552019072,0.41276615271,-0.414355482115,0.573701219689,0.819045991621,0.003364675114,0.0,0.819018520024,-0.573634655748,-0.0115192223548,0.0,-0.00750482313666,0.00936450344275,-0.99992798926,0.0,0.578042647084,0.15134150205,0.30435875678,1.0,-0.305609142857,-0.401657730612,1.46
0.367060596874,0.153399090919,-0.128235854408,-1.93427959237,0.0348442420386,2.08112339804,0.0486289517251,-0.466712603457,-1.20171452598,-0.0109632138518,-1.57986982109,-0.174645677514,0.413648058948,-0.449232608019,0.573582757925,0.81912898381,0.00335776640531,0.0,0.819101587435,-0.573516436223,-0.0114992932024,0.0,-0.00749381441211,0.00934632804782,-0.999928241874,0.0,0.573097549651,0.144906039215,0.30438853564,1.0,-0.315565714286,-0.414743510204,1.476
0.358765163885,0.132834334957,-0.128540835438,-1.96151575811,0.0319818626971,2.08787025607,0.0408666184844,-0.499032491369,-1.23353261767,-0.0160332378574,-1.61374778212,-0.169253802806,0.394926776263,-0.469413824413,0.573571154986,0.819137164293,0.00334412072247,0.0,0.819109489853,-0.573504749838,-0.0115192207779,0.0,-0.00751809747118,0.0093464737337,-0.999928058232,0.0,0.567663585532,0.137801134448,0.304410563241,1.0,-0.326144571429,-0.42864715102,1.493
0.350359486925,0.113090318093,-0.128918059977,-1.98734212569,0.029157876844,2.09413017324,0.033111691815,-0.547329902747,-1.25387066929,-0.0306521064357,-1.62820461725,-0.188969668946,0.383329842605,-0.498501250134,0.573664940033,0.819071373039,0.00337184610875,0.0,0.819044395527,-0.573598861205,-0.0114617398907,0.0,-0.00745403945491,0.00933706975254,-0.999928625665,0.0,0.56209038603,0.130360276525,0.304438413914,1.0,-0.336723428571,-0.442550791837,1.51
0.340355230393,0.0904743006579,-0.129276205985,-2.01657144385,0.0259058884065,2.10082089638,0.023892930846,-0.56766523666,-1.26537765931,-0.0143903436831,-1.6632331808,-0.18122783833,0.355021243867,-0.513760720246,0.573594577303,0.81912062008,0.00337898636167,0.0,0.819093662442,-0.573528396005,-0.0114672587771,0.0,-0.00745526702901,0.00934544369417,-0.999928538284,0.0,0.556313468743,0.12279708638,0.304465804265,1.0,-0.347302285714,-0.456454432653,1.527
0.330902708414,0.0700849299258,-0.129653941725,-2.04263231162,0.0229967879875,2.10653833389,0.0152139246559,-0.60076663965,-1.26863352636,-0.0225936619815,-1.63849119124,-0.181839714063,0.353778273594,-0.545207606356,0.573586281532,0.819126351943,0.00339765982429,0.0,0.819098965229,-0.573519204599,-0.0115479010309,0.0,-0.00751071148858,0.00940691837041,-0.999927546925,0.0,0.550725965862,0.115462673453,0.304459657357,1.0,-0.34998,-0.459973714286,1.543
0.320244903338,0.048591805195,-0.130104244251,-2.06979504612,0.0197547090196,2.1121193084,0.00582039812861,-0.631932305358,-1.25379409762,-0.0263914458189,-1.60859899887,-0.196222916074,0.310462175643,-0.555487016695,0.573835525325,0.818952371153,0.00324816252279,0.0,0.81892283393,-0.573768625254,-0.0116491906548,0.0,-0.00767658636156,0.00934489381542,-0.999926868817,0.0,0.544767541013,0.10746672421,0.304420728257,1.0,-0.34998,-0.459973714286,1.56
0.309320748894,0.0272362246913,-0.1304220655,-2.09625361343,0.0166547348172,2.11727666978,-0.00381868541048,-0.650643872421,-1.25397335513,-0.0167373533908,-1.52922837689,-0.179097831242,0.281951356509,-0.570435049733,0.573973655207,0.818855305023,0.00331352771909,0.0,0.818825547788,-0.573905213604,-0.0117590386361,0.0,-0.00772744911307,0.00946276172485,-0.99992536855,0.0,0.538792376026,0.0996230306291,0.30445209927,1.0,-0.34998,-0.459973714286,1.577
0.297982507088,0.00619039462782,-0.130778463809,-2.12194722571,0.013372621535,2.12208730679,-0.0138096387077,-0.675334392366,-1.23525502749,-0.0258190717674,-1.50330203139,-0.175963305194,0.265395826993,-0.593360440108,0.574040550431,0.818808259751,0.00335069035229,0.0,0.818779514484,-0.573972627173,-0.0116737662192,0.0,-0.00763551866573,0.00944487364899,-0.999926243888,0.0,0.532878288034,0.0917226438194,0.304496955898,1.0,-0.34998,-0.459973714286,1.594
0.287069202694,-0.0134969480901,-0.131004137523,-2.14553629222,0.0104487445548,2.12625424274,-0.0234992791389,-0.678619533944,-1.22896837238,-0.0107608891134,-1.45927016489,-0.18087266539,0.254197703244,-0.604986841236,0.573983766956,0.818847102628,0.00357836412538,0.0,0.818820952535,-0.57391467245,-0.0116165114023,0.0,-0.00745861463093,0.00959791328482,-0.999926121835,0.0,0.527297543428,0.0844245152316,0.30459023169,1.0,-0.34998,-0.459973714286,1.61
0.274359882864,-0.0353325084663,-0.131330066229,-2.17145751832,0.00696775301114,2.13042246906,-0.0346406908369,-0.714745497603,-1.20537015806,-0.0223637725813,-1.43230136397,-0.190620693901,0.215287574847,-0.610731322574,0.573980765673,0.818849257569,0.00356663966529,0.0,0.818823261244,-0.573912101338,-0.0115807463321,0.0,-0.00743609103887,0.00956775737813,-0.999926578589,0.0,0.520994645731,0.0761321701651,0.304623647706,1.0,-0.34998,-0.459973714286,1.628
0.262671703593,-0.0546048414417,-0.13161010317,-2.19390964712,0.00399611012645,2.13378101463,-0.0448947120027,-0.725000130612,-1.21649303924,-0.00950429929945,-1.39420458658,-0.195768709527,0.218696307184,-0.649458984773,0.573984494633,0.81884593667,0.00372542892956,0.0,0.818821888166,-0.57391520921,-0.0115236712868,0.0,-0.00729817159763,0.0096650574725,-0.999926658988,0.0,0.515056531169,0.0683202118957,0.304704884233,1.0,-0.34998,-0.459973714286,1.645
0.250731924827,-0.0735554514893,-0.131845862141,-2.21578807541,0.00101217823588,2.13675533955,-0.0554413306036,-0.76553612016,-1.20025548839,-0.0244097085996,-1.3398345843,-0.18530737906,0.199794613413,-0.66740565362,0.573886846841,0.81891424738,0.00375357989593,0.0,0.818890129321,-0.573816915742,-0.0115693651129,0.0,-0.00732059122925,0.00971346300522,-0.999926026054,0.0,0.509799867178,0.061485666483,0.304715536031,1.0,-0.34998,-0.459973714286,1.66
0.236801695455,-0.0945589977752,-0.132200397063,-2.23976266274,-0.00233071563698,2.13965871445,-0.0676746226302,-0.773031790404,-1.16206547467,-0.00882273531603,-1.30111545727,-0.190691525403,0.151272515,-0.692488097633,0.573889338039,0.818912627741,0.00372595129227,0.0,0.81888740479,-0.573818506943,-0.0116827336929,0.0,-0.00742926137649,0.00975591872128,-0.999924811236,0.0,0.503499862058,0.0532067444802,0.304694910303,1.0,-0.34998,-0.459973714286,1.678
0.223322274053,-0.114171331501,-0.132471114954,-2.26191670981,-0.00557194281307,2.14202301711,-0.0795136264285,-0.805485468378,-1.13659838663,-0.0245310007353,-1.28323814195,-0.188404136305,0.114243129572,-0.693006314731,0.573778563085,0.8189909416,0.00357001725368,0.0,0.818963204347,-0.573707633254,-0.0118139059464,0.0,-0.0076274826584,0.00970246555052,-0.999923838935,0.0,0.497502106255,0.0454556651514,0.304625376589,1.0,-0.34998,-0.459973714286,1.695
0.210150533806,-0.132501356794,-0.132842588088,-2.28215302744,-0.00855818189438,2.14397633959,-0.0910716878351,-0.827170393632,-1.13062226628,-0.0208561992631,-1.26077901352,-0.196760921851,0.114444770113,-0.731722194061,0.573811545946,0.818967618619,0.00361888028221,0.0,0.818940355955,-0.573740238681,-0.0118143475354,0.0,-0.00759941714203,0.00974304371387,-0.999923658065,0.0,0.491908699621,0.0380638783702,0.304639567809,1.0,-0.34998,-0.459973714286,1.711
0.19578858279,-0.151710932172,-0.133205587629,-2.30311246852,-0.0116618639102,2.14569343609,-0.103732912543,-0.867790200884,-1.13003474262,-0.0248657451584,-1.23037367001,-0.173470537214,0.0931951800694,-0.75877186245,0.57379693263,0.818977707161,0.0036526946878,0.0,0.818950172548,-0.573724596542,-0.011893237868,0.0,-0.00764480307999,0.00981586733842,-0.999922599872,0.0,0.485948597967,0.0302560227348,0.30462334319,1.0,-0.34998,-0.459973714286,1.728
0.180119202083,-0.171839825066,-0.133618961227,-2.32465199499,-0.0149375157371,2.14705197576,-0.117498899783,-0.876202592755,-1.10634938714,-0.0224867298608,-1.19298380926,-0.169693139759,0.0742384596699,-0.772995481457,0.573848554964,0.818941388391,0.00368581708759,0.0,0.818913493614,-0.573775075071,-0.0119833260989,0.0,-0.00769895996567,0.00989517022622,-0.999921402722,0.0,0.479628976502,0.0219794069488,0.304632596178,1.0,-0.34998,-0.459973714286,1.746
0.166639470924,-0.188333685033,-0.134024197798,-2.34212795988,-0.0177134527103,2.14785516321,-0.129364824056,-0.916136534555,-1.08708358575,-0.0371843128185,-1.13091492011,-0.188934351851,0.0494149123015,-0.797370672868,0.573909548535,0.81889904261,0.00359652815491,0.0,0.818869149594,-0.573835337131,-0.0121271845653,0.0,-0.00786727635325,0.00990518367605,-0.999919993449,0.0,0.474345409642,0.0150250440439,0.304594206944,1.0,-0.34998,-0.459973714286,1.761
0.151047067008,-0.206870041569,-0.134403834202,-2.36138545917,-0.0207385067293,2.1486191625,-0.143230681128,-0.921109124705,-1.08776698411,-0.0230020046234,-1.13061434644,-0.168073504611,0.0335401123623,-0.825857118136,0.573853436281,0.818937843532,0.00371335446723,0.0,0.818909054639,-0.573778243026,-0.0121340414787,0.0,-0.00780653405993,0.0100042536077,-0.999919483226,0.0,0.468390623278,0.00724569265286,0.304608730832,1.0,-0.34998,-0.459973714286,1.778
0.133997673007,-0.226206607336,-0.134902311097,-2.38101932102,-0.0239936749085,2.14904238587,-0.158273714416,-0.943165270386,-1.04635278486,-0.0220383660063,-1.10027814127,-0.180504424598,0.0183456504604,-0.848206862665,0.573962230066,0.818860988834,0.00384529909492,0.0,0.818834295275,-0.573887002351,-0.0120354607234,0.0,-0.00764874936046,0.0100567562749,-0.999920175957,0.0,0.462121333004,-0.0010682497386,0.304677881512,1.0,-0.34998,-0.459973714286,1.796
0.118508401652,-0.243083471512,-0.135253985284,-2.39783688377,-0.0268013734796,2.1491281502,-0.172132314346,-0.984491991962,-1.04916563318,-0.0307061941172,-1.0249411984,-0.167229603854,0.0132890291267,-0.870033112034,0.573876353774,0.818920434117,0.00400000813291,0.0,0.818896182974,-0.57380114735,-0.0119177058284,0.0,-0.00746458729108,0.0101150757046,-0.999920979468,0.0,0.456577141977,-0.00836886223466,0.30476057574,1.0,-0.34998,-0.459973714286,1.812
0.100575930601,-0.261735135601,-0.135711591251,-2.41639131154,-0.0299327271319,2.14901928508,-0.188217076526,-0.999422551374,-1.04018846822,-0.0244324761928,-1.0323394795,-0.170764586809,-0.00962824396832,-0.907601933652,0.5738221443,0.818958028733,0.00407931190526,0.0,0.81893456426,-0.573746331316,-0.0119194656976,0.0,-0.00742119477233,0.0101805388901,-0.999920638099,0.0,0.450271284494,-0.0166155138654,0.304741019335,1.0,-0.34998,-0.459973714286,1.83
0.0841434872668,-0.277996428651,-0.136212218896,-2.4321604828,-0.0327255430535,2.14872107422,-0.202917842361,-1.03557024047,-1.0025365666,-0.0313226131042,-0.981006200744,-0.173519768253,-0.0368876219207,-0.929751484941,0.573902196023,0.818901081379,0.00424678917104,0.0,0.818880703235,-0.573827075484,-0.0117315050991,0.0,-0.00717015764941,0.0102105468266,-0.999922163757,0.0,0.444734928969,-0.0240213117632,0.304797279768,1.0,-0.34998,-0.459973714286,1.846
0.0663337306798,-0.294922910273,-0.136614199795,-2.44842108779,-0.0355519598192,2.147975419,-0.219061292001,-1.06695653741,-0.980354103791,-0.0294894685803,-0.917514039726,-0.172867159015,-0.0452993898123,-0.962005437555,0.573787569662,0.818981081534,0.00430811937789,0.0,0.818960976591,-0.573711519356,-0.0117795704787,0.0,-0.00717576581254,0.010287350833,-0.999921336305,0.0,0.438792379437,-0.0317734742456,0.30479941014,1.0,-0.34998,-0.459973714286,1.863
0.0491054060058,-0.310573129807,-0.137109339739,-2.46322655717,-0.0382461016229,2.14710949135,-0.234615068027,-1.07590665471,-0.965179610235,-0.0302395567493,-0.901337153848,-0.159668699376,-0.0696905991792,-0.975645108821,0.573829272933,0.818951519764,0.00437272250646,0.0,0.818932232471,-0.57375297295,-0.0117588924476,0.0,-0.00712123740865,0.0103287589685,-0.999921299261,0.0,0.433192560715,-0.0391425369554,0.304805470461,1.0,-0.34998,-0.459973714286,1.879
0.0280778726968,-0.328786542433,-0.137712789563,-2.48004603008,-0.041273965347,2.14586014901,-0.253666741418,-1.11440654836,-0.948570733935,-0.0288465920255,-0.889189539546,-0.163094548093,-0.0676873823021,-1.01312882127,0.573947696918,0.818867135795,0.00462623145878,0.0,0.818851397455,-0.573870962122,-0.011629901972,0.0,-0.00686861686133,0.0104633529992,-0.999921667105,0.0,0.426576367073,-0.0478997538709,0.304877925263,1.0,-0.34998,-0.459973714286,1.898
0.0111241790454,-0.342762816098,-0.138149069224,-2.49287957495,-0.0436769231432,2.14462741869,-0.269174488239,-1.15256787014,-0.922174170739,-0.0422858528627,-0.831522738438,-0.160619702773,-0.0798051082533,-1.03095514932,0.573902061168,0.818898894138,0.00466607617155,0.0,0.818883389681,-0.573824779208,-0.0116560616479,0.0,-0.0068677580902,0.0105106124386,-0.999921177356,0.0,0.421311472883,-0.0547721791595,0.304871297772,1.0,-0.34998,-0.459973714286,1.913
-0.00850465316215,-0.358117881273,-0.13859923891,-2.50660354824,-0.0463444730487,2.14303493783,-0.287218855007,-1.16085975167,-0.883993002313,-0.0201101042865,-0.784432668638,-0.148382832565,-0.0920445490071,-1.07214816788,0.573802671215,0.818968035027,0.0047538417941,0.0,0.818954255974,-0.573726051219,-0.011536536526,0.0,-0.00672078116496,0.010513076854,-0.999922150127,0.0,0.415428873528,-0.0625490173621,0.304941932236,1.0,-0.34998,-0.459973714286,1.93
-0.0286636435254,-0.373050695431,-0.139132012959,-2.52000927906,-0.048998126336,2.14131022586,-0.305808135028,-1.18255404445,-0.850590263876,-0.0286783173323,-0.797866820372,-0.149337015305,-0.116820283877,-1.11229707326,0.573750605266,0.819004675451,0.00472561614237,0.0,0.818990055558,-0.57367333831,-0.0116162261951,0.0,-0.00680291455408,0.0105352522736,-0.999921361315,0.0,0.4094424118,-0.0703705772163,0.304894695554,1.0,-0.34998,-0.459973714286,1.947
-0.0480158778488,-0.386700599081,-0.139637170543,-2.53179776433,-0.0513864031159,2.13954491218,-0.323634870812,-1.20640437812,-0.8598036164,-0.0248243690523,-0.728708090317,-0.157997744056,-0.107941589954,-1.12164867907,0.573805027001,0.818965762947,0.00485973353338,0.0,0.818953666931,-0.573728600282,-0.0114512680045,0.0,-0.00659015520111,0.0105508948814,-0.999922621242,0.0,0.403900413216,-0.0777296616784,0.304983444995,1.0,-0.34998,-0.459973714286,1.963
-0.0690479628083,-0.400599591256,-0.14016720787,-2.54395726355,-0.0537133611621,2.13754584195,-0.343195839734,-1.25976966088,-0.800673821564,-0.0450933453404,-0.711340914149,-0.145334053478,-0.12160302538,-1.15123414678,0.57382644109,0.818950257317,0.00494352586842,0.0,0.818937816939,-0.573747474805,-0.0116376132442,0.0,-0.00669441976557,0.010726616994,-0.999920059021,0.0,0.39792645317,-0.0855183755036,0.30492511893,1.0,-0.34998,-0.459973714286,1.98
-0.0904253817509,-0.414037934226,-0.140626946186,-2.55530224046,-0.056110143946,2.13544807435,-0.363213472802,-1.27381904395,-0.784131587684,-0.0298230615648,-0.653764759138,-0.149122812772,-0.11370608655,-1.19339142538,0.573689239423,0.819046000038,0.0050053263873,0.0,0.819034996654,-0.573611139079,-0.0115187795511,0.0,-0.00656342571242,0.0107079435217,-0.999921127584,0.0,0.392029079787,-0.0932776286736,0.304983808679,1.0,-0.34998,-0.459973714286,1.997
-0.111054785519,-0.426069159244,-0.141152757938,-2.56548791051,-0.0582881288557,2.13339434469,-0.382568861411,-1.29210003159,-0.73361303786,-0.0353689245775,-0.628884900362,-0.125550662797,-0.142847629245,-1.22143547243,0.573668363433,0.819060592813,0.00501008970125,0.0,0.819049081148,-0.57358932496,-0.0116032694998,0.0,-0.00663017447671,0.0107601451568,-0.999920126841,0.0,0.386425655651,-0.10064579837,0.304957455723,1.0,-0.34998,-0.459973714286,2.013
-0.133325831908,-0.438276667084,-0.141637323787,-2.57582572699,-0.0604675387446,2.13108410985,-0.403497396845,-1.31211506225,-0.711338027657,-0.0254860945507,-0.59229940642,-0.122429209327,-0.133659754957,-1.25062726331,0.573650276226,0.819073593822,0.00495533958764,0.0,0.819059500669,-0.573568430214,-0.0118969377242,0.0,-0.00690237408089,0.0108836091233,-0.999916948693,0.0,0.380424305465,-0.108397564733,0.304864729532,1.0,-0.34998,-0.459973714286,2.03
-0.156067280262,-0.44998711268,-0.14216097321,-2.58520290835,-0.062618724092,2.12894803858,-0.425003031843,-1.33949214471,-0.667066515568,-0.0142832190024,-0.549294402352,-0.134325998677,-0.13438546005,-1.28569483259,0.573615068691,0.819097380526,0.00509716455458,0.0,0.819086851352,-0.573535534095,-0.011596032675,0.0,-0.00657500158257,0.0108268879964,-0.999919770707,0.0,0.374206743043,-0.116686530926,0.304973036031,1.0,-0.34998,-0.459973714286,2.048
-0.177870250349,-0.460340950828,-0.142679865242,-2.59368903799,-0.0645185577632,2.12670855122,-0.445703666639,-1.36803029318,-0.644098187403,-0.0296729183171,-0.514263522623,-0.125367702313,-0.132626837564,-1.31463100165,0.57360283776,0.819106037384,0.00508241448998,0.0,0.819093806653,-0.573520889965,-0.0118267315212,0.0,-0.00677260670374,0.0109470317579,-0.999917143714,0.0,0.368549908171,-0.124038218994,0.304927435167,1.0,-0.348490285714,-0.458015804082,2.064
-0.202557248605,-0.471053045797,-0.143080512046,-2.6023702691,-0.0663501658705,2.12447750246,-0.469196708135,-1.38739124562,-0.567031203763,-0.0220271693961,-0.448312725527,-0.102780170731,-0.110007178504,-1.30419900687,0.573620843365,0.819092445835,0.00523833321967,0.0,0.819081472864,-0.573537084302,-0.0118954042729,0.0,-0.00673918716892,0.0111142875046,-0.999915524417,0.0,0.36269400738,-0.131719776419,0.304896985186,1.0,-0.337911428572,-0.444112163265,2.081
-0.225823601077,-0.480313223168,-0.143299622388,-2.60950157685,-0.0678647544086,2.12242298414,-0.491161350432,-1.36699943155,-0.52530739943,-0.0237035455594,-0.411039847917,-0.0728638399137,-0.124557513518,-1.30585843651,0.573789021688,0.818973340919,0.00543804697293,0.0,0.818965876304,-0.573706078589,-0.0117036635958,0.0,-0.00646527234853,0.0111692236315,-0.999916720881,0.0,0.357038179044,-0.139247676612,0.305001768624,1.0,-0.327332571429,-0.430208522449,2.098
-0.247435295717,-0.48810492584,-0.14332016407,-2.61567350618,-0.0691802134856,2.12054743348,-0.511703670899,-1.35613531107,-0.467609843682,0.0038665587159,-0.373635853691,-0.0774032731777,-0.117487765842,-1.27183913089,0.573759757644,0.818993852045,0.00543670140918,0.0,0.818985762499,-0.57367577896,-0.0117969640183,0.0,-0.00654286305826,0.0112214203122,-0.999915631776,0.0,0.351804785031,-0.146068632349,0.304983442151,1.0,-0.317376,-0.417122742857,2.114
-0.27139725025,-0.4958745022,-0.143279319349,-2.62173628059,-0.0703740062379,2.11869280663,-0.534468392298,-1.32193908295,-0.417048361155,-0.00283013107053,-0.317266817378,-0.0642853897713,-0.0928009939069,-1.25703824374,0.573845973815,0.818932645545,0.00555583458576,0.0,0.818925946041,-0.573761286177,-0.01179102567,0.0,-0.00646845758576,0.0113162675753,-0.999915046964,0.0,0.346139060356,-0.153529204731,0.304991480302,1.0,-0.306174857143,-0.402401240816,2.132
-0.29223196696,-0.501923011567,-0.143124739849,-2.62640986737,-0.0712858570231,2.1171787998,-0.554306856268,-1.28140349612,-0.356447823406,0.0051754210134,-0.277509478378,-0.0390450648935,-0.0877397672038,-1.22458937329,0.573903301682,0.81889182644,0.00565011586424,0.0,0.81888613358,-0.573817882157,-0.0118019171355,0.0,-0.00642247961206,0.0114001802334,-0.999914390159,0.0,0.340995622968,-0.160302179525,0.304998276612,1.0,-0.295596,-0.3884976,2.149
-0.312615244108,-0.507205267936,-0.142911889528,-2.63044294,-0.0719948037421,2.11585107139,-0.573741494685,-1.25802199588,-0.317177742656,0.0231979311785,-0.237213741313,-0.0526020505641,-0.0847773675402,-1.18924507356,0.573967502609,0.818846162336,0.00574589226306,0.0,0.818842071129,-0.573882373152,-0.0117231068933,0.0,-0.00630207613692,0.0114338808452,-0.999914771471,0.0,0.336635382552,-0.166100379429,0.30502833948,1.0,-0.286261714286,-0.376229681633,2.164
-0.335020819441,-0.51238777886,-0.142643456352,-2.63440212163,-0.0726612793607,2.11450440297,-0.59516338224,-1.23832294821,-0.26853813253,0.016842415116,-0.205526448006,-0.0412918841304,-0.0790712237992,-1.18626947595,0.574060648897,0.818779928302,0.00587769498349,0.0,0.818777548682,-0.573975041778,-0.0116929077332,0.0,-0.00620038730842,0.0115251847868,-0.999914358989,0.0,0.331545800714,-0.172822001636,0.305041593211,1.0,-0.275060571429,-0.361508179592,2.182
-0.355491737739,-0.516468153437,-0.142215742611,-2.63771124406,-0.0731711278455,2.11328489143,-0.614889924208,-1.20629619895,-0.22860588611,0.0163878578479,-0.184021839854,-0.0255433596487,-0.066110549519,-1.15607314216,0.573951402629,0.818856572369,0.00586925973183,0.0,0.818852315731,-0.573862603656,-0.0119726374802,0.0,-0.00643584812801,0.0116779938355,-0.999911098208,0.0,0.326888925318,-0.178829126509,0.304951307355,1.0,-0.264481714286,-0.347604538776,2.199
-0.374174195707,-0.519663471375,-0.141791002012,-2.64030512113,-0.0735636413514,2.11238325844,-0.632846011819,-1.15695506612,-0.188026535439,0.0251608584536,-0.151117877824,-0.0234394002817,-0.048956733475,-1.11910795939,0.573922682972,0.818876699321,0.00586959794447,0.0,0.818871487777,-0.573832157678,-0.0121197450934,0.0,-0.00655653903919,0.0117624694864,-0.999909323943,0.0,0.322703880485,-0.184288382418,0.304882975888,1.0,-0.254525142857,-0.334518759184,2.215
-0.393499510474,-0.522536138485,-0.14129875564,-2.64253102081,-0.0738954640833,2.1115166721,-0.651415480065,-1.12164043497,-0.159420143901,0.0413181973334,-0.126379383124,-0.0149095000718,-0.0460439006166,-1.08608358628,0.573917790911,0.818880128265,0.00586955781445,0.0,0.818874511401,-0.573826542284,-0.0121811678201,0.0,-0.00660693540552,0.0117976473547,-0.999908577782,0.0,0.318423858047,-0.189907350797,0.304865309633,1.0,-0.243946285714,-0.320615118367,2.232
-0.413211136399,-0.525036387538,-0.140807519327,-2.6443739892,-0.0740942086127,2.11077049557,-0.670396967434,-1.08946719727,-0.129379631396,0.0343167105276,-0.0965472548297,-0.0142408884587,-0.0384494723064,-1.04045054015,0.573972263149,0.818841307152,0.00595833361844,0.0,0.818837132879,-0.573881130267,-0.0121220890777,0.0,-0.00650681731075,0.0118368756154,-0.999908770691,0.0,0.314099442967,-0.19562244875,0.304893277632,1.0,-0.232745142857,-0.305893616327,2.25
-0.429999594373,-0.526772505945,-0.140281140008,-2.64568745698,-0.0741899215325,2.11025907318,-0.686650588428,-1.0456199896,-0.0962452292021,0.0315430562477,-0.0744049951908,-0.00313729787374,-0.0245807045159,-1.00072402176,0.573918584942,0.818878638577,0.00599833655769,0.0,0.818875225676,-0.573827730029,-0.0120767514447,0.0,-0.00644750606509,0.0118431893203,-0.999909080133,0.0,0.310442232375,-0.200439839732,0.304901806513,1.0,-0.222788571429,-0.292807836735,2.266
-0.447221235591,-0.528187463632,-0.139799871184,-2.64673896808,-0.0742338873781,2.10978826736,-0.703237562295,-0.992318139059,-0.0742340305533,0.0303952377886,-0.0572022531031,-0.000562860146004,-0.0241454382956,-0.957854376196,0.574016566269,0.818809436683,0.00606918022806,0.0,0.818807021484,-0.573925526621,-0.0120539770425,0.0,-0.00638677565866,0.0118888987954,-0.999908927444,0.0,0.306688789996,-0.205384346322,0.304913512312,1.0,-0.212209714286,-0.278904195918,2.283
-0.46468884379,-0.529236429597,-0.139214046599,-2.64753765022,-0.0742473949338,2.10942087815,-0.720013680324,-0.960715384496,-0.0474225139,0.030088788283,-0.0380826428001,-0.00103842848237,-0.0173297902289,-0.909044679618,0.574115951743,0.818739708294,0.00607543563549,0.0,0.818737520189,-0.57402513612,-0.012031751227,0.0,-0.00636354224015,0.0118820361791,-0.999909157147,0.0,0.30290276988,-0.210365925406,0.304917593783,1.0,-0.201008571429,-0.264182693878,2.301
-0.478481409751,-0.529788929028,-0.138606953878,-2.64795620849,-0.0742252519504,2.10919443076,-0.733417761583,-0.907880767921,-0.0298742063861,0.0414888954237,-0.016610581867,-0.00362522976528,-0.0138709882284,-0.881889083152,0.573990393122,0.818828241416,0.00600720928776,0.0,0.818825397784,-0.573900322383,-0.0120056159448,0.0,-0.0063831209392,0.0118101911332,-0.999909883516,0.0,0.299944980837,-0.21426141476,0.304925635822,1.0,-0.191674285714,-0.25191477551,2.316
-0.494331003768,-0.530133375556,-0.137974471273,-2.64823665289,-0.0741782924293,2.10898507617,-0.748748541896,-0.854760788571,-0.0102907702452,0.0416314905018,-0.010515164238,0.00571817379533,-0.015830400186,-0.842656525951,0.573972766615,0.818841041738,0.00594629729037,0.0,0.818837365156,-0.573882878711,-0.0120232211816,0.0,-0.00643275260118,0.0117702785453,-0.999910036072,0.0,0.29652825778,-0.218746919955,0.304922580967,1.0,-0.180473142857,-0.23719327347,2.334
-0.508348828656,-0.530233146669,-0.137262696574,-2.64835270208,-0.0740514413472,2.10888810429,-0.762415234094,-0.809048418748,-0.00209671125074,0.0432662321099,-0.00475778494225,0.00113704802573,1.04425593543e-05,-0.78655319622,0.573805907735,0.818958527712,0.00587001168848,0.0,0.818953957185,-0.573716549011,-0.0120201623281,0.0,-0.00647641628561,0.0117047348092,-0.999910523605,0.0,0.293529716392,-0.222659949579,0.30491666731,1.0,-0.169894285714,-0.223289632653,2.351
-0.520300319879,-0.530186630193,-0.136707814333,-2.64834152987,-0.0738815499649,2.10882797987,-0.773842552124,-0.770407802822,0.00851475524088,0.0479667426549,0.00314293736374,0.0151402455856,0.000549348098889,-0.746222366302,0.573917064836,0.818880654537,0.00586713021128,0.0,0.818876035839,-0.573827676143,-0.012024263914,0.0,-0.00647984016647,0.0117056079507,-0.999910491201,0.0,0.290956256151,-0.225995364146,0.304914239422,1.0,-0.16056,-0.211021714286,2.366
-0.532839449992,-0.529943635724,-0.135979927121,-2.64820554711,-0.0735539686214,2.1088304122,-0.786062201466,-0.727629250381,0.0173695219873,0.0429885586793,0.00536738923477,0.0171503639451,0.00199618533321,-0.703063961408,0.573813094576,0.818953265029,0.00590161772668,0.0,0.818949015748,-0.573723440779,-0.0120278846031,0.0,-0.00646450340051,0.0117351076511,-0.999910244694,0.0,0.288293071789,-0.229445807554,0.304906756827,1.0,-0.149981142857,-0.19711807347,2.383
-0.5455049384,-0.529559018494,-0.135317508745,-2.6479521657,-0.0732327064758,2.10884556566,-0.798151084108,-0.67431755347,0.027654422967,0.0452035596472,0.0205723336643,0.0201333077425,0.000908512563653,-0.657760589333,0.573969788012,0.818843117763,0.00594792754577,0.0,0.818839305394,-0.573879606858,-0.0120472268842,0.0,-0.00645151871239,0.0117853680258,-0.99990973743,0.0,0.285574614774,-0.232944041701,0.304900221572,1.0,-0.13878,-0.182396571429,2.401
-0.555763145546,-0.529060456628,-0.134595818314,-2.64764179861,-0.0728438828117,2.1089244406,-0.808161923814,-0.635074255446,0.0345869593854,0.0412143296696,0.0200218011939,0.0154345614573,0.0053112227857,-0.614950191574,0.573847092647,0.818928820347,0.00598735058312,0.0,0.818925311091,-0.573756385265,-0.0120702992174,0.0,-0.00644955944546,0.0118299268149,-0.999909223887,0.0,0.283421381553,-0.2357271858,0.304884860837,1.0,-0.128823428572,-0.169310791837,2.417
-0.566146528717,-0.52847523004,-0.133943078606,-2.64721564745,-0.0724912573281,2.10901595402,-0.818018022486,-0.604568280901,0.0347055088126,0.0401206883257,0.030430337692,0.0216671084113,0.00318520261122,-0.557530133509,0.573992932725,0.818826382571,0.00601791395331,0.0,0.818823343077,-0.573902196939,-0.0120560392672,0.0,-0.0064182325534,0.0118479178668,-0.999909212445,0.0,0.281223242485,-0.238573461972,0.304889575394,1.0,-0.118244571429,-0.155407151021,2.434
-0.575503339332,-0.527748493126,-0.133175294099,-2.64670708933,-0.0720852305479,2.1091637172,-0.827129834186,-0.525998093385,0.0489148166389,0.0485723933154,0.0323683203638,0.0238772057478,0.00779048801329,-0.511585157291,0.573853695149,0.818923998213,0.00601403489942,0.0,0.818920959285,-0.573763099067,-0.0120463892385,0.0,-0.00641456943777,0.0118381121271,-0.999909352092,0.0,0.279298023956,-0.241105512281,0.304887577569,1.0,-0.107665714286,-0.141503510204,2.451
-0.583640932797,-0.527061494334,-0.132499195927,-2.64622879235,-0.0717252234167,2.10926826518,-0.834912997626,-0.501656114328,0.0380890387404,0.0454342042,0.028555650123,0.0167559662621,0.0100679269803,-0.475369155558,0.57384714584,0.81892863099,0.0060081159463,0.0,0.818925288878,-0.573756159887,-0.0120825133169,0.0,-0.00644764669317,0.0118539420935,-0.99990895181,0.0,0.277611000573,-0.243297112804,0.304880034119,1.0,-0.0977091428572,-0.128417730612,2.467
-0.591601465113,-0.526343729605,-0.131820419806,-2.64572752679,-0.0713170999947,2.10938370048,-0.842407703086,-0.452041257468,0.0474691375788,0.0378074313999,0.0315751401987,0.0200929579896,0.00342579479758,-0.426337520189,0.573951374116,0.818855376328,0.00603653121325,0.0,0.818852166384,-0.573859805164,-0.0121161266905,0.0,-0.00645735717904,0.0118973232848,-0.999908373921,0.0,0.2759616109,-0.245428861338,0.304872454287,1.0,-0.0871302857144,-0.114514089796,2.484
-0.598995882297,-0.525559847962,-0.131049839307,-2.64519011197,-0.0708422584229,2.10953673535,-0.849502504689,-0.386169489742,0.0392362042198,0.0455046903474,0.0238510866425,0.0331318180849,0.0114043090439,-0.366074053531,0.57388478631,0.818901831205,0.00606545901372,0.0,0.818898796637,-0.573792732125,-0.01214118314,0.0,-0.00646224522548,0.0119348671624,-0.999907894925,0.0,0.274474008809,-0.247379143739,0.304862370302,1.0,-0.0759291428572,-0.0997925877552,2.502
-0.604484657274,-0.524988195167,-0.130383313641,-2.64479619735,-0.0704654562253,2.10962807679,-0.854747206734,-0.361228903677,0.0346776660096,0.0432056922499,0.0276322780028,0.0253449312091,0.00730127150401,-0.334280886261,0.573796097781,0.818963994147,0.00606311505822,0.0,0.818960700073,-0.573703650683,-0.0121753780496,0.0,-0.00649289000255,0.011951867477,-0.999907493343,0.0,0.273378059771,-0.248793094776,0.304856599771,1.0,-0.066594857143,-0.0875246693879,2.517
-0.610405041579,-0.524384093931,-0.129623412333,-2.6443236349,-0.070011006653,2.10977193634,-0.860111160826,-0.302575392717,0.0315463418964,0.0432396327071,0.0217520727057,0.0213273308497,0.00673925793092,-0.281787458828,0.573933941707,0.818867348392,0.00606985952263,0.0,0.818864594694,-0.573842271319,-0.0121066141378,0.0,-0.00643069285273,0.0119190193087,-0.999908287378,0.0,0.272219591117,-0.250316690696,0.304881307292,1.0,-0.0553937142858,-0.0728031673471,2.535
-0.615049914004,-0.523819958588,-0.128922365032,-2.64389992048,-0.0695435992347,2.10990991124,-0.864461797686,-0.256749169744,0.036209327327,0.038084846396,0.0266424792766,0.0295526296671,0.0078856993358,-0.243828184645,0.573901336605,0.818889894485,0.00611092918034,0.0,0.818887939447,-0.573809985982,-0.0120577575297,0.0,-0.00636758619969,0.0119243589482,-0.99990862758,0.0,0.271350979128,-0.251488389894,0.304896302067,1.0,-0.044814857143,-0.0588995265308,2.552
-0.618770714567,-0.523390238658,-0.128257399835,-2.64358894167,-0.0691295420249,2.10999198104,-0.86773977416,-0.219190292386,0.0270251431089,0.0468565851679,0.0182625508143,0.0268820653256,0.00109790344858,-0.194334126355,0.573986909667,0.81882978023,0.00612906526335,0.0,0.81882808817,-0.573895513019,-0.0120519318464,0.0,-0.006351159931,0.0119365317231,-0.999908586811,0.0,0.270666006423,-0.252387009655,0.304903488906,1.0,-0.0348582857144,-0.0458137469389,2.568
-0.621887919775,-0.523053579834,-0.12747180916,-2.64334633677,-0.0686956025326,2.11004446822,-0.87053561301,-0.166760348758,0.0164015425734,0.0488455856945,0.00942437394821,0.0289039284695,0.00631748331374,-0.138679024742,0.573892254939,0.818896278952,0.0061082682092,0.0,0.81889432417,-0.573800983064,-0.0120525756154,0.0,-0.006365001566,0.0119191354451,-0.999908706315,0.0,0.270139402832,-0.253072171689,0.304914005874,1.0,-0.0242794285715,-0.0319101061226,2.585
-0.624197581317,-0.52280626783,-0.126721938118,-2.64316667664,-0.0683087154575,2.11011746476,-0.872427212531,-0.131121769694,0.0129966130295,0.0419456028735,0.00753135999041,0.0203682108411,0.00582401471694,-0.0979343419985,0.573878418888,0.818906336058,0.00605970292729,0.0,0.818904042895,-0.573787905487,-0.0120147804236,0.0,-0.00636211805522,0.0118575667136,-0.999909456684,0.0,0.269794873545,-0.253539675871,0.30492941549,1.0,-0.0197781818182,-0.0259941818182,2.602
-0.626054287876,-0.522603746342,-0.126238254666,-2.64298429906,-0.0680300300066,2.11015134462,-0.874174059448,-0.104806991747,0.0141914208483,0.026925888509,0.016963546141,0.0143157133545,0.000553767453922,-0.0978191413978,0.573754314592,0.818993341634,0.00605307754632,0.0,0.818991205144,-0.57366430774,-0.0119755928498,0.0,-0.00633561824612,0.0118286930809,-0.999909966928,0.0,0.269494140898,-0.253951040652,0.304952606835,1.0,-0.0194381818182,-0.0255473246753,2.619
-0.627708242626,-0.522389279449,-0.125949689936,-2.64278867711,-0.0678550769647,2.11020261105,-0.875750841191,-0.0984621839882,0.0121263007552,0.00805671398928,0.0122254406269,0.0109410289113,0.00192053162969,-0.0889558532976,0.573697969458,0.819032828879,0.00605078167672,0.0,0.819030977833,-0.57360857339,-0.0119251324803,0.0,-0.00629641597011,0.0117974290599,-0.999910583909,0.0,0.269199565486,-0.254367002419,0.30497413644,1.0,-0.0190981818182,-0.0251004675325,2.636
-0.629295562404,-0.522145753249,-0.125801332495,-2.64261307908,-0.0677439809337,2.11026850114,-0.877261085471,-0.0898960687005,0.0156260249425,0.012354209422,0.00960466233528,0.0104161643653,0.00572687924863,-0.088471116226,0.573712763643,0.819022359802,0.00606513632776,0.0,0.819020756165,-0.573623420686,-0.0119129808139,0.0,-0.00627801428247,0.0118023289188,-0.999910641792,0.0,0.268882963522,-0.254798869484,0.30497372823,1.0,-0.0187581818182,-0.0246536103896,2.653
-0.630750134328,-0.521923571847,-0.12570660399,-2.64245607654,-0.0677100962912,2.11027542117,-0.878554709252,-0.0894496754559,0.0121745060027,0.00847695685981,0.00933932060994,0.00486068280265,-0.000604829723806,-0.0763887771961,0.573800362854,0.818961135032,0.00604564283635,0.0,0.818958993549,-0.573710548308,-0.0119633000085,0.0,-0.0063291505429,0.0118159069512,-0.999910159062,0.0,0.268568022303,-0.255202105757,0.304966326315,1.0,-0.0184381818182,-0.024233038961,2.669
-0.63218481069,-0.521702822652,-0.12566453694,-2.64229499844,-0.0676726745847,2.11030443192,-0.880055395564,-0.0817511330523,0.0111283129759,0.00360571659533,0.00868167750876,0.00514709794977,0.00120429922642,-0.0848630855133,0.573741044858,0.819002620563,0.00605539908576,0.0,0.819000455803,-0.573650922001,-0.0119841554922,0.0,-0.00634149157811,0.0118354043734,-0.99990985028,0.0,0.268251184039,-0.255614994881,0.304961922539,1.0,-0.0180981818182,-0.0237861818182,2.686
-0.633547317475,-0.521469006448,-0.125589788078,-2.64212877299,-0.067641739763,2.11036302878,-0.881389612057,-0.078683709174,0.0168853416811,0.00143932061188,0.0103052717285,0.00283635761037,-0.000357667352542,-0.0794067070734,0.5737333196,0.819008158924,0.00603825285785,0.0,0.819005782463,-0.57364329064,-0.0119854201563,0.0,-0.00635247596192,0.0118220265103,-0.999909938814,0.0,0.267964267357,-0.256006758603,0.304958338037,1.0,-0.0177581818182,-0.0233393246753,2.703
-0.634797188667,-0.521251023604,-0.125574290981,-2.64199087415,-0.0676115201642,2.11039016305,-0.88268823542,-0.0798489236788,0.0150813695681,2.15007961055e-05,0.00654718175733,0.00503796615283,0.00136436327958,-0.0832754554645,0.573702773774,0.819029424838,0.00605603124851,0.0,0.819026972864,-0.573612105865,-0.0120298224467,0.0,-0.006379088539,0.0118618238236,-0.999909298069,0.0,0.26768163389,-0.256369970685,0.304943590216,1.0,-0.0174381818182,-0.0229187532468,2.719
-0.636177969495,-0.521034307339,-0.125577174276,-2.64182897454,-0.0675804678044,2.11040911375,-0.884047081858,-0.0769665524829,0.00944655568108,0.000963469326512,0.0104544663079,0.00398441522635,0.000502255055966,-0.0748135345197,0.573744614429,0.818999922193,0.00608208543897,0.0,0.818997613011,-0.573653461057,-0.0120566745394,0.0,-0.00638552908835,0.0118988946321,-0.999908816505,0.0,0.267365341397,-0.256776821739,0.304939066451,1.0,-0.0170781818182,-0.0224456103896,2.737
-0.637397211145,-0.520856979827,-0.125577227976,-2.64167502485,-0.0675522201764,2.11045334507,-0.885251515897,-0.0739760560598,0.0177465782277,-0.00146353150965,0.0126916051071,0.000476209511971,0.00466063789558,-0.0837136317771,0.573776835406,0.818977215204,0.00610008433659,0.0,0.818975306226,-0.57368590821,-0.0120280262171,0.0,-0.00635126927454,0.0118974503194,-0.999909051891,0.0,0.267093423827,-0.257141948968,0.304947621346,1.0,-0.0167581818182,-0.022025038961,2.753
-0.638677108953,-0.520678608303,-0.125562913748,-2.64151008892,-0.0675313249847,2.11049439695,-0.886570421148,-0.0747153139613,0.0107317287896,-0.000288134220177,0.00897086853699,2.01202019289e-05,0.000946256691374,-0.0770028489246,0.573752183059,0.818994450421,0.00610487636507,0.0,0.818992818841,-0.573661644313,-0.0119928075384,0.0,-0.00632003108523,0.0118809781547,-0.999909445683,0.0,0.266809855174,-0.257522901129,0.304960839925,1.0,-0.0164181818182,-0.0215781818182,2.77
-0.639934284758,-0.520496229185,-0.125534642583,-2.6413567817,-0.067501368363,2.11053544435,-0.887809379162,-0.07019464329,0.0104950020818,0.00156439963411,0.00898125572723,0.00347302166033,0.00143209720942,-0.0719125647962,0.573767841923,0.818983433997,0.00611108134625,0.0,0.818982002695,-0.573677498996,-0.011973024224,0.0,-0.00630003992674,0.0118748305372,-0.999909644866,0.0,0.26653263449,-0.257890468881,0.304967627181,1.0,-0.0160781818182,-0.0211313246753,2.787
-0.641127969292,-0.520314323,-0.125503466025,-2.64120822844,-0.0674788689553,2.11055177001,-0.889018876114,-0.0679803813695,0.00746156710325,0.00165701853665,0.00620789057138,0.000441552569718,0.00147698423304,-0.07463759237,0.573739025848,0.819003629877,0.00610994014197,0.0,0.819002080322,-0.573648498981,-0.0119891178494,0.0,-0.00631429461609,0.0118829072654,-0.999909459,0.0,0.266252464993,-0.258253560511,0.304969288107,1.0,-0.0157181818182,-0.0206581818182,2.805
-0.642220799191,-0.520121954178,-0.125445948531,-2.64105729978,-0.0674515005613,2.11057475367,-0.89017763475,-0.0642519553612,0.0126241196057,0.00630416166861,0.00911840667664,0.000214403573947,0.000994511498209,-0.0672545714261,0.573675022185,0.819048511812,0.00610336964887,0.0,0.819046842397,-0.573584471692,-0.0119946110298,0.0,-0.00632349200494,0.0118801831178,-0.999909433248,0.0,0.26603299367,-0.258550153364,0.304971531595,1.0,-0.0154181818182,-0.0202638961039,2.82
-0.643360376307,-0.519923542244,-0.125397317749,-2.64091379309,-0.0674273742363,2.11063623903,-0.891285503372,-0.0693833357799,0.010361249474,0.00295023003383,0.00532930444073,0.00169087684038,2.37977417454e-05,-0.0670735221611,0.573684399661,0.819042023213,0.00609267578097,0.0,0.819040308343,-0.573594067891,-0.0119818817904,0.0,-0.00631906367949,0.0118641941345,-0.999909651084,0.0,0.26578934661,-0.258881847629,0.304970156715,1.0,-0.0150781818182,-0.019817038961,2.837
-0.644634719613,-0.519706050814,-0.125343307664,-2.64075012494,-0.067400295194,2.11067924728,-0.892611910865,-0.0665197449224,0.0166918381444,-0.0011223579706,0.0117654940238,0.00371657742923,-0.000266355801959,-0.0683684915917,0.573623639049,0.819084641774,0.00608417913225,0.0,0.819082798376,-0.573533321673,-0.0119852090309,0.0,-0.00632754300308,0.0118586740047,-0.999909662945,0.0,0.265513077757,-0.259249870566,0.304969461313,1.0,-0.0146981818182,-0.0193176103896,2.856
-0.645558715952,-0.519547784781,-0.125319883577,-2.64063591203,-0.0673792277509,2.11068966294,-0.893503410775,-0.0653439665458,0.0129823750455,-0.000446857382403,0.010359188243,0.00119473868028,0.000366591498323,-0.0605781125758,0.573648694345,0.819067057715,0.00608911689,0.0,0.819065097693,-0.573558012255,-0.0120132935013,0.0,-0.00634735338801,0.0118790219602,-0.999909295857,0.0,0.265304824599,-0.259515788845,0.304964568339,1.0,-0.0144181818182,-0.0189496103896,2.87
-0.646725619287,-0.519372628428,-0.12530935113,-2.64049191498,-0.0673547481067,2.11072891347,-0.894634941571,-0.0626684283068,0.00952214827328,-0.000887033292511,0.00762950016922,0.0012638865249,0.00308685933976,-0.059006730641,0.573688143326,0.819039350506,0.00609946157254,0.0,0.819037613522,-0.573597575103,-0.0119981821106,0.0,-0.00632846875829,0.0118791319785,-0.99990941425,0.0,0.265041762392,-0.259859769664,0.304969141664,1.0,-0.0140581818182,-0.0184764675325,2.888
-0.647807738867,-0.519219867382,-0.125289575982,-2.64035774355,-0.0673317038333,2.11076590148,-0.895718230944,-0.063235807204,0.00476165725961,-1.35224929147e-05,0.00923341137586,1.39542281056e-05,0.00110754789145,-0.061464036938,0.573689927895,0.819038064815,0.00610425399981,0.0,0.819036542573,-0.573599625711,-0.0119732291004,0.0,-0.0063052539781,0.0118687565406,-0.999909684117,0.0,0.26480008511,-0.260176709281,0.304977510575,1.0,-0.0137181818182,-0.0180296103896,2.905
-0.648727164156,-0.51906689749,-0.125272218312,-2.64023371574,-0.0673141683919,2.11080862337,-0.896652933372,-0.0603507718404,0.0110729290965,0.00108640874516,0.0105759818015,0.00179048742689,0.000642832021066,-0.0615150025468,0.573679046023,0.819045684155,0.00610461481472,0.0,0.819044285004,-0.573588967663,-0.0119541741043,0.0,-0.00628959609243,0.0118580373763,-0.999909909907,0.0,0.264597966503,-0.260449671103,0.304981614877,1.0,-0.0134181818182,-0.0176353246753,2.92
-0.649777209569,-0.518870543904,-0.125262481684,-2.64008470276,-0.0672956904463,2.11085184154,-0.897693317734,-0.0558380513686,0.0145878837787,0.00203576236646,0.00961676842795,0.000629812645659,0.00185266133735,-0.0653859400829,0.573695762286,0.81903394468,0.00610873946048,0.0,0.819032607191,-0.573605678532,-0.0119524397367,0.0,-0.00628556723953,0.0118605491852,-0.99990990545,0.0,0.264364785294,-0.260764326469,0.304980951344,1.0,-0.0130581818182,-0.0171621818182,2.938
-0.650770028848,-0.518695853581,-0.12524270015,-2.6399610228,-0.0672819984969,2.1108720919,-0.898705996591,-0.0528791386496,0.0128166533962,0.000608976134027,0.00791032940898,-0.000119566738196,-0.000214272565293,-0.0581782171788,0.573677866411,0.819046477741,0.00610899263412,0.0,0.819044982213,-0.573587481247,-0.011977702995,0.0,-0.00630637516876,0.0118751114947,-0.999909601594,0.0,0.264138982917,-0.261052592826,0.304975018402,1.0,-0.0127181818182,-0.0167153246753,2.955
-0.651704039016,-0.518536739054,-0.125232419227,-2.6398548145,-0.0672685084188,2.11090052416,-0.899638859284,-0.0611718338198,0.0147170491408,0.000383011469105,0.00554887794276,-0.000107960096587,-0.000271546771739,-0.0578635834174,0.573682936842,0.819042889547,0.00611391517125,0.0,0.819041332226,-0.573592293116,-0.0119968447353,0.0,-0.00631915741785,0.0118901632701,-0.999909342024,0.0,0.263923782434,-0.261324164322,0.30496734872,1.0,-0.0123981818182,-0.0162947532468,2.971
-0.652669338602,-0.518364164231,-0.12522833755,-2.6397330029,-0.0672588990919,2.11093426102,-0.90056246233,-0.062320608067,0.0160466140313,0.00310061806264,0.00149556070428,-0.000144253967914,0.00274385922242,-0.0512747763329,0.5737247427,0.819013589007,0.00611617014812,0.0,0.819011985836,-0.573633939215,-0.0120090689909,0.0,-0.00632726973942,0.0118993457749,-0.99990918149,0.0,0.263702526511,-0.261610086748,0.304962106136,1.0,-0.0120581818182,-0.0158478961039,2.988
-0.653651785523,-0.518193741524,-0.125236260784,-2.6396023204,-0.0672473410312,2.11097746355,-0.901527398216,-0.0526752575511,0.00680678631391,-5.42724282955e-05,0.00878124082611,0.00434739098457,0.00421251228179,-0.0536060654338,0.573756480406,0.818991296998,0.00612401295682,0.0,0.818989846097,-0.573665731612,-0.0120003026861,0.0,-0.00631512867378,0.0119009849928,-0.999909238734,0.0,0.263477590254,-0.261906416503,0.304962203355,1.0,-0.0116981818182,-0.0153747532468,3.006
-0.654482714937,-0.518047801356,-0.125216407509,-2.63949309827,-0.0672367096926,2.11099760528,-0.902389114731,-0.052114150903,0.00804597256476,0.000732592892401,0.0109809905391,0.000185142267412,0.000104016825545,-0.0523732715157,0.573727458291,0.819011650946,0.00612095739466,0.0,0.819010083564,-0.573636584076,-0.0120124656492,0.0,-0.00632726605157,0.0119052364247,-0.999909111395,0.0,0.263290067071,-0.262148350625,0.304960250452,1.0,-0.0113781818182,-0.0149541818182,3.022
-0.655345713949,-0.517892630003,-0.125183752044,-2.63939117539,-0.0672297640807,2.11102616789,-0.903212904494,-0.0524168436859,0.0163885425454,0.00404778748618,0.00401399761875,0.000178343873139,0.00341299199448,-0.0537822948684,0.573744802068,0.818999593728,0.00610855747347,0.0,0.818997746805,-0.573653755085,-0.012033574148,0.0,-0.00635141768996,0.0119073246776,-0.99990893341,0.0,0.263095844846,-0.262395325286,0.304952591545,1.0,-0.0110381818182,-0.0145073246753,3.039
-0.656190984821,-0.517736004012,-0.125145396723,-2.63926867171,-0.067219084822,2.11105334818,-0.904019875205,-0.051125127648,0.00733225440054,0.00135187383581,0.00794735293799,-0.000324355075941,5.76716194791e-05,-0.0517760114906,0.573759901932,0.818989128192,0.00609341774575,0.0,0.818987080313,-0.573668909168,-0.0120371024583,0.0,-0.0063627742401,0.0118970661901,-0.999908983318,0.0,0.262912085951,-0.262640970894,0.304953758372,1.0,-0.0106981818182,-0.0140604675325,3.056
-0.656958458286,-0.517604409417,-0.125131807136,-2.63917064594,-0.0672065480042,2.11108848769,-0.904782397419,-0.0532794360469,0.00434110306534,-0.000191744477079,0.00321723185461,6.27209680766e-05,0.00304030694908,-0.0411516666835,0.573764798546,0.818985699058,0.00609324133927,0.0,0.818983685779,-0.573673874509,-0.0120314186553,0.0,-0.00635814886471,0.0118936987419,-0.999909052801,0.0,0.262739504277,-0.262866479856,0.304953118784,1.0,-0.0103781818182,-0.0136398961039,3.072
-0.657747732775,-0.517457852533,-0.125133573576,-2.63904607053,-0.0671896860981,2.11112134084,-0.905602013481,-0.0471901329745,0.0115196594697,0.000182916478059,0.0113838487575,-0.000589844655606,0.00581816572736,-0.0489328747773,0.573754835473,0.818992614742,0.00610185799587,0.0,0.818990802992,-0.573664044345,-0.0120156456786,0.0,-0.00634043060915,0.0118916293399,-0.999909189922,0.0,0.262563361968,-0.263106781835,0.304958465594,1.0,-0.0100381818182,-0.013193038961,3.089
-0.658525488505,-0.517301645964,-0.125124793357,-2.63893236358,-0.0671746622771,2.11115137442,-0.906360282166,-0.0463442676209,0.00863633680503,0.000790983250192,0.00185508141984,0.00163727261086,0.00117649737875,-0.046618373676,0.573776954741,0.818977091709,0.00610543736603,0.0,0.818975273114,-0.573686043558,-0.0120238245304,0.0,-0.00634475479459,0.0118994247585,-0.999909069754,0.0,0.262389067211,-0.263338468359,0.304955317656,1.0,-0.00969818181819,-0.0127461818182,3.106
-0.659232110885,-0.517155357479,-0.12510657328,-2.63882929433,-0.0671568720465,2.11118290447,-0.907043039813,-0.0464499597353,0.0139287394614,0.00133578659269,0.00856753343876,0.000421435044054,0.00110595250262,-0.0451798084741,0.573796594559,0.818963321491,0.00610680159754,0.0,0.818961472552,-0.573705583235,-0.0120315061654,0.0,-0.00634997833633,0.0119051017041,-0.999908969021,0.0,0.262233689205,-0.263546694262,0.304951338583,1.0,-0.00937818181819,-0.0123256103896,3.122
-0.660003128411,-0.517003672647,-0.125077663374,-2.63875272634,-0.067143250437,2.11122170218,-0.907806499139,-0.0461215386699,0.00878778367863,0.00772399616461,0.00604095004181,-0.000261680464794,0.000695855013738,-0.042767774216,0.573792305543,0.818966348264,0.00610388504173,0.0,0.818964259348,-0.573700929505,-0.0120636767977,0.0,-0.00637806360914,0.0119211381343,-0.999908599208,0.0,0.262058147002,-0.263763884987,0.304934193276,1.0,-0.00901818181819,-0.0118524675325,3.14
-0.660682752768,-0.51686711721,-0.12504002919,-2.63867945824,-0.0671222037473,2.11123454268,-0.908498305883,-0.0331210174768,0.0104482706647,0.00283550756574,0.001813885263,-0.000101061783476,0.00148851550371,-0.039371250432,0.573768614946,0.818982937164,0.00610508295173,0.0,0.818980565777,-0.573676682559,-0.0121096518565,0.0,-0.00641537802691,0.0119483125052,-0.999908036148,0.0,0.261904669646,-0.263950108321,0.304919117527,1.0,-0.00867818181819,-0.0114056103896,3.157
-0.661255033172,-0.516750121915,-0.1250154729,-2.63861149398,-0.0671066195205,2.11124756082,-0.909102961953,-0.034162962157,0.00891904953068,0.00192871706741,0.0034723884325,0.000245736791443,-0.00022784306232,-0.0342169067885,0.573734999639,0.819006472514,0.00610696904661,0.0,0.819003912482,-0.573642669378,-0.0121419153943,0.0,-0.00644121328426,0.01196810379,-0.999907633366,0.0,0.261775285317,-0.264110512417,0.304908544515,1.0,-0.00837818181819,-0.0110113246753,3.172
-0.661908642976,-0.516629506702,-0.124992325138,-2.63853607231,-0.0670897558964,2.11127536391,-0.909753079836,-0.03287941309,0.005912134472,-0.00082517354736,0.00426216061723,0.0017235536532,0.000500463543339,-0.0352176579165,0.573732653429,0.81900810545,0.00610839562212,0.0,0.81900547573,-0.573640153317,-0.012155333364,0.0,-0.00645141975816,0.0119769517201,-0.999907461624,0.0,0.26162804144,-0.264296282583,0.304901248656,1.0,-0.00801818181819,-0.0105381818182,3.19
-0.66251413435,-0.516525776605,-0.124986996933,-2.63845846499,-0.0670679209158,2.11129208138,-0.910339516426,-0.0359189636285,0.00510369062649,0.00235006551335,0.00806595594721,0.000313108369905,0.000398673347492,-0.0291260362195,0.573757858469,0.818990344961,0.00612222236863,0.0,0.818987852675,-0.573665211269,-0.0121601583494,0.0,-0.00644707041892,0.0119912430331,-0.999907318392,0.0,0.261489034323,-0.264472030024,0.304899807201,1.0,-0.00767818181819,-0.0100913246753,3.207
-0.66308257025,-0.516441418254,-0.124985233044,-2.63837542672,-0.0670503357361,2.11130898668,-0.910876622352,-0.0377617326731,0.00252995065613,-0.000702563750168,0.00985342591587,1.55378816118e-05,0.00528259602988,-0.0370192740063,0.573793988813,0.818964960913,0.00613172901984,0.0,0.818962711658,-0.573701513105,-0.0121407444741,0.0,-0.00642518581177,0.0119881744337,-0.999907496052,0.0,0.261360230704,-0.264640989565,0.304907904724,1.0,-0.00735818181819,-0.00967075324676,3.223
-0.663652563004,-0.516371078796,-0.124975625813,-2.63829617042,-0.0670252683015,2.11132992101,-0.911435306612,-0.0338700073393,0.00173783643235,0.000663422437015,0.00747243698799,0.00069426411945,0.00538102291052,-0.0327452690385,0.573811098317,0.818952886498,0.00614329278057,0.0,0.818950998203,-0.573718960745,-0.012106342364,0.0,-0.006390123504,0.0119780399778,-0.999907842193,0.0,0.261233410477,-0.264807684682,0.304919986754,1.0,-0.00701818181819,-0.0092238961039,3.24
-0.664187718532,-0.516318823447,-0.124966855446,-2.63821920762,-0.067000691223,2.11134522117,-0.911996448218,-0.0319876137325,-0.000271116662518,0.0028370320641,0.00277695058779,0.000124941039592,-0.000344245579453,-0.0374448974651,0.573797860087,0.818962074209,0.00615497093755,0.0,0.818960608328,-0.57370618215,-0.0120617358339,0.0,-0.00634708152028,0.0119619072575,-0.999908309462,0.0,0.261114486979,-0.264964368114,0.30493719681,1.0,-0.00667818181819,-0.00877703896105,3.257
-0.66467457206,-0.516249288432,-0.124936933245,-2.63814652345,-0.0669777867736,2.11135923597,-0.912460306977,-0.0313166728967,0.00528221181652,0.00544798153651,0.00472178098729,0.00506687045662,0.000176095193778,-0.0307491222108,0.573799677211,0.818960799908,0.00615512378842,0.0,0.818959461876,-0.573708235619,-0.0120418889228,0.0,-0.00633071166176,0.0119506589297,-0.999908547739,0.0,0.261008222496,-0.265107556266,0.304946127922,1.0,-0.00633818181819,-0.00833018181819,3.274
-0.665182679855,-0.516152570524,-0.124876783208,-2.63807183203,-0.0669534558678,2.1113855673,-0.912963375713,-0.0275411660341,0.00756976410483,0.00458261370688,0.00211173800762,0.000679465441792,0.00278368119274,-0.0303186858055,0.573784546262,0.818971498776,0.00614211395585,0.0,0.818970053474,-0.57369328101,-0.0120340241845,0.0,-0.00633195522479,0.0119353742942,-0.999908722426,0.0,0.260910967663,-0.265241063345,0.304948394531,1.0,-0.00599818181819,-0.00788332467533,3.291
-0.665592612129,-0.516082715986,-0.124832355939,-2.63800553603,-0.0669336709433,2.11141110958,-0.913386076522,-0.024529062463,0.000308229914594,0.00303306275879,0.00368298860123,5.73828378189e-06,0.00142940029394,-0.024914647032,0.573754335731,0.818992741204,0.00613180129105,0.0,0.818991323762,-0.573663426448,-0.0120096486036,0.0,-0.00631834653955,0.0119127093699,-0.999909078793,0.0,0.260831311568,-0.265356106781,0.304955970609,1.0,-0.00567818181819,-0.00746275324676,3.307
-0.666012336134,-0.515973570431,-0.124794236868,-2.63795424611,-0.0669079255585,2.11143153547,-0.913816767435,-0.0226021257299,0.0089678760445,0.000988822556353,0.000549246642446,0.00813849655078,0.000441933519111,-0.0248236439488,0.573732127933,0.819008275009,0.00613496093123,0.0,0.819006678381,-0.573640794938,-0.0120435066093,0.0,-0.00634458986068,0.0119345504261,-0.999908652171,0.0,0.260743094204,-0.265469131294,0.304941646635,1.0,-0.00533818181819,-0.0070158961039,3.324
-0.666411182287,-0.515887545794,-0.124767328898,-2.63791745132,-0.0668828681018,2.11145529015,-0.914220977378,-0.024121208042,0.00203600751934,0.00168896951124,0.00231646301849,0.00282176902207,0.000429963792565,-0.024821646646,0.57372139962,0.819015726803,0.00614343290105,0.0,0.819014092499,-0.57362975392,-0.0120651816053,0.0,-0.00635763998251,0.011953841148,-0.999908338847,0.0,0.260655573673,-0.265576277124,0.304929287865,1.0,-0.00499818181819,-0.00656903896105,3.341
-0.666780983227,-0.515822225171,-0.124755502321,-2.63790072654,-0.0668590187893,2.11145858047,-0.914617427196,-0.0267192741757,0.00203039285715,0.000592428067063,-0.000731245940677,1.88751177965e-05,-0.000201754843926,-0.0174298712604,0.573702434185,0.819028864771,0.00616300108359,0.0,0.819027202679,-0.573610175151,-0.0121059958466,0.0,-0.00638012274129,0.0119931357281,-0.999907725107,0.0,0.260564996717,-0.265671409552,0.304913350922,1.0,-0.00465818181819,-0.00612218181819,3.358
-0.667154449261,-0.515768501324,-0.124733981976,-2.63787824751,-0.0668411260851,2.11146253553,-0.914983946304,-0.0232313962097,0.00398592980131,0.000621444710908,0.00317994135568,0.00373133882368,6.62190076171e-05,-0.0251717880715,0.573701760436,0.819029278281,0.0061707610979,0.0,0.819027555983,-0.573609163805,-0.0121299892774,0.0,-0.00639533438005,0.0120132508754,-0.999907386462,0.0,0.260476683535,-0.265767763714,0.304904587738,1.0,-0.00431818181819,-0.00567532467533,3.375
-0.667516094567,-0.515727017619,-0.124717851587,-2.63785233818,-0.066818042916,2.11146482324,-0.915337242657,-0.0190717109866,0.00109665584346,0.000891557863923,0.00109310346342,0.00408603776226,-0.000282424363289,-0.0199772794359,0.573708380443,0.819024538462,0.00618437609397,0.0,0.81902292036,-0.573615583498,-0.0121394066701,0.0,-0.00639514056975,0.0120298567214,-0.999907188055,0.0,0.260391534567,-0.265862523415,0.304901633933,1.0,-0.00395818181819,-0.00520218181819,3.393
-0.667816790124,-0.515678257556,-0.124696131531,-2.6378066034,-0.0668049676276,2.11146822273,-0.915627694213,-0.02480300412,0.00823161414744,0.00108966547747,1.984647847e-05,0.00069151699136,0.0016419714775,-0.0172928969002,0.573709249596,0.819023939649,0.00618305030139,0.0,0.819022320514,-0.573616488999,-0.0121370897872,0.0,-0.00639399059231,0.0120274484454,-0.99990722438,0.0,0.260327376088,-0.265946380847,0.304905219,1.0,-0.00363818181819,-0.00478161038962,3.409
-0.668092520537,-0.515645563554,-0.124673614514,-2.63775359238,-0.0667857075118,2.11147557661,-0.915874018542,-0.0205468215236,0.00437510082005,0.00133016489688,0.000870879656541,0.000406967027462,0.000595948188356,-0.0203104970221,0.57372813834,0.819010705598,0.00618338858745,0.0,0.819009282926,-0.57363573389,-0.0121072782544,0.0,-0.00636910048065,0.0120107701109,-0.99990758371,0.0,0.260273184993,-0.266025679506,0.304918398302,1.0,-0.00331818181819,-0.00436103896105,3.425
-0.668349308663,-0.515603202765,-0.124654033698,-2.63769690615,-0.0667718673771,2.11148798518,-0.916121712468,-0.0153685126477,0.00485685069849,0.00191856009695,0.00484848317281,-9.9165543447e-05,0.0013614143314,-0.0174443749393,0.57373037359,0.819009166162,0.00617989195322,0.0,0.819007881692,-0.573638330951,-0.0120789855295,0.0,-0.00634789917778,0.0119916919753,-0.999907947513,0.0,0.260224264129,-0.266102724448,0.304930037432,1.0,-0.00297818181819,-0.00391418181819,3.442
-0.668586684854,-0.51558371134,-0.124621780245,-2.63767076985,-0.0667519792033,2.11149748485,-0.916348732677,-0.0128466131156,0.000621676493256,0.00535820715117,-0.000694238719032,0.000257671046854,-0.000433185346064,-0.0147970908367,0.573725709828,0.819012439124,0.00617910539441,0.0,0.81901126098,-0.57363389199,-0.0120606488278,0.0,-0.00633339907505,0.0119804918721,-0.999908173719,0.0,0.260177035227,-0.26616339325,0.304936293968,1.0,-0.00263818181819,-0.00346732467533,3.459
-0.668786201471,-0.515570856226,-0.124598904982,-2.63765419417,-0.0667401017421,2.11150706505,-0.916536635473,-0.00854577102477,0.00105523425623,0.002380596621,-0.000345686258231,0.000368430836164,0.000420475973684,-0.00929084075541,0.573724849995,0.8190130582,0.0061768840881,0.0,0.819011946912,-0.573633223261,-0.0120458660116,0.0,-0.0063225773609,0.0119701849966,-0.999908365645,0.0,0.260135053651,-0.26621465733,0.304940439136,1.0,-0.00231818181819,-0.00304675324676,3.475
-0.669006020687,-0.515554540058,-0.124565676913,-2.63764020431,-0.066728448066,2.11151800412,-0.916735563548,-0.0155979484125,0.00324585934146,0.00190546440093,-0.000821114016069,-0.000373234551543,-0.000239067119795,-0.0171961962779,0.573724032378,0.819013683164,0.00616995649516,0.0,0.819012551326,-0.57363256761,-0.0120359897121,0.0,-0.00631847392844,0.0119588386066,-0.99990852735,0.0,0.260089498241,-0.26626844736,0.304942490428,1.0,-0.00195818181819,-0.00257361038962,3.493
-0.669200967965,-0.515537963716,-0.124544636347,-2.6376172038,-0.0667134096357,2.11153029918,-0.916903107257,-0.0112130724727,0.000237024150477,0.000176497136312,-0.00017316934277,0.00110697628071,0.000543906230791,-0.00950721614882,0.573739067047,0.819003151897,0.00616984825401,0.0,0.819002148872,-0.573647846226,-0.0120156383196,0.0,-0.00630164681958,0.0119471901181,-0.999908772787,0.0,0.260050379645,-0.266320590018,0.304948370602,1.0,-0.00161818181819,-0.00212675324676,3.51
-0.669358399743,-0.515508375977,-0.124526114194,-2.63759436799,-0.0667052681845,2.1115398771,-0.917028783454,-0.0121108248,0.000662271089459,0.00148033322674,0.000263921765263,-0.000167034440399,0.000796733084745,-0.00661228093945,0.573756568069,0.818990922101,0.00616579401458,0.0,0.818989895077,-0.573665415389,-0.0120120710275,0.0,-0.00630079565241,0.0119419575609,-0.999908840657,0.0,0.260019305813,-0.266363542226,0.304949077149,1.0,-0.00129818181819,-0.00170618181819,3.526
-0.669538158031,-0.515473375484,-0.124506131942,-2.63756884668,-0.0666954946373,2.11154599972,-0.917136444612,-0.00870061995848,0.00266301772874,0.0021554376612,0.00143587016391,9.11338820445e-05,-0.000999704782626,-0.000546270168986,0.573806917821,0.818955671253,0.00616250633917,0.0,0.818954594225,-0.573715754827,-0.0120146644641,0.0,-0.00630407199804,0.0119411403672,-0.999908829765,0.0,0.259982700342,-0.266411929668,0.304948745325,1.0,-0.000898181818187,-0.00118046753247,3.546
-0.669644841058,-0.515451224647,-0.124493537475,-2.63756148139,-0.066687949661,2.11155307267,-0.917193952817,-0.00886337995005,0.000288229880701,-0.000912907284683,0.000383263008395,-0.000250438374204,4.57299506626e-05,-0.00363188584757,0.573841898385,0.818931160756,0.00616250778886,0.0,0.818930043275,-0.573750651316,-0.0120216985747,0.0,-0.00630932218445,0.011945447089,-0.99990874521,0.0,0.259960048479,-0.266438751288,0.304944816226,1.0,-0.000598181818187,-0.000786181818189,3.561
-0.669716990883,-0.515444560377,-0.124486323386,-2.63755778826,-0.0666784001762,2.11155406322,-0.917238328117,-0.00487207930949,0.000797715173554,0.000196294746054,-0.000381071452899,0.000193036775744,8.68573570236e-05,-0.00501940813545,0.573863794331,0.8189157821,0.00616719423788,0.0,0.818914717221,-0.573772506619,-0.0120226231935,0.0,-0.00630707080942,0.0119499843633,-0.999908705198,0.0,0.259944146108,-0.266455992983,0.3049442928,1.0,-0.000298181818187,-0.000391896103904,3.576
