nelsonifechukwu/NELSON_IML_WORK/CNN-GradCAM/train2dof/data_sample_2022-02-21-14-53-08/robot_state.csv
position_joint1,position_joint2,position_joint3,position_joint4,position_joint5,position_joint6,position_joint7,velocity_joint1,velocity_joint2,velocity_joint3,velocity_joint4,velocity_joint5,velocity_joint6,velocity_joint7,ee_T_00,ee_T_10,ee_T_20,ee_T_30,ee_T_01,ee_T_11,ee_T_21,ee_T_31,ee_T_02,ee_T_12,ee_T_22,ee_T_32,ee_T_03,ee_T_13,ee_T_23,ee_T_33,v_x,v_y,time
0.465085835143,0.547893615083,-0.123969690677,-1.35585678312,0.0794624734378,1.89409233215,0.15916708086,-0.0020451168005,0.00204389100927,0.000173967668573,-0.000915805698611,-0.000212210598879,-7.67955815198e-05,0.000636292222446,0.573780587754,0.818995319704,0.00180286447009,0.0,0.818950461189,-0.573722836838,-0.0119580729693,0.0,-0.00875942992246,0.00833792735689,-0.999926873004,0.0,0.661661596294,0.26089843676,0.303122009872,1.0,0.0,0.0,0.0
0.465093591025,0.547896206822,-0.123971538019,-1.35585933949,0.079467332739,1.89409278778,0.159167536596,0.00167875448768,0.00207848982342,-0.000251896852108,-0.000192128407958,0.000159081453812,0.000173179694651,0.00145070196123,0.573777334165,0.818997603083,0.0018010673985,0.0,0.818952682961,-0.573719555022,-0.0119633673108,0.0,-0.00876483031607,0.00833945854184,-0.999926812912,0.0,0.661659159408,0.26090297928,0.303119066995,1.0,-0.00026,-0.000341714285714,0.014
0.465087825347,0.547883374702,-0.123970348789,-1.355860806,0.0794635396947,1.89409233218,0.159166010231,-0.00120472537047,-0.00067849538795,-0.000636182168877,0.000912184101945,-5.0824055156e-05,0.00014391579733,0.000552116332658,0.573779025882,0.818996400397,0.0018090041259,0.0,0.818951611156,-0.573721238602,-0.0119559969554,0.0,-0.00875422292783,0.00834174773453,-0.99992688674,0.0,0.66166051868,0.260899204256,0.303127373345,1.0,-0.00056,-0.000736,0.029
0.465094979676,0.547856790102,-0.123970064663,-1.35589086405,0.0794644496451,1.89409392796,0.159164523841,0.00198144887629,-0.00250042747358,0.000138505175889,-0.00511817362815,0.00027038300322,-0.000487073704418,-0.000181465814078,0.573773596552,0.819000202912,0.00180953904589,0.0,0.818955380769,-0.573715769646,-0.0119602203359,0.0,-0.00875743040323,0.0083445510345,-0.999926835264,0.0,0.661652666669,0.260901139372,0.303132031605,1.0,-0.00092,-0.00120914285714,0.047
0.465085407579,0.547756729991,-0.123972597659,-1.35599209103,0.0794632642004,1.89411617622,0.159167417928,-0.00110729124259,-0.0101134820303,-0.00138913704644,-0.0098499023907,-7.33912153644e-05,0.00167045344566,0.000425448801513,0.573790768014,0.818988125044,0.00183097769536,0.0,0.818943531434,-0.573732798677,-0.0119547039357,0.0,-0.00874043688475,0.00835912703154,-0.999926862205,0.0,0.661639694162,0.260883963188,0.303156750597,1.0,-0.00126,-0.001656,0.064
0.465081218702,0.547645028059,-0.123967481064,-1.35615238022,0.0794605579036,1.89414138327,0.159162500539,-0.000972026084949,-0.00729402457743,-0.000528654050919,-0.0114072332708,-2.35525808935e-05,-0.000337524054225,0.000569527251947,0.573805027432,0.818978189312,0.00180632938143,0.0,0.818933175249,-0.573747067557,-0.0119793090924,0.0,-0.008774585622,0.00835321166346,-0.999926612558,0.0,0.661611230021,0.260858499909,0.30315604197,1.0,-0.00158,-0.00207657142857,0.08
0.465065121318,0.547472795265,-0.123972201472,-1.35637766659,0.0794563792344,1.89424273445,0.159158070902,0.000399146929284,-0.0130050914862,-0.000578921919277,-0.0084601246515,0.000145592667465,0.00944976736338,0.000106846416038,0.573819047683,0.81896824049,0.00186238689813,0.0,0.818923882494,-0.573760774344,-0.0119580686885,0.0,-0.0087248819057,0.00838708217361,-0.999926763962,0.0,0.661589622802,0.260836216181,0.303185335423,1.0,-0.00192,-0.00252342857143,0.097
0.465038926001,0.547284743681,-0.123967563244,-1.3565928593,0.0794554972356,1.89437614706,0.159149634876,-0.00459681443754,-0.0127066723001,-0.000251670111277,-0.00856356462436,0.000202731828698,0.0150274964635,0.000333252427791,0.573842459559,0.818951609404,0.00195958244421,0.0,0.818908458533,-0.573783717256,-0.0119134065981,0.0,-0.00863229320627,0.00844129970391,-0.99992711133,0.0,0.661577681883,0.260807435725,0.303227547145,1.0,-0.00226,-0.00297028571429,0.114
0.465012404955,0.547099109111,-0.123964775925,-1.35684675402,0.0794527405668,1.89449836578,0.159135102217,-0.00394508605019,-0.00851031747263,-0.000404360680241,-0.0240437160906,0.000316347280232,0.0095970903532,-0.000486115480055,0.573863969564,0.818936409003,0.00201229888451,0.0,0.818893855648,-0.573804919686,-0.0118959752398,0.0,-0.00858754558152,0.00847469392931,-0.999927214163,0.0,0.661555163731,0.260771666899,0.303248706301,1.0,-0.00258,-0.00339085714286,0.13
0.464978647,0.546878540615,-0.123970434275,-1.35718265052,0.0794428021183,1.89461713316,0.159106068723,-0.000373736223974,-0.0104220252998,0.000232232747623,-0.0202988029549,-0.00234914742877,0.0100125128205,-0.00238982699223,0.573887910656,0.818919614003,0.00201958034452,0.0,0.818877082563,-0.573828755974,-0.0119008139541,0.0,-0.00858708202088,0.00848368465297,-0.999927141904,0.0,0.661518275526,0.260715538879,0.303255536259,1.0,-0.0029,-0.00381142857143,0.146
0.464934243339,0.546561103812,-0.123969700091,-1.35763138286,0.0794246401,1.89479051336,0.158991407907,-0.00122267653582,-0.0179407669581,-0.000173700955699,-0.0266018375927,-0.000390684372963,0.0157489780046,-0.00801295350152,0.5738501504,0.818945970063,0.00206152993817,0.0,0.818903904446,-0.573790749317,-0.0118877324597,0.0,-0.00855268844886,0.0085101358219,-0.999927211905,0.0,0.661470694663,0.260646331525,0.303281765343,1.0,-0.00328,-0.00431085714286,0.165
0.464897946764,0.546312289817,-0.123967978696,-1.358044797,0.0794090607685,1.89494090529,0.158928186603,-0.00315230566666,-0.0125518450846,0.00126259184957,-0.0289712527425,5.17762925638e-05,0.0109960019897,-0.00116073007611,0.573845897669,0.818948967442,0.0020545938809,0.0,0.818906708982,-0.573786423461,-0.0119033246384,0.0,-0.00856948233621,0.00851335863418,-0.999927040687,0.0,0.661422296477,0.260585197844,0.303274167639,1.0,-0.00358,-0.00470514285714,0.18
0.464837698063,0.545953716903,-0.123967979675,-1.35865097776,0.0793576977869,1.895141314,0.158888024812,-0.00660158828897,-0.0197513012152,0.000629205515961,-0.0368391248445,-0.00635903427201,0.01641081303,-0.00505719862894,0.573882479694,0.818923454172,0.0020056441239,0.0,0.818880656403,-0.573823299386,-0.0119179927966,0.0,-0.00860920425308,0.00848207374197,-0.999926965347,0.0,0.661351105376,0.260483380967,0.303256856466,1.0,-0.00396,-0.00520457142857,0.199
0.464786939859,0.545628496242,-0.123967845872,-1.35921477871,0.0792700539998,1.89533373656,0.158813334114,-0.00609640705252,-0.0193948250601,0.00221056239402,-0.0359467991743,-0.00186997852708,0.0143020164735,-0.0040799178553,0.573870936482,0.818931710433,0.00193618433097,0.0,0.818888468028,-0.573812495869,-0.0119014039332,0.0,-0.00863559657813,0.00841555086663,-0.999927299845,0.0,0.661286640429,0.260386098822,0.303235312899,1.0,-0.00428,-0.00562514285714,0.215
0.464727023039,0.545254002532,-0.123978596427,-1.35988456253,0.0792640513965,1.89553084829,0.158714720938,-0.00613290884036,-0.0208978179038,-0.000183641757866,-0.0406716372491,0.000525854066401,0.0101885728517,-0.00480864775084,0.573882304507,0.81892389946,0.00186932312433,0.0,0.818879445936,-0.573823814979,-0.011976196728,0.0,-0.00873509977632,0.00840383946179,-0.999926534058,0.0,0.661200291415,0.260278058556,0.303199103943,1.0,-0.0046,-0.00604571428571,0.231
0.464659120674,0.544780010852,-0.12397189941,-1.36067241681,0.0792364929193,1.89580826958,0.158643981061,-0.00448003550104,-0.026830938727,0.000907249867424,-0.0477884501637,-0.00131533349123,0.0152186433224,-0.00152446954753,0.573911870347,0.818903223592,0.00184996388416,0.0,0.818858271883,-0.573853224639,-0.0120147426773,0.0,-0.00877747276223,0.00841042359762,-0.999926107643,0.0,0.661104644056,0.26016411043,0.303183447479,1.0,-0.00498,-0.00654514285714,0.25
0.464590919823,0.544357933678,-0.123979664897,-1.36138952209,0.0792046805866,1.89607058106,0.158532068896,-0.00204543306277,-0.0241096207168,-0.00147419225292,-0.0458698128237,-0.00374484666674,0.0103701900746,-0.00584732245699,0.57391306469,0.818902441443,0.00182550761725,0.0,0.818857088858,-0.573854447209,-0.0120369574863,0.0,-0.00880968782226,0.00840315880049,-0.999925885415,0.0,0.661024418508,0.260047594699,0.303163835723,1.0,-0.0053,-0.00696571428571,0.266
0.464531613499,0.543896561855,-0.123977459284,-1.36212523704,0.0791725629699,1.89632347417,0.158436158055,-0.00502299971743,-0.0309838823309,0.000988445012968,-0.0505820386164,-0.00420204050039,0.0171378586944,-0.00135529133466,0.573913859694,0.818901908103,0.00181478884485,0.0,0.818856254287,-0.573855135527,-0.0120608931974,0.0,-0.00883543266369,0.00840812684457,-0.9999256165,0.0,0.660934397634,0.25994036211,0.303161979475,1.0,-0.0056,-0.00736,0.281
0.46444676955,0.543361375727,-0.123982858286,-1.36296972731,0.0791203599493,1.89661378538,0.158366546407,-0.00807869575879,-0.0302579601959,-0.000151499707644,-0.0531080499222,-0.00927593004088,0.0200620538838,-0.00874260860586,0.573963058931,0.818867465659,0.00179654367647,0.0,0.818821577958,-0.573904413487,-0.0120703998169,0.0,-0.0088531838138,0.00839917403957,-0.999925534733,0.0,0.660838138405,0.259799199304,0.303163987111,1.0,-0.00594,-0.00780685714286,0.298
0.464374655878,0.542759771788,-0.123986470323,-1.3639187363,0.0790626633402,1.89695438363,0.158216425423,-0.00226922666015,-0.0326541134763,0.000178868070603,-0.0537238147403,-0.00233959038151,0.0107430969855,-0.00793671934913,0.57393903607,0.818884317986,0.00178984148613,0.0,0.81883833742,-0.57388041828,-0.0120743358986,0.0,-0.00886049992885,0.00839568517654,-0.999925499231,0.0,0.660726033325,0.259658482411,0.303167461931,1.0,-0.0063,-0.00828,0.316
0.464301520078,0.542202318678,-0.123986084585,-1.36478542021,0.0790154431571,1.89727986918,0.158104599392,-0.00444510520563,-0.032409075314,-0.0056319073389,-0.0562017309483,-0.0024741023045,0.0229888630352,-0.00520394487222,0.573942666766,0.81888173758,0.0018061074237,0.0,0.818835918304,-0.573883927863,-0.0120715838889,0.0,-0.00884887393604,0.00840746454985,-0.99992550321,0.0,0.660627352195,0.259529277494,0.303177388562,1.0,-0.00662,-0.00870057142857,0.332
0.464222055986,0.541561931538,-0.123989980394,-1.36574182719,0.0789543106296,1.89764052868,0.157961664412,-0.00924221279947,-0.0338786835545,-0.000731694080897,-0.0568598392811,-0.00178217902043,0.0241911989239,-0.0136757946131,0.573930184587,0.81889040686,0.0018416500773,0.0,0.818845104655,-0.573871341205,-0.012046793233,0.0,-0.00880830279913,0.00842220656773,-0.999925737362,0.0,0.660520440891,0.259383997746,0.303206343228,1.0,-0.00696,-0.00914742857143,0.349
0.464135341218,0.54083610173,-0.123992438757,-1.36685717474,0.0788906646048,1.89806034527,0.157833188977,-0.00618087004394,-0.0445275358469,-0.00138757789153,-0.0679430320582,-0.00183672723606,0.028079459047,-0.0121825328716,0.573942574128,0.818881662995,0.00186829174962,0.0,0.81883668805,-0.573883593271,-0.0120352224504,0.0,-0.0087834101,0.00843751483025,-0.999925827274,0.0,0.660392397429,0.259220627943,0.303225047085,1.0,-0.00732,-0.00962057142857,0.367
0.464057191666,0.540200011254,-0.123986775267,-1.36782973089,0.0788275407816,1.89841508722,0.157716769118,-0.00865398927584,-0.0440067134123,0.00113514308177,-0.065373522814,-0.00176602108457,0.0341643870771,-0.00363079068926,0.573944175515,0.818880507104,0.00188291772167,0.0,0.818835719362,-0.573885127403,-0.0120279734053,0.0,-0.00876906331663,0.00844534816547,-0.999925887065,0.0,0.660277686685,0.259079075298,0.303242255467,1.0,-0.00762,-0.0100148571429,0.382
0.463946512815,0.539407132938,-0.123990343395,-1.3690337454,0.0787728302107,1.89887541735,0.157558315161,-0.00841638125298,-0.0472328990515,0.00134897783266,-0.0657841649097,-0.000868578398157,0.0188961178613,-0.0103394251874,0.573959597761,0.818869579869,0.0019334437025,0.0,0.818825315216,-0.573900197971,-0.012017188999,0.0,-0.00873107488342,0.00848069689293,-0.999925920312,0.0,0.660144543489,0.258893805992,0.303269479049,1.0,-0.00798,-0.010488,0.4
0.463840977239,0.538646004616,-0.123990434212,-1.37022846476,0.078693423726,1.89934018384,0.157410938147,-0.00486800684913,-0.0515134709431,0.00101455566208,-0.0731324627616,-0.00821982256149,0.032313802324,-0.00688789618843,0.573970286633,0.818862038084,0.00195436673792,0.0,0.818818133508,-0.573910880831,-0.0119963329453,0.0,-0.00870187684723,0.00848597296499,-0.999926130073,0.0,0.660012585803,0.258710955936,0.303278792577,1.0,-0.00832,-0.0109348571429,0.417
0.463731442546,0.537919856912,-0.123996307709,-1.37137633275,0.0786271975363,1.89978605001,0.157258472131,-0.00352563185423,-0.0470821389105,0.00126791435223,-0.0741309920916,-0.00385870018941,0.0238661673427,-0.00521095953549,0.573985000765,0.818851677847,0.00197369822146,0.0,0.818808043481,-0.573925528739,-0.0119842519214,0.0,-0.00868073612933,0.00849502438295,-0.99992623697,0.0,0.659888163716,0.258528072874,0.30328414622,1.0,-0.00864,-0.0113554285714,0.433
0.463621560537,0.537093053807,-0.124002478113,-1.37266833102,0.0785662138592,1.9002605193,0.157112916618,-0.00646353500804,-0.0493002010521,0.000678024425584,-0.0763605270854,-0.00413673627357,0.037762019025,-0.0025370090454,0.574014949209,0.818830647384,0.00198894221537,0.0,0.818787069591,-0.573955269556,-0.0119929196499,0.0,-0.00867877338887,0.00851279922957,-0.99992610284,0.0,0.659738304636,0.258331803204,0.303294351884,1.0,-0.00898,-0.0118022857143,0.45
0.463493823498,0.536197622617,-0.124010578396,-1.37406563345,0.0784712395312,1.90078141701,0.156934800886,-0.00776040884647,-0.0506437880213,-0.00178335152799,-0.0750975093538,-0.00175810070855,0.025035168404,-0.0016692301971,0.574030778831,0.818819531441,0.00199669386422,0.0,0.818776182287,-0.573971189707,-0.0119742893765,0.0,-0.00865890397459,0.00850861985337,-0.99992631067,0.0,0.659581716455,0.258108714205,0.303306757991,1.0,-0.00934,-0.0122754285714,0.468
0.463388478812,0.535412394901,-0.124014801633,-1.37532429167,0.0784037212655,1.90123573141,0.156783617961,-0.00411464224814,-0.0519884085093,0.000782754058658,-0.0844657705145,-0.00101692762545,0.0369633109063,-0.0199153250385,0.574047187488,0.818808060127,0.0019834591069,0.0,0.81876444867,-0.573987564154,-0.0119916925701,0.0,-0.00868058079768,0.00850794699956,-0.999926128449,0.0,0.659432617113,0.257917588848,0.303301358279,1.0,-0.00964,-0.0126697142857,0.483
0.46327016814,0.534521377848,-0.124018352245,-1.37678429868,0.0783283913349,1.9017697068,0.156610509915,-0.00666927491752,-0.0553870428269,-0.00104712436209,-0.0912091497443,-0.00882043912654,0.0323944513632,-0.011200603731,0.574064701291,0.818795841888,0.00195830036035,0.0,0.818751769973,-0.574005053663,-0.0120201678901,0.0,-0.00871815703534,0.00850387970152,-0.999925836134,0.0,0.659258713135,0.257699942572,0.303281516692,1.0,-0.00998,-0.0131165714286,0.5
0.463132809079,0.533547822614,-0.124028905203,-1.37835343468,0.0782297576586,1.90234846406,0.156418531047,-0.00761556538135,-0.0542334822657,0.000976812671657,-0.0886036151217,-0.00210403142265,0.0277414795779,-0.00957183966126,0.574077567098,0.818786851383,0.00194572818247,0.0,0.818742670914,-0.574018025857,-0.0120204707441,0.0,-0.00872548833521,0.00849389682296,-0.999925857036,0.0,0.659066474059,0.257443519775,0.303277294383,1.0,-0.01036,-0.013616,0.519
0.463017070341,0.532654201855,-0.124018811525,-1.37978370461,0.0781598843215,1.90289553592,0.15622913708,-0.00823207097737,-0.0590669485795,-0.000796471624595,-0.0882368575969,-0.0109865904888,0.0309891921074,-0.0166182356754,0.574078969749,0.818785841883,0.00195666192802,0.0,0.818741610899,-0.574019193119,-0.0120369188285,0.0,-0.00873266534639,0.00851230638721,-0.999925637833,0.0,0.658908808417,0.257250445257,0.303268309323,1.0,-0.01066,-0.0140102857143,0.534
0.462886068435,0.531612884851,-0.124019121767,-1.38145185727,0.0780589848032,1.90349239696,0.15602554584,-0.00699272891346,-0.0608598156863,-0.00116598783812,-0.0937543275423,-0.00820452919155,0.0270244760891,-0.0110985314236,0.574083483156,0.81878273931,0.0019305638744,0.0,0.818738113477,-0.574023766211,-0.0120567103831,0.0,-0.00876380553888,0.00850234821317,-0.999925450115,0.0,0.65870565206,0.257003796442,0.303260093749,1.0,-0.01102,-0.0144834285714,0.552
0.462766565992,0.530716339671,-0.124019113334,-1.38291216774,0.0779705853947,1.9040023043,0.155830150979,-0.0131661188334,-0.0606716726131,0.000598135036871,-0.0963739700432,-0.00223294448869,0.0252666978448,-0.0170890915608,0.574076878689,0.818787477038,0.00188459580778,0.0,0.818742178969,-0.574017294338,-0.012088717045,0.0,-0.00881646928773,0.00848301435098,-0.999925151367,0.0,0.658525675376,0.256783828757,0.303241022697,1.0,-0.01132,-0.0148777142857,0.567
0.46263277919,0.529679538063,-0.124022610726,-1.38455356558,0.0778665808361,1.90459979773,0.155619261828,-0.00833681076927,-0.0635765824705,0.000173110139502,-0.093705624468,-0.00687961506955,0.0369136851763,-0.0111536170561,0.574077317201,0.818787192303,0.00187469937556,0.0,0.818741785842,-0.574017796562,-0.0120914947949,0.0,-0.00882442016654,0.00847651080659,-0.999925136384,0.0,0.658329496945,0.256536204791,0.303242055913,1.0,-0.01166,-0.0153245714286,0.584
0.462491846398,0.528575295499,-0.124021596059,-1.38623851205,0.0777614768646,1.90524778574,0.155392442788,-0.00782976872984,-0.0648528918273,0.00119779295742,-0.096422289694,-0.00701044886011,0.0416344566536,-0.00887680109669,0.574069425489,0.818792597312,0.0019298205238,0.0,0.818747950315,-0.574009702422,-0.0120582868323,0.0,-0.00876566905624,0.0085024940919,-0.99992543254,0.0,0.65813539329,0.256285480369,0.303273814413,1.0,-0.012,-0.0157714285714,0.601
0.462350874373,0.527449884165,-0.124022306422,-1.38797254005,0.0776567254477,1.90591372766,0.155145493863,-0.0113447337763,-0.0684310643462,-0.000255205906312,-0.102533300001,-0.00384601288805,0.0324243009457,-0.0127575232627,0.574048870491,0.818806893936,0.0019777844713,0.0,0.818762885674,-0.573988955105,-0.0120317647028,0.0,-0.00871663326498,0.00852632161674,-0.999925658309,0.0,0.657933814229,0.256029477528,0.303298462102,1.0,-0.01234,-0.0162182857143,0.618
0.462213570693,0.526368355215,-0.124030441186,-1.38966454421,0.0775488402955,1.90654562539,0.154914321481,-0.00840366513236,-0.060484833451,-0.000155008644981,-0.102036967266,-0.000233802824118,0.027556529087,-0.00981711905003,0.574040025015,0.818813064402,0.00199051423951,0.0,0.818769294084,-0.573980126622,-0.0120168302899,0.0,-0.00869718946668,0.00852807769087,-0.999925812641,0.0,0.657734539831,0.255773206731,0.303309240472,1.0,-0.01266,-0.0166388571429,0.634
0.462059526935,0.525179339672,-0.124030873721,-1.39151719107,0.0774233176519,1.9072112677,0.154664167426,-0.00757856275559,-0.0668275300185,-0.00205795663404,-0.10611581858,-0.00145713942925,0.0360182228058,-0.0177192106962,0.574027338493,0.818821970676,0.00198542255615,0.0,0.818778199174,-0.573967527354,-0.0120118691849,0.0,-0.00869618175061,0.00852092605788,-0.999925882374,0.0,0.65751007705,0.255492249775,0.303321547443,1.0,-0.013,-0.0170857142857,0.651
0.461897917333,0.52401182093,-0.124033974983,-1.39341041104,0.0773182489583,1.90789269174,0.15440443051,-0.00856135167118,-0.0687329588557,-0.000155072171388,-0.115195485795,-0.00193357165909,0.0486256549891,-0.0210692384009,0.574022548151,0.818825409952,0.00195169983737,0.0,0.818781058476,-0.573962745712,-0.0120454023168,0.0,-0.00874304682338,0.00851251128229,-0.99992554537,0.0,0.657279465097,0.255204052998,0.303300651015,1.0,-0.01334,-0.0175325714286,0.668
0.461741898287,0.52285777079,-0.124034671886,-1.39521587178,0.0771988083278,1.90858551514,0.154168881674,-0.00946182647782,-0.0685628882168,0.000702585893278,-0.112994197322,-0.00917847688393,0.0460426470038,-0.0181721305188,0.574022567564,0.818825328959,0.00197976851835,0.0,0.818781446298,-0.573962744537,-0.0120190674373,0.0,-0.00870537108112,0.00852037772452,-0.999925807087,0.0,0.657069657248,0.254929658977,0.303312595834,1.0,-0.01366,-0.0179531428571,0.684
0.461578033192,0.521624563756,-0.124037868078,-1.39718214349,0.0770841325479,1.90935393674,0.153895895483,-0.0138385453381,-0.0701991259244,0.000375564327362,-0.11855552429,-0.00788031002508,0.0449131467065,-0.015990518411,0.57400578969,0.818837029366,0.00200490439527,0.0,0.818793469441,-0.573945856582,-0.0120064572121,0.0,-0.0086807923184,0.00853354287625,-0.999925908501,0.0,0.656826123892,0.254614297878,0.303308400793,1.0,-0.01402,-0.0184262857143,0.702
0.461394051373,0.520267720691,-0.124045676277,-1.39933333133,0.076941540061,1.91013946303,0.153602330541,-0.00643653154654,-0.0735446623234,0.000416957890196,-0.117794744689,-0.00802821672433,0.0455362151323,-0.0133880210883,0.574001894292,0.818839790124,0.00199257619041,0.0,0.818796163002,-0.573942105963,-0.0120020563244,0.0,-0.00868430510646,0.00852088085814,-0.999925985978,0.0,0.656582014907,0.254303898616,0.303307451674,1.0,-0.01436,-0.0188731428571,0.719
0.461233543279,0.519009769883,-0.124049274545,-1.40128675275,0.0768284414007,1.91083765257,0.153348678987,-0.0124627015817,-0.0752748110003,-0.000801708643197,-0.125939903038,-0.00571615804144,0.0427062324253,-0.00944510476876,0.574001360211,0.818840151283,0.00199800474833,0.0,0.818796494053,-0.573941449818,-0.0120108454375,0.0,-0.00868839203152,0.00853036513738,-0.99992586961,0.0,0.656340599674,0.254010209826,0.303321500236,1.0,-0.01468,-0.0192937142857,0.735
0.461055162774,0.517653374179,-0.12404745867,-1.4034002558,0.0766848171073,1.9116015743,0.15306310171,-0.0125661986077,-0.0804290925722,-0.00132018461294,-0.1286080521,-0.00183202156688,0.0462939944412,-0.0150036087208,0.573996056517,0.818843902118,0.00198443160362,0.0,0.818800166952,-0.573936301777,-0.0120064567203,0.0,-0.00869264389611,0.00851667571097,-0.999925949347,0.0,0.656066327912,0.253663894298,0.303329770706,1.0,-0.01504,-0.0197668571429,0.753
0.460854590026,0.516206243173,-0.124055992059,-1.40568307401,0.0765363891152,1.91245312278,0.152736802385,-0.0129710054444,-0.0827236803058,-0.000828731399497,-0.127468396374,-0.00736910606908,0.0524333749192,-0.0198630991308,0.573969008383,0.818862819343,0.00200185283665,0.0,0.818819372436,-0.573909243017,-0.0119901211298,0.0,-0.0086695494622,0.0085212778797,-0.999926110638,0.0,0.655809167218,0.253335183951,0.303336213831,1.0,-0.01538,-0.0202137142857,0.77
0.460681295035,0.514921663984,-0.124055987697,-1.40775621369,0.0764127351023,1.91322907381,0.152462468138,-0.0108284127561,-0.0810723019338,0.000905813070052,-0.132092645023,-0.0107647991225,0.0456081255038,-0.0115433145068,0.573962295405,0.818867552031,0.00199062409415,0.0,0.818823904189,-0.573902524967,-0.0120021942229,0.0,-0.0086859504399,0.00851894155466,-0.999925988211,0.0,0.655556382915,0.253025050656,0.303317479667,1.0,-0.0157,-0.0206342857143,0.786
0.460475466986,0.513432280945,-0.124057759209,-1.41015933295,0.0762694420258,1.91405361646,0.15212079199,-0.0139813318347,-0.079525712028,-0.000175972970436,-0.135510520821,-0.00818025457368,0.0444377326179,-0.017041958129,0.573939542926,0.818883673818,0.00191747799274,0.0,0.818838899813,-0.573879922932,-0.0120597309212,0.0,-0.00877528359073,0.0084918255167,-0.999925438869,0.0,0.655249105716,0.252656356401,0.303289090863,1.0,-0.01606,-0.0211074285714,0.804
0.460268387845,0.511995133103,-0.124060952459,-1.41244198565,0.0761264094884,1.91487657415,0.151800509574,-0.0188205983175,-0.0804850540629,0.000620223806882,-0.134394607307,-0.00329322408781,0.0513146856664,-0.0150787162125,0.573929885353,0.818890493522,0.00189557910284,0.0,0.818845403922,-0.573870333709,-0.0120744136824,0.0,-0.00879997539384,0.00848221640552,-0.999925303429,0.0,0.654968486542,0.252299603796,0.303280826025,1.0,-0.0164,-0.0215542857143,0.821
0.460107040756,0.510802033707,-0.124068073054,-1.41434948345,0.0760127782078,1.91561212112,0.151529035714,-0.0100789524286,-0.0856195701216,-7.92645787501e-05,-0.136526664786,-0.00562017209055,0.0467410506315,-0.0258607241537,0.573913997986,0.818901591724,0.00191125328215,0.0,0.81885671854,-0.573854391033,-0.012064795739,0.0,-0.00878326845129,0.00848936119489,-0.999925389688,0.0,0.654740393852,0.252010624911,0.303272382096,1.0,-0.01668,-0.0219222857143,0.835
0.459894154093,0.509220788087,-0.12407231919,-1.41684390647,0.0758527747838,1.91653241106,0.15119165589,-0.012418736053,-0.0859889359877,0.000743786743907,-0.138847414103,-0.0114875535016,0.0544955170633,-0.0170691848859,0.573901648306,0.81891024621,0.0019114457026,0.0,0.818865411642,-0.573842076956,-0.012060482255,0.0,-0.00877975355834,0.00848691081693,-0.999925441357,0.0,0.654433352594,0.251630211501,0.303271751147,1.0,-0.01704,-0.0223954285714,0.853
0.45968178566,0.507697847694,-0.124075525642,-1.4192261938,0.0757011423651,1.9173851415,0.150860181702,-0.0120995248155,-0.0926968726679,-0.000157719722082,-0.144131903755,-0.0149392070287,0.0524941333014,-0.0202339174014,0.573888773506,0.818919289022,0.00190279064439,0.0,0.818874321259,-0.573829222087,-0.0120671770885,0.0,-0.00879033644778,0.00848352719062,-0.999925377091,0.0,0.65413622588,0.251260172836,0.303277237358,1.0,-0.01738,-0.0228422857143,0.87
0.459480071387,0.506230732531,-0.124081889145,-1.42151854494,0.0755512794616,1.91824088798,0.150549298399,-0.0120078287812,-0.0952514663926,0.00135027722486,-0.140132960267,-0.00792895804878,0.0569324660945,-0.0164300719943,0.573881914979,0.818924052141,0.00192129835929,0.0,0.81887941159,-0.573822366481,-0.0120477343098,0.0,-0.00876386416039,0.00848745191655,-0.999925576153,0.0,0.65385676441,0.250905726429,0.303286334663,1.0,-0.0177,-0.0232628571429,0.886
0.45924747998,0.504505118964,-0.12409387464,-1.42414138579,0.075392138344,1.91925086719,0.150180477388,-0.0141090756559,-0.0949972496911,0.000393953570807,-0.14126176089,-0.0019372552449,0.0561292437358,-0.0209311383428,0.573871328932,0.818931246507,0.00201450376031,0.0,0.81888788274,-0.573811441786,-0.0119921507167,0.0,-0.00866496845501,0.00853176845056,-0.999926060891,0.0,0.653544171827,0.250500974237,0.303331732717,1.0,-0.01806,-0.023736,0.904
0.459035340194,0.502932323237,-0.124100406889,-1.42646813658,0.0752398061986,1.92013464576,0.149861083852,-0.014713291074,-0.0995843684944,0.000810026509332,-0.151570678712,-0.0135368643425,0.048871998035,-0.0209374421759,0.573868955168,0.818932667599,0.00211071908818,0.0,0.81889065226,-0.57380876151,-0.0119311255222,0.0,-0.00855980414825,0.00857551577353,-0.999926592447,0.0,0.653245642841,0.25011298182,0.303395203647,1.0,-0.0184,-0.0241828571429,0.921
0.458812363179,0.501333369103,-0.124106421648,-1.42888167848,0.075088218837,1.92098465709,0.149526107942,-0.0150596425094,-0.105244093661,0.000528346794848,-0.159902423396,-0.00866979531054,0.0491620247859,-0.0244591304326,0.573861090253,0.818938079579,0.00214890893488,0.0,0.81889655,-0.573800730072,-0.0119125760717,0.0,-0.00852278074523,0.00859606350611,-0.999926732266,0.0,0.652961756116,0.249757452915,0.303440682768,1.0,-0.0187,-0.0245771428571,0.936
0.458574852831,0.499617323163,-0.1241109443,-1.43147152605,0.0749264229736,1.92191518602,0.149157041521,-0.0103892902769,-0.101105130051,0.000659647932213,-0.15304692597,-0.00150134340877,0.0531611770263,-0.024248649239,0.573840974087,0.818952064219,0.00219086087676,0.0,0.818911030728,-0.573780396242,-0.0118965348734,0.0,-0.00848578214728,0.00862100527986,-0.999926832208,0.0,0.652614872256,0.249331878751,0.303481715393,1.0,-0.01906,-0.0250502857143,0.954
0.4583066624,0.49785899648,-0.124108181256,-1.43429086567,0.0747580798338,1.9229567264,0.14874856341,-0.0140941847746,-0.0984535359956,-0.000673509861215,-0.160853887264,-0.00318475739956,0.0551145995886,-0.0239676958933,0.573825641055,0.818962829351,0.00218282157584,0.0,0.818921579462,-0.573764984146,-0.0119137131025,0.0,-0.00850462534407,0.00862411979202,-0.999926645262,0.0,0.65228581282,0.248911160757,0.303460494245,1.0,-0.0194,-0.0254971428571,0.971
0.458057780843,0.496275023252,-0.124105398183,-1.4368071167,0.0745975985681,1.92384707339,0.148369901937,-0.0139133123133,-0.0998039661355,0.000415070344061,-0.158513249812,-0.0124819231891,0.0561572107892,-0.0267453305207,0.573800998917,0.818980192382,0.00214593328148,0.0,0.818938378678,-0.573740411115,-0.0119423399187,0.0,-0.00854949580529,0.00861007946778,-0.999926383617,0.0,0.651966316379,0.24850758065,0.303443900546,1.0,-0.01972,-0.0259177142857,0.987
0.457783749751,0.494604632224,-0.124113903948,-1.43954353433,0.0744273319998,1.92478812449,0.147983262009,-0.0196605418999,-0.100440796718,0.00478816756211,-0.161701792151,-0.0058678188895,0.0606162144616,-0.0177047503654,0.573806465022,0.818976638969,0.00203774955765,0.0,0.818933284491,-0.573746197753,-0.0120134515572,0.0,-0.00866975203765,0.00856234196059,-0.999925758094,0.0,0.651613965481,0.248058078506,0.303386993492,1.0,-0.0206657142857,-0.0271606530612,1.004
0.457497445005,0.492580857729,-0.12416336243,-1.44271377261,0.0742271047665,1.92595794266,0.147535215883,-0.0174442686552,-0.117903649761,-0.00380651184589,-0.185895661054,-0.0133882816508,0.0656900592768,-0.0239555282502,0.57381459161,0.818970930776,0.00204350188527,0.0,0.818927850316,-0.573754495714,-0.0119875571125,0.0,-0.00864515885858,0.00855228045283,-0.99992605713,0.0,0.651223713329,0.247540512318,0.303389844193,1.0,-0.02478,-0.032568,1.022
0.457203492238,0.490633830585,-0.124173561106,-1.44581818192,0.0740458905127,1.92709099125,0.147077721599,-0.019458837227,-0.134825292907,-0.00076274459943,-0.215424952751,-0.021281617323,0.0680580638832,-0.034259309458,0.573794366025,0.818985145008,0.00202600003518,0.0,0.818941686772,-0.573734199016,-0.0120137191563,0.0,-0.00867683907396,0.00855274491994,-0.999925778755,0.0,0.650830444603,0.247048499299,0.303365413164,1.0,-0.0282085714286,-0.037074122449,1.037
0.456778770159,0.487961522917,-0.124188350843,-1.45008856139,0.0737905698603,1.92863213092,0.146466131169,-0.0274933260629,-0.161177152187,-0.00484331364661,-0.247666536351,-0.0126369487339,0.0948723516121,-0.03314557327,0.573795314754,0.818984594838,0.0019791630329,0.0,0.818940344729,-0.573735171235,-0.0120586883456,0.0,-0.00874053282979,0.00854019975656,-0.999925331249,0.0,0.650288567637,0.246356121773,0.303324739163,1.0,-0.0323228571429,-0.0424814693878,1.055
0.456317705514,0.485047719293,-0.124226297777,-1.45456721827,0.0735088252775,1.9303497091,0.145792273844,-0.0302343766356,-0.177610031546,-0.000838555902228,-0.278080379346,-0.0185341348713,0.0987917484925,-0.0354450326614,0.573793812077,0.818985355461,0.00209658383101,0.0,0.818942856289,-0.573733386598,-0.0119727247417,0.0,-0.00860277171677,0.00858702304831,-0.999926124948,0.0,0.649749658381,0.245612933463,0.303366652214,1.0,-0.0362085714286,-0.0475884081633,1.072
0.45582889436,0.482021884307,-0.124279282623,-1.45928637535,0.0732256351522,1.93197154209,0.145077008648,-0.0278428603326,-0.193891004023,-0.00941709393619,-0.306194195114,-0.0186369427754,0.105755514682,-0.0462901814622,0.573801105917,0.8189803989,0.00203567365347,0.0,0.818936956108,-0.573740787684,-0.0120215377221,0.0,-0.00867762182477,0.00856522493231,-0.999925665138,0.0,0.649142004805,0.244809994593,0.303362083088,1.0,-0.0398657142857,-0.0523949387755,1.088
0.455247435541,0.478471723402,-0.124334498605,-1.46479987169,0.0728902082678,1.93395785915,0.144269590335,-0.0337816928134,-0.219470084137,-0.0018633884151,-0.331460610621,-0.015638638357,0.116445448473,-0.0459895560228,0.573833745298,0.818957493609,0.00205019999088,0.0,0.818914215835,-0.573773337045,-0.0120171419761,0.0,-0.00866534521746,0.00857494460002,-0.999925688298,0.0,0.648447070133,0.243875188772,0.303372131538,1.0,-0.0437514285714,-0.057501877551,1.105
0.454604034431,0.474573409083,-0.124372969009,-1.47073820216,0.0725355861143,1.93616011856,0.143421740478,-0.0412975026466,-0.236078655235,-0.00334671185469,-0.358942856356,-0.0274434805048,0.127339735918,-0.0581657137415,0.573885423769,0.818920918258,0.00219018863105,0.0,0.818879398577,-0.573824358428,-0.0119533744678,0.0,-0.0085322490816,0.00865353432821,-0.999926155808,0.0,0.64770629278,0.242876484847,0.303435869304,1.0,-0.0476371428571,-0.0626088163265,1.122
0.453937524778,0.470654157978,-0.124408271573,-1.47678475641,0.0721590941718,1.93827024681,0.142513008223,-0.042044462824,-0.256358934143,-0.00124936957666,-0.381378799264,-0.027686519838,0.138730355732,-0.0571075519218,0.573899394554,0.81891116445,0.00217636624262,0.0,0.818869273216,-0.573838190518,-0.0119829623936,0.0,-0.00856426450938,0.00865934102515,-0.999925831843,0.0,0.646920383538,0.241843734781,0.303451017059,1.0,-0.0512942857143,-0.0674153469388,1.138
0.453194589737,0.466124855476,-0.124419929166,-1.48355446685,0.07172872195,1.94081603738,0.141406931146,-0.0488196424894,-0.268897856458,-0.000184997326497,-0.414033567138,-0.0335782371912,0.148553500835,-0.0630833483377,0.573814549019,0.818969893031,0.00243403882653,0.0,0.818931422157,-0.573752395368,-0.0118432054711,0.0,-0.0083028529663,0.00878928370507,-0.999926902891,0.0,0.64606678361,0.240719445961,0.303575751024,1.0,-0.05518,-0.0725222857143,1.155
0.452374827085,0.461348273432,-0.124437762303,-1.49095984498,0.0712437469839,1.94335271041,0.14029159261,-0.0466981978682,-0.285715641439,-0.00216693688899,-0.445342314333,-0.033945139338,0.155702495384,-0.0660222572169,0.57379922263,0.818980869939,0.00235237832053,0.0,0.818941083241,-0.57373712397,-0.011914766462,0.0,-0.00840848091939,0.00876331170464,-0.999926248189,0.0,0.6450727334,0.239462942363,0.303563266669,1.0,-0.0590657142857,-0.0776292244898,1.172
0.451551100999,0.456604342164,-0.12446202699,-1.49827831586,0.0707452771405,1.94591775694,0.139188016536,-0.0568190699453,-0.299476984376,-0.00322586724745,-0.470246423223,-0.0324345440141,0.165564995063,-0.0730353724808,0.573789441916,0.818987793757,0.00232742887277,0.0,0.818947708802,-0.573727471579,-0.0119241563101,0.0,-0.00843059090137,0.00874816596656,-0.999926194641,0.0,0.644098744666,0.238211151781,0.30356687683,1.0,-0.0627228571429,-0.082435755102,1.188
0.450550123833,0.450890873327,-0.124487450146,-1.50686409795,0.0701651581173,1.94910028502,0.137799099657,-0.0582363667989,-0.33011292038,-0.00282194948008,-0.482884128961,-0.0301730507017,0.195635433005,-0.0763367700325,0.573723956113,0.819032940979,0.00257112340686,0.0,0.818996314679,-0.573661366179,-0.0117652197751,0.0,-0.00816130551791,0.00885589953223,-0.999927480438,0.0,0.642989988068,0.236737900254,0.303680271696,1.0,-0.0668371428571,-0.0878431020408,1.206
0.449473626636,0.444901050154,-0.124536305103,-1.51600014504,0.0695503679029,1.95229606653,0.136435998159,-0.063200551393,-0.342082499155,-0.00120749854569,-0.522683596824,-0.0390714607005,0.182402281387,-0.0829499119942,0.573767288611,0.819002505393,0.00259645532193,0.0,0.818966221048,-0.573704614481,-0.0117512130105,0.0,-0.00813483111827,0.00886904158661,-0.99992757969,0.0,0.641762327592,0.235139687325,0.303715317584,1.0,-0.0709514285714,-0.0932504489796,1.224
0.448455514124,0.439353352128,-0.124558475617,-1.52467176871,0.0689546968362,1.95519482959,0.135051221523,-0.0672988410999,-0.355574533983,-0.000804043112462,-0.550659517057,-0.0398691590313,0.187906095513,-0.0864029867324,0.573702854901,0.819048258455,0.00239405554796,0.0,0.819009044629,-0.573640635796,-0.011889183331,0.0,-0.00836464840041,0.00878178064302,-0.999926453788,0.0,0.640547064767,0.233629810091,0.303634847922,1.0,-0.0746085714286,-0.0980569795918,1.24
0.447290335958,0.433091827316,-0.124578065073,-1.53403572977,0.0683323828712,1.95858868893,0.133516605101,-0.0719757355064,-0.375251405148,-0.00160651063789,-0.558022762961,-0.0404409309582,0.207452087459,-0.0930225314823,0.573652938942,0.819082477122,0.00263594703157,0.0,0.81904641785,-0.573589820668,-0.0117656251406,0.0,-0.00812522143559,0.00890851993084,-0.999927306882,0.0,0.639293267523,0.231986189299,0.303745928069,1.0,-0.0784942857143,-0.103163918367,1.257
0.445939264691,0.426316532204,-0.12463220088,-1.54447947228,0.067577685402,1.96219940994,0.131835520579,-0.0766647181371,-0.391825407975,-0.00325793392498,-0.587176862007,-0.0408272482443,0.198653968618,-0.0993456604533,0.573660755835,0.819077285837,0.00254635861654,0.0,0.81904029272,-0.57359821663,-0.0117826856661,0.0,-0.00819050112641,0.00884500496538,-0.999927338149,0.0,0.637857505896,0.230081976147,0.303703729276,1.0,-0.0826085714286,-0.108571265306,1.275
0.444745652399,0.420375267722,-0.12474807927,-1.55360232981,0.0669145245377,1.96518701895,0.130334686797,-0.0782456436285,-0.400455092236,-0.0106533897364,-0.612967154422,-0.0436394844872,0.20163683893,-0.0988501865319,0.573693971784,0.819054630656,0.00234214450273,0.0,0.819015173975,-0.573632409511,-0.0118638298612,0.0,-0.0083737560114,0.00872462753716,-0.999926877869,0.0,0.636572138143,0.228362379273,0.30366066826,1.0,-0.0860371428571,-0.113077387755,1.29
0.443221842323,0.412933955576,-0.124814338769,-1.56470486646,0.0661531120739,1.96920819741,0.128499225512,-0.0845366793749,-0.409301442474,-0.00214083494449,-0.625343535543,-0.0371827889241,0.225776308238,-0.121953562693,0.573737670308,0.819023162218,0.00262532289233,0.0,0.818987640294,-0.573675320295,-0.0116884058221,0.0,-0.00806714746415,0.00885635623888,-0.999928240468,0.0,0.635068554685,0.226307016694,0.303769596852,1.0,-0.0901514285714,-0.118484734694,1.308
0.441770874209,0.406129308623,-0.124848140735,-1.57507446615,0.0654388136778,1.97262243093,0.126783700888,-0.0904647051583,-0.433471067238,-0.0027534319045,-0.664850852342,-0.0458498693627,0.216475775469,-0.102527537867,0.573767729509,0.819002500509,0.00249872671492,0.0,0.818964820799,-0.573705282331,-0.0118160153747,0.0,-0.00824397214449,0.00882618752115,-0.999927065009,0.0,0.63357170071,0.224367890095,0.303731366229,1.0,-0.0938085714286,-0.123291265306,1.324
0.440241404595,0.399081984358,-0.124947320154,-1.58563152892,0.0646961712799,1.97628654507,0.125016075157,-0.0994326880086,-0.461898858286,-0.00661915576957,-0.667410815212,-0.0468800806325,0.244455417609,-0.118376378217,0.573860059585,0.818937481793,0.00260381056726,0.0,0.818901343783,-0.57379740231,-0.011742110292,0.0,-0.00812215087041,0.00887076287396,-0.9999276675,0.0,0.632094707203,0.222338259575,0.303778648649,1.0,-0.0974657142857,-0.128097795918,1.34
0.438425766905,0.39091960844,-0.124999829115,-1.59786931753,0.0637478134766,1.98047842792,0.122898628947,-0.102632090877,-0.454436964066,-0.00243003063156,-0.688891055058,-0.0559076277317,0.229591680439,-0.117037756671,0.573858919594,0.818938157514,0.00264224714299,0.0,0.818903053176,-0.573796712534,-0.0116562895696,0.0,-0.0080298221782,0.00885298043884,-0.999928570796,0.0,0.630345863843,0.219985839681,0.303806862642,1.0,-0.10158,-0.133505142857,1.358
0.436525872922,0.38248460241,-0.125055278778,-1.61060533564,0.0628002210492,1.98456822204,0.120619181858,-0.110012329404,-0.482928079141,-0.00331605736131,-0.686856573588,-0.0620624124791,0.231603707344,-0.131607443852,0.573803321536,0.818977737344,0.00244148124112,0.0,0.818939700908,-0.573741498911,-0.0117985425268,0.0,-0.0082621236272,0.00876963765124,-0.99992741275,0.0,0.628440458435,0.217527804299,0.303755597745,1.0,-0.105694285714,-0.138912489796,1.376
0.434858673465,0.375256185865,-0.125093887001,-1.62138237705,0.0620277294068,1.98825902971,0.118736520569,-0.119177414507,-0.477867195199,-0.00563334218983,-0.721803684088,-0.0493388970929,0.24530787713,-0.138260041989,0.573837531509,0.818953432485,0.00255142182142,0.0,0.818916681839,-0.57377514208,-0.0117601631521,0.0,-0.00816724080657,0.00883799504408,-0.999927590389,0.0,0.626863571462,0.215441854113,0.30377815044,1.0,-0.109122857143,-0.143418612245,1.391
0.432844817304,0.366838140866,-0.125176705596,-1.6340125432,0.0610501265557,1.99232077127,0.116547862565,-0.118050533226,-0.502599092542,-0.00431613160624,-0.755312405662,-0.0516316989219,0.239888620433,-0.124124181658,0.573932134095,0.818887645826,0.00238240803281,0.0,0.818848703281,-0.573870375097,-0.0118465447246,0.0,-0.00833395618374,0.00875011289058,-0.999926987684,0.0,0.624957247308,0.212918747432,0.303730826543,1.0,-0.113008571429,-0.14852555102,1.408
0.430650653528,0.357640849174,-0.125276636341,-1.64752430102,0.059985649735,1.9968152418,0.114016381454,-0.129881722267,-0.505051011182,-0.0033007575813,-0.753442820522,-0.0630572398175,0.243709200387,-0.150778066258,0.573898810619,0.818910716529,0.00247798818775,0.0,0.818873490817,-0.573837198477,-0.0117397862798,0.0,-0.00819203271675,0.00876677700801,-0.999928014519,0.0,0.622931717183,0.210207405546,0.30379901465,1.0,-0.117122857143,-0.153932897959,1.426
0.428683903821,0.349861677383,-0.125301360672,-1.65919000763,0.0591397559824,2.00047212622,0.111860003035,-0.132490181449,-0.517273512227,-0.00285987478842,-0.772625837625,-0.0542482897439,0.247401635727,-0.150651443984,0.573918167016,0.818897667725,0.00230092699564,0.0,0.818857188913,-0.573856236252,-0.0119445042253,0.0,-0.00846108824881,0.00873946684427,-0.999926013115,0.0,0.621105563967,0.207863200361,0.303714591082,1.0,-0.120551428571,-0.158439020408,1.441
0.426399254885,0.340703340662,-0.125383398033,-1.67236033093,0.0581169330641,2.00491601078,0.109377795483,-0.134935666497,-0.530235068266,-0.00112974145837,-0.801324873022,-0.0525917992074,0.261342038072,-0.1468276411,0.573959692233,0.818867579214,0.00262798516431,0.0,0.818831764194,-0.573896944819,-0.0117296877932,0.0,-0.00809702428417,0.00888441677672,-0.999927750058,0.0,0.619114189596,0.205168818206,0.303873178503,1.0,-0.124437142857,-0.163545959184,1.458
0.424043174446,0.331455924735,-0.125370546335,-1.68609182376,0.0570039968005,2.00917517244,0.106737237951,-0.140823581597,-0.544793818196,0.00150540734146,-0.778872546642,-0.0691575166949,0.247956258941,-0.1544024028,0.573829378235,0.818959566027,0.00241263097758,0.0,0.818920485209,-0.573766955795,-0.0118939583152,0.0,-0.00835654389804,0.00880102508254,-0.999926352354,0.0,0.616896936559,0.202414795064,0.303786197671,1.0,-0.128322857143,-0.168652897959,1.475
0.421708947626,0.322436220437,-0.125375899753,-1.69902653645,0.0559368160627,2.01340477634,0.104172931352,-0.150990210139,-0.561177123827,-0.000780280706149,-0.805845545316,-0.057909658731,0.26720296196,-0.14846498545,0.573730394074,0.819028226697,0.00263546781472,0.0,0.818992365493,-0.573667491702,-0.0117414278955,0.0,-0.00810483470061,0.00889501332982,-0.999927592575,0.0,0.614856088057,0.199765601347,0.303902091891,1.0,-0.13198,-0.173459428571,1.491
0.419093439833,0.312770707294,-0.1254025254,-1.71314219364,0.054802461903,2.01779274929,0.101362501234,-0.155858974272,-0.571925106136,-0.00333409754187,-0.802171447857,-0.0696375420655,0.255723565392,-0.177026429744,0.573677933267,0.819065191675,0.00256662639358,0.0,0.819027985065,-0.573614800589,-0.0118307703075,0.0,-0.00821807548604,0.00888936185026,-0.999926718556,0.0,0.612558470974,0.196824527027,0.303871423821,1.0,-0.135865714286,-0.178566367347,1.508
0.416178143715,0.302238141593,-0.125469494047,-1.72823355012,0.0535063790367,2.02256078099,0.0982192408402,-0.162295141301,-0.581479895927,-0.00675320820133,-0.870702750373,-0.073939290715,0.264900260882,-0.177371437872,0.573587090053,0.819128460213,0.00267632117732,0.0,0.819093173258,-0.573524107716,-0.0117140211634,0.0,-0.00806050859303,0.00891133928859,-0.999927805511,0.0,0.610115333389,0.193597238383,0.30394570434,1.0,-0.13998,-0.183973714286,1.526
0.413583825957,0.293317863307,-0.125550274132,-1.7411050168,0.0524966486181,2.02639805178,0.0956520775133,-0.177746004341,-0.605455575171,-0.00779581260628,-0.851400770862,-0.0680584530866,0.258970750673,-0.176216418361,0.573727748581,0.819030218265,0.00259209929556,0.0,0.818993002471,-0.573664144204,-0.0118599519206,0.0,-0.00822682297793,0.00892746657988,-0.999926307147,0.0,0.607970142815,0.190781000947,0.303926754588,1.0,-0.143408571429,-0.188479836735,1.541
0.410395507394,0.282435434197,-0.125679802183,-1.75662639315,0.051170269116,2.03124546067,0.0923380983098,-0.177175389687,-0.606264546518,-0.00988045875517,-0.857477016804,-0.0787091990777,0.259547031935,-0.187356097494,0.573735679649,0.819024282343,0.00270956306675,0.0,0.818988973816,-0.573672056961,-0.0117549449388,0.0,-0.00807334016132,0.00896350617448,-0.999927235721,0.0,0.605410488942,0.187347821745,0.303974655611,1.0,-0.147522857143,-0.193887183673,1.559
0.407198199551,0.271890063127,-0.125747805234,-1.7715966146,0.0498794225624,2.03573045463,0.0891065550013,-0.189856963667,-0.629163977528,-0.00358191564692,-0.889606353068,-0.072137826498,0.278782982819,-0.198042641469,0.573744601605,0.819017977168,0.00272618897205,0.0,0.81898275268,-0.573680771145,-0.0117631004618,0.0,-0.0080703839336,0.008981890066,-0.999927094619,0.0,0.602872814895,0.184006565383,0.304004180104,1.0,-0.151408571429,-0.198994122449,1.576
0.40424552173,0.262496885131,-0.125897591445,-1.78492938165,0.0486893034395,2.03974530466,0.086173511851,-0.19735768249,-0.636467705043,-0.00556313896794,-0.908726441252,-0.0796851133096,0.27861932698,-0.198660233782,0.573842504655,0.818949500961,0.00269102735382,0.0,0.818914185331,-0.573779193917,-0.0117362938454,0.0,-0.00806753180694,0.00893867682599,-0.999927504866,0.0,0.600457719797,0.18071943059,0.303989335425,1.0,-0.155065714286,-0.203800653061,1.592
0.400561305257,0.250997618716,-0.126039111549,-1.80109201869,0.0472232737034,2.0444926537,0.0826060023714,-0.202320215139,-0.644700852615,-0.002867582536,-0.914923785999,-0.0800970123166,0.259998064129,-0.196752642874,0.573953428759,0.818871627246,0.00273250944326,0.0,0.818837154761,-0.573890296316,-0.0116785563583,0.0,-0.00799523172793,0.00894059985695,-0.999928068385,0.0,0.597825649189,0.17717709746,0.304042368042,1.0,-0.158951428571,-0.208907591837,1.609
0.396974555015,0.240047625706,-0.126062260154,-1.81662602245,0.0458568437702,2.04892850603,0.0790015791962,-0.213051119394,-0.644190222593,0.00138454078957,-0.916242735251,-0.0705492487662,0.249214270123,-0.218136592549,0.573867465089,0.818932299077,0.00260171894747,0.0,0.81889533939,-0.573803948546,-0.0118405514687,0.0,-0.0082038913819,0.00892561462285,-0.999926512085,0.0,0.595052687689,0.17363497149,0.3039643579,1.0,-0.162837142857,-0.214014530612,1.626
0.393500322106,0.229444063557,-0.126084939328,-1.83117054912,0.0445357016369,2.05326200597,0.0755974585659,-0.21740986728,-0.650703707596,0.00162895485355,-0.933090129159,-0.0900781555583,0.271882576102,-0.213367381027,0.573823478407,0.818962138131,0.00289462219222,0.0,0.818929217042,-0.573759179074,-0.0116657106469,0.0,-0.0078931112483,0.00906472387101,-0.999927762179,0.0,0.592481521202,0.170281327552,0.30409244948,1.0,-0.166494285714,-0.218821061224,1.642
0.389634109115,0.218065126669,-0.126129289865,-1.84697327892,0.0430213131311,2.0576535343,0.0717527651135,-0.23095249623,-0.677736513506,-0.00731089456651,-0.926363481836,-0.0861914363382,0.269677216142,-0.229752874202,0.573692882793,0.819053914199,0.00281225331305,0.0,0.819019903625,-0.573628861267,-0.0117078558649,0.0,-0.00797632907654,0.00902017868628,-0.999927504648,0.0,0.58959365158,0.166571776099,0.304082699173,1.0,-0.17038,-0.223928,1.659
0.38557149559,0.206480399748,-0.126239155234,-1.86281436692,0.0415706828576,2.06208620964,0.0678564388178,-0.23987151405,-0.679268107215,-0.00314726444335,-0.932894409983,-0.0870635698174,0.257298170116,-0.230564936268,0.573735957562,0.81902328979,0.00294086434056,0.0,0.818990704119,-0.573671207415,-0.0116755835115,0.0,-0.00787563725113,0.00910741798907,-0.99992751201,0.0,0.586699072111,0.162749737466,0.304148474547,1.0,-0.174265714286,-0.229034938775,1.676
0.381348051849,0.194713727804,-0.126350933667,-1.87886382643,0.0400183853631,2.06644346062,0.0637777862854,-0.254080695307,-0.694487819345,-0.00612652208587,-0.950025061852,-0.0936144804539,0.267239376102,-0.242023231975,0.573704308723,0.8190454036,0.00295633166394,0.0,0.819013015388,-0.573639506485,-0.011668081495,0.0,-0.00786097122862,0.00911547823996,-0.99992755397,0.0,0.583708186015,0.158830507485,0.304182822033,1.0,-0.178151428571,-0.234141877551,1.693
0.376853599303,0.18284881535,-0.126524812778,-1.89511087732,0.0385081703099,2.07071589453,0.0595641493914,-0.27213384894,-0.714442027618,-0.00807387796698,-0.965448544798,-0.0882297480627,0.237877426239,-0.246355894323,0.573830734858,0.818957150067,0.00286722647062,0.0,0.81892276592,-0.573765266072,-0.0118181981868,0.0,-0.00803363761963,0.00912985816015,-0.999926050444,0.0,0.580638957649,0.15473850093,0.304138917516,1.0,-0.182037142857,-0.239248816327,1.71
0.37220343814,0.170812499166,-0.126649569027,-1.911325488,0.0368587950512,2.07502847663,0.055265600653,-0.271810849481,-0.699476005989,-0.00308936935756,-0.958350883434,-0.0928509374594,0.249213614545,-0.26224150528,0.573895325839,0.818911737544,0.00290998196471,0.0,0.818878275884,-0.573830114416,-0.0117522753571,0.0,-0.00795439409578,0.00912767264552,-0.999926703917,0.0,0.577558548275,0.150611128935,0.304174484001,1.0,-0.185922857143,-0.244355755102,1.727
0.367743923352,0.159272432228,-0.126688167985,-1.92675194362,0.0353036598091,2.07898883274,0.0509795773177,-0.282207495535,-0.737653772957,-0.00447718468727,-0.953002891243,-0.0981290211613,0.258686517366,-0.272614934382,0.573741922934,0.81901910341,0.0029429608971,0.0,0.81898584383,-0.573676355251,-0.0117632450023,0.0,-0.00794616828227,0.00915948646975,-0.999926478406,0.0,0.574542978315,0.146743607534,0.30420902573,1.0,-0.18958,-0.249162285714,1.743
0.362814016956,0.146948528223,-0.126763945672,-1.94330720191,0.0335587750086,2.08318995533,0.0464181698321,-0.297033954571,-0.735779117487,-0.00285407423765,-0.998633270932,-0.111985717434,0.238548271005,-0.272468978672,0.573698487598,0.819049852433,0.00285157129867,0.0,0.819015489962,-0.57363334869,-0.0117964136092,0.0,-0.0080262489629,0.00910324097659,-0.999926352454,0.0,0.571268719623,0.142519492265,0.30416426067,1.0,-0.193465714286,-0.25426922449,1.76
0.357652073481,0.1343546355,-0.126903722801,-1.95980768004,0.0318886012307,2.08734873371,0.0416185257921,-0.303072912889,-0.745840640579,-0.00935314533025,-0.973931769739,-0.101732820059,0.248154022305,-0.285303877745,0.573704371727,0.819045045465,0.00304208187062,0.0,0.81901304578,-0.573638432168,-0.011718655369,0.0,-0.00785320274322,0.00921472596637,-0.99992670533,0.0,0.567992611236,0.138187962182,0.304254871163,1.0,-0.197351428571,-0.259376163265,1.777
0.352546514301,0.122501983353,-0.127085432866,-1.97549946605,0.0302061468672,2.09109648644,0.0369844452261,-0.325293117314,-0.743958283448,-0.0104422596529,-0.963284535171,-0.102701626835,0.228796949294,-0.289473919553,0.573811240587,0.818970530014,0.00294585234799,0.0,0.818937219868,-0.573745551857,-0.0117736375212,0.0,-0.00795224558521,0.00916849020611,-0.999926347576,0.0,0.564622969694,0.133678479229,0.304226059516,1.0,-0.201237142857,-0.264483102041,1.794
0.346519948244,0.10886694276,-0.127264181699,-1.99316140738,0.0282608207581,2.09534205318,0.031547068101,-0.334851521629,-0.749091351081,-0.00259221764769,-0.990985701653,-0.0998085148797,0.21759347935,-0.301827732816,0.573863778019,0.818933424073,0.00302623790202,0.0,0.818901579262,-0.573798294118,-0.0116819540432,0.0,-0.00783044323898,0.00918221806521,-0.999927182864,0.0,0.561217951923,0.129091336102,0.304278556529,1.0,-0.205122857143,-0.269590040816,1.811
0.340780649684,0.0958151344639,-0.127350050033,-2.00990858607,0.026423451266,2.09922876461,0.0262467107576,-0.335731403867,-0.786815394196,-0.00145202513953,-0.984943390508,-0.110304717531,0.227486222465,-0.318617265268,0.573741187589,0.819018862654,0.00314629668254,0.0,0.818988628091,-0.573675385033,-0.0116157895153,0.0,-0.00770874617411,0.00924141600078,-0.999927583109,0.0,0.557712417537,0.124568458563,0.304351030751,1.0,-0.209008571429,-0.274696979592,1.828
0.335108866697,0.0835283739871,-0.127469589094,-2.02591653196,0.0247520709126,2.1026610444,0.0210840066258,-0.357584309291,-0.784513378694,-0.0102964549844,-1.00450936029,-0.116838684229,0.208184420597,-0.323261765415,0.57373694297,0.81902253081,0.00295993200742,0.0,0.818988211509,-0.573669840794,-0.0119151195752,0.0,-0.00806088286288,0.00926047199391,-0.999924630073,0.0,0.554266157879,0.120171423386,0.30424259647,1.0,-0.212665714286,-0.279503510204,1.844
0.328816775298,0.0701982793179,-0.127639794888,-2.04269408065,0.0228107892361,2.10645029764,0.0154263634645,-0.384984682189,-0.763546297998,-0.0153605190176,-0.990604556852,-0.108176985636,0.212637973048,-0.332735652954,0.573745192723,0.819015971425,0.00316848203035,0.0,0.818985150958,-0.573678269029,-0.0117180653231,0.0,-0.00777974315138,0.0093183027873,-0.9999263197,0.0,0.550696562203,0.115390488715,0.304350373542,1.0,-0.216551428571,-0.28461044898,1.861
0.322154596905,0.0567420793699,-0.127879451152,-2.0596231219,0.0208184814639,2.10995238211,0.00954876163967,-0.40087302721,-0.803178780843,-0.0144174005365,-0.990069772473,-0.118177206279,0.213511453349,-0.347003790851,0.57388295582,0.818919552039,0.00314121138247,0.0,0.818888445436,-0.573816187341,-0.0117236504011,0.0,-0.00779839873893,0.00930048391408,-0.999926340275,0.0,0.547006438671,0.110404202708,0.304380507657,1.0,-0.21998,-0.289116571429,1.878
0.315858885857,0.0441417180868,-0.127975102909,-2.07558488033,0.019021233484,2.11320482393,0.00394194998645,-0.383328822743,-0.802514191545,-0.00863056541736,-1.00404178886,-0.113914385331,0.187060646112,-0.346658668436,0.57387316373,0.8189266712,0.0030734425032,0.0,0.818893699905,-0.573805472876,-0.011880002271,0.0,-0.00796544594429,0.0093346169116,-0.999924705464,0.0,0.543438465917,0.105836304387,0.304306428715,1.0,-0.21998,-0.289116571429,1.894
0.308963470869,0.0307116123995,-0.12806015125,-2.09213357289,0.0170062491109,2.11651560548,-0.00219977305156,-0.419962010438,-0.774421349261,-0.00938410601437,-0.981738583637,-0.121734554226,0.195834842299,-0.363523984618,0.573790587395,0.818984145524,0.00317460207794,0.0,0.818952911129,-0.573723045962,-0.0117789128146,0.0,-0.00782555113886,0.00935865909933,-0.999925585356,0.0,0.539715224765,0.100954109116,0.304373245862,1.0,-0.21998,-0.289116571429,1.911
0.301500819981,0.0166299777659,-0.128213345396,-2.10937718251,0.0149039946793,2.11973445936,-0.00880106430612,-0.417933091447,-0.780905447086,-0.0149827641205,-0.945474576969,-0.120424372241,0.183016734362,-0.365354555472,0.573787411218,0.818986293242,0.00319454390612,0.0,0.818955181635,-0.573719637497,-0.0117870660077,0.0,-0.00782082350113,0.0093796389624,-0.999925425766,0.0,0.535754975133,0.0957491242588,0.304411842884,1.0,-0.21998,-0.289116571429,1.929
0.295045823278,0.00499054689428,-0.128374867162,-2.12352320246,0.0131913317472,2.12228612451,-0.0144060173487,-0.433194221829,-0.78620093823,-0.00741307843899,-0.942426636337,-0.110130715756,0.158808863937,-0.377550046425,0.573913506435,0.818897779879,0.00323421431321,0.0,0.818866827636,-0.573845148059,-0.0118157330221,0.0,-0.00782008990898,0.00942978113688,-0.999924959895,0.0,0.532470368359,0.0913410916704,0.304437346044,1.0,-0.21998,-0.289116571429,1.944
0.28732644012,-0.00894693613708,-0.128444188053,-2.14020590874,0.011111036334,2.12531571852,-0.0212641771114,-0.431436100309,-0.782066294221,-0.00109179680415,-0.914386220067,-0.11821605726,0.167254676242,-0.382894080265,0.573794276844,0.818980511222,0.00343467630716,0.0,0.818952548491,-0.57372573152,-0.0116728408489,0.0,-0.00758941310871,0.00951082930154,-0.999925969727,0.0,0.528542822175,0.0862170859386,0.304527613417,1.0,-0.21998,-0.289116571429,1.962
0.279818298817,-0.0218873669989,-0.128546220313,-2.15590092873,0.00909737774502,2.12779958041,-0.0278556471277,-0.443219122669,-0.761693866859,-0.00625051464931,-0.914708522472,-0.111397932743,0.130850360678,-0.393586267729,0.573747232347,0.819014380044,0.00321022698425,0.0,0.818982670772,-0.573678447897,-0.0118815106137,0.0,-0.00788964191561,0.00944628597034,-0.999924257747,0.0,0.524729186252,0.0813007692869,0.304435396583,1.0,-0.21998,-0.289116571429,1.979
0.2725400681,-0.034089380733,-0.128747276167,-2.17020395533,0.00723146147553,2.13019424071,-0.0341215153616,-0.465840678382,-0.751518055588,-0.0154561349551,-0.908251348792,-0.111002045541,0.150453836293,-0.410500349162,0.573901437736,0.818905538134,0.00340679896136,0.0,0.818877056076,-0.573832772042,-0.0117074191411,0.0,-0.0076324844291,0.00950883725597,-0.999925660835,0.0,0.521281612902,0.0766045241676,0.304531362603,1.0,-0.21998,-0.289116571429,1.995
0.264682805606,-0.0468671023223,-0.128875189328,-2.18536024689,0.00537924385364,2.13239668209,-0.0409780212567,-0.45685750846,-0.770128025869,-0.0061187408954,-0.881888913382,-0.113735779933,0.127143176067,-0.411950269697,0.573969345479,0.818858048182,0.00338146109311,0.0,0.818827792286,-0.573898970101,-0.01190653594,0.0,-0.00780929609477,0.00960300584957,-0.999923395652,0.0,0.517284152086,0.0713848603691,0.304493024998,1.0,-0.21998,-0.289116571429,2.013
0.256765989837,-0.0595978773494,-0.128956481949,-2.2000844544,0.00336346485922,2.13461165812,-0.0479087535172,-0.469495403626,-0.736622229054,-0.00291457471899,-0.877432793135,-0.116541685825,0.121274178254,-0.413760259135,0.573887567902,0.818914985757,0.0034716583905,0.0,0.818886567237,-0.573817712915,-0.0117800359191,0.0,-0.00765489624974,0.00960349548249,-0.999924584875,0.0,0.513807689023,0.0668111041746,0.304540599256,1.0,-0.21998,-0.289116571429,2.029
0.249154982583,-0.0715231953719,-0.12909796964,-2.21390251501,0.00149986406041,2.13641706201,-0.0545938798444,-0.48477273395,-0.757475307674,-0.0161830598038,-0.846297988435,-0.122728640259,0.118165179221,-0.42049067827,0.573866477906,0.818930033494,0.003407738011,0.0,0.818900333049,-0.573796286425,-0.0118664703164,0.0,-0.00776261097219,0.00960055215819,-0.99992378273,0.0,0.510030824887,0.0618920422716,0.304518619575,1.0,-0.21998,-0.289116571429,2.046
0.24081247571,-0.0840778111423,-0.129276622931,-2.22828061558,-0.000409095906906,2.13826735535,-0.06182659479,-0.487215328233,-0.732591511851,-0.00830460527954,-0.852717847875,-0.111469684726,0.105985048667,-0.420918888493,0.573962682343,0.818862364741,0.00346609141795,0.0,0.818832898902,-0.573891617163,-0.0119097576497,0.0,-0.00776344097375,0.00967409238656,-0.999923067501,0.0,0.506517825298,0.0572186479822,0.304524500238,1.0,-0.21998,-0.289116571429,2.062
0.231973805282,-0.0973231328438,-0.129343941459,-2.24323050079,-0.0024792285348,2.14003422771,-0.0696320317428,-0.495200284799,-0.732253713849,-0.00351921997684,-0.806101244205,-0.124574792534,0.0998540110991,-0.438909267909,0.573814306858,0.818966136991,0.00351491216724,0.0,0.818937289978,-0.573743067641,-0.0118892522265,0.0,-0.00772038711974,0.00970090244262,-0.999923141104,0.0,0.502551400871,0.0521009567798,0.304558299908,1.0,-0.21998,-0.289116571429,2.08
0.224407298655,-0.108213622905,-0.129465363058,-2.25551091692,-0.00420737563134,2.14136243418,-0.0761915794074,-0.50337545832,-0.731775219348,-0.0121471280238,-0.791190509934,-0.108678164882,0.0877739052817,-0.438418188099,0.573845175605,0.818944679649,0.00347462391334,0.0,0.81891498094,-0.573773668002,-0.0119490083776,0.0,-0.0077920791519,0.00970248918951,-0.999922569605,0.0,0.499239672302,0.047770154346,0.30453859694,1.0,-0.21998,-0.289116571429,2.095
0.215049826775,-0.121296134601,-0.129679303457,-2.26994793887,-0.00628650911581,2.14284698135,-0.0842839538593,-0.520077780844,-0.725226725497,-0.00279457760602,-0.782969729385,-0.105574052895,0.0868244836901,-0.456144264637,0.573962728017,0.818861888512,0.00356949445686,0.0,0.818833726728,-0.573891242627,-0.0118708260274,0.0,-0.00767221312348,0.00973642159544,-0.999923166668,0.0,0.495305610034,0.0424880720201,0.304597920618,1.0,-0.21998,-0.289116571429,2.113
0.206201010079,-0.133486771852,-0.129775990921,-2.2834399783,-0.00817544765085,2.14404493087,-0.0920947792123,-0.52653958922,-0.714330450426,-0.00403080072327,-0.80345843213,-0.121503281499,0.0698819680367,-0.45811077614,0.573873728878,0.818924374746,0.00354381889024,0.0,0.818895052747,-0.573801306189,-0.0119875144648,0.0,-0.00778356973757,0.00978152370759,-0.999921865866,0.0,0.491530221067,0.0376359840313,0.30457125581,1.0,-0.21998,-0.289116571429,2.13
0.197664841532,-0.144920786169,-0.129908855091,-2.29576725387,-0.00999538053953,2.14515761998,-0.0995976320887,-0.536549050919,-0.708158212096,-0.00593033206936,-0.782746202816,-0.109388052418,0.0759297425206,-0.46453857834,0.573837875751,0.818948812054,0.00369898487113,0.0,0.818922215523,-0.573765805864,-0.0118301244619,0.0,-0.00756606100916,0.00981794340276,-0.999923178403,0.0,0.488063098588,0.0330210359421,0.30465013361,1.0,-0.21998,-0.289116571429,2.146
0.188376374785,-0.156925765768,-0.130109318674,-2.30881394617,-0.0119281734509,2.14607764817,-0.107711294696,-0.546478838056,-0.699716016951,-0.0079133625027,-0.779780302634,-0.122885827928,0.0474810975879,-0.47608653132,0.573869327042,0.818927141555,0.0036165184099,0.0,0.818898862888,-0.573796760602,-0.0119447387554,0.0,-0.00770687259852,0.00981647100223,-0.999922117473,0.0,0.484069655046,0.0277750248491,0.304610579138,1.0,-0.21998,-0.289116571429,2.164
0.177951435145,-0.170268153378,-0.130210435765,-2.32293523215,-0.0139357645202,2.14701179088,-0.116935025846,-0.562991562266,-0.694567300792,-0.00582022274646,-0.73670096368,-0.108184684906,0.0490495234623,-0.502312265336,0.573817222742,0.818962659415,0.00383461473855,0.0,0.818937044125,-0.573743661013,-0.0118775464341,0.0,-0.00752732604064,0.00995604045176,-0.999922105277,0.0,0.48015302642,0.0226672796841,0.304695383793,1.0,-0.21998,-0.289116571429,2.182
0.169474712702,-0.180661804703,-0.130371172002,-2.33405024799,-0.0156849782547,2.1475808641,-0.124352040886,-0.574213568211,-0.694008015785,-0.0163730381939,-0.729226900138,-0.117737876057,0.0287118862553,-0.510145082005,0.573824776668,0.818957923295,0.00371381965587,0.0,0.818930468619,-0.573751295081,-0.0119618502716,0.0,-0.00766559080629,0.00990555684442,-0.999921556254,0.0,0.476818080638,0.0183042564681,0.304648800851,1.0,-0.21998,-0.289116571429,2.197
0.15967409512,-0.19244923305,-0.130546818859,-2.34626872167,-0.0175328786257,2.14819880433,-0.132960541917,-0.571113465582,-0.697424631225,-0.00504480718712,-0.70502647491,-0.110326842632,0.0420139916829,-0.511936135752,0.573871356476,0.818924474442,0.00388822292949,0.0,0.818899675834,-0.573797760123,-0.0118405361969,0.0,-0.0074655950102,0.00997920119579,-0.999922337202,0.0,0.473118166565,0.0133673778635,0.304726953854,1.0,-0.21998,-0.289116571429,2.214
0.14980252337,-0.204020345271,-0.130702434344,-2.35838321742,-0.0193689143715,2.14861094002,-0.14176835516,-0.582373810971,-0.680411046101,-0.00927738180058,-0.707726099867,-0.110851720009,0.0100220262637,-0.520183348593,0.573787480061,0.818983381696,0.00385942137087,0.0,0.818957416283,-0.573712944702,-0.0119563496834,0.0,-0.00757799759687,0.0100212984509,-0.99992107065,0.0,0.469352602701,0.00848864198662,0.3046892992,1.0,-0.21998,-0.289116571429,2.231
0.14022471067,-0.214866829216,-0.130917001294,-2.36948619339,-0.0210499181657,2.1488778741,-0.150140277173,-0.609699821424,-0.680996600826,-0.0159491291493,-0.68279099024,-0.106834880568,0.0244516771511,-0.523568416348,0.573942593331,0.818874243543,0.00395217966566,0.0,0.818849003147,-0.573867054523,-0.0119858532935,0.0,-0.00754702614891,0.0101156248592,-0.999920355093,0.0,0.465841402794,0.00381260866331,0.304718107437,1.0,-0.21998,-0.289116571429,2.247
0.130078171906,-0.226261567778,-0.131004065586,-2.38109047019,-0.0229320936873,2.14913292163,-0.159200428744,-0.595921654059,-0.664797160266,-0.00856051549977,-0.691795895879,-0.111319891297,0.0137507505044,-0.542716148741,0.573780996108,0.818987371646,0.00397498317199,0.0,0.818962930729,-0.57370607649,-0.0119080977029,0.0,-0.00747225350328,0.0100881982589,-0.999921193737,0.0,0.462117782024,-0.00101123503809,0.304734219541,1.0,-0.21998,-0.289116571429,2.264
0.118989986318,-0.238200229373,-0.131195716509,-2.39319620619,-0.0248963106219,2.14917718259,-0.16902696816,-0.625931217307,-0.662075250537,-0.00987572743143,-0.661738667061,-0.118122085159,0.00180015768203,-0.550846292593,0.573780784713,0.818987757522,0.00392568780446,0.0,0.818962267155,-0.573705494609,-0.0119815413223,0.0,-0.00756069256243,0.0100899626295,-0.999920511132,0.0,0.458130418869,-0.00622951667489,0.304709468479,1.0,-0.21998,-0.289116571429,2.282
0.109533976207,-0.248098676433,-0.131371693312,-2.40286799134,-0.026407110002,2.14923190211,-0.177386473066,-0.622316789774,-0.646372748381,-0.00622317651931,-0.651255715692,-0.0936899418789,0.00028721285227,-0.560309292158,0.573884721795,0.818913631253,0.00418778465245,0.0,0.818892270758,-0.573809490997,-0.0117840500659,0.0,-0.00724726818287,0.0101922270091,-0.999921794748,0.0,0.454910135806,-0.0106018006069,0.304820631792,1.0,-0.21998,-0.289116571429,2.297
0.0982536319425,-0.259760285968,-0.131538888495,-2.41462034292,-0.0282794193539,2.14912660158,-0.187582969334,-0.63539867616,-0.649197757646,-0.0138609629474,-0.646522354129,-0.101694539247,-0.00958593117764,-0.56848310874,0.573740699351,0.81901481283,0.00413438925185,0.0,0.818991808844,-0.573664350889,-0.0119321610108,0.0,-0.00740100738279,0.0102321943364,-0.999920260465,0.0,0.450899072908,-0.0157159130002,0.304735390585,1.0,-0.21998,-0.289116571429,2.315
0.0871247819963,-0.270698581001,-0.131782655571,-2.42516516966,-0.0300818465831,2.14899681484,-0.197374861087,-0.661549155473,-0.642812975656,-0.0128434684317,-0.611095804595,-0.101158634802,-0.00517180282449,-0.58679523921,0.573913420759,0.818892840592,0.00431833313742,0.0,0.8188735113,-0.573838243059,-0.0116871808245,0.0,-0.00709266055904,0.01024379577,-0.999922376394,0.0,0.447235255627,-0.0207264619393,0.304827798809,1.0,-0.21998,-0.289116571429,2.332
0.0761056403443,-0.281442963101,-0.131871936585,-2.43566842012,-0.0318220575363,2.14864071156,-0.207383987565,-0.644659496255,-0.638765855742,-0.00715422058611,-0.614262427636,-0.101840992996,-0.0296233074979,-0.594966867552,0.573713272228,0.819033240496,0.00428708921153,0.0,0.819013174429,-0.573637749381,-0.0117430616832,0.0,-0.00715885948723,0.0102485302044,-0.999921856127,0.0,0.44348584231,-0.0255288772796,0.304798198782,1.0,-0.21998,-0.289116571429,2.349
0.0647184186119,-0.292076936259,-0.132129981248,-2.44592233689,-0.0334572831207,2.14818204501,-0.217623689174,-0.677741265737,-0.632241154718,-0.0224373754717,-0.581939492219,-0.0910236018464,-0.0282203582255,-0.606377465838,0.573800469408,0.818971682622,0.0043762165339,0.0,0.818951887168,-0.573723361101,-0.0118346242844,0.0,-0.00718162277316,0.0103748235063,-0.999920390497,0.0,0.439734530799,-0.0304725369624,0.304784453729,1.0,-0.21998,-0.289116571429,2.366
0.0537887929204,-0.302008924894,-0.132278996426,-2.45516579951,-0.0351352716682,2.14777910859,-0.227378600228,-0.672757751079,-0.610557692942,-0.00436568747997,-0.571577235069,-0.106473163811,-0.0298439403975,-0.607926326602,0.573824521155,0.818954040081,0.00452173169766,0.0,0.818937918546,-0.573749587265,-0.0115257790206,0.0,-0.00684487338378,0.0103169908062,-0.999923350767,0.0,0.436297883984,-0.0351342574606,0.304893082757,1.0,-0.21998,-0.289116571429,2.382
0.0429027671123,-0.311743808603,-0.13245282331,-2.46451531981,-0.0366899966519,2.14708585494,-0.237285496689,-0.691058632286,-0.607766181134,-0.0145805321745,-0.588067099015,-0.102304225865,-0.0487781276056,-0.627224669466,0.573750730912,0.819006232987,0.00443125362264,0.0,0.818987490165,-0.573673937642,-0.0117665255812,0.0,-0.00709489967598,0.0103803937899,-0.999920951787,0.0,0.432712079506,-0.0396860931421,0.304811991291,1.0,-0.21998,-0.289116571429,2.398
0.0301880356496,-0.322578898628,-0.132708347291,-2.47453359336,-0.0384514775001,2.14636741353,-0.24868203589,-0.706715600955,-0.615094722116,-0.00291248383403,-0.538007141935,-0.0899879685441,-0.0264832378651,-0.623725891142,0.573890106148,0.818907910186,0.00455275758109,0.0,0.818891264542,-0.573813675152,-0.0116494620877,0.0,-0.00692753546984,0.0104139249471,-0.99992177665,0.0,0.428785970006,-0.0449660800086,0.304864731501,1.0,-0.21998,-0.289116571429,2.416
0.0182644016433,-0.33260000403,-0.132848897717,-2.48379680152,-0.0400102044607,2.14563441105,-0.259682345139,-0.708760081461,-0.578410527253,-0.00898627830316,-0.548957843096,-0.0976986871966,-0.0558929070311,-0.644620122604,0.573723803068,0.819023822676,0.00466074923628,0.0,0.819008598238,-0.573647101222,-0.0116045754763,0.0,-0.00683092999475,0.0104752165543,-0.999921801059,0.0,0.425084511386,-0.0497826362741,0.304877152063,1.0,-0.21998,-0.289116571429,2.433
0.00732921586418,-0.341343457908,-0.133106850499,-2.49186185322,-0.0414608536228,2.14478191562,-0.269478071617,-0.733605555148,-0.584663236263,-0.0126615832948,-0.530241567239,-0.10080447011,-0.0462618580485,-0.658213681741,0.573907857214,0.818895037359,0.00462991560036,0.0,0.818878712425,-0.573830153513,-0.0117199043247,0.0,-0.00694071994044,0.0105176870012,-0.999920599181,0.0,0.421738257763,-0.054199669839,0.304848489997,1.0,-0.21998,-0.289116571429,2.448
-0.00501209520638,-0.351116388819,-0.133240166598,-2.50064061942,-0.0430245617665,2.14381593323,-0.280815699985,-0.734380969068,-0.576869273306,-0.00843080032103,-0.507401044224,-0.0868340873841,-0.0488071277424,-0.663309611552,0.573797800297,0.818971731112,0.00470477580734,0.0,0.818956710012,-0.573720387126,-0.0116435142168,0.0,-0.00683661482287,0.0105342333785,-0.999921142203,0.0,0.418029098584,-0.0590502999848,0.304896126514,1.0,-0.21998,-0.289116571429,2.465
-0.0184197179757,-0.36121634248,-0.133543652808,-2.50968928679,-0.0447252504982,2.14276615612,-0.29308406245,-0.760191249489,-0.557636084037,-0.0182532911087,-0.501455934533,-0.0955912563436,-0.0683121560394,-0.682788135993,0.573848405059,0.818935967573,0.0047577229629,0.0,0.818921931467,-0.573771285939,-0.0115813856926,0.0,-0.0067546985243,0.0105423663595,-0.999921613207,0.0,0.414085966005,-0.0643162504529,0.30491641538,1.0,-0.21998,-0.289116571429,2.483
-0.0303890248134,-0.370028766634,-0.133656178303,-2.5176617367,-0.0460853431704,2.14168956137,-0.304166505242,-0.74573091818,-0.553682462108,-0.0109637447156,-0.50352886137,-0.0865682524685,-0.0703301658994,-0.690836586374,0.573732792989,0.819017042839,0.00474475383991,0.0,0.819001677682,-0.573653934416,-0.0117542496563,0.0,-0.00690521703301,0.0106299644996,-0.999919657689,0.0,0.410528265168,-0.0688571411535,0.304862040601,1.0,-0.21998,-0.289116571429,2.499
-0.0441650582313,-0.379726832862,-0.133927906422,-2.52615069321,-0.047719577541,2.1404440875,-0.31675148394,-0.775728403353,-0.546485950683,-0.0222468845047,-0.459197984012,-0.0948124902084,-0.0633813397868,-0.702374749357,0.573834755738,0.818945424971,0.00477607862715,0.0,0.818930669085,-0.57375609149,-0.011715528623,0.0,-0.00685420632589,0.0106342595139,-0.999919962987,0.0,0.40658812879,-0.0741021429173,0.304894062298,1.0,-0.21998,-0.289116571429,2.517
-0.0565011412646,-0.388168776005,-0.134075952566,-2.53346946307,-0.0490736090587,2.13941654575,-0.328203498773,-0.774355736243,-0.529976622077,-0.0227231551845,-0.453766056391,-0.0772550349141,-0.0750054767625,-0.715639516119,0.57374675186,0.819006467107,0.00488041688951,0.0,0.818993633018,-0.573668669845,-0.0115945338743,0.0,-0.00669638488699,0.0106495615457,-0.999920869503,0.0,0.402901298912,-0.0789786961263,0.304927309767,1.0,-0.21998,-0.289116571429,2.534
-0.0698903044257,-0.396944943848,-0.134325887987,-2.54117885252,-0.0505570687359,2.13806956151,-0.3405457626,-0.798345386972,-0.510687677011,-0.0187159735676,-0.445258959962,-0.0904461556399,-0.084764709226,-0.725652590666,0.573810427351,0.818962253682,0.00481325340998,0.0,0.818947644937,-0.573731124988,-0.0117515094048,0.0,-0.00686266146004,0.0106851469004,-0.999919362505,0.0,0.399325141374,-0.0836341319694,0.304884951876,1.0,-0.21998,-0.289116571429,2.55
-0.0832886658872,-0.40552509252,-0.134469478459,-2.54860324328,-0.0519252839656,2.13674970063,-0.353091086293,-0.785605501622,-0.500257675359,-0.0133515215386,-0.426967214267,-0.0697011814507,-0.070241799638,-0.745503482035,0.573680515345,0.819053201322,0.00482354824656,0.0,0.819038114082,-0.573600249189,-0.0118350628022,0.0,-0.00692689096394,0.010740421573,-0.999918327428,0.0,0.395577131887,-0.0884640887781,0.304864148258,1.0,-0.21998,-0.289116571429,2.567
-0.0978860105646,-0.414351348929,-0.134759433233,-2.55594457899,-0.0533126670146,2.13546847086,-0.366595390105,-0.826565715234,-0.484978596517,-0.0138479490178,-0.405491019268,-0.0839941110662,-0.076588723638,-0.749797316968,0.573844530777,0.818936929477,0.00505043939339,0.0,0.81892583224,-0.57376516161,-0.0116089411167,0.0,-0.00660935166832,0.0107978705438,-0.99991985802,0.0,0.391693632085,-0.0937401575129,0.304956073027,1.0,-0.21998,-0.289116571429,2.585
-0.110048515963,-0.421566738371,-0.134877352386,-2.56205006324,-0.0545408497543,2.13423094488,-0.378060003807,-0.81330989186,-0.478405278158,-0.0153855776534,-0.398731798175,-0.0783176397278,-0.0876815483243,-0.774803400062,0.57367809572,0.819053792685,0.00500740257925,0.0,0.819042051839,-0.573598748866,-0.0116335514932,0.0,-0.00665639277457,0.0107753944097,-0.999919788438,0.0,0.388382006914,-0.0980218965216,0.304952143758,1.0,-0.21998,-0.289116571429,2.6
-0.124090244434,-0.429455846227,-0.135148790671,-2.56877156263,-0.0558455594152,2.13275965126,-0.391128794537,-0.838958881233,-0.464423359111,-0.0189446511224,-0.391934642088,-0.0781874329817,-0.0797305058494,-0.759718549377,0.573784302989,0.818979524812,0.00498582819457,0.0,0.818966094152,-0.573702747516,-0.0118507815136,0.0,-0.00684529587196,0.0108832261891,-0.99991734524,0.0,0.384583895562,-0.102944596249,0.304895066377,1.0,-0.21998,-0.289116571429,2.617
-0.138161512425,-0.437051923206,-0.135308761823,-2.5751680069,-0.0571342661635,2.13141389412,-0.40445804654,-0.825963184149,-0.442162919696,-0.0138406949429,-0.368902249505,-0.0773172793258,-0.083093013352,-0.79139517215,0.573635618654,0.819083780932,0.00496827204169,0.0,0.819069868373,-0.573553748835,-0.0118909554762,0.0,-0.00689025037424,0.0108906472069,-0.999916955678,0.0,0.380861617376,-0.107792161217,0.304864229675,1.0,-0.21998,-0.289116571429,2.634
-0.152682361049,-0.444520083106,-0.135548488059,-2.58105338628,-0.0583633435985,2.13006728409,-0.417967391543,-0.848947466561,-0.437401533055,-0.0100142336698,-0.347313101582,-0.0748904312245,-0.0832044294335,-0.797697602336,0.573810862741,0.818959953204,0.00514157070732,0.0,0.818949910209,-0.573731010253,-0.011598247452,0.0,-0.00654874771801,0.0108660984519,-0.999919517665,0.0,0.377190450788,-0.112802969277,0.304995238406,1.0,-0.21998,-0.289116571429,2.651
-0.16620194449,-0.451248459453,-0.135674720437,-2.58662035864,-0.059427215307,2.12872016275,-0.430866173635,-0.851217991786,-0.413205192552,-0.00586503199697,-0.355085951585,-0.0630396641374,-0.0945869515189,-0.816703308326,0.573669743329,0.819058623798,0.005171389781,0.0,0.819048100191,-0.573588384497,-0.0117184318333,0.0,-0.00663196122619,0.0109583377395,-0.999917962597,0.0,0.373450042578,-0.117626781348,0.304967164627,1.0,-0.21998,-0.289116571429,2.668
-0.180926327118,-0.45817706451,-0.13594217942,-2.5923253196,-0.0606370196317,2.12721147388,-0.444778946201,-0.85382684117,-0.394550771736,-0.00898429013127,-0.317205045073,-0.0709610595427,-0.082471389006,-0.830941996322,0.573690757891,0.819044122034,0.00513686410567,0.0,0.819032162402,-0.573607895461,-0.0118762838455,0.0,-0.00678078521748,0.0110207833809,-0.999916278138,0.0,0.369657933749,-0.122551114822,0.304928187148,1.0,-0.21998,-0.289116571429,2.685
-0.194813475585,-0.464375451321,-0.136102292592,-2.59737064547,-0.0617115222435,2.12597636465,-0.458032190199,-0.885915791165,-0.383742532337,-0.0119897484606,-0.313293608551,-0.0699463300945,-0.074884573496,-0.82773733927,0.57361894609,0.819094343754,0.00514855497982,0.0,0.819082587302,-0.573536138277,-0.0118642391394,0.0,-0.00676517908187,0.0110228563092,-0.999916360998,0.0,0.366378029519,-0.126864588336,0.304913714852,1.0,-0.21998,-0.289116571429,2.7
-0.210734176156,-0.471086677298,-0.13629363278,-2.60270092207,-0.0628418681919,2.12454779813,-0.473056045932,-0.881913066681,-0.370153199637,-0.00259246802537,-0.286780128041,-0.0623673787331,-0.0787388350565,-0.845246495602,0.573721702172,0.819021971677,0.00521203116542,0.0,0.819011256674,-0.573639008332,-0.0118150947002,0.0,-0.00668712651569,0.011047501136,-0.999916614052,0.0,0.362441243181,-0.132089588441,0.304938452,1.0,-0.21998,-0.289116571429,2.718
-0.225835926003,-0.477235363068,-0.13656990059,-2.6074108441,-0.0639060547672,2.12322609303,-0.487498563677,-0.900874302784,-0.353697636973,-0.0201409651776,-0.276359070459,-0.0672461938444,-0.0744427809259,-0.857379546992,0.57374893925,0.819002082279,0.0053376804453,0.0,0.8189940312,-0.573667559548,-0.0116213115661,0.0,-0.00645594855375,0.0110394561526,-0.999918222224,0.0,0.358741498551,-0.137037961825,0.305024088947,1.0,-0.21998,-0.289116571429,2.735
-0.240113782476,-0.482680964316,-0.136697540457,-2.61179315851,-0.0648297425424,2.12193965338,-0.501275387746,-0.892398779722,-0.343026537404,-0.00713227834834,-0.272119142994,-0.052213557948,-0.0768680706118,-0.857839810212,0.57361606497,0.819095161043,0.00533610961254,0.0,0.819086288768,-0.573533351673,-0.0117427837827,0.0,-0.00655814680723,0.0111067974845,-0.99991681142,0.0,0.355209568532,-0.141595271645,0.304987444317,1.0,-0.21998,-0.289116571429,2.751
-0.255538825055,-0.488084205324,-0.136885663264,-2.61614638062,-0.0657385577956,2.12060197328,-0.515942520315,-0.908551311966,-0.299967385667,-0.00957589841442,-0.243903326933,-0.0501298611434,-0.0810527159624,-0.855832950475,0.573743223859,0.81900590662,0.00536515600723,0.0,0.818996098299,-0.573658169197,-0.0119349396999,0.0,-0.00669714947773,0.0112418490571,-0.999914380844,0.0,0.35144599018,-0.146499420406,0.304933056111,1.0,-0.216094285714,-0.284009632653,2.768
-0.27255775123,-0.493657858974,-0.136934063977,-2.6205572386,-0.0666157961722,2.1193179986,-0.532338487084,-0.897630461953,-0.283091286087,-0.00158212134905,-0.217157982991,-0.049768785899,-0.0616021115064,-0.85900774632,0.573667003532,0.819058788244,0.00544218339664,0.0,0.819049760556,-0.573581300015,-0.0119469203645,0.0,-0.00666382378868,0.0113111907903,-0.999913821494,0.0,0.34739377582,-0.151825843072,0.304915668401,1.0,-0.211751428571,-0.278301877551,2.787
-0.286059793503,-0.497769372874,-0.137003200248,-2.62374530023,-0.0673545516809,2.11828285739,-0.545140342052,-0.892856970961,-0.26447504472,0.00342694492259,-0.210958080353,-0.0527118983454,-0.0736903968562,-0.846347157782,0.573794218712,0.818969691774,0.00543924910371,0.0,0.818960563265,-0.573708396029,-0.0119590570046,0.0,-0.0066736908393,0.0113167861634,-0.999913692376,0.0,0.344201254434,-0.156045408365,0.304918114839,1.0,-0.208322857143,-0.273795755102,2.802
-0.301932774863,-0.502351251244,-0.1369819785,-2.62723561303,-0.0680037480587,2.11711225109,-0.560399229642,-0.891587217331,-0.242953175066,-0.00286088895225,-0.184719749506,-0.0365731727556,-0.0633364254314,-0.847970559,0.573806423903,0.8189603657,0.00555465578268,0.0,0.818952652167,-0.573720011228,-0.0119435809369,0.0,-0.00659462920087,0.011402523085,-0.999913242903,0.0,0.340490420796,-0.160919733638,0.304944367457,1.0,-0.204208571429,-0.268388408163,2.82
-0.316827918904,-0.506246678952,-0.136933639266,-2.63020704338,-0.0686159494208,2.11616341829,-0.57470649365,-0.864034952938,-0.223756544379,0.00442492115909,-0.164289985081,-0.0236398480769,-0.0508301695592,-0.832078238584,0.573822188524,0.818948924811,0.00561261162452,0.0,0.8189423882,-0.573736292374,-0.0118650126102,0.0,-0.00649680541962,0.0114050326529,-0.999913854664,0.0,0.337060725988,-0.165476710609,0.30496455806,1.0,-0.200322857143,-0.263281469388,2.837
-0.329839263162,-0.509441334757,-0.136907213213,-2.63261118455,-0.0690718680342,2.11537469772,-0.587168657304,-0.871885430476,-0.206365134899,-0.00266170253999,-0.159945525796,-0.0291784130496,-0.0506432646603,-0.824994439821,0.573920511075,0.818879319409,0.00571437767907,0.0,0.818874474395,-0.573834880427,-0.0117844003295,0.0,-0.00637101515108,0.0114428873893,-0.999914231569,0.0,0.334077369834,-0.169433516395,0.304991388023,1.0,-0.196894285714,-0.258775346939,2.852
-0.345144607648,-0.512886321426,-0.136777168228,-2.63527347019,-0.0696037837344,2.11438848551,-0.602037806158,-0.836686984383,-0.17732550631,0.00983159997569,-0.142451177477,-0.0215107227453,-0.061962600779,-0.81019543686,0.573805045341,0.818960181535,0.00572170449299,0.0,0.818954855809,-0.573718378865,-0.0118706697968,0.0,-0.00643908283798,0.0114974892613,-0.999913169207,0.0,0.330554212183,-0.174018943113,0.304976092762,1.0,-0.19278,-0.253368,2.87
-0.358710581211,-0.515582771873,-0.136715269472,-2.63743928758,-0.0700417548558,2.11362577205,-0.61505417965,-0.842801797311,-0.162829623592,0.00540432379775,-0.128456676822,-0.0252150943126,-0.0423707212069,-0.804125690673,0.573904708567,0.818890268224,0.00573245097349,0.0,0.818884089725,-0.573816216785,-0.0120226390724,0.0,-0.00655597502706,0.0115942852963,-0.999911291935,0.0,0.327245192728,-0.178330810158,0.304918563733,1.0,-0.188894285714,-0.248261061225,2.887
-0.37191280226,-0.518012065516,-0.136551729272,-2.63935946932,-0.0703884746202,2.11296202398,-0.627857545096,-0.824863206518,-0.155020018552,0.00475933963577,-0.111502968682,-0.020791641302,-0.0465336059755,-0.788294414113,0.573852170643,0.818926876523,0.00576229625372,0.0,0.818920783878,-0.573763031681,-0.0120615136052,0.0,-0.00657143161533,0.0116406140465,-0.999910652204,0.0,0.324451396004,-0.181985311507,0.304894369227,1.0,-0.185465714286,-0.243754938776,2.902
-0.386718749671,-0.520435906632,-0.136447430093,-2.6411871604,-0.0707640643676,2.1122606131,-0.642114408452,-0.824402214543,-0.128005946992,0.00900062778198,-0.0908521312361,-0.0199312102307,-0.0402523803161,-0.790257984467,0.57396164874,0.818849783988,0.00581411554538,0.0,0.81884429058,-0.573872138801,-0.0120641200614,0.0,-0.00654226914198,0.0116854225407,-0.999910320786,0.0,0.321124400029,-0.18639197933,0.304898100323,1.0,-0.181351428571,-0.238347591837,2.92
-0.400195870796,-0.522469223514,-0.136239930763,-2.64269846678,-0.0710192326704,2.11166594007,-0.655386768301,-0.786636857254,-0.11640695192,0.0156335193256,-0.0854688296016,-0.0170607682806,-0.0438665334194,-0.770879485367,0.573791102047,0.818968916416,0.0058678836018,0.0,0.818964224061,-0.573701585112,-0.0120348597742,0.0,-0.0064898868953,0.0117113076726,-0.999910359303,0.0,0.317936141775,-0.190580996588,0.304914918755,1.0,-0.177237142857,-0.232940244898,2.938
-0.41299117202,-0.524180165152,-0.13615260914,-2.64392813779,-0.0712755211016,2.11113165126,-0.66764617561,-0.799372703258,-0.105538215261,0.0102286263519,-0.0759683466671,-0.0162209234993,-0.0315962714527,-0.768880663692,0.573981497544,0.818835034684,0.00593071262119,0.0,0.818831286585,-0.573891912427,-0.0120059927091,0.0,-0.00642746319671,0.0117476969002,-0.999910335647,0.0,0.31525164663,-0.194126641295,0.304937477678,1.0,-0.173808571429,-0.228434122449,2.953
-0.426055200407,-0.525664827254,-0.135941897203,-2.64503706295,-0.0714730559705,2.11068496352,-0.680485143413,-0.759786869193,-0.0811740007417,0.0139087265053,-0.0653448972662,-0.0193575515509,-0.0270229894244,-0.7413677045,0.573868068993,0.818914279889,0.00596560853101,0.0,0.818911096933,-0.573778567756,-0.0119798750024,0.0,-0.00638767537462,0.0117603971845,-0.99991044132,0.0,0.312358864377,-0.197942633621,0.30494440329,1.0,-0.169922857143,-0.223327183674,2.97
-0.439134434996,-0.526936446068,-0.135826628113,-2.64599126273,-0.0716648247403,2.11027073629,-0.693071281598,-0.760500456893,-0.074862299697,0.00779721116375,-0.0521551822097,-0.0126414589541,-0.0223433104581,-0.729526477489,0.574053185885,0.818784096243,0.00602415276031,0.0,0.818781569429,-0.573963210509,-0.0119883880196,0.0,-0.00635838180968,0.0118146650567,-0.999909988284,0.0,0.309444440373,-0.201777804143,0.30494341285,1.0,-0.166037142857,-0.218220244898,2.987
-0.450878420129,-0.527902742757,-0.135598264963,-2.64675076684,-0.0717713890995,2.10995856027,-0.704696587818,-0.727188353745,-0.0585280603255,0.004166787732,-0.0406071416195,-0.0110651540332,-0.0137571537733,-0.725579997293,0.573899801821,0.81889137935,0.00605583996371,0.0,0.818889099987,-0.573809419602,-0.0120057819524,0.0,-0.00635665571376,0.0118494053585,-0.999909588173,0.0,0.30684638537,-0.205171109989,0.304930570579,1.0,-0.16238,-0.213413714286,3.003
-0.463436833164,-0.528694405704,-0.135461099263,-2.64738489295,-0.0718982575434,2.10965826632,-0.716818968859,-0.734306108179,-0.0479900769658,0.0127952625631,-0.0334958015017,-0.00850425984555,-0.020672869699,-0.707441549156,0.574069438051,0.818772129237,0.00610144099307,0.0,0.818770050542,-0.573978092668,-0.0120623536014,0.0,-0.00637434820405,0.011920535211,-0.999908630088,0.0,0.30405555899,-0.208830182709,0.304909311411,1.0,-0.158494285714,-0.20830677551,3.02
-0.476150567827,-0.529271350259,-0.13517805681,-2.6478556568,-0.0719668147267,2.1094220775,-0.729406209848,-0.69411135733,-0.0271967343177,0.0123632424052,-0.0183972732585,-0.00276930907207,-0.0116827808947,-0.694150136674,0.573914995298,0.818880346115,0.00610768539697,0.0,0.818878089122,-0.573823170478,-0.0120992181856,0.0,-0.00640320385827,0.0119456024848,-0.999908146562,0.0,0.301117000904,-0.212696818136,0.304891965014,1.0,-0.154151428571,-0.202599020408,3.039
-0.486678505076,-0.529626238667,-0.135044129582,-2.64813399161,-0.0719963464866,2.10924103964,-0.739616858299,-0.70191063126,-0.0221534242844,0.00914960394688,-0.0217054733942,-0.00298768092246,-0.010317537697,-0.663952616526,0.574053802392,0.818782551223,0.00617354626032,0.0,0.818780906841,-0.573961195959,-0.0121292632478,0.0,-0.00638797609991,0.0120178628741,-0.999907378077,0.0,0.298938976879,-0.215548794131,0.304883974978,1.0,-0.150951428571,-0.198393306123,3.053
-0.498877779324,-0.529860239453,-0.134749557615,-2.64831736088,-0.0720276735401,2.10908395322,-0.751678620429,-0.655655149499,-0.0067320426536,0.0140456365674,-0.0143754835359,-0.00162400511534,-0.00748866242959,-0.672965129368,0.573934799137,0.818866025136,0.00616653213809,0.0,0.818864191209,-0.573842065395,-0.0121436090212,0.0,-0.00640549663717,0.0120194235673,-0.999907247233,0.0,0.296268678117,-0.219055487812,0.304880108842,1.0,-0.146837142857,-0.192985959184,3.071
-0.510184860283,-0.529992244141,-0.134557762282,-2.64841945304,-0.0720422074646,2.10897771001,-0.762735997592,-0.668348929947,-0.00883859613658,0.00625453898364,-0.00300810645847,2.58290314562e-06,-0.0115320981311,-0.646851919061,0.573991990481,0.818825653749,0.00620407343345,0.0,0.818824292991,-0.57389904461,-0.0121412810646,0.0,-0.00638120344683,0.0120492761139,-0.999907043273,0.0,0.293765425331,-0.222312992758,0.30487768169,1.0,-0.142951428571,-0.187879020408,3.088
-0.52064308189,-0.529984173936,-0.13433745854,-2.64840606102,-0.0720394296249,2.1088874918,-0.772958281069,-0.636347106394,0.000703448507244,0.0197513110912,0.00568895957008,0.000603844075891,-0.00543887744434,-0.635164095454,0.574031783808,0.818797658398,0.00621712812145,0.0,0.818796390851,-0.573938624697,-0.0121520496725,0.0,-0.00638194272515,0.0120664571344,-0.999906831369,0.0,0.291453407883,-0.225312199073,0.304878742425,1.0,-0.139294285714,-0.183072489796,3.104
-0.531231968518,-0.529832954759,-0.134098164094,-2.64831078159,-0.0720429171677,2.10889798404,-0.783478702753,-0.62823912427,0.00894868740979,0.00850962930354,0.00528910935965,-0.000597093285986,-0.000250940805474,-0.616064042801,0.573923299877,0.818873789604,0.00620559904022,0.0,0.818872565412,-0.573830582465,-0.0121215157758,0.0,-0.00636515159621,0.0120386469208,-0.999907273614,0.0,0.289118858394,-0.228350432646,0.304873864429,1.0,-0.135408571429,-0.17796555102,3.121
-0.542419009589,-0.529617967951,-0.133900493394,-2.64812780453,-0.0720418167751,2.10889828638,-0.794341194074,-0.609824315364,0.0163850360934,0.0112909078219,0.00786178260897,8.29950163263e-05,0.000764233148904,-0.594699953441,0.574051509286,0.818783870414,0.00621169359159,0.0,0.818783015702,-0.573959287129,-0.0120771196141,0.0,-0.00632341326072,0.0120191493597,-0.999907772994,0.0,0.286492239658,-0.231736183451,0.304884046547,1.0,-0.131065714286,-0.172257795918,3.14
-0.5517633145,-0.529233583169,-0.133579165705,-2.64784575344,-0.0720049674061,2.10892502757,-0.803734856558,-0.574780982711,0.0296164907062,0.019770869604,0.017770092963,0.00389708311669,0.00347453464018,-0.587117767745,0.573825423545,0.818942736471,0.00615829321454,0.0,0.818941163782,-0.573733442555,-0.0120852827398,0.0,-0.0063640582796,0.0119783529193,-0.99990800468,0.0,0.284580417597,-0.234216865778,0.304881997692,1.0,-0.127637142857,-0.167751673469,3.155
-0.562221654466,-0.528729978413,-0.133343215962,-2.64747400646,-0.0719735219405,2.10897659727,-0.814010551635,-0.578707148857,0.0331255867568,0.0132740552313,0.0237975353744,0.00512332321245,0.00250664434963,-0.573836207895,0.573843236402,0.818930397796,0.00613925914895,0.0,0.818928529489,-0.573751245767,-0.0120962172042,0.0,-0.00638367528763,0.0119691773394,-0.999907989509,0.0,0.282253216181,-0.237209797279,0.304877476845,1.0,-0.123522857143,-0.162344326531,3.173
-0.571828148885,-0.528107691793,-0.133122472809,-2.64697329169,-0.0719149898322,2.10909938781,-0.823390402674,-0.54489358152,0.043149436265,0.0193185832149,0.0300542064703,0.00116700701771,0.00318812012465,-0.546828969511,0.57392627379,0.818872319138,0.00612405944837,0.0,0.818870681182,-0.573835135712,-0.0120329308562,0.0,-0.00633935556381,0.0119210574184,-0.999908846326,0.0,0.280139090525,-0.239980018527,0.304893837032,1.0,-0.119637142857,-0.157237387755,3.19
-0.57981801523,-0.527431770265,-0.132869431568,-2.64650220255,-0.0717979715052,2.10920350095,-0.831442524063,-0.535232595125,0.0455601478776,0.0135349356606,0.0294734891946,0.00467257732329,0.00579544670222,-0.53379811686,0.573773466234,0.818979369301,0.00612772445034,0.0,0.818977470303,-0.57368176507,-0.0120781813356,0.0,-0.00637654032217,0.0119488382919,-0.999908278292,0.0,0.278389671082,-0.242257582897,0.304876256291,1.0,-0.116208571429,-0.152731265306,3.205
-0.589409101588,-0.526579119381,-0.132619655021,-2.64586042705,-0.0716504744496,2.10933263918,-0.840774384316,-0.526133091412,0.0527634789678,0.0118053566205,0.0397195558208,0.0131092525117,0.00294022259755,-0.50892411641,0.573908453367,0.818884578309,0.00615479185433,0.0,0.818882897665,-0.573816352806,-0.0120971098272,0.0,-0.00637453919509,0.0119829180876,-0.999907883219,0.0,0.276273058506,-0.24500482929,0.304873518202,1.0,-0.112094285714,-0.147323918367,3.223
-0.598038822363,-0.525638362555,-0.132352348279,-2.64516915391,-0.0714967529634,2.1094958748,-0.849361033863,-0.484904291351,0.0590851237042,0.0219578597565,0.0394868687491,0.0100839838088,0.00500669533192,-0.493901892651,0.573859384659,0.818918910065,0.00616216504039,0.0,0.818917129922,-0.573766894455,-0.012125677277,0.0,-0.00639442323358,0.0120049673425,-0.999907491776,0.0,0.274387091192,-0.247480702064,0.304864135964,1.0,-0.108208571429,-0.142216979592,3.24
-0.605727093629,-0.524711935416,-0.132062395381,-2.64450270515,-0.0713220518059,2.10964270019,-0.857116073457,-0.479903154413,0.0615113750392,0.0114004325674,0.0418586384825,0.00718066280422,0.0114302338233,-0.488453855581,0.573711758956,0.819022271623,0.00617115247893,0.0,0.819020198877,-0.573618491976,-0.01218549939,0.0,-0.00644043221084,0.0120454947325,-0.999906709093,0.0,0.272712559516,-0.24967005878,0.304847617745,1.0,-0.104551428571,-0.13741044898,3.256
-0.613394529127,-0.523823427281,-0.131802773965,-2.64380802272,-0.0711547252369,2.10979742101,-0.864590824751,-0.479542136048,0.0536222806995,0.0149538881459,0.0476274758646,0.0126970437816,0.00973951946641,-0.463224648291,0.573795903575,0.818963231633,0.00618329804849,0.0,0.818961386792,-0.573702693128,-0.0121743066369,0.0,-0.00642305842722,0.0120496816156,-0.999906770401,0.0,0.271027811841,-0.251858778103,0.304857457859,1.0,-0.100894285714,-0.132603918367,3.272
-0.62212659457,-0.52263220995,-0.131546062154,-2.64287096219,-0.0709505743754,2.11001807522,-0.873154257711,-0.448893832013,0.0674479605587,0.0183590130124,0.0469157053943,0.0133877815875,0.0131244679688,-0.444644704942,0.57389125363,0.818896221329,0.0062092351921,0.0,0.818894847874,-0.573798155131,-0.01215122192,0.0,-0.00638786500299,0.0120584228508,-0.999906890475,0.0,0.269118139665,-0.254384809409,0.304871672867,1.0,-0.0965514285715,-0.126896163265,3.291
-0.628097359806,-0.521756398935,-0.131278473926,-2.64218939266,-0.0707702317534,2.11017948498,-0.879192740426,-0.427560689289,0.0560572974787,0.0179127368322,0.048851922336,0.00880013526282,0.0159158841462,-0.418416544157,0.573753142877,0.818992994551,0.00620909145203,0.0,0.818991670244,-0.573660171216,-0.0121407962095,0.0,-0.00638144144088,0.012051246185,-0.999907018012,0.0,0.267737461409,-0.256212207336,0.304880364759,1.0,-0.0931228571429,-0.122390040816,3.306
-0.635766691121,-0.520655521815,-0.131003310896,-2.64132492872,-0.0705596861036,2.11039280901,-0.886712160394,-0.420211967375,0.0606263598683,0.0145613378166,0.0483684222479,0.013133138919,0.0192853224253,-0.41104477198,0.57382598742,0.818941785162,0.00623181988822,0.0,0.818940905749,-0.5737331791,-0.0121152380043,0.0,-0.00634639499064,0.0120557627452,-0.99990718662,0.0,0.266146832443,-0.25828665865,0.304893871287,1.0,-0.0892371428572,-0.117283102041,3.323
-0.64266581689,-0.519552337577,-0.130760307235,-2.6404556701,-0.0703585940363,2.11061892274,-0.893504290324,-0.397643145141,0.0684556984018,0.00855880458235,0.0457687778603,0.00513038135565,0.0142046074963,-0.390434559266,0.573874683489,0.818907536589,0.00624828532933,0.0,0.818907096623,-0.5737822196,-0.0120780160661,0.0,-0.00630574476374,0.0120482648115,-0.999907534174,0.0,0.26463969465,-0.260279495869,0.304908577375,1.0,-0.0853514285715,-0.112176163265,3.34
-0.648833761072,-0.518497607292,-0.130531244893,-2.63966334786,-0.0701479420811,2.11083192308,-0.899572062235,-0.372187168537,0.0593784818444,0.0145170577765,0.0479918644326,0.013751313236,0.0181086072853,-0.371743660953,0.573927542542,0.818870230653,0.00628236916218,0.0,0.818870164067,-0.573834780018,-0.0120849717885,0.0,-0.00629110283295,0.0120805754154,-0.999907236559,0.0,0.263288918057,-0.26205240322,0.304904326904,1.0,-0.0816942857143,-0.107369632653,3.356
-0.654994182501,-0.517405964596,-0.130198503862,-2.6388528193,-0.0699217519349,2.11105038106,-0.905815017269,-0.355794021047,0.0634825674207,0.0219179969528,0.047462314948,0.0147110457189,0.0114478307313,-0.353816684686,0.573764651107,0.818984397746,0.00627919498959,0.0,0.818984147903,-0.573671666172,-0.0121050326669,0.0,-0.00631175815738,0.0120882337388,-0.999907013834,0.0,0.261956966122,-0.263797299473,0.304897412305,1.0,-0.0778085714286,-0.102262693878,3.373
-0.661386876607,-0.516259062815,-0.129901824915,-2.63798084171,-0.0696985202617,2.11128859936,-0.912047074747,-0.352143694918,0.0677531784889,0.0137100463814,0.0489076306475,0.00767586109099,0.0164996911682,-0.340545859874,0.573828143058,0.818939887749,0.00628246681714,0.0,0.818939715583,-0.57373519671,-0.0121001321465,0.0,-0.00630492991606,0.0120885906916,-0.999907052597,0.0,0.260559476542,-0.265622021934,0.304898434967,1.0,-0.0736942857143,-0.0968553469389,3.391
-0.666364551759,-0.515281118887,-0.129669476549,-2.63722266907,-0.0694979575182,2.11149137235,-0.916991570769,-0.325148638674,0.0683562720556,0.0199602470703,0.0518563076036,0.0115188569478,0.0115968444035,-0.32595285644,0.573816755204,0.818947750435,0.00629765076219,0.0,0.818947869426,-0.573723922425,-0.0120828349632,0.0,-0.00628221856684,0.0120910136158,-0.999907166251,0.0,0.25948404871,-0.267056619806,0.304905095646,1.0,-0.0702657142858,-0.0923492244899,3.406
-0.672124231382,-0.514139504677,-0.12947608435,-2.6363764693,-0.0692693692263,2.11171936527,-0.92265506371,-0.311838191071,0.0598518865058,0.0120208548088,0.0461745391693,0.00748157253374,0.0151588035542,-0.315044037485,0.573901396304,0.818887988324,0.00635584776812,0.0,0.818888660771,-0.573807885966,-0.0121085988078,0.0,-0.00626867123917,0.0121541074342,-0.999906486344,0.0,0.258204636646,-0.268718475012,0.304892189873,1.0,-0.0661514285715,-0.0869418775511,3.424
-0.677167722278,-0.513108805087,-0.129156473846,-2.63561051055,-0.0690399311621,2.11192720669,-0.927623230817,-0.285201373579,0.0593656238565,0.0184346977593,0.0441088579684,0.0158367074815,0.0109774017457,-0.2874508424,0.573874977217,0.818906509446,0.00635501483258,0.0,0.818907030787,-0.573781204884,-0.0121305708927,0.0,-0.00628753645419,0.0121658316518,-0.999906225316,0.0,0.257118698983,-0.270141104215,0.304884787169,1.0,-0.0622657142858,-0.0818349387756,3.441
-0.681930517393,-0.512112187199,-0.128835689369,-2.63485993331,-0.068832972159,2.11212334983,-0.932366469824,-0.275511583751,0.0534844835206,0.0185693730426,0.0466794830406,0.0184643463349,0.00787850418842,-0.269655555459,0.5737912889,0.818965306324,0.0063348813551,0.0,0.818965452672,-0.573697410816,-0.0121496935315,0.0,-0.00631599405598,0.0121596713991,-0.999906120899,0.0,0.256095165314,-0.271484328661,0.304881672094,1.0,-0.0583800000001,-0.0767280000001,3.458
-0.68621378489,-0.511181999603,-0.128591608674,-2.63415008559,-0.0686387318499,2.11233082454,-0.936517561003,-0.258266936379,0.0567837007943,0.0104200980737,0.0454636185259,0.0116012924115,0.00945135699404,-0.25018932958,0.573846507845,0.81892660753,0.0063359146887,0.0,0.818926870179,-0.573752810951,-0.0121342542284,0.0,-0.00630193611936,0.0121520841653,-0.999906301836,0.0,0.255171167694,-0.272710905507,0.304883434305,1.0,-0.0547228571429,-0.0719214693878,3.474
-0.690668489708,-0.510213449179,-0.128329857445,-2.63344272851,-0.0684093830356,2.1125382054,-0.940883287171,-0.238884389969,0.0493440529893,0.0182303039706,0.0372381903371,0.0124857579995,0.0119758754729,-0.245858377517,0.573867313357,0.818911817326,0.00636309709251,0.0,0.818912347558,-0.573773318687,-0.0121446564857,0.0,-0.00629454856715,0.0121804746787,-0.99990600293,0.0,0.254254739751,-0.273903587302,0.304873007816,1.0,-0.0508371428572,-0.0668145306123,3.491
-0.694167440841,-0.509461117265,-0.128125230012,-2.63288670376,-0.0682276400557,2.11269900731,-0.944262439162,-0.229071401171,0.0502658974774,0.0159635261606,0.0371733364258,0.0125932612002,0.00665185163804,-0.222628986681,0.573928103614,0.818869022518,0.00638770252997,0.0,0.818869739713,-0.57383372133,-0.012163739121,0.0,-0.00629515125185,0.0122120431543,-0.999905614082,0.0,0.253433852321,-0.274955713551,0.304862362218,1.0,-0.0471800000001,-0.0620080000001,3.507
-0.698060989274,-0.508621699304,-0.12786149104,-2.63221168832,-0.0680120597807,2.11288426503,-0.948052581451,-0.210227506566,0.0428576477699,0.0178312663487,0.0319763162022,0.0145307652205,0.0115585776867,-0.206704568435,0.573952264418,0.818852020661,0.00639635295419,0.0,0.81885315579,-0.573858430177,-0.012114382728,0.0,-0.0062494060312,0.0121909859151,-0.99990615799,0.0,0.252599120353,-0.276057849698,0.304879764139,1.0,-0.0430657142858,-0.0566006530613,3.525
-0.700817427812,-0.507950679836,-0.127600354195,-2.63173227141,-0.0678418802952,2.11302506304,-0.950731273665,-0.191759212788,0.0423976130011,0.0200079053915,0.0340178032787,0.0210309273091,0.00542064303726,-0.183339260393,0.57392782145,0.818869233017,0.0063860695092,0.0,0.818870043344,-0.573833668972,-0.0121457551916,0.0,-0.00628136447713,0.012200382728,-0.999905843128,0.0,0.252024548352,-0.276819779671,0.304866762613,1.0,-0.0398657142858,-0.0523949387756,3.539
-0.703860896852,-0.507246827854,-0.127285792231,-2.63118610822,-0.067639491713,2.11317856057,-0.953739188736,-0.1706511719,0.0418139101342,0.0199983058586,0.0345035418325,0.0100371409489,0.00481753117605,-0.174604766879,0.573847571009,0.818925607333,0.00636881479803,0.0,0.818926309816,-0.573753743562,-0.0121279734853,0.0,-0.00627789758871,0.012175432541,-0.99990616902,0.0,0.251399258089,-0.277657732582,0.304874083033,1.0,-0.0359800000001,-0.0472880000001,3.556
-0.706985921131,-0.506518719913,-0.126968852316,-2.6306067709,-0.0674208586357,2.11334564767,-0.956774253556,-0.158196860986,0.044797174197,0.0154249522749,0.0267905998637,0.0144267817627,0.0158116050515,-0.15105754482,0.573818577964,0.818946008369,0.00635781894077,0.0,0.818946834616,-0.573725325547,-0.0120863476608,0.0,-0.00625054477339,0.0121423203014,-0.999906743025,0.0,0.250759384161,-0.278523263407,0.304888494215,1.0,-0.0316371428572,-0.041580244898,3.575
-0.709373139385,-0.505968694596,-0.12675418309,-2.63018758935,-0.0672403150146,2.11345910972,-0.959045401349,-0.145065578147,0.0320868459535,0.0108660757066,0.0300956065764,0.00818461106538,0.0096590423173,-0.148997552419,0.573859389096,0.818917237315,0.00638019398876,0.0,0.81891836522,-0.573766045966,-0.012082321909,0.0,-0.00623380302067,0.0121586459922,-0.999906649157,0.0,0.250256531688,-0.279179575401,0.304889210198,1.0,-0.0279800000001,-0.0367737142858,3.591
