nelsonifechukwu/NELSON_IML_WORK/CNN-GradCAM/train2dof/data_sample_2022-02-21-14-52-10/robot_state.csv
position_joint1,position_joint2,position_joint3,position_joint4,position_joint5,position_joint6,position_joint7,velocity_joint1,velocity_joint2,velocity_joint3,velocity_joint4,velocity_joint5,velocity_joint6,velocity_joint7,ee_T_00,ee_T_10,ee_T_20,ee_T_30,ee_T_01,ee_T_11,ee_T_21,ee_T_31,ee_T_02,ee_T_12,ee_T_22,ee_T_32,ee_T_03,ee_T_13,ee_T_23,ee_T_33,v_x,v_y,time
0.46508295321,0.547896657111,-0.12397327231,-1.35585365707,0.0794659093957,1.89409314601,0.159168468366,-0.000328745305409,0.00148987672938,0.00156169657018,0.00199229901114,-0.000248891026932,0.000163426449876,0.00109824696435,0.573787337965,0.818990587115,0.00180441416249,0.0,0.818945740192,-0.573729571385,-0.0119582791853,0.0,-0.00875864095775,0.00833938703131,-0.999926867742,0.0,0.661663776468,0.260895400583,0.303121538213,1.0,0.0,0.0,0.0
0.465082926963,0.547891734093,-0.123975775043,-1.35585391326,0.0794652718952,1.89409221301,0.159164652511,-0.000480014513264,-0.00067477822122,0.000295360312068,-0.00288645191904,-0.000231116113648,-0.000177631187236,-0.00163047515841,0.573785813529,0.818991649755,0.00180685539069,0.0,0.818946851892,-0.573728053092,-0.0119549894282,0.0,-0.00875456144156,0.00833948242972,-0.999926902672,0.0,0.661664280417,0.260893803425,0.303124904427,1.0,-0.00014,-0.000184,0.008
0.465082952402,0.54788974599,-0.123976494101,-1.3558651497,0.0794635016715,1.89409161883,0.159168350379,-0.000162238656265,-0.0016072729395,0.000385244009315,-0.00290161276271,0.000121351575177,-0.000379857271804,0.000578242141155,0.573789458522,0.818989116264,0.00179767394419,0.0,0.818944206576,-0.573731744482,-0.0119590463811,0.0,-0.00876311493615,0.00833432987105,-0.999926870707,0.0,0.661661894402,0.260891766774,0.303120934254,1.0,-0.00052,-0.000683428571429,0.027
0.465076549388,0.547871261558,-0.123975638041,-1.3558784689,0.0794613545879,1.8940944577,0.159164947261,-0.00274358350524,-0.000385355724196,8.41995541798e-05,-0.00144442406734,-0.000146467257867,4.83291146181e-05,6.15039506118e-05,0.573791463786,0.818987696688,0.00180434486195,0.0,0.818942879463,-0.573733726138,-0.0119548555466,0.0,-0.00875583468441,0.00833740996119,-0.999926908806,0.0,0.661661492575,0.260886534348,0.30312790396,1.0,-0.00084,-0.001104,0.043
0.465081364416,0.547799554687,-0.123976465361,-1.35593987183,0.0794625526834,1.89410750338,0.159157210045,-0.000555157174361,-0.00902353958649,-6.65310543049e-05,-0.00854517506299,9.14983252492e-05,0.000786831787768,-0.00228409243288,0.573785398708,0.818991893403,0.00182802378822,0.0,0.818947330451,-0.573727508759,-0.0119483279891,0.0,-0.00873696444242,0.00835299216144,-0.999926943819,0.0,0.661650786578,0.260883981264,0.303150640109,1.0,-0.00114,-0.00149828571429,0.058
0.465077968377,0.547658812296,-0.123974094774,-1.35612940812,0.0794625521236,1.89414288512,0.159160413136,-0.000312079469498,-0.0142990754519,-0.000700727033865,-0.00721728403807,-0.000131291838769,0.00280447747334,-0.00191223256351,0.573799486842,0.818982029674,0.00182506777359,0.0,0.818937264273,-0.573741451176,-0.0119687630688,0.0,-0.00875525340364,0.00836244711967,-0.999926704822,0.0,0.661618449277,0.26086485694,0.303163127971,1.0,-0.0015,-0.00197142857143,0.076
0.465060626568,0.547513619408,-0.123978971341,-1.35633345234,0.0794580190832,1.89419940297,0.159152964366,-0.00230968396077,-0.0126381679352,-0.000770961358991,-0.0130690038007,-0.000148801597453,0.00508014505948,-0.00164204084932,0.573821065964,0.818966905966,0.00182704394898,0.0,0.818922094749,-0.573762950793,-0.0119760565716,0.0,-0.00875987252344,0.00836848132508,-0.999926613884,0.0,0.661592669704,0.260831350906,0.303173925973,1.0,-0.00182,-0.002392,0.092
0.465039932368,0.547335121516,-0.123978675474,-1.35654145549,0.0794539230442,1.89433587396,0.159150702382,-0.00344676403829,-0.0112668580416,-0.000278184560754,-0.0158836806117,-1.06068760485e-05,0.00725050855332,0.00122632478193,0.573846861225,0.818948615811,0.00192130795551,0.0,0.818905036873,-0.573788346621,-0.0119256348666,0.0,-0.00866422486471,0.00841701895217,-0.999927039838,0.0,0.66158247987,0.260804111829,0.303213196859,1.0,-0.00216,-0.00283885714286,0.109
0.465012757709,0.547131654509,-0.123971175986,-1.35678456391,0.0794557248405,1.89445780417,0.159130009918,-0.00204657267709,-0.0122388888219,0.00114173036174,-0.0148519864055,0.000414284553398,0.00571815573114,-0.00128668106306,0.573861158601,0.818938403707,0.0020021199627,0.0,0.818895733826,-0.573802166657,-0.0118994773905,0.0,-0.00859628375171,0.00846833841988,-0.999927192925,0.0,0.661561689322,0.260772877793,0.303251948635,1.0,-0.0025,-0.00328571428571,0.126
0.46497606231,0.546913274423,-0.123976239045,-1.35712298149,0.0794471218741,1.89459135289,0.159117614209,-0.00216989842088,-0.0122546548363,0.00301710959014,-0.0269815161365,0.000291488438334,0.00677308891358,0.00164966474659,0.573901313759,0.818910224869,0.00201806116105,0.0,0.818867693252,-0.573842183027,-0.0118994465337,0.0,-0.00858669513507,0.00848179638734,-0.999927161246,0.0,0.661527671531,0.260716044997,0.303257297217,1.0,-0.00284,-0.00373257142857,0.143
0.464935969025,0.546646635428,-0.123976169821,-1.35751029382,0.0794344522293,1.89473324565,0.159050224094,5.32535978982e-05,-0.015407425409,0.00036323532998,-0.023946869608,4.20678084118e-05,0.00305385197091,-0.000394701912539,0.573897182412,0.818913059152,0.00204266260256,0.0,0.818870745903,-0.573837850492,-0.0118983086624,0.0,-0.00857168825987,0.00850124614113,-0.999927124832,0.0,0.661485287417,0.260654675472,0.303274086056,1.0,-0.00318,-0.00417942857143,0.16
0.464890468407,0.546360210826,-0.12397403993,-1.35796420612,0.0794180437371,1.89490455047,0.158937650798,-0.00377500311864,-0.015962188041,0.000224007625767,-0.0251085630568,-0.0045109914441,0.0139895649582,-0.00256189494126,0.573861836923,0.818937803258,0.00205266140331,0.0,0.818895505892,-0.573802355002,-0.0119060793543,0.0,-0.00857268157531,0.00851352367884,-0.999927011859,0.0,0.661435118367,0.260584665732,0.303275651308,1.0,-0.00352,-0.00462628571429,0.177
0.464846596339,0.546049163148,-0.123978679737,-1.35848127168,0.0793843701428,1.89508099905,0.15891273327,-0.00572575477556,-0.0253153152698,-0.000811453669577,-0.029808728959,-0.00097362229638,0.0157205839132,-0.00349261028163,0.573900505006,0.818910776324,0.00202427166148,0.0,0.818868132864,-0.573841158409,-0.0119185904123,0.0,-0.00859881728594,0.00849786022256,-0.999926920686,0.0,0.661374177592,0.260502189554,0.303265213568,1.0,-0.00386,-0.00507314285714,0.194
0.464793366653,0.545726410552,-0.123974056589,-1.35904066602,0.0792784317103,1.89526222224,0.158837872618,-0.00218027818284,-0.0253529700741,0.00102126390862,-0.0312237789266,-0.0032225931404,0.00879437275662,-0.00471972133446,0.573882543581,0.818923571788,0.00193820667452,0.0,0.818880400421,-0.573824136748,-0.0118952424442,0.0,-0.00862927079805,0.00841379343972,-0.999927369245,0.0,0.661309079613,0.260402636869,0.303242871333,1.0,-0.00418,-0.00549371428571,0.21
0.464722584867,0.545347402612,-0.123982541176,-1.35971403082,0.0792610056921,1.89548368598,0.158739384189,-0.00459414116845,-0.0250007293121,-0.000229082529354,-0.0407248178276,-0.000439648859923,0.0154703238727,-0.00270153210478,0.573898651953,0.818912404287,0.00188634356693,0.0,0.818868341772,-0.57384025103,-0.0119478886239,0.0,-0.00870198187332,0.00840170596251,-0.999926840748,0.0,0.661229855105,0.260288165713,0.303210179573,1.0,-0.00452,-0.00594057142857,0.227
0.464664418387,0.544923910992,-0.12398536098,-1.36042243792,0.0792427048367,1.89571691823,0.158675649111,-0.00667514473286,-0.0249718740469,0.000161082291754,-0.0399260134938,-0.00457238408362,0.0136078063848,-0.00451255028665,0.57393473956,0.818887198787,0.00184859137352,0.0,0.818842359999,-0.573876222335,-0.0120007420796,0.0,-0.00876656021433,0.00840150945806,-0.999926278313,0.0,0.661135449114,0.260177394765,0.303188703087,1.0,-0.00488,-0.00641371428571,0.245
0.464588488748,0.544511004596,-0.123983881903,-1.3611109237,0.0792187779044,1.89596983139,0.158570170894,-0.00965359954377,-0.0296333122951,-9.62414473052e-05,-0.0425279460594,-0.00352788973889,0.0174475628573,-0.00166928628889,0.573937407793,0.818885337265,0.00184478988543,0.0,0.818840293385,-0.573878757763,-0.0120204916433,0.0,-0.00878488776192,0.00840976001909,-0.999926048107,0.0,0.661065205426,0.260070053863,0.303179519578,1.0,-0.00518,-0.006808,0.26
0.464523124084,0.543989117877,-0.123986655449,-1.36196936689,0.0791761680322,1.89627471803,0.158482353117,-0.00392680437145,-0.0337416168409,0.000386243436822,-0.0487220167323,-0.00364278906918,0.0174741586315,-0.00200585854755,0.573947018431,0.818878649659,0.00182320263754,0.0,0.818833245908,-0.573888386738,-0.0120408414831,0.0,-0.00881384288783,0.00840386580271,-0.999925842857,0.0,0.660967168624,0.259952248096,0.303169697133,1.0,-0.00552,-0.00725485714286,0.277
0.464454946516,0.543490241552,-0.123993879953,-1.36276552855,0.0791339581445,1.89655005388,0.158377189099,-0.000311497053814,-0.0304189389109,-0.00157377632576,-0.0541309495221,-0.00116656637187,0.0172011946728,-0.00484451092532,0.573965143222,0.818865987778,0.00180425259689,0.0,0.818820264273,-0.573906523743,-0.0120591758686,0.0,-0.00883954681226,0.00839906690082,-0.99992565628,0.0,0.660868709307,0.259818639328,0.303164860784,1.0,-0.00586,-0.00770171428571,0.294
0.464374073753,0.542975071526,-0.12399782158,-1.36357848511,0.0790808090935,1.89684887132,0.158262772024,-0.00584540730727,-0.0372071592918,-0.00070855653604,-0.049216745254,-0.00977000195796,0.0229541706581,-0.00217467928816,0.573971483493,0.818861549478,0.00180161725441,0.0,0.818815838749,-0.573912919683,-0.0120552783617,0.0,-0.00883780265513,0.00839474037324,-0.999925708029,0.0,0.660779476936,0.259684857455,0.303168358,1.0,-0.00618,-0.00812228571429,0.31
0.464301298849,0.542340771975,-0.123995627262,-1.36456245322,0.0790288122121,1.89719781114,0.158134866762,-0.00447056459122,-0.0380931302454,-0.000849324120193,-0.0500035336722,-0.00262346513939,0.0215342106955,-0.00873377133557,0.573965503138,0.818865731686,0.00180598420385,0.0,0.818819965948,-0.573906814348,-0.0120656003178,0.0,-0.00884381026205,0.00840417608781,-0.999925575653,0.0,0.660660256479,0.259544844176,0.303178806305,1.0,-0.00654,-0.00859542857143,0.328
0.464219640903,0.541718885116,-0.123997863665,-1.36552152653,0.0789741686024,1.89755217282,0.158001649178,-0.00532825074355,-0.0289311831849,0.000123067636591,-0.0594152693887,-0.00385602014333,0.0160922180111,-0.00549338820602,0.573963495071,0.818867104092,0.00182182943533,0.0,0.818821516072,-0.573904708819,-0.0120605519735,0.0,-0.0088306027932,0.00841423170352,-0.999925607812,0.0,0.66055083991,0.259399134532,0.303192847031,1.0,-0.00688,-0.00904228571429,0.345
0.464142126085,0.541095360105,-0.123998523361,-1.36647499582,0.0789124311728,1.89792168606,0.157878646564,-0.00665544542425,-0.042310971359,0.00211720734048,-0.059447695352,-0.00492486568026,0.0244243355952,-0.00834574101008,0.573963191216,0.818867248607,0.00185234678211,0.0,0.818822116456,-0.57390432611,-0.0120379805495,0.0,-0.00879460750311,0.00842626247621,-0.999925823739,0.0,0.660444586214,0.259257652076,0.303211875294,1.0,-0.0072,-0.00946285714286,0.361
0.464055320227,0.54038936474,-0.123996737494,-1.36755396279,0.0788497594077,1.89831020354,0.157746057078,-0.00264652013698,-0.0428018874659,0.00142898818979,-0.0651263563149,-0.00247382493653,0.0197032171163,-0.009082007683,0.57396736632,0.818864287131,0.00186776924603,0.0,0.81881929968,-0.573908379197,-0.0120363474541,0.0,-0.00878437578342,0.00843799861197,-0.999925814709,0.0,0.660317032387,0.259098784621,0.30323094351,1.0,-0.00754,-0.00990971428571,0.378
0.463959715979,0.539636920801,-0.124002738594,-1.36870175644,0.0787844407376,1.89875615998,0.157614022225,-0.00513212002741,-0.0432575495073,0.000102153949197,-0.0707880250717,-0.00104942129036,0.0307956027664,-0.0115394222626,0.573987904519,0.818849792149,0.00191056655521,0.0,0.818805378722,-0.573928744686,-0.0120122728496,0.0,-0.00873988633137,0.0084594443638,-0.999926023358,0.0,0.660190256676,0.258925508686,0.303255201023,1.0,-0.00788,-0.0103565714286,0.395
0.463860237477,0.538931469299,-0.124002728002,-1.36979249061,0.0787203643994,1.89917316967,0.157472440804,-0.0108492835039,-0.0471486755767,0.000627389722066,-0.0669888464315,-0.00427514545417,0.03366607891,-0.00700061053149,0.573996627704,0.81884361338,0.00193781127589,0.0,0.81879954729,-0.573937342219,-0.011998977678,0.0,-0.0087132717428,0.00847421487339,-0.999926130561,0.0,0.660068996922,0.258757564598,0.30327058613,1.0,-0.0082,-0.0107771428571,0.411
0.463742006575,0.538109589167,-0.124008394758,-1.37108474606,0.0786506377126,1.89967656945,0.157307062412,-0.00336809718017,-0.0459396980101,-0.0010624502542,-0.0727482793626,-0.00971897598532,0.0303842006184,-0.00871339813137,0.574014838027,0.818830777289,0.00196743238703,0.0,0.818787071716,-0.573955399105,-0.0119865729144,0.0,-0.00868592360657,0.00849154240145,-0.999926221498,0.0,0.659927610108,0.258556512001,0.303279860866,1.0,-0.00856,-0.0112502857143,0.429
0.463631676966,0.537301594979,-0.124013768036,-1.37235433915,0.078571271844,1.90013760198,0.157168226228,-0.0062236899269,-0.0512721811558,6.51308443668e-05,-0.0717534488708,-0.000200018065861,0.0233297517782,-0.0112442725463,0.574043904422,0.818810409549,0.00196364757216,0.0,0.818766681542,-0.573984504242,-0.0119856992847,0.0,-0.00868707931501,0.00848825024611,-0.99992623941,0.0,0.659780782941,0.25835894238,0.303286259104,1.0,-0.0089,-0.0116971428571,0.446
0.463526773973,0.536553404624,-0.124017052133,-1.37352444845,0.0785154617429,1.90058196271,0.1570154817,-0.00267971853758,-0.0481581070788,-0.000509205691046,-0.081398287998,-0.00379195734304,0.0268740657409,-0.0148393259176,0.574056569459,0.818801468446,0.00198927930624,0.0,0.818757958164,-0.573996945111,-0.0119858186274,0.0,-0.00867233261714,0.00850944001947,-0.999926187315,0.0,0.659648676832,0.25817987244,0.303296169836,1.0,-0.0092,-0.0120914285714,0.461
0.463388719604,0.535579933871,-0.124022665463,-1.3750706288,0.0784197448113,1.90114730229,0.156827797109,-0.00906513450889,-0.0516941821987,0.000730325650369,-0.0877021029165,-0.00676097764836,0.0285914366134,-0.0128335206597,0.574079125593,0.818785677621,0.00197954093269,0.0,0.818742060914,-0.574019559803,-0.0119887261959,0.0,-0.00868006920559,0.00850337459074,-0.999926171784,0.0,0.659470339379,0.257937681184,0.303296468184,1.0,-0.00958,-0.0125908571429,0.48
0.463267452636,0.534694229239,-0.124018694295,-1.37650134033,0.0783434255697,1.90166521163,0.156655627138,-0.00838867574562,-0.0460369887472,0.000411632465015,-0.0827756559367,-0.00295240350218,0.0234920839519,-0.00586958301382,0.574092623041,0.818776255993,0.00196206375135,0.0,0.818732261329,-0.574032983281,-0.0120152097642,0.0,-0.00871164688334,0.00850441191822,-0.999925888347,0.0,0.659299060928,0.257724616299,0.303285205095,1.0,-0.00992,-0.0130377142857,0.497
0.463158031554,0.533935901978,-0.124029612192,-1.37773806838,0.0782718361961,1.90211091724,0.156505775418,-0.00550645472703,-0.0537219131355,-0.0034772574285,-0.0850522501132,-0.00592114385809,0.0381457589734,-0.0100576017971,0.574115682032,0.818760158038,0.00193239631493,0.0,0.818715765914,-0.574056156761,-0.012032058394,0.0,-0.00874223434539,0.00849004019972,-0.999925743521,0.0,0.659154900409,0.257527955233,0.303270478349,1.0,-0.0102,-0.0134057142857,0.511
0.46302052452,0.532955533983,-0.124027517065,-1.37933457688,0.0781811135379,1.90272409605,0.156301858412,-0.00908495978222,-0.0550687661381,-0.000678072351221,-0.0924671073554,-0.00296938623889,0.0335072363503,-0.00291392625663,0.574122973718,0.818755048469,0.00193094717122,0.0,0.818710579676,-0.574063397717,-0.0120394779495,0.0,-0.00874906570479,0.00849319128051,-0.999925657012,0.0,0.65897124005,0.257288824153,0.303255048106,1.0,-0.01056,-0.0138788571429,0.529
0.462869959026,0.531852904826,-0.124027601945,-1.38108169678,0.0780824721054,1.90336261848,0.156078049959,-0.00910593603545,-0.0593412818126,-0.0005985646617,-0.089050967457,-0.000634899522535,0.0311998433893,-0.0173858739185,0.574131851082,0.818748827847,0.00192908590587,0.0,0.818704233825,-0.574072184083,-0.0120520487786,0.0,-0.00876033491495,0.00849897950482,-0.999925509165,0.0,0.658764571498,0.257024031606,0.303256144046,1.0,-0.01094,-0.0143782857143,0.548
0.462766628599,0.531028352863,-0.124030052062,-1.38243020822,0.0780013243391,1.90383955395,0.155905120181,-0.0113007832384,-0.0583100112356,0.00208243774284,-0.102412811611,-0.0129875372419,0.0368431019924,-0.0221852704025,0.574135654822,0.818746255614,0.001888301287,0.0,0.818701064007,-0.574076102682,-0.0120806880967,0.0,-0.00880715906595,0.00848207135008,-0.999925241413,0.0,0.658587398693,0.256806410936,0.30323710372,1.0,-0.01124,-0.0147725714286,0.563
0.46260687541,0.529866582727,-0.124028652605,-1.38426662484,0.0778872596931,1.90449807786,0.155668598105,-0.0091181297663,-0.0613610739007,0.000108892442901,-0.10069373033,-0.00322780520221,0.0355746331966,-0.00844943588983,0.574133231216,0.818747989903,0.00187316432231,0.0,0.818702577697,-0.574073724098,-0.0120911320151,0.0,-0.00882442551222,0.00847564833453,-0.999925143648,0.0,0.65837824364,0.256543678205,0.303238271642,1.0,-0.0116,-0.0152457142857,0.581
0.462483390552,0.52884427952,-0.124036371718,-1.38584948228,0.077790063563,1.90509411559,0.155456817065,-0.00814178983992,-0.064553481454,-0.000753107902641,-0.104739435936,-0.00719781161841,0.0380126767306,-0.00875882532103,0.574126111073,0.818752920384,0.00190022328641,0.0,0.818707906577,-0.574066529108,-0.0120718998729,0.0,-0.00879321798569,0.00848668415112,-0.999925324967,0.0,0.658192654605,0.25630816022,0.303256764363,1.0,-0.01192,-0.0156662857143,0.597
0.462346567349,0.527716984454,-0.124031469731,-1.38756859686,0.0776759679497,1.90576485849,0.155206028475,-0.00912258125065,-0.0734332395315,0.000114722164242,-0.103345328262,-0.00968129385295,0.0328994708479,-0.0163483566995,0.574091790334,0.818776839516,0.00196220387384,0.0,0.818732729805,-0.574032036,-0.0120285366368,0.0,-0.00872248726167,0.00851216855261,-0.999925727843,0.0,0.657993860725,0.256058767932,0.303290112537,1.0,-0.01226,-0.0161131428571,0.614
0.462202138299,0.526635288374,-0.124031478528,-1.38924235939,0.0775751171008,1.90639011885,0.154975696262,-0.00700233375166,-0.0731620701244,0.0045421406312,-0.106580676925,-0.0125432149615,0.0400713372348,-0.0137361292741,0.574084691035,0.81878174885,0.00199052023238,0.0,0.81873798873,-0.57402479695,-0.0120160391846,0.0,-0.00869607303197,0.00852810286676,-0.999925822136,0.0,0.657797241995,0.255805388237,0.303308919099,1.0,-0.01258,-0.0165337142857,0.63
0.462037106452,0.525394320048,-0.124041749663,-1.39117176303,0.0774460988333,1.90709305835,0.154718456456,-0.0077116647208,-0.0696069427338,-0.00161526003181,-0.109135480449,-0.00858770883383,0.0411913796859,-0.0152170664056,0.574085475031,0.818781190746,0.00199397609864,0.0,0.818737592432,-0.574025680669,-0.0120008154939,0.0,-0.00868161566076,0.00852220113272,-0.999925998081,0.0,0.657568928515,0.255505008592,0.303324858063,1.0,-0.01294,-0.0170068571429,0.648
0.461890083725,0.52428172959,-0.124045416565,-1.39294325447,0.0773471854506,1.9077224226,0.154472393164,-0.00894739389243,-0.0660997193067,-0.000913262209128,-0.108680203945,-0.00704793525462,0.0372734851912,-0.0139726235959,0.574075419228,0.818788292114,0.0019729767722,0.0,0.818744289565,-0.574015588078,-0.0120266308285,0.0,-0.00871491288289,0.00851972063149,-0.999925729569,0.0,0.657351277519,0.255237271772,0.303318815913,1.0,-0.01326,-0.0174274285714,0.664
0.461723383267,0.523014020879,-0.124044371033,-1.39498178334,0.0772147073916,1.90849957018,0.154201160571,-0.00539758370052,-0.0688375273683,0.000567278545477,-0.114095686238,-0.00347008225052,0.0436389964548,-0.0233709841486,0.574062819283,0.818797130138,0.00197131821503,0.0,0.81875317583,-0.574003065126,-0.0120193674899,0.0,-0.00871004860443,0.00851405895837,-0.999925820175,0.0,0.657109574693,0.254934311191,0.303307070437,1.0,-0.01362,-0.0179005714286,0.682
0.461576864775,0.52190994391,-0.124049512214,-1.3967047414,0.0771090113108,1.9091753891,0.153962763457,-0.00606194407173,-0.0759913926673,-0.00133808639573,-0.114121329345,-0.0141166574202,0.0467432878456,-0.0102359729409,0.574055121238,0.818802418268,0.00201606545832,0.0,0.818759111403,-0.573995240522,-0.0119886718536,0.0,-0.00865930824637,0.00853299472415,-0.99992609946,0.0,0.656911848683,0.254673789605,0.303321598538,1.0,-0.01392,-0.0182948571429,0.697
0.461419675659,0.520741363826,-0.124047441041,-1.39860423176,0.0769963668688,1.90987988011,0.153703745504,-0.00940505954844,-0.0716435725342,0.00111879012826,-0.116029194331,-0.00521482259108,0.0453116504226,-0.0116463513786,0.574041334435,0.818812138148,0.00199391122923,0.0,0.818768469835,-0.573981477996,-0.0120084396618,0.0,-0.00868835531868,0.00852605652708,-0.999925906676,0.0,0.656680786202,0.254391235373,0.30329943603,1.0,-0.01424,-0.0187154285714,0.713
0.461240230362,0.519325090131,-0.124059161954,-1.40078653019,0.0768611219601,1.9106625667,0.153406020728,-0.0109327052559,-0.0820018388515,-0.00132674676179,-0.117948844128,-0.00705803604811,0.0440104373838,-0.0234982001728,0.574032195455,0.818818517622,0.00200516386474,0.0,0.818775007062,-0.57397230315,-0.0120012469828,0.0,-0.00867610178428,0.0085310444603,-0.999925970529,0.0,0.656414401274,0.254057452367,0.303323384817,1.0,-0.0146,-0.0191885714286,0.731
0.461059246625,0.517990411052,-0.124057078293,-1.40289904798,0.0767203536002,1.91141607228,0.153120929607,-0.00497247699711,-0.0743388660607,0.000349145350053,-0.123462649116,-0.0100045017826,0.0422622981155,-0.0241921931418,0.574019282516,0.818827634759,0.00197857421206,0.0,0.818783797996,-0.573959525173,-0.0120125976848,0.0,-0.00870079295154,0.00851565116484,-0.999925887197,0.0,0.656153282518,0.253735120919,0.303319889073,1.0,-0.01494,-0.0196354285714,0.748
0.460892107961,0.516706745359,-0.124070142048,-1.4049062786,0.0765897325186,1.91215344189,0.152852176375,-0.00751127735087,-0.0763796722153,-0.00108846151827,-0.126519327242,-0.00565127884429,0.0412518945925,-0.0124266506973,0.574016188999,0.81882979411,0.00198240946489,0.0,0.818786105402,-0.573956511701,-0.0119992990155,0.0,-0.00868773398688,0.00851112508213,-0.999926039279,0.0,0.655911174058,0.253425437958,0.303329400641,1.0,-0.01526,-0.020056,0.764
0.460698813464,0.515323620109,-0.124071254347,-1.4070964584,0.0764617448361,1.91298691842,0.152547141838,-0.0116945566959,-0.0793098533285,-0.00125000919952,-0.131665589367,-0.0075043999587,0.0393503847053,-0.0149067594564,0.574006717069,0.818836376988,0.00200583721844,0.0,0.818792942134,-0.573946890911,-0.0119929656978,0.0,-0.00866919945505,0.00852657238856,-0.999926068539,0.0,0.655650511633,0.253092112865,0.303329194244,1.0,-0.0156,-0.0205028571429,0.781
0.460514087794,0.513921997356,-0.124072222707,-1.40935325523,0.0763241631926,1.91377682468,0.152239619837,-0.0166992947692,-0.0791443800655,0.000698688643771,-0.135589091212,-0.00620917283262,0.0503867135891,-0.020494690348,0.573991982633,0.818846847587,0.00194704153861,0.0,0.818802550978,-0.573932316713,-0.0120343361166,0.0,-0.00873697634474,0.00850201871611,-0.9999256877,0.0,0.655344957692,0.252733443029,0.303306167061,1.0,-0.01596,-0.020976,0.799
0.460332711007,0.512593688483,-0.124069905563,-1.41149525788,0.0762001874345,1.91452274047,0.151942026578,-0.0110990688382,-0.08524010613,0.00042100140205,-0.124109545062,-0.00530705250374,0.0452835327465,-0.0242441184041,0.573970007266,0.818862366833,0.00189785266212,0.0,0.818817219675,-0.573910356497,-0.0120834751024,0.0,-0.00880567526057,0.0084897101857,-0.999925189654,0.0,0.655089404775,0.25242886938,0.303281830014,1.0,-0.01626,-0.0213702857143,0.814
0.460135987735,0.511146838049,-0.12407552762,-1.4137945384,0.076056416054,1.9154004007,0.151616929911,-0.00917348609599,-0.0854369111472,0.000337053786402,-0.135515006053,-0.00974362849437,0.0500434083147,-0.0166180110879,0.573950471085,0.818876022388,0.00191405366053,0.0,0.818831137898,-0.573890801046,-0.0120690921503,0.0,-0.00878480152,0.00849451140772,-0.999925332481,0.0,0.654813455356,0.252079213995,0.30327699907,1.0,-0.0166,-0.0218171428571,0.831
0.459918959088,0.509572334669,-0.124081227785,-1.41628839061,0.0759020084054,1.91633678304,0.151272673022,-0.0127749985261,-0.093393500235,0.000104338679902,-0.136654863527,-0.0124959646818,0.0522690695691,-0.0214385019218,0.573938709801,0.818884241063,0.00192458627547,0.0,0.8188395099,-0.573879010553,-0.0120617234991,0.0,-0.00877284453045,0.0084987809335,-0.999925401178,0.0,0.654510894539,0.251697164421,0.303273507451,1.0,-0.01696,-0.0222902857143,0.849
0.459723832135,0.508159929616,-0.124083340964,-1.418521866,0.0757568958216,1.91713264333,0.150961696719,-0.0164667656733,-0.0914321332992,0.00124737504034,-0.143847709064,-0.00764453311814,0.0514147512238,-0.0138330745464,0.573921858861,0.818896111904,0.00189861310942,0.0,0.818851036849,-0.573862270729,-0.0120756195073,0.0,-0.00879930484705,0.0084853066762,-0.999925283111,0.0,0.654230390613,0.251352432233,0.303267684344,1.0,-0.01728,-0.0227108571429,0.865
0.459503657056,0.506612959117,-0.124090788764,-1.42094332527,0.0756073257786,1.91801545418,0.150626176385,-0.0125705620161,-0.0940361127236,0.000507270740376,-0.141995352956,-0.00659152426057,0.0561921819205,-0.0198632046074,0.573917570306,0.818899106281,0.0019034514297,0.0,0.818854075689,-0.573857943425,-0.0120751976209,0.0,-0.00879622717166,0.0084889804798,-0.999925279007,0.0,0.653932625462,0.250972884916,0.303273712112,1.0,-0.01762,-0.0231577142857,0.882
0.459286925992,0.505014152637,-0.124102232045,-1.42340163407,0.0754553905747,1.91897120533,0.150288890564,-0.0108119495046,-0.0944287262141,-0.000475448924146,-0.145415130284,-0.000402203899948,0.0628017866942,-0.0171685842352,0.573913082257,0.818902069725,0.00198018083123,0.0,0.818858136322,-0.573853216248,-0.0120243786339,0.0,-0.00871062311817,0.00852259947548,-0.999925742414,0.0,0.653641124377,0.250594131526,0.303304282927,1.0,-0.01796,-0.0236045714286,0.899
0.459069439556,0.503439458289,-0.124105733022,-1.42573074641,0.0752997870031,1.91984845537,0.149970896972,-0.0146624345811,-0.0963775358974,4.92211955304e-05,-0.149193050101,-0.00428107168223,0.0505909790877,-0.0154389763696,0.573910767555,0.818903449626,0.00207797417613,0.0,0.818860920145,-0.573850616399,-0.011958696379,0.0,-0.00860073654682,0.0085649613658,-0.99992633167,0.0,0.653361912124,0.250228781452,0.303371734511,1.0,-0.01828,-0.0240251428571,0.915
0.458838965811,0.501745013092,-0.124110943864,-1.42825034154,0.0751436687603,1.92076774982,0.149599480084,-0.0106275744055,-0.0918153402192,0.000102605942471,-0.152866577488,-0.0105445360961,0.0549197020052,-0.025555087311,0.573885732241,0.818920785563,0.00215875072966,0.0,0.818879293427,-0.573825237445,-0.0119183291265,0.0,-0.00852158586775,0.00860768103457,-0.99992664251,0.0,0.653051073687,0.249835806411,0.303435254143,1.0,-0.01862,-0.024472,0.932
0.458591057629,0.499926579149,-0.12411625494,-1.43100687375,0.0749613213222,1.92174320514,0.149221272621,-0.0121565916107,-0.0925551988106,-4.95252934723e-05,-0.152759245643,-0.0119396716922,0.0546767034435,-0.0196279186278,0.57387365513,0.818929178748,0.00218518735198,0.0,0.818888062485,-0.573813086965,-0.0119008087653,0.0,-0.0084921939496,0.00861915040731,-0.999926793765,0.0,0.652702199871,0.249404693425,0.303476724635,1.0,-0.01898,-0.0249451428571,0.95
0.458368568802,0.498442937213,-0.124111782957,-1.43333301016,0.0748151649109,1.92260709874,0.148886305006,-0.0142047613719,-0.0946764649234,0.00239764345185,-0.153605968951,-0.00532683240024,0.0587373572607,-0.0234544089396,0.573857110571,0.818940726592,0.00220224386489,0.0,0.818899797175,-0.573796440138,-0.0118959813773,0.0,-0.00847862718254,0.00863017671255,-0.999926813787,0.0,0.6524144643,0.249040820897,0.303479032371,1.0,-0.01928,-0.0253394285714,0.965
0.458090152676,0.496670401971,-0.12411402247,-1.43615588736,0.0746450229275,1.9236238139,0.148460230591,-0.0181403853237,-0.0922687047907,0.00182608767718,-0.155255938337,-0.00604114255026,0.0536933898881,-0.0199753162722,0.573834782812,0.818956443228,0.00217555333813,0.0,0.818915037196,-0.573774091916,-0.0119247726199,0.0,-0.00851775722333,0.00862460869969,-0.999926529269,0.0,0.652060364529,0.248588091497,0.303459251339,1.0,-0.01964,-0.0258125714286,0.983
0.457825973252,0.494984321794,-0.124122770991,-1.43890185049,0.0744750006707,1.92456056877,0.1480760326,-0.0141958633117,-0.0974219358835,-0.00112984044134,-0.163285166669,-0.0108832872125,0.0565985446334,-0.0226593847264,0.573834989631,0.818956572191,0.00206988902417,0.0,0.818913642946,-0.573774589,-0.0119963876286,0.0,-0.0086370370566,0.0085791725074,-0.999925896949,0.0,0.651703149473,0.248143673971,0.303408488761,1.0,-0.01998,-0.0262594285714,1.0
0.457569221962,0.493299817057,-0.124147839344,-1.44159824374,0.0743064458363,1.92554626544,0.147697543561,-0.0194171199524,-0.110394897497,-0.00192689324848,-0.180038994272,-0.0157422138625,0.0712474971828,-0.0279674353846,0.573843294621,0.818950828253,0.00203985867048,0.0,0.818907560251,-0.573783072044,-0.0120058694537,0.0,-0.00866194712786,0.00856010817782,-0.99992584486,0.0,0.65136817179,0.247703955891,0.303384271891,1.0,-0.0234085714286,-0.0307655510204,1.016
0.457269526057,0.491184289741,-0.124183028913,-1.44494643438,0.074104206285,1.92678462758,0.147207638371,-0.0222868071685,-0.131745288956,-0.000720272317004,-0.212997035501,-0.00984503299205,0.068149040916,-0.0326235340183,0.5738259669,0.818962973179,0.00203842456771,0.0,0.818919728609,-0.573765794199,-0.0120016000748,0.0,-0.00865945451048,0.00855630059633,-0.999925899038,0.0,0.650949769292,0.247170563811,0.303371205697,1.0,-0.0272942857143,-0.0358724897959,1.033
0.456858655324,0.488607354396,-0.124186505438,-1.44909704456,0.0738679903906,1.92825877945,0.146615889518,-0.0237516425486,-0.157350956529,-0.000328331202129,-0.236722934672,-0.0236803770234,0.0973728627759,-0.0380327043749,0.573823270597,0.818965042039,0.00196492782568,0.0,0.818920462332,-0.573763045229,-0.0120826820047,0.0,-0.00876806001532,0.00854260818065,-0.999925069677,0.0,0.650414903965,0.246505246341,0.303315500113,1.0,-0.0314085714286,-0.0412798367347,1.051
0.456461467846,0.486114010866,-0.124228498631,-1.45293841601,0.0736283194247,1.9297454493,0.146051004508,-0.0255821303284,-0.171789483427,-0.00705552628302,-0.263553428374,-0.0126262224297,0.102562981859,-0.0360077352828,0.573842013814,0.818951649819,0.00207010669274,0.0,0.818908681224,-0.57378156948,-0.0120012183768,0.0,-0.00864079488443,0.00858219689718,-0.99992583853,0.0,0.649958540137,0.245862164118,0.303349367424,1.0,-0.0348371428571,-0.0457859591837,1.066
0.455975187089,0.483008687329,-0.124280007326,-1.45774244995,0.073327743512,1.93144924106,0.145304520711,-0.0288618766782,-0.190455705608,-0.00247888876431,-0.298248429971,-0.0200902841647,0.100661818353,-0.043345688457,0.573820648154,0.818966630196,0.00206622359144,0.0,0.818923648131,-0.573760259766,-0.011998739331,0.0,-0.00864121650218,0.00857736888225,-0.999925876313,0.0,0.649349866073,0.245055245068,0.30336726719,1.0,-0.0387228571429,-0.0508928979592,1.083
0.455379935031,0.479310912072,-0.124336722194,-1.46349272701,0.0729816824349,1.93347113261,0.14445705759,-0.0322262843385,-0.21256411557,-0.0027004284242,-0.328906269324,-0.0239405527496,0.115948670764,-0.0545767079703,0.573841877359,0.818951822281,0.00203947856316,0.0,0.818908349427,-0.5737814591,-0.0120291036126,0.0,-0.0086812084783,0.00857311448284,-0.999925566394,0.0,0.648613307315,0.244085157243,0.303370845853,1.0,-0.0428371428571,-0.056300244898,1.101
0.45482975901,0.475957970855,-0.124375652163,-1.46859116556,0.0726730535569,1.93534698485,0.143737108235,-0.0378499195359,-0.231348364552,-0.0035435783366,-0.341988182227,-0.0212665809643,0.128154977429,-0.0396984948925,0.57389455283,0.81891462948,0.00214912951828,0.0,0.818872573372,-0.57383365404,-0.0119746804499,0.0,-0.00857316321926,0.00863223329847,-0.999925989972,0.0,0.647977008778,0.243223922683,0.3034294406,1.0,-0.0462657142857,-0.0608063673469,1.116
0.454110602754,0.47165671331,-0.124415027364,-1.47525141467,0.0722809915136,1.93771434478,0.142732251061,-0.0393078685056,-0.242166990261,-0.00340792824825,-0.381157081694,-0.0192107200554,0.126646901939,-0.0563926790009,0.573902818107,0.818908790239,0.00216691927906,0.0,0.818866624195,-0.573841499747,-0.0120054924855,0.0,-0.00858810046618,0.008664570665,-0.999925582104,0.0,0.647117037427,0.242101596662,0.30344026485,1.0,-0.05038,-0.0662137142857,1.134
0.453283969304,0.466668668992,-0.124428871247,-1.48271931272,0.0718051236702,1.9405302359,0.141531654745,-0.0466424517247,-0.268817094816,-0.000164148956007,-0.414575383096,-0.0225683299364,0.147947329352,-0.0646824980582,0.573835791938,0.818954917724,0.00246445283428,0.0,0.818916761529,-0.573773433298,-0.0118377290739,0.0,-0.00828068830472,0.00881126401599,-0.999926893242,0.0,0.646128504118,0.240786028697,0.303585532524,1.0,-0.0549514285714,-0.072221877551,1.154
0.452621916983,0.462776712122,-0.124435900932,-1.48871649556,0.0714093435606,1.94260034404,0.140611571948,-0.0524910100917,-0.275930828837,-0.00173675771158,-0.435697172834,-0.0337892581042,0.147710250732,-0.0691050440609,0.573798970315,0.818980861771,0.00241590986617,0.0,0.818941868034,-0.573736585723,-0.0118867104626,0.0,-0.00834905324539,0.00879924137533,-0.999926430624,0.0,0.64537874517,0.239844710543,0.303581865461,1.0,-0.0579228571429,-0.0761271836735,1.167
0.451767044008,0.457788077173,-0.124461075841,-1.49640705102,0.0708884980628,1.94524292722,0.139483702926,-0.0490070351531,-0.292136750757,-6.67400742358e-05,-0.454912836796,-0.025262201656,0.156844567563,-0.0672799315886,0.573807500573,0.818975072365,0.0023516019519,0.0,0.818935163837,-0.573745287544,-0.0119285101335,0.0,-0.00842009402461,0.00877064697715,-0.999926086152,0.0,0.64434474339,0.238533014543,0.303584991781,1.0,-0.0618085714286,-0.081234122449,1.184
0.450835165315,0.452549600797,-0.124481664855,-1.50446613493,0.0703376011824,1.94814630125,0.138192889274,-0.0560203996469,-0.315512928176,0.000107521847031,-0.473084852287,-0.0275916668911,0.173148014868,-0.0873248625013,0.573747011812,0.81901730522,0.00240147624504,0.0,0.818978181352,-0.573684751048,-0.0118866221152,0.0,-0.00835781982514,0.00878683974077,-0.999926466444,0.0,0.643284699679,0.237148539031,0.303600804403,1.0,-0.0656942857143,-0.0863410612245,1.201
0.44989099518,0.447261205328,-0.12452745427,-1.51232378379,0.069807340606,1.95109113322,0.136989555437,-0.0597947387697,-0.328769526438,-0.00090455321274,-0.502723390816,-0.0332023823083,0.168426427717,-0.071328791405,0.573779020175,0.818993960061,0.00269746018566,0.0,0.818959100754,-0.573716108414,-0.0116861088308,0.0,-0.00802343066468,0.00891452527482,-0.999928075313,0.0,0.642281360432,0.23577322236,0.303743776383,1.0,-0.0693514285714,-0.0911475918367,1.217
0.448778150672,0.441122343123,-0.124563457572,-1.52191637774,0.0691473042189,1.95428319348,0.135508720223,-0.0599922276718,-0.349075252606,-0.00233998634924,-0.543671216275,-0.0379688211343,0.18090412012,-0.0898038801193,0.573749008534,0.819015734487,0.00245942477746,0.0,0.818977505422,-0.573686672229,-0.0118403809459,0.0,-0.00828667862512,0.00880778997467,-0.999926874223,0.0,0.640939048804,0.234102656069,0.303658150965,1.0,-0.0734657142857,-0.0965549387755,1.235
0.44763464532,0.434982627324,-0.124587619853,-1.53127353278,0.0685297744488,1.95753478009,0.133977396233,-0.06855273463,-0.379082732046,-0.000102539911777,-0.549373526393,-0.0364151726401,0.200772052361,-0.0941454260517,0.573689978998,0.819056994816,0.00248880331435,0.0,0.819018858927,-0.573627229905,-0.0118598791861,0.0,-0.00828643119354,0.0088424409362,-0.999926570452,0.0,0.639655469486,0.232460263367,0.30368037814,1.0,-0.0773514285714,-0.101661877551,1.252
0.446539087309,0.429380820315,-0.124613042267,-1.53974095234,0.0679314672372,1.96062268423,0.13262368821,-0.0695123303771,-0.3705445514,-0.00452391562591,-0.577625011233,-0.0421724454681,0.204321954467,-0.0879483776956,0.573701017231,0.819048812926,0.00263282632911,0.0,0.819012897706,-0.573638106552,-0.0117449139281,0.0,-0.00810952443388,0.00889455903662,-0.999927558593,0.0,0.638444615915,0.230831722715,0.303726579455,1.0,-0.0810085714286,-0.106468408163,1.268
0.445129591054,0.422382563815,-0.124718296011,-1.55051980052,0.0671459831714,1.9641830983,0.130822985682,-0.0793757245662,-0.395664072329,-0.00708798443093,-0.612955203512,-0.038991981268,0.196927402894,-0.092975614257,0.573693287385,0.819054889775,0.00241794255829,0.0,0.819016340884,-0.573631349746,-0.0118344773911,0.0,-0.00830623884265,0.0087698635526,-0.999927045284,0.0,0.637015371651,0.228926615479,0.303677066429,1.0,-0.0848942857143,-0.111575346939,1.285
0.443725124489,0.415424555253,-0.124825213775,-1.56095761477,0.0663980413691,1.96784297942,0.129166239236,-0.0882819597883,-0.412762006128,-0.00845439364772,-0.615455846817,-0.0481535349687,0.224739487511,-0.103350586777,0.573792842214,0.818984818425,0.0025275113884,0.0,0.818948169719,-0.573730991523,-0.0117214155061,0.0,-0.0081497066421,0.00879573448863,-0.999928106084,0.0,0.63558763784,0.226971372591,0.303748602362,1.0,-0.08878,-0.116682285714,1.302
0.442315284923,0.408702861089,-0.124839644398,-1.57112149741,0.0657224972517,1.97134268311,0.127429228284,-0.0874949922936,-0.422808120036,-0.00115262355432,-0.64604874382,-0.0456862330159,0.209227434357,-0.114330169603,0.573764549739,0.81900445312,0.00258730224337,0.0,0.8189680953,-0.573701958793,-0.0117502451059,0.0,-0.00813931940906,0.00886096268369,-0.99992761479,0.0,0.634151911246,0.225101709922,0.303762977675,1.0,-0.0924371428571,-0.121488816327,1.318
0.440708664383,0.401384859217,-0.124928696542,-1.58235620537,0.0649322594694,1.97507188603,0.125564475917,-0.0983354641864,-0.447124784827,-0.00833785238512,-0.647239486481,-0.0419510668279,0.232030538385,-0.112954561643,0.57385141371,0.818943998241,0.00245553058451,0.0,0.818905675057,-0.573789033065,-0.0118485355406,0.0,-0.00829449024383,0.00881031642719,-0.999926787198,0.0,0.63245338782,0.222828086854,0.303705356963,1.0,-0.0965514285714,-0.126896163265,1.336
0.439029130373,0.393659141597,-0.124999719558,-1.59370711117,0.0640680990125,1.97913463616,0.123611217684,-0.104694434216,-0.449975412099,-0.000397813197858,-0.685591666959,-0.0589536063588,0.237687512705,-0.119823864484,0.573879161861,0.818923715886,0.002720669558,0.0,0.818889688214,-0.573816748881,-0.0116087958429,0.0,-0.00794570544754,0.00889014543748,-0.999928913013,0.0,0.630968201989,0.220770697956,0.303831023265,1.0,-0.100208571429,-0.131702693878,1.352
0.437263009872,0.385841668199,-0.125033334894,-1.60571207753,0.0631811273256,1.98294029148,0.121532235999,-0.107894396996,-0.459821221332,-0.00136313730954,-0.707309153194,-0.0495931758619,0.220236940319,-0.130924195715,0.573855869509,0.818941093369,0.00238191577916,0.0,0.818902124813,-0.573794101496,-0.0118484583646,0.0,-0.00833662072928,0.00875003173507,-0.999926966183,0.0,0.629159069856,0.218473706893,0.303695434783,1.0,-0.104094285714,-0.136809632653,1.369
0.435431139595,0.377643259954,-0.125092401662,-1.6177479082,0.0623031530087,1.98704946926,0.119397917245,-0.111401216452,-0.473990307142,-0.0025940574538,-0.716888712264,-0.0470271314673,0.241697171766,-0.123952618654,0.573854231862,0.818941604507,0.00259150207306,0.0,0.818905432774,-0.573791757545,-0.0117327766404,0.0,-0.0081216327646,0.0088552691446,-0.999927809039,0.0,0.627405683183,0.21614913592,0.303808804488,1.0,-0.10798,-0.141916571429,1.386
0.433310248625,0.368839702991,-0.125157106991,-1.63101532463,0.061287200557,1.99135369239,0.117056921593,-0.116479391338,-0.492396558596,-0.00251411954256,-0.742690241056,-0.0544854411158,0.23717795315,-0.125193506109,0.573914363794,0.818899992193,0.00241923916488,0.0,0.818861483823,-0.573852418112,-0.0118329810372,0.0,-0.00830190167156,0.00877230845014,-0.999927059856,0.0,0.625414021728,0.213509299968,0.3037408277,1.0,-0.112094285714,-0.147323918367,1.404
0.431516238993,0.361181762227,-0.125272422177,-1.64216536216,0.0603844527075,1.99508652703,0.115036476315,-0.116894692777,-0.509650858309,-0.00380072532761,-0.755165326289,-0.063465732282,0.251070148793,-0.143034514715,0.573950007192,0.818874600041,0.00255451620879,0.0,0.818838646094,-0.573888412716,-0.0116665468158,0.0,-0.00808758731644,0.00878792041736,-0.99992867915,0.0,0.623762054487,0.21125848991,0.303850027945,1.0,-0.115522857143,-0.151830040816,1.419
0.429339177467,0.352437648365,-0.125300350903,-1.65527531239,0.0594395826036,1.99927850069,0.112589050266,-0.133435719871,-0.515580135773,-0.00049296202001,-0.802316977069,-0.0609255462319,0.245725244694,-0.140633433945,0.573932448192,0.818887304836,0.00242359085905,0.0,0.818848726929,-0.573870350208,-0.0118461158775,0.0,-0.00830996696128,0.00878359368807,-0.999926893793,0.0,0.621730652023,0.208646338265,0.303770235768,1.0,-0.119408571429,-0.156936979592,1.436
0.426920094448,0.342811478498,-0.125377225908,-1.66922866885,0.0583780864789,2.00388438342,0.109970800437,-0.134154865701,-0.541755035252,-0.000881137862885,-0.789854504697,-0.0522440468971,0.256216720946,-0.142657599532,0.5739882593,0.818847525631,0.0026372058136,0.0,0.818811725634,-0.573925360048,-0.011738226381,0.0,-0.00809841425089,0.00889715046853,-0.999927625581,0.0,0.619604059797,0.205791572163,0.303885098548,1.0,-0.123522857143,-0.162344326531,1.454
0.424866870993,0.334734506284,-0.1253908261,-1.68122490279,0.0574026107377,2.00770888142,0.107662728691,-0.136932121829,-0.550872922711,-0.000368374743716,-0.787467798789,-0.0630671520996,0.249217242854,-0.158904369088,0.573878437497,0.818924875672,0.00251672075333,0.0,0.818887336825,-0.573815808479,-0.0118192397731,0.0,-0.00823509385897,0.00884388788083,-0.999926981772,0.0,0.61756913156,0.203217978575,0.303820749162,1.0,-0.12718,-0.167150857143,1.47
0.422293974654,0.324664600636,-0.125390935166,-1.69574261893,0.0562016192233,2.01235315397,0.104804647509,-0.152005426476,-0.564250000733,-0.000543032577693,-0.797154812533,-0.0634656666038,0.262339687648,-0.16372952229,0.573757830492,0.81900898282,0.00264289829798,0.0,0.818973319566,-0.573695009307,-0.0117254013515,0.0,-0.00808714717299,0.00889217523535,-0.999927761026,0.0,0.615388290219,0.200423719307,0.303916577468,1.0,-0.131065714286,-0.172257795918,1.487
0.419708474558,0.315058525968,-0.125402740177,-1.70982844647,0.0550701372761,2.01676322127,0.102067012494,-0.156223494976,-0.56606127198,0.000553970181554,-0.812945253871,-0.066862477806,0.252844410838,-0.162755860944,0.573733141929,0.819026522582,0.00256594228851,0.0,0.818989420423,-0.573670127352,-0.0118178306233,0.0,-0.00820727029583,0.00888193168671,-0.999926873328,0.0,0.613101814783,0.197510344901,0.303868969771,1.0,-0.134951428571,-0.177364734694,1.504
0.417158342827,0.305691426095,-0.125463485918,-1.72313830435,0.0539132260405,2.02101015732,0.0992934747815,-0.164356258325,-0.596806920695,-0.00747879863179,-0.860229873978,-0.0701574415642,0.268790736695,-0.163790668651,0.573635922363,0.819094011316,0.00275247195947,0.0,0.819060029646,-0.57357302149,-0.0116363119492,0.0,-0.00795264288607,0.00892961822545,-0.999928506139,0.0,0.610965016912,0.194672450765,0.303994853524,1.0,-0.138608571429,-0.182171265306,1.52
0.414276503795,0.295741213351,-0.125527628597,-1.73771353127,0.0527505632262,2.02536301301,0.096362937569,-0.176098169018,-0.594541499396,-0.00558230319593,-0.84599612066,-0.0598141512371,0.246844875198,-0.176018528358,0.573707298248,0.819044750081,0.00252590647013,0.0,0.819006893918,-0.573644187343,-0.0118659573588,0.0,-0.008269937737,0.00887649204987,-0.999926405301,0.0,0.608530154789,0.191523988298,0.303885390814,1.0,-0.142494285714,-0.187278204082,1.537
0.411278645088,0.285456099378,-0.125660580064,-1.75227552192,0.0515496831526,2.02995638683,0.0932613853544,-0.180789200314,-0.594457059435,-0.00773324585727,-0.862069126271,-0.0723904508152,0.26859074649,-0.181208755529,0.573756139445,0.819009791079,0.00275707587876,0.0,0.818975154955,-0.573692406104,-0.0117245744563,0.0,-0.00802098221,0.00898519621458,-0.999927462416,0.0,0.606152543084,0.188296697598,0.303989644839,1.0,-0.14638,-0.192385142857,1.554
0.408345908854,0.275703353381,-0.125732343824,-1.76634652289,0.0503372551548,2.034068417,0.0902561445516,-0.195195058772,-0.616165317789,-0.00184854376789,-0.859688958437,-0.0677131606946,0.266188915039,-0.18883764183,0.573743622395,0.819019215521,0.00255485202888,0.0,0.818981517418,-0.573680160667,-0.0118783116009,0.0,-0.00826305661613,0.00890765361717,-0.999926185077,0.0,0.603742950869,0.185181404635,0.303917462802,1.0,-0.150037142857,-0.197191673469,1.57
0.404836284108,0.264416488818,-0.1258708092,-1.78222674372,0.0489424872436,2.03893091869,0.0867739938101,-0.198796071189,-0.621295635919,-0.00512903721343,-0.907015577277,-0.0743586519139,0.257616770982,-0.197733562645,0.573834642932,0.8189549152,0.00271962169162,0.0,0.818919820693,-0.573771064008,-0.0117405402113,0.0,-0.00805468795916,0.00896445340154,-0.999927377652,0.0,0.601078002649,0.181546467855,0.304000661156,1.0,-0.154151428571,-0.202599020408,1.588
0.400959855898,0.25227889186,-0.126043806262,-1.79925920093,0.0473931858157,2.0439523795,0.0830129892669,-0.202490546323,-0.650381880307,-0.0022307117313,-0.902726644232,-0.0781946362074,0.26886583311,-0.200446648222,0.57397639671,0.818855474078,0.00274872571381,0.0,0.818821220381,-0.573913214381,-0.0116695464299,0.0,-0.00797829557119,0.00894893144923,-0.99992812913,0.0,0.598151887306,0.177578187535,0.304054737085,1.0,-0.158494285714,-0.20830677551,1.607
0.398243219176,0.243945457443,-0.126075531327,-1.81111467475,0.0463274255021,2.04740960783,0.0802872914197,-0.209495910645,-0.652800758149,-0.00125251684678,-0.929243213736,-0.0794068526689,0.271726863304,-0.210459230257,0.573921276679,0.81889437682,0.00266733725757,0.0,0.818858830945,-0.573858126448,-0.011739360921,0.0,-0.00808277910297,0.0089218134482,-0.999927532338,0.0,0.596057695986,0.17487439616,0.303992922049,1.0,-0.161465714286,-0.212212081633,1.62
0.394348324035,0.232055314394,-0.126097966106,-1.82747476113,0.0448965721526,2.05220207024,0.0764582765821,-0.215322343634,-0.674276764435,-0.00147456995446,-0.910593302702,-0.0779694597957,0.26955084608,-0.211733531651,0.573886209782,0.818918042313,0.00293344467872,0.0,0.818885589216,-0.573821729723,-0.0116516597334,0.0,-0.00785863138199,0.00908905740876,-0.999927812869,0.0,0.593157671803,0.1711061426,0.304117749101,1.0,-0.16558,-0.217619428571,1.638
0.390540830155,0.220805787398,-0.126117378685,-1.84330879387,0.0433672221105,2.05658598349,0.0726754920324,-0.233674967634,-0.664661598164,-0.00110885788607,-0.924058175648,-0.087751334249,0.251088021477,-0.230251223033,0.573739032537,0.819021950555,0.00270443236442,0.0,0.818986383149,-0.573675214783,-0.011781301341,0.0,-0.0080978344953,0.00897445850018,-0.999926939417,0.0,0.590253134428,0.167431832169,0.304021657222,1.0,-0.169465714286,-0.222726367347,1.655
0.386753548138,0.209878634371,-0.126223763705,-1.85812046132,0.0420179121322,2.06080716391,0.0690219787337,-0.237575365486,-0.673552122393,-0.00546508101977,-0.928452562562,-0.0855839004481,0.256461315615,-0.231841904781,0.573772996677,0.818997255606,0.00296487699208,0.0,0.818965079716,-0.573708274394,-0.0116516522076,0.0,-0.00784184769823,0.0091137095927,-0.999927720249,0.0,0.587575789436,0.163860621856,0.304157041842,1.0,-0.173122857143,-0.227532897959,1.671
0.382581586075,0.198218113612,-0.126342395396,-1.87412286029,0.0404720211526,2.06510356225,0.064982062699,-0.248456616144,-0.696168767053,-0.00984325661474,-0.915248032926,-0.0924195804884,0.265549912292,-0.239320419397,0.573744661522,0.819017401836,0.00288197279308,0.0,0.818983989961,-0.573680041686,-0.0117124232929,0.0,-0.00793950108249,0.00908040474076,-0.99992725264,0.0,0.584591862976,0.159958601693,0.304155285673,1.0,-0.177008571429,-0.232639836735,1.688
0.377910972954,0.185658265289,-0.126491730735,-1.89128259412,0.0388705903782,2.06972889121,0.0605635134622,-0.270522021866,-0.697369608584,-0.0132666593537,-0.959654283478,-0.0866824042036,0.248227797847,-0.253663344708,0.573818857622,0.81896537951,0.00289356207472,0.0,0.818931545499,-0.573753532426,-0.0117794191842,0.0,-0.00798689881352,0.00912905788426,-0.999926432169,0.0,0.581372062902,0.155695422176,0.304146458332,1.0,-0.181122857143,-0.238047183673,1.706
0.373565691088,0.174297486699,-0.126640078636,-1.90651580407,0.0373923217757,2.07380182628,0.0565505378974,-0.268951674816,-0.706201851794,-0.00831675215869,-0.962422273569,-0.100026397187,0.252885251256,-0.25228389973,0.573940768456,0.818879455378,0.00302964752038,0.0,0.818847398931,-0.573874962733,-0.0117137232864,0.0,-0.00785363969427,0.00920397954135,-0.999926800873,0.0,0.578496460993,0.151815033024,0.304223871543,1.0,-0.18478,-0.242853714286,1.722
0.368583003912,0.161478679771,-0.126688352279,-1.92390646342,0.0355923580519,2.07820984678,0.051795174583,-0.276106256258,-0.732713930224,-0.00325707797367,-0.948685481347,-0.0962234526891,0.245204370272,-0.274864781294,0.573796482738,0.818981373905,0.00280223061741,0.0,0.818946083963,-0.573731188876,-0.0118567016627,0.0,-0.00810284671895,0.0090983846735,-0.999925778881,0.0,0.57527068326,0.147695477664,0.304137949698,1.0,-0.188665714286,-0.247960653061,1.739
0.363965728857,0.149864642518,-0.126743078433,-1.93932230989,0.0339847570243,2.08224582168,0.0475146509545,-0.289044210659,-0.71369696068,-0.0043016164719,-0.983853437899,-0.0944336713312,0.236441091626,-0.263848065847,0.573739305759,0.819020847198,0.00296779092016,0.0,0.818988170065,-0.573673952241,-0.0117183921613,0.0,-0.00789521513648,0.00915406408215,-0.999926931675,0.0,0.572081676907,0.14351806557,0.304214266022,1.0,-0.192551428571,-0.253067591837,1.756
0.359164074485,0.13807822971,-0.126870617864,-1.9549095868,0.0324145776599,2.0861143318,0.0430732027204,-0.301341431973,-0.738562739373,-0.00733483935194,-0.966922774149,-0.0985614340985,0.25057928108,-0.288915178346,0.573765507484,0.819002324321,0.00301364895362,0.0,0.818969812845,-0.57369949134,-0.0117510078642,0.0,-0.0078953258916,0.00921058784252,-0.999926411743,0.0,0.568974700992,0.139456816261,0.304241561587,1.0,-0.196208571429,-0.257874122449,1.772
0.353510576135,0.124743533824,-0.127042793112,-1.97258963407,0.0305201719525,2.09039233975,0.0378538885607,-0.318863009819,-0.751465737339,-0.0134034721502,-0.985660049222,-0.104856548713,0.233181297701,-0.288845131929,0.573763888851,0.819003867572,0.00290028519993,0.0,0.818969797147,-0.573698176781,-0.0118161000319,0.0,-0.00801369758291,0.00915507375076,-0.999925979898,0.0,0.565400005496,0.134747643634,0.304194527538,1.0,-0.200322857143,-0.263281469388,1.79
0.347849064985,0.111891028356,-0.127244724763,-1.98921739944,0.0286955330849,2.09447131557,0.0327845782441,-0.340466556808,-0.743671609494,-0.0134037402569,-0.988984034634,-0.108622491576,0.232797848741,-0.310220483639,0.573899872286,0.818907954059,0.00307347858635,0.0,0.818876867877,-0.573834397437,-0.0116407248476,0.0,-0.00776916401658,0.00919758810372,-0.999927519605,0.0,0.562048133755,0.13015401296,0.304286488019,1.0,-0.204208571429,-0.268388408163,1.807
0.342788531022,0.100481687387,-0.127340165758,-2.00398946113,0.0270652593906,2.09784756495,0.0281483861497,-0.339791317594,-0.754680568334,-0.00836868596836,-0.978839271294,-0.113623683544,0.238720624468,-0.3070127156,0.573841339088,0.818949067066,0.00304795137439,0.0,0.818917528103,-0.573775813367,-0.0116681216494,0.0,-0.00780690686743,0.00919184832881,-0.999927278421,0.0,0.558960774229,0.12613593705,0.30430020595,1.0,-0.207637142857,-0.272894530612,1.822
0.336533748367,0.0866620141359,-0.127438789496,-2.02191902967,0.0252257803223,2.10184230114,0.0224051259769,-0.355026729899,-0.761721702741,-0.00891678497376,-1.0135554542,-0.0965387187288,0.21583787244,-0.319378009873,0.573782701355,0.818990281075,0.00301297723206,0.0,0.818956687767,-0.573715436964,-0.0118864566325,0.0,-0.00800645505826,0.00928791987166,-0.999924812784,0.0,0.555135553943,0.12127822457,0.304240372206,1.0,-0.211751428571,-0.278301877551,1.84
0.330315479017,0.073323216314,-0.127587371467,-2.03868790546,0.023239652539,2.10559795127,0.016763995489,-0.365234476549,-0.767207098535,-0.00525717043716,-0.98007799937,-0.122161463234,0.229060554539,-0.327183912072,0.573713779625,0.819037920862,0.00318279100205,0.0,0.81900758074,-0.573647165809,-0.0116729923697,0.0,-0.00773497328525,0.0093038656588,-0.999926801457,0.0,0.551567176433,0.116528889647,0.304366406817,1.0,-0.215637142857,-0.283408816327,1.857
0.324142851057,0.0607948051195,-0.12782287171,-2.05469561844,0.0214280658718,2.10886911654,0.0113221512887,-0.395820162493,-0.803581846992,-0.0171323224632,-0.987286147918,-0.111571078507,0.208154289673,-0.340052011669,0.573880260184,0.818921936595,0.00300925832096,0.0,0.818888495392,-0.57381322881,-0.0118641248555,0.0,-0.0079891936859,0.00927301261183,-0.999925089205,0.0,0.548065825157,0.111868570554,0.304296396835,1.0,-0.219294285714,-0.288215346939,1.873
0.317423020744,0.0473202693526,-0.127967452031,-2.07153292305,0.0194751009367,2.11241446946,0.00531900139709,-0.391507190126,-0.767816149004,-0.00726183450984,-0.989098479791,-0.104258918678,0.201246861055,-0.359347353658,0.573880769608,0.818921128486,0.00312961575171,0.0,0.818889311394,-0.573813375642,-0.0118005304832,0.0,-0.00786803984523,0.00933508613267,-0.999925472281,0.0,0.544363063477,0.106963756434,0.304343932926,1.0,-0.21998,-0.289116571429,1.89
0.310600518137,0.0338782782751,-0.128037541879,-2.08824176526,0.01754129371,2.11574063136,-0.000747053574956,-0.408764645213,-0.781782912271,-0.00869921082882,-0.979510811735,-0.123674091897,0.194237510111,-0.366879114791,0.573830881155,0.818955881925,0.0031827967623,0.0,0.818924234154,-0.573762683957,-0.0118417952583,0.0,-0.00787188942475,0.00940183822306,-0.999924816571,0.0,0.540593896681,0.102114034334,0.304358342908,1.0,-0.21998,-0.289116571429,1.907
0.304001295824,0.021372885805,-0.128151447873,-2.10375198484,0.0156105962778,2.1186532108,-0.0065812842369,-0.419593210645,-0.789467106975,-0.00569385191889,-0.974510112375,-0.110513866749,0.174743952732,-0.375466422873,0.573791487945,0.818983955684,0.00305869196267,0.0,0.818950603349,-0.573723641448,-0.0119096355196,0.0,-0.00799911052535,0.00933874491372,-0.999924398179,0.0,0.537036146782,0.0974807242396,0.304322412167,1.0,-0.21998,-0.289116571429,1.923
0.296331840258,0.00731177419476,-0.128364849572,-2.12072702043,0.0135034135044,2.12180691217,-0.0132620736942,-0.438721652108,-0.793087634056,-0.0106573974151,-0.94995299337,-0.110030341862,0.162239159272,-0.371051309261,0.57391811665,0.818894641398,0.00321069651806,0.0,0.818863681287,-0.573850198556,-0.0117884684469,0.0,-0.00781120519697,0.00939491926081,-0.999925357497,0.0,0.533129948968,0.0921988270799,0.30442675236,1.0,-0.21998,-0.289116571429,1.941
0.289445864839,-0.00506245442548,-0.128440143621,-2.1356059847,0.0117403273614,2.12446235972,-0.0193733050867,-0.42637925029,-0.788818851488,-0.00266891460343,-0.918991173375,-0.111070584124,0.173373900753,-0.386851444357,0.573873926377,0.818924979478,0.00336771617212,0.0,0.818895537192,-0.57380483512,-0.0117837710667,0.0,-0.00771776124691,0.00952039001046,-0.999924896347,0.0,0.529628651707,0.0876156902794,0.304485108457,1.0,-0.21998,-0.289116571429,1.957
0.282024703976,-0.0180318078375,-0.128503644962,-2.1512961799,0.00968175811147,2.12713661487,-0.0258725875733,-0.443400104094,-0.770201533669,-0.00425132536158,-0.937755281765,-0.125409895397,0.149778744859,-0.378410424234,0.573788408051,0.818985298025,0.00326975625213,0.0,0.818954755025,-0.573719878691,-0.0118049531051,0.0,-0.00779230890275,0.00945150965061,-0.999924971629,0.0,0.525865356225,0.0827447259582,0.30444235998,1.0,-0.21998,-0.289116571429,1.974
0.27438828822,-0.0310912275614,-0.128682981742,-2.16657168578,0.00772412827432,2.12960135997,-0.0325481494774,-0.448282346148,-0.758824703795,-0.0161973420295,-0.908803032497,-0.124058428493,0.146370881498,-0.39092025186,0.573846930876,0.818943527816,0.00345616448537,0.0,0.818915665697,-0.573778084564,-0.0116871318182,0.0,-0.00758817561881,0.00953711558396,-0.99992572875,0.0,0.522166888634,0.0778014547998,0.304565436098,1.0,-0.21998,-0.289116571429,1.991
0.266506355249,-0.0438441899997,-0.128861754845,-2.18186710503,0.00581386792863,2.13187580326,-0.0393663590075,-0.466077695059,-0.737432551779,-0.0104569106307,-0.887475828577,-0.104394663463,0.119502231765,-0.413357378239,0.573985881728,0.818846786042,0.00330082825604,0.0,0.818815424098,-0.573915729995,-0.0119491851454,0.0,-0.0078903065068,0.00956161675069,-0.999923156322,0.0,0.518369897844,0.0728026809881,0.304450659582,1.0,-0.21998,-0.289116571429,2.008
0.259110581654,-0.0559215509386,-0.128930025466,-2.19572036977,0.00391882943318,2.13402663011,-0.0458501020935,-0.468778908701,-0.749474765927,-0.00339120967824,-0.851872933772,-0.124519403485,0.129557210052,-0.411995290804,0.573898115355,0.818907334205,0.00353243237204,0.0,0.818880204501,-0.573828688112,-0.0116873554138,0.0,-0.00754399527719,0.00960017502177,-0.999925459609,0.0,0.514925540605,0.0682423554241,0.30458246271,1.0,-0.21998,-0.289116571429,2.024
0.251076313968,-0.0684878259159,-0.129054394398,-2.21055379051,0.00197884910929,2.13593225849,-0.0529264884907,-0.480955312518,-0.730150684341,-0.00769263115846,-0.837336252542,-0.112414088108,0.103556573536,-0.41367120656,0.57384700933,0.818944126756,0.00329758035838,0.0,0.818912381875,-0.573776477281,-0.0119921570927,0.0,-0.00792898523414,0.00958227735728,-0.999922652586,0.0,0.511097302781,0.063345334939,0.304451632259,1.0,-0.21998,-0.289116571429,2.041
0.242749418619,-0.0811309965547,-0.129259293096,-2.22489445586,3.49041982548e-05,2.13785605938,-0.0601235667644,-0.492604191948,-0.725472392512,-0.00835426827563,-0.859306368795,-0.114364640602,0.0986926979618,-0.427598084749,0.573972790478,0.818855345628,0.00345045330389,0.0,0.818825840914,-0.573901984979,-0.0118954104594,0.0,-0.00776054785754,0.00965314811637,-0.999923292372,0.0,0.507186830114,0.0580696021012,0.304521324882,1.0,-0.21998,-0.289116571429,2.059
0.234945029417,-0.0928928361375,-0.129326164097,-2.23833739088,-0.00172930559717,2.13937652468,-0.0669934825232,-0.485546196076,-0.734219780361,-0.00676908553344,-0.799897912695,-0.101233561938,0.0960264148817,-0.428418806206,0.573905622771,0.818902551369,0.00341970971048,0.0,0.818871456599,-0.573833470614,-0.0120595386387,0.0,-0.00791339542528,0.00972152687404,-0.999921431958,0.0,0.503832190095,0.0538108694319,0.304498740616,1.0,-0.21998,-0.289116571429,2.074
0.225924401539,-0.106049871469,-0.12943989004,-2.25303408636,-0.00387468343319,2.1410997987,-0.0748668923648,-0.496457923747,-0.720726427699,-0.00972102767976,-0.790565486335,-0.100428838428,0.085770862063,-0.439428152458,0.573841013151,0.818947488236,0.00350000554967,0.0,0.81891840006,-0.573769764114,-0.0119020474269,0.0,-0.00773910348823,0.00969628858257,-0.999923041171,0.0,0.499913760231,0.0486329572672,0.304562343503,1.0,-0.21998,-0.289116571429,2.092
0.217114061183,-0.118399524232,-0.129659977763,-2.26678005393,-0.00583722303821,2.14248355565,-0.0824597279568,-0.52625716364,-0.730511315162,-0.00779946881741,-0.759019271968,-0.117152275076,0.0896346640293,-0.453110304079,0.573988898058,0.818843836024,0.00350200132971,0.0,0.818814541025,-0.573917328835,-0.0119328944549,0.0,-0.00776146725387,0.0097170256331,-0.999922666529,0.0,0.496166520277,0.0436295624678,0.304573276515,1.0,-0.21998,-0.289116571429,2.109
0.2088251296,-0.12989210364,-0.129740396594,-2.27946682768,-0.0075716472721,2.1436849583,-0.0897663706366,-0.515469774946,-0.712618583279,-0.00163734311708,-0.811743990788,-0.111799933653,0.0627943273992,-0.451273454773,0.573925639027,0.818887872543,0.00357211007958,0.0,0.818858836968,-0.573853000517,-0.0119869019463,0.0,-0.00776621206952,0.0098048330382,-0.99992177254,0.0,0.492644514127,0.0390749843813,0.304581179316,1.0,-0.21998,-0.289116571429,2.125
0.199796870301,-0.142059377687,-0.129878542909,-2.2927328236,-0.00953095062236,2.14483858286,-0.0977326315567,-0.526259765853,-0.73155127327,-0.00461937964489,-0.754571700656,-0.119319553964,0.0738447896555,-0.469193348846,0.573847131091,0.818942729758,0.00360865857637,0.0,0.818914368028,-0.57377462097,-0.011945253002,0.0,-0.00771206987547,0.00981012039806,-0.999922139727,0.0,0.488909123509,0.0341655601346,0.304607909664,1.0,-0.21998,-0.289116571429,2.142
0.190565192024,-0.154111297955,-0.130086517831,-2.30575697929,-0.0114444803636,2.14590570301,-0.105788384699,-0.547209741695,-0.707046689456,-0.0115355376686,-0.784158542126,-0.111278340601,0.0506399896087,-0.474759569922,0.573923117005,0.818889071721,0.00370011967355,0.0,0.818862006506,-0.573850404151,-0.011894320379,0.0,-0.00761696045389,0.00985650261495,-0.999922412625,0.0,0.485190780204,0.0292122646316,0.304633192263,1.0,-0.21998,-0.289116571429,2.159
0.18126959751,-0.166053028414,-0.130173589102,-2.31852328685,-0.0133198835128,2.14668900826,-0.113956995375,-0.551650510999,-0.704215192946,-0.0115295607162,-0.738725007312,-0.109463398865,0.0494708005145,-0.485858947362,0.573862660793,0.818931388169,0.00371145795927,0.0,0.818904036612,-0.573789355146,-0.0119457792931,0.0,-0.00765332590038,0.00989475509964,-0.999921757151,0.0,0.481444292136,0.0243704863793,0.304652730947,1.0,-0.21998,-0.289116571429,2.176
0.171750083103,-0.177854171505,-0.130316145262,-2.3311188545,-0.0152018121305,2.14744786478,-0.122347705478,-0.561830291293,-0.698367771265,-0.00714432305368,-0.754802977232,-0.118883860438,0.0382897982505,-0.490890569622,0.573831020346,0.818953515829,0.00372100796146,0.0,0.818925971222,-0.573757274354,-0.0119829330594,0.0,-0.00767865761109,0.00992359982304,-0.999921277093,0.0,0.477702346419,0.0194760984524,0.304634575958,1.0,-0.21998,-0.289116571429,2.193
0.161370113272,-0.190339693756,-0.130545662113,-2.34414280749,-0.0171969588307,2.14805884017,-0.131425492368,-0.577654935407,-0.70286349187,-0.0083743745927,-0.702797968329,-0.113731392537,0.045741912104,-0.507397792396,0.573932696353,0.818881853153,0.00381018825421,0.0,0.818855525474,-0.573858683716,-0.0119409558306,0.0,-0.00759186858972,0.00997349070255,-0.999921443422,0.0,0.473757773575,0.0142038070931,0.304685881087,1.0,-0.21998,-0.289116571429,2.211
0.152730061682,-0.200612387163,-0.130662924786,-2.35480522523,-0.0188160955605,2.14853593297,-0.139173674508,-0.580288797738,-0.669660564525,-0.0113981494453,-0.728731204988,-0.102696360423,0.0204861329241,-0.525958088571,0.573808748202,0.818968239885,0.00391017217325,0.0,0.818943329384,-0.573734553962,-0.0118840964657,0.0,-0.00748944087238,0.0100216008814,-0.999921734833,0.0,0.470480266353,0.00992521381096,0.304713316227,1.0,-0.21998,-0.289116571429,2.226
0.142031631975,-0.21282121353,-0.130891828886,-2.36746480786,-0.0207326316073,2.1488050245,-0.148555117651,-0.599112557791,-0.67331570884,-0.0171450820746,-0.679418982719,-0.0957877843206,0.0194772700448,-0.524350528128,0.573929934229,0.818883456436,0.00388101430574,0.0,0.818856934832,-0.573854190594,-0.0120596482926,0.0,-0.00764845741062,0.0100995830781,-0.99991974654,0.0,0.466476850937,0.00468255205029,0.304680619399,1.0,-0.21998,-0.289116571429,2.244
0.132442541316,-0.223604399291,-0.131001899986,-2.37832085447,-0.0224805233978,2.14909312775,-0.157025002851,-0.593871452814,-0.661845071497,-0.00494578143052,-0.681424490256,-0.106705326259,0.0121984229434,-0.536060641644,0.573894270561,0.818907737463,0.00402872710974,0.0,0.818884149282,-0.573819354463,-0.0118678303985,0.0,-0.00740703915929,0.0101101352931,-0.999921457383,0.0,0.463017342572,9.8295960659e-05,0.30476438493,1.0,-0.21998,-0.289116571429,2.26
0.12024761726,-0.236850847588,-0.131175502129,-2.39188033615,-0.0246538955378,2.14916027592,-0.167919687575,-0.620418464125,-0.656711185141,-0.00413749941384,-0.658460007067,-0.126210609088,0.000304774442351,-0.546738730749,0.57378450488,0.818985233186,0.0039085398485,0.0,0.818959155457,-0.573708793093,-0.0120361672654,0.0,-0.00761522619198,0.0101072953652,-0.999919922249,0.0,0.458562989372,-0.00563973362243,0.304689871665,1.0,-0.21998,-0.289116571429,2.28
0.112031309604,-0.245483653823,-0.131366590894,-2.4002738872,-0.0260139660458,2.149226318,-0.175135033511,-0.630884200847,-0.665923811445,-0.00807924986096,-0.643067819334,-0.104052391923,0.00110763117922,-0.547865593539,0.573925209763,0.818885455467,0.00414865324021,0.0,0.818863576149,-0.573850088263,-0.0118011337385,0.0,-0.00728321197281,0.0101703449954,-0.999921756392,0.0,0.455780220877,-0.00947306223768,0.304812078726,1.0,-0.21998,-0.289116571429,2.293
0.10144002748,-0.256531715236,-0.131484081294,-2.4113815554,-0.0277119164324,2.14918195886,-0.184741382496,-0.63019253057,-0.649597413211,-0.018826657619,-0.655132370212,-0.104818221113,-0.0085034833393,-0.567455068911,0.573760725022,0.819000516299,0.00418707840934,0.0,0.818978261987,-0.573684276383,-0.0119039625888,0.0,-0.00734743191967,0.0102593499284,-0.999920377322,0.0,0.452016624034,-0.0142708675198,0.304759084039,1.0,-0.21998,-0.289116571429,2.31
0.0910965524361,-0.266846424851,-0.131697340843,-2.42147981118,-0.0294313532119,2.14902011225,-0.193872032575,-0.655878200211,-0.645614821869,-0.0180672580117,-0.601364468376,-0.106138560585,-0.009195990049,-0.583987830778,0.573862371634,0.818929043675,0.00423636032277,0.0,0.818907889118,-0.573786382238,-0.0118238572263,0.0,-0.00725227385615,0.010254653073,-0.999921120196,0.0,0.448518124875,-0.0189455274171,0.3047849696,1.0,-0.21998,-0.289116571429,2.326
0.0799741605984,-0.277663528031,-0.13185184391,-2.43196211474,-0.0311771980074,2.14879821848,-0.203823724601,-0.639173957229,-0.620581325184,0.00013488424951,-0.625479368981,-0.102750422884,-0.0191598349633,-0.589875302566,0.573847679654,0.818938761141,0.00434660304379,0.0,0.81891959639,-0.573772130178,-0.0117040240975,0.0,-0.00709105583207,0.0102760433269,-0.999922056893,0.0,0.444821087508,-0.0238538738832,0.304820749543,1.0,-0.21998,-0.289116571429,2.343
0.0681397242914,-0.288957580503,-0.132041318475,-2.44297450379,-0.0329774988732,2.14831879208,-0.214574184255,-0.669331358728,-0.627376671671,-0.0116113119128,-0.607740344528,-0.0971611798075,-0.0330999600624,-0.598554168639,0.573735623671,0.819017431275,0.00431605136981,0.0,0.818996859138,-0.573658738685,-0.0118550897963,0.0,-0.00723372387922,0.0103367188676,-0.999920409574,0.0,0.440822472435,-0.0289882431451,0.304765544901,1.0,-0.21998,-0.289116571429,2.361
0.0571563828472,-0.29894946974,-0.132275760428,-2.45228422681,-0.0345951314452,2.1479334444,-0.22430924106,-0.680613911384,-0.626499871086,-0.00573155908711,-0.576735860662,-0.111420903995,-0.0339955360372,-0.595107717837,0.573915169242,0.81889043411,0.00453677617474,0.0,0.81887406993,-0.573839517838,-0.0115850017222,0.0,-0.00688359816741,0.0103640561348,-0.999922598213,0.0,0.437378796209,-0.0337222960199,0.304880342293,1.0,-0.21998,-0.289116571429,2.377
0.0456524182974,-0.309315412885,-0.132428133047,-2.46219748597,-0.0362478975241,2.14727941565,-0.234779997364,-0.693840895904,-0.606935479655,-0.0116362949734,-0.584661243962,-0.0867567739379,-0.0412188544906,-0.625013909223,0.573808865393,0.818965132722,0.00449936470275,0.0,0.818947369934,-0.573731982292,-0.0117287967973,0.0,-0.00702418143305,0.010415030994,-0.999921090889,0.0,0.433611128141,-0.038543411066,0.30483005877,1.0,-0.21998,-0.289116571429,2.394
0.0337125676738,-0.319566264561,-0.132693549141,-2.4718373583,-0.0379655038034,2.14653985804,-0.245501321986,-0.708308708605,-0.598529728592,-0.0178098946714,-0.558042188617,-0.100343791715,-0.0407260151897,-0.640813855601,0.573910391451,0.818894137979,0.00447216604155,0.0,0.818875653297,-0.57383303648,-0.0117922679233,0.0,-0.0070904789703,0.0104300537997,-0.99992046638,0.0,0.429843865587,-0.0435305283,0.304810114716,1.0,-0.21998,-0.289116571429,2.411
0.0225139948551,-0.329112932558,-0.13278735325,-2.48049202222,-0.0394221191852,2.14595078545,-0.255788539816,-0.700695169561,-0.59485671143,-0.0108345720043,-0.544445026488,-0.0863767062148,-0.042093475946,-0.646081389315,0.573767968776,0.818992528229,0.004722670066,0.0,0.818978570211,-0.57369179525,-0.0115140131195,0.0,-0.00672066303987,0.0104743391618,-0.999922557455,0.0,0.426425596403,-0.0480683190301,0.304918849757,1.0,-0.21998,-0.289116571429,2.427
0.0102752628304,-0.339011163633,-0.133058355098,-2.48971417137,-0.0410067062627,2.14499823404,-0.266880671519,-0.729326750451,-0.586925466768,-0.017852004254,-0.535735629509,-0.091332875815,-0.0598116241778,-0.654942134465,0.573868675932,0.818922183094,0.00468483957722,0.0,0.818906336568,-0.573790444748,-0.0117338972854,0.0,-0.00692116585047,0.0105703644266,-0.999920179244,0.0,0.422632824683,-0.0530149498193,0.30485561722,1.0,-0.21998,-0.289116571429,2.444
-0.00210037191363,-0.348780558314,-0.133215722543,-2.49863415996,-0.042668585238,2.14402167307,-0.278141743019,-0.720155105146,-0.581209216741,-0.0134335256968,-0.511046440691,-0.0974984228949,-0.0613747966102,-0.663529325359,0.573813296322,0.818961237052,0.00464112835053,0.0,0.818944830389,-0.573735227473,-0.011747358693,0.0,-0.00695798654022,0.0105418216473,-0.999920225028,0.0,0.418665856086,-0.0581972220603,0.304851115652,1.0,-0.21998,-0.289116571429,2.462
-0.0138974356508,-0.357855750693,-0.133449770793,-2.5066303271,-0.044135255957,2.14317551528,-0.288998841429,-0.746682491195,-0.553034643615,-0.0215258161563,-0.504178562884,-0.101611171751,-0.0549162792384,-0.684028330872,0.573803222669,0.818967318571,0.00481037092096,0.0,0.818954261158,-0.57372642265,-0.0115176814339,0.0,-0.00667289625393,0.0105485595804,-0.999922097139,0.0,0.415437939322,-0.062554270988,0.304940119954,1.0,-0.21998,-0.289116571429,2.477
-0.0274059455667,-0.367833891833,-0.133630007788,-2.51567152349,-0.0457341614405,2.14194950441,-0.301384578875,-0.750209477308,-0.550840468755,-0.00873838158793,-0.495096615224,-0.0842071022251,-0.0640163281203,-0.696720474747,0.573785514612,0.818980046136,0.0047554339963,0.0,0.818965036579,-0.573706947169,-0.0117198350283,0.0,-0.00687021778471,0.0106194102062,-0.999920010918,0.0,0.411418772187,-0.0677319167305,0.304879209332,1.0,-0.21998,-0.289116571429,2.495
-0.0426278924448,-0.378661333598,-0.133914115026,-2.52525543123,-0.0475191509922,2.1405700253,-0.315327300486,-0.783962774516,-0.538248758935,-0.0169116914292,-0.462587897286,-0.0951304089833,-0.0630624239339,-0.697944537371,0.57385878758,0.818928610497,0.00477176349617,0.0,0.81891340396,-0.573779522519,-0.0117746869741,0.0,-0.00690482080152,0.0106648740105,-0.999919288699,0.0,0.40700998645,-0.0735210109578,0.304873844391,1.0,-0.21998,-0.289116571429,2.515
-0.0526545951132,-0.385547682153,-0.134023179261,-2.53117147247,-0.0486562383453,2.1397639027,-0.324596982121,-0.761310274883,-0.521380752089,-0.00324869200289,-0.463144187443,-0.0838918450049,-0.0727557118406,-0.711230696998,0.573805070115,0.818965669323,0.00487040884892,0.0,0.81895292617,-0.573727359302,-0.0115658466075,0.0,-0.00667787307036,0.0106253815735,-0.999921250538,0.0,0.404221562161,-0.077269872593,0.304939894274,1.0,-0.21998,-0.289116571429,2.528
-0.0659166461849,-0.394386759519,-0.134258325331,-2.53895788603,-0.0501228495287,2.13846568687,-0.336906444164,-0.80201896235,-0.51838392709,-0.0207403195952,-0.455510022549,-0.0880551370815,-0.0817147617781,-0.72061256236,0.5737757534,0.818986464481,0.00482728786717,0.0,0.818972207034,-0.573696674973,-0.0117216095997,0.0,-0.00683057211519,0.0106791955853,-0.999919645805,0.0,0.400435733849,-0.0821741501818,0.304890796712,1.0,-0.21998,-0.289116571429,2.545
-0.0793582379077,-0.40300014576,-0.134416563237,-2.54645338039,-0.0515823970739,2.1371207229,-0.349337223189,-0.78727972688,-0.505203897672,-0.00723199452951,-0.438080581616,-0.0784164039518,-0.0825933693679,-0.729802957759,0.573744366078,0.819008907438,0.00474961393537,0.0,0.818993034206,-0.573664611886,-0.0118351126867,0.0,-0.00696851144155,0.0106804355856,-0.999918680766,0.0,0.396668660147,-0.0870566766603,0.30485551138,1.0,-0.21998,-0.289116571429,2.562
-0.0921407706168,-0.410934479703,-0.134645088011,-2.55311942721,-0.0527510497228,2.13596722878,-0.361331113412,-0.818957119983,-0.488369381532,-0.0260586546274,-0.412169911855,-0.0612562298953,-0.0729636250587,-0.745445231916,0.573775583631,0.818985554639,0.00499878212017,0.0,0.818973259207,-0.573695532779,-0.0117039854474,0.0,-0.0067177453789,0.010809538083,-0.999919009612,0.0,0.392991680838,-0.0919647772628,0.304922223433,1.0,-0.21998,-0.289116571429,2.579
-0.106008225574,-0.419167313743,-0.134811157048,-2.56000173791,-0.0541519975146,2.13466063648,-0.374203117644,-0.811706411994,-0.480194377659,-0.00484213975355,-0.400938345865,-0.0804637164915,-0.0798386891556,-0.770482300983,0.573733924328,0.819014590374,0.00502311952666,0.0,0.819003450562,-0.573655165429,-0.0115691851595,0.0,-0.00659391993474,0.0107517932331,-0.999920456417,0.0,0.38927821976,-0.0968865694949,0.304971291628,1.0,-0.21998,-0.289116571429,2.596
-0.122442751825,-0.428514578924,-0.135130271501,-2.56798807656,-0.0556841936892,2.13291065982,-0.389590211714,-0.841727377235,-0.46055084127,-0.0164334905238,-0.38877381884,-0.0710908157033,-0.0914382538615,-0.774007114181,0.573789820761,0.818975683603,0.00498178270874,0.0,0.818962083652,-0.57370809311,-0.0118691339801,0.0,-0.00686257518285,0.0108904890822,-0.999917147722,0.0,0.385024932375,-0.102373497368,0.304892117024,1.0,-0.21998,-0.289116571429,2.615
-0.134022884049,-0.434849182246,-0.135238544838,-2.57330991731,-0.0567621488486,2.13181412659,-0.400520047338,-0.823710493463,-0.452757023199,-0.0104053167088,-0.372810878986,-0.0768987622043,-0.0809611796467,-0.790239975994,0.573672872106,0.819057696033,0.0049672204596,0.0,0.819043973481,-0.573591321716,-0.0118622113552,0.0,-0.00686681316119,0.0108736101907,-0.99991730232,0.0,0.381958417653,-0.106366089454,0.304877886738,1.0,-0.21998,-0.289116571429,2.629
-0.150140483467,-0.443211012487,-0.135541572933,-2.58001179805,-0.0581276718307,2.1303051007,-0.415567979215,-0.848863630809,-0.443604648865,-0.0150312173071,-0.340744683294,-0.0729111419257,-0.0719761811685,-0.786199275547,0.573844267801,0.818936526861,0.00514472401929,0.0,0.818926168786,-0.573763809966,-0.0116519248521,0.0,-0.00659045730185,0.0108997492698,-0.999918877379,0.0,0.377838858436,-0.111942352386,0.30497739641,1.0,-0.21998,-0.289116571429,2.648
-0.162832704514,-0.449583550129,-0.135643777385,-2.58520523251,-0.0591567840337,2.12908212541,-0.427596182866,-0.849487352742,-0.411926856857,-0.0146401496592,-0.352918261876,-0.0639868003987,-0.0878262935791,-0.800662187047,0.573753572908,0.818999799343,0.00518778878939,0.0,0.81899014666,-0.573673239965,-0.0116146598852,0.0,-0.006536434359,0.0109129106161,-0.999919088431,0.0,0.374571542436,-0.116215290217,0.304996443262,1.0,-0.21998,-0.289116571429,2.663
-0.178373828588,-0.4569611696,-0.135928334068,-2.59136066007,-0.0604175631075,2.1274684438,-0.442311265043,-0.871835276771,-0.406199660948,-0.0146116287049,-0.335614615578,-0.0711727608162,-0.0875116191571,-0.827391846633,0.573776989449,0.818983661101,0.00514549613889,0.0,0.818971650205,-0.573693814869,-0.0118991529949,0.0,-0.00679340336854,0.0110416882331,-0.999915961865,0.0,0.370523521807,-0.121426855654,0.304916990104,1.0,-0.21998,-0.289116571429,2.681
-0.192179921412,-0.46321700664,-0.136062700379,-2.59644477005,-0.0615111633828,2.12621946223,-0.45553910074,-0.867865084096,-0.384038956172,-0.00523682394549,-0.316231648396,-0.0616579719112,-0.0856091345878,-0.830513594608,0.573610370611,0.819100398777,0.00514065673797,0.0,0.819088514178,-0.573527550903,-0.0118701810591,0.0,-0.00677469220394,0.0110197240098,-0.999916331114,0.0,0.367037979479,-0.125993123804,0.304910533295,1.0,-0.21998,-0.289116571429,2.697
-0.208980307602,-0.470343515113,-0.136285403936,-2.6021627258,-0.0627099867885,2.12470077376,-0.471397544004,-0.876956053598,-0.371009068442,0.000369959886419,-0.289733072375,-0.0525270666931,-0.0824911172161,-0.839166931952,0.573723717257,0.819020636813,0.00519996467663,0.0,0.819009355946,-0.573640392072,-0.0118794931646,0.0,-0.00674677017704,0.0110745799182,-0.999915913851,0.0,0.362860582938,-0.131514523595,0.304912036903,1.0,-0.21998,-0.289116571429,2.716
-0.221336970706,-0.475475314505,-0.13646055044,-2.60604729415,-0.0635891828607,2.12360202287,-0.483235476089,-0.889202984501,-0.362325486512,-0.0102625828226,-0.271568187463,-0.0731702202834,-0.0793382457459,-0.852978062451,0.573686818994,0.819045834245,0.00530113383995,0.0,0.819037102862,-0.573605216028,-0.0116630691577,0.0,-0.00651195556196,0.0110329867661,-0.999917930451,0.0,0.359839450632,-0.1355577217,0.305008268465,1.0,-0.21998,-0.289116571429,2.73
-0.23656294867,-0.481328452303,-0.136647519732,-2.61073015889,-0.0646256254982,2.12225609445,-0.497810855232,-0.88382513381,-0.336210031685,-0.00215683263127,-0.272157939214,-0.0605453838154,-0.0801658915889,-0.859907080667,0.573655023616,0.81906811057,0.00530009706029,0.0,0.819058920582,-0.573572677556,-0.0117309452966,0.0,-0.00656857880263,0.011070820626,-0.999917141919,0.0,0.356085146242,-0.140462186569,0.304986015128,1.0,-0.21998,-0.289116571429,2.747
-0.251921627214,-0.486870777523,-0.13686303329,-2.61517200494,-0.0655134117889,2.12091662663,-0.512511468855,-0.914811365231,-0.312437265378,-0.0128115250341,-0.261848351356,-0.0627059739028,-0.0800047664765,-0.865973114629,0.57372499855,0.819018541615,0.0053852976537,0.0,0.819009257728,-0.573640314837,-0.0118899894916,0.0,-0.00664902602606,0.0112324090965,-0.999914808091,0.0,0.352319402866,-0.14535503027,0.304945338534,1.0,-0.217008571429,-0.285211265306,2.764
-0.267213078761,-0.491925479829,-0.136931762459,-2.61922171078,-0.0663509072798,2.11970351756,-0.527169235754,-0.898411636022,-0.285041097643,-0.00441403263386,-0.224040128578,-0.0443859319843,-0.0651006020542,-0.856330026781,0.573709906957,0.819028980426,0.00540544008088,0.0,0.819019242964,-0.573623944063,-0.0119915533985,0.0,-0.00672086929268,0.0113070501232,-0.999913486524,0.0,0.3486542373,-0.150159433134,0.304904511355,1.0,-0.213122857143,-0.280104326531,2.781
-0.281649837267,-0.496409876133,-0.13703691757,-2.62271440649,-0.0671273838709,2.11863125942,-0.540882710577,-0.908103161577,-0.270549573543,-0.00395996985991,-0.21091431361,-0.0538469531902,-0.0655620350095,-0.849262601693,0.573849311363,0.818931031145,0.00544802501486,0.0,0.818921888579,-0.573763227238,-0.011976910198,0.0,-0.00668251566292,0.011334666831,-0.999913430909,0.0,0.345239727763,-0.154690738785,0.304906404121,1.0,-0.209465714286,-0.275297795918,2.797
-0.296619509585,-0.500878243956,-0.136984292835,-2.62613749374,-0.0677772516622,2.11747958291,-0.555311918852,-0.876515085508,-0.251364569437,0.00239041845492,-0.192610155139,-0.0379835640206,-0.062995178755,-0.853633475443,0.573782494232,0.818977355908,0.00552147847896,0.0,0.818968988602,-0.573695831434,-0.0119848072155,0.0,-0.00664776452776,0.011398811685,-0.999912933369,0.0,0.341716710062,-0.159281077582,0.304925096509,1.0,-0.20558,-0.270190857143,2.814
-0.311688579436,-0.50490906598,-0.136995286253,-2.62921090876,-0.0684348062792,2.11647880507,-0.569663308352,-0.874832972435,-0.23220785778,0.00661807024287,-0.173490844742,-0.0359079479699,-0.0635040337787,-0.837830619753,0.573921936253,0.818879235889,0.00558166807911,0.0,0.818871947466,-0.573835526365,-0.0119276667893,0.0,-0.00656448561291,0.0114164408306,-0.999913282444,0.0,0.338232111388,-0.163922347077,0.304945085418,1.0,-0.201694285714,-0.265083918367,2.831
-0.326360912985,-0.508621603806,-0.136910949511,-2.63199738817,-0.0689541658063,2.11558727077,-0.583861802272,-0.86223809666,-0.212431244196,-0.0013528994414,-0.157754799766,-0.0248062677064,-0.0576555867435,-0.825094828596,0.573868275351,0.818916111267,0.00568789540379,0.0,0.818910867401,-0.573782651965,-0.0117985786414,0.0,-0.00639855362259,0.0114289293776,-0.999914215363,0.0,0.33487227657,-0.168375502035,0.304984343537,1.0,-0.197808571429,-0.259976979592,2.848
-0.340978326464,-0.511974186214,-0.136805449155,-2.63457352282,-0.0694980800727,2.11465394848,-0.597913987632,-0.840414085377,-0.19466616701,0.0195497734307,-0.14917488247,-0.0266543462869,-0.0555497114747,-0.818906577175,0.573875735837,0.818910901837,0.00568520631229,0.0,0.818905344008,-0.573789623398,-0.0118428264214,0.0,-0.0064362311936,0.0114521770478,-0.999913707561,0.0,0.331511072811,-0.172775732524,0.304978730901,1.0,-0.193922857143,-0.254870040816,2.865
-0.354475798518,-0.514779090262,-0.136716526811,-2.63679808037,-0.0699086281236,2.1138597732,-0.611004300804,-0.852816452571,-0.17031157747,0.000656122068292,-0.132223375061,-0.0263115243096,-0.0485307104233,-0.815558113253,0.57384316344,0.818933453376,0.00572447524447,0.0,0.818927572642,-0.573755426893,-0.0119619304039,0.0,-0.00651170160748,0.0115524250204,-0.999912065743,0.0,0.328411551335,-0.176806850931,0.304938897949,1.0,-0.190265714286,-0.250063510204,2.881
-0.369469252597,-0.517561491532,-0.136560623903,-2.63900674228,-0.0703357771614,2.11307797177,-0.625469152919,-0.826451103811,-0.149191343906,0.0101673502373,-0.117058178602,-0.0195213784055,-0.0375893831025,-0.79653266423,0.57385608134,0.818924322693,0.00573572240133,0.0,0.818917948627,-0.573767165198,-0.0120573818845,0.0,-0.00658324085842,0.0116165115961,-0.999910854826,0.0,0.325008924815,-0.181260504759,0.304898391307,1.0,-0.186151428571,-0.244656163265,2.899
-0.382629781555,-0.519802650571,-0.136479284541,-2.64071402998,-0.0706592792663,2.11245443811,-0.638184566218,-0.839200737852,-0.134609957458,-0.00195740913359,-0.101410453733,-0.0222643093536,-0.0421547758518,-0.795494802185,0.573926121792,0.818874735593,0.00580698149532,0.0,0.818869183147,-0.573836709084,-0.0120598134774,0.0,-0.00654334340128,0.0116768249873,-0.999910414195,0.0,0.322040662741,-0.185175777162,0.304896100852,1.0,-0.182494285714,-0.239849632653,2.915
-0.395480766408,-0.521764331612,-0.136279195376,-2.64218697158,-0.0709217772037,2.11186308395,-0.650723970482,-0.796409720557,-0.117090069394,0.0158903510709,-0.0901874653937,-0.00863470126948,-0.0415249204255,-0.783851071812,0.573841978385,0.818933488412,0.00583714849364,0.0,0.818928237961,-0.573752294804,-0.0120661584277,0.0,-0.00653242963907,0.0117044993021,-0.999910161994,0.0,0.319172270834,-0.188953161631,0.304902031869,1.0,-0.178837142857,-0.235043102041,2.931
-0.409841672626,-0.52376183245,-0.136172669053,-2.6436232634,-0.0711978579299,2.11125833235,-0.664565858665,-0.804585722607,-0.105035445856,0.0037702268714,-0.0665590650929,-0.0189460323149,-0.0315995110763,-0.763488348334,0.573989945762,0.818829146408,0.0059260491568,0.0,0.818825283403,-0.573900279123,-0.0120154810091,0.0,-0.0064377887406,0.0117493903852,-0.999910249323,0.0,0.315961504329,-0.193197552507,0.304933060659,1.0,-0.174722857143,-0.229635755102,2.949
-0.423015900279,-0.525338829123,-0.135961949495,-2.64479684087,-0.0714024085055,2.11078443661,-0.677493167478,-0.770154349059,-0.0847738453512,0.00975407127927,-0.0735509214427,-0.00441658317422,-0.0190191498938,-0.757609435992,0.573887602512,0.818900588214,0.00596600431479,0.0,0.818897356452,-0.573797996336,-0.0119885736916,0.0,-0.00639429183586,0.0117658655047,-0.9999103347,0.0,0.313037098945,-0.197044358516,0.304942269061,1.0,-0.170837142857,-0.224528816327,2.966
-0.435326773215,-0.52659177501,-0.135867429429,-2.64574093209,-0.0715940017766,2.11039274986,-0.689408734586,-0.773318078738,-0.0759563765351,0.00289554492307,-0.0549597973902,-0.00932871162087,-0.0239506507431,-0.744086437029,0.57400799053,0.818815764849,0.00602635408202,0.0,0.818813257857,-0.573917999026,-0.0119885800973,0.0,-0.00635792771543,0.0118162268888,-0.999909972716,0.0,0.310290894805,-0.200660497766,0.304940559523,1.0,-0.16718,-0.219722285714,2.982
-0.447995576843,-0.527669509865,-0.135614437034,-2.64659004112,-0.071740353247,2.11002650166,-0.701820800762,-0.737586521038,-0.0592365154211,0.016216561273,-0.0460875661041,-0.00883070689908,-0.0203511439292,-0.732058033906,0.573928102759,0.818871729459,0.00603079245541,0.0,0.818869008287,-0.573837604611,-0.0120290357759,0.0,-0.00638966485382,0.011842458722,-0.999909460078,0.0,0.307486227768,-0.204324249318,0.304923794757,1.0,-0.163294285714,-0.214615346939,2.999
-0.460504050122,-0.528515669811,-0.135475725617,-2.64725233393,-0.0718713796443,2.1097350299,-0.713988341859,-0.741675735971,-0.0463335711875,-0.00310266638335,-0.0323793625414,-0.00166166794752,-0.0155280157601,-0.705746687367,0.574015276828,0.818810256828,0.00608047550581,0.0,0.818807998774,-0.573924207864,-0.0120503806014,0.0,-0.00637736593109,0.0118960735736,-0.999908902169,0.0,0.304711206952,-0.207972474822,0.304910488674,1.0,-0.159408571429,-0.209508408163,3.016
-0.471972615048,-0.529089504263,-0.135228059233,-2.64771299108,-0.0719515651334,2.10949902838,-0.725212469959,-0.703935469707,-0.0297637849667,0.015203203651,-0.025024809019,-0.00274949094934,-0.00938826428368,-0.698033010303,0.573980008907,0.818834992961,0.00607869871883,0.0,0.818832479637,-0.57388852273,-0.0120863837267,0.0,-0.00640838188712,0.0119150079848,-0.999908478425,0.0,0.302192745809,-0.211282659374,0.304896779231,1.0,-0.155751428571,-0.204701877551,3.032
-0.483871194371,-0.529525047653,-0.135056478256,-2.64807600774,-0.0719861956175,2.1092873929,-0.736926252074,-0.700818321305,-0.0189216172937,0.00759438729749,-0.0202841407086,-0.00549173417945,-0.0153980072368,-0.678430760226,0.5739747658,0.818838167934,0.00614571882238,0.0,0.818836090492,-0.573882169081,-0.0121433035049,0.0,-0.00641660548584,0.0120025172447,-0.999907379088,0.0,0.29956255005,-0.214727231869,0.304877050662,1.0,-0.151865714286,-0.199594938776,3.049
-0.49559799846,-0.529809697078,-0.134819578243,-2.64827965038,-0.0720219488168,2.10911891696,-0.748385551609,-0.666859505925,-0.0112448812393,0.0193680917777,-0.00996325643167,-0.0018215445211,-0.0112996425749,-0.674792272059,0.57399966829,0.818820589576,0.00616196325332,0.0,0.818818694181,-0.573906937602,-0.0121457784104,0.0,-0.00640894337057,0.0120174348562,-0.999907249051,0.0,0.296988092475,-0.218110759747,0.304880007966,1.0,-0.14798,-0.194488,3.066
-0.506853760101,-0.52995473901,-0.134564802345,-2.64839514053,-0.0720368627593,2.10902707462,-0.759528227414,-0.667429507441,-0.00476884590964,0.0209617840236,-0.00931671056723,-0.000950274301375,-0.00813256475281,-0.658667724804,0.573899670551,0.818890617135,0.00617026834784,0.0,0.818888941084,-0.573807132656,-0.0121253282414,0.0,-0.00638889654421,0.0120117176594,-0.999907446037,0.0,0.294517525935,-0.22134504042,0.304879091416,1.0,-0.144094285714,-0.189381061225,3.083
-0.518106351832,-0.52999107046,-0.134389605946,-2.64841156808,-0.0720428646074,2.10891245046,-0.770429423394,-0.648057006897,0.00297646329232,0.0127712630333,0.0057725996335,-0.000870898131156,-0.0107786971169,-0.634921340393,0.57406032041,0.818777699336,0.00621083752467,0.0,0.818776411755,-0.573967300831,-0.0121438063028,0.0,-0.00637838293952,0.0120567967303,-0.999906970615,0.0,0.29201713613,-0.224586834762,0.30487955459,1.0,-0.140208571429,-0.184274122449,3.1
-0.528740676181,-0.529878314167,-0.13412457986,-2.64832504349,-0.0720375381757,2.10891667591,-0.781058045238,-0.622980650057,0.0109680648048,0.0115893119764,0.00666890098727,-0.000408738359208,0.000277839403967,-0.623296132143,0.573885404421,0.818900402396,0.00619842308763,0.0,0.818899300805,-0.573793136154,-0.0120879669445,0.0,-0.00634235048222,0.0120132234229,-0.999907724269,0.0,0.28968296964,-0.227634746792,0.304884864006,1.0,-0.136322857143,-0.179167183674,3.117
-0.538739480679,-0.52971398456,-0.133958013635,-2.648190585,-0.0720298764014,2.10890712268,-0.790751229861,-0.621344588992,0.0180877230915,0.0132352749562,0.0120864597654,-0.00126992212223,-0.000513701422785,-0.612244521119,0.57402914898,0.818799482181,0.00622020927472,0.0,0.818798831534,-0.573937071459,-0.0120606129742,0.0,-0.00630533636031,0.0120164748422,-0.999907919293,0.0,0.287453346016,-0.230507430501,0.304889442843,1.0,-0.132665714286,-0.174360653061,3.133
-0.548894839108,-0.529378697236,-0.133663961553,-2.64793008775,-0.0719991674991,2.1089195258,-0.800816996477,-0.575508393154,0.0219320255885,0.0192047673514,0.0203820490541,0.0114586680079,0.0050219402323,-0.583382846813,0.573923126521,0.8188740724,0.0061842782002,0.0,0.818873042534,-0.57383139723,-0.0120505047919,0.0,-0.00631923459775,0.0119804327524,-0.999908264045,0.0,0.285216505122,-0.233400415388,0.304894025978,1.0,-0.12878,-0.169253714286,3.15
-0.558759874254,-0.528914708511,-0.133420528563,-2.64760372376,-0.0719803427289,2.10895062568,-0.810619583633,-0.575295644088,0.0218164316359,0.0155738010493,0.0209001763179,0.00565224929661,0.00345418680061,-0.563161338608,0.573829413455,0.818940004473,0.00614981532335,0.0,0.818938302,-0.573737432486,-0.0120897883988,0.0,-0.00637255480297,0.0119740260413,-0.999908002391,0.0,0.283024732441,-0.23621865128,0.304881801277,1.0,-0.124894285714,-0.16414677551,3.167
-0.567976552315,-0.528396307811,-0.133243669999,-2.64719971646,-0.0719248174454,2.1090382713,-0.819543340655,-0.565280778345,0.0352278421672,0.00900159083469,0.0320120535776,0.00115892276129,0.00263611877178,-0.550118532401,0.573991074728,0.81882661947,0.00616119148285,0.0,0.818825277332,-0.57389940924,-0.0120573702507,0.0,-0.00633711357892,0.0119659926157,-0.999908323804,0.0,0.280977202363,-0.238870566982,0.304888085698,1.0,-0.121237142857,-0.159340244898,3.183
-0.577681201364,-0.527605031931,-0.132901427278,-2.64664186327,-0.0718124267232,2.10918152954,-0.829319933934,-0.533397015488,0.0484179624827,0.0218996320249,0.0273694191448,0.0110361768577,0.000784980691207,-0.535407356207,0.57377039689,0.818981547733,0.00612397147028,0.0,0.818979592786,-0.57367869951,-0.0120798687882,0.0,-0.00638012048474,0.0119467087811,-0.9999082809,0.0,0.278865377222,-0.241637062916,0.304873429705,1.0,-0.117122857143,-0.153932897959,3.201
-0.5867810935,-0.5268289112,-0.132670082957,-2.6460511343,-0.071681676183,2.10930456316,-0.838239855637,-0.527681302458,0.0463061038305,0.0201010966535,0.0334591448801,0.00832529674671,0.0117392480591,-0.516896227797,0.573843477205,0.818930166008,0.0061476640359,0.0,0.818928486224,-0.573751597984,-0.0120824319673,0.0,-0.00636755854749,0.0119681523999,-0.999908104541,0.0,0.276858137933,-0.244246390083,0.304874535938,1.0,-0.113237142857,-0.148825959184,3.218
-0.595106194532,-0.525976837836,-0.132467912783,-2.64541070235,-0.071552826231,2.10943790451,-0.846371971167,-0.508441112881,0.0562741063572,0.015102733483,0.0380280347705,0.00595103051649,0.0124157911042,-0.509970176001,0.573949696613,0.818855565516,0.00616891256331,0.0,0.818853995707,-0.57385738716,-0.0121070152375,0.0,-0.00637394348197,0.0120004874706,-0.999907676311,0.0,0.275023499771,-0.246645272449,0.304870377723,1.0,-0.10958,-0.144019428572,3.234
-0.603320822522,-0.524995854247,-0.132116529383,-2.64471589147,-0.07136201809,2.10960135064,-0.854711508339,-0.477706866202,0.0524005725107,0.0171159475449,0.0406974606307,0.0189158437194,0.00904393594318,-0.48424926255,0.573719656171,0.819016803248,0.00616271225234,0.0,0.819014719203,-0.573626610713,-0.0121716109005,0.0,-0.00643378197824,0.0120306760936,-0.99990693031,0.0,0.273246883104,-0.248975636715,0.304849837918,1.0,-0.105694285714,-0.138912489796,3.251
-0.611989920287,-0.52399144556,-0.131836215803,-2.6439553249,-0.071196135221,2.10977009394,-0.863185077842,-0.473581000323,0.0554645622021,0.0190472821851,0.0464766421196,0.0120018255273,0.0154274160365,-0.460104376356,0.573794763949,0.818964155947,0.00616660688238,0.0,0.818962003511,-0.573701461758,-0.0121908360143,0.0,-0.00644619045337,0.0120454865134,-0.999906672087,0.0,0.271335327553,-0.251451845545,0.304848925088,1.0,-0.10158,-0.133505142857,3.269
-0.619450590855,-0.523035074755,-0.131631263887,-2.64317800304,-0.0710162516178,2.10994355202,-0.870483215897,-0.46013462047,0.0633732868654,0.0125141008559,0.0535227592939,0.0105768572586,0.0171197575187,-0.461688429056,0.573902455241,0.818888410773,0.00620398835355,0.0,0.818886999215,-0.573809435307,-0.0121474841272,0.0,-0.00638764990004,0.0120520684113,-0.99990696846,0.0,0.269699276132,-0.253608652017,0.304871451474,1.0,-0.0979228571429,-0.128698612245,3.285
-0.626424287941,-0.521998507677,-0.131338366525,-2.64239041424,-0.070813354193,2.11014109072,-0.87748681546,-0.422314967944,0.0644169446597,0.026155687301,0.0507698960191,0.0137611032492,0.0104167131294,-0.435816994227,0.573800781979,0.818959603187,0.00621110692432,0.0,0.81895824327,-0.573707674038,-0.0121510259521,0.0,-0.00638796267336,0.0120591375844,-0.999906881231,0.0,0.268196044378,-0.255607127524,0.304873164221,1.0,-0.0942657142858,-0.123892081633,3.301
-0.634089320343,-0.520896745974,-0.131053344659,-2.64153875596,-0.0706142642528,2.11034615149,-0.885090518462,-0.421458562048,0.060527247671,0.0121805073172,0.0451987247742,0.0101428460743,0.00483045359048,-0.40717947489,0.573780947322,0.818973439967,0.00621900477819,0.0,0.818972205884,-0.573687851016,-0.0121458835843,0.0,-0.00637951139914,0.0120625008912,-0.999906894619,0.0,0.26651263702,-0.25779950967,0.304880119865,1.0,-0.0901514285715,-0.118484734694,3.319
-0.640673098944,-0.519890829753,-0.13080630165,-2.6407200027,-0.0704136202123,2.11055791616,-0.891543509974,-0.398695253872,0.0678109240143,0.0163756878225,0.0537013577441,0.00811672385364,0.0156170327384,-0.391102315919,0.573843206371,0.818929695876,0.00623495114765,0.0,0.818929093198,-0.573750829363,-0.0120777903385,0.0,-0.00631367433455,0.0120369725722,-0.999907620137,0.0,0.265080121077,-0.259696701716,0.304906614437,1.0,-0.0864942857143,-0.113678204082,3.335
-0.646956557466,-0.518828183927,-0.130617021615,-2.63991028373,-0.0702163147891,2.11076492029,-0.8977072561,-0.382382464228,0.0628709259644,0.0116631207791,0.0492016628681,0.0114490399037,0.00928877422074,-0.382653332531,0.573935540282,0.818864667643,0.00627682947055,0.0,0.818864557561,-0.573842855815,-0.0120813948453,0.0,-0.00629123475159,0.012074047528,-0.999907314576,0.0,0.263695908609,-0.261515841289,0.304905964406,1.0,-0.0828371428572,-0.108871673469,3.351
-0.653572952592,-0.517650527027,-0.130264713797,-2.63904196309,-0.0699722472181,2.11099239966,-0.904400963512,-0.364753868348,0.0627942022601,0.0172525324039,0.0449859312482,0.00918534488512,0.012564777226,-0.366765465219,0.573761834248,0.818986370221,0.00627931953263,0.0,0.818986051196,-0.573668713818,-0.0121161724248,0.0,-0.00632085261119,0.0120947052833,-0.999906878127,0.0,0.26234603083,-0.263286518938,0.304894501143,1.0,-0.0789514285715,-0.103764734694,3.368
-0.659297799276,-0.516655827652,-0.1299970418,-2.63827910491,-0.0697766598703,2.1112056653,-0.910030103576,-0.356741379905,0.0582421543317,0.0162998869167,0.0487445831304,0.0138504861742,0.0140785463401,-0.353454747322,0.573787177709,0.818968624472,0.00627803532704,0.0,0.818968405278,-0.573694280746,-0.0120983593101,0.0,-0.00630662514317,0.0120836286708,-0.999907101884,0.0,0.261014130557,-0.265022847,0.304899807164,1.0,-0.0750657142858,-0.0986577959184,3.385
-0.664736559028,-0.515605248526,-0.12973637522,-2.63748394719,-0.0695630956472,2.11142787421,-0.915389909995,-0.330411327324,0.0687378744381,0.0157942563502,0.0554637701909,0.0105228990486,0.0123894151342,-0.33582805909,0.57380089994,0.818958915642,0.00629035917692,0.0,0.818958870682,-0.573707970783,-0.0120945976422,0.0,-0.006296270594,0.0120916692613,-0.999907069938,0.0,0.259836239724,-0.266582879639,0.304898949797,1.0,-0.0714085714286,-0.0938512653062,3.401
-0.67088752663,-0.514378126237,-0.129520642376,-2.63656834576,-0.0693129959476,2.11166464866,-0.921396442358,-0.319264302132,0.0557071032032,0.0148333918373,0.0462752367126,0.0177523321328,0.0141473751965,-0.308048485006,0.573922138556,0.818873482728,0.0063517763133,0.0,0.818874005929,-0.573828455989,-0.0121248675252,0.0,-0.00628402349026,0.0121602685371,-0.999906315071,0.0,0.258476735108,-0.268358634298,0.304887407987,1.0,-0.0670657142858,-0.0881435102042,3.42
-0.67574853154,-0.513405421309,-0.129259621239,-2.63582974117,-0.0691044626926,2.11186500729,-0.926189980375,-0.292703470606,0.0650747495959,0.0182178876144,0.0481393917541,0.00928737171734,0.0110393674524,-0.289558723318,0.573920516014,0.818874540648,0.00636198690694,0.0,0.818875187673,-0.573826768916,-0.0121248996042,0.0,-0.00627821407814,0.0121686361438,-0.999906249767,0.0,0.257420799998,-0.269742641972,0.30488702397,1.0,-0.0634085714286,-0.0833369795919,3.436
-0.680553331747,-0.512401483692,-0.128915281458,-2.63508532216,-0.0688897094234,2.11206551163,-0.930990960888,-0.274834107396,0.0633344092939,0.0189667938148,0.0436621581312,0.0141895954575,0.0109025484838,-0.279312977864,0.573810332184,0.818951936904,0.00633834526813,0.0,0.818952110394,-0.573716399159,-0.0121524120502,0.0,-0.00631595036429,0.0121642150279,-0.99990606591,0.0,0.256393109587,-0.271090854301,0.304879452022,1.0,-0.0595228571429,-0.0782300408164,3.453
-0.685173954092,-0.511414881078,-0.128645658341,-2.63433220094,-0.0686873706363,2.11228363186,-0.935508074077,-0.267055162906,0.0599590392349,0.0167267739597,0.0405749984699,0.0092372535234,0.0153099898096,-0.254722634328,0.573829710728,0.818938402834,0.00633264169472,0.0,0.818938601504,-0.573735991517,-0.0121377883405,0.0,-0.00630695796438,0.0121513022559,-0.999906279676,0.0,0.2553955423,-0.272410441721,0.304881598258,1.0,-0.0556371428572,-0.0731231020409,3.47
-0.689234914862,-0.510517654377,-0.128421858264,-2.63365673772,-0.0684841087678,2.11247519313,-0.939458980653,-0.249020506174,0.0510129877767,0.0199563827982,0.0456548610226,0.0097448694125,0.0115812478813,-0.252659786912,0.573883210377,0.818900737655,0.00635528253958,0.0,0.818901214035,-0.573789341267,-0.0121383854638,0.0,-0.00629366060074,0.0121705985277,-0.999906128778,0.0,0.254515062577,-0.273570617001,0.30487790606,1.0,-0.0519800000001,-0.0683165714287,3.486
-0.693265102917,-0.509643160457,-0.128183549541,-2.63301612754,-0.068280722233,2.11265984014,-0.943413131029,-0.228683413907,0.0517317576024,0.0107011714618,0.0352639978303,0.00982172430524,0.0148454582358,-0.220151441414,0.573896661026,0.818891140115,0.00637730393498,0.0,0.818891764125,-0.573802416632,-0.0121578047744,0.0,-0.00629672743506,0.0121998801206,-0.999905752633,0.0,0.253633191914,-0.274707215392,0.304866314209,1.0,-0.0480942857143,-0.0632096326531,3.503
-0.697031638609,-0.508839956881,-0.127936027525,-2.63239329375,-0.0680802504216,2.11283625844,-0.94704273358,-0.214173829719,0.0512189912607,0.0195944563063,0.0339910255086,0.00661928408382,0.0202419245796,-0.213160506833,0.573950823613,0.818853098238,0.00638768208015,0.0,0.818854001194,-0.573856797698,-0.0121345525395,0.0,-0.00627092189415,0.0121954502541,-0.999905968845,0.0,0.252817459493,-0.275768037011,0.304872359743,1.0,-0.0442085714286,-0.0581026938776,3.52
-0.700248911275,-0.508078787985,-0.127651438887,-2.63182394852,-0.067884952852,2.11299126445,-0.950199074655,-0.19793265108,0.0476063055613,0.0206650355132,0.0334259696558,0.0197090504028,0.0101763802908,-0.179058933537,0.573911262977,0.818880880645,0.00638063035789,0.0,0.818881606989,-0.573817114139,-0.0121482573808,0.0,-0.00628678184399,0.0121972374121,-0.999905847454,0.0,0.252143744963,-0.276663956862,0.304868563987,1.0,-0.0405514285715,-0.0532961632654,3.536
-0.70334167905,-0.507367596312,-0.127330495778,-2.63127156604,-0.067678793932,2.11315371162,-0.953227798303,-0.175824837666,0.0417785967825,0.0225047120635,0.0282066529593,0.00957134860974,0.00793432867739,-0.173606426179,0.573851744119,0.818922739324,0.00636157931002,0.0,0.818923388579,-0.573758028719,-0.0121225005573,0.0,-0.00627750502078,0.012166398414,-0.999906281449,0.0,0.251509641042,-0.277515749136,0.304876931376,1.0,-0.0366657142858,-0.0481892244899,3.553
-0.706205707052,-0.506702937781,-0.127028879452,-2.63075214852,-0.0674790893053,2.11329998079,-0.95602383466,-0.160093633536,0.0422299722352,0.0160668703451,0.0300544914176,0.0184496619715,0.00774329427083,-0.15349057483,0.573804585204,0.818955881445,0.00634894841065,0.0,0.818956511247,-0.573711219253,-0.0121002682096,0.0,-0.00626724354754,0.0121429358105,-0.999906631025,0.0,0.250922835691,-0.278302914758,0.304885598409,1.0,-0.0327800000001,-0.0430822857144,3.57
-0.708661425505,-0.506133855861,-0.126806049922,-2.63031837234,-0.0672930085153,2.11341650661,-0.958345572792,-0.148796045168,0.0338969031428,0.0139357892707,0.0277669557205,0.0126157823809,0.00487943248428,-0.1397599161,0.573857392742,0.818918708466,0.00637091990076,0.0,0.818919630327,-0.573763926272,-0.0120972259659,0.0,-0.00625136100588,0.0121595880319,-0.999906528084,0.0,0.250407047176,-0.27897849353,0.304886348601,1.0,-0.0291228571429,-0.0382757551021,3.586
