nelsonifechukwu/NELSON_IML_WORK/CNN-GradCAM/train2dof/data_sample_2022-02-21-07-56-39/robot_state.csv
position_joint1,position_joint2,position_joint3,position_joint4,position_joint5,position_joint6,position_joint7,velocity_joint1,velocity_joint2,velocity_joint3,velocity_joint4,velocity_joint5,velocity_joint6,velocity_joint7,ee_T_00,ee_T_10,ee_T_20,ee_T_30,ee_T_01,ee_T_11,ee_T_21,ee_T_31,ee_T_02,ee_T_12,ee_T_22,ee_T_32,ee_T_03,ee_T_13,ee_T_23,ee_T_33,v_x,v_y,time
0.465090768211,0.547530407429,-0.124007318343,-1.3557403368,0.079424433996,1.89411489948,0.159142733338,-0.000548569230461,-0.000347288209945,0.000728618144902,0.00112028856124,-3.87514323138e-05,-2.3442355502e-05,-0.00106603961449,0.57376596706,0.819004574156,0.00220668449919,0.0,0.81896565208,-0.573707282851,-0.0116602409051,0.0,-0.00828395916076,0.00849761181422,-0.999929580828,0.0,0.661711946827,0.260893983957,0.30343787337,1.0,0.0,0.0,0.0
0.465088624514,0.547535158734,-0.124012329651,-1.35574534811,0.0794251462354,1.89411489932,0.159145069562,-0.000749245479292,-0.00212994025115,-0.000389153561777,0.000156979167884,0.000152905519411,4.24204659967e-05,0.000297839277414,0.573773610275,0.818999244217,0.0021975044795,0.0,0.818960217035,-0.573714973426,-0.0116635792858,0.0,-0.0082918810403,0.00849208624,-0.999929562109,0.0,0.661712342504,0.26088912203,0.303432289041,1.0,-0.00016,-0.000210285714286,0.009
0.465085678923,0.547524438804,-0.124007321266,-1.35574868558,0.0794244341585,1.89411807969,0.159148569286,0.00015827934506,-0.00154889211789,0.000891098326315,-0.000582870061936,-8.94461983122e-06,-5.08104103898e-05,0.000881925520418,0.573775383764,0.818997974669,0.00220757236462,0.0,0.818959060621,-0.573716691556,-0.0116602640652,0.0,-0.00828337102065,0.00849844750022,-0.999929578598,0.0,0.661712153471,0.260889918115,0.303438404021,1.0,-0.00048,-0.000630857142857,0.025
0.46508056485,0.547521980091,-0.12401026505,-1.35575532962,0.0794206250244,1.89411565988,0.159147216737,-0.00161904753468,-0.000258027172304,0.00041634987093,-0.00138577200651,-0.000377300615791,0.000236180807302,0.000930679488764,0.57377985579,0.81899486337,0.00219949191239,0.0,0.818955883338,-0.57372123272,-0.0116599816838,0.0,-0.00828772945912,0.00849171294281,-0.999929599698,0.0,0.661712436437,0.26088329108,0.303436863163,1.0,-0.00072,-0.000946285714286,0.037
0.465084618877,0.54741354744,-0.124009775085,-1.35584856632,0.0794219299011,1.89412915858,0.159142172331,-0.000253567093491,-0.0108129505159,-0.000191578309005,-0.0083915579431,0.000125334989167,0.00121626498978,-0.000909905399163,0.573778135727,0.818995986861,0.00222965645561,0.0,0.818957282766,-0.57371928312,-0.0116576190183,0.0,-0.00826850548336,0.0085150442407,-0.999929560438,0.0,0.661696711673,0.260880519654,0.303466600632,1.0,-0.00112,-0.001472,0.057
0.465084321379,0.547316424253,-0.124005491529,-1.35597202958,0.0794216704969,1.89414829991,0.159138954897,-0.00104585436087,-0.00856570619923,-2.31645324191e-05,-0.0114988133931,0.000201748295472,0.00511505767362,-0.000660984927277,0.573778640518,0.818995631436,0.00223030822288,0.0,0.818956843183,-0.573719690084,-0.0116684666843,0.0,-0.00827701085569,0.00852180720378,-0.999929432457,0.0,0.66167255948,0.260867900773,0.303482006124,1.0,-0.0014,-0.00184,0.071
0.465066338173,0.547142307549,-0.124013019209,-1.3562039246,0.0794129745482,1.89420897239,0.15914124798,-0.00392298226804,-0.012157779574,0.000140328921429,-0.0148501757742,-0.000136693964654,0.00639135858943,0.00154581506703,0.573805675121,0.818976667093,0.00223894119413,0.0,0.818937960468,-0.573746658244,-0.0116677315113,0.0,-0.00827117408326,0.00852872869656,-0.999929421742,0.0,0.661642016027,0.260829710443,0.303501192614,1.0,-0.00182,-0.002392,0.092
0.4650498818,0.54700758692,-0.124010505873,-1.35636356799,0.0794106543857,1.89431050865,0.159136421787,-0.000576571470608,-0.016315983333,0.000250741592014,-0.0115410166917,0.000522131834263,0.0020016506689,0.000234000530328,0.573827280047,0.818961349223,0.00230392146646,0.0,0.81892345395,-0.573767990629,-0.0116368553084,0.0,-0.00820837637038,0.00856444524697,-0.999929633942,0.0,0.661634044994,0.260809030134,0.303528633705,1.0,-0.00206,-0.00270742857143,0.104
0.465022234957,0.546761568623,-0.124003092944,-1.35664899127,0.0794037309288,1.89447053763,0.15911650246,-0.00144557255982,-0.00887515903835,0.000802478903953,-0.0184919574679,0.000199297239399,0.00634481895394,-0.000619831160344,0.573842796713,0.818950161619,0.00241336822027,0.0,0.818913628707,-0.573783057158,-0.0115852897099,0.0,-0.00810318109621,0.0086246412256,-0.999929974558,0.0,0.661612895411,0.260774139003,0.303580671712,1.0,-0.00248,-0.00325942857143,0.125
0.464994607617,0.546584482924,-0.12400743471,-1.35688248704,0.0793914722836,1.89456795307,0.159103248893,-4.53584262993e-05,-0.0149008397715,0.000382678364923,-0.0164094805578,-0.00103808920879,0.00176387454047,-0.00208212867625,0.573867433919,0.818932794126,0.00244824299321,0.0,0.818896733077,-0.573807591775,-0.0115643883319,0.0,-0.00806579172446,0.00864145042049,-0.999930131728,0.0,0.661592327281,0.260732588362,0.303603530242,1.0,-0.00274,-0.00360114285714,0.138
0.464944512781,0.546276164038,-0.124010488336,-1.35734404906,0.0793606670877,1.8947268724,0.159026840151,-0.00594865907027,-0.0102167895622,-0.0009643867686,-0.0229195131407,-7.42333235411e-05,0.00664436743874,-0.0133510690554,0.5738655714,0.818934089512,0.00245150919534,0.0,0.818898092262,-0.573805741273,-0.011559959865,0.0,-0.0080603103417,0.00864156555341,-0.999930174933,0.0,0.661541750147,0.260652738276,0.303616017249,1.0,-0.00314,-0.00412685714286,0.158
0.46492076396,0.54605060918,-0.124012736122,-1.35770937398,0.0793319225967,1.89485791834,0.158930561374,0.00077924735728,-0.014156003574,0.00011866268031,-0.0259908400866,-0.0052582040213,0.00587342072387,-0.00968933206505,0.573820545287,0.818965673523,0.00244014302707,0.0,0.818929584299,-0.573760818942,-0.0115587849024,0.0,-0.00806634490329,0.00863113974653,-0.999930216318,0.0,0.661498316966,0.260599563771,0.303613244344,1.0,-0.00342,-0.00449485714286,0.172
0.464860727333,0.545668419533,-0.124010896298,-1.35832497931,0.0792805123012,1.89507280609,0.158893866465,-0.00416668303879,-0.02071769515,-3.13585732583e-05,-0.0290597589889,-0.00469535487106,0.0097501869125,-0.000462356066194,0.573859082301,0.818938741225,0.00241633675887,0.0,0.818902440637,-0.573799536935,-0.0115598889644,0.0,-0.00808050357864,0.0086126571622,-0.999930261368,0.0,0.661428036738,0.260499121908,0.303609332242,1.0,-0.00384,-0.00504685714286,0.193
0.464824174143,0.545419751139,-0.124010925907,-1.35877606166,0.0792590269009,1.89521920146,0.158834204986,0.000119316484317,-0.0234425368702,0.000961359699669,-0.0340848631375,-0.000291868470852,0.0157254860575,-0.00218270547522,0.573865719278,0.818934213737,0.00237417532843,0.0,0.818897294594,-0.57380624333,-0.0115915022099,0.0,-0.00813051765974,0.00859633701266,-0.999929996386,0.0,0.66137696238,0.260430584223,0.303586179277,1.0,-0.00408,-0.00536228571429,0.205
0.464760402702,0.544963385298,-0.124014031106,-1.35954194726,0.0792233434989,1.89547022259,0.158730960425,-0.000859174310222,-0.0223483681989,-5.64912085935e-05,-0.0418581362019,-0.00542880554099,0.0141666564858,-0.000662166839293,0.573862611006,0.818936528424,0.00232658646292,0.0,0.818898861541,-0.573803167056,-0.0116330109992,0.0,-0.00819185268048,0.00858115428542,-0.999929626194,0.0,0.661276391556,0.260313469005,0.303563682044,1.0,-0.0045,-0.00591428571429,0.226
0.464707290258,0.544656933068,-0.12401103222,-1.36006989155,0.0792036324341,1.89564575296,0.158687386321,-0.00159708918384,-0.0221388996843,0.000529959733617,-0.0430888353426,6.6118216063e-06,0.0095930028064,-0.00885849082612,0.573892475616,0.818915691391,0.00229428113157,0.0,0.818877457163,-0.573832990396,-0.0116685982409,0.0,-0.00823922262405,0.0085754209339,-0.999929286183,0.0,0.661212373077,0.260230160991,0.303544403937,1.0,-0.00476,-0.006256,0.239
0.464623245805,0.544108936125,-0.124011626296,-1.36099325725,0.0791608513605,1.895961235,0.158541113113,-0.00017044672426,-0.026486244081,0.000690603541413,-0.0473082911404,-0.00178818977783,0.0141740271994,-0.00383505564705,0.57388195373,0.818923187752,0.0022500326243,0.0,0.818884223113,-0.57382247174,-0.0117109762205,0.0,-0.00829943048598,0.00856339900302,-0.999928891297,0.0,0.661101797017,0.260086323578,0.3035200573,1.0,-0.00518,-0.006808,0.26
0.464582360304,0.543767048478,-0.124019830612,-1.36154991522,0.0791281821,1.89616448376,0.158485866888,-0.000903831438065,-0.0275510890128,-0.000388354446186,-0.0455539668857,-0.00698650207429,0.0188303924823,-0.00373630099071,0.573900964347,0.818909920145,0.00222995760838,0.0,0.818870728205,-0.573841589633,-0.0117178239666,0.0,-0.00831635998564,0.00855108211995,-0.999928856045,0.0,0.661032158676,0.259991275456,0.303510725486,1.0,-0.00544,-0.00714971428571,0.273
0.464482399209,0.543133297109,-0.124014816742,-1.36257470122,0.0790581363356,1.89652466699,0.158371515375,-0.00489079021545,-0.0303690482242,0.000702324275193,-0.0478693585774,-0.000135817880027,0.0178568719863,-0.00554766359181,0.573921286369,0.818895737659,0.00220789419151,0.0,0.818856265269,-0.57386199858,-0.0117290373404,0.0,-0.0083379926437,0.00853965660489,-0.999928773535,0.0,0.660918990811,0.259838077435,0.303506467072,1.0,-0.00584,-0.00767542857143,0.293
0.464429440828,0.542717656276,-0.124025557496,-1.36325481968,0.0790256062076,1.89675943251,0.158259578129,-0.00774613434814,-0.0323477488397,-0.000525268580161,-0.053344573285,-0.000215746634098,0.0227535657284,-0.0113696501569,0.573909602695,0.818903987975,0.00218479156671,0.0,0.818864161411,-0.573850348876,-0.011747729689,0.0,-0.00836668037374,0.00853134664739,-0.999928604843,0.0,0.660838145782,0.25973224629,0.303497443305,1.0,-0.0061,-0.00801714285714,0.306
0.464354090886,0.542166958994,-0.124023713411,-1.36409996684,0.0789783995604,1.8970675551,0.158154404111,-0.00950921071317,-0.0359707354882,-0.000130462685096,-0.0433428256568,-0.00141342453778,0.0231275495108,-0.00888348275198,0.573922827483,0.818894682999,0.00219844268181,0.0,0.818855005303,-0.573863490923,-0.0117439761923,0.0,-0.00835563454101,0.00854050624725,-0.999928619015,0.0,0.660735306556,0.259593216299,0.303512905397,1.0,-0.00644,-0.008464,0.323
0.464272879593,0.54150975035,-0.12403219471,-1.36511921932,0.0789082711848,1.89744172954,0.158019711718,-0.00296369029787,-0.0395655260038,-0.000161846695503,-0.0594939279977,-0.00474954556683,0.0211694109392,-0.00486865487031,0.573918222657,0.818897899615,0.00220241010574,0.0,0.81885834991,-0.573858949776,-0.0117326657748,0.0,-0.00834414326022,0.00853721696139,-0.999928743061,0.0,0.660624951317,0.259446822342,0.303523507349,1.0,-0.00678,-0.00891085714286,0.34
0.464166506222,0.540730051024,-0.124029727513,-1.3663039667,0.0788347072907,1.89788043448,0.157874691643,-0.00523943665561,-0.0416608099987,-0.000565255455133,-0.0632962433963,-0.00369112359921,0.020422247183,-0.0114691827982,0.573930860497,0.818888966168,0.00223055130795,0.0,0.8188497785,-0.573871476357,-0.0117181813777,0.0,-0.00831599977037,0.00855207702001,-0.999928850532,0.0,0.660490699899,0.259265460718,0.303548697599,1.0,-0.00718,-0.00943657142857,0.36
0.464094041361,0.54019846813,-0.124032314461,-1.36712298204,0.0787984316838,1.89818401151,0.157774518448,-0.00642002007833,-0.0415757127276,0.000729061015295,-0.0655714815926,-4.70112020211e-05,0.0230811982725,-0.00596833538405,0.573945658889,0.818878539088,0.00225072525198,0.0,0.8188395036,-0.573886084112,-0.0117207810621,0.0,-0.00830639609567,0.00857023916109,-0.999928774856,0.0,0.660397504853,0.259140590788,0.303560981331,1.0,-0.00744,-0.00977828571429,0.373
0.463973193446,0.539288068965,-0.124038997865,-1.3685281347,0.0787103028972,1.898706429,0.15758687009,0.000321719579961,-0.0484061157421,0.00159749104224,-0.0706108660578,-0.00220913579581,0.0242071404207,-0.0141517357646,0.573949821284,0.818875566949,0.00227055133001,0.0,0.818836839174,-0.573890223933,-0.0117042123393,0.0,-0.00828140574652,0.0085770067886,-0.999928924111,0.0,0.660238666487,0.258923265988,0.303580929791,1.0,-0.00786,-0.0103302857143,0.394
0.46387978383,0.538722770325,-0.124036501511,-1.36941475232,0.0786579503294,1.89905010117,0.157490705313,-0.00656882468389,-0.042605625158,0.000694375597613,-0.0704128169603,-0.00231435011734,0.0246352805907,-0.00581848555005,0.573980904596,0.81885372683,0.0022895668632,0.0,0.818815236882,-0.573921223552,-0.0116954652294,0.0,-0.00826300336301,0.00858787128864,-0.999928983099,0.0,0.660143549291,0.258780072822,0.3035879721,1.0,-0.00812,-0.010672,0.407
0.463769832073,0.537812484418,-0.124053755213,-1.37084248625,0.0785733242372,1.89959126812,0.157300854343,-0.00767582749505,-0.0494749847193,0.000962223176678,-0.0754119255074,0.000227267403509,0.0232519822823,-0.0126869770968,0.573983826816,0.818851634293,0.00230531334356,0.0,0.818813418059,-0.573924159607,-0.0116787125509,0.0,-0.00824021648511,0.0085911790276,-0.999929142727,0.0,0.659982056532,0.258562990545,0.303598777799,1.0,-0.00852,-0.0111977142857,0.427
0.463691156807,0.537215526013,-0.124052057654,-1.37180316426,0.0785237285599,1.89995099575,0.157184622699,-0.00307074051636,-0.0396303221794,0.000807933048807,-0.0756520067976,-0.000778397696777,0.0265893625407,-0.00812322801952,0.573991613884,0.81884617429,0.00230584952234,0.0,0.818807877486,-0.573931852502,-0.0116891125541,0.0,-0.00824834341397,0.00859766586468,-0.999929019967,0.0,0.659869665762,0.258422238202,0.303594167495,1.0,-0.00878,-0.0115394285714,0.44
0.463551731215,0.536174027817,-0.124054591102,-1.37342092823,0.0784239313112,1.90056636841,0.156998570365,-0.00561983166821,-0.0512052374258,-0.000207023435948,-0.0772248946759,-0.00851665743941,0.0329459814392,-0.0119430332253,0.574017582679,0.818827884737,0.00233599097261,0.0,0.818790015348,-0.573957745681,-0.0116689262875,0.0,-0.00821424026617,0.00861102073316,-0.999929185782,0.0,0.659686836457,0.258176024229,0.303612768145,1.0,-0.0092,-0.0120914285714,0.461
0.46347039204,0.535512887755,-0.124060247441,-1.37446756253,0.0783574942359,1.90094141658,0.156866152608,-0.00379818003469,-0.0530988141428,-0.000799377130032,-0.0781614622369,-0.00714472644333,0.0296089254472,-0.0148658773927,0.574019353602,0.818826677887,0.0023238272291,0.0,0.818788676738,-0.573959588022,-0.0116722347527,0.0,-0.00822391262278,0.00860297770367,-0.99992917551,0.0,0.659562101298,0.258018231754,0.3036138566,1.0,-0.00946,-0.0124331428571,0.474
0.463327622713,0.534469364719,-0.124058202668,-1.37614985788,0.0782821859442,1.90155159249,0.156656840712,-0.00152095490425,-0.0482658654548,6.15617505382e-05,-0.0859171299288,0.000107676985454,0.0287325053368,-0.0118339979176,0.574035538043,0.818815361292,0.00231345582335,0.0,0.818776948101,-0.573975518842,-0.011711529756,0.0,-0.00826187252858,0.00861720449131,-0.999928740086,0.0,0.659360989246,0.257768479547,0.303602231197,1.0,-0.00986,-0.0129588571429,0.494
0.463221369251,0.533703138984,-0.12405842219,-1.37736770522,0.0781986933897,1.90199082537,0.156511426807,-0.00660771725855,-0.0604246834024,0.00163800648354,-0.0868247969538,-0.0119254771627,0.0377473848516,-0.014424764576,0.574047829945,0.81880679026,0.00229696762812,0.0,0.818768220382,-0.573987930227,-0.0117134173905,0.0,-0.00827275327794,0.0086049116026,-0.999928755987,0.0,0.659217617735,0.257580102137,0.30360106232,1.0,-0.01014,-0.0133268571429,0.508
0.463060820358,0.532555548122,-0.124063781592,-1.37922740722,0.078098429219,1.90269034968,0.156277774519,-0.00289848634085,-0.057240166284,-0.00230763069473,-0.0917899301122,-0.00302174941096,0.0329920354407,-0.0182149715764,0.574066658135,0.818793611322,0.00228931802949,0.0,0.818754850305,-0.57400668922,-0.0117287141211,0.0,-0.00828947192671,0.00860761968359,-0.99992859422,0.0,0.659002546141,0.257296714316,0.303585914043,1.0,-0.01056,-0.0138788571429,0.529
0.462961649688,0.531824679227,-0.124057903868,-1.38040277304,0.0780347027652,1.90312992525,0.156131158887,-0.00814851711059,-0.059268360124,1.71593623079e-05,-0.0901834677859,-0.014217512091,0.0243349096017,-0.0110449006546,0.574070762181,0.81879073373,0.00228938153134,0.0,0.81875187053,-0.574010685581,-0.0117411347181,0.0,-0.0082995626406,0.00861484343007,-0.999928448307,0.0,0.65886325846,0.257124369238,0.303579590338,1.0,-0.01082,-0.0142205714286,0.542
0.462766580246,0.530406846925,-0.124064074565,-1.38269462887,0.0778791343107,1.90393568366,0.155839296685,-0.00988842226006,-0.0639600271062,-0.00103188378714,-0.0975281826112,-0.00392938895488,0.0350995053007,-0.0101230805421,0.574078562523,0.818785455398,0.00222013086504,0.0,0.818745779059,-0.574018836939,-0.0117673707322,0.0,-0.0083607160365,0.0085732831116,-0.999928296051,0.0,0.658586696852,0.256768392598,0.303557834202,1.0,-0.0113,-0.0148514285714,0.566
0.462674019847,0.529747434792,-0.124058863592,-1.38374698712,0.0778198104139,1.90432812443,0.155692742674,-0.00643971034909,-0.0582720161243,0.00122378950494,-0.0935027225399,-0.00485076735752,0.0362479689012,-0.0192432031058,0.574071950504,0.818790084423,0.00222265494589,0.0,0.818750364861,-0.574012138101,-0.011775069175,0.0,-0.00836564003066,0.00857970166239,-0.999928199815,0.0,0.658462372002,0.256611238744,0.303555307088,1.0,-0.01152,-0.0151405714286,0.577
0.462482155018,0.528338282391,-0.124064923181,-1.38592064347,0.0776847033215,1.90514155848,0.155407879736,-0.0102581867881,-0.0638208788879,-0.00182866783992,-0.100647040116,-0.00674619465344,0.0323891500027,-0.0134355567815,0.574081583322,0.81878322714,0.00226043055159,0.0,0.818744042831,-0.574021671498,-0.0117498885122,0.0,-0.0083232357591,0.00859627415421,-0.999928411346,0.0,0.658211475833,0.256275233859,0.303583702516,1.0,-0.01196,-0.0157188571429,0.599
0.462381072472,0.527570085611,-0.124068139139,-1.38712087676,0.0776114747336,1.90561493464,0.155230748183,-0.00505096340135,-0.0641044823085,-0.0019311103909,-0.103724645092,-0.00614636657727,0.0302704398653,-0.0152039416234,0.574067001259,0.818793359891,0.00229319968045,0.0,0.818754641959,-0.574007010174,-0.0117275506008,0.0,-0.00828628740408,0.00861013346055,-0.999928598972,0.0,0.658075811483,0.256094717721,0.303594332553,1.0,-0.0122,-0.0160342857143,0.611
0.462191115731,0.526142085522,-0.124072781018,-1.38934009574,0.0774696196906,1.90645406224,0.154929389446,-0.0106995189667,-0.0644097896331,-0.000861501853413,-0.11043296731,-0.0123784506573,0.0447255179582,-0.0183045808371,0.574060733126,0.818797657012,0.00232775754458,0.0,0.818759466415,-0.574000696517,-0.0116997203352,0.0,-0.00824372786355,0.00862238956584,-0.999928845143,0.0,0.657818125229,0.255756364185,0.303615792175,1.0,-0.01262,-0.0165862857143,0.632
0.462077603763,0.525237842189,-0.124076891971,-1.39073453428,0.0773824914898,1.90695411822,0.154745901465,-0.00773566831721,-0.0681624901944,-3.11822396989e-05,-0.104020344559,-0.00788225073783,0.0395100922784,-0.0171321453337,0.574057829061,0.818799674138,0.00233440080923,0.0,0.818761570936,-0.573997769572,-0.011696041438,0.0,-0.00823693264684,0.00862568790149,-0.999928872695,0.0,0.65764918212,0.25554552451,0.30363161109,1.0,-0.01288,-0.016928,0.645
0.461880509239,0.523788264254,-0.124089596724,-1.39305473733,0.0772290080648,1.90778503396,0.154426915643,-0.00813664040626,-0.0698902146097,-4.80633471085e-05,-0.111359282866,-0.00763244508624,0.0355455123181,-0.0180351436416,0.574050136711,0.818805191618,0.00229033248691,0.0,0.818766610813,-0.57399033957,-0.0117078605444,0.0,-0.00827198753598,0.00859631221969,-0.999928836287,0.0,0.657369556178,0.255183775257,0.303618982504,1.0,-0.0133,-0.01748,0.666
0.461774423129,0.522952872778,-0.124093590249,-1.39440569319,0.0771500678717,1.90829076986,0.154254073798,-0.0090525635752,-0.0698917073453,0.000631860232747,-0.116387689698,-0.00738564201258,0.0473182150495,-0.0126791633523,0.574049554915,0.818805624853,0.00228125243945,0.0,0.818766902752,-0.573989767331,-0.0117154964594,0.0,-0.00828345832418,0.00859325496914,-0.999928767607,0.0,0.657206908201,0.254983886629,0.303607165935,1.0,-0.01354,-0.0177954285714,0.678
0.461580335336,0.521424087289,-0.124099995629,-1.39683694321,0.0770003291561,1.90924088458,0.15391891545,-0.00872580268426,-0.0725490476152,-5.81740068362e-05,-0.114466753551,-0.00557684742793,0.0457071443328,-0.0124782385268,0.574028586699,0.818820228052,0.00231574742308,0.0,0.818782027305,-0.573968750555,-0.0116881157762,0.0,-0.00824145764394,0.00860557063388,-0.999929008745,0.0,0.656923112323,0.254624354774,0.303606743575,1.0,-0.01396,-0.0183474285714,0.699
0.461452359104,0.520452818444,-0.124103086699,-1.39838414226,0.0769091983479,1.90981784292,0.153718568643,-0.0118721711271,-0.0774968678718,-0.00107585279254,-0.116746664291,-0.00846425075298,0.0443460170745,-0.00771981925729,0.574029543632,0.818819555479,0.00231635566973,0.0,0.818781331986,-0.57396967314,-0.0116915185941,0.0,-0.00824388487181,0.00860803159485,-0.999928967554,0.0,0.656737089308,0.254392020372,0.303602635644,1.0,-0.01422,-0.0186891428571,0.712
0.461243743258,0.518819791266,-0.124111980749,-1.40092643217,0.0767445757915,1.91072456399,0.153375323853,-0.00898988014727,-0.0782668984498,0.000369065960295,-0.116823480492,-0.00821055096211,0.0479734573892,-0.0112636732582,0.574016112345,0.818828995705,0.00230769639571,0.0,0.818790701602,-0.573956318978,-0.0116909271046,0.0,-0.0082485119807,0.00860046646282,-0.999928994492,0.0,0.656424491635,0.254004528104,0.303617918723,1.0,-0.01464,-0.0192411428571,0.733
0.461111985656,0.517780499341,-0.124106827259,-1.40254522274,0.0766312790131,1.91130143441,0.153156225953,-0.00888627418528,-0.0811548766596,0.000692430751345,-0.123195508257,-0.0106685997088,0.0429207803627,-0.0137945896265,0.573995941865,0.818843159002,0.00229925637179,0.0,0.818804803026,-0.573936231741,-0.0116894540989,0.0,-0.00825236186705,0.00859250680837,-0.999929031157,0.0,0.65622248334,0.253763456803,0.303626559968,1.0,-0.0149,-0.0195828571429,0.746
0.460882378505,0.516117492679,-0.124115996231,-1.4051773719,0.0764622590775,1.91228022904,0.152784065159,-0.011886511511,-0.0794867199606,-0.000917609568715,-0.119884461941,-0.00725869889632,0.0448502624746,-0.0218781890161,0.57397931297,0.818854815084,0.00229934720535,0.0,0.818816537726,-0.573919685195,-0.0116798712635,0.0,-0.00824463693422,0.00858691332579,-0.99992914293,0.0,0.655907554842,0.253356038164,0.303625405708,1.0,-0.01532,-0.0201348571429,0.767
0.460757720575,0.515144301755,-0.124123713239,-1.40672508165,0.0763727009175,1.91286140638,0.152587272222,-0.0067628040698,-0.080736197376,-0.000377498096318,-0.128404510051,-0.010707379393,0.0484776879401,-0.0106893820572,0.57398331553,0.81885199489,0.00230453001201,0.0,0.818813763352,-0.5739236459,-0.0116797484169,0.0,-0.00824151969925,0.00859112701862,-0.999929132434,0.0,0.655720192507,0.253123833944,0.303621756255,1.0,-0.01556,-0.0204502857143,0.779
0.460531451035,0.513509063078,-0.124119686849,-1.4093767659,0.0762219119372,1.91379220289,0.152218379971,-0.0143494367145,-0.0816164648554,0.00127595900378,-0.133906715703,-0.00650646791244,0.0486598050727,-0.0131419040516,0.573962287523,0.818866916572,0.00223882678154,0.0,0.818827596449,-0.573902621487,-0.0117428805861,0.0,-0.00833114825867,0.00857334881925,-0.999928542276,0.0,0.655383550195,0.252723482563,0.303586348807,1.0,-0.01596,-0.020976,0.799
0.460404103056,0.512600396838,-0.124122764912,-1.41084595011,0.0761362955698,1.91430388055,0.152010678332,-0.0105681795248,-0.0841371833798,0.00155095673164,-0.132843315379,-0.00768009937374,0.0451196983208,-0.0223303237927,0.573952500397,0.818873883904,0.00219919296393,0.0,0.818833953393,-0.573892889049,-0.0117752100007,0.0,-0.00838047209348,0.00855934988553,-0.999928250034,0.0,0.655197583197,0.252496745086,0.303568142715,1.0,-0.01618,-0.0212651428571,0.81
0.460163705592,0.510832943272,-0.124128452956,-1.41369124852,0.075948533982,1.91537152475,0.151608843233,-0.00892471194829,-0.0826327096777,0.000987262288968,-0.132261121445,-0.01148777633,0.0587100083727,-0.0176529935007,0.573922479958,0.81889497852,0.00217900330253,0.0,0.818854896775,-0.573863063412,-0.0117723990846,0.0,-0.00839007052002,0.00854089644079,-0.999928327334,0.0,0.654851459394,0.252063669593,0.303544343431,1.0,-0.0166,-0.0218171428571,0.831
0.460008122958,0.509697251748,-0.124140485371,-1.41549893553,0.0758365279215,1.91606356649,0.151360277197,-0.0160773370419,-0.087759205274,-0.00252609528376,-0.136970704903,-0.0104796407201,0.0556264088696,-0.015117360084,0.57391907293,0.818897335634,0.00219050679429,0.0,0.818857469055,-0.573859679535,-0.0117584215954,0.0,-0.00837205777682,0.00854225973565,-0.999928466665,0.0,0.654636146892,0.251784039102,0.303539261939,1.0,-0.01686,-0.0221588571429,0.844
0.459766787818,0.507925195034,-0.124137702286,-1.41827210793,0.0756597149385,1.91705763734,0.150963032628,-0.0145486694448,-0.091902341703,0.00195790872444,-0.136628875806,-0.0146496621437,0.0545736353278,-0.0188379587245,0.573885427757,0.818920936438,0.00218233201801,0.0,0.818880915477,-0.573826020785,-0.011768221551,0.0,-0.00838512555447,0.00854084533725,-0.99992836925,0.0,0.654288127936,0.251360920806,0.303545135487,1.0,-0.01726,-0.0226845714286,0.864
0.459604440637,0.506768443249,-0.124141786032,-1.42010629234,0.0755451204933,1.91772228653,0.150712946023,-0.0141978527087,-0.083290228257,0.00109057999623,-0.14505376497,-0.0129719107495,0.0501353594182,-0.0185438127634,0.573880434435,0.818924470792,0.00216910394084,0.0,0.818884261225,-0.573821062121,-0.0117771934328,0.0,-0.00840011610045,0.00853511028907,-0.9999282924,0.0,0.654060141762,0.251076537845,0.303538775548,1.0,-0.01752,-0.0230262857143,0.877
0.459326958338,0.504791359941,-0.124152194709,-1.42314625309,0.075354682648,1.9188991994,0.150294308104,-0.0179566351773,-0.102162051561,-0.00103532523959,-0.149141270113,-0.0107862528108,0.0579664672626,-0.0131869587931,0.573877962686,0.81892595878,0.00225939822154,0.0,0.8188870245,-0.573818351939,-0.011716952867,0.0,-0.00829899247806,0.00857445801189,-0.999928800162,0.0,0.653700604159,0.250603389648,0.303575974751,1.0,-0.01794,-0.0235782857143,0.898
0.459160209337,0.503520535326,-0.124152865485,-1.42504623266,0.0752337389345,1.91960693281,0.150035845924,-0.0137463212562,-0.0941983300632,-8.84329028224e-06,-0.14464874217,-0.00622037577169,0.0543061331244,-0.017326402105,0.573868229866,0.818932596791,0.00232455669548,0.0,0.818894526142,-0.573808397594,-0.0116801030367,0.0,-0.00823152544046,0.00860657251115,-0.999929081935,0.0,0.653467541635,0.250313825498,0.303620648583,1.0,-0.0182,-0.02392,0.911
0.458881623076,0.501540100188,-0.124161462576,-1.42799123861,0.0750417825711,1.92069908183,0.149630733175,-0.015290092738,-0.0940319772604,0.000385430842689,-0.150749467046,-0.0112509512192,0.0523600801675,-0.0200875696846,0.57386949255,0.818931415188,0.00242685796896,0.0,0.818894765226,-0.573809391527,-0.011614326576,0.0,-0.00811893931961,0.00865261557489,-0.999929605056,0.0,0.65311132776,0.249846641732,0.303696365292,1.0,-0.0186,-0.0244457142857,0.931
0.458699772265,0.500212899465,-0.124157514545,-1.42998934781,0.0749186876942,1.92138973125,0.149350755517,-0.0156361694736,-0.0992743100055,0.000862384980348,-0.151632563657,-0.00407020271044,0.0554397493323,-0.0181069802638,0.573854647277,0.818941756036,0.00244763563648,0.0,0.818905262117,-0.573794353938,-0.0116171411262,0.0,-0.00810947857789,0.00867109907133,-0.999929521715,0.0,0.652853894015,0.249537745567,0.303731084404,1.0,-0.01886,-0.0247874285714,0.944
0.458389483235,0.49814464911,-0.124163193617,-1.43322915961,0.0747186292829,1.92259285136,0.148881123407,-0.0115623498911,-0.0967275882985,-0.000325120454064,-0.155803919292,-0.00934204741845,0.0560121584013,-0.0171440113737,0.573839028942,0.818952626474,0.00247211562407,0.0,0.818916424328,-0.573778624282,-0.011607203993,0.0,-0.00808745880289,0.00868528997421,-0.999929576894,0.0,0.652456065024,0.249024243529,0.303735918148,1.0,-0.01928,-0.0253394285714,0.965
0.458185363636,0.496859383054,-0.124157934287,-1.43525933098,0.0745903765622,1.92332692407,0.148582421499,-0.0173729856366,-0.0967289450872,-0.00255497225765,-0.153353401923,-0.00908971971356,0.0501461700741,-0.0261291288392,0.573825887988,0.818961862837,0.00246259906661,0.0,0.81892547677,-0.573765453346,-0.0116195931642,0.0,-0.00810320540508,0.00868447568327,-0.999929456484,0.0,0.652202157774,0.248699507152,0.30372896016,1.0,-0.01954,-0.0256811428571,0.978
0.457870019195,0.49489436144,-0.124160718347,-1.43847442318,0.0743950435212,1.92443359529,0.148120806056,-0.0182088065892,-0.0963515352398,-0.000830753321998,-0.163290832601,-0.0060072245637,0.0570250649327,-0.0252107573058,0.573815637356,0.818969438482,0.00232810206873,0.0,0.81893114298,-0.57375551537,-0.0117106166577,0.0,-0.00825503468119,0.00862645633542,-0.999928716786,0.0,0.651765148947,0.24815218006,0.303655685999,1.0,-0.01996,-0.0262331428571,0.999
0.45764284983,0.493509875622,-0.124166040151,-1.44074869008,0.074246298333,1.92524788357,0.14780387597,-0.0164886472295,-0.101278781177,-0.00121908598841,-0.165750559351,-0.0102251044037,0.0599042662051,-0.0207717472595,0.573821650688,0.818965383678,0.00227166024937,0.0,0.818926317427,-0.573761699742,-0.0117450174907,0.0,-0.00831553120939,0.00860003326362,-0.999928443124,0.0,0.651498412421,0.24780951429,0.30361616912,1.0,-0.0206085714286,-0.0270855510204,1.012
0.457314312262,0.49138489836,-0.124169963981,-1.44415029071,0.0740268124735,1.92648848234,0.147324849183,-0.0175702225058,-0.106869075061,-0.00063282019672,-0.173593113226,-0.0136601386528,0.0618391779575,-0.0206462065282,0.573812066187,0.818972202775,0.00223398349112,0.0,0.818932642622,-0.57375225499,-0.0117653577479,0.0,-0.00835390872423,0.00858075144877,-0.999928288886,0.0,0.651069208161,0.247266896712,0.303583574125,1.0,-0.0217514285714,-0.0285875918367,1.032
0.457079675418,0.489956243309,-0.12416575782,-1.44645238555,0.0738835069337,1.92728573323,0.146998929282,-0.0208399819276,-0.11098888127,0.00294213805687,-0.178107888037,-0.00294537444883,0.0681303782339,-0.0210173462626,0.573810038839,0.818973793245,0.00217076175489,0.0,0.818933266986,-0.573750325243,-0.0118158964243,0.0,-0.00843159658667,0.00855795376905,-0.999927832199,0.0,0.650770073354,0.246893748836,0.303550493955,1.0,-0.0224942857143,-0.0295639183673,1.045
0.456674883947,0.487478932591,-0.124185219355,-1.45029473015,0.0736460223298,1.92873731235,0.14643431677,-0.0201354074302,-0.127371636757,-0.00054781440085,-0.183219119186,-0.00850044257911,0.0734882780761,-0.0229351387249,0.573819937771,0.818966673795,0.00223900208554,0.0,0.818927083548,-0.573760008476,-0.0117741839044,0.0,-0.00835817529404,0.00859000630754,-0.999928173769,0.0,0.650304475308,0.246256507733,0.30356981209,1.0,-0.0236942857143,-0.0311410612245,1.066
0.456412949675,0.48587356174,-0.1241904577,-1.45272919017,0.073490502067,1.92967105573,0.14607028675,-0.0198821291708,-0.125598197253,0.000576989641981,-0.188597828469,-0.0123933906232,0.0724147814551,-0.0320032319052,0.573818389393,0.818967522429,0.00232381188925,0.0,0.818929100769,-0.573758209403,-0.0117214315114,0.0,-0.00826632472803,0.00862917627046,-0.999928600047,0.0,0.650011900951,0.245854120101,0.303607062863,1.0,-0.0244371428571,-0.0321173877551,1.079
0.455995782487,0.483338214385,-0.124228857457,-1.45663332951,0.0732402790487,1.93102187075,0.145484835783,-0.017235542787,-0.130405337458,-0.000871452835241,-0.199210021649,-0.00533717564618,0.0609088879544,-0.0362607223901,0.573831867496,0.818958143556,0.00230083682489,0.0,0.818919447738,-0.573771796769,-0.0117307395269,0.0,-0.0082869889366,0.00861583807337,-0.999928544021,0.0,0.649516095718,0.245183124347,0.303626639282,1.0,-0.02558,-0.0336194285714,1.099
0.455705370115,0.481596455241,-0.124246959115,-1.45931180502,0.0730679066088,1.931948589,0.145083571213,-0.0247569763843,-0.13352779273,0.000119532330671,-0.20675494902,-0.0180521250447,0.0719315831055,-0.0434034656689,0.573838072408,0.818953829721,0.00228874229626,0.0,0.818914960176,-0.573778028995,-0.0117391798836,0.0,-0.00830077609553,0.0086108394478,-0.999928472722,0.0,0.649173647773,0.244725016385,0.303640575138,1.0,-0.0263228571429,-0.034595755102,1.112
0.455226462549,0.478746790393,-0.124256496348,-1.4637149398,0.0727995171126,1.93359512093,0.144426281987,-0.0260370197462,-0.139708046357,0.000693892286495,-0.210901587655,-0.0135138547051,0.071079604505,-0.0406940785215,0.573840879778,0.818951635311,0.00236867446066,0.0,0.818913730294,-0.57378046209,-0.0117060053092,0.0,-0.00822771147332,0.00865729110345,-0.999928675494,0.0,0.648627321189,0.243993432892,0.303662669185,1.0,-0.0275228571429,-0.0361728979592,1.133
0.454911514963,0.476908432589,-0.124266925033,-1.46650823008,0.0726251215747,1.93460873756,0.14402970085,-0.0269879811837,-0.141098083117,-0.000332580390547,-0.219824492267,-0.0161823874782,0.0721961596227,-0.0322901274916,0.573869442288,0.818931476676,0.00241797815502,0.0,0.818894180795,-0.573808808478,-0.0116841291834,0.0,-0.00818120151528,0.00868540015943,-0.999928813349,0.0,0.648277455323,0.243517505296,0.303694215481,1.0,-0.0282657142857,-0.0371492244898,1.146
0.454419070873,0.474017065374,-0.124270086081,-1.47099005386,0.0723446543234,1.9362348248,0.143392380587,-0.02392350711,-0.145820179765,0.000349963664991,-0.228015143454,-0.0179738888277,0.0864584844194,-0.0382384630381,0.573892757491,0.818915046521,0.00244875109632,0.0,0.818878031066,-0.573831882902,-0.0116827781009,0.0,-0.00816218846708,0.00871005791142,-0.999928754247,0.0,0.647705480491,0.24276976548,0.303702618409,1.0,-0.0294085714286,-0.0386512653061,1.166
0.454067967726,0.471938982963,-0.124272830507,-1.47421719231,0.0721378131872,1.93733648176,0.142916813621,-0.0234092637716,-0.151924428882,-0.000902620426781,-0.228437251302,-0.0183362705914,0.0768907117687,-0.0377759591433,0.573890566662,0.818916697744,0.00240967929362,0.0,0.818879024119,-0.573829674247,-0.0117215917392,0.0,-0.00821641990685,0.00870031426182,-0.999928394924,0.0,0.647276945968,0.242228352625,0.303698805409,1.0,-0.0302085714286,-0.0397026938775,1.18
0.453613288574,0.469176077689,-0.124264797419,-1.47840595628,0.0718628225102,1.93892882985,0.14225393493,-0.0260590833098,-0.158445034425,0.000803357206183,-0.230823072632,-0.0176190739472,0.0965080786765,-0.0388065934778,0.573838863875,0.818952515698,0.00254602436974,0.0,0.818916669856,-0.573777550329,-0.011642915095,0.0,-0.00807429843644,0.00876630774715,-0.999928976254,0.0,0.646749792255,0.241543871343,0.303751190157,1.0,-0.0312371428571,-0.0410545306122,1.198
0.453208989249,0.466824269986,-0.124272566463,-1.48201557461,0.0716167396508,1.9402638782,0.141678158011,-0.0317099378048,-0.155823816388,-0.00141261430104,-0.243696123023,-0.0221420808694,0.0861935078381,-0.0366716367282,0.573807541503,0.818974291966,0.00260025281211,0.0,0.818939271416,-0.57374617713,-0.0115991750899,0.0,-0.00800769526911,0.00878531242975,-0.999929345055,0.0,0.64629154379,0.240933472662,0.30377211314,1.0,-0.0320942857143,-0.0421810612245,1.213
0.452641030773,0.463597518916,-0.124275769518,-1.48707536464,0.0712746593638,1.94196183576,0.140942315085,-0.0266994276739,-0.158270524685,-0.00110948340775,-0.255922907654,-0.0228522910572,0.09119308517,-0.0339343687415,0.573815597975,0.818969022595,0.00247920374088,0.0,0.81893227384,-0.573754485876,-0.0116819390988,0.0,-0.00814484879157,0.00873374697798,-0.999928689008,0.0,0.645607085272,0.240070558233,0.303736023645,1.0,-0.0332371428571,-0.0436831020408,1.233
0.452228369036,0.461282301578,-0.124279332851,-1.49068802419,0.071036904231,1.9432471475,0.14040040693,-0.0312730742741,-0.173780526595,-0.000399374191223,-0.255018350144,-0.010740121631,0.0927321674503,-0.0361768744929,0.573815808965,0.818968918199,0.0024648135762,0.0,0.818931924807,-0.573754686793,-0.0116965301031,0.0,-0.0081650534664,0.00873033649548,-0.999928554011,0.0,0.645132205817,0.239455408931,0.303722931263,1.0,-0.0340371428571,-0.0447345306122,1.247
0.451608041355,0.457928223778,-0.124278997487,-1.49590074242,0.0706889451592,1.9450930616,0.139594160025,-0.03042311578,-0.171431637678,-0.00211656456768,-0.264828261644,-0.0151361308696,0.0967584370719,-0.0430561896923,0.573808526792,0.818974099585,0.00243837873664,0.0,0.818936653181,-0.573747384802,-0.0117236262224,0.0,-0.0082024907294,0.00872416238026,-0.999928301498,0.0,0.644410361388,0.2385078931,0.303701095306,1.0,-0.0352371428571,-0.0463116734694,1.268
0.451180063808,0.455752296486,-0.124298463486,-1.49945526877,0.0704500808853,1.94631142499,0.139060575305,-0.0339641422448,-0.171340416033,-0.00185078316526,-0.275555050734,-0.02041939849,0.0867479513474,-0.0372589383539,0.573834861647,0.81895604215,0.00230206132205,0.0,0.818916794154,-0.573774195859,-0.0117984456437,0.0,-0.00834170556767,0.00865572275087,-0.999927744596,0.0,0.643970665336,0.237921644532,0.303620924621,1.0,-0.0359228571429,-0.0472128979592,1.28
0.450459496681,0.451774613977,-0.124343824612,-1.50546714482,0.0700332535968,1.94847907904,0.138095891303,-0.0373916997783,-0.183188893598,-0.000786497576813,-0.280491500123,-0.0183108547474,0.107430399129,-0.0446612726174,0.573827709001,0.818960796151,0.00239199759714,0.0,0.818923007579,-0.57376701071,-0.0117163125463,0.0,-0.00822290965646,0.00868217381152,-0.999928499251,0.0,0.643192609188,0.236855591346,0.303680187103,1.0,-0.03718,-0.0488651428571,1.302
0.450055191803,0.44953296108,-0.124360509016,-1.50877993937,0.0698034892654,1.94972468121,0.137597910186,-0.0359169800703,-0.191781599204,-0.00190862431074,-0.273043053509,-0.0257680821137,0.100494877654,-0.0363270258823,0.573850125154,0.818944682672,0.00252734753254,0.0,0.818908862206,-0.573789165725,-0.011619621273,0.0,-0.00806581771594,0.00873775664289,-0.999929294597,0.0,0.642772564612,0.236272780322,0.303749359652,1.0,-0.0378657142857,-0.0497663673469,1.314
0.449371121226,0.445779768669,-0.124368417128,-1.51451885573,0.0694136460093,1.95161928172,0.136747468622,-0.0325510012764,-0.183640820929,0.00076724108862,-0.286719685656,-0.015087460475,0.0945537693274,-0.0388262568222,0.573869240697,0.818931529919,0.00244760862573,0.0,0.818894449468,-0.573808319641,-0.0116893046402,0.0,-0.0081684392078,0.00871263324142,-0.999928680768,0.0,0.641975054711,0.235269739536,0.303754298892,1.0,-0.0390085714286,-0.0512684081633,1.334
0.448917793477,0.443306063191,-0.124366489197,-1.51830546896,0.0691463435067,1.95299413397,0.136149755833,-0.0353683005228,-0.192182327444,0.000759152238057,-0.298606024445,-0.0190834694547,0.0993380020147,-0.0484599257659,0.573849884689,0.818944932239,0.0025009404773,0.0,0.818908675631,-0.573788916735,-0.0116450380275,0.0,-0.00810178893562,0.00873071367669,-0.999929065312,0.0,0.641433001726,0.234563043051,0.303772790085,1.0,-0.0398085714286,-0.0523198367347,1.348
0.448135085519,0.439316074464,-0.12437482001,-1.52452268935,0.0687221498118,1.95518667181,0.135132089391,-0.0400874624212,-0.193901878926,0.00135404515509,-0.299508199134,-0.0193239301424,0.106520357684,-0.0421904848879,0.57381604848,0.818968798808,0.00244867035384,0.0,0.81893175541,-0.573755155039,-0.0116854160794,0.0,-0.00816521113726,0.00871074089959,-0.99992872362,0.0,0.640631137596,0.233514430179,0.303724261644,1.0,-0.0409514285714,-0.053821877551,1.368
0.447625171234,0.436757832514,-0.124381197956,-1.52848967025,0.0684639721028,1.95655729353,0.134511984983,-0.0430287103116,-0.205438778559,0.000470861739244,-0.303112607074,-0.0212408395958,0.106723165756,-0.0403306264167,0.573833330456,0.818956780631,0.00241810223596,0.0,0.818919154181,-0.57377234829,-0.0117242549994,0.0,-0.00821437608345,0.00870816619039,-0.999928343366,0.0,0.640088903504,0.232804069429,0.303702587489,1.0,-0.0416942857143,-0.0547982040816,1.381
0.446783002295,0.432463674508,-0.124410694138,-1.5349123337,0.0680079620335,1.95886892136,0.133474239587,-0.0403712808294,-0.201409952381,-0.00147031559305,-0.309167751282,-0.0251985174423,0.104755470611,-0.0505232510266,0.573847281484,0.81894660274,0.00255074408543,0.0,0.818910965242,-0.573786110263,-0.0116222879351,0.0,-0.00805460676959,0.00875841926397,-0.999929204195,0.0,0.639237462437,0.231635203833,0.303775745534,1.0,-0.0428942857143,-0.0563753469388,1.402
0.446294057,0.429985931758,-0.124429146272,-1.53873760362,0.0677249672017,1.96010237793,0.132879172889,-0.0405203170918,-0.206197805278,-0.00432050253705,-0.323275563439,-0.0185462684198,0.104821957995,-0.0509626729777,0.573858877102,0.818938815425,0.00243980810744,0.0,0.818901744811,-0.573798103937,-0.0116796902339,0.0,-0.0081651516231,0.00870062455267,-0.999928812182,0.0,0.638693658741,0.230935584444,0.303750800904,1.0,-0.04358,-0.0572765714286,1.414
0.445377394917,0.42537328697,-0.124450568379,-1.54577398094,0.0672185800961,1.9625169879,0.131714213419,-0.0452775127768,-0.214133616777,0.00148318718103,-0.316698919416,-0.0190036997494,0.110657977127,-0.0491580667238,0.57382969246,0.818959349355,0.00241144284595,0.0,0.818921977821,-0.573769097012,-0.0116860796577,0.0,-0.00818697043329,0.00868077017257,-0.999928806338,0.0,0.637717812732,0.229658632283,0.303750493151,1.0,-0.0448371428571,-0.0589288163265,1.436
0.444818087445,0.422600184721,-0.124459055674,-1.54997422162,0.0669251575289,1.96396790157,0.131019088623,-0.0395924560476,-0.220573409253,-0.000195320550929,-0.327959125525,-0.0140631567502,0.108299170271,-0.0513798856148,0.573820199075,0.818965959811,0.00242542895925,0.0,0.818928732133,-0.573759514125,-0.0116832589643,0.0,-0.00817673587773,0.00869051076649,-0.999928805472,0.0,0.637134897406,0.228894370684,0.303761837089,1.0,-0.04558,-0.0599051428571,1.449
0.443920917395,0.418240155744,-0.124473828518,-1.55654693707,0.0664585303741,1.96628031298,0.129985376823,-0.0431565267729,-0.224160438704,-0.0017978345009,-0.32186751912,-0.0250606555357,0.115864293153,-0.0501108078455,0.573863762815,0.818935228728,0.00249394806888,0.0,0.81889896607,-0.573802908988,-0.0116383807844,0.0,-0.00810020132686,0.00872130439715,-0.999929160285,0.0,0.63623098073,0.227686802147,0.303793347212,1.0,-0.0467228571429,-0.0614071836735,1.469
0.443328608108,0.415345799303,-0.124469985744,-1.56083337919,0.0661712270181,1.96783651062,0.129271621532,-0.0433524865019,-0.225097465438,0.00147386327627,-0.335283436372,-0.0243614930867,0.112430682115,-0.0527368498513,0.573859367462,0.818937870066,0.00263405559579,0.0,0.818903364676,-0.573797966576,-0.0115723712953,0.0,-0.0079657907216,0.00879812005274,-0.99992956715,0.0,0.635646248965,0.226909907896,0.303849454803,1.0,-0.0474657142857,-0.0623835102041,1.482
0.44235573773,0.410642301055,-0.124494698484,-1.56803201733,0.0656470488753,1.97019730455,0.12804519251,-0.0478713581266,-0.226098333186,-0.00242330395159,-0.343507747412,-0.0248554314261,0.105217950627,-0.056195529915,0.573816824575,0.818968087915,0.0025039392789,0.0,0.818931789661,-0.573755763326,-0.0116531040391,0.0,-0.00810702682625,0.0087374708544,-0.999928963836,0.0,0.634605354086,0.225578448964,0.303812477178,1.0,-0.0486657142857,-0.0639606530612,1.503
0.441783544849,0.407896230374,-0.124506207814,-1.57219032823,0.0653584857137,1.97158133152,0.12738062509,-0.0502220740925,-0.231995847404,-0.000528679549364,-0.346412288904,-0.0256665326341,0.120306917928,-0.0602458093281,0.573837274771,0.818953836001,0.00247860524779,0.0,0.818917056158,-0.573776137111,-0.0116853119638,0.0,-0.00814772338202,0.0087354078687,-0.999928651081,0.0,0.634005690975,0.224809361354,0.303809850959,1.0,-0.0493514285714,-0.064861877551,1.515
0.440729393261,0.403105193015,-0.124517719743,-1.57953473967,0.0648646421621,1.97411971875,0.126151071933,-0.0523729787658,-0.228340925716,-0.00174769790449,-0.352807989043,-0.0311414645388,0.12637063378,-0.0574721448259,0.573859340463,0.81893840375,0.00246883135842,0.0,0.818901176535,-0.57379789247,-0.0117298153192,0.0,-0.00818954367755,0.00875316151238,-0.999928154188,0.0,0.632963417805,0.223438077641,0.303769214837,1.0,-0.0505514285714,-0.0664390204082,1.536
0.440003691027,0.399806269146,-0.124541250106,-1.58440119984,0.0645145026917,1.97588501311,0.125311359318,-0.0480142843594,-0.23163491235,-0.0063264481378,-0.34734384983,-0.0238185876355,0.133124130426,-0.0574244643485,0.57387822241,0.818924699071,0.00262106750488,0.0,0.818889657726,-0.5738164583,-0.0116252980482,0.0,-0.00801638637339,0.00881804022544,-0.999928987337,0.0,0.632297944749,0.222507435217,0.303829758453,1.0,-0.0513514285714,-0.0674904489796,1.55
0.438933859583,0.394970186137,-0.124553804752,-1.59159909153,0.0639579686927,1.97827498118,0.124099174507,-0.0539419217587,-0.244818451203,-0.000637188013994,-0.370681974331,-0.0332803833311,0.121980261684,-0.0557735319589,0.573893432462,0.818914052881,0.00261707331041,0.0,0.81887911162,-0.573831847246,-0.0116085545958,0.0,-0.00800480259733,0.00880530943989,-0.999929192324,0.0,0.631256244356,0.221128628107,0.303865680715,1.0,-0.0524942857143,-0.0689924897959,1.57
0.438245531852,0.391812661623,-0.124568008524,-1.5963902302,0.0635964721042,1.97980398721,0.123304322201,-0.0491055261505,-0.24594601348,-0.000739373712408,-0.365006379444,-0.0295287431909,0.110087933955,-0.0659476620827,0.573898684821,0.818910687053,0.00251656373409,0.0,0.818874355297,-0.573837355685,-0.0116716048196,0.0,-0.00811405986404,0.00875923680348,-0.999928716361,0.0,0.63053902083,0.220220723071,0.30384029949,1.0,-0.0532371428571,-0.0699688163265,1.583
0.437171729956,0.38697975651,-0.124555965734,-1.60375277449,0.0630425489381,1.98231033315,0.121980408348,-0.0564165521396,-0.235054154913,0.00111921081,-0.372526270027,-0.0211682455331,0.124320407562,-0.0737440573021,0.573808266578,0.8189741618,0.00247838895244,0.0,0.818937295569,-0.573747043737,-0.0116954106766,0.0,-0.00815642785756,0.00874073675958,-0.999928533549,0.0,0.629456257577,0.2188473927,0.303796494892,1.0,-0.05438,-0.0714708571429,1.603
0.436444431678,0.383738891325,-0.124564105523,-1.60855298437,0.0626998864283,1.98391968952,0.1211175536,-0.0585471413677,-0.251673157596,-0.000939942081701,-0.366006529598,-0.0230442241107,0.123696715758,-0.0722795348591,0.573787367913,0.818988677624,0.00251977152152,0.0,0.818952213811,-0.573725853808,-0.0116902980517,0.0,-0.00812872017783,0.00877148669333,-0.999928489908,0.0,0.628750806217,0.217929361803,0.303822664356,1.0,-0.0551228571429,-0.0724471836735,1.616
0.435226394162,0.378440674621,-0.124570115865,-1.61640247264,0.0621114390298,1.9866083524,0.119755602582,-0.0594781088813,-0.251191279831,-0.00313404597887,-0.382919927702,-0.0296479479466,0.120960535994,-0.0604411551551,0.573798309534,0.818980706994,0.00261695391424,0.0,0.818945576941,-0.573736530819,-0.0116310839666,0.0,-0.00802434580353,0.00881720890981,-0.999928930825,0.0,0.627605600749,0.216416379258,0.303863621782,1.0,-0.0563228571429,-0.0740243265306,1.637
0.434437464881,0.375113317688,-0.124587099646,-1.62146841625,0.061703615543,1.98818496157,0.118855957878,-0.0629549612954,-0.253189786768,-0.00148274776623,-0.388101463693,-0.0368817587421,0.118453615537,-0.0733261486245,0.57378783736,0.818988536452,0.00245799881208,0.0,0.818951342079,-0.57372662326,-0.0117135806173,0.0,-0.00818322644039,0.00873425967767,-0.999928371191,0.0,0.626830551962,0.215417374316,0.303812149922,1.0,-0.0570657142857,-0.0750006530612,1.65
0.433013284929,0.369140844337,-0.124622663547,-1.63031221029,0.0610421632866,1.99110674615,0.117307487711,-0.0680080083205,-0.261241219877,0.00117297289524,-0.38949918764,-0.0350636824608,0.127647579908,-0.0676866997137,0.573843256084,0.818949629516,0.00248367949802,0.0,0.818912712749,-0.573781881916,-0.0117075951766,0.0,-0.00816299759897,0.0087524097634,-0.999928377832,0.0,0.625513682945,0.213663917342,0.303838360085,1.0,-0.05838,-0.076728,1.673
0.432317454699,0.366234927765,-0.124635094854,-1.63454161701,0.0607199862202,1.99256686459,0.116587514948,-0.0639835178269,-0.265897700176,-0.00142101699626,-0.386790726178,-0.0306524281732,0.134142377436,-0.0638627368284,0.573891242628,0.81891568616,0.00258601948169,0.0,0.818880226996,-0.57382963873,-0.0116390055582,0.0,-0.0080475845389,0.00879733295885,-0.999928919132,0.0,0.624895253813,0.212824011567,0.303885671018,1.0,-0.0590085714286,-0.077554122449,1.684
0.431032385382,0.360934231428,-0.124664173506,-1.64229520365,0.0601173780893,1.99521117048,0.115090388233,-0.0576226697819,-0.264025789672,0.000130788922311,-0.401818121891,-0.0253358844102,0.132599327435,-0.0745898079454,0.573838578871,0.818952155747,0.00272009143876,0.0,0.81891868769,-0.57377680827,-0.0115370770121,0.0,-0.00788774056961,0.00884812394219,-0.999929744658,0.0,0.623749375124,0.211273463833,0.30394673143,1.0,-0.0601514285714,-0.0790561632653,1.704
0.430164685195,0.357453487966,-0.124679501514,-1.64756450556,0.059713022893,1.99677042078,0.114136432511,-0.0680907146629,-0.266203343447,-0.0026004886627,-0.410212962409,-0.0324370888029,0.123245903308,-0.0844298164002,0.573844532351,0.8189486133,0.0025235621497,0.0,0.818912243849,-0.57378304625,-0.0116833048368,0.0,-0.0081202054563,0.0087711454146,-0.999928562084,0.0,0.622910582644,0.210213271262,0.303883888168,1.0,-0.0608942857143,-0.0800324897959,1.717
0.428745992411,0.351794393194,-0.124701729311,-1.65605131155,0.0590736387285,1.99951631332,0.112605623985,-0.068509622718,-0.265704803829,-0.00104776492736,-0.405831405024,-0.037020810718,0.133563961668,-0.0787980164462,0.573874835401,0.818927617523,0.00244488291727,0.0,0.818889952229,-0.573813338398,-0.0117577938404,0.0,-0.00822603404493,0.00874976052017,-0.999927884427,0.0,0.621601031451,0.208514116821,0.303831177671,1.0,-0.0620942857143,-0.0816096326531,1.738
0.427821739313,0.348219083154,-0.124708588155,-1.66125942698,0.0587011246954,2.00127626762,0.111583526571,-0.074288692339,-0.284482383467,0.000108700418167,-0.39435600254,-0.0244219321368,0.14414601383,-0.0815916787349,0.573868656197,0.818931603543,0.00255754828329,0.0,0.818895220123,-0.573806552144,-0.0117220338298,0.0,-0.00813216256796,0.00882144170631,-0.999928022459,0.0,0.620817568416,0.207453050571,0.303867919355,1.0,-0.0628371428571,-0.0825859591837,1.751
0.426394230586,0.342633678022,-0.124719947455,-1.66929207664,0.0580575588853,2.00393169317,0.11011420136,-0.0713505563528,-0.279115977221,-0.00475899677466,-0.415365712299,-0.034229144988,0.118975470372,-0.078135485013,0.573920202711,0.818894999043,0.00270709493476,0.0,0.818860765273,-0.57385779702,-0.0116199310432,0.0,-0.00796216918137,0.0088858180893,-0.999928820516,0.0,0.619592668759,0.20580570744,0.303959104147,1.0,-0.06398,-0.084088,1.771
0.425389027949,0.338696822636,-0.124718208897,-1.67516185629,0.0575823993278,2.00569918069,0.108995356027,-0.0726355764692,-0.283111946294,-0.00041378344724,-0.422330721285,-0.0363817836321,0.126398481453,-0.0848159737174,0.573876199183,0.818926318998,0.00255713992896,0.0,0.818889887683,-0.573814049456,-0.0117275487272,0.0,-0.00813683215162,0.00882434701455,-0.999927958836,0.0,0.618641475823,0.204621757286,0.303911673846,1.0,-0.06478,-0.0851394285714,1.785
0.423945015583,0.333039593997,-0.124714564661,-1.68353364737,0.0568853007711,2.00837576694,0.107392543378,-0.075366578117,-0.283200047132,-0.00149673786641,-0.418940495785,-0.037340114896,0.133597102122,-0.0784839410494,0.573804188335,0.818976978608,0.00249175870951,0.0,0.818939776268,-0.573742370914,-0.0117508112327,0.0,-0.00819417409307,0.00878343413007,-0.999927850795,0.0,0.617309178913,0.202938401145,0.303878006693,1.0,-0.0659228571429,-0.0866414693877,1.805
0.422967761072,0.329265470482,-0.12471361761,-1.68884022335,0.0564775371634,2.01016351602,0.106329173993,-0.0765665012015,-0.289033014163,-0.000935812196934,-0.40835389927,-0.0314522283283,0.143106066279,-0.0834229224987,0.573780537553,0.818992877849,0.00270326833608,0.0,0.818958464456,-0.573718017726,-0.011636860963,0.0,-0.00797974613293,0.0088910400044,-0.999928633983,0.0,0.61649278428,0.201847515199,0.303981836354,1.0,-0.0666657142857,-0.0876177959184,1.818
0.421407003676,0.323533063917,-0.124726699768,-1.69726331862,0.0557957473128,2.01289540513,0.104661721136,-0.0805125448011,-0.289760864427,-0.000776523144485,-0.438006757722,-0.0306365480275,0.126150439132,-0.0807999071885,0.573761743851,0.819006010231,0.00271355841302,0.0,0.818971761138,-0.573699225555,-0.0116275516384,0.0,-0.00796642169437,0.00889394325319,-0.999928714409,0.0,0.615163932749,0.200091583349,0.303963976485,1.0,-0.0678085714286,-0.0891198367347,1.838
0.420281755248,0.319446220496,-0.124765467152,-1.70331504817,0.0552947656482,2.01469239291,0.103553502332,-0.0804632036322,-0.292447279992,-0.000576313849767,-0.429148109558,-0.0366807693866,0.14018486651,-0.0846312420396,0.573839153673,0.81895228831,0.00255383724492,0.0,0.818915825208,-0.573777032649,-0.0117275286898,0.0,-0.00813911000357,0.00882126270956,-0.999927967512,0.0,0.614173311523,0.198802202299,0.303911777898,1.0,-0.0686085714286,-0.0901712653061,1.852
0.418578388623,0.313207107714,-0.12479450014,-1.71234814724,0.0545437507478,2.01751776926,0.101666219239,-0.0822492737747,-0.30102415052,-0.00294355300459,-0.425665609933,-0.0330124688312,0.141093554245,-0.091307865052,0.573754501844,0.819011599946,0.00255297252358,0.0,0.818975160726,-0.573692432725,-0.0117228686239,0.0,-0.00813670102657,0.00881703948563,-0.999928024365,0.0,0.612713741235,0.196894924868,0.303926529332,1.0,-0.0698085714286,-0.0917484081633,1.873
0.417572627338,0.309572340844,-0.12480047688,-1.7173944657,0.0541058639556,2.01923274419,0.100646227858,-0.0820441271002,-0.309753108974,0.00104099049701,-0.419558688331,-0.0328807636126,0.139769852678,-0.0806034576556,0.573762579026,0.819005209791,0.00277779523465,0.0,0.818972161842,-0.573700259858,-0.0115480243952,0.0,-0.00786442170896,0.00890093259862,-0.999929459647,0.0,0.611932753467,0.195812017902,0.304037334524,1.0,-0.0704942857143,-0.0926496326531,1.885
0.415744451773,0.303288682692,-0.124834496567,-1.72655294592,0.053353219907,2.02202463486,0.0987369429964,-0.089688976663,-0.300650838552,-0.00325312643403,-0.451606043516,-0.034091321254,0.126131754099,-0.0939273136589,0.573758365141,0.81900845026,0.00269141865982,0.0,0.818974063487,-0.573696089465,-0.0116201191747,0.0,-0.00797307294324,0.00887151346093,-0.999928860648,0.0,0.61043258257,0.193821220465,0.304002861031,1.0,-0.0716942857143,-0.0942267755102,1.906
0.414605879384,0.299346513628,-0.124876584354,-1.73233672736,0.0528731145936,2.02368606942,0.0976391313395,-0.0888100453129,-0.302162471517,-0.00274515435119,-0.448500545216,-0.0424569619329,0.133176271887,-0.0757178866911,0.57384117107,0.818950948835,0.00252995808376,0.0,0.81891419702,-0.573779159794,-0.0117371464411,0.0,-0.00816066710904,0.00880724601819,-0.999927915367,0.0,0.609456464081,0.192558693566,0.303950770701,1.0,-0.0724371428571,-0.0952031020408,1.919
0.412805632541,0.293212720324,-0.124908380392,-1.74107057461,0.052186681501,2.02647523343,0.0958066667841,-0.093128913446,-0.313377873625,-9.65217499776e-05,-0.426482695235,-0.0360838060616,0.143032108134,-0.0963125106743,0.573874599945,0.818927021785,0.00268764368655,0.0,0.818892141081,-0.573811828081,-0.0116787897937,0.0,-0.00802202925575,0.00890322252828,-0.999928187259,0.0,0.608040099595,0.190650648066,0.30400275467,1.0,-0.07358,-0.0967051428571,1.939
0.411613150384,0.289153103955,-0.12492394602,-1.74674128627,0.0516952388029,2.02835836862,0.0945776742479,-0.0870219456932,-0.313186515365,-0.000113426212435,-0.43748774321,-0.0407214419832,0.141100335954,-0.0897766489472,0.573859622373,0.818936836999,0.00288751063017,0.0,0.818904955481,-0.573796644621,-0.0115252510059,0.0,-0.00778175851649,0.00897864582082,-0.999929411585,0.0,0.607134689103,0.189402402143,0.30408598497,1.0,-0.0743228571429,-0.0976814693877,1.952
0.409385973645,0.281687362279,-0.124938305465,-1.75759414284,0.050738881821,2.03143011008,0.0923060161111,-0.0952392990693,-0.318471826428,-0.00141605760361,-0.455551660147,-0.0488896555211,0.136797978661,-0.100116345159,0.573823490546,0.81896313368,0.00259504762515,0.0,0.81892705462,-0.573761058202,-0.0117249393537,0.0,-0.00811351201403,0.00885337078944,-0.999927891774,0.0,0.605255526227,0.187029297833,0.303995130559,1.0,-0.0756942857143,-0.0994839183673,1.976
0.408443423928,0.278562145742,-0.124933435723,-1.7621444175,0.0503449569269,2.03277541582,0.0913241441673,-0.0986995233343,-0.308883799172,-0.000856831868566,-0.452434513371,-0.0386643587657,0.133156454458,-0.094839271069,0.573782698076,0.818991950754,0.00251930334522,0.0,0.818954722175,-0.573720368971,-0.0117833847535,0.0,-0.00820527959806,0.00882446756585,-0.999927398444,0.0,0.604471870668,0.186042891645,0.303954355847,1.0,-0.0762657142857,-0.100234938776,1.986
0.406484781968,0.272167800484,-0.124959499948,-1.7710184843,0.0495939233388,2.03564717339,0.089404265827,-0.10175554107,-0.318625831092,-0.000386656034805,-0.446652522834,-0.0391868794398,0.141324806492,-0.101077882773,0.573827681202,0.818959442955,0.00282311553938,0.0,0.818926499573,-0.573764656425,-0.0115868129812,0.0,-0.00786947749903,0.00896093067776,-0.999928883994,0.0,0.603018717666,0.184050699467,0.304077323311,1.0,-0.0774085714286,-0.101736979592,2.006
0.405185689714,0.268034784573,-0.124990085514,-1.77695483946,0.0490771368815,2.03737337692,0.0880976498633,-0.0992905574403,-0.324791716893,3.96589950408e-05,-0.457121150969,-0.0355759660125,0.137188844926,-0.0914521966765,0.573830758927,0.818957552199,0.00274494217911,0.0,0.818923453618,-0.573767837333,-0.0116444346297,0.0,-0.00796149142672,0.00893000422037,-0.999928432278,0.0,0.601995312559,0.182707181844,0.304046343493,1.0,-0.0781514285714,-0.102713306122,2.019
0.403042488584,0.261229162644,-0.125063219429,-1.78666614196,0.0482043948064,2.0400882634,0.0860024758405,-0.10634110382,-0.325714772523,-0.00182573536895,-0.4629628486,-0.0416524746753,0.13655377991,-0.101440035671,0.573885830402,0.818919578324,0.0025543695639,0.0,0.818882818438,-0.573823372535,-0.0117649352334,0.0,-0.00816893611979,0.00884362924111,-0.999927526726,0.0,0.600293581775,0.180483619405,0.304004387269,1.0,-0.0793514285714,-0.10429044898,2.04
0.40179677413,0.257316434273,-0.125070343001,-1.79214525104,0.047720505432,2.04175610196,0.0847784034395,-0.105599855864,-0.339441572876,-0.00123425396388,-0.445743999292,-0.035308602479,0.14577636995,-0.106246742871,0.573884261453,0.8189203757,0.00264945674688,0.0,0.818884980923,-0.573821602535,-0.0117005719594,0.0,-0.00806167648082,0.00888454549015,-0.999928034522,0.0,0.599282865801,0.179138144709,0.304047088538,1.0,-0.0800942857143,-0.10526677551,2.053
0.399479119682,0.250093952641,-0.125056609218,-1.80218602877,0.0468175128644,2.0448028327,0.0824956894455,-0.109059920107,-0.324880365425,-0.0016952762432,-0.466896121789,-0.0463424939175,0.127104972659,-0.115855379454,0.573846935811,0.81894608201,0.00278494567451,0.0,0.818912558882,-0.573783939878,-0.0116171487764,0.0,-0.00791601378088,0.00894726447942,-0.999928639046,0.0,0.597621858674,0.176964653495,0.304102341151,1.0,-0.0812942857143,-0.106843918367,2.074
0.398083805083,0.245823700552,-0.125067572973,-1.80830399687,0.0462986661759,2.04646805008,0.0811016776178,-0.106634308302,-0.329794106653,0.0011286355079,-0.465488499333,-0.04110465832,0.131255646104,-0.0994356660939,0.573828944609,0.818959158786,0.00264300408871,0.0,0.818923180292,-0.57376576601,-0.0117650939588,0.0,-0.00811882249851,0.0089157404191,-0.999927294504,0.0,0.596512754083,0.17557480059,0.30404148743,1.0,-0.0820371428571,-0.107820244898,2.087
0.395894816653,0.239157470567,-0.125060460958,-1.81765087112,0.0454714563215,2.04917415036,0.0789166705369,-0.105324398493,-0.34287440388,-0.000263261719963,-0.457310634911,-0.0411767594865,0.134756131757,-0.10614741854,0.57376527824,0.819003722846,0.00265600294003,0.0,0.818967618954,-0.573701736918,-0.0117941961603,0.0,-0.00813589370447,0.00894245281519,-0.999926917215,0.0,0.594848284625,0.173444544337,0.304040241534,1.0,-0.08318,-0.109322285714,2.107
0.394443666668,0.234696023004,-0.125065340741,-1.8235810871,0.0449575698592,2.05103165836,0.0775542414891,-0.112976839147,-0.341797698188,1.47533451407e-05,-0.459498575322,-0.0361769918453,0.141370572602,-0.0974090949619,0.573803348352,0.818975962301,0.00297279246837,0.0,0.818944234706,-0.573738998194,-0.0116038482345,0.0,-0.00779781593369,0.0090930532931,-0.99992825265,0.0,0.593830283052,0.172067030891,0.30418807894,1.0,-0.0839228571429,-0.110298612245,2.12
0.392158880802,0.227961460195,-0.125074530823,-1.83310356979,0.0440287801285,2.05364533616,0.0752978068388,-0.112583282869,-0.336913193888,-0.00211822323349,-0.481239786332,-0.0384802306849,0.128291234176,-0.115036169706,0.57371886118,0.819035865254,0.00276887245602,0.0,0.819001503232,-0.573655226762,-0.0117032223706,0.0,-0.00799713467359,0.00898224305037,-0.999927679958,0.0,0.592007143098,0.169739737982,0.304110793034,1.0,-0.0851228571429,-0.111875755102,2.141
0.390491148923,0.223206482398,-0.125090499877,-1.83980232686,0.0434139625375,2.05544514781,0.0737095016821,-0.119086524236,-0.331117054578,-0.00192368406034,-0.478912674865,-0.0430465882619,0.121812605745,-0.110745517638,0.573735131526,0.819024846267,0.00265460936699,0.0,0.818988603935,-0.573671467054,-0.0118093781884,0.0,-0.00814945740753,0.00894972227751,-0.999926741724,0.0,0.59085856175,0.168261873253,0.304070211314,1.0,-0.0858657142857,-0.112852081633,2.154
0.388080833962,0.216306455353,-0.125171386562,-1.84910860648,0.0425724762727,2.05829303456,0.0713943966807,-0.121515025703,-0.344124232372,0.000497464016181,-0.468138002977,-0.0516672019226,0.138522925869,-0.118656270512,0.573783823053,0.818989570203,0.00299252437748,0.0,0.81895823934,-0.573719575862,-0.0115757242318,0.0,-0.00776367707164,0.00909289086603,-0.999928519772,0.0,0.589236165144,0.165996200485,0.304202337741,1.0,-0.0870085714286,-0.114354122449,2.174
0.386323436665,0.211480640487,-0.12520904505,-1.85580506399,0.0419406012728,2.0601248139,0.0698149149662,-0.12293218494,-0.348398498354,-0.0026960006844,-0.48992909678,-0.0442018051308,0.13254498136,-0.120665620933,0.573876096734,0.818925099608,0.00294172234438,0.0,0.818893023151,-0.573811902266,-0.0116131113136,0.0,-0.00782242365076,0.0090736175907,-0.999928237001,0.0,0.588010860708,0.164355038411,0.304185491722,1.0,-0.0878085714286,-0.11540555102,2.188
0.383803461259,0.204537164191,-0.12527151966,-1.86553433375,0.0409680895205,2.06259546226,0.0674147767826,-0.126622291866,-0.34519315992,0.00162486166495,-0.4893677514,-0.0521660507031,0.123292600377,-0.116058701054,0.573873322852,0.818928075685,0.00263876385488,0.0,0.818891818448,-0.573809908681,-0.0117951379282,0.0,-0.00814537758318,0.00892994905714,-0.999926951749,0.0,0.586171040684,0.16197851981,0.304091915418,1.0,-0.0889514285714,-0.116907591837,2.208
0.382149936613,0.199954055123,-0.125279901713,-1.87170367706,0.0404102368935,2.06438846873,0.0657984943511,-0.126925517259,-0.359362069461,0.000893431170597,-0.466202626911,-0.03921813237,0.142162340071,-0.121903723444,0.573834248301,0.818954893124,0.0028080965841,0.0,0.818920842494,-0.573770238672,-0.0117095621087,0.0,-0.00797855454989,0.00901913023725,-0.99992749635,0.0,0.58504761869,0.16048507702,0.304153598182,1.0,-0.0896942857143,-0.117883918367,2.221
0.3793622402,0.192573903395,-0.125329337853,-1.88173327005,0.0394569451497,2.0672501432,0.0632564874561,-0.131763221035,-0.351816832745,-0.000970632778613,-0.485023869174,-0.0443275898676,0.132178175242,-0.125415778584,0.573925350404,0.818890537276,0.00295415376513,0.0,0.8188586068,-0.573861090817,-0.0116093676708,0.0,-0.00781167782631,0.00908211950378,-0.999928243823,0.0,0.583214939063,0.157979583267,0.304194630801,1.0,-0.0908942857143,-0.119461061224,2.242
0.377595692055,0.18796617451,-0.125396232058,-1.88812515905,0.0388594040547,2.06881485019,0.0615596227032,-0.13557908879,-0.358124689663,-0.00426609295973,-0.491635334108,-0.0444569650776,0.120994738824,-0.134452673125,0.573938621799,0.818881854367,0.00277739055777,0.0,0.818847035855,-0.573874291816,-0.0117718293005,0.0,-0.00804601927822,0.00903073938012,-0.999926850985,0.0,0.581983927449,0.156363548036,0.304133492209,1.0,-0.0916371428571,-0.120437387755,2.255
0.374735074277,0.180387254003,-0.125441385077,-1.89827832648,0.0378799406507,2.07155435742,0.0588950403711,-0.133636935934,-0.366760222182,-0.00049579107644,-0.473992571023,-0.0485782317738,0.13527204532,-0.124734581512,0.57396166859,0.818865293156,0.00289509167038,0.0,0.818832023877,-0.573896942988,-0.0117116353909,0.0,-0.00792892014472,0.00909279862722,-0.999927223971,0.0,0.58007017536,0.153823232496,0.304200241563,1.0,-0.0928371428571,-0.122014530612,2.276
0.373086251222,0.176042031426,-0.125415076662,-1.90400600032,0.0372837317488,2.07317505116,0.0574141069889,-0.14052093308,-0.364835140233,0.000931293268578,-0.484327666913,-0.0457342969899,0.135810972042,-0.126870205502,0.573958511023,0.818866920251,0.00305637759301,0.0,0.818836236008,-0.573893822525,-0.01156918191,0.0,-0.00771973276934,0.00914307917951,-0.999928402351,0.0,0.578997407054,0.152404589797,0.304278020245,1.0,-0.0935228571428,-0.122915755102,2.288
0.370320259308,0.168831072569,-0.125414353136,-1.91388963689,0.0362959699373,2.07558832201,0.0547349812823,-0.141251479379,-0.360103472868,2.42152512804e-05,-0.500200597526,-0.0545370075285,0.121876324249,-0.132519713002,0.573830570805,0.818957387442,0.00283204252378,0.0,0.818923154108,-0.573765918508,-0.011759478165,0.0,-0.00800573617103,0.00906734783848,-0.99992684302,0.0,0.577037459099,0.149972741919,0.304196842427,1.0,-0.0946657142857,-0.124417795918,2.308
0.368315037005,0.163784371605,-0.125417636947,-1.9208251958,0.0356141703856,2.07735624566,0.0528523716254,-0.146066297537,-0.360914895245,-0.000594231449885,-0.48766562755,-0.0478815618278,0.131884398463,-0.136419716214,0.573793878316,0.818983452093,0.00272714245384,0.0,0.818947455558,-0.573729166331,-0.0118598329523,0.0,-0.00814852265032,0.0090386599416,-0.999925949361,0.0,0.575675046459,0.148240800814,0.304129757174,1.0,-0.0954657142857,-0.12546922449,2.322
0.365402736005,0.156316613304,-0.125424730995,-1.93046529813,0.0346116921683,2.0800219373,0.0501775739302,-0.153680780194,-0.366777211819,0.00050258986072,-0.49124375074,-0.0478688237458,0.12263905912,-0.133898471119,0.573770303189,0.818998708269,0.00308252058309,0.0,0.818968221392,-0.573705387928,-0.0115726882544,0.0,-0.00770970650036,0.00916472769717,-0.999928281524,0.0,0.573840445263,0.145779366765,0.304309023774,1.0,-0.0966085714286,-0.126971265306,2.342
0.363436109899,0.151553114027,-0.125437034613,-1.9369495639,0.033955629478,2.08153063707,0.0483572935357,-0.152389017999,-0.37055994289,-0.00514491475582,-0.50332970502,-0.0551189073046,0.113435944178,-0.130491800089,0.573751021151,0.819012858792,0.0029068474179,0.0,0.818979553997,-0.573686066494,-0.0117274952843,0.0,-0.00793750439974,0.0091094863826,-0.999927003977,0.0,0.572531615155,0.144110176152,0.304243748493,1.0,-0.0973514285714,-0.127947591837,2.355
0.360218159031,0.143765570523,-0.125487790326,-1.94744083854,0.0329135387568,2.08407923511,0.0454468312835,-0.152711566839,-0.378786989672,-0.0061679126111,-0.499201975899,-0.0441248344351,0.123373783538,-0.137437942461,0.573802628921,0.818977142446,0.00278030483418,0.0,0.818941522034,-0.573737365318,-0.0118729114875,0.0,-0.00812863485363,0.00908978990373,-0.999925647743,0.0,0.570428528228,0.141394552779,0.304181064367,1.0,-0.0985514285714,-0.129524734694,2.376
0.358186187431,0.138875036047,-0.12551864555,-1.95368022595,0.032270168801,2.08580448885,0.0435933944044,-0.155823889247,-0.373530007435,-0.000837565637656,-0.485181634991,-0.0518311865989,0.135195019908,-0.146740959794,0.573816367307,0.818966509391,0.00306267976664,0.0,0.818935185924,-0.573750824444,-0.0116575986784,0.0,-0.00779011784035,0.00919763423225,-0.999927356156,0.0,0.569234296075,0.139729425364,0.30430450917,1.0,-0.0992942857143,-0.130501061224,2.389
0.354800495604,0.131003481952,-0.125597286459,-1.96414492385,0.0311359014513,2.08829885423,0.0404941446661,-0.164108215593,-0.380591548071,-0.00434125625744,-0.493166750894,-0.0675695629435,0.108759657836,-0.14537542714,0.573818309583,0.818965609079,0.00293694307368,0.0,0.818932665145,-0.573753207003,-0.0117172656013,0.0,-0.00791110936594,0.00912891591887,-0.999927035959,0.0,0.567123324797,0.136920891397,0.304269659637,1.0,-0.100494285714,-0.132078204082,2.41
0.3526776786,0.126103158748,-0.125683794942,-1.97072828375,0.0304387415617,2.08981739644,0.0385921369066,-0.16237565444,-0.3781971381,-0.0112053243274,-0.50252350012,-0.0453272287929,0.113677586396,-0.14543552597,0.573884077208,0.818920049891,0.00278652377901,0.0,0.81888485785,-0.573819168893,-0.0118278440751,0.0,-0.00808725360581,0.00906982813338,-0.999926164548,0.0,0.56577481361,0.135146791759,0.304204622104,1.0,-0.101237142857,-0.133054530612,2.423
0.34932322662,0.118375752713,-0.125756322047,-1.98052718353,0.0294061497031,2.09236947556,0.035611012255,-0.17251015025,-0.386164714229,-0.00120781739848,-0.485616301362,-0.0505222010371,0.1276474046,-0.148537605908,0.57396788125,0.818860021401,0.00314381061856,0.0,0.818830227542,-0.573902624291,-0.0115578197592,0.0,-0.00766014285259,0.00920824177038,-0.999928262674,0.0,0.563840320754,0.132460329104,0.304369134852,1.0,-0.10238,-0.134556571429,2.443
0.347105163165,0.113460902525,-0.125757543203,-1.98701754908,0.0287105049844,2.09391550861,0.0336044102934,-0.170798490444,-0.377862433191,-0.000644548902246,-0.503220192746,-0.0630395190019,0.108172576646,-0.149348692952,0.573937583708,0.818881494037,0.00308149834358,0.0,0.818850757456,-0.573872368787,-0.0116055270611,0.0,-0.00773531351379,0.00918431223831,-0.999927904068,0.0,0.562397822739,0.13057328741,0.30432900369,1.0,-0.10318,-0.135608,2.457
0.343523081073,0.105409679205,-0.125748872686,-1.997648132,0.0275343527743,2.09622227916,0.030388966976,-0.171032832184,-0.385806631401,0.0011907423873,-0.503306981232,-0.0561517016282,0.117982921739,-0.151228684072,0.573892373803,0.818913978704,0.00286106190528,0.0,0.818879835817,-0.573827284446,-0.0117817239378,0.0,-0.00800661719431,0.0091044827109,-0.999926498537,0.0,0.560246379429,0.12787937484,0.304254974561,1.0,-0.104322857143,-0.137110040816,2.477
0.341302256767,0.100310686518,-0.125735375977,-2.00405949497,0.0268668505131,2.09778918575,0.0282999504813,-0.171707010289,-0.398297452309,0.000930684910079,-0.489331171826,-0.0498533414618,0.125617209184,-0.160296436497,0.573792652337,0.818983104535,0.00306814467692,0.0,0.818951785403,-0.573727015779,-0.0116632522049,0.0,-0.00779187902809,0.00920512820581,-0.999927273473,0.0,0.55892051296,0.126169063159,0.304348913808,1.0,-0.105065714286,-0.138086367347,2.49
0.337773722564,0.0925461099968,-0.125735104573,-2.01408776809,0.0258350434136,2.10008744964,0.0250809479996,-0.178628711725,-0.392288452372,0.000947368651914,-0.509038815303,-0.0469308750781,0.106972650484,-0.159884503576,0.573735255898,0.819023132715,0.00311626674467,0.0,0.818991873175,-0.57366879564,-0.0117120229865,0.0,-0.00780486303433,0.00927197615804,-0.999926554588,0.0,0.556800830592,0.123461014478,0.304347858413,1.0,-0.106208571429,-0.139588408163,2.51
0.335379001362,0.0874793381378,-0.125773932377,-2.02069191124,0.0251236714247,2.10143528532,0.0229484611247,-0.185743787011,-0.385235721564,-0.0040233908809,-0.506887101408,-0.0569684243239,0.101301164206,-0.173657870847,0.573757705831,0.819007945172,0.00297113525962,0.0,0.818974141492,-0.57369098501,-0.0118640712605,0.0,-0.00801240937448,0.00924056316625,-0.999925203847,0.0,0.555371758033,0.121616040877,0.304296961618,1.0,-0.106951428571,-0.140564734694,2.523
0.331461969891,0.0791399291077,-0.125854161885,-2.03115924804,0.0239283820739,2.10387712738,0.0193976183576,-0.187731247059,-0.400066599662,-0.00403011808291,-0.4876510368,-0.0561093918101,0.124896765721,-0.172635990924,0.573731801316,0.819025322437,0.00317620323082,0.0,0.818994931714,-0.573665248868,-0.0116718022965,0.0,-0.00773757319475,0.00929795751883,-0.999926836297,0.0,0.553176859658,0.11863912147,0.304400681865,1.0,-0.108151428571,-0.142141877551,2.544
0.328998271488,0.0740154943832,-0.125880901927,-2.03766242785,0.0231917402034,2.10532399973,0.0172623786175,-0.194708736018,-0.39320619513,-0.000318564255649,-0.501583864486,-0.0453422853675,0.104567066678,-0.170429170088,0.573776392334,0.81899394449,0.00321206929008,0.0,0.818964130159,-0.573709849887,-0.0116408142135,0.0,-0.00769110863726,0.00930997316128,-0.999927082965,0.0,0.551785175817,0.116795119826,0.304416684196,1.0,-0.108894285714,-0.143118204082,2.557
0.324895699007,0.0656968686582,-0.126029640942,-2.04842147691,0.0219623027759,2.1074712811,0.0136423853966,-0.193357497409,-0.395398989566,-0.00859205568385,-0.50273789145,-0.0584834708978,0.0930050521229,-0.16875234809,0.573871182897,0.818928479624,0.00295932458837,0.0,0.818894724567,-0.57380472307,-0.0118455375698,0.0,-0.00800272772381,0.00922136549082,-0.999925458606,0.0,0.549421485636,0.113680216344,0.304316227787,1.0,-0.110094285714,-0.144695346939,2.578
0.322304795915,0.060507270351,-0.126089569083,-2.05488675211,0.0211925542811,2.10888912777,0.0113581033551,-0.202584484418,-0.408882741052,-0.0024696448804,-0.490822612345,-0.0550885514497,0.114060577639,-0.173050094057,0.573899293421,0.81890848928,0.00303876580881,0.0,0.818876220269,-0.573833073927,-0.0117510019127,0.0,-0.00787940260177,0.00923244250762,-0.999926335797,0.0,0.548031356277,0.111770957015,0.304362747851,1.0,-0.110837142857,-0.145671673469,2.591
0.318088953509,0.0520522475586,-0.126090841814,-2.06537704041,0.0200108078505,2.11119098861,0.00761672465797,-0.197975906953,-0.394077569023,0.00123081387114,-0.515428323506,-0.0628881607541,0.102054128928,-0.177251561435,0.57386722142,0.818930186355,0.00324175236281,0.0,0.818900792333,-0.573800613406,-0.0116230492151,0.0,-0.00765849381521,0.00932494006996,-0.999927193832,0.0,0.545745089293,0.10874912459,0.304439907817,1.0,-0.112037142857,-0.147248816327,2.612
0.315449729411,0.0468327213304,-0.126091871623,-2.07204430053,0.0192751765354,2.1124504719,0.00527740831852,-0.201368432636,-0.401411206544,-0.00103620352697,-0.513410016252,-0.0572852745644,0.101961729256,-0.185555435176,0.573845983425,0.818945570335,0.00311240039706,0.0,0.818913694623,-0.573778850406,-0.0117872170858,0.0,-0.00786741116924,0.00931301379314,-0.999925683046,0.0,0.544227800559,0.106856803414,0.30437523628,1.0,-0.11278,-0.148225142857,2.625
0.311294838666,0.0386692069446,-0.12611354892,-2.08211267707,0.0181139142772,2.11448165304,0.00157539040116,-0.209329098044,-0.419211154782,-0.00495268449444,-0.485500900191,-0.054868608343,0.0982650069466,-0.195414242076,0.573800436003,0.818977116183,0.00320775808212,0.0,0.818946457752,-0.573732953174,-0.0117449852942,0.0,-0.007778627431,0.00936644013432,-0.99992587863,0.0,0.54197306972,0.103916804874,0.304427452032,1.0,-0.113922857143,-0.149727183673,2.645
0.308525133817,0.0333765489446,-0.12614912978,-2.08859576727,0.0173023405014,2.11585777328,-0.00086607131494,-0.215216307654,-0.410596200358,-0.00579998640255,-0.506666101088,-0.0646005593087,0.0929549851831,-0.185121397392,0.573786361285,0.818986573384,0.00330924786423,0.0,0.818957912127,-0.573719373615,-0.011608850264,0.0,-0.00760905938479,0.00937131510011,-0.99992713768,0.0,0.540537275115,0.101968400799,0.304475982475,1.0,-0.114665714286,-0.150703510204,2.658
0.303977217203,0.0247893487523,-0.126253306629,-2.09934940013,0.0160413346788,2.11775228627,-0.00487788629907,-0.218584324669,-0.412057043685,-0.00245830813143,-0.513971212897,-0.0576762183488,0.0907007112189,-0.193355692627,0.573818894269,0.818964584213,0.00310375342355,0.0,0.818932308456,-0.573751455591,-0.0118274373846,0.0,-0.00790562150311,0.00932875060544,-0.999925234985,0.0,0.538045457136,0.0987566795067,0.304400040159,1.0,-0.115865714286,-0.152280653061,2.679
0.301104178767,0.0194450688228,-0.126308212686,-2.10593608536,0.015277949792,2.11899844045,-0.00740918575347,-0.217319136153,-0.423180646252,-0.00519841867417,-0.500327397227,-0.0614881058676,0.10433836518,-0.196242119482,0.57384091511,0.818949115329,0.00311408871606,0.0,0.818916709499,-0.573773124136,-0.0118562989229,0.0,-0.00792307764632,0.00935398880144,-0.999924861044,0.0,0.536533198587,0.0967670403991,0.304395648871,1.0,-0.116608571429,-0.153256979592,2.692
0.296567366672,0.0111156759922,-0.126399216296,-2.11591420966,0.014041630866,2.12093117467,-0.0113235617987,-0.22831229113,-0.405748098045,-0.00535217034506,-0.504751387939,-0.0534293438591,0.0867924579825,-0.202095743864,0.573918422775,0.818894175999,0.00327405190195,0.0,0.818864491621,-0.573850837367,-0.0117007570748,0.0,-0.0077030127047,0.00939646580297,-0.999926182288,0.0,0.534137826541,0.0935096364089,0.304488170011,1.0,-0.117808571429,-0.154834122449,2.713
0.293112439641,0.00495545656197,-0.126427024966,-2.1235843394,0.0131596993313,2.12222952479,-0.0143894231465,-0.227071588832,-0.410399597236,-0.00154295833868,-0.508918864941,-0.063228676876,0.0870537045599,-0.197039100056,0.573901367314,0.818906553348,0.00316613009531,0.0,0.818874555523,-0.573833061314,-0.0118670536309,0.0,-0.00790132998728,0.00940336272317,-0.999924570032,0.0,0.532438056644,0.091339820355,0.304422669615,1.0,-0.118608571429,-0.15588555102,2.727
0.288285119634,-0.0038586873779,-0.12641834643,-2.13414550713,0.0118764797268,2.12416290862,-0.0187104577867,-0.22568125902,-0.425984485833,-0.000485723994777,-0.489578036951,-0.0602677396262,0.0959190395349,-0.212308153263,0.573768963846,0.818998776215,0.00330569007502,0.0,0.818968783901,-0.573700414522,-0.0117776175138,0.0,-0.00774952776666,0.00946507061012,-0.99992517583,0.0,0.529952107135,0.0881507820952,0.304484353861,1.0,-0.119808571429,-0.157462693878,2.748
0.285677067488,-0.00848195012964,-0.126418661468,-2.1396077631,0.0111467949904,2.12520848621,-0.0209893751582,-0.238712785036,-0.4244898868,0.00271739602731,-0.503040583639,-0.0662934649748,0.095854115958,-0.204951389268,0.573726377247,0.81902813643,0.00342091923404,0.0,0.819000444683,-0.573658448717,-0.0116190673244,0.0,-0.00755404927566,0.00946808206686,-0.99992664319,0.0,0.52867861082,0.0864453983543,0.304545079511,1.0,-0.11998,-0.157688,2.759
0.280810261396,-0.0167911843814,-0.126488959367,-2.14975417825,0.00988173877977,2.12677203049,-0.0252177508465,-0.246052062302,-0.409475530594,-0.00180092697718,-0.509718145785,-0.0590627316027,0.0812836013656,-0.213220113412,0.57375670115,0.819007737088,0.00321269004203,0.0,0.81897647679,-0.573688406454,-0.0118274961799,0.0,-0.00784387887004,0.00941740407689,-0.999924890212,0.0,0.52621254212,0.0832500628921,0.304460231401,1.0,-0.11998,-0.157688,2.779
0.277633765017,-0.0221558052017,-0.126565555211,-2.15625280108,0.00909949549787,2.12775573566,-0.0279924791706,-0.249580427965,-0.410563419055,-0.00605909043969,-0.494661239615,-0.0574870659784,0.0758190751299,-0.20554659732,0.573802659543,0.818975892982,0.00312114018845,0.0,0.818942677985,-0.573733786064,-0.0119657764244,0.0,-0.00800913305591,0.00942221064689,-0.999923534944,0.0,0.524623774691,0.0811755210273,0.304415674398,1.0,-0.11998,-0.157688,2.792
0.272390650985,-0.030972110291,-0.12668008021,-2.16637856392,0.00777223900524,2.12960357333,-0.032485124608,-0.252907452554,-0.412071521066,-0.00638902599458,-0.481647669816,-0.0679049236115,0.0827468766137,-0.216394089621,0.573916444948,0.818894680906,0.00348750681102,0.0,0.818867774933,-0.573848182906,-0.0116007350204,0.0,-0.00749862512822,0.00951384271506,-0.999926626017,0.0,0.52222965659,0.0778168089746,0.304595318767,1.0,-0.11998,-0.157688,2.813
0.269110324459,-0.0363187014365,-0.126739455179,-2.17284288493,0.00699016867993,2.13049275866,-0.0353019001585,-0.256081909206,-0.419929073157,-0.00272958148271,-0.49013702139,-0.0563628711823,0.0643064943758,-0.217988425842,0.573987633103,0.818845378241,0.00334521728625,0.0,0.818815631415,-0.573918588465,-0.0117967141968,0.0,-0.00773995153349,0.00951046737064,-0.999924819254,0.0,0.520610982048,0.0757298269771,0.304525140704,1.0,-0.11998,-0.157688,2.826
0.264081656449,-0.0444971793704,-0.12672567066,-2.1826174488,0.00579990264015,2.13195419782,-0.0397682892211,-0.251628511082,-0.416860670823,0.000617408160035,-0.487658431576,-0.0562305626292,0.0763182251882,-0.219038346256,0.573885907629,0.818916935798,0.00328088241321,0.0,0.818885435176,-0.573815990228,-0.0119415374371,0.0,-0.00789665649105,0.0095399305465,-0.99992331333,0.0,0.518167563676,0.0726207337384,0.304461439396,1.0,-0.11998,-0.157688,2.846
0.260820031081,-0.0498995850417,-0.126727776221,-2.1886880992,0.00496821767285,2.13298073185,-0.0425749383644,-0.25179682405,-0.414258473477,-0.00101772288737,-0.470663118725,-0.0691100437264,0.0791800029808,-0.216497506427,0.573872004127,0.818925712342,0.00351389321411,0.0,0.818898427933,-0.573802749875,-0.0116840004221,0.0,-0.00755219218277,0.00958282686654,-0.999925564141,0.0,0.51668379988,0.0706217121719,0.304588733626,1.0,-0.11998,-0.157688,2.859
0.255368065761,-0.0584808723146,-0.126747759275,-2.19869984142,0.0036520187053,2.13432994523,-0.0473450780076,-0.263599634264,-0.404957574583,0.000567016772429,-0.485602561764,-0.0538491596739,0.0594768597334,-0.223923847556,0.573821914085,0.81896107723,0.00345134733001,0.0,0.818932646399,-0.57375245239,-0.0117554642515,0.0,-0.00764719590429,0.00957214829385,-0.999924944369,0.0,0.514139520805,0.067301575783,0.304579972705,1.0,-0.11998,-0.157688,2.88
0.251990853139,-0.0637366329064,-0.126789994355,-2.20493389095,0.00286231268507,2.13513707507,-0.0502652326881,-0.265205079788,-0.40104119846,-0.00238545107617,-0.472461156965,-0.0697019995327,0.0665344377212,-0.224628021072,0.573849831972,0.81894195946,0.00334429095035,0.0,0.81891138256,-0.573779807484,-0.0119007116909,0.0,-0.0078272562324,0.00956808354527,-0.999923589999,0.0,0.512532704239,0.0652479054852,0.304515070175,1.0,-0.11998,-0.157688,2.893
0.246726220803,-0.0718715079023,-0.126878972765,-2.21415068401,0.00161779508092,2.13647394071,-0.054837758391,-0.261393572386,-0.39425974772,-0.00685826076128,-0.447394797532,-0.069170586312,0.0639514654843,-0.228877728119,0.573884306086,0.818917076447,0.00351739013657,0.0,0.818889481471,-0.57381458732,-0.0117295957589,0.0,-0.00758738257772,0.00961196976802,-0.99992501802,0.0,0.51019815827,0.0620805641747,0.304601362118,1.0,-0.11998,-0.157688,2.913
0.242978804871,-0.0775001783497,-0.126940740441,-2.2205761924,0.000790204658042,2.13733546195,-0.0581487286287,-0.26388465463,-0.388666563998,-0.00125897555117,-0.466484319345,-0.0570983831499,0.0514809078439,-0.239664698008,0.573882736385,0.818917879167,0.00358593942312,0.0,0.818891071345,-0.573812660941,-0.0117128270066,0.0,-0.00753433106813,0.00965846894477,-0.999924971102,0.0,0.508544510373,0.0598548634377,0.304621498723,1.0,-0.11998,-0.157688,2.927
0.237372634839,-0.0859148527145,-0.126917188229,-2.23038387119,-0.000494044043486,2.13845337281,-0.0630091414596,-0.269188948787,-0.398469999775,0.00294542069642,-0.463757443592,-0.0650569242715,0.049723072828,-0.235726169303,0.573831402413,0.818954612775,0.00340745065309,0.0,0.818924383651,-0.573760568786,-0.0119335857677,0.0,-0.00781815481033,0.00963849625375,-0.999922984957,0.0,0.505938866382,0.0565958161426,0.304527256443,1.0,-0.11998,-0.157688,2.948
0.233902137571,-0.0911398710793,-0.126922386949,-2.23631392015,-0.00127599400518,2.1391421575,-0.066128584279,-0.26788605574,-0.410330530417,-0.00364479792786,-0.451211406619,-0.0630839419054,0.0505001263998,-0.235582515928,0.573726859523,0.819027834555,0.00341229935634,0.0,0.818997397994,-0.573655689697,-0.011964892733,0.0,-0.00784224623265,0.00965943060024,-0.999922594291,0.0,0.504363070042,0.0545924506307,0.304529600964,1.0,-0.11998,-0.157688,2.961
0.228364717601,-0.0991536780613,-0.12697010063,-2.24514242049,-0.00253775027631,2.14026489784,-0.0708920278474,-0.279044716132,-0.39073364128,-0.00299055527474,-0.455146724939,-0.0576778015422,0.0487539700522,-0.240792657984,0.573759088418,0.819004444498,0.0036021174917,0.0,0.818977655346,-0.573688731944,-0.0117296967277,0.0,-0.0075403247111,0.00968026021455,-0.999924715199,0.0,0.502048743096,0.0514195370768,0.304642831135,1.0,-0.11998,-0.157688,2.981
0.224756228245,-0.104313808664,-0.127044546453,-2.25103877391,-0.00334169145575,2.14082727968,-0.0739658335037,-0.277254307444,-0.398085650771,-0.00298696897328,-0.458410932118,-0.0616467181874,0.0443322968974,-0.230241205557,0.573842330931,0.818946608635,0.00348974759867,0.0,0.818917686664,-0.573771493652,-0.0118677059039,0.0,-0.00771684838338,0.00966819419194,-0.999923485209,0.0,0.500442450554,0.049341754651,0.304594822473,1.0,-0.11998,-0.157688,2.994
0.219082830179,-0.112224565641,-0.127193536595,-2.26001807219,-0.00458362325194,2.14172098926,-0.078892000527,-0.282200712749,-0.394411519514,-0.00646290433884,-0.446338275984,-0.0686387282452,0.0497280500597,-0.253206655606,0.573928297379,0.818886825719,0.00337979779408,0.0,0.818855746023,-0.5738569501,-0.0120089519818,0.0,-0.00789460411012,0.00966003019382,-0.999922176493,0.0,0.49799628286,0.0460974291419,0.304534595107,1.0,-0.11998,-0.157688,3.014
0.21512625377,-0.117809570498,-0.127210655493,-2.26597801478,-0.00540594897382,2.14245073179,-0.0822985555798,-0.279160309395,-0.395429072257,-3.06010773392e-05,-0.425018498207,-0.055805567321,0.0488745698905,-0.251438895257,0.573958841499,0.818864303512,0.00363972529859,0.0,0.818837613605,-0.573887830529,-0.0117672179215,0.0,-0.00754710595741,0.00973443016152,-0.999924138153,0.0,0.496402041957,0.0439129801625,0.304661327881,1.0,-0.11998,-0.157688,3.028
0.209474403938,-0.125588943976,-0.127195185799,-2.27464421536,-0.00658526789433,2.14328453213,-0.0872935574598,-0.289807532528,-0.389722051346,0.00156688756811,-0.441185667446,-0.0598807710056,0.0376888046878,-0.248447956698,0.573854252556,0.818937659098,0.0036268768742,0.0,0.818910401924,-0.573782785354,-0.0118243711515,0.0,-0.00760252968839,0.00975574069613,-0.999923510608,0.0,0.49400112986,0.0408294777799,0.304640597245,1.0,-0.11998,-0.157688,3.048
0.205734306963,-0.130692911494,-0.127201423667,-2.28031740111,-0.00739651342606,2.14372322239,-0.0905769543642,-0.286989549955,-0.398876475519,0.000606480137876,-0.432420516412,-0.0545495953766,0.0472183855473,-0.254856473519,0.573798601764,0.818977052529,0.00353538470194,0.0,0.818948192427,-0.573726939981,-0.0119165162925,0.0,-0.00773115679166,0.00973316469129,-0.999922744376,0.0,0.492397888707,0.0387937456337,0.30461275174,1.0,-0.11998,-0.157688,3.061
0.199597368198,-0.138917227656,-0.127253768441,-2.2892916179,-0.00866741831147,2.14454008447,-0.0959462759336,-0.290917814234,-0.388979738549,-0.0031979983842,-0.419443337078,-0.0517627028493,0.0406544734306,-0.253535398883,0.573780855415,0.818989230134,0.00359413194718,0.0,0.818961259478,-0.57370914524,-0.0118751439468,0.0,-0.00766377618288,0.00975737293785,-0.999923027142,0.0,0.489881578919,0.0354781809436,0.30463547338,1.0,-0.11998,-0.157688,3.082
0.195746341287,-0.144002644602,-0.127346642319,-2.29461552338,-0.00941453038291,2.14510901864,-0.0992852546353,-0.301213152978,-0.387377711433,-0.012410237131,-0.414501382168,-0.0566016749894,0.0436359700709,-0.259370540409,0.573865592006,0.818928721659,0.0038442234695,0.0,0.818904883093,-0.57379419079,-0.0116518652765,0.0,-0.00733639528931,0.00983484728706,-0.999924723708,0.0,0.488409397747,0.033399442689,0.304745750979,1.0,-0.11998,-0.157688,3.095
0.189760028835,-0.151655487304,-0.127441764933,-2.30309398726,-0.0106278566887,2.14562993403,-0.10447259442,-0.301385388089,-0.379764957663,0.00405726557257,-0.420377875487,-0.0657148568076,0.0190941577193,-0.269575720201,0.573927258143,0.818886366695,0.00365618698734,0.0,0.818858938186,-0.573854968496,-0.0118853433801,0.0,-0.007634771582,0.00981541290959,-0.999922680977,0.0,0.485945625906,0.0302028243393,0.30465606415,1.0,-0.11998,-0.157688,3.115
0.185920480156,-0.156673031627,-0.127435456732,-2.30856549458,-0.011436460487,2.14598368443,-0.107885545347,-0.294650475754,-0.378028158898,0.000462520668352,-0.412276660221,-0.0659621696253,0.0327540760989,-0.259247912838,0.57382361327,0.818959328573,0.00358132645162,0.0,0.818930680998,-0.573751294793,-0.0119473153511,0.0,-0.0077297234906,0.00978869823631,-0.999922213355,0.0,0.484347004124,0.0281992656551,0.3046283707,1.0,-0.11998,-0.157688,3.128
0.17992185214,-0.164333776123,-0.127437547873,-2.31666996141,-0.0125776121946,2.14657659814,-0.113140089907,-0.30117548858,-0.386446308684,-0.00236791705627,-0.398253143408,-0.0465287435205,0.0321680323145,-0.266046719503,0.573790552466,0.818981885209,0.00371759349509,0.0,0.818955277979,-0.573718097128,-0.0118551507625,0.0,-0.00757644892513,0.00984710590707,-0.999922812985,0.0,0.481990983392,0.0251112884806,0.304688048883,1.0,-0.11998,-0.157688,3.148
0.17561459417,-0.16968342533,-0.127445253269,-2.32225006744,-0.0133672670118,2.14699454444,-0.116957466082,-0.301813628119,-0.374327706985,-0.00121981371885,-0.39797121009,-0.0614645940552,0.0243537468005,-0.271947598617,0.573748513327,0.819010627637,0.00387068134084,0.0,0.818986481314,-0.573676172054,-0.0117277424725,0.0,-0.00738477024801,0.00989900108633,-0.999923734565,0.0,0.480364718779,0.0229159829567,0.304754828432,1.0,-0.11998,-0.157688,3.162
0.169410266826,-0.177237467711,-0.127550302212,-2.33046793574,-0.0145710105469,2.14732511999,-0.122324578124,-0.317145990402,-0.376786089609,-0.0109511736758,-0.400631256598,-0.0682406488455,0.0194926580061,-0.274845739435,0.573832560826,0.818952653269,0.00367297434627,0.0,0.818924625597,-0.573759174704,-0.0119839031799,0.0,-0.00770699495963,0.00988483330544,-0.999921443064,0.0,0.477880317758,0.0197252847772,0.304656900331,1.0,-0.11998,-0.157688,3.182
0.165292665132,-0.182168434267,-0.127661388458,-2.33566916899,-0.0153505772313,2.14761907997,-0.125908688928,-0.318296552323,-0.373458443816,-0.00266600478032,-0.406957015969,-0.0573659080942,0.0232852326726,-0.27228253095,0.573921870336,0.818889942171,0.00370084613737,0.0,0.818862289526,-0.573848384101,-0.0119720406725,0.0,-0.00768020698605,0.00990168995395,-0.999921482396,0.0,0.476201442137,0.0174493361974,0.304661833828,1.0,-0.11998,-0.157688,3.196
0.158729325331,-0.190100276552,-0.127670522106,-2.34383704193,-0.0165145557341,2.14806652775,-0.131735256085,-0.307662100639,-0.383860634238,-0.000458736171474,-0.377514475192,-0.0531567770391,0.0325005462015,-0.286089165897,0.573843497726,0.818943964048,0.00389496714939,0.0,0.818919299299,-0.573769944279,-0.0118312796536,0.0,-0.00745448349693,0.00997915879751,-0.999922420523,0.0,0.473857155443,0.0143617676375,0.30474653921,1.0,-0.11998,-0.157688,3.216
0.154609562984,-0.194980873537,-0.127676445043,-2.34885681895,-0.017308349377,2.14832116357,-0.135380420262,-0.31924056192,-0.382799584624,-0.0076661931358,-0.386003754723,-0.0641353933485,0.0185491220034,-0.279506011757,0.573780024643,0.818988160637,0.00395258883596,0.0,0.818964912275,-0.573707190366,-0.0117166158063,0.0,-0.0073282820845,0.00995998343593,-0.999923544583,0.0,0.472327767055,0.012331361025,0.304788683628,1.0,-0.11998,-0.157688,3.229
0.148174119336,-0.202364331831,-0.127719313548,-2.35673994568,-0.0184979354976,2.14851949527,-0.141010054953,-0.320415667512,-0.369683797667,-0.00110355549773,-0.389478433668,-0.0501099866232,0.0092662331402,-0.277979283506,0.573777486706,0.818990806948,0.0037683928946,0.0,0.818964103878,-0.573703868345,-0.01193377166,0.0,-0.00761185425246,0.00993369927447,-0.99992168758,0.0,0.469857008992,0.00917695380076,0.304690703253,1.0,-0.11998,-0.157688,3.249
0.14362723935,-0.207539211976,-0.127796753067,-2.36212382955,-0.0192675474312,2.14866925811,-0.145023898775,-0.325267780724,-0.369617326341,-0.00394332315089,-0.386935130954,-0.0656330740287,0.00444702469711,-0.285000081093,0.573815391459,0.818964190596,0.00378126268044,0.0,0.818937090698,-0.573740984416,-0.0120029654965,0.0,-0.00766068104183,0.00998429483235,-0.999920810776,0.0,0.468164865276,0.00695629356035,0.304675889813,1.0,-0.11998,-0.157688,3.263
0.137024764091,-0.214959580397,-0.127919223275,-2.36955667882,-0.0203641473876,2.14892524132,-0.150780650299,-0.33055953993,-0.372621774989,-0.000850548703842,-0.365807975796,-0.0617926741832,0.0198906857442,-0.289874081191,0.573948736956,0.818869704875,0.00400008576901,0.0,0.818846031905,-0.573874302937,-0.0118409190687,0.0,-0.00740076595852,0.0100717288151,-0.99992189142,0.0,0.465830446395,0.00375737851741,0.304772850063,1.0,-0.11998,-0.157688,3.283
0.13280918118,-0.219728506789,-0.127911642022,-2.37435117076,-0.0211034011891,2.14905068883,-0.154554094277,-0.325511151033,-0.366889909862,-0.00014887377478,-0.372904079734,-0.0460921316659,0.0141056721958,-0.289724217774,0.573863139299,0.818929344964,0.00407089824379,0.0,0.818907037218,-0.573789092378,-0.0117511175554,0.0,-0.00728763830336,0.0100774144517,-0.999922665033,0.0,0.464303812816,0.00176677797053,0.304815584433,1.0,-0.11998,-0.157688,3.296
0.125838239199,-0.227341886748,-0.127929355746,-2.38230596339,-0.0223609446028,2.14908433317,-0.1607394091,-0.337523661547,-0.368255997444,-0.00245622767202,-0.370322134918,-0.0585694768508,0.000571812871025,-0.294343611965,0.573769117692,0.818996211884,0.00386670456228,0.0,0.818970348,-0.573694567709,-0.0119523629278,0.0,-0.00757077831957,0.010024806121,-0.999921090176,0.0,0.461706608944,-0.00151310279382,0.304717993523,1.0,-0.11998,-0.157688,3.317
0.121441003049,-0.2320623303,-0.127955485934,-2.38708836433,-0.023086547405,2.14910496282,-0.16464486765,-0.333804247145,-0.361736432816,-0.000292932020076,-0.367464130433,-0.0547867917874,0.000778510859243,-0.305386817272,0.573750940379,0.819008946401,0.00386665626963,0.0,0.818982841513,-0.573676075314,-0.0119838566746,0.0,-0.00759682389792,0.0100426675277,-0.999920713405,0.0,0.460137125597,-0.00356343159358,0.304715664106,1.0,-0.11998,-0.157688,3.33
0.114562546802,-0.239313258795,-0.128132632226,-2.39427188956,-0.0242037945573,2.14915238057,-0.170642405582,-0.350293400187,-0.356376450812,-0.0105477022938,-0.352915249245,-0.0612146427342,0.00665443944224,-0.294795759983,0.573932434328,0.818881177893,0.00399051634779,0.0,0.818856930368,-0.57385742497,-0.0119050533942,0.0,-0.00745898031913,0.0101005527094,-0.999921168117,0.0,0.457767563373,-0.00680370032081,0.304771048335,1.0,-0.11998,-0.157688,3.35
0.10974922892,-0.24435335155,-0.128191331139,-2.39918071898,-0.0250020265285,2.14923758251,-0.174929855099,-0.345629723325,-0.35280074871,-0.00714251837428,-0.358113269453,-0.052974612592,-0.00110042568385,-0.303559485797,0.5739253879,0.818885429261,0.00412913659319,0.0,0.818863971005,-0.573851272944,-0.0117158197303,0.0,-0.00722454287368,0.0101054021311,-0.999922840437,0.0,0.456148273971,-0.00902586201849,0.304843096335,1.0,-0.11998,-0.157688,3.364
0.102939981704,-0.251468164306,-0.128186432678,-2.40641405753,-0.0260788028303,2.14920872696,-0.181058591951,-0.345325311012,-0.347894527677,-0.00122603520598,-0.361340858771,-0.0586412730824,0.000535274177595,-0.312531459198,0.573806152689,0.818969194992,0.00408701513296,0.0,0.818946463826,-0.573731186624,-0.0118305445164,0.0,-0.00734414487447,0.0101356809672,-0.999921662685,0.0,0.453705990019,-0.0120893865473,0.304782113003,1.0,-0.11998,-0.157688,3.384
0.0980122613524,-0.256386698737,-0.128216408145,-2.41136425452,-0.0268432904816,2.14916882422,-0.185422334114,-0.347242721644,-0.348008381404,-0.00481933695748,-0.34975912936,-0.0604955823485,-0.000679287466203,-0.303305987674,0.573815593157,0.818962669923,0.00406905683523,0.0,0.818939396574,-0.573740262455,-0.0118795150611,0.0,-0.00739444000115,0.0101491573332,-0.999921155323,0.0,0.452015626801,-0.0143043828188,0.304750957163,1.0,-0.11998,-0.157688,3.398
0.0906026545902,-0.26379740017,-0.128318455121,-2.41859281742,-0.0279947928891,2.14906707836,-0.191958321972,-0.354019202555,-0.356776810379,-0.0118109851318,-0.337618936413,-0.060189807023,-0.0060884328228,-0.314533481136,0.573894844508,0.818906699195,0.004156003197,0.0,0.818884864403,-0.573819631913,-0.0118049051065,0.0,-0.00728245986025,0.010178258258,-0.999921681352,0.0,0.449520516022,-0.01763195851,0.304788726421,1.0,-0.11998,-0.157688,3.419
0.0862867720493,-0.268012683827,-0.128408992493,-2.42255788263,-0.0286278481176,2.14904690657,-0.195855538421,-0.353770180022,-0.350035884604,-0.00927692912347,-0.331842867511,-0.0523553914836,-0.00431462318113,-0.324871872419,0.573918451666,0.818889209508,0.00433823584812,0.0,0.818870596106,-0.573843875362,-0.0116146649812,0.0,-0.00702178894501,0.0102185210558,-0.9999231352,0.0,0.448030251524,-0.0197297200761,0.304874405253,1.0,-0.11998,-0.157688,3.432
0.0788664986437,-0.275312229962,-0.128405226812,-2.42971321916,-0.029759887383,2.14883634458,-0.202537800811,-0.351728659433,-0.345515633501,0.00236315876168,-0.345118196515,-0.0571005544694,-0.0194129166574,-0.334760065103,0.573787059589,0.818981393161,0.00431680508102,0.0,0.818962262521,-0.573712222103,-0.011655285395,0.0,-0.0070689941351,0.0102231492188,-0.999922755288,0.0,0.44549420064,-0.0229483726189,0.304855439968,1.0,-0.11998,-0.157688,3.453
0.0741798763997,-0.279763974935,-0.12843294303,-2.43417044479,-0.0304905936276,2.14866076399,-0.206765997714,-0.359720038215,-0.341653011437,-0.00158677070804,-0.342321111866,-0.0543778607383,-0.0144363331279,-0.321512516359,0.573737195231,0.81901687195,0.00421202692911,0.0,0.818995848852,-0.573661939049,-0.0117697132722,0.0,-0.00722345328633,0.0102025512824,-0.999921861782,0.0,0.444014449309,-0.0248278446571,0.304794082671,1.0,-0.11998,-0.157688,3.465
0.0664605648557,-0.28696750173,-0.128494133167,-2.44109183007,-0.0316088400432,2.14841415232,-0.213639275378,-0.369758402735,-0.336562263191,-0.00478552374426,-0.332333681565,-0.0551504897742,-0.0195639815845,-0.335103469485,0.573767366329,0.818995446097,0.00426796307226,0.0,0.81897536233,-0.573692226564,-0.0117188727138,0.0,-0.00714934379519,0.0102194600931,-0.999922221735,0.0,0.4415091882,-0.0281560389065,0.304812325417,1.0,-0.11998,-0.157688,3.486
0.0619863216421,-0.291068240603,-0.128620364504,-2.44496193171,-0.0321921409044,2.14825839797,-0.21763533618,-0.374495160407,-0.337119260469,-0.00835035196888,-0.317207658355,-0.0496590292134,-0.0168479399872,-0.324262472055,0.57387702497,0.818917985394,0.00438637793936,0.0,0.818899383882,-0.573801413801,-0.0116826152644,0.0,-0.0070503296341,0.010296584925,-0.999922133564,0.0,0.440088937538,-0.0301016513149,0.304844153975,1.0,-0.11998,-0.157688,3.498
0.0542257108906,-0.298176497934,-0.12867232842,-2.45159672667,-0.033241784116,2.14799503799,-0.224610115633,-0.37159732233,-0.340724954703,9.52719544731e-05,-0.321860571304,-0.0621114712773,-0.0160389066784,-0.329565409823,0.573881584557,0.818913795521,0.0045682942026,0.0,0.818898326473,-0.573806583761,-0.0115014013913,0.0,-0.00679746984954,0.0103416100405,-0.99992341982,0.0,0.437639870621,-0.0333846258374,0.304923102724,1.0,-0.11998,-0.157688,3.519
0.049406087145,-0.302555619276,-0.128675236952,-2.4558092329,-0.0339527312918,2.14771813295,-0.228999294626,-0.37642146607,-0.331028750918,-0.00109636329298,-0.324870498867,-0.0513719479941,-0.0223176470873,-0.339145482103,0.573782580143,0.818983528812,0.00450301679728,0.0,0.818966987058,-0.573707439917,-0.0115583041627,0.0,-0.0068827790064,0.0103199743752,-0.999923059781,0.0,0.436050400568,-0.035394449068,0.304897694526,1.0,-0.11998,-0.157688,3.532
0.041828494534,-0.309176884467,-0.12873196345,-2.46218881813,-0.0350254870075,2.14726759747,-0.235799224461,-0.378074275566,-0.327241547248,-0.00565188086414,-0.312206162594,-0.0478206696278,-0.0287616905878,-0.350358248053,0.573774802642,0.818989544348,0.00439875024029,0.0,0.818971006072,-0.573699026478,-0.0116903863729,0.0,-0.00705088122951,0.0103102965488,-0.999921988387,0.0,0.433607068027,-0.0385502015494,0.304839381593,1.0,-0.11998,-0.157688,3.552
0.0368559680965,-0.313443165038,-0.128856299971,-2.4661802406,-0.0356464558143,2.14702457246,-0.240250078085,-0.382419728726,-0.319772407067,-0.00791759221856,-0.311233288718,-0.0467183517717,-0.0248126799401,-0.339349622661,0.573888022546,0.818909723406,0.0044888072468,0.0,0.818892205802,-0.573811727439,-0.011679196493,0.0,-0.00698861188168,0.0103786000683,-0.999921718918,0.0,0.432066578392,-0.0406356691296,0.304850849561,1.0,-0.11998,-0.157688,3.565
0.0291785303252,-0.320001052228,-0.128927497036,-2.47224923036,-0.0366651677669,2.14660472695,-0.247172101697,-0.379698417223,-0.323315398183,0.00113363921373,-0.299476927131,-0.0536560217918,-0.0229315956925,-0.346220931671,0.573899910016,0.818900989981,0.00456166561365,0.0,0.818884834564,-0.573824015152,-0.0115919910593,0.0,-0.00687523204559,0.0103883214246,-0.999922403971,0.0,0.429696552688,-0.0437887678931,0.304885124667,1.0,-0.11998,-0.157688,3.585
