nelsonifechukwu/NELSON_IML_WORK/CNN-GradCAM/train2dof/data_sample_2022-02-22-16-34-26/robot_state.csv
position_joint1,position_joint2,position_joint3,position_joint4,position_joint5,position_joint6,position_joint7,velocity_joint1,velocity_joint2,velocity_joint3,velocity_joint4,velocity_joint5,velocity_joint6,velocity_joint7,ee_T_00,ee_T_10,ee_T_20,ee_T_30,ee_T_01,ee_T_11,ee_T_21,ee_T_31,ee_T_02,ee_T_12,ee_T_22,ee_T_32,ee_T_03,ee_T_13,ee_T_23,ee_T_33,v_x,v_y,time
0.465063684357,0.54776757377,-0.123907948076,-1.35584688648,0.0795522323108,1.89410511974,0.159174834314,7.70910222674e-05,0.000386179217052,0.000637644399823,0.000357041890512,-6.13759342158e-05,0.000387956046516,-7.81358126e-05,0.573785064435,0.818991732963,0.00199701549344,0.0,0.818948297563,-0.57372541571,-0.011982495081,0.0,-0.0086679927532,0.00851099301371,-0.999926211727,0.0,0.661656337757,0.260937795086,0.303215241453,1.0,0.0,0.0,0.0
0.465064142847,0.547756944034,-0.123907948088,-1.35584223804,0.0795543550491,1.89410512416,0.159172694126,0.00148858745522,-0.00309238416325,0.000267978645071,-1.31212067173e-05,-0.000247069656457,0.000465276125082,-2.17527339312e-05,0.573783226011,0.818992985759,0.00201139903503,0.0,0.818949725036,-0.573723504249,-0.0119764534821,0.0,-0.00865481112524,0.00851928682449,-0.999926255279,0.0,0.661657449158,0.260939137535,0.303224988418,1.0,-0.00018,-0.000236571428571,0.01
0.465060220094,0.547765347873,-0.123910536692,-1.35585082039,0.0795536806416,1.89410268273,0.159170808385,-0.00045523775563,-0.000730306598379,-0.00163279451742,0.000552670354508,0.000133786009166,-0.000217852097894,-0.000936855767688,0.573786990698,0.818990390844,0.00199396897657,0.0,0.818946907902,-0.573727346931,-0.0119850040406,0.0,-0.00867177557121,0.00850995797282,-0.999926187738,0.0,0.661656425463,0.260933635542,0.30321482264,1.0,-0.00054,-0.000709714285714,0.028
0.465056631975,0.547749519626,-0.12391016487,-1.35586643311,0.0795525723879,1.89410524803,0.159173266559,-0.000443575265369,-0.0025045528163,-3.26774383282e-05,-0.00451513936877,0.000220619054303,0.000197052355491,0.000153970573966,0.573792230857,0.818986713199,0.00199657516467,0.0,0.818943260533,-0.573732571785,-0.0119841145526,0.0,-0.00866949729876,0.00851163747465,-0.999926193198,0.0,0.661654690057,0.260929826597,0.303218813135,1.0,-0.00084,-0.001104,0.043
0.465056307844,0.547661759747,-0.123908630202,-1.35594169322,0.0795522168052,1.89411762792,0.159172165453,0.000475424161835,-0.00901428495622,0.000116006774282,-0.00591063435699,-0.000143131954344,0.000589515468558,0.0009464621952,0.573794465433,0.818985085048,0.00202208025241,0.0,0.818941902217,-0.573734636888,-0.011978068705,0.0,-0.00864988867484,0.00852907998904,-0.999926214388,0.0,0.661641982108,0.260923508458,0.303246186065,1.0,-0.00118,-0.00155085714286,0.06
0.465055506814,0.547529340069,-0.123906125521,-1.35612055309,0.0795497068497,1.89414594577,0.159166434332,0.000325338004773,-0.0110564296127,0.000637104159008,-0.00971323481348,0.000298932936429,-0.000383143376166,0.00060078281502,0.573797735315,0.818982814959,0.0020136164122,0.0,0.818939381619,-0.573737804027,-0.0119986817718,0.0,-0.0086715932698,0.00853401051298,-0.999925984328,0.0,0.66160989479,0.260906449606,0.303257232785,1.0,-0.00152,-0.00199771428571,0.077
0.465031945256,0.547383413084,-0.123908631283,-1.35631915872,0.07954623328,1.89421809911,0.159164268193,-0.00342533166151,-0.0131149133334,0.00048245158562,-0.0129186522181,0.000289967193895,0.0133532004099,0.00169704580807,0.573827169716,0.818962140189,0.00203448628271,0.0,0.818918916571,-0.573767084936,-0.0119953001802,0.0,-0.00865654210923,0.00854947305854,-0.999925982655,0.0,0.661589521508,0.260872094436,0.303272416514,1.0,-0.00184,-0.00241828571429,0.093
0.465021884657,0.547189749015,-0.123911218973,-1.35654394979,0.0795441869458,1.89435006395,0.159149941955,3.97067568176e-05,-0.0125091392698,-0.000105325725423,-0.0111153044449,7.81428147405e-05,0.00310191134107,0.000829949681597,0.573837780403,0.818954475093,0.00212518460588,0.0,0.818912419942,-0.573777302303,-0.0119500095194,0.0,-0.00856729603026,0.00859787254252,-0.9999263363,0.0,0.661572752652,0.26084845089,0.303314145553,1.0,-0.0022,-0.00289142857143,0.111
0.464992024894,0.546985465278,-0.123909052524,-1.35679564252,0.0795381346269,1.89447969381,0.159137520381,-0.00264933269481,-0.0115213089436,0.000310674225753,-0.0165583852892,-7.19037355359e-05,0.00989164572937,0.00180760056802,0.573863204979,0.818936461699,0.00220013029039,0.0,0.81889535036,-0.573802385198,-0.0119153179089,0.0,-0.00849561184683,0.00863960532771,-0.999926588205,0.0,0.661553912334,0.260810593937,0.303350217238,1.0,-0.00254,-0.00333828571429,0.128
0.464959323645,0.546762291914,-0.123906392243,-1.35712211918,0.0795337753396,1.8946062284,0.159105002457,-0.000746989410622,-0.0184477801272,7.70889590943e-05,-0.0291614963716,0.000191069875224,0.0115009685814,-0.00291118117132,0.573878627984,0.818925576082,0.00222891988854,0.0,0.818884699603,-0.573817547386,-0.0119171292482,0.0,-0.00848041186528,0.00866438099203,-0.999926502857,0.0,0.661518309895,0.260762568275,0.303363780214,1.0,-0.00286,-0.00375885714286,0.144
0.46492621339,0.546474156472,-0.123906916683,-1.3575475018,0.0795214859121,1.89475809047,0.158968718061,-0.00115893315007,-0.0153046808054,0.000902997230385,-0.0251319255636,-0.00204597262432,0.00359868497207,-0.00800949272726,0.57381498115,0.818970116411,0.00225005222205,0.0,0.818929383523,-0.573753688825,-0.0119212526316,0.0,-0.00847233701174,0.00868339441542,-0.999926406375,0.0,0.661468038524,0.260701975633,0.303378549168,1.0,-0.00322,-0.004232,0.162
0.46487987216,0.546193345205,-0.123911782233,-1.35800569883,0.0795098722526,1.89491786473,0.158934203908,-0.00374877619836,-0.0160286225422,-0.00137537174121,-0.0299815611974,0.000290720578877,0.00601363464739,-0.00110756548921,0.5738505791,0.818945194863,0.00224222630514,0.0,0.818904224984,-0.573789175588,-0.0119414899396,0.0,-0.00849302413949,0.00868896680137,-0.999926182474,0.0,0.661415992126,0.260626769859,0.303373326836,1.0,-0.00356,-0.00467885714286,0.179
0.464837352049,0.545901092281,-0.123909364443,-1.35849456834,0.0794899834593,1.89509088928,0.158901240422,-0.00327488124608,-0.0193905084183,-0.00308155282218,-0.0260365448052,-0.000250010755101,0.0121559973391,3.38115576218e-05,0.573878758971,0.818925489059,0.00222716701503,0.0,0.818884209106,-0.573817296899,-0.0119628072687,0.0,-0.00851882485051,0.0086891601821,-0.999925961318,0.0,0.661357604344,0.260554377682,0.303362484481,1.0,-0.00388,-0.00509942857143,0.195
0.464774861673,0.54555733107,-0.123912098103,-1.3591001101,0.0794348465117,1.89529094525,0.158774800283,-0.00933309980537,-0.019817722044,-0.00438712669106,-0.0348715262788,-0.00236910582511,0.0162243953409,-0.00554423412898,0.57384741681,0.818947621984,0.00216369308655,0.0,0.818905642571,-0.573786349626,-0.0119800020454,0.0,-0.00856966162112,0.00864672018064,-0.999925894819,0.0,0.661287475125,0.260448747091,0.303335009742,1.0,-0.00422,-0.00554628571429,0.212
0.464714744731,0.545170276711,-0.123912515882,-1.35978930077,0.0793776703913,1.89550719204,0.158733689363,-0.00294179058497,-0.0258472048352,0.000380783409235,-0.0422731074713,-0.00038120978321,0.00483729612067,-0.00153189641624,0.573886394591,0.818920522637,0.00208101111193,0.0,0.818877540192,-0.573825743543,-0.0120140383805,0.0,-0.00864457127568,0.00859895198757,-0.999925661943,0.0,0.661201383023,0.260337437723,0.303299669748,1.0,-0.00456,-0.00599314285714,0.229
0.464648447493,0.544778646797,-0.123909776693,-1.36044585568,0.0793567703894,1.89573342562,0.158640212222,-0.00352625043586,-0.0258445351384,0.0010914522122,-0.0392531231975,9.63922985697e-05,0.0162324946441,-0.00569678445723,0.573893242822,0.818915779748,0.00205874322466,0.0,0.818872287274,-0.573832467781,-0.0120508487697,0.0,-0.0086874237716,0.00860191406601,-0.999925265079,0.0,0.661123684151,0.260234368489,0.30328389969,1.0,-0.00488,-0.00641371428571,0.245
0.464574614383,0.544292305468,-0.123917254222,-1.36124305151,0.0793260025368,1.89602175995,0.158526225365,-0.00112605849144,-0.033696350294,0.000112302092158,-0.044777479961,-0.00297656342979,0.0212462804854,-0.00438438234956,0.573901870442,0.818909763775,0.00204665561183,0.0,0.818865972116,-0.57384100645,-0.0120733561274,0.0,-0.00871270204466,0.00860502397459,-0.999925018382,0.0,0.661033294021,0.260107574444,0.303273893264,1.0,-0.00524,-0.00688685714286,0.263
0.46451187564,0.543850797602,-0.123910546477,-1.36196912986,0.0792917165149,1.89628271592,0.158433932842,-0.00334748389974,-0.0282865776631,0.00148105326086,-0.0504528404897,-0.00236439901898,0.0195394753943,-0.00833006036792,0.573904298526,0.818908096727,0.00203276903706,0.0,0.818863980247,-0.573843352924,-0.0120969029085,0.0,-0.00873992900789,0.00860719163778,-0.999924762116,0.0,0.66094657741,0.260001761486,0.303263109909,1.0,-0.00554,-0.00728114285714,0.278
0.464434381617,0.54335549099,-0.123921422593,-1.36276048909,0.0792468131819,1.89654966479,0.158341606589,-0.00721553621752,-0.0303012026202,0.000245744316241,-0.0587640045902,-0.000573865609095,0.0163169725472,-0.00610796587766,0.573931713107,0.818888946575,0.00200717934922,0.0,0.818844479108,-0.573870859409,-0.0121120872371,0.0,-0.0087667614076,0.00859524419106,-0.999924629996,0.0,0.660855807189,0.259867662471,0.303260351005,1.0,-0.00586,-0.00770171428571,0.294
0.4643470073,0.542770154362,-0.1239221739,-1.36370117205,0.0791925369868,1.8968880261,0.158220705942,-0.00229266085762,-0.0338326932413,-0.000956586815093,-0.0544507604964,-0.00141642223038,0.0192910472498,-0.00717574849134,0.573942614884,0.818881339382,0.00199342267902,0.0,0.818836647512,-0.573881776543,-0.0121242791241,0.0,-0.00878452610912,0.00859109341282,-0.999924509758,0.0,0.660747897702,0.259719696198,0.303255999798,1.0,-0.00622,-0.00817485714286,0.312
0.464269037188,0.542138926652,-0.123932419834,-1.36467213549,0.0791358513612,1.89724663321,0.158084007762,-0.00584601402562,-0.0360963801583,-0.00210547289505,-0.0542223141445,-0.00110227544828,0.0215495281647,-0.0113910492678,0.573940529264,0.818882765386,0.00200806455925,0.0,0.818838291885,-0.573879653306,-0.0121137181136,0.0,-0.00876749639641,0.00859699945807,-0.999924608462,0.0,0.66063797291,0.259570446709,0.303271673743,1.0,-0.00658,-0.008648,0.33
0.464195857605,0.541586497206,-0.123920022463,-1.36552768122,0.0790866201397,1.8975550108,0.157975007508,-0.00470214615233,-0.0384482272224,0.000333845720119,-0.0608375026009,-0.00420276656475,0.0212588661263,-0.0156302363009,0.573942236327,0.818881549197,0.00201609685765,0.0,0.818837093401,-0.573881239308,-0.0121195933212,0.0,-0.00876767999629,0.00860696709587,-0.999924521104,0.0,0.660531109701,0.259432026857,0.30328251741,1.0,-0.0069,-0.00906857142857,0.346
0.464110538423,0.540912258285,-0.12392636837,-1.36654098863,0.0790272017574,1.89793681016,0.157836394875,-0.000506977582826,-0.0414436702545,0.000488112417066,-0.0584309629402,-0.00381466481982,0.0128162484923,-0.00975344000457,0.573937951123,0.818884461112,0.00205292742367,0.0,0.818840493786,-0.573876800936,-0.0120999993384,0.0,-0.00873054210525,0.00862583500824,-0.999924683466,0.0,0.660422487009,0.259292799267,0.303309020939,1.0,-0.00722,-0.00948914285714,0.362
0.464009051942,0.540154654084,-0.123923946689,-1.36769465673,0.0789552510001,1.89836442067,0.157694741601,-0.00927328379491,-0.0425635900564,0.00114759677165,-0.0666248264167,-0.00429907860436,0.0340930187345,-0.00414480956542,0.573948010926,0.818877344384,0.00207906459768,0.0,0.81883372404,-0.573886751776,-0.0120861661104,0.0,-0.00870410756064,0.00863940554117,-0.999924796764,0.0,0.660290995872,0.259117574644,0.303332334684,1.0,-0.00758,-0.00996228571429,0.38
0.463919241634,0.539455903418,-0.123931695984,-1.36877631466,0.0788974702574,1.89877285894,0.157565086682,-0.00528536140766,-0.0457796639849,-0.000260511414377,-0.06698412343,-0.000357933776377,0.0301342493263,-0.00589959320884,0.573965272128,0.818865186352,0.00210234946263,0.0,0.818821846512,-0.573903887083,-0.0120772085722,0.0,-0.0086832262985,0.00865351458067,-0.99992485631,0.0,0.660169066469,0.258952933587,0.303346908005,1.0,-0.0079,-0.0103828571429,0.396
0.463815194545,0.538697940436,-0.123931707741,-1.36994260938,0.0788311468135,1.89922661552,0.15741100672,-0.0101835627379,-0.0418081291875,4.0360807791e-05,-0.0681692588469,0.000189521137542,0.024745436961,-0.00937377809203,0.57397115248,0.818860961177,0.00214226090713,0.0,0.818818131981,-0.573909585728,-0.0120582358074,0.0,-0.00864472093129,0.00867536860517,-0.999925000577,0.0,0.660040334129,0.258775816078,0.303366581959,1.0,-0.00824,-0.0108297142857,0.413
0.463695155437,0.537774087072,-0.123937291366,-1.37138695763,0.0787421478962,1.89977699966,0.157231612921,-0.00466751459607,-0.0476731806396,0.000650516186833,-0.0730911305772,-0.0106680292833,0.025637712882,-0.0145619553642,0.573982448068,0.81885298628,0.00216404042462,0.0,0.818810496879,-0.573920843485,-0.0120408685466,0.0,-0.0086178791818,0.00868335340204,-0.999925162966,0.0,0.659877256155,0.258556988008,0.30337947781,1.0,-0.00864,-0.0113554285714,0.433
0.46362108716,0.537193642774,-0.123941304237,-1.37228589369,0.0786880557749,1.9001055045,0.157125437867,-0.00433370163735,-0.0457878298411,0.00049969933635,-0.0747804185143,-0.00663807828902,0.0271651781697,-0.003933517685,0.573993717602,0.818845069888,0.00217038569341,0.0,0.818802626621,-0.573932047849,-0.0120420094305,0.0,-0.0086150520145,0.00868932256333,-0.999925135474,0.0,0.659764444675,0.258407919544,0.303386518037,1.0,-0.0089,-0.0116971428571,0.446
0.463488857942,0.536211488092,-0.12394629621,-1.37383966842,0.0786071697786,1.90069258583,0.156930170047,-0.00333560091567,-0.0482537328391,-0.000691855946788,-0.0758992120402,-0.00365672417199,0.0282494114735,-0.00607873235474,0.574009820926,0.818833731504,0.00218918540782,0.0,0.818791485084,-0.573948020986,-0.0120382748295,0.0,-0.00860103246368,0.00870274190511,-0.99992513946,0.0,0.65959515052,0.258185319243,0.303394900132,1.0,-0.00928,-0.0121965714286,0.465
0.46337070927,0.535377198372,-0.123946960511,-1.37515757714,0.0785220765234,1.90116661574,0.156773546273,-0.00743360651587,-0.0499478111495,-0.00297465200832,-0.0840147697851,-0.00677622824951,0.0319312338369,-0.0122875683312,0.574028269437,0.818820829693,0.00217753288313,0.0,0.818778448624,-0.573966533778,-0.0120423034441,0.0,-0.00861082368142,0.00869570702123,-0.999925116394,0.0,0.659441032964,0.257979934061,0.303397479003,1.0,-0.0096,-0.0126171428571,0.481
0.463257820266,0.534538408225,-0.123941585477,-1.37650611069,0.0784585540757,1.90165865807,0.156599252899,-0.00415036424235,-0.0507369257961,0.00128602735413,-0.0869104148353,-0.0063658149838,0.0297457068395,-0.0171249723862,0.574031161691,0.818818814552,0.00217284242548,0.0,0.818776152628,-0.573969223894,-0.0120701620543,0.0,-0.00863629737963,0.00870788836106,-0.999924790696,0.0,0.659279269832,0.257782663154,0.303389917294,1.0,-0.00992,-0.0130377142857,0.497
0.46312886453,0.533676096784,-0.123947676429,-1.37791089075,0.0783818280911,1.90216723216,0.156431969043,-0.00747512167137,-0.0525044102676,0.000819494229798,-0.084886278287,-0.00439077721955,0.0307427999661,-0.00800024558887,0.574060404435,0.818798384429,0.00214583728087,0.0,0.81875528548,-0.573998493427,-0.0120937563741,0.0,-0.00867080775436,0.00869962978558,-0.999924563922,0.0,0.659115503282,0.257560784317,0.303373809835,1.0,-0.01024,-0.0134582857143,0.513
0.462992236236,0.53268197977,-0.123947822303,-1.37952801123,0.0782922680199,1.90277775243,0.156221251701,-0.00411765962664,-0.0513705996813,0.000870551590411,-0.0931647663883,0.000519165318837,0.0301721450768,-0.0137586311079,0.574062977791,0.818796594048,0.00214056219377,0.0,0.818753342096,-0.57400100483,-0.012106120799,0.0,-0.00868393281982,0.00870243575432,-0.999924425606,0.0,0.658937708402,0.257331371635,0.303361231422,1.0,-0.01058,-0.0139051428571,0.53
0.462864052034,0.531760228211,-0.123948734139,-1.38099972988,0.07820644328,1.90331819547,0.156043506363,-0.00765900725905,-0.0556730728223,-0.000996857656483,-0.0919953187442,-0.0128556722778,0.0286470596547,-0.0163778535347,0.574081675906,0.818783512005,0.00212996702771,0.0,0.818740070065,-0.574019694723,-0.0121175344475,0.0,-0.00869916187458,0.00870051134878,-0.999924309978,0.0,0.658753978567,0.257093897675,0.303354195738,1.0,-0.01092,-0.014352,0.547
0.462728063508,0.530765621883,-0.123956537698,-1.38262599587,0.0781020484949,1.90388917178,0.155831731381,-0.00964300642911,-0.0608094893627,-0.00175069989492,-0.0928271828554,-0.00445781616979,0.027184765048,-0.0147908017377,0.574085466009,0.818781001678,0.0020726576767,0.0,0.818736822343,-0.574023745964,-0.0121450282285,0.0,-0.00875453220656,0.00866941226334,-0.999924096848,0.0,0.658557033805,0.256841687242,0.303330793613,1.0,-0.01126,-0.0147988571429,0.564
0.462580902959,0.529657866169,-0.123954889869,-1.38436473724,0.0779987326023,1.90452598438,0.155599652999,-0.00420678204406,-0.0638846297449,9.02065207056e-05,-0.0958456882801,-0.00478731587396,0.0271339986478,-0.00950749417528,0.574081437234,0.81878381089,0.00207878540488,0.0,0.818739652633,-0.574019632294,-0.0121486562337,0.0,-0.0087540279567,0.00867646912033,-0.999924040054,0.0,0.658350115539,0.256580408644,0.303338726247,1.0,-0.01162,-0.015272,0.582
0.462461694154,0.528718740055,-0.123951963409,-1.38584099115,0.0778995306519,1.90507953311,0.155403219338,-0.00896732816556,-0.0587778972602,0.00071432317848,-0.105395364496,-0.00807322293771,0.0391559849225,-0.0104941257972,0.574069521844,0.818792143699,0.00208720098022,0.0,0.818748161358,-0.574007746895,-0.0121367903149,0.0,-0.00873960729211,0.0086764204257,-0.999924166621,0.0,0.658175368561,0.256362265734,0.303345308808,1.0,-0.01192,-0.0156662857143,0.597
0.462320613447,0.527595168754,-0.123957258964,-1.38756288357,0.0777971054848,1.90575804364,0.155148069932,-0.0109579856335,-0.0748719707495,-0.000815782066621,-0.104051208952,-0.00169898874333,0.0411665362461,-0.0141510883348,0.574045739344,0.818808644726,0.00215391820332,0.0,0.818765591557,-0.573983735512,-0.0120964602541,0.0,-0.00866853910653,0.00870764323102,-0.99992451384,0.0,0.657980159613,0.256106164048,0.303375712399,1.0,-0.01226,-0.0161131428571,0.614
0.462164846401,0.526375771961,-0.123960216125,-1.38945848552,0.0776801279125,1.90647089355,0.154899217987,-0.00724824581841,-0.068524805102,0.000333876977548,-0.107410676613,-0.00562542171333,0.0383261694796,-0.0188775283091,0.574042521083,0.818810825519,0.00218240782329,0.0,0.81876817389,-0.573980425493,-0.0120787199746,0.0,-0.00863769360494,0.00872075283532,-0.999924666522,0.0,0.65775707285,0.255822427808,0.303393473721,1.0,-0.01262,-0.0165862857143,0.632
0.462024679888,0.52532037295,-0.123963645859,-1.39108071831,0.0775752972096,1.90705232461,0.154675454577,-0.0128868092523,-0.0740035381569,0.00012656864185,-0.109432600564,-0.00985523880965,0.0398572005754,-0.0149091180814,0.574035453219,0.818815756428,0.00219143209191,0.0,0.818773251246,-0.573973349084,-0.0120708113192,0.0,-0.00862611296336,0.00872352758006,-0.999924742289,0.0,0.657562473516,0.255572079639,0.303414269849,1.0,-0.01292,-0.0169805714286,0.647
0.461872988582,0.524143751141,-0.123966500167,-1.39296196676,0.0774565624228,1.90772313868,0.154415613762,-0.00909299596732,-0.0698437592341,-0.000768751487643,-0.112706880208,-0.00989059376473,0.0421065563675,-0.0139572962931,0.574022309657,0.818825056606,0.00215907174662,0.0,0.818782108552,-0.573960324726,-0.012089303392,0.0,-0.00865996974476,0.00870750681893,-0.999924589281,0.0,0.65731750735,0.255270940767,0.303404321253,1.0,-0.01328,-0.0174537142857,0.665
0.461708691971,0.522935020553,-0.123967811116,-1.39489090032,0.0773419102588,1.90844978945,0.154176807351,-0.00818127203168,-0.0755039761889,-0.000303815864288,-0.117805779429,-0.00797919277694,0.0407543097784,-0.0114965402331,0.574020003166,0.818826643277,0.00217051282661,0.0,0.818783811825,-0.573957936538,-0.0120873272245,0.0,-0.00865180908838,0.00871571618201,-0.999924588402,0.0,0.657088833199,0.254984705171,0.3034009859,1.0,-0.01362,-0.0179005714286,0.682
0.461547070127,0.521703124303,-0.123972469233,-1.39684408987,0.0772255164701,1.90921433891,0.1538946098,-0.00980441420228,-0.0737389768199,-0.000272335431622,-0.113694957653,-0.00978894111999,0.039920072201,-0.0216490645505,0.574008481656,0.818834645601,0.00219842032241,0.0,0.818792219673,-0.57394633922,-0.0120684547592,0.0,-0.00862045955017,0.00872761288143,-0.999924755394,0.0,0.656875955182,0.254706604168,0.303401590186,1.0,-0.01394,-0.0183211428571,0.698
0.461367102199,0.520350332279,-0.123973237381,-1.39899311818,0.0770885753506,1.90999858034,0.153620867103,-0.00975886155423,-0.0820221356157,0.00123059556094,-0.118854574068,-0.00813368328406,0.0385809077061,-0.0140324165859,0.574009855888,0.818833721537,0.00218373950934,0.0,0.818791110869,-0.573947782633,-0.0120750351289,0.0,-0.00863425973933,0.00871938354806,-0.99992470812,0.0,0.65661447627,0.254381760831,0.303396921682,1.0,-0.0143,-0.0187942857143,0.716
0.461216766594,0.519107560123,-0.12398611073,-1.40092076036,0.0769656865967,1.91069655854,0.153343812225,-0.0073712009072,-0.0787780682721,-0.00138508015938,-0.120872042911,-0.0162008727894,0.0469262939062,-0.01894446282,0.573984458242,0.818851509706,0.00218944059561,0.0,0.81880903469,-0.573922425901,-0.012064852275,0.0,-0.00862291945967,0.00871793928478,-0.999924818571,0.0,0.65637888701,0.254090619626,0.303412863611,1.0,-0.01462,-0.0192148571429,0.732
0.461049176227,0.517840212948,-0.12398004416,-1.40291485523,0.0768389671466,1.91141303919,0.153073478933,-0.00779411362433,-0.0817766116775,0.000935163384137,-0.127941905413,-0.00344156654588,0.0442905393836,-0.0149672672747,0.573967445324,0.818863461435,0.00217948063019,0.0,0.818820808605,-0.573905409218,-0.0120752460358,0.0,-0.00863732833893,0.0087155700125,-0.999924714865,0.0,0.656131546308,0.253792319026,0.303415086303,1.0,-0.01494,-0.0196354285714,0.748
0.460867674209,0.516500410149,-0.123988456277,-1.40503675414,0.0766940607408,1.91220393628,0.152781707441,-0.0109710408195,-0.0807980253436,-0.000382428711881,-0.122308209132,-0.0109941321556,0.0515971359797,-0.0157345807822,0.573956227181,0.818871335902,0.00217518270391,0.0,0.818828779336,-0.573894364505,-0.0120596609587,0.0,-0.00862715168365,0.00870298726269,-0.999924912314,0.0,0.65587778677,0.253464386109,0.303413844897,1.0,-0.01528,-0.0200822857143,0.765
0.460673076381,0.515040796903,-0.123989588946,-1.40735299334,0.0765596956952,1.91307254987,0.152463833773,-0.0104765827164,-0.0786202705081,-0.00136807670911,-0.129577167346,-0.00424487548961,0.0452892053813,-0.0166416376299,0.573942184292,0.818881146191,0.00218732788005,0.0,0.818838668349,-0.573880191355,-0.012062673362,0.0,-0.008622797662,0.00871451352771,-0.999924849483,0.0,0.655596861805,0.253117613892,0.30341024484,1.0,-0.01564,-0.0205554285714,0.783
0.460509142155,0.513795504617,-0.123991753899,-1.40935234219,0.0764364499215,1.9137669276,0.152185411846,-0.0113521531424,-0.0836624237706,-4.35416931931e-06,-0.132738902618,-0.0158458095763,0.0393704015575,-0.0180711180672,0.573921595528,0.818895711373,0.0021361139673,0.0,0.818852470774,-0.573859729497,-0.0120991268077,0.0,-0.00868226043119,0.00869327973454,-0.999924519772,0.0,0.65534179527,0.252815246183,0.303391732922,1.0,-0.01594,-0.0209497142857,0.798
0.460299001556,0.512305167813,-0.123992418253,-1.41176529477,0.0762900197098,1.9146181184,0.151852577135,-0.00882134120192,-0.0851586702577,-0.000291479825507,-0.134872316269,-0.00192231687967,0.0465311979649,-0.0217009569272,0.573908407056,0.818905109769,0.00207566969378,0.0,0.818860951021,-0.573846677939,-0.0121441348701,0.0,-0.00875394648121,0.00866947287208,-0.99992410145,0.0,0.655037881203,0.252444566237,0.303361229928,1.0,-0.0163,-0.0214228571429,0.816
0.460109281046,0.510851084492,-0.123998935723,-1.41406995454,0.076152395519,1.91549582146,0.151528281886,-0.00998348178499,-0.0866961848359,-0.000527711382836,-0.134127393075,-0.00856863488833,0.0572253208859,-0.0184016168078,0.573891702357,0.818916763594,0.00209646638301,0.0,0.818872869489,-0.573829877102,-0.0121343586812,0.0,-0.00873418285264,0.00868071433404,-0.99992417675,0.0,0.65477666289,0.252113006462,0.303360661014,1.0,-0.01662,-0.0218434285714,0.832
0.459918715843,0.509447189117,-0.124002006712,-1.41630189086,0.0760143486038,1.9163196124,0.151214341183,-0.0120382546205,-0.0907323091396,0.000319062011475,-0.139966317179,-0.000584922208393,0.0495888464743,-0.0203174827862,0.573866594766,0.818934372438,0.00209092145183,0.0,0.818890390754,-0.573804782002,-0.0121386566157,0.0,-0.00874115070425,0.00867837210739,-0.999924136193,0.0,0.654483662713,0.251760106148,0.303350681994,1.0,-0.01696,-0.0222902857143,0.849
0.459711041691,0.507932022663,-0.124010621835,-1.41867897231,0.0758587100465,1.91717203079,0.150884285244,-0.0119623591816,-0.093818332606,-0.00116097906207,-0.135526083581,-0.00542631965451,0.0505611441759,-0.0190657120363,0.573853654549,0.818943478317,0.00207590554382,0.0,0.818899347098,-0.573791955643,-0.0121407521304,0.0,-0.00875162037315,0.00866713954276,-0.999924142039,0.0,0.65418801035,0.251389818194,0.3033534261,1.0,-0.0173,-0.0227371428571,0.866
0.45949525519,0.50639772818,-0.124014097777,-1.4211145287,0.0757064954449,1.91806617745,0.150552747853,-0.0134079359042,-0.0905273806343,-0.00100424278072,-0.152124512036,-0.00729745716102,0.0503065519963,-0.0253698943772,0.573846267024,0.818948678482,0.00206657598992,0.0,0.818904408699,-0.573784593652,-0.0121472796383,0.0,-0.0087623978456,0.00866316605676,-0.999924082087,0.0,0.653886893374,0.251013968461,0.303344689479,1.0,-0.01764,-0.023184,0.883
0.459289160257,0.504895955012,-0.124017297892,-1.42342280704,0.0755702638248,1.9189650745,0.150232868087,-0.01133930737,-0.0933868690065,-0.000516213323763,-0.152110598639,-0.00296904344358,0.0581337624685,-0.0195996052706,0.573838008617,0.818954261973,0.00214559181485,0.0,0.818911034835,-0.573776001924,-0.0121063430988,0.0,-0.00868361937098,0.00870429621357,-0.999924412134,0.0,0.653612078189,0.250662179704,0.303373616836,1.0,-0.01796,-0.0236045714286,0.899
0.459040317129,0.503132190354,-0.124023708585,-1.42604617715,0.0754005074587,1.91995515612,0.149867528227,-0.0175388821292,-0.100211832528,-0.000150831077489,-0.146642105932,-0.00448141429473,0.0524169871398,-0.0191282097331,0.573836057339,0.81895534574,0.00225119588681,0.0,0.818913622517,-0.57377372907,-0.0120388365832,0.0,-0.00856775747336,0.00875202200207,-0.999924995009,0.0,0.653298907946,0.250247577305,0.303442885568,1.0,-0.01832,-0.0240777142857,0.917
0.458806068092,0.501429692953,-0.124026878996,-1.42858147746,0.0752358250159,1.92086606879,0.149507008893,-0.0142555120115,-0.104891382928,-0.000417686264983,-0.157119467277,-0.00916828458113,0.056477977602,-0.023367184361,0.573819812376,0.818966550367,0.00231499580785,0.0,0.818925692913,-0.573757256418,-0.0120027953672,0.0,-0.00850180595942,0.0087834204397,-0.999925282619,0.0,0.652983639369,0.24984968004,0.303503626936,1.0,-0.01866,-0.0245245714286,0.934
0.458600655416,0.499940287371,-0.124025128023,-1.43086769987,0.0750904239005,1.92167377326,0.149187917438,-0.0136764814922,-0.0943409606704,7.86656123645e-05,-0.149710436895,-0.00217413347485,0.0554289279534,-0.0251245369841,0.573802480797,0.818978668014,0.00232406357076,0.0,0.818937871036,-0.573739830135,-0.0120048990843,0.0,-0.0084985120461,0.0087918738199,-0.999925236329,0.0,0.652691763278,0.249496455495,0.303524608285,1.0,-0.01896,-0.0249188571429,0.949
0.458327593655,0.498145851002,-0.124034015462,-1.43365659932,0.0749172179675,1.92272163315,0.148780650023,-0.0138017706568,-0.103873729014,-0.00246599151953,-0.15651064353,-0.0113558295026,0.0541835798648,-0.0218759088554,0.573794062492,0.818984446509,0.00236582482787,0.0,0.81894422964,-0.573731279624,-0.0119797504656,0.0,-0.0084540443651,0.00881155792823,-0.999925440011,0.0,0.652354277,0.249049065947,0.303539693177,1.0,-0.01932,-0.025392,0.967
0.458059663828,0.496472086832,-0.124033962689,-1.43633015854,0.0747535056532,1.92366893929,0.148390390502,-0.0155186200106,-0.0993204879269,0.000165881165743,-0.16377905365,-0.0043201795746,0.0523401366032,-0.0190808520155,0.573784855816,0.81899102088,0.00232246730787,0.0,0.818950100882,-0.5737221083,-0.0120175543901,0.0,-0.0085099821416,0.00879764493097,-0.999925088018,0.0,0.652016255542,0.248617306367,0.30351594778,1.0,-0.01966,-0.0258388571429,0.984
0.457809999171,0.494891483688,-0.124039670678,-1.43891364667,0.0745940062278,1.92455177798,0.148012151684,-0.0140016188091,-0.100848150724,-0.000668981686481,-0.16206050365,-0.0185885368446,0.0535605345049,-0.0290284608709,0.573770592239,0.819001297218,0.00222025627691,0.0,0.818958875644,-0.573708103118,-0.0120879825736,0.0,-0.00862646047754,0.00875419604979,-0.999924471263,0.0,0.651679996563,0.248200046789,0.303464217552,1.0,-0.01998,-0.0262594285714,1.0
0.457486575673,0.492682682581,-0.124103068661,-1.44222838417,0.0744026111749,1.9257549773,0.147548707554,-0.0182372195369,-0.168625354989,-0.00649465150572,-0.244729327165,-0.00814147738639,0.0909803422674,-0.0321612015094,0.573816400914,0.818968986483,0.00229872186236,0.0,0.818927698264,-0.573753687294,-0.012036537466,0.0,-0.00853881514334,0.00878941883543,-0.999924914557,0.0,0.651278394646,0.247639079579,0.303530334306,1.0,-0.036108,-0.0474562285714,1.017
0.457083675533,0.489129885065,-0.124171823205,-1.44768808888,0.0741266699628,1.92790780806,0.146710701707,-0.0300647437526,-0.235488642515,-0.00394384323303,-0.369559781128,-0.0167728832898,0.144092476345,-0.0600395547905,0.573709895551,0.819042943599,0.00252174308985,0.0,0.819004468644,-0.573646195395,-0.0119360693479,0.0,-0.00832972541745,0.00891333156745,-0.999925581328,0.0,0.650602584183,0.246837209911,0.303591468855,1.0,-0.053244,-0.0699778285714,1.034
0.456431566158,0.484504796887,-0.124229228014,-1.45498986716,0.0737264020036,1.93069646124,0.145579419969,-0.0435183535206,-0.318496934956,-0.00432017230492,-0.500909905544,-0.0366043045157,0.183901136019,-0.0812210402306,0.573614219568,0.819109619335,0.00262783620979,0.0,0.819072314064,-0.573549890383,-0.0119085883216,0.0,-0.00824740286489,0.00898349644171,-0.999925635804,0.0,0.649691192994,0.245699471446,0.303572249363,1.0,-0.069372,-0.0911746285714,1.05
0.455463991604,0.478192456989,-0.1244157644,-1.46512175482,0.0731223375932,1.93416047461,0.144048331705,-0.064844815187,-0.413088909525,-0.0133113156931,-0.637810103727,-0.0333846633267,0.218652020946,-0.0970042366447,0.573619460347,0.819106913084,0.00230793209583,0.0,0.819065257306,-0.573556231749,-0.0120871914559,0.0,-0.00857713838176,0.00882396512462,-0.999924282302,0.0,0.648368860586,0.24398329416,0.303432635835,1.0,-0.086508,-0.113696228571,1.067
0.45416242988,0.469880437601,-0.124588674732,-1.47814266053,0.0723662541588,1.93870873065,0.142158861523,-0.0754923757784,-0.492517208537,-0.00876883087511,-0.733402166541,-0.0409490500566,0.274318941961,-0.116689618852,0.573685672954,0.819060896697,0.00217785443522,0.0,0.819017019258,-0.5736224692,-0.0122119570691,0.0,-0.00875323879572,0.00878969388602,-0.999923058086,0.0,0.646665751975,0.241794630012,0.303383412933,1.0,-0.104652,-0.137542628571,1.085
0.452794366699,0.461204846085,-0.124723419581,-1.49142760611,0.0715359517768,1.94363130894,0.139997463412,-0.0921573991612,-0.558121697673,-0.0120473564914,-0.852429103154,-0.0640283244514,0.31340651165,-0.140385411776,0.573536415328,0.819164727755,0.0024240455907,0.0,0.819124374756,-0.57347249145,-0.0120543408348,0.0,-0.00848453071743,0.00889936960083,-0.999924404122,0.0,0.644962605977,0.239575804492,0.303473214396,1.0,-0.12078,-0.158739428571,1.101
0.450990272957,0.450697809724,-0.124900894036,-1.50761141638,0.0704968913701,1.94931233787,0.137463035535,-0.114358670101,-0.658487217807,-0.00893608332393,-0.977163062431,-0.0719020487462,0.355906120218,-0.159774659249,0.573530626457,0.819168843291,0.0024028312626,0.0,0.819128205373,-0.573466782806,-0.0120656157039,0.0,-0.00850599631275,0.00888839812239,-0.999924319339,0.0,0.642817741787,0.236757254357,0.303489389331,1.0,-0.137916,-0.181261028571,1.118
0.448904732666,0.438880116242,-0.125061023221,-1.52575678586,0.0692735340191,1.95566098834,0.134657932994,-0.12871773774,-0.719237289737,-0.00992176573989,-1.11306704848,-0.0736454153808,0.377338663373,-0.173916312456,0.573536220911,0.819165003767,0.00237630128488,0.0,0.819124205454,-0.573472680583,-0.012056847255,0.0,-0.00851396737957,0.00886169512769,-0.999924488508,0.0,0.640363341101,0.233579380828,0.30349841207,1.0,-0.155052,-0.203782628571,1.135
0.446622310427,0.426502489775,-0.125228526314,-1.54443103425,0.0680270614421,1.96213633354,0.131602508544,-0.149796141952,-0.802599575937,-0.0156463184757,-1.20130781389,-0.0868255058349,0.417346592032,-0.202157900322,0.573495202654,0.819193335727,0.0025056204355,0.0,0.819154175662,-0.573431087715,-0.0119987932675,0.0,-0.0083926924151,0.0089339118244,-0.999924871145,0.0,0.637801532341,0.230233047909,0.303613148074,1.0,-0.17118,-0.224979428571,1.151
0.443824876136,0.412218295023,-0.125416701753,-1.56572174814,0.0664827369507,1.96960660738,0.128034189242,-0.172321188954,-0.863090857257,-0.0111014974342,-1.28883108674,-0.0998648130126,0.458049971435,-0.216227572477,0.573465883853,0.819212861249,0.00281334720418,0.0,0.819178741877,-0.573401748969,-0.0117204964914,0.0,-0.00798855706311,0.00902611288345,-0.999927353482,0.0,0.634876271792,0.226300509724,0.303821348726,1.0,-0.188316,-0.247501028571,1.168
0.440654752852,0.396827007011,-0.125617660494,-1.58865732808,0.0649509778726,1.97749943427,0.124150671711,-0.198676082536,-0.960160529161,-0.013385568157,-1.37833127467,-0.102974973097,0.484572635037,-0.228601954908,0.573535952635,0.819162486938,0.00317457555473,0.0,0.819132681879,-0.573470161885,-0.0115917990699,0.0,-0.00767519036808,0.00924889018008,-0.999927772133,0.0,0.631437554965,0.221736958002,0.304020883021,1.0,-0.20646,-0.271347428571,1.186
0.43732757388,0.381470921984,-0.125797087923,-1.61158368618,0.0632779802799,1.98521091551,0.120104012538,-0.21412354894,-0.998302423369,-0.0141918741181,-1.45475817494,-0.0976751668884,0.485670220424,-0.265387220355,0.573489213148,0.819195201256,0.00317671884963,0.0,0.819165483036,-0.573423492964,-0.0115825740067,0.0,-0.00766693143774,0.00924491767757,-0.999927872229,0.0,0.628289887941,0.217604579878,0.304041183653,1.0,-0.22158,-0.291219428571,1.201
0.433129385019,0.363033823183,-0.126034317747,-1.63885896255,0.0612166952977,1.99429872179,0.115206925004,-0.24453572038,-1.03347247909,-0.0180009926836,-1.51873083196,-0.1107268949,0.509826290134,-0.274414293452,0.573506323703,0.819182711869,0.00330577497821,0.0,0.819155082328,-0.573440714013,-0.0114649687964,0.0,-0.00749638259485,0.00928335321354,-0.999928809266,0.0,0.62423681282,0.212236302526,0.304142063936,1.0,-0.239724,-0.315065828571,1.219
0.428635976237,0.344599408115,-0.1262911741,-1.66602662101,0.0591468300756,2.00310761424,0.110108479513,-0.278229244337,-1.11251626927,-0.0178671985484,-1.56972910167,-0.120523836038,0.530996206759,-0.304482155722,0.573547607329,0.819153787747,0.00331074738919,0.0,0.81912613993,-0.573481875015,-0.0114740059691,0.0,-0.00750046623699,0.00929298731807,-0.999928689154,0.0,0.620085577911,0.206712409737,0.304181641083,1.0,-0.25686,-0.337587428571,1.236
0.424056194901,0.326428167373,-0.12650744273,-1.69264290064,0.0570998312756,2.01174897691,0.104970432085,-0.291877555827,-1.15305509172,-0.0079778393454,-1.68326209516,-0.132538645468,0.557534818355,-0.327235415685,0.573524658011,0.819169348486,0.00343395620594,0.0,0.819143073077,-0.573458288867,-0.011443935576,0.0,-0.00740543317751,0.00937646120278,-0.99992861822,0.0,0.615920095258,0.201260015424,0.304207490688,1.0,-0.272988,-0.358784228571,1.252
0.418734030149,0.30616379171,-0.126710658433,-1.7220078059,0.0546566229191,2.02104004563,0.0990649204689,-0.324924724734,-1.22590145736,-0.0136007904735,-1.75342068125,-0.146277847334,0.573650213241,-0.364330424732,0.57336298624,0.819282275136,0.00349092521143,0.0,0.819257118586,-0.5732969649,-0.0113626838142,0.0,-0.00730804932116,0.00937508815284,-0.999929347573,0.0,0.611181598424,0.195123415643,0.304252625623,1.0,-0.290124,-0.381305828571,1.269
0.412471704533,0.283740176858,-0.126987804256,-1.75427047221,0.051919505239,2.03087001164,0.0923782173923,-0.357976258464,-1.25826117768,-0.0100929201232,-1.80766766091,-0.155769191721,0.56438037676,-0.374867379079,0.573298702828,0.819327695307,0.00338702518007,0.0,0.819301147298,-0.573232921382,-0.0114190534226,0.0,-0.0074145351373,0.00932170160227,-0.999929062758,0.0,0.605807507507,0.188152852343,0.304246493323,1.0,-0.308268,-0.405152228571,1.287
0.406711959916,0.264261985783,-0.127258877875,-1.7818567185,0.0495848960924,2.03910401431,0.0863561823727,-0.398739474474,-1.32056813895,-0.0198376423345,-1.85824459314,-0.167659651824,0.54540569054,-0.4064457666,0.573282870283,0.819338505109,0.00345131664918,0.0,0.819312354002,-0.573216356287,-0.0114465001519,0.0,-0.00740034964882,0.00938996961604,-0.999928529094,0.0,0.601108974407,0.181999637666,0.304311091322,1.0,-0.323388,-0.425024228571,1.302
0.399074328805,0.240165707397,-0.127692916268,-1.81580017388,0.0464737368138,2.04905161288,0.0787130888371,-0.437981439696,-1.35393638556,-0.0216633480664,-1.91338575539,-0.183072462401,0.545209386845,-0.439711920501,0.573421769843,0.81924158326,0.00338364143746,0.0,0.819215231364,-0.573356283415,-0.0113896387637,0.0,-0.00739097591371,0.00930317653576,-0.999929409699,0.0,0.595214989942,0.174106115253,0.304314627983,1.0,-0.341532,-0.448870628571,1.32
0.391315724275,0.216600023725,-0.128000749472,-1.84832734667,0.0435539987592,2.05841157539,0.070878324805,-0.474722517277,-1.40609075216,-0.0185241958871,-1.91618831904,-0.180241988324,0.539957115978,-0.476830703277,0.573336647522,0.819299898038,0.00367594671568,0.0,0.819276933461,-0.573269874801,-0.0113006125666,0.0,-0.00715141889707,0.00949085640506,-0.999929387933,0.0,0.589384727807,0.166473607743,0.304440844505,1.0,-0.358668,-0.471392228571,1.337
0.383883226891,0.195159647087,-0.128310196526,-1.87771008348,0.0407134736603,2.06651047585,0.0635283899184,-0.508966541451,-1.44584029729,-0.0226006665985,-1.9818113433,-0.178330770306,0.554858146101,-0.499738230972,0.573248555623,0.819361392062,0.00370804191047,0.0,0.819338972436,-0.573181886052,-0.0112659065844,0.0,-0.00710560325088,0.00949649076281,-0.999929661059,0.0,0.583569652451,0.158889951435,0.304472837322,1.0,-0.374796,-0.492589028571,1.353
0.374045727975,0.168592706258,-0.128844317432,-1.91367883872,0.0372293395016,2.0760559049,0.0540655646521,-0.559857907673,-1.49601040487,-0.0247576322168,-2.00878441376,-0.188923388255,0.511707107311,-0.531542516059,0.573371186584,0.819275316132,0.00376638716218,0.0,0.819253181737,-0.573303722158,-0.0113054533463,0.0,-0.00710313184245,0.00956803008054,-0.999928996638,0.0,0.577130489299,0.150327929191,0.304517786126,1.0,-0.391932,-0.515110628571,1.37
0.363994283651,0.14283711276,-0.129283268236,-1.94812638241,0.0335680073407,2.08477472652,0.0445083586561,-0.605449130054,-1.51200049063,-0.0151790245603,-2.02600543776,-0.223981978617,0.48760023111,-0.567586108931,0.573297091832,0.819327763853,0.00363411319101,0.0,0.819304361386,-0.573230569382,-0.011305956038,0.0,-0.00718023714698,0.00945929862494,-0.999929480446,0.0,0.570361060165,0.141462911503,0.304505912615,1.0,-0.409068,-0.537632228571,1.387
0.35369425345,0.117913999207,-0.129808750686,-1.98074895046,0.0301194407425,2.0927818044,0.0348653594418,-0.66591629653,-1.59504685446,-0.0397643992352,-2.02381344076,-0.216417855626,0.49456606368,-0.61542161171,0.573370959319,0.819275259945,0.00381291924119,0.0,0.819254168874,-0.573303977649,-0.0112206459599,0.0,-0.007006970774,0.00955752653411,-0.999929775558,0.0,0.563804359041,0.132744080197,0.304602724541,1.0,-0.425196,-0.558829028571,1.403
0.341129075025,0.0891461465727,-0.130460809062,-2.01802262145,0.0259126677086,2.1013999977,0.0232132256164,-0.70225511526,-1.6035977181,-0.022727470748,-2.06722255942,-0.235171101995,0.47743165224,-0.660370351982,0.573390511347,0.819261791177,0.0037664195204,0.0,0.819240406116,-0.573324056,-0.0111995848074,0.0,-0.00701614807632,0.00950752176635,-0.999930187911,0.0,0.556044661127,0.122495668355,0.30460784376,1.0,-0.43998,-0.578259428571,1.421
0.328418488619,0.0619683402229,-0.130976410524,-2.05288805704,0.0219608575562,2.10888734237,0.0115554147222,-0.76457834419,-1.61191766699,-0.0310381969935,-2.02381989998,-0.241564634394,0.41025337593,-0.692098123494,0.573359437694,0.819284362914,0.00358256782992,0.0,0.819259282967,-0.573291728602,-0.011470313475,0.0,-0.00734373335339,0.00951184756827,-0.999927794561,0.0,0.548499166042,0.112669156863,0.304488446219,1.0,-0.43998,-0.578259428571,1.438
0.315682136788,0.0364987490549,-0.131582550559,-2.08456809104,0.0181107439334,2.11515219093,0.000348346694183,-0.79968919396,-1.55005398583,-0.0281333553971,-1.93000923342,-0.221115362721,0.375831482453,-0.703372800739,0.573691184404,0.819052240451,0.00354954238025,0.0,0.819026564862,-0.573623309557,-0.0115122406347,0.0,-0.00739316857831,0.00951182359948,-0.999927430502,0.0,0.541462256279,0.103210844072,0.304564638041,1.0,-0.43998,-0.578259428571,1.454
0.301698611768,0.00970358564881,-0.132050954612,-2.11720855296,0.0139957443092,2.12140906446,-0.0120681519362,-0.837938656218,-1.56889018506,-0.0318257858135,-1.90024313656,-0.253475079296,0.368694402464,-0.735406746181,0.573723183627,0.819028780577,0.00378312775464,0.0,0.819006783689,-0.573655520874,-0.0113127601972,0.0,-0.00709540067512,0.00958898470824,-0.9999288508,0.0,0.534007764337,0.0933313020111,0.304716002286,1.0,-0.43998,-0.578259428571,1.471
0.2871498022,-0.0166004186433,-0.132524664905,-2.14865963144,0.00998156941443,2.12698289974,-0.0249299814631,-0.853892200285,-1.53592103345,-0.0193623068741,-1.83100265179,-0.237652066547,0.300765542446,-0.760332268632,0.573784721862,0.818984306538,0.00406761631512,0.0,0.818966116587,-0.573716543547,-0.0111612922546,0.0,-0.00680739548787,0.00973560634988,-0.999929436178,0.0,0.526146924301,0.0829127008431,0.304863807966,1.0,-0.43998,-0.578259428571,1.489
0.272922298628,-0.0410235889281,-0.132977760904,-2.17740532336,0.00608796921612,2.13155859246,-0.0374302071267,-0.90248157135,-1.51988507774,-0.0319396663693,-1.78272753253,-0.235361809996,0.264154805296,-0.790138928179,0.573817990779,0.818960282894,0.00420896673005,0.0,0.818944467671,-0.573750308659,-0.0110131324491,0.0,-0.00660454926359,0.00976663159023,-0.999930494003,0.0,0.519588157014,0.0742121727263,0.304975768596,1.0,-0.43998,-0.578259428571,1.504
0.257233721916,-0.0665643380076,-0.133474671909,-2.20714702801,0.00204174533065,2.13579542344,-0.0512435146778,-0.936458658837,-1.47759813163,-0.032304506427,-1.74939305017,-0.240581423441,0.230070983545,-0.82599691569,0.573840764054,0.818944178713,0.00423751862472,0.0,0.818928192057,-0.573772222185,-0.01108152537,0.0,-0.00664390813097,0.00982944369859,-0.999929617784,0.0,0.512083249698,0.0643710023838,0.304984534929,1.0,-0.43998,-0.578259428571,1.521
0.240862321818,-0.0916637496825,-0.134034529227,-2.23588852113,-0.0020014408783,2.13936471251,-0.0656323882313,-0.979549869548,-1.44897712683,-0.0346976464152,-1.66531293275,-0.234660498133,0.178101763913,-0.859023399275,0.573912409326,0.81889416395,0.00420018721363,0.0,0.818876915918,-0.573842795343,-0.01121560119,0.0,-0.00677427361378,0.00987639920404,-0.999928280406,0.0,0.504585151839,0.0544769512617,0.3049619449,1.0,-0.43998,-0.578259428571,1.538
0.225060540377,-0.114878436095,-0.134411965225,-2.2620811249,-0.00590616634618,2.1421868068,-0.0795427493776,-1.00492126194,-1.43601010817,-0.0221082493847,-1.66200115825,-0.255498604886,0.165850415259,-0.879815255832,0.573757561828,0.81900351238,0.00403160697424,0.0,0.818983865137,-0.573688066583,-0.0113215638195,0.0,-0.00695964971834,0.00979784255444,-0.999927780171,0.0,0.497509642079,0.0453276584356,0.304899989132,1.0,-0.43998,-0.578259428571,1.554
0.206472256405,-0.140522959778,-0.134995054309,-2.29049724109,-0.010157450931,2.1447598717,-0.0959095214359,-1.04250632224,-1.39173355964,-0.0285290602428,-1.56643504563,-0.237083226864,0.131083360441,-0.921579905993,0.573771598628,0.81899420505,0.00392321348556,0.0,0.818972075691,-0.573700900179,-0.0115222946505,0.0,-0.00718607979364,0.00982435686241,-0.999925918391,0.0,0.489584299156,0.0349205974672,0.304818879255,1.0,-0.43998,-0.578259428571,1.572
0.188291105595,-0.164386717895,-0.135579235747,-2.31646850756,-0.0141563851965,2.14662771218,-0.112006570435,-1.07823171717,-1.38362656782,-0.0330835706083,-1.4834846234,-0.221595795203,0.095359755763,-0.956345011677,0.573734567843,0.819020702215,0.00380550987255,0.0,0.81899577113,-0.573662523711,-0.0117466021651,0.0,-0.00743777515664,0.00985631797411,-0.999923763342,0.0,0.482071576554,0.0251111717118,0.304722192023,1.0,-0.43998,-0.578259428571,1.589
0.170593902983,-0.186585167292,-0.136080703194,-2.34022712601,-0.017944188098,2.14782053812,-0.127718979291,-1.12921477475,-1.35446959465,-0.0424755002824,-1.45498491413,-0.245769343921,0.0594596435609,-1.0050393105,0.573607744927,0.819110490388,0.00359254744784,0.0,0.819081224488,-0.573534450079,-0.0120386529362,0.0,-0.00780068737268,0.00984824233446,-0.999921077585,0.0,0.474932287515,0.0159181018297,0.304602795534,1.0,-0.43998,-0.578259428571,1.605
0.148733154345,-0.21252373882,-0.136819528875,-2.36718730228,-0.022318499131,2.14872630907,-0.147158668908,-1.15658676205,-1.33987076958,-0.0371718721743,-1.40447196894,-0.237423915044,0.0303527456206,-1.04033283253,0.573619381486,0.819102182317,0.00362863718014,0.0,0.819072130044,-0.573544358304,-0.0121844878293,0.0,-0.00789930827459,0.00996156574768,-0.999919180802,0.0,0.466546188341,0.00493412852581,0.30458099225,1.0,-0.43998,-0.578259428571,1.624
0.128365451639,-0.235341851386,-0.137563974132,-2.39040933567,-0.0263363476815,2.14906875764,-0.165189934813,-1.20610532335,-1.33854821465,-0.0429183137732,-1.35032766729,-0.229397734125,0.0059723476439,-1.07363457599,0.573734646914,0.819021498045,0.00361767484516,0.0,0.818991127868,-0.573659430139,-0.0122121901271,0.0,-0.00792688557928,0.00996959213783,-0.999918882569,0.0,0.459029479645,-0.00496793854744,0.30456529027,1.0,-0.43998,-0.578259428571,1.641
0.108539811663,-0.256391731318,-0.138296194094,-2.41121615546,-0.0299078127699,2.14900163181,-0.182865068628,-1.24782770049,-1.30470070755,-0.0412847307189,-1.30773790917,-0.238579222646,-0.0199071620225,-1.13094008175,0.573889371659,0.818911964743,0.0038639357395,0.0,0.818884827817,-0.573813182527,-0.0121168160691,0.0,-0.007705576746,0.0101180251165,-0.999919121557,0.0,0.452032685497,-0.0142766740842,0.304646254398,1.0,-0.43998,-0.578259428571,1.657
0.0868491316934,-0.278284151115,-0.13905165083,-2.43240891213,-0.0336615591531,2.14864585489,-0.202335999696,-1.29589912146,-1.25798333084,-0.0589069627223,-1.23792983562,-0.198920064389,-0.0553935329965,-1.16623438317,0.573967572567,0.818855502974,0.00419973709978,0.0,0.818833774299,-0.57389155299,-0.0118525261183,0.0,-0.00729545304988,0.0102420494166,-0.999920935269,0.0,0.444633455096,-0.0241206970188,0.304755967631,1.0,-0.43998,-0.578259428571,1.674
0.0658213436545,-0.298410639578,-0.139715202426,-2.4514907953,-0.0372273740117,2.14783852746,-0.22141180637,-1.33719740533,-1.25553615171,-0.0472680963799,-1.16331236771,-0.22319145485,-0.0333536242676,-1.21314982535,0.573850616825,0.818936476149,0.00438913471242,0.0,0.818918467186,-0.573775816644,-0.011601863504,0.0,-0.00698294430407,0.0102522773872,-0.999923061689,0.0,0.437655039217,-0.0333512867513,0.304860858529,1.0,-0.43998,-0.578259428571,1.69
0.0441568560854,-0.317893629353,-0.140426543585,-2.46985620098,-0.0406427659664,2.14655022561,-0.241022838929,-1.35444373385,-1.2031021033,-0.0457165705585,-1.13298508546,-0.201296735952,-0.0961355922575,-1.23541996882,0.573899578441,0.818902004608,0.00441900616189,0.0,0.818883485054,-0.573823360795,-0.0117190192251,0.0,-0.007061135317,0.0103443905209,-0.9999215639,0.0,0.430600942972,-0.0425753117815,0.304841450619,1.0,-0.43998,-0.578259428571,1.706
0.020439829729,-0.338066679608,-0.141208117344,-2.48833664253,-0.0442759321888,2.14501335722,-0.262709020056,-1.41019455083,-1.17690122019,-0.0466128592356,-1.08803251998,-0.214796995082,-0.101884478918,-1.29616059861,0.573835083803,0.818946324431,0.00457834009496,0.0,0.818930902989,-0.573759936305,-0.0115090626239,0.0,-0.00679856730567,0.0103538474471,-0.99992328572,0.0,0.423181213889,-0.0523949178189,0.304916420014,1.0,-0.43998,-0.578259428571,1.723
-0.00550002356086,-0.3586459709,-0.14205608589,-2.50684910881,-0.0479850895535,2.14291220853,-0.286501611264,-1.46349418105,-1.12701710807,-0.0579007701619,-1.00600173953,-0.197655189817,-0.11197409227,-1.34988822751,0.573833264043,0.818947070547,0.00467200400058,0.0,0.81893297543,-0.573758029288,-0.0114565475464,0.0,-0.00670183527463,0.0104004064507,-0.999923455545,0.0,0.415294742186,-0.0628020286955,0.304965400489,1.0,-0.43998,-0.578259428571,1.741
-0.0277234218219,-0.375122352711,-0.142760237474,-2.52170652664,-0.0510280855567,2.14084930868,-0.307024238541,-1.49220433173,-1.089797111,-0.0346069545685,-0.980952998222,-0.20030610669,-0.139369392904,-1.39160369954,0.573767745122,0.818993765284,0.00453144395594,0.0,0.818976168053,-0.573690391983,-0.0117523278288,0.0,-0.00702557262404,0.0104544525256,-0.999920669729,0.0,0.408613824036,-0.0714454569671,0.304857621,1.0,-0.43998,-0.578259428571,1.756
-0.0536162285274,-0.393204625536,-0.143617893916,-2.53737330375,-0.0542738734137,2.13844948081,-0.330946504742,-1.54249838464,-1.0418689138,-0.038985649449,-0.917487841878,-0.187572608014,-0.160648424993,-1.42276522791,0.573878283249,0.818915267742,0.00471669121826,0.0,0.818900183043,-0.573800483592,-0.0116722809676,0.0,-0.00685230131978,0.0105611712005,-0.999920750675,0.0,0.401158093708,-0.0812798146321,0.304915353339,1.0,-0.43998,-0.578259428571,1.773
-0.0818125646723,-0.411333380565,-0.144546069255,-2.55294431669,-0.0576904307628,2.13557380986,-0.357240820571,-1.5822605027,-0.986054946986,-0.0427522722107,-0.825649322323,-0.190270123047,-0.161677671212,-1.48039469985,0.573877938092,0.818915662105,0.0046901420671,0.0,0.818899182527,-0.573798618646,-0.0118330468647,0.0,-0.00699920512494,0.0106316827336,-0.999918985943,0.0,0.393203537338,-0.0917003241088,0.304888610891,1.0,-0.43998,-0.578259428571,1.791
-0.105920978002,-0.425753848606,-0.145289095221,-2.56497768708,-0.0603145086848,2.13326262961,-0.379857882327,-1.62606005312,-0.934149198615,-0.0299052489252,-0.818930010812,-0.175780457034,-0.182541046848,-1.51096465023,0.573895869521,0.818901901533,0.00489423274884,0.0,0.818888631851,-0.573816743594,-0.0116833342027,0.0,-0.00675924203289,0.0107130550604,-0.999919768331,0.0,0.386647812087,-0.100378361345,0.304950851582,1.0,-0.43998,-0.578259428571,1.806
-0.135465775534,-0.442040546316,-0.146192083106,-2.57847646779,-0.0634076945136,2.13019825585,-0.407696574977,-1.66192244248,-0.888342996423,-0.0494620125904,-0.701117124064,-0.166708512055,-0.163614529623,-1.55499093212,0.57390193745,0.818897405208,0.00493485924122,0.0,0.818883764053,-0.573821253424,-0.0118024146002,0.0,-0.00683337113963,0.0108147129329,-0.999918170163,0.0,0.378706335385,-0.110753931516,0.304943502616,1.0,-0.43998,-0.578259428571,1.824
-0.16400845416,-0.456378937612,-0.147001496167,-2.59005268975,-0.0661154028763,2.12748319479,-0.434814738275,-1.6857113658,-0.844331113133,-0.0431843479151,-0.668564136257,-0.147306970074,-0.165896031006,-1.60721511684,0.573853764485,0.818930026347,0.00512014008338,0.0,0.818919558732,-0.573773727989,-0.0116280822537,0.0,-0.00658491062285,0.0108660108371,-0.999919281123,0.0,0.371296644842,-0.120543732923,0.305006052454,1.0,-0.43326,-0.569427428572,1.841
-0.191054606092,-0.468360026823,-0.147380505381,-2.59990577918,-0.0683453307791,2.12485981748,-0.46053881635,-1.69293915866,-0.726441550461,-0.028023416617,-0.586248395997,-0.137155129733,-0.148554980951,-1.60410117927,0.573693443928,0.819042805501,0.00504599368721,0.0,0.819029512853,-0.573610663954,-0.0119251907706,0.0,-0.00687293824104,0.010974432806,-0.999916158758,0.0,0.364419942493,-0.129484176724,0.30490501805,1.0,-0.417132,-0.548230628572,1.857
-0.221287725765,-0.480472779386,-0.147645815227,-2.60934493225,-0.070384963724,2.12225876906,-0.489002640242,-1.67698534276,-0.636002589696,-0.0182588608449,-0.506513573929,-0.0901545758701,-0.141703019168,-1.55592594492,0.573908089173,0.818890897829,0.00528673214265,0.0,0.818881782745,-0.573826160622,-0.0117008621895,0.0,-0.00654819040899,0.0110446407463,-0.999917565159,0.0,0.357062020478,-0.139281582335,0.305002563137,1.0,-0.398988,-0.524384228572,1.875
-0.247656581679,-0.489845237668,-0.147659651488,-2.61680226046,-0.0718595117776,2.12001082766,-0.513975518487,-1.64123833254,-0.557001347046,0.00161094969697,-0.454492460849,-0.0773011443199,-0.136478483469,-1.54885098413,0.573987359982,0.818834615998,0.00539714047044,0.0,0.818825608707,-0.573902791838,-0.011872444902,0.0,-0.00662426241594,0.0112341664293,-0.99991495271,0.0,0.350695636409,-0.147572011495,0.30496268151,1.0,-0.38286,-0.503187428572,1.891
-0.273435657764,-0.498025690563,-0.147514114637,-2.62314248258,-0.0729942421844,2.11804114086,-0.538494646681,-1.60063210868,-0.490794511658,0.00948351561717,-0.374568036866,-0.0610297446253,-0.106636104217,-1.50657376498,0.574047451439,0.818791013759,0.00561659914898,0.0,0.818784608784,-0.573961637525,-0.0118553772298,0.0,-0.00648348872288,0.0114045535945,-0.999913946563,0.0,0.344639818368,-0.15552960029,0.304986445036,1.0,-0.366732,-0.481990628572,1.907
-0.301574249567,-0.505742614437,-0.147208820576,-2.62911382105,-0.0741086514785,2.11609365153,-0.565236992757,-1.55820442606,-0.409907634431,0.0232538582807,-0.311356932224,-0.0524400830449,-0.0997915182546,-1.47174917732,0.574132572832,0.818730548247,0.00572931764212,0.0,0.818725436588,-0.574046019661,-0.0118563778499,0.0,-0.00641841032374,0.0114980921812,-0.999913295184,0.0,0.338151384885,-0.164087641309,0.30499163919,1.0,-0.348588,-0.458144228572,1.925
-0.327350008772,-0.511899867288,-0.146825206916,-2.63373561879,-0.0748588915655,2.11456946337,-0.589786010736,-1.50597746462,-0.340291687793,0.0266797496168,-0.263015326901,-0.0411820269078,-0.103456023236,-1.41567561381,0.574259065351,0.818640393657,0.00593115814261,0.0,0.818638778461,-0.574173364154,-0.0116724118298,0.0,-0.00615011319995,0.011558686905,-0.999914282759,0.0,0.332333539468,-0.171823281463,0.305054344504,1.0,-0.331452,-0.435622628572,1.942
-0.350685342353,-0.516617990184,-0.146263385966,-2.6374997819,-0.0753298053392,2.11315633895,-0.612109952406,-1.44244330984,-0.276122369347,0.0471657179724,-0.222297362479,-0.0211805642008,-0.0856538418068,-1.37890953587,0.574256001731,0.818642006024,0.00600477717809,0.0,0.818639517981,-0.574166604322,-0.0119497691429,0.0,-0.00633496242828,0.0117782013111,-0.999910567113,0.0,0.327055169347,-0.178648356158,0.304980052458,1.0,-0.315324,-0.414425828572,1.958
-0.37447232436,-0.520655043979,-0.145549046353,-2.64071803038,-0.0757180798818,2.11201733725,-0.634866935694,-1.37177132473,-0.212337968875,0.0423758452501,-0.171853739545,-0.00939153841356,-0.0638222517442,-1.32535053377,0.574229422601,0.818660467878,0.00602954839012,0.0,0.818657514003,-0.574138466107,-0.0120682809308,0.0,-0.00641815241859,0.0118663255498,-0.999908994678,0.0,0.321774642306,-0.185543047189,0.304924826793,1.0,-0.298188,-0.391904228572,1.975
-0.399769600394,-0.524163445057,-0.144587906648,-2.64341293572,-0.0759213589103,2.11097311258,-0.659167243975,-1.29753955401,-0.167232408453,0.0510602935995,-0.124262650783,0.00104356781919,-0.0552651126409,-1.26760391741,0.574112553067,0.818742231339,0.00605656127197,0.0,0.818739518596,-0.574021299996,-0.012078689595,0.0,-0.00641286156325,0.011893502368,-0.999908705737,0.0,0.316262540124,-0.192790242466,0.304923987109,1.0,-0.279036,-0.366733028572,1.994
-0.418812826568,-0.526228949788,-0.143773895935,-2.64502234718,-0.0760081422648,2.11035179052,-0.677426070582,-1.23753525446,-0.125456896359,0.0599186283944,-0.0979057182893,-0.0095482806268,-0.0491683963354,-1.20643262668,0.574043673803,0.818790779449,0.00602220530168,0.0,0.818787696732,-0.573952726208,-0.0120715640813,0.0,-0.00642774796665,0.011860740958,-0.999908999299,0.0,0.312157218425,-0.19820770921,0.304917617875,1.0,-0.263916,-0.346861028572,2.009
-0.438172017162,-0.527857242622,-0.142958278873,-2.64633438466,-0.0759927574803,2.10982558931,-0.695919007515,-1.19761225325,-0.0912637488585,0.0496991289626,-0.079093968053,-0.00346067560251,-0.0350006669124,-1.1380087051,0.57410364952,0.818748722404,0.00602296196396,0.0,0.818745370283,-0.57401217163,-0.0121157897821,0.0,-0.0064626583546,0.0118872202199,-0.999908459831,0.0,0.307989734852,-0.20369247431,0.304893674217,1.0,-0.247788,-0.325664228572,2.025
-0.457425501055,-0.529066872115,-0.141924218917,-2.64733255033,-0.0759149219113,2.10940024305,-0.714470259086,-1.12404985097,-0.0593655723149,0.0540400532821,-0.0494197910515,0.0063419548826,-0.025031088775,-1.06961143208,0.573921776666,0.818876953672,0.00592249218113,0.0,0.818872161229,-0.573830536524,-0.0121509595397,0.0,-0.00655176000792,0.0118236919022,-0.999908633201,0.0,0.303882703012,-0.209070766196,0.304873330642,1.0,-0.230652,-0.303142628572,2.042
-0.47463025177,-0.529769499637,-0.14101274231,-2.64791434433,-0.0757420445466,2.10909987467,-0.730840513923,-1.04475689448,-0.0321768340526,0.0553356832326,-0.0340730141906,0.0218199202411,-0.0173451515255,-0.995476140123,0.574000886021,0.818821789232,0.00588279065283,0.0,0.818816330811,-0.573909536894,-0.0121822313473,0.0,-0.00659901386089,0.0118097640189,-0.999908487058,0.0,0.300225470291,-0.213870999678,0.30486423834,1.0,-0.214524,-0.281945828572,2.058
-0.492624425804,-0.530193516775,-0.139953263216,-2.64826056582,-0.0754451692478,2.10888524352,-0.748029610489,-0.968001107931,-0.0112184818097,0.0675158203441,-0.0117969624948,0.0140177976852,-0.013344645359,-0.927592926109,0.574018759397,0.818809454675,0.0058555696341,0.0,0.818803791512,-0.573927794097,-0.0121649113862,0.0,-0.00660019736924,0.0117776767167,-0.999908857709,0.0,0.296425692964,-0.218850451217,0.304871734845,1.0,-0.19638,-0.258099428572,2.076
-0.508149281807,-0.530271454603,-0.138784850447,-2.64835009586,-0.0749234913101,2.10878352971,-0.762946175488,-0.892582632336,-0.00254019478805,0.0650268683576,-0.00187900808683,0.0267147915104,-0.00509217459768,-0.851458243667,0.573909927996,0.818885416604,0.00590050187484,0.0,0.818880432897,-0.573818957858,-0.0121403098167,0.0,-0.00655582904532,0.0117994770388,-0.999908892573,0.0,0.293209695284,-0.223054876026,0.304882187877,1.0,-0.179244,-0.235577828572,2.093
-0.521782671508,-0.530177999191,-0.137754138499,-2.6483207884,-0.0744765028175,2.1087890692,-0.77588267034,-0.818951509302,0.0120879857264,0.0752474259643,0.00201416072986,0.0326783647782,0.001807374118,-0.788054260526,0.573946116147,0.818859986576,0.00590974170822,0.0,0.818855512442,-0.573855801629,-0.0120795521784,0.0,-0.00650024751919,0.0117724632889,-0.999909573857,0.0,0.290376479779,-0.226742230336,0.304889384398,1.0,-0.163116,-0.214381028572,2.109
-0.534815822032,-0.529909608903,-0.136555724785,-2.64816510575,-0.073898158109,2.10879995479,-0.788343035561,-0.750276728322,0.0207591473725,0.0683041200024,0.0130883042488,0.0261102963104,0.00152216380966,-0.702351892391,0.573825666912,0.818944311308,0.00592164429716,0.0,0.818940088143,-0.573735500923,-0.0120604276259,0.0,-0.00647948578922,0.0117702814427,-0.999909734295,0.0,0.287706150179,-0.230194410372,0.304894915996,1.0,-0.14598,-0.191859428572,2.126
-0.546762311328,-0.529488297163,-0.135432489879,-2.64790970575,-0.0732933942607,2.10883359655,-0.799554201858,-0.668538262817,0.0326571653534,0.0727630115605,0.0171106440994,0.0377703475967,0.00576807645644,-0.640541732357,0.573908257086,0.818886124424,0.00596444251407,0.0,0.818882266428,-0.573817542569,-0.0120833965239,0.0,-0.00647254861978,0.0118191647982,-0.999909202607,0.0,0.285261257056,-0.233343987695,0.30488967729,1.0,-0.128844,-0.169337828572,2.143
-0.557220699645,-0.528945422386,-0.134234642979,-2.64760814537,-0.0726564286855,2.1089472028,-0.809500218617,-0.597918335112,0.0322342560272,0.0635782819211,0.0216048254068,0.0320043605592,0.00771943072708,-0.550888645337,0.573771997356,0.818981545928,0.00597238475135,0.0,0.818977608955,-0.573680943996,-0.0121077424553,0.0,-0.00648989926237,0.0118385608845,-0.999908860689,0.0,0.283172959518,-0.236044804759,0.30486947454,1.0,-0.111708,-0.146816228572,2.16
-0.567183289425,-0.528377145441,-0.133108818569,-2.64724882572,-0.0720139386642,2.10902588322,-0.818564690129,-0.524155247415,0.0345935752237,0.0617511336479,0.0240918639527,0.0346057183686,0.00407951575598,-0.471102402713,0.574007475257,0.818816256637,0.00600858694477,0.0,0.818812546282,-0.573915766904,-0.0121430412576,0.0,-0.00649462184395,0.0118903317558,-0.999908215737,0.0,0.281171456906,-0.238612491844,0.30486105016,1.0,-0.0935640000001,-0.122969828572,2.178
-0.575420903081,-0.527745224204,-0.131876739173,-2.64687461886,-0.0713226535579,2.10915628637,-0.826276213137,-0.42597345086,0.0340145711246,0.068122358115,0.0196034999577,0.0378312293595,0.00808007110815,-0.392368022676,0.57388473267,0.818902256366,0.00601290518736,0.0,0.818898337727,-0.573792547169,-0.0121808120646,0.0,-0.00652485992452,0.0119145695306,-0.999907730361,0.0,0.279598529427,-0.240660848962,0.304842874918,1.0,-0.0754200000001,-0.0991234285716,2.196
-0.581306915304,-0.527336455512,-0.130902657161,-2.64662549502,-0.070766590887,2.10920953061,-0.831540056472,-0.380666887179,0.0217726755795,0.0662316246348,0.0157801017029,0.0323233144647,0.00148315689472,-0.333408472468,0.573957580537,0.818851113676,0.00602463912993,0.0,0.818847076939,-0.573864831903,-0.0122215463373,0.0,-0.00655042442355,0.011948137346,-0.999907162668,0.0,0.278479500814,-0.242081012437,0.304835920108,1.0,-0.0603000000001,-0.0792514285716,2.211
-0.587060482064,-0.526887765576,-0.129678250323,-2.64633178104,-0.0700516212331,2.10931804416,-0.836510259609,-0.28733621523,0.0266468080161,0.0722359357835,0.0150454543577,0.0383880409187,0.0160769835807,-0.253108312239,0.574055410415,0.818782451983,0.00603564403257,0.0,0.818778728955,-0.573962902248,-0.0121953579797,0.0,-0.00652123489757,0.0119428981174,-0.999907416054,0.0,0.277468663676,-0.243402563049,0.304845378766,1.0,-0.0421560000001,-0.0554050285716,2.229
-0.59067543762,-0.52655962723,-0.128684149579,-2.6461248396,-0.0694276272589,2.10942658516,-0.839500484643,-0.219447394968,0.0195035039076,0.0653159261151,0.00981655714954,0.0403541286896,0.00533708431654,-0.173916281386,0.574142147988,0.81872136465,0.00607189183545,0.0,0.818718354788,-0.574049901463,-0.0121537263741,0.0,-0.00646507100537,0.0119493659227,-0.999907703496,0.0,0.276901792856,-0.244170932016,0.304853462235,1.0,-0.0270360000001,-0.0355330285716,2.244
-0.593460254629,-0.526305624848,-0.127615395559,-2.64597803111,-0.0688025547783,2.10944456801,-0.841750380501,-0.154352506896,0.0123829781427,0.0597674675732,0.00471024078874,0.0307044550275,0.00293668682355,-0.124193175885,0.574099686538,0.818751117742,0.00607486740656,0.0,0.818747890155,-0.574006962161,-0.0121920735624,0.0,-0.00649538272747,0.0119734810091,-0.999907218574,0.0,0.276523564221,-0.244665991692,0.304855194342,1.0,-0.0198,-0.0260228571429,2.26
-0.595762230111,-0.526127201258,-0.126766174599,-2.64584545787,-0.068373826343,2.10945414297,-0.843721088578,-0.121333329943,0.0189213268442,0.0443128147831,0.00782078137234,0.0193374047252,0.00107821227543,-0.111228844934,0.573960774793,0.818848899639,0.00602125068164,0.0,0.81884502674,-0.573868420623,-0.0121903607446,0.0,-0.00652678352385,0.0119274897145,-0.999907563771,0.0,0.27619849994,-0.245094403359,0.304871745265,1.0,-0.01944,-0.0255497142857,2.278
-0.597420193179,-0.525958551771,-0.126219600575,-2.64565919027,-0.0681810356618,2.10951055051,-0.845194678506,-0.0945340964826,0.0126079361588,0.0321119837028,0.0147662049649,0.014124739777,0.00348434050345,-0.0872362863903,0.573817306055,0.818950287562,0.00590530912452,0.0,0.818945642147,-0.573726831403,-0.0120956619095,0.0,-0.00651783699516,0.0117770540497,-0.999909405296,0.0,0.275970144079,-0.245457822635,0.304912721462,1.0,-0.01912,-0.0251291428571,2.294
-0.598985683454,-0.525732320445,-0.125942912498,-2.64548610505,-0.0680098831483,2.10963200622,-0.846747392162,-0.0928647128036,0.0176046127251,0.0108776387481,0.00740793978203,0.0133043833483,0.00548575803914,-0.0971359224776,0.573714347478,0.8190224289,0.00590384265377,0.0,0.819018314382,-0.573624896839,-0.0120093852713,0.0,-0.00644948893394,0.0117255376461,-0.99991045392,0.0,0.275713238259,-0.245863479162,0.304925643401,1.0,-0.01878,-0.0246822857143,2.311
-0.600568869221,-0.525552779012,-0.125819844993,-2.64536125314,-0.067925449922,2.10963358176,-0.848228984601,-0.0951019793402,0.0105872400148,0.00429947423162,0.00354272747349,0.0049149805282,-0.000556567133393,-0.0821517361188,0.573753288491,0.81899505175,0.00591743665605,0.0,0.818990840997,-0.573663277067,-0.0120496394161,0.0,-0.00647410359978,0.0117600730815,-0.999909889272,0.0,0.275382235977,-0.246290804706,0.304919753333,1.0,-0.01844,-0.0242354285714,2.328
-0.602267595607,-0.52539066185,-0.12576223759,-2.64523635237,-0.0678875657062,2.10963674831,-0.849811233652,-0.0876236565348,0.00875850901437,0.000892029618199,0.00786097090304,0.00226285092221,0.00177803582483,-0.087795121112,0.573830768508,0.818940707237,0.00592571051753,0.0,0.818936451345,-0.573740428698,-0.0120729465317,0.0,-0.00648733257971,0.011780835347,-0.999909559127,0.0,0.275005355191,-0.246769695434,0.304918799531,1.0,-0.01806,-0.023736,2.347
-0.603517656823,-0.525236688837,-0.12573629018,-2.64511779824,-0.0678536460922,2.10965145442,-0.851080415153,-0.0861803018241,0.00626411481089,-0.00608983425557,0.00654795489265,0.000422632361273,0.00222187261139,-0.0840691091511,0.573817538792,0.818949853672,0.00594274748666,0.0,0.81894571842,-0.573726945307,-0.0120850904662,0.0,-0.00648769361486,0.0118016516956,-0.999909311312,0.0,0.274732259908,-0.247132450418,0.304918164253,1.0,-0.01776,-0.0233417142857,2.362
-0.604808722772,-0.525101568326,-0.125741050838,-2.64497577996,-0.067816125789,2.10968857151,-0.852296298129,-0.083478735072,0.0040172166061,-0.000517850369394,0.00963051179992,0.00747914844506,0.00182129964798,-0.0747124228453,0.57390577269,0.818887796887,0.00597386670593,0.0,0.818884375412,-0.573815593405,-0.0120329286565,0.0,-0.00642584428623,0.0117979004708,-0.999909754963,0.0,0.274452274605,-0.247521770417,0.304936280398,1.0,-0.01744,-0.0229211428571,2.378
-0.606170966832,-0.524983446231,-0.125743727354,-2.64484908963,-0.0678041662337,2.10969827638,-0.853679854749,-0.0827393294827,0.00566698597082,0.000463426257051,0.00516198184847,0.00161598472415,0.00182416429292,-0.0803310399192,0.573901835196,0.818890455777,0.00598764548884,0.0,0.818887364724,-0.573811877267,-0.0120066774739,0.0,-0.00639649464295,0.0117940885449,-0.999909988115,0.0,0.274144564337,-0.247925361465,0.304951345954,1.0,-0.0171,-0.0224742857143,2.395
-0.607421165624,-0.524909588118,-0.125738296019,-2.64475969722,-0.0677794695087,2.10970858113,-0.854865969322,-0.0766107406219,0.00786608725726,0.000560904777161,0.00193042355813,0.000650872960677,0.00173058040894,-0.0808469341068,0.573965545442,0.818845639861,0.00600979423059,0.0,0.818843031651,-0.57387584307,-0.0119730179228,0.0,-0.00635530015051,0.0117934049496,-0.999910258853,0.0,0.273859030664,-0.24828631408,0.304965933042,1.0,-0.01678,-0.0220537142857,2.411
-0.608780577993,-0.524766610857,-0.125727027732,-2.64465672574,-0.0677581884253,2.10972924902,-0.856240364493,-0.0712197096133,0.0116675248016,0.00166143405001,0.00360932581448,5.7797013819e-05,-0.000747031812452,-0.0781626371152,0.573959902557,0.818849476507,0.00602594242408,0.0,0.818846990523,-0.573869971725,-0.0119836790965,0.0,-0.00635484429672,0.0118127035367,-0.999910033948,0.0,0.273550142009,-0.248679490678,0.304962372747,1.0,-0.01642,-0.0215805714286,2.429
-0.609982823489,-0.52461712245,-0.125698634689,-2.64456087311,-0.0677285134909,2.10976317383,-0.857465933688,-0.0708896479784,0.00535134282902,-0.000486680327666,0.00715694819279,-0.000119989040491,0.00249689069588,-0.0680883390101,0.573938585927,0.818864323659,0.00603870211807,0.0,0.818861913788,-0.57384843943,-0.0119950661921,0.0,-0.00635715437291,0.0118295222565,-0.99990982043,0.0,0.273284424895,-0.249024514202,0.304954728914,1.0,-0.01608,-0.0211337142857,2.446
-0.611084668744,-0.524449067078,-0.125619704416,-2.64447859681,-0.0677103744763,2.1097835735,-0.858582985654,-0.0729214884934,0.00848994801492,0.00616032427764,0.00738965847394,0.00515101627008,-0.000638432624261,-0.0662434513762,0.573882727994,0.818903627129,0.00601754813823,0.0,0.818900588657,-0.573792027387,-0.0120533026648,0.0,-0.0064177956874,0.0118451839838,-0.999909247639,0.0,0.273046942896,-0.249326220093,0.304934139665,1.0,-0.01576,-0.0207131428571,2.462
-0.612233705086,-0.524269676535,-0.125509476047,-2.64439779145,-0.0676892492024,2.10981636278,-0.859820747182,-0.065728598356,0.0101866613583,0.0058049939837,0.0022868422166,0.00210867265468,0.000376251959942,-0.0731905467003,0.573745765452,0.818999837385,0.00598413649856,0.0,0.818996014542,-0.573654595536,-0.0121111554221,0.0,-0.00648633180052,0.011849936229,-0.999908749092,0.0,0.272805531083,-0.249634343218,0.304910520429,1.0,-0.01542,-0.0202662857143,2.479
-0.613354681233,-0.524094957103,-0.125434215478,-2.64429862636,-0.0676658018143,2.10983899345,-0.860996787952,-0.0640412576533,0.00476313416074,0.00137958982002,-0.000361636345896,0.00393304434538,0.00146634944993,-0.0726379496568,0.573662910216,0.819057990083,0.0059683520234,0.0,0.819053675348,-0.573571305314,-0.0121565422715,0.0,-0.00653376341379,0.0118623864659,-0.999908292656,0.0,0.272566529829,-0.249945450339,0.304895251175,1.0,-0.01508,-0.0198194285714,2.496
-0.614410528853,-0.523930954651,-0.125417849466,-2.64418786209,-0.0676425542143,2.10985802594,-0.862053460649,-0.0658177555466,0.0119844542691,0.00153444393908,0.00929393757149,-8.3422906643e-05,0.00116711131126,-0.064692329902,0.573666540148,0.819055366513,0.00597948170496,0.0,0.819051004898,-0.573574536662,-0.0121839717982,0.0,-0.00654979514217,0.0118872663126,-0.9999078923,0.0,0.27233359779,-0.250254391293,0.304887468279,1.0,-0.01476,-0.0193988571429,2.512
-0.615616253284,-0.523763204054,-0.125418270371,-2.64408159868,-0.0676160597825,2.10987777777,-0.863280953842,-0.0693361677516,0.00730810165521,-0.000517707523715,0.00224552983026,0.00298938066543,-0.000182185007532,-0.0705027059522,0.573666082427,0.819055504909,0.00600438609391,0.0,0.819051219193,-0.573573515018,-0.0122176147174,0.0,-0.00656307411323,0.0119269605532,-0.999907332541,0.0,0.272058496488,-0.250606237108,0.304875921949,1.0,-0.0144,-0.0189257142857,2.53
-0.616751734927,-0.5236516655,-0.125428335167,-2.6439939354,-0.0675924504778,2.10989938185,-0.864309464945,-0.0691215564664,0.00477776611912,-0.000552825001397,0.00301445317881,7.5966162068e-05,0.00376236052876,-0.0634619510753,0.573775511226,0.818978654806,0.00603096937799,0.0,0.818974729296,-0.573682824616,-0.01221296095,0.0,-0.00654241674389,0.011946939442,-0.999907229407,0.0,0.271795477227,-0.250937690313,0.304876464114,1.0,-0.01406,-0.0184788571429,2.547
-0.617807054809,-0.523568784681,-0.125425829526,-2.64390621107,-0.0675714794621,2.1099156014,-0.865286465795,-0.061044106409,-5.0427235469e-05,-0.000425813109981,0.0037199721115,-8.35003990595e-07,-0.0002616969339,-0.0614150369032,0.573851313658,0.818925412249,0.00604862683119,0.0,0.818921885845,-0.573758840239,-0.0121854435224,0.0,-0.00650864155587,0.0119462156659,-0.999907458476,0.0,0.271554397861,-0.251244320545,0.304887381856,1.0,-0.01374,-0.0180582857143,2.563
-0.618847850073,-0.523503494243,-0.125421946996,-2.64379172028,-0.067543773959,2.1099459251,-0.866379256984,-0.0601160486641,0.0045594418086,-0.00105388214495,0.0093788182839,0.000418557409646,0.003373649892,-0.0594411633114,0.573823443778,0.818944795497,0.00606829464046,0.0,0.818942062418,-0.573731879516,-0.0120985838569,0.0,-0.00642662192536,0.0119122621298,-0.999908394075,0.0,0.271326538777,-0.251554637711,0.304918157646,1.0,-0.0134,-0.0176114285714,2.58
-0.61985710276,-0.523382810571,-0.125375271057,-2.64364292794,-0.0675225294259,2.10998777228,-0.86740954638,-0.0547452573004,0.00473794605003,0.00660037891184,0.00892537984522,0.00168032095987,0.00552257284486,-0.0617276373789,0.573789762143,0.818968488074,0.00605568352268,0.0,0.818966087621,-0.5736991818,-0.0120226049517,0.0,-0.00637211660081,0.0118580753827,-0.999909386984,0.0,0.271123427607,-0.251856528124,0.304946190927,1.0,-0.01306,-0.0171645714286,2.597
-0.620768368339,-0.523238394575,-0.125319857811,-2.64350214827,-0.0674999228367,2.11002142672,-0.868334884126,-0.053778074591,0.0131677858931,2.53322263192e-05,0.00726615786112,-4.45447266143e-06,0.000896845583299,-0.0583307517916,0.573755920156,0.818992311022,0.00604032071551,0.0,0.818989950938,-0.573665858344,-0.0119870819273,0.0,-0.00635232446402,0.0118248488526,-0.999909906403,0.0,0.270942884656,-0.252126119597,0.304961376478,1.0,-0.01274,-0.016744,2.613
-0.621722966775,-0.523088729328,-0.125268814597,-2.64337580947,-0.0674742794658,2.11004020298,-0.869321933618,-0.0558152438713,0.0117190565463,0.00479155169874,0.00986063840986,-0.000358727729037,0.00386741507163,-0.0541932029957,0.573710762709,0.819023995627,0.00603342690809,0.0,0.819021559931,-0.573620765017,-0.0119853748858,0.0,-0.0063555330331,0.0118178728158,-0.999909968488,0.0,0.270744543055,-0.252402263461,0.304966692692,1.0,-0.0124,-0.0162971428571,2.63
-0.622647095527,-0.522945732723,-0.12523590078,-2.64330331454,-0.0674602105794,2.11005315144,-0.870283166274,-0.0529454576716,0.00630490775481,-0.00241694369802,0.00285128706595,0.00124545893881,-0.00128183767299,-0.0576344430378,0.573667147316,0.819054553717,0.00603233187025,0.0,0.819051770785,-0.573576545471,-0.0120370328657,0.0,-0.00639910570926,0.0118462704839,-0.999909354553,0.0,0.270535292401,-0.252661107961,0.304949042517,1.0,-0.01206,-0.0158502857143,2.647
-0.623548394466,-0.522816483063,-0.125215829628,-2.64324933549,-0.0674396320322,2.11007453296,-0.871137168908,-0.0556268785795,0.00908284541077,0.00110606524481,-0.00119910772881,-0.000285429236814,0.00124075914024,-0.0489467576796,0.57370358555,0.819028950056,0.00604332674795,0.0,0.819025993816,-0.573612343768,-0.012085008512,0.0,-0.00643156884055,0.0118830831966,-0.999908709461,0.0,0.270326735617,-0.252912531663,0.304928438772,1.0,-0.01172,-0.0154034285714,2.664
-0.624442574119,-0.522694678252,-0.125203607764,-2.64321944083,-0.0674265252423,2.11008016715,-0.872022129823,-0.0517853742841,0.00565475393825,0.000687225427705,0.0038952075985,8.61767968141e-06,-0.000599905961258,-0.055321019646,0.573710059356,0.819024317633,0.00605655196224,0.0,0.819021000455,-0.573617774839,-0.0121653649124,0.0,-0.00648970878337,0.0119400653567,-0.999907654996,0.0,0.270109383348,-0.253156326801,0.304898084494,1.0,-0.01138,-0.0149565714286,2.681
-0.625334719841,-0.522579037146,-0.125196495616,-2.6431677468,-0.0674114288209,2.11008817468,-0.872925491003,-0.047329456114,0.00738750072658,0.000693696757888,0.00385330741945,0.000549149870861,0.000783837687816,-0.0501825238423,0.573705246055,0.819027579112,0.00607142520117,0.0,0.819024114392,-0.573612267502,-0.012215298471,0.0,-0.00652214792981,0.011980855132,-0.99990695602,0.0,0.269897078516,-0.253406206744,0.304879979868,1.0,-0.01104,-0.0145097142857,2.698
-0.626135900336,-0.52246781936,-0.125182684804,-2.64308739581,-0.0673996120583,2.11010247616,-0.873701091634,-0.0494682968593,0.0106329268881,0.00191633956604,0.00814488846531,-0.000356697261865,0.00277620969546,-0.0440099809763,0.573725736354,0.819013202684,0.00607455150977,0.0,0.819009700024,-0.573632594534,-0.0122272096299,0.0,-0.00652981109476,0.0119904123108,-0.999906791446,0.0,0.269716611219,-0.253638349135,0.304877211675,1.0,-0.01072,-0.0140891428571,2.714
-0.626950178893,-0.522338028413,-0.125169646454,-2.64298421987,-0.0673872593494,2.11012810785,-0.874503147117,-0.0457195350517,0.00637891689353,0.000784191774842,0.00636484245306,-7.17978922351e-05,-0.000718695307664,-0.0507844215623,0.573737207348,0.81900516131,0.00607532331227,0.0,0.819001692776,-0.573644103725,-0.0122235998154,0.0,-0.00652624359268,0.0119890649254,-0.999906830893,0.0,0.269539280151,-0.253880984323,0.304878939838,1.0,-0.01038,-0.0136422857143,2.731
-0.627790466295,-0.52222815782,-0.125161693669,-2.64286719548,-0.0673798086915,2.11017276925,-0.875350098512,-0.0472634115699,0.00508028878671,-0.000195874953399,0.00620978409562,-9.95987033242e-05,0.000714658307131,-0.0484941043353,0.573735254139,0.819006559779,0.00607125183479,0.0,0.819003407441,-0.573642849079,-0.0121674649043,0.0,-0.00648262818317,0.0119535096513,-0.999907540295,0.0,0.269360397585,-0.254138551955,0.304895771766,1.0,-0.01002,-0.0131691428571,2.749
-0.628488235262,-0.522134281297,-0.1251474711,-2.64276577198,-0.0673726492416,2.11019783307,-0.87603237281,-0.0426097447678,0.00624780203939,0.000238633961293,0.00658512765457,-0.000599881331197,0.000993096542039,-0.0477103396829,0.573746090013,0.818999013889,0.0060651748071,0.0,0.818996023605,-0.573654155015,-0.0121313912782,0.0,-0.0064564090708,0.0119279220112,-0.999908015499,0.0,0.269212372091,-0.25434992895,0.304909861684,1.0,-0.00972,-0.0127748571429,2.764
-0.62925814653,-0.522008656527,-0.125133577544,-2.64266398325,-0.0673640141106,2.11023360388,-0.876780361843,-0.0474589711899,0.00831560644265,0.00286775663197,0.006096453404,-0.000480367691105,0.00137801328214,-0.0443645629851,0.573763216071,0.818987048303,0.00606081660669,0.0,0.818984110268,-0.573671498157,-0.0121155368117,0.0,-0.0064456740884,0.0119153912698,-0.999908234158,0.0,0.269046968642,-0.254581586643,0.304913359355,1.0,-0.00938,-0.012328,2.781
-0.630047299988,-0.521905962069,-0.125116289277,-2.64256288841,-0.0673528715406,2.11026757958,-0.877489775977,-0.0456400496841,0.00514279787349,0.00145657336032,0.00484152810134,0.0022656174816,0.000368141288096,-0.043370110858,0.573826210214,0.818942946407,0.00605622836265,0.0,0.818940193743,-0.573734952725,-0.0120793209165,0.0,-0.00641772832976,0.0118913487174,-0.999908700127,0.0,0.268877476768,-0.254817260375,0.304924889958,1.0,-0.00902,-0.0118548571429,2.799
-0.630677282618,-0.521824917867,-0.125102874762,-2.64251047336,-0.0673425714623,2.11027661691,-0.878081511956,-0.0418918036069,0.0035303134511,0.00137846039349,0.00231760585618,-0.000110394388998,-0.000315248273493,-0.0386872990741,0.573853317632,0.818923928534,0.00605937441806,0.0,0.81892115101,-0.573761918855,-0.0120894913831,0.0,-0.00642385916349,0.0118999737229,-0.999908558149,0.0,0.268723826898,-0.255007651895,0.304922518686,1.0,-0.0087,-0.0114342857143,2.815
-0.631381481422,-0.521754023318,-0.125094121649,-2.64247506754,-0.0673343800997,2.11029082405,-0.878812789589,-0.0360295556681,0.00814538131991,0.00175876718225,0.00322716843639,9.23844678361e-05,-0.00126412458833,-0.0401535861514,0.573832352581,0.818938566603,0.00606647865264,0.0,0.818935726981,-0.57374064085,-0.0121119367812,0.0,-0.00643847075706,0.0119185067513,-0.999908243436,0.0,0.268564464679,-0.255191764398,0.304911496342,1.0,-0.00836,-0.0109874285714,2.832
-0.632023495096,-0.521696642753,-0.125081786802,-2.6424477574,-0.0673275496121,2.11030594132,-0.879488218613,-0.0398042711933,-0.000793418590978,0.000543667383662,0.000774296968972,-0.00055491367123,0.000777869339109,-0.0453683401315,0.573800704959,0.818960711005,0.00607056176187,0.0,0.818957847026,-0.573708838408,-0.0121227236128,0.0,-0.00644542350672,0.0119277911927,-0.999908087933,0.0,0.268411321381,-0.255368714307,0.30490440999,1.0,-0.00802,-0.0105405714286,2.849
-0.632618817373,-0.521639184153,-0.125058859861,-2.6424115739,-0.0673123735375,2.11030949661,-0.880053604855,-0.0368800274687,0.00543473776766,0.00425687230591,-0.00226384626895,0.000352211288464,0.000139874456643,-0.0362545896679,0.573817413033,0.818948970872,0.00607507268865,0.0,0.818946074077,-0.573725353529,-0.0121364481432,0.0,-0.0064538327472,0.0119394920773,-0.999907894044,0.0,0.268273200316,-0.25553049208,0.304900595662,1.0,-0.0077,-0.01012,2.865
-0.633225640318,-0.521563279588,-0.125041998251,-2.64235462131,-0.0673019518994,2.11031616596,-0.880631866811,-0.031526740171,0.00232590432153,0.00037727662526,0.00388444194234,-0.000240723771224,-0.000732300271375,-0.035622950826,0.573836315839,0.818935717741,0.00607616109936,0.0,0.818932779625,-0.57374414484,-0.0121451890814,0.0,-0.00646009166043,0.011945548045,-0.999907781297,0.0,0.268135266669,-0.255702477202,0.304899558896,1.0,-0.00736,-0.00967314285715,2.882
-0.633799204657,-0.521464558848,-0.125032666729,-2.64227257222,-0.067293221334,2.11033149232,-0.88117608272,-0.0343443116344,0.00601985153018,-2.95617348178e-05,0.00530333156545,-0.00148405990053,0.00073316106398,-0.0310496416347,0.573861745503,0.818917902659,0.00607557843466,0.0,0.818914971038,-0.573769597766,-0.0121435493875,0.0,-0.00645871215084,0.0119443305514,-0.999907804753,0.0,0.268010713079,-0.255874468134,0.304902099174,1.0,-0.00702,-0.00922628571429,2.899
-0.63431873806,-0.521376384823,-0.125019738781,-2.64219791067,-0.0672789535585,2.11034788996,-0.881695801925,-0.0364969844282,0.00581729478088,-0.0010892939478,0.00186175290061,0.00357383382619,-0.000568024603555,-0.0317308940467,0.573862405003,0.818917420884,0.0060782233448,0.0,0.818914560859,-0.573770314067,-0.0121373642252,0.0,-0.0064521191134,0.0119429525647,-0.999907863777,0.0,0.267899826938,-0.256029016702,0.304905335692,1.0,-0.0067,-0.00880571428572,2.915
-0.634873812358,-0.521262442573,-0.125002639493,-2.64211442951,-0.0672698985422,2.11037029512,-0.882236191048,-0.0291340414476,0.00598016434682,1.04550584292e-05,0.00239591430006,0.000239600419535,0.000990875225388,-0.0352316402503,0.573870595952,0.818911716084,0.00607348855801,0.0,0.818908766797,-0.573778473331,-0.0121425740947,0.0,-0.00645898355238,0.0119421291803,-0.999907829293,0.0,0.267782620889,-0.25619527972,0.304903714156,1.0,-0.00634,-0.00833257142858,2.933
-0.635348906672,-0.521180194586,-0.124980606954,-2.6420519364,-0.0672529439497,2.11039114361,-0.882746483843,-0.023944151941,0.00675065581206,-0.000136016347302,0.00190329528935,0.000761934986287,0.000103233879233,-0.0252913101527,0.57383667924,0.818935473239,0.00607479469675,0.0,0.818932565087,-0.573744602586,-0.0121380288909,0.0,-0.00645500604378,0.0119403232829,-0.999907876545,0.0,0.267683140249,-0.256333183414,0.304904190672,1.0,-0.006,-0.00788571428572,2.95
-0.635769486607,-0.52109311075,-0.124955478546,-2.64200445569,-0.0672392815677,2.11040614339,-0.883162989673,-0.0253149256151,0.00956295589717,-0.00120419523767,0.00527277160981,0.00556105191916,0.0025279012203,-0.0251683975742,0.573830656621,0.818939704337,0.00607330913204,0.0,0.818936636606,-0.573738328748,-0.0121598623189,0.0,-0.0064738284621,0.0119515872376,-0.999907620287,0.0,0.267593397094,-0.256451428102,0.304895637748,1.0,-0.00568,-0.00746514285715,2.966
-0.636200069177,-0.521053819911,-0.12492350781,-2.64196372756,-0.0672255005917,2.11041515107,-0.883564771041,-0.0258337075674,0.00520392045256,0.00131036116254,-0.000989124951003,0.000570570869058,-0.00164017494259,-0.0189413915525,0.573839542894,0.818933512183,0.00606865191901,0.0,0.818930474775,-0.573747401992,-0.0121467318339,0.0,-0.00646561697331,0.0119403089284,-0.99990780816,0.0,0.267501059041,-0.25656905531,0.304901233719,1.0,-0.00534,-0.00701828571429,2.983
-0.63662345973,-0.521008134814,-0.124892911906,-2.64191237134,-0.0672163418488,2.11042329801,-0.883958074767,-0.027463635723,-4.86306191664e-05,-0.000201659494615,0.00448357763909,-0.000126868070844,-8.87982920053e-06,-0.0178429213579,0.573849008413,0.81892694736,0.00605948290568,0.0,0.818923904864,-0.573757117402,-0.0121307532302,0.0,-0.00645765359694,0.0119237056833,-0.99990805775,0.0,0.267412007984,-0.256687970414,0.304909198792,1.0,-0.005,-0.00657142857143,3.0
-0.637001403487,-0.520990695976,-0.124874887416,-2.64184475158,-0.067197704634,2.11044351851,-0.884314034256,-0.0238646771282,0.00226767148303,-0.000259162647103,0.00517275714819,0.000537777532405,-0.000108669728338,-0.0255580201927,0.57386539215,0.818915462318,0.00606004709803,0.0,0.818912897688,-0.573774366593,-0.0120577419768,0.0,-0.00639729482796,0.0118824003301,-0.999908937444,0.0,0.267339074458,-0.256802767985,0.304935677838,1.0,-0.00468,-0.00615085714286,3.016
-0.637387243434,-0.520994691929,-0.124870514437,-2.64173972906,-0.0671846510513,2.11047632367,-0.884668813623,-0.0275304620678,-0.000232728343251,9.25775854558e-05,0.00531457274604,-7.82447728676e-05,0.000349590934439,-0.0157216669168,0.573898118981,0.818892559066,0.00605579368755,0.0,0.818890858494,-0.573808821343,-0.011914080956,0.0,-0.00628160534522,0.0117967298653,-0.999910685311,0.0,0.267271844206,-0.256934816446,0.304987785604,1.0,-0.00434,-0.00570400000001,3.033
-0.637754043842,-0.521004379168,-0.124864095248,-2.64160071416,-0.0671693003291,2.1105003782,-0.885040430156,-0.0194615804947,-0.000951455190239,0.000763937636756,0.00840362730803,0.00191573934127,0.00173496184046,-0.0195850998835,0.573902547208,0.818889507893,0.00604872475133,0.0,0.818888809011,-0.573815343173,-0.0117395620345,0.0,-0.00614267137386,0.0116908226469,-0.999912792325,0.0,0.267216718266,-0.257068573745,0.305056744627,1.0,-0.00398,-0.00523085714286,3.051
-0.638062103845,-0.521006459111,-0.124854861874,-2.64145900445,-0.0671545563662,2.11053003117,-0.885321815228,-0.016838969498,0.000377818118932,0.00253519697842,0.0120767469876,-3.68161565629e-05,0.00462339992288,-0.016629963677,0.5739306682,0.818869879351,0.00603785490896,0.0,0.818870117032,-0.573845561042,-0.0115650510566,0.0,-0.00600559135195,0.0115819794256,-0.999914891691,0.0,0.26717853245,-0.257187396867,0.305124684295,1.0,-0.00366,-0.00481028571429,3.067
-0.638355850864,-0.521017823763,-0.12483970135,-2.64129008635,-0.0671400187814,2.11058211592,-0.885606084292,-0.0161027072598,-2.35067530646e-05,0.00102370036905,0.00853198809594,-1.67346119991e-05,0.00410593698031,-0.0127504420628,0.573941622203,0.818862350604,0.00601763798794,0.0,0.818863734866,-0.573859315173,-0.0113321229639,0.0,-0.00582628340688,0.0114318226528,-0.999917680538,0.0,0.267155344859,-0.257311259053,0.305210476114,1.0,-0.00332,-0.00436342857143,3.084
-0.638597555658,-0.521028072912,-0.124805883867,-2.64114735023,-0.067120744797,2.11060564077,-0.885847451041,-0.0206591078558,-0.000695423028886,0.000714654878381,0.0102093772062,0.000486092770526,0.000248807396278,-0.0118963715562,0.573932700107,0.818868748286,0.00599797715971,0.0,0.818870929738,-0.573852523788,-0.0111547422234,0.0,-0.00569242506804,0.0113138582834,-0.999919793237,0.0,0.267139255069,-0.257406005094,0.305281968743,1.0,-0.00302,-0.00396914285715,3.099
-0.63883338472,-0.521067072353,-0.124746370461,-2.64093626393,-0.0670960737466,2.11072128997,-0.886074883738,-0.0157210559918,-0.00251348683817,0.00242379865326,0.0127867288437,0.00119076952777,0.0046954916629,-0.0120165044128,0.57391744858,0.81887978342,0.00595058170866,0.0,0.818883463339,-0.573841624076,-0.0107893859031,0.0,-0.00542062288342,0.0110652628283,-0.999924085522,0.0,0.267161868037,-0.257523506139,0.305403631593,1.0,-0.00268,-0.00352228571429,3.116
-0.639046661433,-0.521163826135,-0.124653770331,-2.64061428977,-0.0670679182359,2.11084295987,-0.886306234761,-0.0120172356923,-0.00839071335204,0.00918302181887,0.0167517786886,0.00196349093733,0.00109090932977,-0.00302167614555,0.573863433345,0.818918202562,0.00587233196215,0.0,0.818923839441,-0.573793876347,-0.0102508323605,0.0,-0.00502518184201,0.0106917763398,-0.999930214298,0.0,0.267225616775,-0.257657186637,0.305598341909,1.0,-0.0023,-0.00302285714286,3.135
-0.639210486759,-0.521319001178,-0.124594288553,-2.64042366154,-0.0670487402013,2.11084888545,-0.886486353765,-0.00735892064835,-0.0109284584431,0.00174779690549,0.0101025678829,-0.000328687399502,-6.5533092318e-05,-0.0123337969844,0.573824219607,0.818945982561,0.00583005493562,0.0,0.818952888521,-0.573758584119,-0.00989951684845,0.0,-0.00476221717457,0.0104553241572,-0.999934001564,0.0,0.267246448783,-0.257737505785,0.305744148665,1.0,-0.00198,-0.00260228571429,3.151
-0.639389641424,-0.521403460793,-0.124542208917,-2.64028151252,-0.0670365853473,2.11084125295,-0.886670433815,-0.0129733154212,-0.00477269100931,-0.00030513479478,0.00814491009244,0.00187283682962,-0.000741932549716,-0.0112861892449,0.573794665747,0.818966936013,0.0057953583818,0.0,0.818974503906,-0.573731462732,-0.0096807812007,0.0,-0.00460334890543,0.0103012296995,-0.999936344897,0.0,0.267246125223,-0.257808950512,0.305840533965,1.0,-0.00164,-0.00215542857143,3.168
-0.639557890365,-0.52141452132,-0.124522164901,-2.64018788963,-0.0670191294365,2.11084219387,-0.886808113862,-0.0110937023804,-0.00313558633753,0.00123732762463,0.00323436942684,0.00307475848589,-6.27154184872e-05,-0.008427050295,0.573817213428,0.818951187169,0.00578839443484,0.0,0.81895917129,-0.573755136379,-0.00957424357228,0.0,-0.00451980412162,0.010234521523,-0.999937411011,0.0,0.26723068283,-0.257871716393,0.305887790745,1.0,-0.0013,-0.00170857142858,3.185
-0.639773409613,-0.52135298394,-0.124566705318,-2.64012484934,-0.0669223988433,2.11081090663,-0.886913116382,-0.0261126680542,0.0297046662409,0.0100033525934,0.00830722704092,0.0133942820093,-0.0341613646512,-0.00803650742394,0.573983590817,0.818833861329,0.00588998422523,0.0,0.81884280854,-0.573920843086,-0.00959519019481,0.0,-0.00447656811291,0.0103306518449,-0.999936616976,0.0,0.267182315749,-0.257939883886,0.30589014689,1.0,-0.000960000000005,-0.00126171428572,3.202
-0.639871432669,-0.521347071001,-0.124495728759,-2.64020212052,-0.0669062890233,2.110843484,-0.886955452465,0.00631811470222,-0.0268770678159,0.0142321970267,-0.00982679909168,-0.00555313833099,0.00126219129368,-0.00548066509561,0.573982191955,0.818834941737,0.00587608800848,0.0,0.818843523216,-0.573918996906,-0.00964449989353,0.0,-0.00452494209201,0.0103475670195,-0.999936224344,0.0,0.267160937621,-0.257933594445,0.305857277865,1.0,-0.000620000000005,-0.000814857142864,3.219
-0.639878372574,-0.521318667689,-0.124459623563,-2.64017976873,-0.0668883865895,2.11082310804,-0.887043608785,-0.00504233620298,0.0178627465063,0.00951539383916,0.00501298441052,0.00268335766075,-0.00634420701941,-0.00418358264364,0.573898232423,0.818893772091,0.00587841427387,0.0,0.818902210927,-0.573834660276,-0.00967979888326,0.0,-0.00455357683325,0.0103692655554,-0.999935869579,0.0,0.267174862074,-0.257928588115,0.305851552459,1.0,-0.000260000000005,-0.000341714285721,3.237
-0.639902897775,-0.521283538909,-0.124414544373,-2.64015834358,-0.0668793902628,2.11084280039,-0.887061711358,-0.0048878480967,0.0031840968545,0.00443669159615,0.00443526185781,5.25269946969e-05,-0.00177148601473,-0.000317198900689,0.573877194763,0.818908679857,0.00585544938446,0.0,0.818916952682,-0.573813893969,-0.00966367427314,0.0,-0.00455381620442,0.0103410881475,-0.999936160289,0.0,0.267181348392,-0.257931285484,0.305855678687,1.0,1.9999999995e-05,2.62857142792e-05,3.251
-0.639891154181,-0.521271604815,-0.124407141831,-2.64020179891,-0.0668882756307,2.11088190961,-0.887067300247,-0.00241034815891,0.00722981016558,0.00252747396045,-0.00455783738469,0.000198728331986,-0.000694008497918,0.000305564973673,0.573852005561,0.818926394918,0.00584656484234,0.0,0.818934497195,-0.57378857121,-0.00968048314071,0.0,-0.00457299911652,0.0103433174455,-0.999936049687,0.0,0.267181104235,-0.257921638093,0.30583502875,1.0,0.0,0.0,3.269
-0.639890891516,-0.52131538372,-0.124401390766,-2.64018147463,-0.0668792127952,2.11087444206,-0.887071882835,0.00114769567022,-0.0123353929326,0.00719669484046,0.00020404938798,0.00121462057856,0.000124989362723,-0.000135484153949,0.573848554671,0.818928801597,0.00584817217108,0.0,0.818937180123,-0.573785703034,-0.00962335212503,0.0,-0.00452532976908,0.0103118308694,-0.999936591757,0.0,0.267187682116,-0.257924194281,0.305859905889,1.0,0.0,0.0,3.286
-0.639928423367,-0.52122358677,-0.124399199061,-2.640174036,-0.0668852528277,2.11082026169,-0.887069574641,-0.00532375572144,0.00179964163281,0.00329443354233,0.0019426923968,-0.000355544290382,0.000476499023054,0.00156999762311,0.5738778613,0.818908258458,0.00584905464492,0.0,0.818916012186,-0.573813568445,-0.0097622003573,0.0,-0.00463816887461,0.0103923952533,-0.999935240658,0.0,0.267169017927,-0.257927247041,0.305824877079,1.0,0.0,0.0,3.304
-0.639930262206,-0.521303570341,-0.124406046888,-2.64018169795,-0.0668871222991,2.11085813439,-0.88707455171,0.00278670651459,0.00212232437655,0.00202907200631,-0.00120228379014,-0.00138523145226,-0.000427740726608,6.25619837031e-05,0.573878600182,0.81890776368,0.00584583084633,0.0,0.818915989513,-0.573815461918,-0.00965218553579,0.0,-0.00454990914421,0.0103266258956,-0.999936327535,0.0,0.267172913061,-0.257934043923,0.305853937925,1.0,0.0,0.0,3.32
-0.639930462392,-0.52128058822,-0.124394821621,-2.64017895196,-0.0668876847577,2.11086629341,-0.887075724547,-0.0009388946387,0.00380382664705,0.00350344284615,0.000351163550384,-0.00144327046915,0.00542312697397,0.00156472431024,0.573869843765,0.818913947039,0.00583923485232,0.0,0.818922047833,-0.573806608013,-0.00966452662808,0.0,-0.00456391197271,0.0103282574001,-0.999936246871,0.0,0.267176669117,-0.257933128939,0.305847687607,1.0,0.0,0.0,3.336
-0.639924440851,-0.521318090131,-0.124387664629,-2.64019025862,-0.066884486993,2.11086242676,-0.887078077867,0.0010958507153,-0.000162492319163,0.000526803593252,-0.000210694690767,-0.00105295582206,0.00689801852567,0.000155231083071,0.573858576656,0.818921842377,0.00583926172587,0.0,0.8189300457,-0.573795574357,-0.00964188772599,0.0,-0.00454549743965,0.0103152254388,-0.99993646527,0.0,0.267177629344,-0.257926821061,0.305856192985,1.0,0.0,0.0,3.352
-0.639921111581,-0.521349445417,-0.124394423847,-2.64017279212,-0.0668835164245,2.11090273833,-0.887081516585,0.00073142368905,-0.00523322878866,-0.00143853006944,-0.00231715299789,0.000145490533817,0.00738455338661,-0.000578817489394,0.573858878787,0.818921653082,0.00583611610846,0.0,0.818930225067,-0.573796805469,-0.00955297889431,0.0,-0.00447448263627,0.0102616312038,-0.999937337002,0.0,0.267188275635,-0.257937840009,0.305878995698,1.0,0.0,0.0,3.369
-0.639929649528,-0.521253473173,-0.124389674151,-2.64019127141,-0.0668788370563,2.11086955452,-0.887081623212,0.000283536565418,-0.000123629622128,-0.002076905962,0.000270374524437,0.00210753129605,0.00285080977007,-0.00123848689562,0.573865255967,0.818917148919,0.00584107019242,0.0,0.818925106234,-0.573801645667,-0.0096999335131,0.0,-0.00459191461697,0.0103500531268,-0.999935893305,0.0,0.267174847703,-0.257927718079,0.305833351809,1.0,0.0,0.0,3.386
-0.639929325751,-0.521309073494,-0.124404953937,-2.6401998318,-0.0668805185458,2.11087554781,-0.887078754701,-0.00099199622133,-0.000223395620814,-0.00473160835456,-0.0012112864567,0.000469149721353,0.00198900488753,0.000497965252496,0.573875549603,0.818909861199,0.00585146992015,0.0,0.818918169846,-0.573812442036,-0.00964672801419,0.0,-0.00454224190697,0.0103280952268,-0.999936347218,0.0,0.267172673123,-0.257930784865,0.30584923551,1.0,0.0,0.0,3.402
-0.639948978768,-0.521265744021,-0.124403106691,-2.64017643581,-0.0668787400104,2.11085862127,-0.887077498259,0.00145922732192,-0.00356142864966,-0.000435856378565,0.000248687878653,0.000445951042213,0.000224004125071,0.00180788177526,0.573893414626,0.818897338921,0.00585182522864,0.0,0.818905484457,-0.573829924096,-0.0096836273857,0.0,-0.00457203229626,0.0103496610232,-0.99993598847,0.0,0.267169933003,-0.257938324865,0.305842517152,1.0,0.0,0.0,3.42
-0.639925056552,-0.52128961927,-0.124386589398,-2.64017059219,-0.0668790948608,2.11086691822,-0.887081237737,0.00406763289231,0.00217250830438,0.00204241467297,0.000410817786407,0.000434066891274,-0.000577203610012,0.000425590767848,0.573859065292,0.818921487449,0.00584101685257,0.0,0.818929690326,-0.57379601283,-0.00964597651701,0.0,-0.0045478328162,0.0103190118631,-0.999936415584,0.0,0.267182830259,-0.257931338368,0.305855072764,1.0,0.0,0.0,3.438
-0.639913303061,-0.52128533776,-0.124380894535,-2.64018314592,-0.0668764500221,2.11085696637,-0.887084357863,0.000189161145552,-0.000212892052943,0.000464179496883,0.0018702638727,0.000472548882669,-0.00136897918254,-9.04339876932e-05,0.57384341768,0.818932436028,0.00584329604195,0.0,0.818940540748,-0.573780081676,-0.00967240881277,0.0,-0.00456837038637,0.0103359591499,-0.999936146932,0.0,0.267182735009,-0.257922042406,0.305847063039,1.0,0.0,0.0,3.453
-0.639921087553,-0.521275114266,-0.12437601702,-2.64019402827,-0.066881840974,2.11085813098,-0.88708634308,-7.79626839204e-05,0.00195659356833,-0.000194871231311,0.00126033007055,-0.000768288037448,-0.000128141311233,-0.00105889676477,0.573849693397,0.818928079282,0.00583757260237,0.0,0.818936036121,-0.573786182226,-0.00969188989601,0.0,-0.00458753060435,0.0103424857377,-0.999935991727,0.0,0.267178594444,-0.25792296895,0.305839508621,1.0,0.0,0.0,3.471
-0.639926090209,-0.521297044166,-0.124379093536,-2.64018172542,-0.0668790904975,2.11086613024,-0.887086342607,0.000422150505497,0.000260007451315,0.000627170387729,-0.000588452521475,0.000446363736252,0.000139044779238,-0.00523217153621,0.573849872766,0.818927945414,0.00583871965343,0.0,0.81893610364,-0.573786784771,-0.00965042370822,0.0,-0.00455290914024,0.0103196314252,-0.999936386089,0.0,0.267181637797,-0.257927150003,0.305852848939,1.0,0.0,0.0,3.487
-0.639948564034,-0.521290649248,-0.124392215958,-2.64018423107,-0.0668777325251,2.11086356273,-0.887087870449,-0.00305722772709,0.00468285545314,-0.00394429317247,-0.000177598270451,0.000722142368995,-0.000537770286417,-0.00785895217143,0.573876814039,0.818909005582,0.00584720334302,0.0,0.818917202875,-0.573813572911,-0.00966153607683,0.0,-0.00455680199184,0.0103331058931,-0.999936229206,0.0,0.267172002827,-0.257934819671,0.305848823946,1.0,0.0,0.0,3.504
-0.639941692322,-0.52129636601,-0.124390657466,-2.64018172542,-0.0668738661331,2.11086137532,-0.887089396328,-0.000293707044621,2.89016196557e-07,0.000368606266076,0.0010602006834,0.000131242238239,-0.00103599119811,-0.000869058271488,0.573870566454,0.818913367776,0.00584943901706,0.0,0.818921616501,-0.573807380459,-0.00965520898529,0.0,-0.00455041603681,0.0103312712141,-0.999936277244,0.0,0.267174808931,-0.257932668492,0.305851921669,1.0,0.0,0.0,3.521
-0.639942994267,-0.521300224457,-0.124385781009,-2.6401794727,-0.066881006202,2.11086338528,-0.887080864488,-0.000703995674827,-0.00192366270541,0.00131562166262,2.50074298109e-05,-0.000374755802007,-0.000686107832523,0.00122854330415,0.573872216096,0.818912277325,0.00584025175635,0.0,0.818920464818,-0.57380914796,-0.00964784544416,0.0,-0.00454963679438,0.0103195308115,-0.999936402022,0.0,0.267175819479,-0.257933581187,0.305854651174,1.0,0.0,0.0,3.538
-0.639938403676,-0.52129375865,-0.124390098344,-2.64018670925,-0.0668770645662,2.11086109024,-0.887080050686,0.000439597072338,-0.000569086766418,-0.00142218965423,-0.00247190590099,0.000271505507128,0.00034354087543,0.00160446942985,0.57387355288,0.818911291393,0.00584713906508,0.0,0.818919479467,-0.573810293186,-0.0096633577896,0.0,-0.00455837198823,0.0103340805101,-0.999936211978,0.0,0.267174238459,-0.257930649376,0.30584867931,1.0,0.0,0.0,3.554
-0.639925016207,-0.521286078077,-0.124382299037,-2.64019450424,-0.0668783263024,2.11086381964,-0.887090583122,0.00178027228604,0.000397268419187,0.000203361906954,-0.0018343007593,0.000586442079421,-0.00144222153646,-0.000764080853983,0.573847576649,0.818929521763,0.00584329193605,0.0,0.818937609514,-0.573784201691,-0.00967618283045,0.0,-0.00457141119289,0.0103381446396,-0.999936110442,0.0,0.267177724344,-0.257923758296,0.305842719525,1.0,0.0,0.0,3.571
-0.639924479816,-0.521292797671,-0.12437682566,-2.64018747033,-0.0668762080366,2.11086015862,-0.887082377285,0.000852559415842,-0.000687635581123,-0.00134150666466,0.00159435059659,-0.00041972572149,-5.10092806174e-05,0.00148934395042,0.57385117625,0.818927012142,0.0058415067927,0.0,0.818935127773,-0.573787913669,-0.00966610198552,0.0,-0.00456413389652,0.010330918008,-0.999936218373,0.0,0.267180421219,-0.25792357306,0.305848212477,1.0,0.0,0.0,3.589
