nelsonifechukwu/NELSON_IML_WORK/CNN-GradCAM/train2dof/data_sample_2022-02-22-16-36-30/robot_state.csv
position_joint1,position_joint2,position_joint3,position_joint4,position_joint5,position_joint6,position_joint7,velocity_joint1,velocity_joint2,velocity_joint3,velocity_joint4,velocity_joint5,velocity_joint6,velocity_joint7,ee_T_00,ee_T_10,ee_T_20,ee_T_30,ee_T_01,ee_T_11,ee_T_21,ee_T_31,ee_T_02,ee_T_12,ee_T_22,ee_T_32,ee_T_03,ee_T_13,ee_T_23,ee_T_33,v_x,v_y,time
0.465063764066,0.547771790739,-0.123910322241,-1.35585344522,0.0795792562051,1.8940987277,0.159155616431,-5.10893061629e-05,-0.000313921968878,0.0049001717459,-0.000622392798094,-0.000262545432391,-6.49023332785e-05,0.0011254649321,0.573778401541,0.81899640029,0.00199728281087,0.0,0.818952714109,-0.573718502948,-0.012011591508,0.0,-0.00869173944547,0.00852783614149,-0.99992586209,0.0,0.661652452667,0.260939582326,0.303208706382,1.0,0.0,0.0,0.0
0.465058845359,0.547771790739,-0.123910427931,-1.35585116908,0.0795757118017,1.89409874126,0.159149662181,-0.00260780822324,-0.000955085693548,0.000910568306355,-0.00031025035769,5.9846333218e-05,0.000245882696545,-0.00131302507258,0.573776564097,0.818997687639,0.00199725706094,0.0,0.818954036535,-0.57371670059,-0.0120075146938,0.0,-0.00868843431656,0.00852545639786,-0.999925911107,0.0,0.661654484287,0.260935963779,0.303209787734,1.0,-0.00012,-0.000157714285714,0.007
0.465060576674,0.547770033833,-0.123911558165,-1.35585418818,0.079574997946,1.89409710058,0.159157244035,-0.000229202726799,0.000449244041455,-0.0038583949898,2.93000595028e-05,-0.000271658014753,-0.000342212990399,-0.000176468142612,0.573782105947,0.818993812472,0.0019942241002,0.0,0.818950129154,-0.573722261864,-0.0120082929993,0.0,-0.00869075422732,0.00852347783376,-0.999925907813,0.0,0.661653358947,0.260935892218,0.303209488978,1.0,-0.00046,-0.000604571428571,0.024
0.465059516282,0.547754144693,-0.123908974494,-1.3558702127,0.0795757098546,1.89410098656,0.159157954644,-0.0010326392933,0.00067834675657,0.00131125671191,-0.00041389260294,-2.40355475034e-05,-0.000147868076673,0.00113675246813,0.573782813417,0.818993304722,0.00199918701184,0.0,0.818949655518,-0.573722918074,-0.0120092424367,0.0,-0.00868867702821,0.00852809461926,-0.9999258865,0.0,0.661650524446,0.260935372619,0.30321337158,1.0,-0.00086,-0.00113028571429,0.044
0.465062570107,0.547656766457,-0.123908947752,-1.3559703369,0.079575230857,1.8941151509,0.159157599223,-0.00148481582031,-0.00956629438328,5.47884587213e-06,-0.00917029944022,-2.21941533933e-05,0.00417201550319,0.00108043270746,0.573785265815,0.818991551066,0.00201368257825,0.0,0.818948012042,-0.573725230968,-0.0120108211537,0.0,-0.00868162769218,0.00854089799142,-0.999925838451,0.0,0.661632196353,0.260927690197,0.303235928767,1.0,-0.00122,-0.00160342857143,0.062
0.465059837193,0.547558019357,-0.123914337317,-1.3561034522,0.0795740168911,1.89413660247,0.15914670209,0.000169352607094,-0.00407282301628,-0.000761759435354,-0.0090917469502,-0.000119202273824,0.00137587703455,-0.00174055123455,0.573789263102,0.818988768162,0.00200650777664,0.0,0.818945062187,-0.573729186218,-0.0120230154891,0.0,-0.00869568999014,0.00854206129482,-0.999925706322,0.0,0.661610582997,0.260909516751,0.303244562213,1.0,-0.00148,-0.00194514285714,0.075
0.465044587586,0.547424419632,-0.123916596823,-1.35630041256,0.0795695326539,1.89420192214,0.15914410821,-3.31634074031e-05,-0.00658594775323,-0.000992430039706,-0.0105634002074,6.81837217318e-05,0.00351640363241,0.0004476520458,0.573810986682,0.818973534924,0.00201185425208,0.0,0.81892983378,-0.573750820425,-0.0120278970909,0.0,-0.00869639380308,0.00854947156952,-0.99992563687,0.0,0.661586728486,0.260880204867,0.303251194647,1.0,-0.0018,-0.00236571428571,0.091
0.465023626878,0.547235468765,-0.123914337431,-1.35650559701,0.0795674519635,1.89432757466,0.1591347991,0.000373040942965,-0.00830997267545,-0.000326310226748,-0.0120209054337,-0.00256231739791,0.00390719910584,0.000226837651898,0.573830134835,0.8189598701,0.00211055024057,0.0,0.818917433741,-0.573769527472,-0.0119796894667,0.0,-0.00860008109346,0.00860283884005,-0.999926012147,0.0,0.66157480814,0.26085398821,0.303298209671,1.0,-0.00214,-0.00281257142857,0.108
0.464998145686,0.547041531393,-0.123909329364,-1.35674924357,0.0795635095724,1.89445579481,0.159119606151,0.000334030321376,-0.00543192738065,-0.000496972028136,-0.0139424358656,-0.000210743528951,0.0186829876353,-0.00052808882233,0.573847852157,0.818947263639,0.00218377054439,0.0,0.818905722007,-0.573786880345,-0.0119491133225,0.0,-0.00853283905395,0.00864544166121,-0.999926220776,0.0,0.6615553482,0.260821737427,0.303330572387,1.0,-0.00248,-0.00325942857143,0.125
0.464966083291,0.546835738227,-0.12390956619,-1.35705526804,0.0795595808716,1.89457990558,0.159106927481,-0.00403418835467,-0.013433968127,0.000538092150251,-0.0212468092287,0.000446373808006,0.00211859270143,0.000882072968051,0.573880040372,0.818924633755,0.00221142318609,0.0,0.818883342463,-0.573818839899,-0.0119481092428,0.0,-0.00851580865429,0.00866784590776,-0.999926172,0.0,0.66152397378,0.260774561902,0.303341449826,1.0,-0.0028,-0.00368,0.141
0.464927846067,0.546559357409,-0.123911913954,-1.35744912429,0.0795506899403,1.89471863557,0.159038207814,-0.00562593541597,-0.0213316580863,0.000407834363372,-0.0274030214813,5.16792884013e-05,0.0107070741596,-0.0120862428153,0.573876312064,0.818927173837,0.00223814746662,0.0,0.818886101017,-0.573814870924,-0.0119496597545,0.0,-0.00850178247707,0.00869058184342,-0.99992609401,0.0,0.661479578864,0.260712769751,0.303361830765,1.0,-0.00314,-0.00412685714286,0.158
0.464884174817,0.546259043179,-0.123910391884,-1.35792056874,0.0795341372251,1.89490014767,0.158917863655,-0.00197310580862,-0.0181869828159,-9.02659568012e-05,-0.0276150930561,-0.00308758373636,0.0075510223838,-0.000690539121279,0.573834500011,0.818956429056,0.00225406428839,0.0,0.818915452127,-0.573772885341,-0.0119542969463,0.0,-0.00849689096005,0.0087058437015,-0.999926002827,0.0,0.661427467018,0.260642390934,0.303365787252,1.0,-0.0035,-0.0046,0.176
0.464847638166,0.545990641318,-0.123912900466,-1.3583718026,0.0795175540131,1.89505038352,0.158903339188,-0.00276666687333,-0.0146119800308,0.000757749488958,-0.0342414841087,-0.000307753354973,0.0120356693479,-0.00327354630725,0.573875042444,0.818928083251,0.00223092451983,0.0,0.818886694265,-0.573813404266,-0.011979396576,0.0,-0.00853029411773,0.00870171865878,-0.999925754331,0.0,0.661371939772,0.260574244252,0.303354164121,1.0,-0.0038,-0.00499428571429,0.191
0.464790119177,0.545632727932,-0.123914665353,-1.35897787404,0.0794699183788,1.89525246593,0.158824456345,-0.00140071453901,-0.0190520131543,-0.000168891608784,-0.0322474111763,-0.000556661922618,0.0134986351954,-0.00207171392598,0.573879914891,0.81892479283,0.00218491964673,0.0,0.818882868661,-0.573818531745,-0.0119952882917,0.0,-0.00856965658796,0.00867321527828,-0.999925665399,0.0,0.661300544646,0.260473938245,0.303336620717,1.0,-0.00416,-0.00546742857143,0.209
0.464733660685,0.545246308076,-0.123915379824,-1.35965314411,0.0794071995351,1.8954650794,0.158733615729,-0.0043544549189,-0.0241023625371,0.000109999796917,-0.0423777600962,-0.00418400586549,0.0141360918892,-0.00314135395838,0.57387313757,0.818929744639,0.00210765772638,0.0,0.818886944391,-0.573812210874,-0.0120193951577,0.0,-0.00863380669497,0.00862370743929,-0.999925541754,0.0,0.661216354144,0.260365375288,0.303307146243,1.0,-0.0045,-0.00591428571429,0.226
0.464669213657,0.544846148631,-0.123910353338,-1.36031481927,0.0793911284836,1.89569313238,0.158657600071,-0.00385773016636,-0.0225329008272,0.00176284291683,-0.0433672418825,0.000147308778285,0.0133997780609,-0.00183028398179,0.573892740748,0.818916044322,0.00209317220542,0.0,0.818872779836,-0.573831598658,-0.0120587613692,0.0,-0.00867415181129,0.00863464359838,-0.999925098205,0.0,0.661136807441,0.260265262104,0.303295073521,1.0,-0.00482,-0.00633485714286,0.242
0.464606124653,0.544412596428,-0.123916432266,-1.36104502088,0.0793627327708,1.89595119974,0.158545107379,-0.000906106531823,-0.0221602018475,0.000865069909533,-0.0429819046094,-0.000589350391302,0.0153829625379,-0.00788709951059,0.573889702449,0.818918240293,0.00206689138406,0.0,0.818874488059,-0.573828530202,-0.0120887400012,0.0,-0.00871381621207,0.00863029418615,-0.999924790886,0.0,0.661051169541,0.260151964143,0.303276933475,1.0,-0.00516,-0.00678171428571,0.259
0.464529866397,0.543884817221,-0.123913381679,-1.36190306407,0.0793230073128,1.89625929156,0.158475427065,-0.00690223068307,-0.0284376067629,0.00168952715345,-0.0534548292358,-0.00246144968342,0.0232073483616,-0.0036733996922,0.573930184325,0.818889901172,0.00205430768521,0.0,0.818845837398,-0.57386891602,-0.0121123367776,0.0,-0.00873993521309,0.00863396320667,-0.999924531258,0.0,0.660950441279,0.26002288069,0.30326859969,1.0,-0.00552,-0.00725485714286,0.277
0.464463227812,0.543423106764,-0.123922292661,-1.36263937063,0.0792807383484,1.89651160734,0.158360857191,-0.00701064360375,-0.0350478531664,-0.000526650199152,-0.0521841202801,-0.00368834792234,0.0172538501084,-0.00940708868721,0.573926803494,0.818892319325,0.00203481741027,0.0,0.818847986316,-0.573865606518,-0.0121238551121,0.0,-0.00876058877309,0.00862457759927,-0.999924431517,0.0,0.660865139366,0.259902618967,0.30326694789,1.0,-0.00582,-0.00764914285714,0.292
0.464374716529,0.542805355981,-0.123920059656,-1.36362496916,0.079226509808,1.89687008153,0.158235936604,-0.00279196437225,-0.031493903701,0.000417881619076,-0.0562071882629,-0.00364944417154,0.0126950139276,-0.000683959030832,0.573935799669,0.818886026885,0.00202971227542,0.0,0.81884154772,-0.573874545822,-0.012135579394,0.0,-0.00877302509164,0.00862722230576,-0.999924299668,0.0,0.660751379183,0.259752093742,0.3032658028,1.0,-0.0062,-0.00814857142857,0.311
0.464300139749,0.542242710113,-0.123920296435,-1.36448859042,0.0791760001221,1.89718508015,0.158139633418,-0.00516572594488,-0.0310917434168,-0.0010923857876,-0.0522324225831,-0.000648321341416,0.0232259150021,-0.0129040829749,0.57395266417,0.818874175187,0.00204240187012,0.0,0.818829838703,-0.57389132954,-0.0121319425196,0.0,-0.00876258640637,0.00863570658866,-0.999924317962,0.0,0.660652197963,0.259620764213,0.303279966026,1.0,-0.00652,-0.00856914285714,0.327
0.464215027652,0.541657813891,-0.123922453339,-1.36538624674,0.0791235727967,1.89751983347,0.158001879892,-0.00240682509895,-0.0420540288055,-0.000450500312195,-0.0577302038964,-0.00259751530332,0.0279788083528,-0.0126832958492,0.573946935523,0.818878142187,0.00206163848382,0.0,0.818834050218,-0.573885510521,-0.0121229500637,0.0,-0.00874424272592,0.00864623629516,-0.99992438755,0.0,0.660552841492,0.259478651827,0.303295366901,1.0,-0.00684,-0.00898971428571,0.343
0.464127351555,0.541000365801,-0.123930965952,-1.36640827363,0.0790621790174,1.89789356789,0.157870349355,-0.00309640457605,-0.0405622617949,-0.000608650260609,-0.0637330418316,-0.00071291638319,0.0197368567021,-0.00824090922251,0.573957267153,0.81887088627,0.00206736622651,0.0,0.818826895592,-0.573895841979,-0.0121171166373,0.0,-0.00873606935495,0.008647688715,-0.999924446432,0.0,0.660436930572,0.259318553234,0.303306364828,1.0,-0.00718,-0.00943657142857,0.36
0.464031095512,0.540289578295,-0.123930628639,-1.36748319588,0.0789998616577,1.89828411572,0.157738437135,-0.00240211687342,-0.039402731069,-0.000425741698191,-0.065130360954,-0.000108184736849,0.0295100291136,-0.00670541297445,0.573970660235,0.818861436696,0.00209178914605,0.0,0.818817726871,-0.573909089133,-0.0121092721642,0.0,-0.00871548699835,0.00866332776859,-0.999924490668,0.0,0.660313622818,0.25915334542,0.303330951316,1.0,-0.00752,-0.00988342857143,0.377
0.463938831431,0.539591977529,-0.12393420253,-1.36857260107,0.0789324964506,1.89870175115,0.157615825889,-0.00869368041156,-0.0479538473135,-0.000694319309528,-0.0715994542606,-0.00356511911507,0.0256179040196,-0.0110895376494,0.573990705194,0.818847337346,0.00211077573628,0.0,0.818803923193,-0.573929096825,-0.0120943822889,0.0,-0.00869218447364,0.00867054140751,-0.99992463098,0.0,0.660191960653,0.258987641139,0.303341691468,1.0,-0.00784,-0.010304,0.393
0.463835822874,0.538840245175,-0.123932087915,-1.36973386251,0.0788724258876,1.89915246968,0.157476157404,-0.010308213887,-0.0485576478745,0.000498448018735,-0.0696870069853,-0.00433819107934,0.0281467357666,-0.00605596750235,0.574007467345,0.818835483409,0.00215068457356,0.0,0.818792515065,-0.573945609909,-0.0120830890197,0.0,-0.00865985279825,0.00869691519959,-0.999924682471,0.0,0.66006256235,0.258813757592,0.303359061867,1.0,-0.00818,-0.0107508571429,0.41
0.463725527424,0.538055662539,-0.123940353832,-1.37094795652,0.0787980399419,1.89961803178,0.157315534825,-0.0102135642978,-0.0396928850047,-0.00289629303471,-0.0740301516137,-0.00647853367697,0.025550591578,-0.00536850281443,0.574017784878,0.818828188087,0.00217438233476,0.0,0.818785614176,-0.573955910745,-0.0120614029372,0.0,-0.00862838324275,0.00870398035056,-0.999924893044,0.0,0.659921502458,0.258608011497,0.303375395299,1.0,-0.00854,-0.011224,0.428
0.463627351647,0.53726445919,-0.123946256766,-1.37220700672,0.0787266264051,1.90008038164,0.157163127607,-0.00836357065497,-0.0432928649188,-0.00123076378918,-0.0764445615979,-0.00477068997928,0.0278653401364,-0.00519454074084,0.574029306733,0.818820113324,0.00217345990337,0.0,0.818777477339,-0.573967384576,-0.0120677648012,0.0,-0.00863399967714,0.00870699831614,-0.999924818289,0.0,0.659781583772,0.258434455929,0.303375661946,1.0,-0.00886,-0.0116445714286,0.444
0.463507068078,0.536411782813,-0.123941673616,-1.37352916683,0.0786522147837,1.90057880566,0.156997507258,-0.00537694450302,-0.0447414026046,0.00284143144647,-0.0792990188905,-0.00129871276596,0.0282100829512,-0.0106374555538,0.574041857577,0.818811239637,0.00220147561555,0.0,0.818768902268,-0.573979747211,-0.012061565898,0.0,-0.00861270912891,0.00872651147885,-0.999924831794,0.0,0.659630977113,0.258233795196,0.303391354155,1.0,-0.0092,-0.0120914285714,0.461
0.463403316962,0.535542163932,-0.123951966731,-1.37489936934,0.0785718539178,1.90108064537,0.156838872363,-0.00697842005956,-0.0502347464465,-0.000391883837762,-0.082041762714,-0.00412149859187,0.0252258469876,-0.0116131085133,0.574057896178,0.818799997381,0.00220068751122,0.0,0.818757656705,-0.573995794156,-0.0120612926014,0.0,-0.00861276679719,0.00872587800596,-0.999924836826,0.0,0.659469491754,0.258029212284,0.303396750967,1.0,-0.00954,-0.0125382857143,0.478
0.463294891416,0.534702599978,-0.123945923363,-1.37625294003,0.0784975952677,1.90156501238,0.156671189724,-0.00231128304703,-0.050690990417,0.000430412478503,-0.0884274337953,-0.00514163755008,0.0280154228104,-0.00760612530227,0.574059423847,0.818798980401,0.00218047902193,0.0,0.818756231067,-0.573997261114,-0.0120882266779,0.0,-0.00864640516232,0.00872480920758,-0.999924555845,0.0,0.659304398442,0.257832427602,0.303386660749,1.0,-0.00986,-0.0129588571429,0.494
0.463169338669,0.533788294533,-0.123948740015,-1.3777376615,0.0784180574655,1.90209921986,0.156486773282,-0.00425001935929,-0.0525378527747,0.000721236153377,-0.0868168805203,-0.00533208615797,0.0337029686153,-0.0136798083613,0.574073178026,0.818789408171,0.00215365716412,0.0,0.818746180934,-0.574011000401,-0.0121164980497,0.0,-0.00868480457336,0.00871922299219,-0.999924271793,0.0,0.659127109051,0.257607163402,0.303371322506,1.0,-0.0102,-0.0134057142857,0.511
0.463033662497,0.532855504451,-0.123950794735,-1.37923889711,0.0783361029586,1.90268515794,0.156287476147,-0.00836849303257,-0.0588720941615,-0.000596530303585,-0.0895040872956,-0.00516777315239,0.0377404868708,-0.0162487805456,0.57408290585,0.818782543452,0.00217040342779,0.0,0.818739489868,-0.574020609317,-0.0121134103539,0.0,-0.00867255961499,0.00873126491489,-0.999924272994,0.0,0.658958974441,0.257377078371,0.303365432805,1.0,-0.01054,-0.0138525714286,0.528
0.462914804334,0.531945307872,-0.123948168481,-1.38069773085,0.0782526906483,1.90321985818,0.156106390085,-0.0113569376876,-0.0609145996675,0.000912041892233,-0.0997891599739,-0.00353635126561,0.0339929786347,-0.0136258845411,0.574087343976,0.818779456978,0.00216083736043,0.0,0.818736190979,-0.574025000284,-0.0121282946168,0.0,-0.00869019112707,0.00873202431184,-0.999924113285,0.0,0.658784190968,0.257161859145,0.303358997215,1.0,-0.01086,-0.0142731428571,0.544
0.46276816595,0.530878312245,-0.123950565602,-1.38242492115,0.0781549617846,1.90382545319,0.155892191082,-0.00677600357757,-0.0631566001195,0.000663979168661,-0.0951901943825,-0.0010866130124,0.0345110365106,-0.0173042999853,0.574101400381,0.818769715065,0.00211723258788,0.0,0.818725744784,-0.574039110924,-0.0121655603292,0.0,-0.00874558643164,0.00871786589474,-0.999923753859,0.0,0.658573728698,0.256898154359,0.303341449209,1.0,-0.01122,-0.0147462857143,0.562
0.462628097262,0.529865225013,-0.123949126352,-1.38406688805,0.0780373387271,1.90441689005,0.155674206793,-0.0123504155575,-0.055995192304,0.000674157341772,-0.0981789373393,-0.00954348873818,0.0323213727964,-0.0147439879031,0.574094103918,0.818774939646,0.00207483857929,0.0,0.818730515767,-0.574032102791,-0.0121751557839,0.0,-0.00877785749048,0.00868858609219,-0.999923725936,0.0,0.658376958109,0.256646283302,0.303324845173,1.0,-0.01156,-0.0151931428571,0.579
0.462503275594,0.528922968753,-0.123959761208,-1.38552980423,0.0779527763308,1.90496768914,0.155473939931,-0.00583923959539,-0.0646503111925,-0.000314600984837,-0.0993370455914,-0.00369611947153,0.0362111780082,-0.0100212974404,0.574096535235,0.818773171746,0.00209960984313,0.0,0.81872908751,-0.574034439938,-0.0121610004124,0.0,-0.00875202102239,0.00870076736948,-0.999923846488,0.0,0.658208679276,0.256420340644,0.303340243786,1.0,-0.01186,-0.0155874285714,0.594
0.462349471624,0.527745485827,-0.12395759812,-1.38735747159,0.0778411100073,1.9056832056,0.15521903266,-0.0104705513804,-0.070057729276,-0.000191318504432,-0.106416062584,-0.00489163749628,0.0434383771383,-0.0156371776582,0.574081386356,0.818783653682,0.00215341679965,0.0,0.818740313152,-0.574019098146,-0.0121293645645,0.0,-0.00869539047894,0.00872649958189,-0.999924116316,0.0,0.657999658448,0.256149366036,0.303361273084,1.0,-0.01222,-0.0160605714286,0.612
0.462205369449,0.526583681895,-0.12395980941,-1.38914552124,0.0777248965946,1.90635110241,0.154971301923,-0.0118824097449,-0.066295650965,0.00146149525728,-0.112004659607,-0.00503996536057,0.040398756501,-0.0133418835961,0.574063369138,0.818796205259,0.00218388833396,0.0,0.818753336656,-0.574001026003,-0.012105484841,0.0,-0.00865853760991,0.00873754949807,-0.999924339615,0.0,0.657788188339,0.255882821617,0.30338580243,1.0,-0.01256,-0.0165074285714,0.629
0.462061902466,0.525480431645,-0.123963570942,-1.39087023397,0.0776179485726,1.90697793403,0.154751688624,-0.00842659397229,-0.07031180204,0.000158606402216,-0.110225823949,-0.00781982985852,0.0448965231609,-0.0143063085275,0.574067741165,0.818793133864,0.00218618190967,0.0,0.818750295458,-0.574005387859,-0.0121043503661,0.0,-0.00865624543423,0.00873882240683,-0.999924348337,0.0,0.657580974528,0.255621290827,0.303395499156,1.0,-0.01288,-0.016928,0.645
0.461898975641,0.524291703706,-0.123969330274,-1.39273762669,0.0774995425148,1.90763860077,0.154494511664,-0.00431972044603,-0.0762390196692,-0.000980262552138,-0.109487507679,-0.00708486978568,0.0375134751672,-0.0078009180952,0.574062929535,0.818796557125,0.00216745809618,0.0,0.818753472561,-0.574000655828,-0.0121138425168,0.0,-0.0086748171947,0.00872888982416,-0.999924274147,0.0,0.657354743828,0.255330485391,0.303400106471,1.0,-0.01322,-0.0173748571429,0.662
0.461736975518,0.523022333462,-0.123971758799,-1.39477516952,0.0773762947328,1.90840637665,0.154218760815,-0.010410799258,-0.0694989342371,0.00375117392941,-0.121624846886,-0.00234962421028,0.0477111772851,-0.0167383369552,0.574047746398,0.818807208955,0.00216479093502,0.0,0.818764080343,-0.573985476903,-0.0121161027518,0.0,-0.00867836080574,0.00872784257688,-0.99992425254,0.0,0.657110622995,0.255029578039,0.30338931021,1.0,-0.01358,-0.017848,0.68
0.461591552816,0.521918202861,-0.123972796392,-1.39649169797,0.077268967768,1.90908728773,0.15398414948,-0.00686869951252,-0.0763628849263,-0.0013914190777,-0.117423908682,-0.00268992735412,0.044681530932,-0.0146462378557,0.574038649407,0.818813441547,0.00221897059461,0.0,0.818771105273,-0.573976234765,-0.0120791554666,0.0,-0.00861710437758,0.00875089957827,-0.99992458079,0.0,0.65691438735,0.254773004958,0.303407239818,1.0,-0.01388,-0.0182422857143,0.695
0.461411720579,0.52059477775,-0.123978113742,-1.39862592016,0.0771391609392,1.90987795595,0.153699104751,-0.00823353538993,-0.0777966134996,0.000224359677971,-0.122515012994,-0.00511460047551,0.0412438058885,-0.0169922696895,0.574035261071,0.818815871341,0.00219881540425,0.0,0.818773256819,-0.573972917395,-0.01209094361,0.0,-0.00863836235018,0.00874112751521,-0.999924482841,0.0,0.656657663263,0.254448523525,0.303389796428,1.0,-0.01424,-0.0187154285714,0.713
0.461240554171,0.519264432431,-0.123981102507,-1.40068715757,0.0770130832955,1.91061179862,0.153415305318,-0.0106468691327,-0.0829925907128,-0.000868397113843,-0.119902264376,-0.00967222404852,0.0393836966509,-0.0205439165098,0.574020625707,0.818826124314,0.00220143262248,0.0,0.8187834921,-0.573958220246,-0.0120955106649,0.0,-0.00864075613065,0.00874573767289,-0.999924421847,0.0,0.656403304935,0.254136673772,0.303406493436,1.0,-0.01458,-0.0191622857143,0.73
0.461072271572,0.517995139975,-0.123984644353,-1.4026517282,0.076885233276,1.91133412694,0.153143664998,-0.0099449228246,-0.0829782739569,-0.00105297546422,-0.126376847006,-0.00811914023889,0.0489203925279,-0.02461349764,0.574008172414,0.818834806254,0.00221922746624,0.0,0.818792465555,-0.573945752717,-0.0120796601567,0.0,-0.00861769592283,0.00875107886403,-0.999924574123,0.0,0.656166684899,0.253836038245,0.303424967533,1.0,-0.0149,-0.0195828571429,0.746
0.460907310425,0.51672453056,-0.123988528501,-1.40466097111,0.076756813127,1.91205825165,0.152875087117,-0.0075492768842,-0.077347359236,0.000324973064537,-0.123753561724,-0.00133287855786,0.0533821213302,-0.0198361858332,0.573997642675,0.818842232456,0.00220260117838,0.0,0.818799681627,-0.573935302135,-0.0120870687672,0.0,-0.00863341802041,0.00874160642583,-0.999924521357,0.0,0.655918453552,0.253532188536,0.303422936981,1.0,-0.01522,-0.0200034285714,0.762
0.460708338317,0.515274604869,-0.123991726262,-1.40695938845,0.0766083902142,1.91293567777,0.152550813964,-0.0153441537905,-0.0810275918432,0.000628296534983,-0.13124027516,-0.00550687330149,0.04691324631,-0.0181092269342,0.573978726423,0.818855445824,0.00221976539547,0.0,0.818813210398,-0.573916408033,-0.0120677242892,0.0,-0.00860792769977,0.00874435860416,-0.999924717053,0.0,0.655645763327,0.253181650741,0.30342190273,1.0,-0.01558,-0.0204765714286,0.78
0.460516440997,0.513885073489,-0.123992791068,-1.40921033936,0.0764671966787,1.91372874137,0.152248934544,-0.0149256099779,-0.080810308031,0.00116027235277,-0.132631785636,-0.0034131802174,0.0437565311147,-0.0213056564555,0.57396953793,0.818862048669,0.00215909226858,0.0,0.818818945338,-0.573907403355,-0.0121067762139,0.0,-0.00867482755317,0.00871699423273,-0.99992437783,0.0,0.655362311445,0.252837416388,0.303393319576,1.0,-0.01592,-0.0209234285714,0.797
0.460327780847,0.51248313122,-0.123998365738,-1.41148452064,0.0763308871906,1.91452672225,0.151921199216,-0.0127348150528,-0.084505153931,0.000144740378246,-0.134205240452,-0.00405607134536,0.0515000548079,-0.0187325528984,0.573941949274,0.818881549059,0.00209627637983,0.0,0.818837501996,-0.573879968856,-0.0121521015682,0.0,-0.00874828916456,0.00869127791019,-0.999923961672,0.0,0.655073693849,0.252491262868,0.303362526815,1.0,-0.01626,-0.0213702857143,0.814
0.460128354715,0.511030286752,-0.123998813769,-1.41379458405,0.0761915080508,1.91539579423,0.151599683206,-0.00970903992882,-0.0848480374851,-0.000187105494624,-0.135092555001,-0.0107329035523,0.0467216077415,-0.0172632307862,0.573925629893,0.818892963065,0.00210553935794,0.0,0.818849000748,-0.573863574752,-0.0121514792139,0.0,-0.00874263679917,0.00869833163106,-0.999923949772,0.0,0.654792909392,0.252141791369,0.303355820595,1.0,-0.0166,-0.0218171428571,0.831
0.45993485837,0.5096433482,-0.124003483855,-1.41601104773,0.0760473836381,1.91622543078,0.15128857828,-0.0100791148802,-0.0927719292487,-0.000326034920228,-0.1418912219,-0.00470889929228,0.0529506057397,-0.0203408406312,0.573909307962,0.818904420989,0.002098194291,0.0,0.818860431124,-0.573847355252,-0.0121471853335,0.0,-0.00874350886711,0.00868967831338,-0.999924017385,0.0,0.654523660707,0.251800633738,0.303343771618,1.0,-0.01692,-0.0222377142857,0.847
0.459729461484,0.508146737291,-0.124007796794,-1.41839179615,0.0759027586069,1.91707264516,0.15095430449,-0.0144962828316,-0.0909056506293,-0.00101192079042,-0.140435205488,-0.013566898169,0.0514898590354,-0.0202045235875,0.573891335367,0.818917096092,0.00206683838672,0.0,0.818872601936,-0.573829429872,-0.0121735003917,0.0,-0.00878324400161,0.00867891081931,-0.99992376266,0.0,0.654223577158,0.251435070066,0.303331325887,1.0,-0.01726,-0.0226845714286,0.864
0.459504764547,0.506607748032,-0.124005607143,-1.4208132046,0.0757524680173,1.91795504094,0.150633242937,-0.0138468451451,-0.0947616176784,0.000972477890023,-0.143536885409,-0.00928224943367,0.0539344154456,-0.0176549949867,0.573895567429,0.818914132384,0.00206600274889,0.0,0.81886956951,-0.573833608005,-0.0121805318643,0.0,-0.00878943709596,0.00868230718874,-0.999923678756,0.0,0.653924603429,0.251057955715,0.30333146318,1.0,-0.0176,-0.0231314285714,0.881
0.459305318001,0.505101071935,-0.124017179606,-1.42312490471,0.0756079061179,1.91885191253,0.150305933887,-0.0120589831126,-0.095727173077,0.000315432797405,-0.141009046607,-0.00660429556063,0.054747621375,-0.025159453275,0.573879625822,0.818925118148,0.00213841860079,0.0,0.818881621738,-0.573817469024,-0.0121304873894,0.0,-0.00870706650732,0.00871271900266,-0.999924134882,0.0,0.653649478465,0.250703810142,0.303362329076,1.0,-0.01792,-0.023552,0.897
0.459081782514,0.503440251038,-0.124022882656,-1.42559651177,0.0754547036122,1.91978351673,0.149969379675,-0.00625038660857,-0.0940842044925,-0.00040863160299,-0.143072595733,-0.00784166570711,0.0539688581562,-0.0146496402246,0.573876868949,0.81892677891,0.00223985956496,0.0,0.818884663908,-0.573814334358,-0.012073268096,0.0,-0.00860202464312,0.00876292465344,-0.99992460532,0.0,0.653351154303,0.250321484111,0.303426953331,1.0,-0.01826,-0.0239988571429,0.914
0.458832546675,0.501647027345,-0.124024369421,-1.42827497044,0.0752830779997,1.92076050197,0.149594377786,-0.0170641598599,-0.100065284781,0.000702200931115,-0.151362963785,-0.00418704643796,0.053847858723,-0.0178610543239,0.573865501228,0.818934533255,0.00231595437072,0.0,0.818893442091,-0.573802681131,-0.0120316469955,0.0,-0.00852439451026,0.00880123643111,-0.99992493365,0.0,0.653020946296,0.249902312918,0.303488686713,1.0,-0.01862,-0.024472,0.932
0.458614119423,0.50002870986,-0.124024774323,-1.43071346895,0.0751210992672,1.92161817074,0.149260038833,-0.0147653548687,-0.0988641414768,0.000645694304429,-0.149653127446,-0.00669256977677,0.0589102510419,-0.0242255649289,0.573851017711,0.818944602023,0.00234418240414,0.0,0.81890389394,-0.573788098423,-0.0120157188136,0.0,-0.00849530765878,0.00881506228583,-0.999925059404,0.0,0.652710459786,0.249523695213,0.303531522505,1.0,-0.01894,-0.0248925714286,0.948
0.45836524798,0.498355569173,-0.124028283303,-1.43333103669,0.0749584709997,1.92260385974,0.148877928265,-0.0151319876705,-0.088234724587,0.000636601153304,-0.149693365264,-0.0124362894145,0.0647539474412,-0.0295971510307,0.573833763644,0.818956598824,0.00237651965841,0.0,0.818916324397,-0.57377072676,-0.0119980686015,0.0,-0.00846248297179,0.00883123763427,-0.999925195014,0.0,0.652391036283,0.24911143586,0.303538088089,1.0,-0.01928,-0.0253394285714,0.965
0.458118955017,0.496770537883,-0.124025476352,-1.43584934684,0.0748079547864,1.92349775062,0.148496508521,-0.0192100914579,-0.0960339213351,0.000393706175791,-0.159942249926,-0.00396165226054,0.0577359053149,-0.0214757877864,0.573810960311,0.818972662047,0.00234681639571,0.0,0.818931835097,-0.573747876386,-0.0120320700298,0.0,-0.00850761929694,0.00882618624732,-0.999924856602,0.0,0.652052936789,0.248682866607,0.303520539182,1.0,-0.01962,-0.0257862857143,0.982
0.457852995316,0.49510419225,-0.124030770277,-1.43856747455,0.0746393276187,1.92444308655,0.148105073092,-0.0159140063299,-0.0933743973144,-0.000567548453194,-0.161668622011,-0.00717300707567,0.0588160163617,-0.0223051222865,0.573800425804,0.81898029957,0.00225547427193,0.0,0.818938130279,-0.573737571667,-0.0120948143044,0.0,-0.00861153010921,0.00878727266328,-0.99992430983,0.0,0.651721558186,0.248271348267,0.303471170355,1.0,-0.01994,-0.0262068571429,0.998
0.457530693993,0.493037200579,-0.124085604477,-1.44170935418,0.0744492540659,1.92557535079,0.147659668358,-0.0145287576708,-0.1574728683,-0.00348027510159,-0.223242721971,-0.0080104137457,0.0795430168952,-0.0267377683664,0.57384552486,0.818948586404,0.00229637246494,0.0,0.818907085199,-0.573782629688,-0.0120592943653,0.0,-0.00855848821921,0.00880085723005,-0.999924645757,0.0,0.651341982303,0.24773017646,0.303514609607,1.0,-0.034092,-0.0448066285714,1.015
0.457152852411,0.489641014687,-0.124161734503,-1.44691795086,0.0741808391232,1.92760897793,0.146873111698,-0.0266664158758,-0.225058475262,-0.00691791608679,-0.356620459539,-0.0194844362672,0.135929102579,-0.0554606737143,0.573755328328,0.819011204431,0.00249341767172,0.0,0.818972248559,-0.573691614855,-0.0119638638179,0.0,-0.00836824681924,0.00890654196866,-0.999925320189,0.0,0.650694987536,0.246961160142,0.303576546991,1.0,-0.051228,-0.0673282285714,1.032
0.456581533332,0.485483805386,-0.124207470193,-1.45345497106,0.0738452991514,1.93013777315,0.145873521575,-0.0414564853855,-0.301852928598,-0.00571130139959,-0.471432149058,-0.0277708873311,0.188958186073,-0.0668542698165,0.573673531351,0.819068033869,0.00264238949493,0.0,0.819030676529,-0.573608874777,-0.0119313277838,0.0,-0.00825703009785,0.00900905845143,-0.999925326372,0.0,0.649881719794,0.245959817708,0.303574170294,1.0,-0.066348,-0.0872002285714,1.047
0.455605845526,0.479041215375,-0.124394530859,-1.46379415153,0.0732200856175,1.93372241116,0.144293221584,-0.0578455086305,-0.391584678565,-0.0124208538203,-0.627599078805,-0.0403918010682,0.206521417736,-0.0922014310381,0.573651045957,0.819084666019,0.00235250201838,0.0,0.819043492072,-0.573587522428,-0.0120772145116,0.0,-0.00854305989084,0.00885507869279,-0.999924298989,0.0,0.648541834225,0.244219611941,0.303438031435,1.0,-0.084492,-0.111046628571,1.065
0.454320688508,0.470906577752,-0.124569864709,-1.47662612787,0.0724573913379,1.93814215273,0.142445592348,-0.073773109648,-0.465931123235,-0.0075493065937,-0.732074993594,-0.0398564374837,0.256472401582,-0.101317394922,0.573729416511,0.819030425679,0.00211313599925,0.0,0.818985656852,-0.573666452634,-0.0122491589035,0.0,-0.00882036841776,0.00875849949309,-0.999922741909,0.0,0.646855231915,0.242050215674,0.303346917709,1.0,-0.102636,-0.134893028571,1.083
0.4529638787,0.462328371783,-0.124699382676,-1.48967067772,0.0716751517278,1.94300990803,0.140317826683,-0.0928821839432,-0.552113109136,-0.00677476319556,-0.844324707761,-0.0542667974494,0.306265856256,-0.136228025935,0.573598979471,0.819120833636,0.00245307030097,0.0,0.819080612417,-0.573534667666,-0.0120698901913,0.0,-0.0084799409207,0.00893271100283,-0.999924145761,0.0,0.645196080724,0.239872094875,0.303481117983,1.0,-0.118764,-0.156089828571,1.099
0.45120964009,0.452035699055,-0.124873002477,-1.50563940581,0.0706580151725,1.94856576353,0.137827387623,-0.109941829958,-0.647974154557,-0.00684732259728,-0.972957115429,-0.0644454500544,0.342601646709,-0.160724758547,0.57358391573,0.819131737454,0.00233135414021,0.0,0.819089723562,-0.573519908213,-0.0121526351123,0.0,-0.00861769701906,0.00888031522599,-0.999923434719,0.0,0.643066154306,0.237104828688,0.303444693493,1.0,-0.1359,-0.178611428571,1.116
0.449159917045,0.440349913631,-0.125043324269,-1.52350040179,0.069441387977,1.95491682846,0.135078782324,-0.125384409254,-0.697103316304,-0.00837189240836,-1.10416265114,-0.0669003727404,0.375163198166,-0.171745003762,0.57360609691,0.819115940506,0.00242249847614,0.0,0.819075693095,-0.573542302231,-0.012040906666,0.0,-0.00847365637927,0.0088911182759,-0.999924569737,0.0,0.640681524345,0.233975286738,0.303502956867,1.0,-0.153036,-0.201133028571,1.133
0.446907854071,0.42811996262,-0.125202778334,-1.54199943986,0.0682157931285,1.96130136108,0.132055058007,-0.141081758777,-0.783118018966,-0.0105480079228,-1.18304529588,-0.083049921261,0.408124719249,-0.187873091038,0.57356184605,0.819146679085,0.00250475566645,0.0,0.819107300816,-0.573497505672,-0.0120244600211,0.0,-0.00841348735272,0.008948607429,-0.999924564983,0.0,0.638140709115,0.230667438485,0.303597066475,1.0,-0.169164,-0.222329828571,1.149
0.444157493207,0.413979102651,-0.125406785546,-1.56313975816,0.066696469915,1.96868161388,0.128531058673,-0.168544651171,-0.864742991488,-0.0128078922392,-1.26844206461,-0.0978667601978,0.470283840192,-0.20503980585,0.573547403751,0.819156014206,0.0027471696285,0.0,0.819120712847,-0.573483133539,-0.0117940761107,0.0,-0.00808588860955,0.00901489884206,-0.999926672314,0.0,0.635233816874,0.226767042322,0.303778376177,1.0,-0.1863,-0.244851428571,1.166
0.441034791638,0.398756905985,-0.125584781485,-1.58588041324,0.0651720996892,1.97650342942,0.124669618252,-0.194888350808,-0.939194551092,-0.0109784058077,-1.34695242855,-0.0874065262946,0.472925029924,-0.234832652631,0.573574354033,0.819136240574,0.0030044425301,0.0,0.819103833838,-0.573508656894,-0.0117250484491,0.0,-0.00788149005006,0.00918631435014,-0.999926744188,0.0,0.632015857065,0.222523042085,0.303914627685,1.0,-0.203436,-0.267373028571,1.183
0.437761962163,0.383525280279,-0.125772460872,-1.60867282341,0.0635116743978,1.98422986452,0.120660160375,-0.206529152795,-0.963292821563,-0.0082964319361,-1.43719143775,-0.100350414569,0.476133410932,-0.261337379816,0.573527820272,0.819168515145,0.00308708123562,0.0,0.819137399666,-0.573462106098,-0.0116567679523,0.0,-0.00777868295151,0.00921440181678,-0.999927290802,0.0,0.628712233769,0.218171358522,0.303967024113,1.0,-0.219564,-0.288569828571,1.199
0.43362022783,0.365177491084,-0.125997635262,-1.63576879812,0.0614652541143,1.99323751473,0.115793497812,-0.241075299205,-1.00249639005,-0.010404284821,-1.53149830245,-0.114613064486,0.502090140729,-0.276943696876,0.57351849353,0.819174501876,0.00322799588676,0.0,0.819145601523,-0.573452794234,-0.0115379024137,0.0,-0.00760059853643,0.00926157735721,-0.999928224468,0.0,0.624689190379,0.212857315327,0.304096000592,1.0,-0.237708,-0.312416228571,1.217
0.429193200837,0.346858082153,-0.1262449255,-1.66280960813,0.0593987830442,2.0020136539,0.1107371684,-0.272642772402,-1.07932535918,-0.0188511092835,-1.55663467666,-0.116687533692,0.50675982667,-0.308568765024,0.573535751991,0.819162487678,0.00321043132738,0.0,0.819133325669,-0.573470063613,-0.0115510960287,0.0,-0.00762128503409,0.00925491602298,-0.999928128689,0.0,0.620563399761,0.207386064186,0.304127390937,1.0,-0.254844,-0.334937828571,1.234
0.424632231589,0.328745041375,-0.126471728229,-1.68928100908,0.0573736132505,2.01060885531,0.105653788532,-0.287730557918,-1.14090310179,-0.015227609924,-1.66325572628,-0.128873268775,0.529486626408,-0.326952039732,0.573559523467,0.819145200215,0.00337059430917,0.0,0.81911790854,-0.573493089733,-0.0115010798995,0.0,-0.00748818602317,0.00935764823133,-0.999928178166,0.0,0.616441318951,0.201948540844,0.3041905614,1.0,-0.270972,-0.356134628571,1.25
0.419390607908,0.308625913105,-0.126676193361,-1.71845592502,0.0549505283785,2.01986420291,0.0998226321374,-0.324788650178,-1.19755243689,-0.0112024299332,-1.70443331648,-0.123542931629,0.557585906549,-0.349931439566,0.573402918261,0.819254570976,0.00343338994162,0.0,0.819228524152,-0.57333686598,-0.0114109695287,0.0,-0.00738014200746,0.00935599433455,-0.999928996916,0.0,0.611748179734,0.195872404949,0.304241109306,1.0,-0.288108,-0.378656228571,1.267
0.413541887206,0.287535429531,-0.126929222836,-1.74880664661,0.0523959087118,2.02918953449,0.0935236464571,-0.358181434798,-1.25391908065,-0.018639326062,-1.79386813278,-0.135295046172,0.573158619599,-0.379793163387,0.573314070117,0.819316883042,0.00340133350173,0.0,0.819290410353,-0.573248107323,-0.0114270668156,0.0,-0.00741272349134,0.00933815789442,-0.999928922643,0.0,0.606723963363,0.189340499645,0.304256780511,1.0,-0.305244,-0.401177828571,1.284
0.407506078147,0.266915718301,-0.12722171899,-1.77814516576,0.0499144526719,2.038045846,0.0871935467563,-0.393798293611,-1.32921258833,-0.026111453854,-1.84592957539,-0.160375384558,0.560385706974,-0.406695169168,0.573300900637,0.819325853012,0.00345988668133,0.0,0.819299851835,-0.573234409043,-0.0114373062699,0.0,-0.00738769685465,0.00939188345361,-0.999928604682,0.0,0.601754746619,0.182839547278,0.304292028078,1.0,-0.321372,-0.422374628571,1.3
0.40037200162,0.244278976644,-0.127617150511,-1.81004020441,0.0470396185954,2.04742957033,0.0800728140676,-0.437121202051,-1.3540706084,-0.0194876910182,-1.892434682,-0.176399309729,0.559646038331,-0.423336671814,0.573468585836,0.819208563401,0.0034434882713,0.0,0.819182755793,-0.573402634094,-0.0113920466417,0.0,-0.00735809858451,0.00935400718264,-0.99992917796,0.0,0.596242069297,0.175447292504,0.304315972394,1.0,-0.338508,-0.444896228571,1.317
0.392256316425,0.219403497631,-0.127939389704,-1.8445241051,0.0439173237928,2.05732532943,0.0718495055949,-0.473137080144,-1.3993883933,-0.0151259063326,-1.92583865515,-0.182953608524,0.530081283406,-0.472104598436,0.573357618823,0.81928546761,0.00362082899065,0.0,0.819261633309,-0.573290781471,-0.0113491395974,0.0,-0.00722253631664,0.00947370432626,-0.99992903943,0.0,0.590067091312,0.167396854397,0.304405122642,1.0,-0.356652,-0.468742628571,1.335
0.384877257493,0.198045129964,-0.128259410146,-1.87377328597,0.04107967644,2.0654067207,0.0645635165921,-0.511776805124,-1.44021583034,-0.0260312061669,-1.93016358237,-0.181260041491,0.51404139521,-0.500952850725,0.573292242767,0.819330994043,0.00367062457922,0.0,0.819308138402,-0.573225725674,-0.0112777956983,0.0,-0.00713628851768,0.00947302776526,-0.999929665092,0.0,0.584683267171,0.160326037906,0.304475268461,1.0,-0.371772,-0.488614628571,1.35
0.375156373176,0.171541214122,-0.128792795307,-1.90966684667,0.0376088433168,2.07505383587,0.0551637099819,-0.559084356436,-1.47161631987,-0.0358256291706,-2.01157258484,-0.184670991482,0.53987941349,-0.524777090959,0.573390181064,0.819261819942,0.00381018987424,0.0,0.819240561322,-0.573323023116,-0.0112410298152,0.0,-0.00702501222036,0.00956714240955,-0.999929557014,0.0,0.577917178087,0.151333125179,0.304538187698,1.0,-0.389916,-0.512461028571,1.368
0.365231025982,0.145850460332,-0.129243689484,-1.94407506599,0.0340159709796,2.08382873299,0.0456798535706,-0.592398425542,-1.53802663188,-0.0243909647061,-2.05452908045,-0.222908135415,0.517533430656,-0.559944197509,0.573323032522,0.819309191484,0.00372773801602,0.0,0.81928707264,-0.573256365321,-0.0112507388664,0.0,-0.0070810205499,0.0095045782843,-0.999929758603,0.0,0.571180287247,0.142525882873,0.304533490379,1.0,-0.407052,-0.534982628571,1.385
0.35503250766,0.121049115737,-0.129733948669,-1.97668290556,0.0305372768664,2.09183027727,0.0360883680918,-0.657125468051,-1.578766083,-0.0402493493912,-2.03156130243,-0.22678537046,0.492174798594,-0.610461510005,0.573327797483,0.819305560886,0.00379228627658,0.0,0.819284365348,-0.573261092278,-0.0112069477932,0.0,-0.00700807940162,0.00953239907833,-0.999930007646,0.0,0.564634779952,0.133856356773,0.304588008933,1.0,-0.42318,-0.556179428571,1.401
0.343224090142,0.0939473742609,-0.130387625478,-2.0117734335,0.0265809479912,2.10001851969,0.0251972882776,-0.71030741884,-1.62242565468,-0.0354140415038,-2.07309483015,-0.24400973323,0.485693400993,-0.670606080589,0.573445526419,0.819223082526,0.00381001163009,0.0,0.819202695815,-0.573379556201,-0.0111164113683,0.0,-0.00692237128729,0.00949601099508,-0.999930950892,0.0,0.557387696771,0.124165722364,0.304642249232,1.0,-0.43998,-0.578259428571,1.418
0.33072378,0.0666797116248,-0.130879270616,-2.04678989363,0.0226969741148,2.1076663039,0.0136420490959,-0.749658587029,-1.62025676475,-0.0280300778948,-2.07168718351,-0.234175661074,0.444028303229,-0.679047780261,0.573358961141,0.819284016427,0.00373483704089,0.0,0.819261183392,-0.573291191422,-0.0113609034161,0.0,-0.00716679538707,0.0095738671208,-0.999928486499,0.0,0.54984681111,0.114427372162,0.304556520132,1.0,-0.43998,-0.578259428571,1.435
0.318084536987,0.0412157777588,-0.131495722169,-2.07883908342,0.0187688189362,2.11403076502,0.00247388051064,-0.797319398736,-1.58663491699,-0.0342750453685,-1.99806031298,-0.250556464824,0.394145265673,-0.701810053725,0.573641288964,0.819087625021,0.00344688765086,0.0,0.819060794611,-0.573573951941,-0.0115361729878,0.0,-0.00747223542628,0.00944101744951,-0.999927513817,0.0,0.542744926103,0.10493866004,0.304505580424,1.0,-0.43998,-0.578259428571,1.451
0.303368979184,0.0128198283544,-0.131976165154,-2.11337401879,0.0144971341724,2.12070638219,-0.0105802763437,-0.839215414629,-1.57763867918,-0.0257537624397,-1.87500721806,-0.244192823149,0.37971102519,-0.735305995491,0.573718139867,0.819032178958,0.00381218050112,0.0,0.819010527673,-0.573650362465,-0.011303278543,0.0,-0.00707102626733,0.00960729687411,-0.999928847686,0.0,0.53489955908,0.0945063002791,0.304729490579,1.0,-0.43998,-0.578259428571,1.469
0.288874075731,-0.0135554068213,-0.132491410519,-2.14498936097,0.010446607846,2.1264128471,-0.0233953751205,-0.842994933283,-1.56281792287,-0.0133468508006,-1.86563904385,-0.243263826211,0.337410145806,-0.768423846909,0.573807021209,0.818968404109,0.00412339463018,0.0,0.818951263442,-0.573739191618,-0.0110867042156,0.0,-0.00671403662248,0.00973867546273,-0.999930037509,0.0,0.527491889814,0.0846266506225,0.304882909322,1.0,-0.43998,-0.578259428571,1.486
0.275677836627,-0.0364845690303,-0.132853207904,-2.17205853846,0.00678931644065,2.13076743683,-0.0350500036463,-0.887991103897,-1.53521158089,-0.0321554932614,-1.81586379904,-0.255322843667,0.284105290282,-0.78597370041,0.573743207322,0.819012553229,0.00423280137607,0.0,0.818997372462,-0.573675975735,-0.0109510577345,0.0,-0.00654092322924,0.00974993590981,-0.999931075161,0.0,0.5204755267,0.075404817792,0.304995773821,1.0,-0.43998,-0.578259428571,1.502
0.259112296507,-0.0635638359224,-0.133404522024,-2.20364520696,0.00252308230825,2.13533573572,-0.0495817955611,-0.925510903652,-1.47365057955,-0.0314178891367,-1.74240545982,-0.242966994951,0.237137874142,-0.815044291409,0.573839112775,0.818945188461,0.00426589364094,0.0,0.818929746927,-0.573770778618,-0.0110412908401,0.0,-0.00659469386031,0.00982958098925,-0.999929942221,0.0,0.512984627357,0.0655375531636,0.30500103569,1.0,-0.43998,-0.578259428571,1.519
0.242859245139,-0.0887156284485,-0.133966198217,-2.23255938267,-0.00153594105545,2.1390036489,-0.0639179950072,-0.978516280416,-1.46416461984,-0.0434440644058,-1.69685870431,-0.227642089711,0.209780258361,-0.851230724305,0.573861773394,0.818929630169,0.0042038992236,0.0,0.81891262311,-0.573792439915,-0.0111847444958,0.0,-0.00674748299076,0.00986131331264,-0.999928610438,0.0,0.505469687681,0.0556600275763,0.304958739491,1.0,-0.43998,-0.578259428571,1.536
0.227107859855,-0.111993708472,-0.134354560231,-2.25882018396,-0.0053947187415,2.14187089272,-0.077796195458,-1.00026448297,-1.42853460613,-0.028745965098,-1.67223494709,-0.247226506609,0.163426048527,-0.885494265147,0.573730530335,0.819022142394,0.00409337654733,0.0,0.819003318127,-0.573660917955,-0.0112899517025,0.0,-0.0068986431035,0.00983006821162,-0.999927886641,0.0,0.498404293758,0.04650055686,0.304922906209,1.0,-0.43998,-0.578259428571,1.552
0.209629189616,-0.136308100172,-0.134910761443,-2.28586073304,-0.00944025450891,2.14438631145,-0.0931397355267,-1.02947302052,-1.40105385932,-0.026999738462,-1.58783295442,-0.234841693641,0.126227707887,-0.923503554724,0.573775051964,0.818991606434,0.00396045897867,0.0,0.818970092953,-0.573704429121,-0.0114874608227,0.0,-0.00713613852843,0.0098349052408,-0.999926172358,0.0,0.490898868759,0.0366531180801,0.304835463095,1.0,-0.43998,-0.578259428571,1.569
0.190469134937,-0.161630643258,-0.135527628102,-2.31352858314,-0.0137407151567,2.14645724687,-0.110113072066,-1.0865539617,-1.3618018017,-0.0408138042512,-1.53190131564,-0.231939535797,0.0967498334365,-0.952091758434,0.573698297818,0.819046225427,0.00378029048521,0.0,0.819021323303,-0.573626813046,-0.0117088954006,0.0,-0.00742179349086,0.00981370082045,-0.999924301264,0.0,0.482937539288,0.0262515600939,0.304719413447,1.0,-0.43998,-0.578259428571,1.587
0.172894206243,-0.183867669981,-0.13598937393,-2.3373149919,-0.0174706598247,2.14772062747,-0.1257329303,-1.11401890778,-1.37633276948,-0.028574506776,-1.48641346601,-0.246202840382,0.0595652276079,-0.98678152575,0.573549009223,0.819151367472,0.00364939567134,0.0,0.819123233648,-0.573476009005,-0.0119642005184,0.0,-0.00770779874952,0.00985154980954,-0.999921765342,0.0,0.475824588574,0.0171067317772,0.304631900089,1.0,-0.43998,-0.578259428571,1.603
0.153389506591,-0.207156702914,-0.136681443745,-2.36162653967,-0.0214163315524,2.14863792695,-0.143010536645,-1.16363173817,-1.36540676701,-0.0421956275269,-1.4237542173,-0.223842360386,0.0404712593472,-1.03648776562,0.573628751431,0.819095453454,0.00366613747013,0.0,0.819066521053,-0.573554378999,-0.0120894715389,0.0,-0.00779985214351,0.0099378702625,-0.999920197336,0.0,0.468316991289,0.00722783430143,0.304603659419,1.0,-0.43998,-0.578259428571,1.62
0.133236945009,-0.230002014418,-0.137407462861,-2.38495068077,-0.025421449314,2.14901708344,-0.160850671465,-1.19999331201,-1.32444425114,-0.0344160692109,-1.36724992575,-0.257681858233,0.00734925140902,-1.0647237954,0.573728766042,0.819025548644,0.00363326113337,0.0,0.818995804416,-0.573654020608,-0.0121525260677,0.0,-0.00786914597836,0.00994807094087,-0.999919552977,0.0,0.460822645686,-0.00264486705783,0.30459715899,1.0,-0.43998,-0.578259428571,1.637
0.113583335976,-0.251205732235,-0.138131731568,-2.40598322044,-0.0289416796447,2.14909879666,-0.178382353298,-1.24471901098,-1.30439477258,-0.0567168105717,-1.29676033392,-0.210203967324,-0.018708613917,-1.10818517977,0.573885488043,0.818914190424,0.00396764878912,0.0,0.818888766959,-0.573809385618,-0.0120300967141,0.0,-0.00757508864127,0.0101531564284,-0.999919762504,0.0,0.45383064284,-0.0119381680381,0.304694645714,1.0,-0.43998,-0.578259428571,1.653
0.0920680634862,-0.273245391381,-0.13882439742,-2.42745261237,-0.0328897957184,2.14887882926,-0.19771377818,-1.28533143313,-1.3137678374,-0.0538390321706,-1.25167553368,-0.238681537533,0.000170864893066,-1.1664487595,0.573803172472,0.818970855738,0.00417176395523,0.0,0.818950143867,-0.57372921274,-0.0116704417158,0.0,-0.00716442672649,0.0101131978824,-0.99992319416,0.0,0.446420620979,-0.021777358942,0.30479372659,1.0,-0.43998,-0.578259428571,1.67
0.0712221326422,-0.293363601003,-0.139530026006,-2.44680043386,-0.0363131662647,2.1479798948,-0.216560414878,-1.30738815152,-1.23649936286,-0.0405960594404,-1.17262488167,-0.213416273395,-0.0652284053208,-1.17823060868,0.573826555971,0.818953974241,0.00426832957064,0.0,0.818933292699,-0.573750546489,-0.011803364516,0.0,-0.00721759481709,0.0102687589041,-0.999921226355,0.0,0.43938077881,-0.0309947839159,0.304799091491,1.0,-0.43998,-0.578259428571,1.686
0.0469070790617,-0.315517263623,-0.140339507171,-2.46758344173,-0.0402480720079,2.14675757372,-0.238531875084,-1.36401190796,-1.21530802012,-0.0395903096722,-1.13859650966,-0.203096082231,-0.0924390424485,-1.22976701918,0.573879836075,0.81891572499,0.00444027147451,0.0,0.818898088002,-0.573804448036,-0.0116242755175,0.0,-0.00697158871506,0.010307265596,-0.999922575616,0.0,0.431497604556,-0.0414256823543,0.304869431778,1.0,-0.43998,-0.578259428571,1.704
0.021878353341,-0.336893255409,-0.141144841904,-2.4872385161,-0.0440745674471,2.14512432756,-0.261398691546,-1.39613605421,-1.17227202732,-0.0457234200175,-1.08486995521,-0.216503192421,-0.0938420704761,-1.29146915431,0.57381440909,0.818960810256,0.00457843717685,0.0,0.818945619396,-0.573739614221,-0.0114749487013,0.0,-0.00677083286603,0.0103341809431,-0.999923677351,0.0,0.423635011795,-0.0518045758503,0.30492830251,1.0,-0.43998,-0.578259428571,1.722
-0.00254791701466,-0.356403727377,-0.141923277656,-2.50480801876,-0.0475971177357,2.14312914256,-0.283826094762,-1.44639635813,-1.13109984739,-0.0420566224967,-1.00774607647,-0.207339095411,-0.111479599934,-1.34892609006,0.573763308766,0.818996252266,0.00464232580837,0.0,0.818981971695,-0.57368847412,-0.0114372899411,0.0,-0.00670397786083,0.010364478012,-0.999923814236,0.0,0.416181318038,-0.0616232246038,0.304977288819,1.0,-0.43998,-0.578259428571,1.739
-0.0247112811265,-0.372955010041,-0.142698924566,-2.51971524413,-0.0506540848266,2.14116214394,-0.30427275376,-1.48207635681,-1.09118155963,-0.0428070797931,-0.973783403811,-0.21084464975,-0.139696635071,-1.37745765389,0.573761461968,0.818997932463,0.00457365092454,0.0,0.818981562601,-0.573684994582,-0.0116393304044,0.0,-0.00690888564804,0.010424135707,-0.999921799289,0.0,0.409527328686,-0.0703072633411,0.304896272976,1.0,-0.43998,-0.578259428571,1.754
-0.0505274831523,-0.391103161035,-0.143546720395,-2.53553127781,-0.0539025024533,2.13877466074,-0.32811598551,-1.53198317315,-1.04628519235,-0.0479058288716,-0.920611589364,-0.198894816853,-0.142278670531,-1.42992528707,0.573863234976,0.818925745339,0.00472843152499,0.0,0.818911107133,-0.573785856059,-0.0116248398892,0.0,-0.00680690459436,0.0105434363139,-0.999921247899,0.0,0.402056923108,-0.0801376539373,0.30492692613,1.0,-0.43998,-0.578259428571,1.771
-0.0786138618338,-0.409353883924,-0.144455156073,-2.55131228081,-0.0573347040832,2.1358810577,-0.354277408538,-1.56830787497,-0.988413556158,-0.0346256706426,-0.844758720265,-0.199054916612,-0.180414852696,-1.46343180485,0.573854272328,0.818932462567,0.00465218079605,0.0,0.818915244203,-0.573774716751,-0.0118804094961,0.0,-0.00706008521493,0.0106275701327,-0.999918601662,0.0,0.394069489961,-0.0905336139548,0.304864884441,1.0,-0.43998,-0.578259428571,1.789
-0.102666173179,-0.423873706855,-0.145244371016,-2.56338408703,-0.0599847827645,2.13363118607,-0.376833522623,-1.62255213598,-0.933454991547,-0.0432446081722,-0.808025018529,-0.185871978672,-0.158797519751,-1.52285587584,0.573899939737,0.818898943906,0.0049117960488,0.0,0.818886253908,-0.573821317827,-0.0116251997348,0.0,-0.00670149952856,0.0106941095884,-0.999920359791,0.0,0.387540861166,-0.0992441327378,0.304962125877,1.0,-0.43998,-0.578259428571,1.804
-0.125559962706,-0.436669364834,-0.145962077389,-2.57417806528,-0.0623860281563,2.13120685793,-0.398316728624,-1.6592899708,-0.907434740314,-0.0538684206107,-0.756443560394,-0.177371558649,-0.184006733724,-1.54446343843,0.573847805267,0.818935762356,0.00486419841841,0.0,0.818920818268,-0.573766770789,-0.0118799430533,0.0,-0.00693812838258,0.0108008805473,-0.999917598282,0.0,0.379574041455,-0.109584323913,0.3049079092,1.0,-0.43998,-0.578259428571,1.822
-0.160678687836,-0.454736581705,-0.146880897319,-2.58870336947,-0.0658248260184,2.12780642025,-0.431591885588,-1.69895897948,-0.845681361001,-0.0333712443396,-0.683202090201,-0.158878778704,-0.175211593573,-1.58894045673,0.573878427629,0.818912975945,0.00508281731426,0.0,0.81890226375,-0.57379889638,-0.0116041302812,0.0,-0.00658638470469,0.0108218989997,-0.999919749799,0.0,0.37217696697,-0.119414325718,0.305014457408,1.0,-0.435276,-0.572077028572,1.839
-0.189381555961,-0.467633641451,-0.147346877778,-2.59928571319,-0.0682274614753,2.12499914062,-0.45890070505,-1.70269439425,-0.727429375707,-0.0257051366517,-0.592667520037,-0.136938371904,-0.171243269279,-1.59385066443,0.573726271058,0.8190199027,0.0050310814681,0.0,0.819006639184,-0.573643895099,-0.0118976253738,0.0,-0.006858474853,0.0109466801223,-0.999916562278,0.0,0.364850750141,-0.128938920599,0.304921254175,1.0,-0.41814,-0.549555428572,1.856
-0.219588052384,-0.47982018061,-0.147625568688,-2.60881738838,-0.070304021946,2.12239615901,-0.487456947667,-1.6627485127,-0.637465664958,-0.0141876288894,-0.50327529528,-0.0899885900966,-0.128409066147,-1.57335567844,0.573832816348,0.818943868809,0.00525219225787,0.0,0.8189344417,-0.573751243517,-0.0116892112981,0.0,-0.00655948237503,0.0110090661331,-0.999917883455,0.0,0.357479617713,-0.138741182425,0.305006952031,1.0,-0.399996,-0.525709028572,1.874
-0.245973436897,-0.48928169146,-0.147660089006,-2.61630593783,-0.071797260742,2.12015452553,-0.512471913398,-1.62829249534,-0.561662955565,0.000183015538852,-0.448622819349,-0.0803998426874,-0.125880349149,-1.54613494311,0.57386443189,0.818920923933,0.00537410984689,0.0,0.818912303603,-0.573781133582,-0.0117727080419,0.0,-0.00655748035872,0.0111570778951,-0.999916256026,0.0,0.351507572992,-0.146543664206,0.30499861735,1.0,-0.384876,-0.505837028572,1.889
-0.273433153444,-0.498029084801,-0.147509519763,-2.62308712091,-0.0730110674489,2.11804696787,-0.538523863541,-1.59982228576,-0.496810483698,0.00970548769765,-0.376378553785,-0.0608917251695,-0.108282209491,-1.52254514919,0.574013806122,0.818814612073,0.00561501014206,0.0,0.818808620275,-0.573928769335,-0.0117880445268,0.0,-0.00642973103793,0.0113643378115,-0.999914751559,0.0,0.344658117867,-0.155539094652,0.305013450757,1.0,-0.366732,-0.481990628572,1.907
-0.298448943356,-0.50494952279,-0.147242232021,-2.62847525211,-0.0740196658051,2.11629445726,-0.562309366363,-1.53974430418,-0.411425757818,0.0179845428601,-0.320351579521,-0.0461682213098,-0.099882089764,-1.47302892371,0.574071319439,0.818773700822,0.00570034565337,0.0,0.818768434088,-0.573985281595,-0.0118277113227,0.0,-0.00641242792604,0.0114574335204,-0.999913800277,0.0,0.338871876867,-0.163148002693,0.305003195647,1.0,-0.350604,-0.460793828572,1.923
-0.324333750869,-0.511217018699,-0.146883112472,-2.63317708374,-0.0747991512682,2.11476528242,-0.586924378782,-1.50159881635,-0.341232244343,0.0315524693891,-0.261389157852,-0.0361682041582,-0.0836769193697,-1.42589670063,0.574233227291,0.81865868533,0.00590800390922,0.0,0.81865711915,-0.57414826749,-0.0116204606289,0.0,-0.0061212386654,0.0115097056673,-0.999915024946,0.0,0.333029516595,-0.170939768844,0.305070681521,1.0,-0.333468,-0.438272228572,1.94
-0.346385951199,-0.515771683692,-0.146410709411,-2.63679868212,-0.0752830610489,2.11341526709,-0.60798736881,-1.44476603016,-0.278720108472,0.0299945293971,-0.225525211275,-0.0180506457654,-0.075209343403,-1.39094188424,0.574251968234,0.818644851963,0.00600251911724,0.0,0.818642821175,-0.574163488014,-0.0118729638439,0.0,-0.0062734341982,0.011732217922,-0.999911495626,0.0,0.327714319629,-0.177832196451,0.305004898055,1.0,-0.31734,-0.417075428572,1.956
-0.370394413273,-0.520014980821,-0.145690163931,-2.64017958351,-0.0757119974032,2.11220428717,-0.630924937204,-1.38141605887,-0.223739626993,0.0330906436872,-0.177876525587,-0.023618290222,-0.0563777565852,-1.33791515446,0.574261951211,0.8186377916,0.00601036245731,0.0,0.818635097498,-0.574172012162,-0.0119926850572,0.0,-0.00636680588542,0.0118074637077,-0.999910019744,0.0,0.322381153842,-0.184785209812,0.304952225058,1.0,-0.300204,-0.394553828572,1.973
-0.394608808591,-0.523488543425,-0.144787116443,-2.64286766051,-0.0759549534109,2.11117538827,-0.654128123023,-1.3205465819,-0.170134557693,0.0546671105279,-0.140659599042,-0.0140222143743,-0.0495737287673,-1.27022108078,0.574172862048,0.818700388429,0.00599544624451,0.0,0.818697182747,-0.57408241702,-0.0120436012923,0.0,-0.00641834435798,0.0118237916177,-0.999909497308,0.0,0.317392876989,-0.191332697301,0.304936296305,1.0,-0.283068,-0.372032228572,1.99
-0.415101494684,-0.525844191475,-0.143976803315,-2.64468857428,-0.0760001446142,2.11046599533,-0.673830593193,-1.24975066014,-0.130527712113,0.0552381018127,-0.111281161552,-0.00171071527766,-0.0412338092534,-1.22226093484,0.574115793884,0.818740029807,0.00604695847345,0.0,0.818737415041,-0.574024995134,-0.0120456246859,0.0,-0.00639125285751,0.0118666829992,-0.999909162735,0.0,0.312961472468,-0.197174590469,0.304932809202,1.0,-0.26694,-0.350835428572,2.006
-0.436974523765,-0.527750156709,-0.143015324453,-2.64621855367,-0.0760062432475,2.10985796791,-0.694819016694,-1.19789275581,-0.0897346162756,0.0418079032035,-0.0777628174503,-0.00255056989579,-0.0366715642972,-1.14127035325,0.574065169959,0.818775748958,0.00601668183727,0.0,0.818772522183,-0.573974108635,-0.0120841398048,0.0,-0.00644090503208,0.0118636059451,-0.999908880647,0.0,0.308257616971,-0.203366002993,0.304908407304,1.0,-0.248796,-0.326989028572,2.024
-0.455193532769,-0.528932631405,-0.142027802418,-2.64720850575,-0.075933569952,2.10944505333,-0.712341591912,-1.10941707256,-0.0621933980195,0.0695366509603,-0.0560509843424,0.00176961312478,-0.0214459890407,-1.08096525307,0.573909704773,0.818885440068,0.00591892836969,0.0,0.818880710621,-0.573818680211,-0.0121346987665,0.0,-0.0065406624022,0.0118113450611,-0.999908851778,0.0,0.304367385709,-0.208449850859,0.304881735352,1.0,-0.232668,-0.305792228572,2.04
-0.472563020649,-0.529693285162,-0.141124800825,-2.64783371363,-0.0757986187847,2.10911859167,-0.728862232867,-1.05973930145,-0.0381779660899,0.0654272087166,-0.0314436699754,0.0178221664405,-0.0125902657024,-1.01762429847,0.573987704016,0.818831204006,0.00585848833157,0.0,0.818825504214,-0.573896599115,-0.0121751416583,0.0,-0.00660734658544,0.0117856881796,-0.999908716096,0.0,0.300665858481,-0.213302816417,0.304871629103,1.0,-0.21654,-0.284595428572,2.056
-0.488744842021,-0.530116891862,-0.140217636769,-2.64818176181,-0.0755117770228,2.10892057949,-0.744309022445,-1.00056144498,-0.0206649007385,0.052206361818,-0.0103139107558,0.0201591072195,-0.0150264186933,-0.942268975241,0.574051193278,0.818786552488,0.00587842337714,0.0,0.818781177901,-0.57396010497,-0.0121625457683,0.0,-0.00658467519589,0.0117952934245,-0.99990875239,0.0,0.29724476493,-0.217791438622,0.304875528399,1.0,-0.200412,-0.263398628572,2.072
-0.506373857133,-0.530280195081,-0.138915375217,-2.64831868554,-0.0749986949744,2.10878839257,-0.761280748019,-0.90328522823,-0.00510787296009,0.0635059983747,-0.00587741906643,0.0289030474134,-0.00937354137294,-0.859196759118,0.573881489673,0.818905476917,0.00588239638826,0.0,0.81890047287,-0.573790991236,-0.0121103596588,0.0,-0.00654209975322,0.0117672349811,-0.999909362448,0.0,0.293584631468,-0.222581680544,0.304896557127,1.0,-0.18126,-0.238227428572,2.091
-0.519362968566,-0.530221466587,-0.13798710552,-2.6483008232,-0.0745917721642,2.10878347366,-0.773538871824,-0.841223433045,0.0131720198558,0.0702067396739,0.00335046478852,0.0259253292775,-0.000499375343094,-0.794597837366,0.573993173675,0.818827068437,0.00590046355658,0.0,0.818822746154,-0.573903382703,-0.0120401247926,0.0,-0.00647260871071,0.0117426092958,-0.999910104191,0.0,0.290710695016,-0.226328684824,0.304908673831,1.0,-0.165132,-0.217030628572,2.107
-0.533332902926,-0.529969826515,-0.136694917807,-2.64816616393,-0.0739689243187,2.10878965702,-0.786939614305,-0.755197206242,0.0121680905269,0.0690933381543,0.00743860661876,0.0334810108546,0.00030431005076,-0.720864507095,0.573828250108,0.818942518446,0.00591927022407,0.0,0.81893849421,-0.573738511506,-0.012025390496,0.0,-0.00645211451373,0.0117482532196,-0.999910170348,0.0,0.288014493849,-0.229807610215,0.304911849958,1.0,-0.147996,-0.194509028572,2.124
-0.545453018098,-0.529556340724,-0.135587349891,-2.64791994192,-0.0733748372103,2.10881963155,-0.7983028673,-0.680320184846,0.030208198145,0.0761528742218,0.0201402146782,0.0336174108046,0.00615792894176,-0.643073909822,0.573934496303,0.818867743872,0.00596312845444,0.0,0.818864070206,-0.573844150196,-0.0120529130579,0.0,-0.00644795948552,0.0118008014242,-0.999909578364,0.0,0.28552675226,-0.233012396167,0.30490460999,1.0,-0.13086,-0.171987428572,2.141
-0.556029138008,-0.529013890006,-0.134354764936,-2.64764190145,-0.0727320974535,2.10892681026,-0.808389953585,-0.60470105317,0.0352331577793,0.0704239799553,0.0155512743983,0.036345823919,0.01130407347,-0.573654866479,0.573755914059,0.818992894464,0.00596127507506,0.0,0.81898884465,-0.573664970112,-0.0121045985516,0.0,-0.00649393054464,0.0118275305093,-0.99990896505,0.0,0.283414171229,-0.235733873646,0.304874264687,1.0,-0.113724,-0.149465828572,2.158
-0.565615839749,-0.528453050785,-0.133291467703,-2.64731785337,-0.072120695727,2.10900606076,-0.81718147681,-0.538096518006,0.0337394557051,0.0640186308682,0.0165005572426,0.0380994793373,0.00481916076515,-0.490593176443,0.573936223921,0.818866251144,0.00600170887025,0.0,0.818862270218,-0.573844230307,-0.0121708117353,0.0,-0.0065223465473,0.0119000717934,-0.999907919404,0.0,0.281481680071,-0.238207385568,0.304851008346,1.0,-0.0965880000001,-0.126944228572,2.175
-0.57458651965,-0.527802435453,-0.132007800702,-2.6469242422,-0.0714119550934,2.10914462934,-0.82551833116,-0.429722278883,0.0384773229286,0.0709106492185,0.021338124821,0.0408087600414,0.00830769827011,-0.403877514495,0.573873845827,0.818909980499,0.00599998464714,0.0,0.818905817798,-0.573781582717,-0.0121944172388,0.0,-0.00654357528023,0.01191170879,-0.999907642143,0.0,0.279752911005,-0.240454635184,0.304836886494,1.0,-0.0774360000001,-0.101773028572,2.194
-0.579409476249,-0.527443902633,-0.131219162934,-2.64672899218,-0.0709466602559,2.10919110782,-0.829868866308,-0.386116043282,0.0262432505012,0.0609118374361,0.0179870723391,0.0422020034778,0.00314593095879,-0.350768745552,0.573913485758,0.818882033014,0.00602277117,0.0,0.818877736754,-0.573820326773,-0.0122569055065,0.0,-0.00658109788534,0.0119665469817,-0.999906741103,0.0,0.278833993938,-0.241618288181,0.304818586652,1.0,-0.0653400000001,-0.0858754285716,2.206
-0.585927908671,-0.5269903877,-0.129950662973,-2.64641838269,-0.070223646595,2.10928128407,-0.835512315078,-0.308753295974,0.0199832971611,0.0729529752445,0.0147076861479,0.0425363540538,0.00737555944271,-0.259841779978,0.574059587729,0.81877959448,0.00602596889493,0.0,0.818775517117,-0.573966705708,-0.0122319339855,0.0,-0.00655667866941,0.0119560049691,-0.999907027633,0.0,0.277649940998,-0.243144487274,0.30483358279,1.0,-0.0461880000001,-0.0607042285716,2.225
-0.590249327894,-0.526605631678,-0.128810780899,-2.64615521461,-0.0695104659097,2.10941254336,-0.839185169769,-0.22360926455,0.0239316692631,0.0666309658647,0.0145313565073,0.0435861236181,0.00906295763992,-0.186667426942,0.574103912051,0.818748223065,0.0060656653566,0.0,0.81874510188,-0.574011645711,-0.0121587679202,0.0,-0.00647333170732,0.0119468600431,-0.999907679994,0.0,0.276964534273,-0.244082067073,0.304852139352,1.0,-0.0290520000001,-0.0381826285716,2.242
-0.593154649344,-0.526349672486,-0.127726991898,-2.64600716076,-0.0688623973091,2.10943312916,-0.841523783802,-0.158508085745,0.0110863276509,0.0582737922514,0.0062414546533,0.0408227243728,-1.84015583848e-06,-0.13007977593,0.574086735131,0.818760150692,0.00608137212536,0.0,0.818756990316,-0.573993951541,-0.0121934943332,0.0,-0.00649300145111,0.0119795199328,-0.999907161708,0.0,0.276562655826,-0.24460530601,0.304854355981,1.0,-0.01984,-0.0260754285714,2.258
-0.595424456921,-0.526179260042,-0.126902419862,-2.64589034645,-0.0684150638582,2.10943439196,-0.843401387411,-0.122322059645,0.0126869049034,0.0488259386002,0.00864348678241,0.0236713211573,0.00141209693637,-0.10687679782,0.574022282495,0.818805520563,0.00605686353962,0.0,0.818801967899,-0.573929490208,-0.012207560577,0.0,-0.00651953091069,0.0119670139738,-0.999907138835,0.0,0.276237091331,-0.24502369696,0.304865409758,1.0,-0.0195,-0.0256285714286,2.275
-0.597037315442,-0.526016988297,-0.126342793781,-2.64572716299,-0.068222963475,2.10948985557,-0.844841633664,-0.10292558978,0.013918212818,0.0279163692984,0.0139320548094,0.0130643584233,0.00189473978876,-0.0836012662042,0.57385857551,0.818921149676,0.00593572467109,0.0,0.818916641244,-0.573767492498,-0.0121303811554,0.0,-0.00652822550967,0.0118222145755,-0.999908804599,0.0,0.276016902615,-0.245366155813,0.304898477352,1.0,-0.0192,-0.0252342857143,2.29
-0.598622212645,-0.525789561971,-0.125984316736,-2.64552976073,-0.0680442311997,2.10962225263,-0.846400224702,-0.0880980552988,0.0166703240246,0.0131339064986,0.00884677644149,0.00834903059891,0.00685221079796,-0.0918901038133,0.57371329585,0.819023216649,0.0058967495382,0.0,0.819019019753,-0.573623892598,-0.0120092474908,0.0,-0.00645346033477,0.0117196406245,-0.999910497431,0.0,0.275780382951,-0.245765227226,0.304924921258,1.0,-0.01886,-0.0247874285714,2.307
-0.60019112354,-0.525590630877,-0.125845720525,-2.64540082481,-0.0679316807564,2.10962450686,-0.847906390378,-0.0882865518349,0.00668715393072,0.00931558593338,0.00702485641332,0.00218922508231,-0.00052603323153,-0.0830954624916,0.573721708782,0.819017111765,0.00592607878669,0.0,0.819012915848,-0.573631490047,-0.0120625122649,0.0,-0.00648014331413,0.011774286907,-0.999909682877,0.0,0.275459250981,-0.246182997516,0.304914236677,1.0,-0.01852,-0.0243405714286,2.324
-0.601741907819,-0.525444738918,-0.125776027538,-2.64529867483,-0.0679062227965,2.10962883916,-0.849311852959,-0.0879067042801,0.00788026201087,0.00572619277798,0.00997932273016,0.00439395055751,7.93614931124e-05,-0.0873261907066,0.573807832076,0.818956834562,0.00591792812484,0.0,0.818952356441,-0.573717310857,-0.0120926425579,0.0,-0.00650825976524,0.0117855811023,-0.999909367209,0.0,0.275115559775,-0.246614717615,0.304909268062,1.0,-0.01818,-0.0238937142857,2.341
-0.603350460838,-0.525267395985,-0.125732099933,-2.64513738564,-0.0678584028493,2.10965256682,-0.850921054327,-0.086858206825,0.0110137656422,0.00434392778249,0.0094711472738,0.00283858786673,0.00213766897394,-0.0836613941872,0.57380506265,0.818958638262,0.00593681684858,0.0,0.8189545042,-0.573714639619,-0.0120739073343,0.0,-0.00648211677105,0.0117902790525,-0.999909481644,0.0,0.274770214795,-0.247081893747,0.304920705274,1.0,-0.0178,-0.0233942857143,2.36
-0.604646345308,-0.525127172685,-0.125738020815,-2.64499818854,-0.0678243955078,2.10969307549,-0.852147119246,-0.0852584688327,0.00849495363345,-0.000993708961599,0.0063824770896,0.00122841651533,0.00167051508497,-0.0786190814046,0.573888120919,0.818900227304,0.00596567595778,0.0,0.818896749198,-0.573798071248,-0.0120264078602,0.0,-0.00642545848211,0.0117873121992,-0.999909882317,0.0,0.274488332377,-0.247472886852,0.304935929705,1.0,-0.01748,-0.0229737142857,2.376
-0.606092843454,-0.52498785328,-0.125746416251,-2.64486472976,-0.0678040292717,2.10969820717,-0.853614008769,-0.0854681441359,0.00873017258816,0.00070231750243,0.00537856210345,-6.25735701456e-05,0.000559285023571,-0.0765536809595,0.573892984076,0.818896641871,0.00598996339565,0.0,0.818893503069,-0.57380287471,-0.0120182572436,0.0,-0.00640477559385,0.0118025628571,-0.999909835115,0.0,0.274159726372,-0.247900745751,0.304945782126,1.0,-0.01712,-0.0225005714286,2.394
-0.607423669816,-0.524910693168,-0.125743504573,-2.64476332581,-0.0677834910406,2.10970842318,-0.854873023539,-0.0768769181377,0.0075214234881,-0.000355030434326,0.00391771790186,0.00495165685451,0.000560184961806,-0.0782258892164,0.573963613968,0.818846996127,0.00600946555579,0.0,0.81884436572,-0.573873880091,-0.0119758665361,0.0,-0.00635784943159,0.0117947557344,-0.999910226714,0.0,0.273856118915,-0.248287699231,0.304964548235,1.0,-0.01678,-0.0220537142857,2.411
-0.608557216906,-0.52480347039,-0.125734737139,-2.64469082679,-0.0677633494761,2.1097296833,-0.856004985653,-0.0713905653139,0.00775563677098,0.00157312090428,0.00250851199955,0.000628263247807,0.00120591486098,-0.078690222291,0.573971213354,0.818841545805,0.00602627633108,0.0,0.818839075971,-0.573881300747,-0.0119819537774,0.0,-0.00635307656975,0.0118120745095,-0.999910052612,0.0,0.273596400781,-0.248612894528,0.30496023475,1.0,-0.01648,-0.0216594285714,2.426
-0.609779983559,-0.524640023887,-0.125704263814,-2.64459874471,-0.0677407035299,2.1097588961,-0.85726071633,-0.0713438662877,0.0115166158548,-0.000467194195694,0.00388071492781,0.000494256973811,0.000589975993772,-0.0735112009061,0.573937435251,0.818865171494,0.00603309479431,0.0,0.818862562058,-0.57384707714,-0.012015965156,0.0,-0.00637750434099,0.0118369155814,-0.999909603348,0.0,0.273323494201,-0.248962059084,0.304945403496,1.0,-0.01614,-0.0212125714286,2.443
-0.610944812892,-0.524468887399,-0.125628601234,-2.64450672656,-0.0677123593952,2.10978849157,-0.858447324045,-0.0669967494601,0.0131464385505,0.00328488022927,0.00146913560796,0.00345779968785,-0.000141145004791,-0.0739145736396,0.573883320505,0.818903183804,0.00602137057328,0.0,0.818900164247,-0.573792546556,-0.0120574215246,0.0,-0.00641896690498,0.0118506826151,-0.999909174968,0.0,0.273074333972,-0.249284258211,0.304928828413,1.0,-0.0158,-0.0207657142857,2.46
-0.611824830631,-0.524342795196,-0.125541884518,-2.64443947611,-0.0676995940959,2.10980588518,-0.859375933234,-0.0690295966673,0.00802240818718,0.00744191454258,0.0045702289311,-0.000192805049699,0.00208380086327,-0.0692401733752,0.573791406605,0.818967808336,0.00599145372704,0.0,0.818964194127,-0.573700402869,-0.0120931131762,0.0,-0.00646669548084,0.0118459385639,-0.999908923647,0.0,0.272889971414,-0.249520600173,0.304916715533,1.0,-0.01554,-0.020424,2.473
-0.613229050938,-0.524124226804,-0.125443223529,-2.64433803701,-0.0676728230208,2.1098380405,-0.860876487423,-0.0673039563864,0.0102372105376,0.00536194099997,0.00765766213308,-0.000313776759333,-0.000300604727976,-0.0734805142385,0.573659938097,0.819060061204,0.00596979601671,0.0,0.819055685388,-0.573568182416,-0.0121684532592,0.0,-0.00654273498843,0.011870378053,-0.999908139153,0.0,0.272586571691,-0.249904538411,0.304887774121,1.0,-0.01512,-0.019872,2.494
-0.6142186145,-0.523968540276,-0.125415606122,-2.64425413078,-0.0676473276692,2.10985473878,-0.861866670062,-0.0697124834319,0.00674586893521,0.000334424345297,0.00288459035356,0.0014543894793,4.32582458075e-05,-0.0722042780014,0.573655439483,0.819063140822,0.00597954849888,0.0,0.819058563244,-0.573563044989,-0.0122168040082,0.0,-0.00657681244108,0.0119060657034,-0.99990749129,0.0,0.272366221263,-0.250185840323,0.304870906646,1.0,-0.01482,-0.0194777142857,2.509
-0.61535511588,-0.523805572926,-0.125415249991,-2.64414639324,-0.0676244874041,2.1098739864,-0.863019712033,-0.0657718123116,0.00930106941614,0.00160391986883,0.00532136963507,0.000164884775845,0.000842132631957,-0.0738732358699,0.573657203648,0.819061756153,0.00599993434216,0.0,0.819057233662,-0.573564334118,-0.0122453875306,0.0,-0.00658850711908,0.011939174259,-0.999907019523,0.0,0.272108774697,-0.25051946786,0.304861760133,1.0,-0.01448,-0.0190308571429,2.526
-0.616621042713,-0.523665845918,-0.125425501055,-2.6440321332,-0.0676016304014,2.10990197233,-0.8642056243,-0.0646402599771,0.00371852900555,-0.000553437785403,0.0110647929372,0.00133076559141,0.000478536255998,-0.0590328579198,0.573745747358,0.818999553748,0.0060245540215,0.0,0.818995401804,-0.573652835996,-0.0122352964151,0.0,-0.00656482619717,0.011954261484,-0.99990699502,0.0,0.271819743311,-0.250893569361,0.304864589412,1.0,-0.0141,-0.0185314285714,2.545
-0.617594986103,-0.523587180012,-0.125423575158,-2.64393226591,-0.0675766227447,2.10991496296,-0.865096169424,-0.0647690840385,0.00172466830439,-0.000638215169061,0.011764216935,0.00377534879263,0.00378029861986,-0.0610953035884,0.573828389602,0.818941511622,0.00604373478492,0.0,0.818937861864,-0.573735833863,-0.0121950091703,0.0,-0.0065196175505,0.0119475157425,-0.999907371437,0.0,0.271601834402,-0.251180485316,0.304882285612,1.0,-0.0138,-0.0181371428571,2.56
-0.618721089753,-0.523523619862,-0.125419437293,-2.64380229312,-0.0675502541708,2.1099364097,-0.866262005475,-0.055205215876,0.00235593842088,5.05693776091e-05,0.0121557986041,0.00158325538456,0.00542304391745,-0.0584141363277,0.57381053218,0.818953889236,0.00606196062526,0.0,0.818951072909,-0.573718996895,-0.0120995736928,0.0,-0.00643125478624,0.0119075412349,-0.999908420518,0.0,0.271354797334,-0.251516762176,0.304919980222,1.0,-0.01344,-0.017664,2.578
-0.619626023788,-0.523432953484,-0.125385158144,-2.64367822026,-0.0675359655649,2.10997329709,-0.867180956771,-0.0588932542142,0.00834819126812,0.00320676542843,0.00952605948532,0.00136582847146,0.00523013786223,-0.0584389037692,0.573787108652,0.818970379232,0.00605134575196,0.0,0.818967917436,-0.573696538081,-0.0120241135049,0.0,-0.00637587944382,0.0118553676028,-0.999909395106,0.0,0.271168816791,-0.251787533888,0.304947072558,1.0,-0.01314,-0.0172697142857,2.593
-0.620595976364,-0.523286530748,-0.125323101622,-2.64353795873,-0.0675033814441,2.11001732676,-0.868168016973,-0.054614326644,0.0127793487312,0.00460621526535,0.0108619902288,0.00216813102077,0.00566190135896,-0.0624965919478,0.573750311949,0.81899623414,0.00604110116809,0.0,0.818993929209,-0.573660331865,-0.0119797522522,0.0,-0.00634595405887,0.0118212393697,-0.999909989532,0.0,0.270977322904,-0.252071782427,0.304962338733,1.0,-0.0128,-0.0168228571429,2.61
-0.621556817602,-0.52312876845,-0.125274469833,-2.64341098644,-0.0674842207068,2.1100386725,-0.869142757521,-0.0550615170286,0.0104517889086,0.00347164772011,0.00869842640924,-0.000160762712853,0.00037618107782,-0.054540123616,0.573719363068,0.819017999745,0.00602954683067,0.0,0.819015531342,-0.573629412687,-0.0119834562024,0.0,-0.0063560632956,0.0118136608107,-0.99991001489,0.0,0.270776772217,-0.252351230019,0.304965130659,1.0,-0.01246,-0.016376,2.627
-0.62244095532,-0.522990192226,-0.125249180337,-2.64333841639,-0.0674666049063,2.11004958572,-0.870059305967,-0.0553266594544,0.00859896261223,0.0037159099572,0.0071253091058,-0.000186983459086,-0.000162285949589,-0.0490598426692,0.573686483177,0.819040992093,0.00603483159661,0.0,0.819038269087,-0.573595917455,-0.0120326285951,0.0,-0.00639378439582,0.0118459424783,-0.999909392479,0.0,0.270576161368,-0.252600426767,0.30494878701,1.0,-0.01214,-0.0159554285714,2.643
-0.623341212048,-0.522853505453,-0.125227522157,-2.64330153411,-0.0674479119109,2.11006551844,-0.870942404645,-0.0520917995906,0.00188346614671,0.000780271934791,0.000304491066242,-0.000474029589338,0.0043509183281,-0.0507569343471,0.573695553994,0.819034553282,0.00604638389254,0.0,0.819031469129,-0.573603990932,-0.0121103701337,0.0,-0.00645070585716,0.0119000732987,-0.999908384128,0.0,0.270363007202,-0.252846302612,0.304917256127,1.0,-0.0118,-0.0155085714286,2.66
-0.62418572026,-0.522735132605,-0.125206808063,-2.64326513331,-0.0674313328971,2.11007584303,-0.871772937864,-0.0540623029479,0.00332462118961,0.000282880647762,0.00253511273064,1.35546698056e-07,-0.000624328582188,-0.0498703867026,0.57371348195,0.819021918749,0.00605674317636,0.0,0.819018471286,-0.573620951748,-0.0121858241235,0.0,-0.00650630753647,0.0119519862384,-0.999907404707,0.0,0.27014813532,-0.253091924527,0.304888829511,1.0,-0.01146,-0.0150617142857,2.677
-0.625223192999,-0.522600897698,-0.125198670055,-2.64321550185,-0.0674117570542,2.11008498993,-0.872835012471,-0.0513639392496,0.00917091999818,0.000950979613107,0.00129889710938,0.00465855333047,0.000918777443768,-0.0546788371316,0.573687077314,0.819040264639,0.0060769338029,0.0,0.819036673323,-0.573593713007,-0.0122444702902,0.0,-0.00654314913902,0.0120019570948,-0.999906565748,0.0,0.269913581106,-0.253364574435,0.304865981981,1.0,-0.01108,-0.0145622857143,2.696
-0.626040054249,-0.52248204342,-0.125188810242,-2.64312739406,-0.0673996110935,2.11009930952,-0.873607172266,-0.0506388122242,0.0126264386189,0.00113890768407,0.00827274617095,0.00010955233316,0.000623824773435,-0.0461261386237,0.573726565701,0.819012570542,0.00608144765587,0.0,0.81900896062,-0.573633029862,-0.0122562790637,0.0,-0.00654965347756,0.0120127443017,-0.999906393626,0.0,0.269730019554,-0.253603624636,0.304863843724,1.0,-0.01076,-0.0141417142857,2.712
-0.626708605717,-0.522387946895,-0.125179825143,-2.64302885278,-0.0673918188588,2.11011650732,-0.874267510902,-0.0432258786439,0.00630583975436,6.66662619254e-05,0.00887542256219,0.000572821797563,1.65499132823e-06,-0.0461003241211,0.573735292292,0.819006472441,0.00607942255945,0.0,0.819003003701,-0.573642071617,-0.0122311283694,0.0,-0.00653008647296,0.0119967263212,-0.999906713913,0.0,0.269586812448,-0.253806630836,0.304875755301,1.0,-0.01048,-0.0137737142857,2.726
-0.627694679035,-0.522254016578,-0.125168100481,-2.64288701766,-0.0673842277666,2.11015721652,-0.875256571265,-0.0522107848971,0.00949005483183,0.00026616524285,0.00132786645584,0.00313166283247,0.00425031523033,-0.0467903771676,0.573735015968,0.819006713679,0.0060729977568,0.0,0.819003516653,-0.573642478766,-0.0121775681261,0.0,-0.00648990551563,0.0119607340439,-0.999907406697,0.0,0.269376415213,-0.25410794882,0.304894779459,1.0,-0.01006,-0.0132217142857,2.747
-0.628437767413,-0.522149592587,-0.12514868587,-2.64277903307,-0.0673731400725,2.11020709564,-0.876007570966,-0.0461461139981,0.00593852902287,0.00432755513028,0.0043531432906,-0.00040420580456,0.00446153949113,-0.0472409928065,0.573725023094,0.819013768506,0.00606562235241,0.0,0.819010853629,-0.57363321916,-0.0121201656381,0.0,-0.0064472641878,0.0119216823806,-0.999908148919,0.0,0.269223634747,-0.254334848225,0.304910220706,1.0,-0.00974,-0.0128011428571,2.763
-0.629159435863,-0.522043550934,-0.125132593602,-2.64267969866,-0.0673641458259,2.11022398541,-0.876696028497,-0.0422374974367,0.00949284583347,-0.00299108073053,0.0105245227332,-5.37288709582e-05,0.000274935686114,-0.0421122225394,0.573749792032,0.818996448237,0.00606142065964,0.0,0.818993575298,-0.573658180129,-0.0121063161952,0.0,-0.00643797037141,0.0119104902906,-0.999908342179,0.0,0.269067848786,-0.254550127903,0.304918238396,1.0,-0.00942,-0.0123805714286,2.779
-0.629766821831,-0.521950018775,-0.125116404739,-2.64260482643,-0.0673592189317,2.11024975735,-0.877255652638,-0.0392432134297,0.00480819265364,-0.00141911700266,0.00402444946498,-6.88714169717e-05,0.000524283345475,-0.0387935179399,0.573783469207,0.818972907998,0.006054199483,0.0,0.818970016473,-0.573692021347,-0.0120964317824,0.0,-0.00643352783957,0.0118991695394,-0.999908505556,0.0,0.26893664981,-0.254730244764,0.304920489291,1.0,-0.00914,-0.0120125714286,2.793
-0.630619459967,-0.521847731633,-0.125103433071,-2.64252677245,-0.0673430665705,2.11027383216,-0.878059133188,-0.0411246328148,0.00952618758961,-0.00178969895962,0.00148329669821,0.0018104748602,0.000818266139255,-0.0433277747427,0.573825541215,0.818943380144,0.00606096264209,0.0,0.818940605583,-0.573734108543,-0.0120914896979,0.0,-0.00642498814673,0.0119022031908,-0.999908524359,0.0,0.268743379739,-0.254976191815,0.304920753276,1.0,-0.00874,-0.0114868571429,2.813
-0.631261540676,-0.521778715981,-0.125090800677,-2.64251069589,-0.0673363354328,2.11027983464,-0.87869848601,-0.0380026442123,0.00470089711872,0.00095552058784,5.48689329686e-05,-0.000446411375282,-0.000447575034738,-0.040134667308,0.573822781096,0.818945270371,0.00606687185054,0.0,0.818942289963,-0.57373079979,-0.0121343307648,0.0,-0.00645672586194,0.0119316030727,-0.999907969535,0.0,0.26858605443,-0.255148934801,0.304903517982,1.0,-0.00842,-0.0110662857143,2.829
-0.631941680112,-0.521704828428,-0.1250838912,-2.64248322866,-0.0673299469526,2.11029490874,-0.879414308525,-0.0384097192223,0.00155890548623,0.00159221559745,0.00312622250376,0.000256912980625,-5.64358057962e-05,-0.0397486264863,0.573793018654,0.81896606998,0.00607411441786,0.0,0.818962998716,-0.573700669252,-0.01216123901,0.0,-0.00647504327611,0.0119527391276,-0.999907598652,0.0,0.268421664701,-0.25533713771,0.304890306299,1.0,-0.00806,-0.0105931428571,2.847
-0.632539616575,-0.521654473584,-0.125068975299,-2.64243154745,-0.0673143112122,2.11030459303,-0.879980871029,-0.0376315764093,-0.000306057192833,0.000119816018867,0.0016937953263,0.0034880207983,0.000490455031204,-0.0304051861765,0.573817455648,0.818948902176,0.00608030582499,0.0,0.818946004318,-0.573725244734,-0.0121462944387,0.0,-0.00645889390232,0.0119494279943,-0.999907742674,0.0,0.268285997192,-0.255506220268,0.304896478472,1.0,-0.00774,-0.0101725714286,2.863
-0.633147534262,-0.521595900893,-0.125048160818,-2.64234641928,-0.0673030249387,2.11031373734,-0.880563127115,-0.0363052015969,0.001377736668,0.000552796224358,0.00335617427664,0.000980365482663,0.000700575144458,-0.0323581357888,0.573832774942,0.818938200544,0.0060759356192,0.0,0.818935503453,-0.573741057472,-0.0121073141218,0.0,-0.00642925209602,0.0119236026211,-0.999908241999,0.0,0.268156094384,-0.25568528659,0.304914919455,1.0,-0.0074,-0.00972571428572,2.88
-0.633721828674,-0.521504306856,-0.125035344244,-2.64224351489,-0.0672879374598,2.11033218327,-0.881118770961,-0.031352752966,0.00643779203449,0.00365329466309,0.00667624982434,-0.000324332457101,-0.00022504980968,-0.0388539795842,0.5738477238,0.818927740534,0.00607392578712,0.0,0.818925293563,-0.573756525123,-0.0120648391026,0.0,-0.00639540000403,0.011897700983,-0.999908767623,0.0,0.268034488605,-0.255870592675,0.304933604126,1.0,-0.00704,-0.00925257142858,2.898
-0.634295397212,-0.521445542316,-0.12500546922,-2.64212683712,-0.0672740046762,2.11037346997,-0.881700473065,-0.0330021324938,-0.000793327056135,0.0059124023803,0.00912361147634,4.41123562647e-05,0.00250847580932,-0.0302954037849,0.573834410952,0.818937157436,0.00606200291477,0.0,0.818935156842,-0.57374438754,-0.0119721993229,0.0,-0.00632656053808,0.0118346751082,-0.999909953494,0.0,0.267931549176,-0.25604174133,0.304965575124,1.0,-0.0067,-0.00880571428572,2.915
-0.634756814898,-0.521385618277,-0.124982835926,-2.64202184287,-0.0672619144877,2.11041464949,-0.882160725359,-0.0294020280615,0.00321944959826,0.000689860595282,0.0054470758648,-0.000152622982441,-8.52733408324e-05,-0.0333800782618,0.573829625908,0.818940598172,0.00605012377269,0.0,0.818939013491,-0.573740721343,-0.0118837602144,0.0,-0.00626101186479,0.0117741627612,-0.999911080458,0.0,0.267849032967,-0.256190327135,0.304995324194,1.0,-0.0064,-0.00841142857143,2.93
-0.635220653508,-0.521337036829,-0.124958953183,-2.64191285131,-0.0672475359942,2.11043082304,-0.882626886657,-0.0251570563589,0.00820758186025,5.91344734435e-05,0.00600729590075,9.20389786198e-05,-6.57390822387e-05,-0.0214258519656,0.573820306515,0.818947206945,0.00603945110304,0.0,0.818945979001,-0.573732379135,-0.0118062488409,0.0,-0.00620378530482,0.0117208751881,-0.9999120632,0.0,0.267767360273,-0.256329136289,0.30502753932,1.0,-0.0061,-0.00801714285715,2.945
-0.635653561924,-0.521282145939,-0.12493336534,-2.64181291068,-0.0672366067161,2.11045074678,-0.883057232821,-0.0268943507292,0.00306614432818,0.00320441838536,0.00329814190512,0.00315581702771,-0.000502659932176,-0.0234353709151,0.573815738449,0.818950484946,0.00602896467039,0.0,0.818949557197,-0.573728677301,-0.0117377387608,0.0,-0.00615375540334,0.0116729419222,-0.99991293307,0.0,0.26768416261,-0.256473018666,0.305056513939,1.0,-0.00576,-0.00757028571429,2.962
-0.636091815409,-0.521250445084,-0.124906020186,-2.64169221217,-0.0672250276435,2.11046991485,-0.883475171101,-0.029568774583,0.00307497454294,-0.000123115144926,0.00241221148827,0.000223488911769,0.000863709326858,-0.0276596375209,0.573825845721,0.818943509862,0.00601442763481,0.0,0.81894310139,-0.573740181901,-0.0116252853378,0.0,-0.00606985003587,0.0115965864813,-0.999914334382,0.0,0.267602771002,-0.256624509134,0.305102595434,1.0,-0.0054,-0.00709714285715,2.98
-0.636535834664,-0.521251423614,-0.124885419517,-2.64154660302,-0.0672102462923,2.11051060186,-0.883904642775,-0.0270910461519,0.0014087291249,0.000587983889526,0.00713882238324,2.8836345928e-05,0.00179347559002,-0.021176775653,0.573834021967,0.818937909871,0.00599682500435,0.0,0.818938417638,-0.573750614703,-0.0114388437262,0.0,-0.00592713485569,0.0114752490161,-0.999916590388,0.0,0.267541277822,-0.256770973565,0.305172538288,1.0,-0.00506,-0.00665028571429,2.997
-0.636959624131,-0.521279806662,-0.124853590109,-2.64134839564,-0.0671902728517,2.11059231438,-0.884297960463,-0.0236364679465,-0.0101364896314,-0.000246409707711,0.0106355304554,-0.000115369800463,0.0125780988365,-0.0195707247408,0.573853947227,0.818924164512,0.00596715436688,0.0,0.818926133534,-0.573774230648,-0.0111295534953,0.0,-0.00569057045264,0.01127361391,-0.999920258339,0.0,0.26750084978,-0.256937192777,0.305280849494,1.0,-0.0047,-0.00617714285715,3.015
-0.637298989736,-0.521346013518,-0.124826540724,-2.64105563467,-0.0671719964726,2.11074294998,-0.884630150521,-0.0261603701068,-0.00513209040499,-0.000290394420414,0.0174804705244,0.000773719524084,0.00345319018571,-0.0137301023594,0.57386163361,0.818919141757,0.00591706303874,0.0,0.818923351575,-0.57378784336,-0.010620826652,0.0,-0.00530256149732,0.0109407166707,-0.999926089049,0.0,0.267514680058,-0.257116126836,0.305451900163,1.0,-0.00438,-0.00575657142858,3.031
-0.637638452225,-0.521489811745,-0.12479147717,-2.64075379836,-0.0671485565531,2.11080064004,-0.88497806174,-0.0234049963657,-0.00977748260011,0.000315798731012,0.0138973809927,0.000325961130211,0.000213882629032,-0.0188687413222,0.573853158628,0.818925396575,0.00587316599789,0.0,0.818931703442,-0.573785016289,-0.0101176618422,0.0,-0.00491577023261,0.0106159784318,-0.999931565761,0.0,0.267519477365,-0.257283491492,0.305647936551,1.0,-0.00404,-0.00530971428572,3.048
-0.637927248163,-0.521614083292,-0.124768268657,-2.64056412345,-0.0671292670745,2.11080227355,-0.885253847167,-0.0202475101366,-0.00595170276088,0.0013895869591,0.0148684350454,0.000161628218529,9.21181358559e-06,-0.014679135147,0.57386380368,0.818918090039,0.00585179757111,0.0,0.818925689048,-0.573799090657,-0.00980134066483,0.0,-0.00466882894147,0.0104170225531,-0.999934841716,0.0,0.267498851954,-0.257403875759,0.305780708308,1.0,-0.00374,-0.00491542857143,3.063
-0.638245796371,-0.521650054746,-0.124752400674,-2.64039440764,-0.0671132664426,2.11079755079,-0.885562292121,-0.0151059828209,0.000473568934663,0.00539177339966,0.0103046177661,0.000725668925045,-0.000475364911159,-0.0185659090797,0.573875360003,0.818910096313,0.00583714312022,0.0,0.818918471801,-0.57381280586,-0.00959933725379,0.0,-0.00451165358633,0.0102891655443,-0.999936887036,0.0,0.267461050971,-0.257526802222,0.305871185395,1.0,-0.00338,-0.00444228571429,3.081
-0.638520745917,-0.521597763709,-0.124725353202,-2.64022679004,-0.0670851057672,2.11074713992,-0.8858050943,-0.0212108180149,0.0120592385375,0.0024594826353,0.0199175755728,0.00454797031947,-0.00625405097297,-0.0126740049561,0.573902551249,0.81889106463,0.00583376731734,0.0,0.818899706761,-0.573840697649,-0.00953262236819,0.0,-0.00445861201459,0.0102482639535,-0.999937544982,0.0,0.267428199206,-0.257626068038,0.3059245629,1.0,-0.00306,-0.00402171428572,3.097
-0.638773036927,-0.521567806315,-0.124699252332,-2.64029634518,-0.0670486897514,2.11085624761,-0.886028947689,-0.000977193635327,0.000363388420362,0.00225101953848,-0.00891383967455,-0.00898574645477,0.016482320172,-0.0193451871706,0.573919679885,0.818878922497,0.00585305329106,0.0,0.818887825035,-0.573857882196,-0.00951882100911,0.0,-0.00443602653265,0.01025623025,-0.999937563756,0.0,0.267372688465,-0.257681040372,0.305891876772,1.0,-0.00274,-0.00360114285715,3.113
-0.63902293833,-0.521436253925,-0.124638098629,-2.64024393809,-0.0669951152455,2.11083003848,-0.886240455666,-0.0145150973438,0.00322553384744,0.00522897571091,0.00417396964283,0.00505078324419,0.00584223233642,-0.00496285442328,0.573933629674,0.818869029496,0.00586925580258,0.0,0.818877648581,-0.573870721242,-0.0096197118619,0.0,-0.00450917687143,0.0103274773718,-0.999936503252,0.0,0.267331285617,-0.257736367042,0.305866514242,1.0,-0.0024,-0.00315428571429,3.13
-0.639194412851,-0.521416610295,-0.124571041367,-2.64029774133,-0.0669684809847,2.11085045044,-0.886451229179,-0.0124284722465,0.00720295380693,-0.00189518693515,-0.00195316094744,1.3730235447e-05,0.00491833863173,-0.0130725657058,0.573862851992,0.818918653432,0.00586626499505,0.0,0.818927009561,-0.573799439305,-0.00966971385524,0.0,-0.00455273713873,0.0103533317543,-0.999936038508,0.0,0.267294253007,-0.257753548677,0.305838142683,1.0,-0.00206,-0.00270742857143,3.147
-0.639392770604,-0.521458583224,-0.124508334781,-2.64028798666,-0.0669729262771,2.11084080486,-0.88665887107,-0.00283051305499,-0.00861249372463,0.000868714362041,-0.00322591617576,0.000126813284758,-0.00889171582765,-0.00816777962107,0.573809198804,0.818956495173,0.00583174788241,0.0,0.818964681484,-0.573746375919,-0.00962774652686,0.0,-0.00453884872614,0.010300683388,-0.99993664538,0.0,0.267257873365,-0.257794982466,0.305858690852,1.0,-0.00166,-0.00218171428572,3.167
-0.63952407749,-0.521313540073,-0.124476458222,-2.64026695822,-0.066972979321,2.11079732422,-0.886770780119,-0.0043519154637,0.0033686110502,0.00331475930512,0.00732610802378,-0.00232603056381,-0.0105995761454,-0.00443565640287,0.573804153586,0.818960095456,0.00582256638479,0.0,0.818967415357,-0.573739642777,-0.00979498805776,0.0,-0.0046811573239,0.0103890969971,-0.999935074607,0.0,0.26722565499,-0.257819992116,0.305811864835,1.0,-0.00138,-0.00181371428572,3.181
-0.639701156138,-0.521376034741,-0.124492712082,-2.64028878941,-0.0669660778434,2.11086115614,-0.886901239617,-0.0110654038742,-0.00236792885492,-0.00561420887914,-0.00910324437039,0.0012192647713,0.00567420460579,-0.00940036671142,0.57385544412,0.818924085613,0.00583250880152,0.0,0.818932003619,-0.573791985716,-0.00968903908995,0.0,-0.00458802900405,0.0103367349632,-0.999936048905,0.0,0.267183596515,-0.257874514869,0.305830043811,1.0,-0.00102,-0.00134057142858,3.199
-0.639847761272,-0.521318268604,-0.124482110881,-2.64027614385,-0.0669632245564,2.11087620942,-0.886972082731,-0.00645404127359,-0.00443014805812,-0.00195704360862,-0.00128474595287,0.00129730553147,0.011539986465,-0.00304273067525,0.573912038039,0.818884451721,0.00582874128672,0.0,0.818892198218,-0.573848289659,-0.0097187990351,0.0,-0.00461384903188,0.0103510458164,-0.999935782062,0.0,0.267152396672,-0.257915400887,0.305816068863,1.0,-0.000680000000005,-0.000893714285721,3.216
-0.639927341922,-0.521344320383,-0.124487372464,-2.64027892738,-0.0669514098756,2.11084918639,-0.887005992938,-0.00170008675495,0.0012751866719,-0.000653215165479,-0.000391141126754,0.00121460813533,-0.00234558954072,-0.00183118996374,0.573957945673,0.818852166241,0.00584408607422,0.0,0.818860064524,-0.573894102858,-0.00972112820967,0.0,-0.00460636904508,0.010365207039,-0.999935669854,0.0,0.267127392908,-0.257932588221,0.305821960687,1.0,-0.000340000000005,-0.000446857142863,3.233
-0.639941918032,-0.521382017975,-0.124481747923,-2.6402788133,-0.0669507702679,2.11085798065,-0.887036016515,-0.00129980005126,-0.00843553924337,-0.000281488262313,-0.00738016885033,0.00398742714918,-0.00178428712119,-0.000909065364,0.573941408481,0.818863785598,0.00584013420879,0.0,0.818871855943,-0.573878066917,-0.00967443832171,0.0,-0.00457061025578,0.0103350812775,-0.99993614577,0.0,0.267127153534,-0.257937033337,0.305836784542,1.0,-2.00000000049e-05,-2.62857142921e-05,3.249
-0.639912836634,-0.521350684367,-0.124465432625,-2.64027391844,-0.0669390172035,2.11083567688,-0.887045704285,0.00063025615295,-0.00173338958224,0.00286543712964,0.00104465424161,0.00166889239901,-0.0016797652746,-0.000343386535105,0.573903483248,0.818890334438,0.00584456851884,0.0,0.818898228106,-0.573839625604,-0.00972229361053,0.0,-0.00460773596875,0.0103659645493,-0.999935655704,0.0,0.267136103002,-0.257922102884,0.305825950689,1.0,0.0,0.0,3.264
-0.639923124225,-0.521367519033,-0.124458266933,-2.64026816426,-0.0669292295467,2.11085149739,-0.887048908709,-0.00102346090928,0.000112411334277,-2.0296965035e-05,-0.000538876077214,0.00542373945848,-0.000976562535458,-0.00227627013054,0.573908547625,0.81888677161,0.00584646438896,0.0,0.818894864338,-0.57384508514,-0.00968330119182,0.0,-0.00457465047265,0.0103451681624,-0.999936022988,0.0,0.267140083565,-0.257926189961,0.30583630352,1.0,0.0,0.0,3.282
-0.639935813683,-0.521338424543,-0.124442138397,-2.64026731507,-0.0669168343646,2.11083693866,-0.887064008315,-0.002636625668,0.00108941746054,0.00256980006906,-0.000299669469178,-0.000224988144496,-0.00554285295452,-0.00189470641666,0.573900599375,0.818892307535,0.00585129031525,0.0,0.818900257634,-0.573836681366,-0.00972512559663,0.0,-0.00460623420896,0.0103730782695,-0.999935588852,0.0,0.26713862337,-0.25792247754,0.305825113515,1.0,0.0,0.0,3.3
-0.639926816711,-0.521311026619,-0.124446802438,-2.64028118192,-0.066917332383,2.1108246872,-0.887068737356,-0.000881855230458,0.00129012422636,8.87127417438e-05,0.00106554015036,-0.000682699417341,-0.000866595288168,-0.00220880045547,0.573891943232,0.81889833202,0.0058571503371,0.0,0.818906096052,-0.573827444891,-0.00977835574361,0.0,-0.00464657505702,0.0104083760894,-0.999935035414,0.0,0.267134130748,-0.257915500227,0.305807549469,1.0,0.0,0.0,3.317
-0.639937694698,-0.52132021732,-0.124455136929,-2.64027113239,-0.0669193617972,2.11084574002,-0.887057790766,0.00121511490388,0.0056271217778,0.00111174481274,0.00223469719811,-3.68418036467e-05,0.00145407554896,0.00179869049432,0.573915269265,0.818881994753,0.00585570449429,0.0,0.818889930582,-0.5738511932,-0.00973840622431,0.0,-0.00461439134494,0.0103843974091,-0.999935433757,0.0,0.267135235884,-0.257926065073,0.305817117439,1.0,0.0,0.0,3.334
-0.639944478643,-0.521362196971,-0.124446683727,-2.64024665621,-0.0669140933821,2.11086165872,-0.88706724816,0.000793633499546,-0.00222728924823,0.00337876760776,0.00308876881432,0.000445234860208,0.00604300994899,0.000385297767985,0.573910260807,0.818885546335,0.00584990975686,0.0,0.818893799233,-0.573847064548,-0.0096560337723,0.0,-0.00455032055699,0.0103323506164,-0.999936266526,0.0,0.267144897045,-0.257934558493,0.305845289094,1.0,0.0,0.0,3.349
-0.63993354242,-0.521360432213,-0.124428459371,-2.64026191102,-0.066912043235,2.1108535011,-0.887070352408,-0.000112848293412,-0.000116601107694,0.00243411587704,0.000318410032921,-7.21799352157e-05,-0.00041357758413,-0.000473062322874,0.57388603008,0.818902558805,0.0058455592315,0.0,0.818910650653,-0.573822594642,-0.00968106540982,0.0,-0.00457362332713,0.0103430180438,-0.999936049929,0.0,0.267146955481,-0.257922380503,0.305837426291,1.0,0.0,0.0,3.365
-0.639922510878,-0.521364713863,-0.124407177841,-2.64028059805,-0.0669152801181,2.11084766942,-0.887068408814,0.00115159844874,-0.00123450331648,0.002456384784,0.000353529733066,-0.000575732997604,-0.00328764670527,0.00158096484917,0.573861253604,0.818919995377,0.00583521079875,0.0,0.818927883855,-0.573797652414,-0.00970165093663,0.0,-0.00459673418389,0.0103462175965,-0.999935910854,0.0,0.267148937378,-0.257909593708,0.305830496509,1.0,0.0,0.0,3.384
-0.639925016207,-0.521347808767,-0.124412818135,-2.64026779358,-0.0669125334819,2.11084599691,-0.887074239959,-7.13641042068e-05,-0.00283293069852,-0.000935850912285,0.00125761128128,-7.50304161468e-05,0.000646285483963,-0.00119324697545,0.573867405208,0.818915683417,0.00583537440775,0.0,0.818923570667,-0.573803795676,-0.00970239014068,0.0,-0.00459716797821,0.0103468103087,-0.999935902727,0.0,0.267150692343,-0.25791486411,0.305831105088,1.0,0.0,0.0,3.401
-0.63992525021,-0.521313559551,-0.124405351021,-2.64026572729,-0.0669125334819,2.11084840811,-0.887072068806,0.00145435781411,0.00167435649847,0.000646739699085,-0.00037595005307,-0.000103248187959,4.36729390328e-05,0.000207989774897,0.573861301077,0.818919956226,0.00583603641398,0.0,0.818927689712,-0.57379732874,-0.00973711742621,0.0,-0.00462530672316,0.0103672462941,-0.999935561295,0.0,0.267151314314,-0.257912680318,0.305818533451,1.0,0.0,0.0,3.417
-0.639925718538,-0.521337483959,-0.124408220386,-2.64027809271,-0.066914435094,2.11085459666,-0.887070441417,0.00178842561728,-0.00109936556899,-0.000613279107134,0.00024202514811,-0.000532088408209,0.000527054846945,0.001873785829,0.573863553857,0.818918376386,0.00583620361227,0.0,0.818926193594,-0.573799764349,-0.00971940222508,0.0,-0.00461067360195,0.0103572301203,-0.999935732671,0.0,0.267149052097,-0.257911746625,0.305822178719,1.0,0.0,0.0,3.433
-0.639938040632,-0.521326544642,-0.124418152678,-2.64026502064,-0.0669119215077,2.11084286668,-0.88707206886,0.000550279823529,-0.00215207582253,-0.00159411578116,0.00247006060176,0.00032956729583,0.000410038455971,0.000977502014263,0.573881078509,0.818906046945,0.00584302207316,0.0,0.81891389321,-0.573817161179,-0.00972871751506,0.0,-0.00461416810041,0.0103682584752,-0.999935602261,0.0,0.267144872443,-0.25791848353,0.305822860346,1.0,0.0,0.0,3.45
-0.639952548452,-0.521350217441,-0.124415355524,-2.64025690824,-0.0669131266196,2.11085980348,-0.8870767483,-0.00169492781881,0.00175413247258,0.000954131432214,-0.00111450161149,-0.000171878647121,-0.00043495680976,-0.000279161587691,0.573886890492,0.818902015803,0.005837151412,0.0,0.818910024282,-0.573823501441,-0.00968030090933,0.0,-0.00457781140361,0.0103356985866,-0.999936106448,0.0,0.267146724008,-0.257926649833,0.305836790741,1.0,0.0,0.0,3.466
-0.639933184302,-0.521354898858,-0.12440533882,-2.64027272004,-0.0669125380832,2.1108515173,-0.887077461754,0.000802713901111,0.000703064943552,0.0011228121713,-0.000672982586468,0.00024089345294,-0.000174331339489,0.00107031505744,0.573868055567,0.818915200718,0.00583915529371,0.0,0.818923111135,-0.573804392608,-0.00970587318429,0.0,-0.00459784265293,0.0103519090977,-0.999935846853,0.0,0.267148924502,-0.257912452128,0.305828932117,1.0,0.0,0.0,3.484
-0.639919765387,-0.521344964422,-0.124402868038,-2.64027558989,-0.0669096525223,2.11084639924,-0.887076471525,0.000302900227611,0.00279027398198,-0.00018062711461,0.00156453737785,-2.49380702888e-05,0.000345693330376,0.00161343641716,0.573852066318,0.818926413937,0.00583793113681,0.0,0.818934258089,-0.573788291085,-0.00971724466209,0.0,-0.00460806051346,0.0103573421435,-0.999935743557,0.0,0.267151598856,-0.257908105264,0.305825498709,1.0,0.0,0.0,3.5
-0.639943957565,-0.521352829465,-0.124412494289,-2.64025952016,-0.0669077429939,2.11085390059,-0.887077479752,-0.000840328381263,-0.00311235970044,-0.00148532777666,0.000213066772247,-1.64277239751e-05,-0.000217251913333,-0.00161099108475,0.573881169221,0.818906013752,0.00583876321404,0.0,0.818913982466,-0.573817646397,-0.00969251808016,0.0,-0.00458696429218,0.0103439975988,-0.999935978687,0.0,0.267147803242,-0.257921594535,0.305833323013,1.0,0.0,0.0,3.517
-0.63994551344,-0.521336506311,-0.124410217437,-2.64026191102,-0.0669064203302,2.11085671287,-0.887072546351,0.000460407845252,0.00211477092541,0.000668510217666,-2.42127198274e-05,0.00047243180139,-0.00136887410951,0.00053132069793,0.573883614751,0.818904279508,0.00584162853979,0.0,0.818912236556,-0.573819985221,-0.00970156078087,0.0,-0.00459269486261,0.0103515471617,-0.999935874257,0.0,0.267148288765,-0.25792103228,0.305829323932,1.0,0.0,0.0,3.536
-0.639933813802,-0.52132573468,-0.124402272442,-2.64027073908,-0.066908097627,2.11084840741,-0.887079163669,-0.000650046806325,0.00337130441962,0.000782027498097,0.000756753172495,-0.000237501272966,-0.000790640660396,0.000209471223882,0.573861919022,0.818919504442,0.00583866781487,0.0,0.818927300304,-0.573798013147,-0.00972953377334,0.0,-0.0046175778872,0.0103650529527,-0.999935619753,0.0,0.267149266174,-0.257912762587,0.305820811789,1.0,0.0,0.0,3.552
-0.639940912275,-0.521332912337,-0.124407881457,-2.64027558673,-0.0669077427586,2.11085039388,-0.88707683576,-0.00143657845317,-6.61444895605e-05,-0.00106194514832,-0.000625870802662,-0.000256469848405,0.00011711834196,0.000838473524847,0.573873503487,0.818911362753,0.00584199024834,0.0,0.818919214512,-0.573809628558,-0.00972507982046,0.0,-0.00461187690714,0.0103652832574,-0.999935643676,0.0,0.267145608389,-0.257915024767,0.30582128726,1.0,0.0,0.0,3.567
-0.639937039577,-0.521332913202,-0.12441466782,-2.64026823388,-0.0669084548352,2.11085308227,-0.887076027844,0.00116028387105,0.000170443856239,-0.00114051451839,-0.000379019214632,0.000124962723607,0.000222259887197,0.00130757918303,0.57387583787,0.818909716213,0.00584348375185,0.0,0.818917629605,-0.573812059487,-0.00971510222788,0.0,-0.0046028187807,0.0103607937711,-0.999935731941,0.0,0.267147213134,-0.257917796413,0.305824704624,1.0,0.0,0.0,3.586
