nelsonifechukwu/NELSON_IML_WORK/CNN-GradCAM/train2dof/data_sample_2022-02-22-16-26-35/robot_state.csv
position_joint1,position_joint2,position_joint3,position_joint4,position_joint5,position_joint6,position_joint7,velocity_joint1,velocity_joint2,velocity_joint3,velocity_joint4,velocity_joint5,velocity_joint6,velocity_joint7,ee_T_00,ee_T_10,ee_T_20,ee_T_30,ee_T_01,ee_T_11,ee_T_21,ee_T_31,ee_T_02,ee_T_12,ee_T_22,ee_T_32,ee_T_03,ee_T_13,ee_T_23,ee_T_33,v_x,v_y,time
0.465070504633,0.547763257058,-0.123944502697,-1.35583269832,0.0795764219314,1.89410351026,0.159158583441,0.00131668107811,-0.000850461118326,0.000144921819088,0.00104551534274,0.000266989370326,0.00239608386025,0.000222971779539,0.573797327102,0.818983095835,0.00201570032757,0.0,0.818939883637,-0.573737578056,-0.0119752000942,0.0,-0.00865116998419,0.00852223927677,-0.999926261629,0.0,0.661664645744,0.260926709071,0.30322616693,1.0,0.0,0.0,0.0
0.46507328869,0.547763223709,-0.12394700835,-1.35583520397,0.0795746435937,1.89410512432,0.159161609278,0.00165211503062,-0.00165626130183,-0.00139433678489,-0.000163633895524,-2.63810059386e-05,0.00122442446612,0.00124339718729,0.573798952505,0.818981962853,0.00201333737014,0.0,0.818938748447,-0.573739241356,-0.0119731416822,0.0,-0.00865082297621,0.00851914016139,-0.99992629104,0.0,0.661664342897,0.260926625305,0.303225217775,1.0,-6e-05,-7.88571428571e-05,0.004
0.465066956839,0.547767842731,-0.123944132876,-1.3558356507,0.0795725110659,1.89410349219,0.159160458986,2.45817010508e-05,0.00166428492764,0.000900296720734,0.000852040067247,-0.000129455719275,8.8131862708e-05,0.000579401333946,0.573800643249,0.818980793511,0.00200712945994,0.0,0.818937499724,-0.573740959525,-0.0119762185432,0.0,-0.00865688725541,0.00851583944161,-0.999926266673,0.0,0.661664903099,0.260923528196,0.303221492103,1.0,-0.00038,-0.000499428571429,0.02
0.46506376538,0.547753689098,-0.123945164507,-1.35584509462,0.079573831387,1.8941030582,0.159162871411,-0.000551837246109,-0.00420480821291,0.000439797972461,-0.000806707536238,0.000317367030702,-7.15073438783e-05,0.000437290512635,0.573806790487,0.818976474834,0.00201190477115,0.0,0.818933227287,-0.573747070142,-0.011975627375,0.0,-0.00865359923224,0.00851947600166,-0.999926264156,0.0,0.661664022254,0.260920069936,0.303227022761,1.0,-0.00072,-0.000946285714286,0.037
0.465069197323,0.547686155081,-0.123945175396,-1.35590936753,0.0795728233416,1.89411339962,0.159154207949,0.000519866653651,-0.00844901627181,-0.000260221270998,-0.00423876315522,8.36195494158e-05,0.00520452013543,-0.00151298126457,0.573798448093,0.818982284159,0.00202635191526,0.0,0.818939182251,-0.573738626001,-0.0119729574615,0.0,-0.00864321009487,0.00852968761383,-0.999926266956,0.0,0.661651780001,0.260917457465,0.303245170064,1.0,-0.0011,-0.00144571428571,0.056
0.465068347256,0.547577966296,-0.123939911079,-1.35604238526,0.0795735565377,1.89413568283,0.159157247505,0.000289393198058,-0.008110277809,0.000888763989794,-0.0129048999069,0.000286140504535,0.00206360687604,0.000552182612425,0.573804539455,0.81897801168,0.00202824729968,0.0,0.818934773119,-0.573744549397,-0.011990676174,0.0,-0.00865657096445,0.00854147111174,-0.999926050791,0.0,0.661624120241,0.260907771935,0.30325927248,1.0,-0.0014,-0.00184,0.071
0.465053474569,0.547420082148,-0.123945200829,-1.35626552886,0.07956951749,1.89418370966,0.159155615942,-0.000955616280773,-0.00817671118432,-0.000310802543861,-0.00894553146415,3.87574099922e-05,-1.00710179956e-05,0.000982099120568,0.573831077713,0.818959431812,0.00202242365952,0.0,0.818916032172,-0.573771025007,-0.0120037500479,0.0,-0.0086703431537,0.00854448449302,-0.999925905722,0.0,0.661595465982,0.260872492734,0.303270233512,1.0,-0.00176,-0.00231314285714,0.089
0.465033692266,0.547246828492,-0.123939919841,-1.35646608426,0.0795680485394,1.89430990488,0.159144389071,-0.000774428000606,-0.00806076755989,0.000722972928011,-0.0109165815132,0.000161272516512,0.0115968203462,0.000200688623335,0.573845521067,0.818949083585,0.00211266379699,0.0,0.818906819232,-0.573785047559,-0.0119619193759,0.0,-0.00858415328515,0.00859453411874,-0.999926220426,0.0,0.661583263875,0.260849280572,0.303308281814,1.0,-0.00208,-0.00273371428571,0.105
0.465024988367,0.547066859137,-0.123944552365,-1.35667952923,0.0795666110403,1.89443097187,0.159132880442,0.00219436117841,-0.00854992921341,0.000179256435438,-0.0119219847136,0.000622143004529,0.00579856340165,0.00115288764745,0.573858244965,0.818939960185,0.00219162020064,0.0,0.818898712557,-0.573797434364,-0.0119226587407,0.0,-0.00850655940383,0.0086367972661,-0.99992651939,0.0,0.661566635549,0.260825871324,0.303344828804,1.0,-0.0024,-0.00315428571429,0.121
0.464993399129,0.546846031408,-0.123938429114,-1.35699216067,0.0795581184451,1.8945646835,0.159120441536,4.77861120645e-05,-0.0159733324702,0.00126118914615,-0.022443083826,-0.00157555648063,0.00703520700063,0.00180125053254,0.573884986909,0.818921106341,0.00223389569955,0.0,0.818880316716,-0.573823908038,-0.0119120258254,0.0,-0.00847330974472,0.00866559284236,-0.999926552564,0.0,0.661534734953,0.260782016651,0.303363825871,1.0,-0.00274,-0.00360114285714,0.138
0.464952708631,0.54657469035,-0.123945357548,-1.357400275,0.0795536703712,1.89470886969,0.159037026104,-0.00328742979839,-0.0150810552546,-0.0006438569148,-0.0258491920642,-0.00126890782532,0.0114127352341,-0.00842201508698,0.573876445959,0.818927046528,0.00225036436768,0.0,0.818886313746,-0.573815140547,-0.0119221029604,0.0,-0.00847220253601,0.00868477386573,-0.999926395535,0.0,0.661489469213,0.260715276804,0.303374485343,1.0,-0.0031,-0.00407428571429,0.156
0.464920062138,0.546306016592,-0.123946237496,-1.35781439902,0.079543135531,1.8948541825,0.158928035879,-0.00411121707851,-0.0158184571966,5.2291530404e-05,-0.0275626748217,-0.00337210402354,0.0121302401336,-0.00202372958974,0.573836899018,0.818954744878,0.00225523126439,0.0,0.818913943195,-0.573775443357,-0.0119348708535,0.0,-0.00848028606815,0.008695677027,-0.999926232254,0.0,0.661436368419,0.260651242085,0.303378414759,1.0,-0.00344,-0.00452114285714,0.173
0.464867504854,0.545996897996,-0.123938825108,-1.35834948062,0.0795261682902,1.89504028701,0.158914333792,-0.00153052828606,-0.0137479226959,0.0032085003147,-0.0348769120767,-3.35063883297e-06,0.0145894211074,-0.00459329687831,0.573886917721,0.818919753395,0.00223384648778,0.0,0.818878466641,-0.573825331502,-0.0119704928944,0.0,-0.00852119944721,0.00869912554252,-0.999925854439,0.0,0.661375179749,0.260575652142,0.303360353267,1.0,-0.00378,-0.004968,0.19
0.464806252721,0.545655445775,-0.123944047344,-1.35892682475,0.0795047588637,1.89522841075,0.15882859932,-0.00181709378133,-0.0181221471707,0.000139929008702,-0.0351852451517,-0.00429058778374,0.00720371586254,-0.000626380518433,0.573896999935,0.818912781066,0.00219940293275,0.0,0.818870902902,-0.573835409715,-0.012004742401,0.0,-0.00856890668055,0.00869068003684,-0.999925520186,0.0,0.661307465686,0.260477365834,0.303343780032,1.0,-0.00412,-0.00541485714286,0.207
0.464746206259,0.545299496573,-0.123945930154,-1.35955173534,0.0794368433071,1.89543221981,0.158748311665,-0.00533422600416,-0.0223916165424,-0.00050649256108,-0.0412806719857,-0.00578755126056,0.01674548017,-0.00632383514735,0.573898504595,0.818911919493,0.00212636692136,0.0,0.818869315624,-0.573837448209,-0.0120155675629,0.0,-0.00861966848398,0.00863709917281,-0.999925548145,0.0,0.661233790712,0.260369889888,0.303315970333,1.0,-0.00444,-0.00583542857143,0.223
0.464679007178,0.544886548385,-0.123944027334,-1.36024559708,0.0793862787912,1.89566203949,0.158660825094,-0.0037353067645,-0.0273019628592,-0.000596967414287,-0.0381586201464,-0.00100698720806,0.0126446120803,-0.00621054611452,0.573905727494,0.818906980717,0.00207840895065,0.0,0.818863769522,-0.573844891363,-0.0120380447857,0.0,-0.00866552138886,0.00861080242292,-0.999925378626,0.0,0.661150905671,0.260257024674,0.303297826129,1.0,-0.00478,-0.00628228571429,0.24
0.464611219855,0.544452455331,-0.123949491065,-1.36096827772,0.0793647526703,1.89591901301,0.1585630775,-0.00382082129278,-0.0230215780985,0.000697536577027,-0.0441785395292,4.77408099076e-05,0.0208247728444,-0.00735133022607,0.573919600257,0.818897300538,0.00206167761805,0.0,0.818853670835,-0.573858635469,-0.0120697621725,0.0,-0.00870095167676,0.00861545124096,-0.99992503091,0.0,0.661067499866,0.260142913078,0.303283548701,1.0,-0.00512,-0.00672914285714,0.257
0.464547657528,0.544027150389,-0.12395054578,-1.36166809503,0.079337687071,1.89617521155,0.158494596229,-0.00779428592563,-0.0253355602027,-0.000239157815704,-0.0507688187871,-0.00677218210487,0.015832309998,-0.00243645223336,0.573948155563,0.818877308558,0.0020530846414,0.0,0.818833421583,-0.573887080764,-0.012091035203,0.0,-0.0087230035581,0.00862092765487,-0.999924791579,0.0,0.660987079073,0.26003580336,0.303273669993,1.0,-0.00542,-0.00712342857143,0.272
0.464467747318,0.543517287489,-0.123949393949,-1.36250069266,0.0792990408982,1.89646378311,0.158378921719,-0.00675876892372,-0.0268775799601,0.000541570347889,-0.0477901695752,-0.00222826144755,0.0158868560434,-0.00462215508732,0.573954070452,0.818873218943,0.00203056913431,0.0,0.818828883987,-0.573892941346,-0.0121201288301,0.0,-0.00875968826719,0.00861925188188,-0.999924485328,0.0,0.660889070774,0.259904842917,0.303263096017,1.0,-0.00576,-0.00757028571429,0.289
0.464389862113,0.542930841416,-0.123966592627,-1.36342173988,0.079240966603,1.89679308196,0.158272181004,-0.00688247772565,-0.0341006943112,-0.000523754445463,-0.0507731609421,-0.00316446336389,0.0173918962772,-0.00934928580786,0.57397820933,0.818856324684,0.00202030682169,0.0,0.818811942278,-0.573917207315,-0.0121156606128,0.0,-0.00876166516072,0.00860854227718,-0.999924560266,0.0,0.66078547331,0.259754726084,0.303268639723,1.0,-0.00612,-0.00804342857143,0.307
0.464314145828,0.542375632062,-0.123961605933,-1.36428054762,0.0791955590528,1.89710386132,0.158149132617,-0.00830472681071,-0.03665046187,-0.00243758379883,-0.0469076445552,-0.00271119775172,0.0169536063272,-0.0140130452782,0.573971557021,0.818860960076,0.00203142708787,0.0,0.818816621246,-0.573910407077,-0.0121215643148,0.0,-0.00876018730626,0.00862096538801,-0.999924466184,0.0,0.660685205038,0.259626677364,0.303279321748,1.0,-0.00644,-0.008464,0.323
0.464235236092,0.541753673287,-0.123962269171,-1.36522514709,0.0791350125328,1.89746014925,0.158026502131,-0.00653148705198,-0.0377349308402,-0.000140532136164,-0.0533752687999,-0.00047532567925,0.0243570204698,-0.00931186642785,0.573972563047,0.818860189087,0.00205779001354,0.0,0.818816237292,-0.573911339871,-0.0121033225033,0.0,-0.00873010801141,0.00863209310915,-0.999924633251,0.0,0.660578824501,0.259484586121,0.303300407246,1.0,-0.00678,-0.00891085714286,0.34
0.464154301161,0.541102896633,-0.123964784642,-1.36622960742,0.0790841551765,1.89782929575,0.157889959279,-0.00353888885501,-0.0365535154402,-0.000769484187698,-0.0649865434816,-0.00372638042876,0.0240085318352,-0.00437070605302,0.573970939147,0.818861282039,0.0020757392104,0.0,0.818817477229,-0.573909551552,-0.0121042357861,0.0,-0.00872057137253,0.00864729761271,-0.999924585096,0.0,0.660462197832,0.259335800584,0.303314485982,1.0,-0.00712,-0.00935771428571,0.357
0.464073297368,0.540437635217,-0.123962968363,-1.36723124429,0.0790206186689,1.89819600544,0.157773756526,-0.000123219383202,-0.0473616054253,0.000488195494856,-0.06135972981,-0.000805215146257,0.0278169824479,-0.00807539291858,0.573979324038,0.81885534127,0.00210060757201,0.0,0.818811872744,-0.57391783915,-0.0120904035903,0.0,-0.00869488280281,0.00865981082822,-0.99992470051,0.0,0.6603456777,0.259187802184,0.303339669214,1.0,-0.00744,-0.00977828571429,0.373
0.463973106796,0.539696597546,-0.123970139771,-1.36834948296,0.0789549508507,1.89861611416,0.157630092147,-0.00900324462747,-0.0440867523001,-0.000230311834514,-0.0656979221413,-0.00425068084648,0.02036034742,-0.00376142759895,0.57399312484,0.818845574754,0.00213640898969,0.0,0.818802600349,-0.57393151119,-0.0120693424123,0.0,-0.00865694185752,0.00867718386486,-0.999924879097,0.0,0.660221821528,0.259012362412,0.30336773043,1.0,-0.00778,-0.0102251428571,0.39
0.463876213673,0.538946003761,-0.123963659974,-1.36952849865,0.0788895162307,1.89905778565,0.157487034166,-0.00428595757489,-0.0435115153939,0.00141984803708,-0.0756672471439,-0.000884863899966,0.0203368160327,-0.00871178408954,0.573998525213,0.818841749556,0.00215154322527,0.0,0.818798885711,-0.573936758963,-0.0120718006069,0.0,-0.00865021112717,0.00869104427,-0.999924816972,0.0,0.660084236536,0.258841436129,0.303374926852,1.0,-0.00812,-0.010672,0.407
0.463772587407,0.538203539293,-0.123978859733,-1.37064413146,0.0788268444904,1.89949756667,0.157346347037,-0.00792171568551,-0.0456970652731,-0.00230281598278,-0.0677193721411,-0.00249031903865,0.0245777814376,-0.00380651237609,0.574023838292,0.818823858962,0.00220634757314,0.0,0.818781784503,-0.573961911836,-0.0120357812087,0.0,-0.00858899070835,0.00871551033,-0.999925131757,0.0,0.659967057014,0.258661236535,0.303406964105,1.0,-0.00844,-0.0110925714286,0.423
0.463657117588,0.537360451285,-0.123972545414,-1.3719884856,0.0787507470693,1.90000326058,0.157185468948,-0.00446729816459,-0.0483760827919,0.00188491811246,-0.0757117938528,-0.00558269775027,0.024652193501,-0.0107068459862,0.574036086185,0.818815254727,0.00221298119676,0.0,0.818773186616,-0.573974048898,-0.0120418840662,0.0,-0.00859004997651,0.00872457364113,-0.999925043619,0.0,0.659811316433,0.258462185986,0.303406079022,1.0,-0.0088,-0.0115657142857,0.441
0.463535787511,0.536528251339,-0.1239831875,-1.37329082179,0.0786723799457,1.90049214255,0.157029747332,-0.00611647852624,-0.0485044825111,-0.000936872828232,-0.0759607536947,-0.000904276976214,0.0296421410848,-0.010828145889,0.574066178494,0.818794123373,0.00222556535155,0.0,0.818752269565,-0.574004135608,-0.0120299745847,0.0,-0.00857275383049,0.00872835626776,-0.999925159044,0.0,0.659666887653,0.258252786339,0.303416432534,1.0,-0.00914,-0.0120125714286,0.458
0.463429338215,0.53571241735,-0.123986793537,-1.37457672343,0.0785980706932,1.90095510059,0.156874787241,-0.00737412430459,-0.0503471952407,0.000284553527924,-0.0799904022084,-0.00480454631285,0.031852821309,-0.00285747132917,0.574079709878,0.818784650589,0.00222026322068,0.0,0.818742681631,-0.574017640654,-0.0120381225593,0.0,-0.00858232495423,0.00872883422664,-0.999925072769,0.0,0.659514690537,0.258057939863,0.303420430948,1.0,-0.00946,-0.0124331428571,0.474
0.463308180941,0.534816592319,-0.123985354941,-1.3760124025,0.0785233362943,1.90147345775,0.156699900079,-0.00358555367651,-0.0528803433839,-0.000360546650338,-0.0869871059065,-0.00296793668223,0.0321412155118,-0.0117511136929,0.574093455625,0.818775045303,0.0022082343123,0.0,0.818732764399,-0.574031277852,-0.012062315195,0.0,-0.00860889285401,0.00873301813374,-0.999924807852,0.0,0.659343212846,0.25784329539,0.303414084562,1.0,-0.0098,-0.01288,0.491
0.46317287752,0.533927782813,-0.123990264576,-1.37749124225,0.0784353653607,1.90200268478,0.156523882958,-0.0130218657087,-0.0566907277905,-0.000284026461329,-0.0864826753202,-0.0068675651964,0.0279609901328,-0.0119501962961,0.574113328592,0.818761246917,0.002157169782,0.0,0.818718272324,-0.574051338399,-0.0120912508517,0.0,-0.00866168818796,0.0087080302469,-0.999924569839,0.0,0.659158601706,0.257598254613,0.303386288742,1.0,-0.01016,-0.0133531428571,0.509
0.46305014131,0.533060354185,-0.123991280623,-1.37887304114,0.0783664735721,1.90253552458,0.156342103658,-0.0104143352401,-0.0480020219528,0.000187253905947,-0.0862039206446,-0.00575266433666,0.0284653447956,-0.0139439366525,0.574130702481,0.818749013468,0.00217630789368,0.0,0.818706156074,-0.57406849436,-0.0120971356241,0.0,-0.00865533470424,0.00872726167077,-0.999924457189,0.0,0.659012273189,0.257399914535,0.303383480944,1.0,-0.01046,-0.0137474285714,0.524
0.462911989012,0.532034299386,-0.123993278331,-1.38051466068,0.0782761218871,1.90314709131,0.156127951044,-0.00934609474018,-0.0567808151401,-0.000604267953177,-0.091307785819,-0.00837568167454,0.0299560464706,-0.010233314764,0.574135371153,0.818745740465,0.00217599678203,0.0,0.818702789363,-0.574073073391,-0.0121076833982,0.0,-0.0086640998596,0.00873311207619,-0.999924330201,0.0,0.65881975152,0.257153197289,0.303378572944,1.0,-0.01082,-0.0142205714286,0.542
0.462777218001,0.531032563761,-0.123991836154,-1.38212194668,0.0781740769434,1.90372989719,0.155932173711,-0.00894838737334,-0.0617451775796,-0.00014984596739,-0.0913648841423,-0.00927883618943,0.0340287335872,-0.00635574543493,0.574144533917,0.818739374727,0.00215344973564,0.0,0.818696120641,-0.574082323744,-0.012120004704,0.0,-0.00868703489707,0.00872182331853,-0.999924229741,0.0,0.658627380865,0.256910665387,0.303370004185,1.0,-0.01116,-0.0146674285714,0.559
0.462656957623,0.530123454343,-0.123996738916,-1.38359025871,0.0780825584233,1.90424488137,0.155737734228,-0.00631492180305,-0.0582602731457,-9.11073470185e-05,-0.0995545529687,-0.00806049454466,0.033349200507,-0.0150487315585,0.574142376801,0.818740992437,0.00211314131509,0.0,0.81869718711,-0.574080317754,-0.0121429604016,0.0,-0.00872899467292,0.00870197853708,-0.999924037226,0.0,0.658448198812,0.256686415297,0.303356442462,1.0,-0.01146,-0.0150617142857,0.574
0.462512181672,0.529013416441,-0.124001355463,-1.38532949926,0.0779780740136,1.90489766963,0.155500992794,-0.00369389791333,-0.0571373395316,-0.00297618342993,-0.0978589319608,-0.00393647643545,0.0458068417796,-0.0135867450442,0.574136734733,0.818744900768,0.0021317123904,0.0,0.818701345671,-0.574074602888,-0.0121327580185,0.0,-0.00871003951119,0.00871126559353,-0.999924121653,0.0,0.658245007294,0.256423927379,0.303367169283,1.0,-0.01182,-0.0155348571429,0.592
0.462368953636,0.527858265784,-0.124000542664,-1.38714191167,0.0778567715266,1.9056007772,0.155248753302,-0.00971096764649,-0.065777256807,-7.41270798048e-06,-0.102035226724,-0.0134321740521,0.0384767958218,-0.00723724876535,0.574112625887,0.818761725,0.00216272349892,0.0,0.81871870128,-0.574050489593,-0.0121024986264,0.0,-0.00866771704918,0.00871902730876,-0.999924421766,0.0,0.658034676098,0.256158246475,0.303378716195,1.0,-0.01218,-0.016008,0.61
0.462242853008,0.526823370828,-0.123999546486,-1.38870191525,0.0777689812395,1.90619210192,0.155026762194,-0.00890593443735,-0.0697377293683,-0.00186256639655,-0.101189424526,-0.00700549229407,0.0414532937148,-0.00995340669303,0.574094157276,0.818774512688,0.00222325349062,0.0,0.818732226964,-0.574031711838,-0.0120781304661,0.0,-0.0086132132105,0.00875440196222,-0.999924583658,0.0,0.657851230881,0.255930182817,0.303415785425,1.0,-0.01248,-0.0164022857143,0.625
0.46207865223,0.525586177753,-0.124001336185,-1.39064822352,0.0776449621852,1.90688759579,0.154772973189,-0.00854022864243,-0.0725109687833,0.00101602098852,-0.103800740989,-0.00564859932689,0.0406165472921,-0.0142654853031,0.574093452162,0.818775047776,0.00220821761374,0.0,0.818732561627,-0.57403106655,-0.0120861105404,0.0,-0.00862838634634,0.00874666498729,-0.999924520552,0.0,0.657615133976,0.255633514696,0.303420169823,1.0,-0.01284,-0.0168754285714,0.643
0.461941164226,0.524561027087,-0.124006327483,-1.39227701857,0.0775474863643,1.90747954265,0.154542292863,-0.007477598426,-0.0636157188597,-0.000767043121894,-0.109383728171,-0.00222986557535,0.0400051777236,-0.02041769639,0.574082031562,0.818783083965,0.00219757845388,0.0,0.818740425892,-0.57401965941,-0.0120951445782,0.0,-0.00864201292868,0.008743019821,-0.999924434753,0.0,0.657419225439,0.255384739662,0.30341738847,1.0,-0.01314,-0.0172697142857,0.658
0.461781351311,0.523354362701,-0.124007254507,-1.39419255873,0.0774291490727,1.90818380816,0.154283842074,-0.0117886889613,-0.0719328788388,-0.00120053518684,-0.115194548735,-0.00258501337733,0.0476184439804,-0.014654742392,0.574072865778,0.818789526547,0.00219155094203,0.0,0.818746773295,-0.574010503964,-0.012099977674,0.0,-0.00864952826042,0.00874076240819,-0.999924389508,0.0,0.657188482535,0.255096285316,0.303415083346,1.0,-0.01348,-0.0177165714286,0.675
0.461608804234,0.522044651755,-0.124010586912,-1.3962504199,0.0772992658948,1.90899070153,0.154012143296,-0.0117049462558,-0.0779819610365,-0.00185878419976,-0.116639254001,-0.0142551339289,0.0447987586466,-0.0125859959278,0.574069520493,0.818791753607,0.00223534493592,0.0,0.818749675413,-0.574007077629,-0.0120660989692,0.0,-0.00859668403283,0.00875713619219,-0.99992470196,0.0,0.656951198878,0.254787626534,0.303426080893,1.0,-0.01384,-0.0181897142857,0.693
0.461447930886,0.52079566775,-0.124010523317,-1.3982691822,0.0771737632611,1.90975575545,0.153741699893,-0.0061792482091,-0.0770647423016,0.000810886508522,-0.116119600888,-0.00733674857213,0.0484766002315,-0.0127050643399,0.574053916351,0.818802715502,0.00222735498692,0.0,0.818760544307,-0.57399152075,-0.0120686409662,0.0,-0.00860351876372,0.00875188949411,-0.999924689112,0.0,0.656708461585,0.254490391239,0.303408950242,1.0,-0.01418,-0.0186365714286,0.71
0.461290769101,0.519655101615,-0.124021953688,-1.40007644888,0.0770565853335,1.91040845502,0.153493003075,-0.00847310312633,-0.0782332251238,0.000866594427687,-0.116381431141,-0.00925768928882,0.0434627958746,-0.0206084368776,0.574054879634,0.818802052145,0.0022229422321,0.0,0.81875988375,-0.57399256398,-0.0120638367796,0.0,-0.00860210761774,0.00874552867251,-0.999924756906,0.0,0.656478534185,0.254185724622,0.303418801977,1.0,-0.0145,-0.0190571428571,0.726
0.461118326752,0.518234724027,-0.124030414452,-1.40228544388,0.0769161510103,1.91119312743,0.15319575314,-0.00575121002914,-0.0750032818723,-0.000749608824137,-0.129359284595,-0.0067426507937,0.0462347185466,-0.0244776056996,0.574034611924,0.818816320192,0.00220113630872,0.0,0.818773881319,-0.573972405591,-0.0120729363086,0.0,-0.00862229178577,0.0087326843587,-0.999924695319,0.0,0.65621594144,0.253875313899,0.303420447148,1.0,-0.01484,-0.019504,0.743
0.460920981673,0.516788634262,-0.124026188785,-1.40453517226,0.0767706444929,1.9120067505,0.152885795516,-0.0127252419794,-0.0757148107908,0.000868008733887,-0.124978381633,-0.00424151978981,0.0445772915219,-0.0202033634853,0.574019078911,0.818827194855,0.00220656141196,0.0,0.818784820576,-0.573956845251,-0.0120708030305,0.0,-0.00861759667366,0.00873573841707,-0.999924709117,0.0,0.655940632152,0.253532009753,0.303434579528,1.0,-0.0152,-0.0199771428571,0.761
0.460756156205,0.515584848045,-0.124034017724,-1.4064481583,0.0766531008234,1.91274260742,0.152620259876,-0.00938135199548,-0.0852143193476,0.000544978843807,-0.125317572262,-0.00554015676552,0.0512436751565,-0.0181748423786,0.574011728273,0.818832298554,0.0022247587432,0.0,0.818790217169,-0.573949474887,-0.0120551833935,0.0,-0.00859443988478,0.00874159565165,-0.999924857231,0.0,0.655715458375,0.253239025513,0.303432330054,1.0,-0.0155,-0.0203714285714,0.776
0.460570840189,0.514195523902,-0.124035086242,-1.4086771155,0.0765230466482,1.9135512474,0.152325822147,-0.0133614445297,-0.0828435726399,-0.00075258495474,-0.134326551378,-0.005790130609,0.0428706555749,-0.0210286413082,0.57400545174,0.818836763816,0.00220056728929,0.0,0.818794247478,-0.573943180664,-0.0120810830662,0.0,-0.00862960051856,0.00873658758694,-0.999924598173,0.0,0.655438281351,0.252904494853,0.30341551805,1.0,-0.01584,-0.0208182857143,0.793
0.460371656254,0.512698811965,-0.12403827453,-1.41109898262,0.0763721785973,1.91437858789,0.151976452022,-0.00602241871658,-0.0786122668103,0.000257257739706,-0.131463264466,-0.0146860494288,0.0473814145949,-0.0171589636012,0.573970768097,0.81886129802,0.00211633548849,0.0,0.818817553356,-0.573908736086,-0.0121377041384,0.0,-0.00872468071755,0.00869974751111,-0.999924094289,0.0,0.655125967773,0.252536211306,0.303383366475,1.0,-0.0162,-0.0212914285714,0.811
0.460181697839,0.511358894137,-0.124036804109,-1.4132584755,0.0762344302958,1.91519868425,0.151676687944,-0.0106672117032,-0.0894895421492,0.000113644083684,-0.136246795501,-0.0107007337018,0.0551801570136,-0.0099497836029,0.573955803563,0.818871799539,0.00211148723068,0.0,0.818828022355,-0.573893825403,-0.0121364686201,0.0,-0.00872661042915,0.00869490891651,-0.999924119536,0.0,0.654865572378,0.252207366541,0.303365028272,1.0,-0.01652,-0.021712,0.827
0.459995275287,0.509987941486,-0.124038973878,-1.41545658479,0.0761021941815,1.91602699162,0.151367154381,-0.00941305140672,-0.0862472233977,-0.000449797559505,-0.13630638392,-0.013037560714,0.0561693137344,-0.0252693632393,0.573937159154,0.81888486898,0.00211082873677,0.0,0.818841098924,-0.573875201948,-0.0121348343151,0.0,-0.0087258479402,0.00869323302772,-0.999924140761,0.0,0.654583415921,0.251848441562,0.303350739548,1.0,-0.01686,-0.0221588571429,0.844
0.459754025312,0.50830756076,-0.124044441801,-1.41810578032,0.0759281170407,1.91696964076,0.150999986233,-0.0212901571294,-0.0864358900098,3.78889125208e-05,-0.138271584435,-0.0113683029089,0.0524648099987,-0.00699366207973,0.573926912266,0.818892124611,0.00208195288613,0.0,0.818847951561,-0.573865057586,-0.0121521523566,0.0,-0.00875671044278,0.00867941724112,-0.999923990981,0.0,0.654267941373,0.251458628883,0.303347174067,1.0,-0.01722,-0.022632,0.862
0.459570794439,0.506952996565,-0.124047871872,-1.4202274893,0.0757945988955,1.91773687063,0.150705229481,-0.0104207158846,-0.0842521888599,0.00105110675796,-0.139100631653,-0.00744082311418,0.0529990777837,-0.0199555218993,0.57391178622,0.818902731449,0.00207965501059,0.0,0.818858510161,-0.573849925577,-0.0121552521329,0.0,-0.00876072797122,0.00867915276777,-0.999923958085,0.0,0.654002975529,0.251133365071,0.303351242872,1.0,-0.01752,-0.0230262857143,0.877
0.459342495403,0.505355567904,-0.12405700943,-1.42269646649,0.0756425091589,1.91867641247,0.150364198417,-0.00932331924722,-0.0973036085644,-0.000230370103332,-0.145728353532,-0.00285116275717,0.0593951130535,-0.0203424015292,0.573912635734,0.818901996677,0.00213384282179,0.0,0.818858541414,-0.573850595541,-0.0121214707296,0.0,-0.0087019571487,0.00870414821787,-0.999924254004,0.0,0.653708343974,0.250745982655,0.303374427749,1.0,-0.01786,-0.0234731428571,0.894
0.45910806121,0.503606620501,-0.124062384837,-1.42531778384,0.0754738928705,1.91967784072,0.150001425309,-0.0157902282251,-0.0971676417154,-0.000315651271007,-0.14224567297,-0.0164197299205,0.0527658745553,-0.020066501604,0.57390076112,0.81891004032,0.00223811326506,0.0,0.818868073348,-0.573838404862,-0.0120544787422,0.0,-0.00858738366065,0.0087509625055,-0.999924835924,0.0,0.653393968074,0.250342344238,0.303435486565,1.0,-0.01822,-0.0239462857143,0.912
0.458897322423,0.502104549552,-0.124069134659,-1.4275232853,0.0753345259136,1.92049320247,0.149692403618,-0.0169143552513,-0.103077912229,-0.00171157004155,-0.145545116884,-0.0160126899952,0.0496878263475,-0.0137634877311,0.573900371738,0.818910052041,0.00233171313618,0.0,0.818869365779,-0.573837688451,-0.0120006667429,0.0,-0.008489605202,0.00879672492609,-0.999925269325,0.0,0.653127634549,0.2499916929,0.303505299426,1.0,-0.01852,-0.0243405714286,0.927
0.458668422721,0.500393003165,-0.124067121463,-1.43011534313,0.0751662970895,1.92140778542,0.149333430377,-0.0165060323206,-0.102624542553,6.40086032966e-05,-0.155194654721,-0.0170504190663,0.0598135268554,-0.0160843561729,0.573878933351,0.818924997032,0.00235923577687,0.0,0.818884640292,-0.573816110056,-0.0119901891446,0.0,-0.00846546109986,0.00881302857562,-0.99992533046,0.0,0.652796662866,0.249593472333,0.303545131283,1.0,-0.01886,-0.0247874285714,0.944
0.458414424702,0.498701660382,-0.124069502135,-1.43272758193,0.0749982720666,1.92236429634,0.148959887881,-0.0168089533179,-0.0987259933647,0.000598739541074,-0.155475713135,-0.0133496970818,0.0558962832157,-0.0243421144795,0.573860321519,0.818937949433,0.00239024389231,0.0,0.818898025091,-0.573797404522,-0.0119712141293,0.0,-0.00843232815817,0.0088273407458,-0.999925484172,0.0,0.652457270989,0.249156552928,0.303564976911,1.0,-0.01922,-0.0252605714286,0.962
0.458178920993,0.497132090535,-0.124072453807,-1.43521700349,0.0748461822054,1.92328826936,0.148601913327,-0.017400193919,-0.0971729977078,-0.000883229376582,-0.156886696709,-0.0118671860636,0.0567383079391,-0.0224253747405,0.573861766428,0.818936977545,0.00237628775527,0.0,0.818896792796,-0.573798823622,-0.0119874793172,0.0,-0.00845364172068,0.00882526039116,-0.999925322572,0.0,0.652146642762,0.248756330146,0.303547956135,1.0,-0.01954,-0.0256811428571,0.978
0.45789281249,0.495367995176,-0.124068419176,-1.43808950808,0.0746710117803,1.92426195147,0.148179112698,-0.0156531722807,-0.0971642956079,0.00116936472583,-0.162177324573,-0.0102739573103,0.0541873263935,-0.0239615250862,0.5738399479,0.818952546987,0.00227747211368,0.0,0.818910837763,-0.573777172439,-0.0120641238381,0.0,-0.00857334849822,0.00878809198933,-0.999924630727,0.0,0.651791182405,0.248321248035,0.303500304938,1.0,-0.01988,-0.026128,0.995
0.457588329623,0.49352184888,-0.124110678947,-1.44102793716,0.0744922237805,1.92531820112,0.147758372345,-0.0201596747405,-0.133805579683,-0.00138937479451,-0.196626367388,-0.0168709171109,0.0810172185134,-0.0251130153117,0.573874708074,0.818928295999,0.00223882684461,0.0,0.818886136916,-0.573812146968,-0.0120773200614,0.0,-0.00860595879107,0.00876438153204,-0.999924558699,0.0,0.651432418022,0.247816909943,0.303480190032,1.0,-0.031068,-0.0408322285714,1.012
0.457260187164,0.490529104078,-0.124191882019,-1.44547791109,0.0742554586072,1.92703403668,0.147086818332,-0.0203620197726,-0.204169590034,-0.00416408240376,-0.31974400924,-0.0191782737432,0.129575953568,-0.0440310379989,0.573811885927,0.818971675519,0.00246194391842,0.0,0.818932540201,-0.573748535204,-0.0119523993965,0.0,-0.00837630111305,0.00887476569276,-0.999925535284,0.0,0.650883863488,0.247145479273,0.303595427615,1.0,-0.047196,-0.0620290285714,1.028
0.456675913935,0.486096142003,-0.124233847298,-1.45247915348,0.0739036307757,1.92975047128,0.146022733093,-0.0382491776479,-0.284876525223,-0.00215108803747,-0.462589600759,-0.0237587806541,0.169755674108,-0.0691464811883,0.573704817705,0.81904620305,0.00261654571515,0.0,0.819008621541,-0.573640379724,-0.01193061161,0.0,-0.00827092510258,0.00898779590111,-0.999925402879,0.0,0.650006592663,0.246096437031,0.303580656607,1.0,-0.064332,-0.0845506285714,1.045
0.455731706614,0.479826774077,-0.124417177194,-1.46252429449,0.0733045967878,1.93329241522,0.144487305839,-0.0588819709712,-0.381394350449,-0.0111141596941,-0.610584130775,-0.0310830180265,0.21011080996,-0.0894650220843,0.573684700867,0.819060970504,0.00239530577453,0.0,0.819020517104,-0.573621163645,-0.0120374449814,0.0,-0.00848556665662,0.00886767332761,-0.999924676927,0.0,0.648717917957,0.244412288433,0.303461510328,1.0,-0.082476,-0.108397028571,1.063
0.454560908925,0.472358131426,-0.124588747168,-1.47434301369,0.0725836420219,1.93735065764,0.142770143161,-0.0740593298966,-0.463077674309,-0.00962805649053,-0.734171930563,-0.0457814057806,0.251312206943,-0.0987502263419,0.573737031219,0.819025044109,0.00213143898298,0.0,0.818980902664,-0.573674370355,-0.0121960965181,0.0,-0.00876632535114,0.00874312836335,-0.999923351686,0.0,0.647165099943,0.242412076326,0.303362409982,1.0,-0.099612,-0.130918628571,1.08
0.453347766792,0.464550034391,-0.124715109991,-1.48619553123,0.071898391879,1.9417497576,0.140876921863,-0.0842974174617,-0.534836840937,-0.00698034739193,-0.819341928594,-0.0479577915479,0.297770993721,-0.136135799413,0.573651509618,0.819084071536,0.00244462073996,0.0,0.819043899896,-0.57358739414,-0.012055630577,0.0,-0.00847253446056,0.00891815408659,-0.999924338481,0.0,0.645655006254,0.240442355093,0.303495407728,1.0,-0.114732,-0.150790628571,1.095
0.451663934103,0.454632802022,-0.124868013939,-1.5017578503,0.0709122811777,1.94720385894,0.13847606311,-0.11229182605,-0.609732424871,-0.00431733848754,-0.960592094683,-0.0535099281442,0.317336697679,-0.144653615047,0.573629892256,0.819099711179,0.00227084945551,0.0,0.819057028057,-0.573566265026,-0.0121684557791,0.0,-0.00866486279895,0.00884031538713,-0.999923381553,0.0,0.643458576554,0.237601500004,0.303399301056,1.0,-0.132876,-0.174637028571,1.113
0.449798458029,0.443863467539,-0.125052426342,-1.51798776762,0.0697876382622,1.95305063538,0.13592452504,-0.128587271972,-0.695493454776,-0.00773897667817,-1.05304541083,-0.0652412008035,0.364845466031,-0.15745486288,0.573634122072,0.819096067872,0.00250449468176,0.0,0.819057373092,-0.573570504901,-0.0119432990469,0.0,-0.00834636570101,0.00890258010064,-0.999925538351,0.0,0.641312015419,0.234721148715,0.303548398243,1.0,-0.149004,-0.195833828571,1.129
0.447359108877,0.43047644421,-0.125224033619,-1.53837888679,0.0684560580169,1.9600730215,0.132619694656,-0.140009272324,-0.767972795601,-0.0105299804281,-1.17185446519,-0.0753302407971,0.409691438662,-0.184561328356,0.57358085762,0.819133298231,0.00252713307697,0.0,0.819094521956,-0.573516755572,-0.0119767308393,0.0,-0.00836134685309,0.00893975652393,-0.99992508151,0.0,0.638656939237,0.23129138729,0.3036099072,1.0,-0.16614,-0.218355428571,1.146
0.444667937472,0.416597733419,-0.125421679628,-1.559291824,0.0669950774181,1.96725965875,0.129160408372,-0.164558742377,-0.859602631217,-0.0167341282329,-1.24684228448,-0.0902440619634,0.451744624926,-0.208792151176,0.573580246159,0.819133487799,0.0026033215406,0.0,0.819096009707,-0.573516174946,-0.0119025568032,0.0,-0.00825689482663,0.00895961424733,-0.999925771745,0.0,0.635759749444,0.227448974928,0.303713617318,1.0,-0.183276,-0.240877028571,1.163
0.441810430555,0.40254430833,-0.125586084932,-1.58046502873,0.0655147282239,1.9746189161,0.125580225274,-0.193470843412,-0.878163017984,-0.010467944878,-1.34857231217,-0.0911910016491,0.45577179558,-0.238593820083,0.573564435533,0.819144031757,0.00276413276585,0.0,0.819108804604,-0.573499937891,-0.0118039976586,0.0,-0.00808409990732,0.00903465268473,-0.999926508489,0.0,0.632785019388,0.223519437737,0.303778165946,1.0,-0.199404,-0.262073828571,1.179
0.438179262273,0.385451591595,-0.12580405046,-1.60579501598,0.06371318469,1.98328809952,0.121198274033,-0.208776751901,-0.955989061009,-0.0183620987364,-1.45911452555,-0.113395993292,0.484366433556,-0.254014105655,0.573598146012,0.819119282376,0.0030846444954,0.0,0.819088426005,-0.573532775144,-0.0116212358212,0.0,-0.00775018284347,0.00919269291377,-0.999927711919,0.0,0.62915228441,0.21868989072,0.303965871668,1.0,-0.217548,-0.285920228571,1.197
0.434357997665,0.368221525411,-0.12603060609,-1.63124302884,0.0617980710156,1.99177012417,0.116599220228,-0.233249586325,-1.02570907751,-0.0137271317803,-1.55685951876,-0.11881107048,0.506243829544,-0.267523701337,0.573531607984,0.819165302028,0.00323256834284,0.0,0.819136777678,-0.57346627948,-0.0114940270025,0.0,-0.00756188475001,0.009240281309,-0.999928715009,0.0,0.625383589133,0.213729966,0.304098856646,1.0,-0.234684,-0.308441828571,1.214
0.430574341451,0.352284608085,-0.126228003569,-1.65478560423,0.0599715817325,1.99947116307,0.112293906936,-0.264224683241,-1.07309913927,-0.0152756237855,-1.60246514273,-0.117093941396,0.510978923797,-0.296434767462,0.573569857294,0.819138680519,0.00319183073382,0.0,0.819109973663,-0.573505067007,-0.0114689173187,0.0,-0.00756424833577,0.0091928626492,-0.999929134201,0.0,0.621564648857,0.208665283508,0.304115657673,1.0,-0.250812,-0.329638628571,1.23
0.42551623089,0.332157473844,-0.126506365821,-1.68434038072,0.0577233243996,2.00903473817,0.106647850963,-0.292914081221,-1.13586606677,-0.0138153688024,-1.6674660901,-0.127384447302,0.535186582426,-0.318291324157,0.573619552284,0.819103427333,0.00330627725145,0.0,0.819075816329,-0.573553940962,-0.0114643278442,0.0,-0.00749428617004,0.0092844330981,-0.999928814955,0.0,0.617235529348,0.202931415892,0.304168984876,1.0,-0.267948,-0.352160228571,1.247
0.420343154004,0.312237314711,-0.126714554265,-1.71333482507,0.0553160599041,2.0181857616,0.100882592521,-0.319601386244,-1.16301403305,-0.0212043816734,-1.71376132967,-0.149979392725,0.524450046302,-0.35383606116,0.573475180929,0.819204678308,0.00326478144489,0.0,0.81917686711,-0.573410127103,-0.0114382440974,0.0,-0.00749834869937,0.00923416032528,-0.999929250022,0.0,0.612580748345,0.196897403022,0.30418562115,1.0,-0.285084,-0.374681828571,1.264
0.414256178393,0.29006776882,-0.126968567766,-1.74518126438,0.0526756719238,2.0280191055,0.0943047641292,-0.349494662425,-1.25233427814,-0.0181863450757,-1.75697899926,-0.145437454601,0.550343001488,-0.3782688178,0.573384499654,0.819267912705,0.00332410427425,0.0,0.819240693758,-0.573319067513,-0.0114315099266,0.0,-0.00745984053889,0.00927807072295,-0.99992913158,0.0,0.607332416851,0.190078017243,0.304249270397,1.0,-0.303228,-0.398528228571,1.282
0.408673814374,0.270890832288,-0.127211772307,-1.77256900796,0.0503760775126,2.03630086468,0.0884249266334,-0.390070765542,-1.30763481859,-0.0181864533504,-1.82834469115,-0.169095188584,0.562653152256,-0.401152434915,0.573347467717,0.819293766914,0.00333941006609,0.0,0.819266291026,-0.57328142949,-0.0114845066155,0.0,-0.00749490720998,0.00932065833657,-0.999928473289,0.0,0.602702778218,0.184048822945,0.304254488727,1.0,-0.318348,-0.418400228571,1.297
0.40169493236,0.248304321803,-0.127605915257,-1.80431627785,0.0475500894951,2.04578190843,0.0813635752559,-0.424238628989,-1.34244402654,-0.0194954890872,-1.88710831342,-0.166144960104,0.565242901639,-0.425997718922,0.57346605855,0.819210126031,0.00349227735197,0.0,0.819185173919,-0.573400259772,-0.011337540534,0.0,-0.00728549553731,0.00936269677457,-0.999929628256,0.0,0.597257710476,0.176757726096,0.304349107259,1.0,-0.335484,-0.440921828571,1.314
0.394613461199,0.226373752588,-0.127920961905,-1.83481758016,0.0448053574154,2.0546560027,0.0742077877805,-0.44729890081,-1.38341840802,-0.0134650088253,-1.93713360016,-0.166797923174,0.544697226266,-0.459442377808,0.573437365988,0.819229396781,0.0036782659783,0.0,0.819206776662,-0.573370991658,-0.0112565490913,0.0,-0.0071128218542,0.00946836857226,-0.999929876422,0.0,0.591853065228,0.169657047601,0.304427990987,1.0,-0.351612,-0.462118628571,1.33
0.385925950583,0.200932938428,-0.128264129132,-1.8699242496,0.0414325902191,2.0643820829,0.0655569454429,-0.504722366943,-1.40912781137,-0.0251599278081,-1.97443617168,-0.195021753435,0.528885306213,-0.497884747431,0.573300074761,0.81932578445,0.00360972515592,0.0,0.819302337019,-0.573233970739,-0.0112801705437,0.0,-0.00717305559861,0.00942456032427,-0.999929860008,0.0,0.585403218635,0.161266605805,0.304430832188,1.0,-0.369756,-0.485965028571,1.348
0.376851151476,0.176036753313,-0.128751028292,-1.90358540535,0.0381596574836,2.07342491191,0.0567547094574,-0.558971229546,-1.48680976581,-0.0342395743717,-1.96571046164,-0.20119674004,0.523881080889,-0.525212808535,0.573365754415,0.81927915999,0.00375720263439,0.0,0.819257606182,-0.57329925737,-0.0112108480001,0.0,-0.00703094801979,0.00950621618154,-0.999930096369,0.0,0.579084641085,0.15283827214,0.304539684955,1.0,-0.386892,-0.508486628571,1.365
0.367629023146,0.151963355768,-0.129188900834,-1.93587509651,0.0349158789752,2.08174710688,0.0479421138507,-0.583499083815,-1.50474655688,-0.0258559771047,-2.02618075956,-0.210597047838,0.529682461243,-0.568905260117,0.573384538284,0.819265911466,0.00377947993727,0.0,0.819244270538,-0.573317476742,-0.0112535751965,0.0,-0.00705296443104,0.00954912715262,-0.999929532449,0.0,0.572812010026,0.144602625886,0.30455895693,1.0,-0.40302,-0.529683428571,1.381
0.357013467994,0.12575450401,-0.129666886525,-1.9706242335,0.0312235932635,2.09030947683,0.0379411080233,-0.640496448977,-1.52736591954,-0.0227089936459,-2.08214049299,-0.223705354044,0.495248324301,-0.605681224737,0.573358082542,0.819284820229,0.00369315964933,0.0,0.819261930448,-0.573291065869,-0.0113132671813,0.0,-0.00715167032889,0.00951240142534,-0.999929181408,0.0,0.565849111107,0.135490879957,0.304532675544,1.0,-0.420156,-0.552205028571,1.398
0.345379423983,0.0988079828125,-0.130338466322,-2.00552462141,0.0273246974933,2.09851812591,0.0272009945108,-0.699697501772,-1.59518686683,-0.038233606251,-2.03796776887,-0.238483936109,0.470165020771,-0.640927515817,0.573513750418,0.819175378756,0.0037978708928,0.0,0.819154664019,-0.573447563976,-0.0111478557378,0.0,-0.00695430302646,0.00950467520294,-0.999930647004,0.0,0.558266360517,0.125287904349,0.304650893164,1.0,-0.4383,-0.576051428571,1.416
0.334503246381,0.0746264580321,-0.130792382459,-2.03648654622,0.0238818810734,2.1054351996,0.0170488909053,-0.737088561731,-1.5624347447,-0.0310546768246,-2.03538137611,-0.238516878396,0.461842394167,-0.688794607234,0.57340813308,0.819249357937,0.00378805203882,0.0,0.819227599021,-0.573340737056,-0.0112821600813,0.0,-0.00707119399723,0.00957274343105,-0.999929177891,0.0,0.551642094375,0.116706177362,0.304608976264,1.0,-0.43998,-0.578259428571,1.431
0.319690794063,0.0444002574476,-0.131477120442,-2.07485417909,0.0192436298405,2.11326077023,0.00390520371388,-0.788017955827,-1.57591935622,-0.0369748153336,-2.01335734307,-0.244794635339,0.389264506975,-0.686049044857,0.573660310279,0.819074204374,0.00347030837632,0.0,0.81904788628,-0.573593165213,-0.0114972911077,0.0,-0.00742673238824,0.00943807003665,-0.999927880639,0.0,0.543647980183,0.106090941025,0.304514546946,1.0,-0.43998,-0.578259428571,1.449
0.30589202224,0.017572539254,-0.13193842613,-2.10768936201,0.015223739796,2.11956473952,-0.00834741036316,-0.832914117422,-1.57457637972,-0.0277910990829,-1.87875082495,-0.245851202512,0.345378066864,-0.723810567444,0.573744376265,0.819014450554,0.00366979424209,0.0,0.818990516749,-0.573676387598,-0.0114316529191,0.0,-0.00725755436087,0.00956455740382,-0.999927920975,0.0,0.536193490412,0.0962347705072,0.304663565022,1.0,-0.43998,-0.578259428571,1.466
0.293158016968,-0.00575845803309,-0.132438851024,-2.13572865495,0.0116482204528,2.1246514937,-0.0195818911587,-0.858563859941,-1.53427098732,-0.0296842901404,-1.82695619635,-0.229916071376,0.340496829114,-0.755403784701,0.57389926034,0.818904525115,0.00397046943769,0.0,0.81888508935,-0.573831303043,-0.0112068278124,0.0,-0.00689907518519,0.00968313484287,-0.999929317333,0.0,0.529250866278,0.0868840740715,0.304836949098,1.0,-0.43998,-0.578259428571,1.482
0.277480537761,-0.0334179720072,-0.132830112133,-2.1684506513,0.00730301828877,2.13019554529,-0.0334970481164,-0.884794218088,-1.54032789797,-0.0264786880555,-1.7895723476,-0.248210643723,0.302243577802,-0.781496317189,0.573742297642,0.81901328957,0.00421358572088,0.0,0.818997564023,-0.573674661682,-0.0110054336552,0.0,-0.00659649606118,0.00976538724704,-0.999930559315,0.0,0.521797444081,0.0771449526299,0.304969491236,1.0,-0.43998,-0.578259428571,1.499
0.260983880363,-0.0605728469252,-0.133396495328,-2.20018004747,0.0030010087741,2.13483954082,-0.0479398427881,-0.909273796044,-1.50172692026,-0.021439664576,-1.74903035595,-0.243204648057,0.241941790552,-0.824262326129,0.573874648318,0.818920351921,0.00425348421741,0.0,0.818904731344,-0.573806306017,-0.0110503872183,0.0,-0.00660883816376,0.00982492458923,-0.9999298946,0.0,0.513867238639,0.0666703141839,0.304999484655,1.0,-0.43998,-0.578259428571,1.517
0.245789707022,-0.0843576993546,-0.133885446674,-2.22746329167,-0.000830270617022,2.13834724148,-0.0613390611226,-0.967858116427,-1.47951770672,-0.0403509933898,-1.66765964231,-0.239550348771,0.195047020753,-0.846545054408,0.573863482686,0.818928160399,0.00425655330487,0.0,0.81891216139,-0.573794515196,-0.0111118477583,0.0,-0.00665754628179,0.00986261680657,-0.999929200427,0.0,0.506808443398,0.057401430211,0.305017661824,1.0,-0.43998,-0.578259428571,1.533
0.230100909041,-0.107749538777,-0.134328598633,-2.25392008799,-0.00465298004517,2.14135589294,-0.0751415540639,-0.987095449748,-1.43202107921,-0.0208396784873,-1.66131516585,-0.237583666386,0.162607872416,-0.87290268013,0.573817212303,0.818960794876,0.00421547411451,0.0,0.818943770564,-0.573747614852,-0.011203660449,0.0,-0.00675687053887,0.00988127971774,-0.999928349939,0.0,0.499743830042,0.0481964060867,0.304993494325,1.0,-0.43998,-0.578259428571,1.549
0.212733817824,-0.132155736366,-0.134902812883,-2.28111376338,-0.00873495387355,2.14400692469,-0.0903642757602,-1.03493359454,-1.41432465157,-0.0279723604922,-1.56069730329,-0.226003872941,0.137067593303,-0.898897662845,0.57388107142,0.818916582196,0.00411025211828,0.0,0.818897652906,-0.573810934015,-0.0113310622232,0.0,-0.00692082038868,0.00986874794546,-0.999927352391,0.0,0.492250847542,0.0383338859616,0.304925817779,1.0,-0.43998,-0.578259428571,1.566
0.195896518379,-0.154785860139,-0.135375400846,-2.30590164005,-0.0125582904936,2.14601299121,-0.105352172549,-1.07563917471,-1.43609626478,-0.0377386436957,-1.52942681424,-0.23400719024,0.110666700157,-0.955690269274,0.573689197425,0.819051542342,0.00400282971193,0.0,0.819030676102,-0.573618604384,-0.0114540477325,0.0,-0.0070854942861,0.00984969341331,-0.999926386946,0.0,0.485183351617,0.0291462700797,0.304847993915,1.0,-0.43998,-0.578259428571,1.582
0.177358271116,-0.17837888208,-0.135927808504,-2.33136557889,-0.0165006042956,2.14746359,-0.121747687738,-1.10332162236,-1.37660123778,-0.0297089605433,-1.48791005181,-0.219929954983,0.0619177349217,-0.982042684778,0.573667120451,0.819067957814,0.00380293269486,0.0,0.819042311841,-0.57359419438,-0.011838010316,0.0,-0.0075149395046,0.00990603079782,-0.999922695131,0.0,0.477190059815,0.0188000150982,0.304711076272,1.0,-0.43998,-0.578259428571,1.6
0.156889699811,-0.203043498528,-0.13662532446,-2.35734884319,-0.0207490993607,2.14850475028,-0.139883950586,-1.14653307577,-1.34600494363,-0.030165596626,-1.43534359582,-0.224692630615,0.0331371667034,-1.02077065195,0.573675410019,0.819062811743,0.00365804050855,0.0,0.819034102448,-0.573601480376,-0.012051043073,0.0,-0.00777245341664,0.00990963779192,-0.999920690878,0.0,0.469659148459,0.0089401400644,0.304615666635,1.0,-0.43998,-0.578259428571,1.617
0.138036336929,-0.224691365643,-0.137332953103,-2.37953542014,-0.0244405729327,2.14900081571,-0.156606452013,-1.19519397439,-1.35538393862,-0.047048194439,-1.37216817159,-0.230050164583,0.0130320175382,-1.03769997617,0.573794995475,0.818978739423,0.0037248410659,0.0,0.818950141899,-0.573719819619,-0.0121235540035,0.0,-0.00779206785214,0.0100070864015,-0.999919567715,0.0,0.462596456327,-0.0003628391985,0.304615590872,1.0,-0.43998,-0.578259428571,1.633
0.117350583042,-0.247278791782,-0.138018895394,-2.40215274015,-0.0283598178072,2.14914378863,-0.175055438122,-1.24227914721,-1.32870636649,-0.0560374055451,-1.31601195546,-0.232210554615,0.0175304132009,-1.10138459318,0.573805719405,0.818970608189,0.00385826407399,0.0,0.818944091801,-0.573730478143,-0.0120274625324,0.0,-0.00763668164293,0.0100613230707,-0.999920222254,0.0,0.45513057236,-0.0101992147382,0.304663068078,1.0,-0.43998,-0.578259428571,1.65
0.0946394269385,-0.270605229828,-0.13875632481,-2.42503092497,-0.0324152421589,2.1488774912,-0.195370872041,-1.26756454626,-1.28607518995,-0.0409732176275,-1.23759890219,-0.22442507345,-0.00550291856359,-1.14232038568,0.573851630279,0.818937491196,0.00405448406976,0.0,0.818914170762,-0.573776539837,-0.0118663456569,0.0,-0.00739156981218,0.0101299912942,-0.999921370895,0.0,0.447259953467,-0.0206210633086,0.30471964976,1.0,-0.43998,-0.578259428571,1.668
0.0751657817555,-0.289652703639,-0.139441945473,-2.4433496697,-0.0357026456663,2.14815867778,-0.212959939931,-1.301224456,-1.2632509178,-0.0390332195623,-1.198286809,-0.21304881438,-0.0635322471472,-1.17177919324,0.573867041498,0.818926022378,0.00418753584293,0.0,0.818904054398,-0.573790966532,-0.0118669001014,0.0,-0.00731548390506,0.010239410073,-0.999920815953,0.0,0.440655860406,-0.0292903251898,0.304754941915,1.0,-0.43998,-0.578259428571,1.683
0.0523829802915,-0.310689291483,-0.140211208426,-2.46305526399,-0.039428082928,2.14710165532,-0.23361851361,-1.35980517164,-1.23820635406,-0.035469963139,-1.15807650406,-0.215925595392,-0.0681303982997,-1.23711199633,0.573862750354,0.818927710477,0.00443798049913,0.0,0.818910281979,-0.573787724354,-0.0115907010652,0.0,-0.00694562127956,0.0102859774907,-0.99992297554,0.0,0.432810315613,-0.0397157025787,0.304872953678,1.0,-0.43998,-0.578259428571,1.701
0.0275310908303,-0.332207582434,-0.141026483951,-2.48289894049,-0.0432030897742,2.14550787118,-0.256227901317,-1.38982702737,-1.17247112072,-0.0344481347668,-1.08967817423,-0.215655029844,-0.100833634547,-1.2743380422,0.573887310453,0.818909534194,0.00461265736132,0.0,0.818894637996,-0.573812181384,-0.0114847402148,0.0,-0.00675829439526,0.0103684266776,-0.999923407659,0.0,0.425400819888,-0.0495135271133,0.304943071591,1.0,-0.43998,-0.578259428571,1.718
0.00469901768016,-0.350711542709,-0.141801422491,-2.49977968769,-0.0465457158726,2.14373163294,-0.277148634686,-1.44252085637,-1.14797623251,-0.0483204093843,-1.02804820904,-0.215127315612,-0.117899554313,-1.31854097701,0.573881853276,0.818913244143,0.00463292018514,0.0,0.818898128283,-0.573805927857,-0.0115481406346,0.0,-0.00679865914061,0.0104213586608,-0.999922583762,0.0,0.418350019586,-0.0587761196156,0.304931045369,1.0,-0.43998,-0.578259428571,1.734
-0.0202629261387,-0.369688436228,-0.142665654607,-2.51676550285,-0.0499888509744,2.14159154659,-0.300116101071,-1.48751757924,-1.08660288374,-0.057330654329,-0.981461363279,-0.209567445358,-0.127803137753,-1.37015136941,0.573922423169,0.81888449442,0.00468869745657,0.0,0.818869579973,-0.573845524312,-0.0116048319078,0.0,-0.00681256002221,0.0104999071216,-0.99992166742,0.0,0.410863637362,-0.068623661729,0.304923654008,1.0,-0.43998,-0.578259428571,1.751
-0.0474621175649,-0.389028880143,-0.143551375963,-2.53370524582,-0.053471717089,2.13906086779,-0.325240090785,-1.53211906877,-1.06434083525,-0.054167474579,-0.906895696066,-0.182748484749,-0.140331790921,-1.41655294975,0.573987105099,0.818838517018,0.00479928423243,0.0,0.818824524276,-0.573909062416,-0.0116418822585,0.0,-0.00677859939878,0.0106122662429,-0.999920712054,0.0,0.402933726266,-0.0790171156568,0.304935906969,1.0,-0.43998,-0.578259428571,1.769
-0.0707853750732,-0.404437325178,-0.144324645833,-2.54712257666,-0.0563178486292,2.13674824486,-0.346913144087,-1.56652098534,-1.02440819323,-0.0632209290528,-0.894801648856,-0.194176624555,-0.156950027355,-1.44262153357,0.574029273799,0.818809021423,0.00478812689963,0.0,0.818793514678,-0.573949133173,-0.0118456638315,0.0,-0.00695132896101,0.0107204514616,-0.999918372142,0.0,0.396259158245,-0.0876945378838,0.304869112408,1.0,-0.43998,-0.578259428571,1.784
-0.0994405356428,-0.422067064035,-0.145223980267,-2.561798166,-0.0595724194508,2.1339742684,-0.373735766922,-1.62602278903,-0.960317026291,-0.0555255271978,-0.813255269808,-0.174246967012,-0.154493080192,-1.49811677888,0.574041641697,0.818798937539,0.00502398096311,0.0,0.818787851209,-0.573962896808,-0.0115669659761,0.0,-0.00658756761579,0.0107537017578,-0.999920477764,0.0,0.388422170955,-0.0981124097911,0.304995262107,1.0,-0.43998,-0.578259428571,1.802
-0.127145338125,-0.437595728063,-0.146039126946,-2.57490941823,-0.0625595287362,2.13104660943,-0.399856977871,-1.64583284715,-0.886567741607,-0.0477830304238,-0.751390043427,-0.184539118984,-0.169312853039,-1.52530673454,0.573956219528,0.81885943749,0.00492205240062,0.0,0.818845068745,-0.573874685762,-0.0118888743604,0.0,-0.00691080875094,0.0108543006976,-0.999917209012,0.0,0.380882224426,-0.107880818551,0.304899517742,1.0,-0.43998,-0.578259428571,1.819
-0.153859321126,-0.45146295971,-0.146797331498,-2.58599292725,-0.0651956330116,2.12851783743,-0.425138082417,-1.67304965871,-0.849725833438,-0.0454757838951,-0.684657264734,-0.166762946435,-0.145765480366,-1.58501117563,0.573940372608,0.818869204844,0.005140131358,0.0,0.818859676158,-0.573861388913,-0.011518853168,0.0,-0.00648283602877,0.0108203895045,-0.999920442839,0.0,0.373949392979,-0.117131605607,0.305040013868,1.0,-0.439308,-0.577376228572,1.835
-0.182535233075,-0.464752050573,-0.147314883245,-2.59693454609,-0.067682637067,2.12569086482,-0.452523824542,-1.66972491484,-0.742571978798,-0.0172207188436,-0.624801228889,-0.156423305904,-0.145752393454,-1.61396037064,0.573687891677,0.81904641587,0.00509102098601,0.0,0.819034466994,-0.573606174558,-0.0118002239685,0.0,-0.0067448199342,0.0109395778903,-0.99991741311,0.0,0.366563649774,-0.126703847036,0.304944206083,1.0,-0.422172,-0.554854628572,1.852
-0.211238722556,-0.476625284012,-0.147594719058,-2.60632895984,-0.0697807874426,2.12309809288,-0.479562838226,-1.677398728,-0.670288651172,0.0039064855485,-0.521045027173,-0.130846835656,-0.147922618343,-1.58013568535,0.573808425799,0.818961324442,0.00519484854974,0.0,0.818950927092,-0.573726669648,-0.0117402917672,0.0,-0.00663454947289,0.0109912159882,-0.999917584566,0.0,0.359489789326,-0.136063611762,0.304984668635,1.0,-0.405036,-0.532333028572,1.869
-0.237787041187,-0.48648168206,-0.147704546671,-2.61409153093,-0.0713669955942,2.12081879154,-0.504690187748,-1.63924550584,-0.577306337044,0.0148253786146,-0.464529379515,-0.0956472061565,-0.148315652443,-1.57056708247,0.573913321138,0.818886795849,0.0053537189464,0.0,0.818877918049,-0.573830096629,-0.0117780488684,0.0,-0.00657289018734,0.0111438359206,-0.999916302515,0.0,0.353063597527,-0.144505353389,0.304994429845,1.0,-0.388908,-0.511136228572,1.885
-0.265498312991,-0.495574591476,-0.147576166056,-2.62126056313,-0.072669794582,2.11856842018,-0.530902380757,-1.61409655197,-0.508329460695,0.0200658729237,-0.388373212969,-0.0774009406653,-0.132373181472,-1.5294447889,0.574061864786,0.81878153586,0.00552438538844,0.0,0.818773525457,-0.573975685717,-0.0119403985794,0.0,-0.00660584217905,0.0113779670364,-0.999913448612,0.0,0.346484301627,-0.153093221284,0.304967446779,1.0,-0.371772,-0.488614628572,1.902
-0.293831797253,-0.503725829568,-0.147307357515,-2.62758076269,-0.0738610301425,2.11657882191,-0.55789853714,-1.55616042434,-0.409254829596,0.0193397670165,-0.322904756647,-0.0590229686001,-0.109311397645,-1.48009622209,0.574071633564,0.818773772348,0.00565828184719,0.0,0.818767539718,-0.573985008254,-0.0119026511839,0.0,-0.00649793476338,0.0114660126722,-0.999913149927,0.0,0.339912329468,-0.161745937118,0.304976903987,1.0,-0.353628,-0.464768228572,1.92
-0.318325088865,-0.509845383125,-0.14696298512,-2.63217269084,-0.0746410956113,2.11508835458,-0.581229248936,-1.51443551044,-0.361210610754,0.0178195731578,-0.26920249854,-0.045504642534,-0.0891296450007,-1.43440467585,0.574162880675,0.818708483687,0.00584397935736,0.0,0.818705672474,-0.574077382544,-0.0117016072244,0.0,-0.00622542859306,0.0115033490373,-0.999914454841,0.0,0.334370971216,-0.169132271358,0.305044693513,1.0,-0.3375,-0.443571428572,1.936
-0.343473853287,-0.515228912511,-0.146400006563,-2.63637540328,-0.0752189920755,2.11355302235,-0.605240666555,-1.45968683456,-0.299045440435,0.0493006633406,-0.23110243278,-0.0336418016132,-0.101268129907,-1.4001480038,0.574188915026,0.81868953046,0.00594049468072,0.0,0.818686818488,-0.57410092106,-0.0118647618587,0.0,-0.00630323420419,0.011676244233,-0.999911963404,0.0,0.328687554035,-0.176539048977,0.305009048667,1.0,-0.320364,-0.421049828572,1.953
-0.367588130033,-0.519585390813,-0.14564478151,-2.63984656319,-0.0756478056572,2.11230646189,-0.628268272021,-1.39686587526,-0.22842984038,0.0627119147575,-0.191240407757,-0.0305329601212,-0.0713285863715,-1.33212703056,0.574158201757,0.818710946952,0.00595748243516,0.0,0.818707485633,-0.574068357049,-0.0120133802679,0.0,-0.00641560730186,0.0117752429868,-0.999910087776,0.0,0.323614374611,-0.183125673531,0.304954043953,1.0,-0.304236,-0.399853028572,1.969
-0.387996892889,-0.522647512589,-0.145012314234,-2.64221181266,-0.0758642548414,2.11142661007,-0.647795773811,-1.34027555032,-0.186326536936,0.0538115578829,-0.147994713083,-0.0217077331913,-0.0638089810809,-1.27783070385,0.574182324341,0.818693593235,0.00601711825845,0.0,0.818690684356,-0.574091812991,-0.0120374626256,0.0,-0.00640073843447,0.0118380848542,-0.999909441047,0.0,0.318831363691,-0.189422997825,0.304941389852,1.0,-0.288108,-0.378656228572,1.985
-0.41132730796,-0.5254833234,-0.144092382389,-2.64440160111,-0.0759660173418,2.11059015279,-0.670212353806,-1.28580304717,-0.139089940743,0.033055551198,-0.105915235303,-0.00183289443227,-0.0426475465803,-1.23646212662,0.574101886568,0.818749736247,0.00605310956558,0.0,0.818747309596,-0.574011265496,-0.0120273444746,0.0,-0.00637295473355,0.011861116688,-0.99990934557,0.0,0.313780115174,-0.1960846516,0.304938684438,1.0,-0.269964,-0.354809828572,2.003
-0.432179661765,-0.527410302271,-0.143115899497,-2.64594952131,-0.0759748155294,2.10998688051,-0.690265702691,-1.21358276177,-0.103619794104,0.0578504702308,-0.0879247074312,-0.00910469256845,-0.0270992374077,-1.15157920602,0.573968157491,0.818843847097,0.00600459483437,0.0,0.818840613591,-0.573877445595,-0.0120612549908,0.0,-0.00643050669929,0.0118398103757,-0.999909229617,0.0,0.309302915103,-0.201973111115,0.304914830415,1.0,-0.252828,-0.332288228572,2.02
-0.450736663883,-0.528691050556,-0.142247004162,-2.64701105722,-0.0759125091597,2.10953999617,-0.70804493934,-1.12985226349,-0.0714008023446,0.0528006639133,-0.061193937038,0.00601061972414,-0.0248942992072,-1.10171638956,0.573954057696,0.818853983713,0.00596991733088,0.0,0.818849918088,-0.573862801283,-0.0121261639374,0.0,-0.00650376938212,0.011848555435,-0.999908652187,0.0,0.305321408945,-0.207193171359,0.304885514606,1.0,-0.2367,-0.311091428572,2.036
-0.46834066936,-0.529560376836,-0.141333736122,-2.6477429458,-0.0758614703816,2.10918365222,-0.72481114912,-1.07487407371,-0.0502553087399,0.0616943595578,-0.0394900229243,0.00240746046713,-0.0245325132746,-1.02301847503,0.573973625805,0.818841154368,0.00584702438338,0.0,0.818835243117,-0.573882463613,-0.012186446935,0.0,-0.00662338703865,0.0117826756184,-0.999908645477,0.0,0.301554993567,-0.21211566324,0.304864296454,1.0,-0.220572,-0.289894628572,2.052
-0.487765411852,-0.53010878056,-0.14023506546,-2.64820527402,-0.075529088329,2.10893088452,-0.743364932751,-1.00739795465,-0.0218026741756,0.0544263155789,-0.0158477922527,0.0210425518194,-0.0134492583051,-0.943655538858,0.574025973439,0.818804363338,0.00586031543769,0.0,0.818798593042,-0.573934684458,-0.0121897050835,0.0,-0.00661767282933,0.0117958524684,-0.999908527952,0.0,0.297448978322,-0.217502283029,0.304862284906,1.0,-0.20142,-0.264723428572,2.071
-0.502774720035,-0.530267592929,-0.139142485089,-2.64833696653,-0.0751252487208,2.10881097559,-0.757839650333,-0.910057590967,-0.00841385625926,0.0757918901764,-0.00674746334654,0.03359853165,-0.00687105166495,-0.869584867882,0.573857454107,0.81892257726,0.00584651350398,0.0,0.818916902772,-0.573766751518,-0.012147761431,0.0,-0.00659366798672,0.0117591185781,-0.999909119207,0.0,0.294331451491,-0.221591096371,0.30487946865,1.0,-0.185292,-0.243526628572,2.087
-0.517704869918,-0.530240526776,-0.13809089247,-2.64833144439,-0.0746440010485,2.1087739243,-0.771955453907,-0.84843359432,0.0076710074057,0.0633107000441,0.00291330316915,0.0274811599844,-0.00297273746269,-0.810591258507,0.573988090343,0.818830671534,0.00589494711452,0.0,0.818826027312,-0.57389787069,-0.0120796488321,0.0,-0.00650821467152,0.0117607371228,-0.999909660021,0.0,0.291218870907,-0.225652099633,0.304897076853,1.0,-0.168156,-0.221005028572,2.104
-0.531081444479,-0.530007216113,-0.136853268283,-2.64821722172,-0.0740795234588,2.10877952362,-0.784808777953,-0.765049653311,0.0168569522599,0.0736574688746,0.00572173235623,0.0318500323882,-0.00620125293268,-0.729670153488,0.573791248173,0.81896869792,0.0058840674007,0.0,0.818963981683,-0.573701240422,-0.0120677398671,0.0,-0.00650752972939,0.0117434288853,-0.999909867906,0.0,0.288478602728,-0.229195799485,0.304897205953,1.0,-0.15102,-0.198483428572,2.121
-0.542735392452,-0.529666522338,-0.135841185839,-2.64801246433,-0.0735463657973,2.10879937322,-0.795750400322,-0.70764583974,0.0234579664278,0.0605991191851,0.0144128083531,0.0331421833986,0.000746702181799,-0.661506726583,0.573899997434,0.818892189845,0.00592631901563,0.0,0.818887900443,-0.573809565575,-0.0120803917281,0.0,-0.00649208488932,0.0117861546378,-0.999909465598,0.0,0.286072304764,-0.232291485103,0.304894345326,1.0,-0.134892,-0.177286628572,2.137
-0.553626484322,-0.529140484187,-0.134605082142,-2.64771302973,-0.0728909123578,2.10889462171,-0.806148344186,-0.618269904221,0.0325553104549,0.0654027913582,0.0222500127208,0.0391395019187,0.00520145685925,-0.578006954204,0.573728796808,0.819012067303,0.00593702178764,0.0,0.819007730768,-0.573638015964,-0.0121041515783,0.0,-0.00650787010474,0.0118071943883,-0.999909114764,0.0,0.283897915232,-0.23510895947,0.304878882785,1.0,-0.117756,-0.154765028572,2.154
-0.563472925605,-0.528609293884,-0.133515736605,-2.64740227293,-0.0722914853891,2.10899122531,-0.815223543025,-0.558278666712,0.0338224690536,0.0655620370265,0.0144673242404,0.0353822495092,0.00776630577873,-0.495420216181,0.573865290412,0.818916275754,0.0059589149629,0.0,0.818912015102,-0.573774006399,-0.0121345788282,0.0,-0.00651825908646,0.0118436686907,-0.99990861573,0.0,0.28191365835,-0.237654428022,0.304862628144,1.0,-0.10062,-0.132243428572,2.171
-0.571564402349,-0.52807996456,-0.132492995786,-2.64705456735,-0.0717229882292,2.10908843125,-0.822608154718,-0.472332734945,0.0348519631073,0.0682378905545,0.020478067804,0.032269049326,0.0103302837826,-0.429590374777,0.573984400334,0.818832739096,0.00596661200022,0.0,0.818828553998,-0.573893012938,-0.0121390181113,0.0,-0.00651575396059,0.0118534675236,-0.999908515944,0.0,0.280321206262,-0.239719133682,0.304861860097,1.0,-0.0844920000001,-0.111046628572,2.187
-0.579064233808,-0.527499628785,-0.131266124961,-2.64672139332,-0.0710119670701,2.1091850905,-0.829529294925,-0.397878162251,0.0290486757532,0.0649238394128,0.01596476728,0.041757248136,0.00210123992605,-0.353430171834,0.573914299353,0.818881717213,0.00598808099075,0.0,0.81887734964,-0.573821991019,-0.0122047437569,0.0,-0.00655827523643,0.0119082101231,-0.999907587509,0.0,0.278904727624,-0.24154170372,0.304840681979,1.0,-0.0663480000001,-0.0872002285716,2.205
-0.585045923798,-0.527071382267,-0.130121797497,-2.64643027906,-0.0703710123937,2.10928048344,-0.834738915797,-0.319902754866,0.0247422209745,0.0738096038363,0.0156697888888,0.0376119407394,0.00863923298138,-0.274320097589,0.574027807033,0.818802210173,0.00598032356655,0.0,0.818797949316,-0.57393588729,-0.0121763039329,0.0,-0.00653778813221,0.0118864425677,-0.999907980671,0.0,0.27781630737,-0.242952616821,0.304853401161,1.0,-0.0492120000001,-0.0646786285716,2.222
-0.589354797827,-0.526672629102,-0.129029451264,-2.64616352341,-0.0696930993629,2.10938804094,-0.838435965425,-0.24397334434,0.0300561012515,0.070457917231,0.0171585887589,0.0433527923865,0.0116806762359,-0.211472175151,0.574060887747,0.818778766965,0.00601455129059,0.0,0.818775158334,-0.573969185895,-0.0121392190694,0.0,-0.00648729261428,0.0118934450465,-0.999908226289,0.0,0.277118601407,-0.243899337042,0.3048653048,1.0,-0.0330840000001,-0.0434818285716,2.238
-0.592686703705,-0.526356817458,-0.127861949276,-2.64601505794,-0.0690069311811,2.10942681753,-0.841147846967,-0.174099752899,0.0160755869549,0.0717160869328,0.00723721389854,0.046483002585,0.0015024929854,-0.142324902453,0.574044790306,0.818789992132,0.00602282390062,0.0,0.8187860158,-0.573952184908,-0.0122105147844,0.0,-0.00654116030475,0.0119410162859,-0.99990730838,0.0,0.276634713266,-0.244519302759,0.304849466381,1.0,-0.0199,-0.0261542857143,2.255
-0.595192121108,-0.526181049874,-0.12695743484,-2.64589160317,-0.0684801834833,2.10942804441,-0.8431587872,-0.126104339752,0.0105596831982,0.0510151274341,0.00671187300109,0.0276159831686,0.00223159655481,-0.108579051058,0.574041763493,0.81879208605,0.0060266481484,0.0,0.818788104131,-0.573949040119,-0.0122182969463,0.0,-0.00654538194363,0.011948590585,-0.999907190272,0.0,0.276276007337,-0.244977815926,0.3048635805,1.0,-0.01954,-0.0256811428571,2.273
-0.5968367173,-0.52603618204,-0.126382600896,-2.64573540822,-0.0682668629024,2.10947816328,-0.844662314697,-0.111148367373,0.00908374801705,0.026202038907,0.00986796499369,0.0156691036471,0.0060646239111,-0.0957593854955,0.573850105675,0.818927213528,0.00591794395345,0.0,0.818922467126,-0.573759090238,-0.0121345006838,0.0,-0.00654192464604,0.0118099491405,-0.999908860008,0.0,0.276050809888,-0.245321229239,0.304899774913,1.0,-0.01924,-0.0252868571429,2.288
-0.59845702158,-0.525824246703,-0.126003465021,-2.64553139627,-0.068089804535,2.10960411521,-0.84618551272,-0.0906234063654,0.00856026357493,0.0148814693563,0.0108760836989,0.0121763764264,0.0104755418593,-0.0898379259682,0.573747742607,0.818999301813,0.00586671842926,0.0,0.818994830318,-0.573658665694,-0.0119979201797,0.0,-0.00646091877698,0.0116888167295,-0.999910810069,0.0,0.275810630123,-0.245726598092,0.304934844892,1.0,-0.0189,-0.02484,2.305
-0.600117721298,-0.525603472123,-0.12585272819,-2.64538328024,-0.0679574136594,2.10963215652,-0.847821138989,-0.0959786538632,0.00752820847054,0.00997424862819,0.00652729083775,0.0025469232067,-4.68394598793e-05,-0.0860552144996,0.573726169331,0.819014142024,0.00590463291595,0.0,0.819009927837,-0.573636513238,-0.0120264577555,0.0,-0.00646285037222,0.0117360724728,-0.999910244056,0.0,0.275479504423,-0.246172601142,0.304927384258,1.0,-0.01854,-0.0243668571429,2.323
-0.60158357063,-0.525456954904,-0.125773993533,-2.6452858625,-0.0679264075486,2.10963444678,-0.849135693919,-0.0893282439685,0.0104256438998,0.00250289431852,0.00666114085944,0.000880104680777,5.86526575438e-05,-0.0740772806897,0.573812935371,0.818953416275,0.00589610664548,0.0,0.818948866977,-0.573722890976,-0.0120641845185,0.0,-0.00649739887093,0.0117514212396,-0.999909839889,0.0,0.275157609368,-0.246576905763,0.304920081085,1.0,-0.01822,-0.0239462857143,2.339
-0.603022076272,-0.52529762314,-0.125715175411,-2.64514889929,-0.0678804447868,2.10964074572,-0.850577801127,-0.081943564021,0.00954026588523,0.00392067449223,0.00588759955255,0.00626648652942,-0.00081367240113,-0.0863372228687,0.573795205262,0.818965755922,0.00590761771275,0.0,0.818961301952,-0.573705017277,-0.0120700437915,0.0,-0.00649584768095,0.0117640700431,-0.999909701233,0.0,0.274848932304,-0.246986235485,0.304925927514,1.0,-0.01788,-0.0234994285714,2.356
-0.604395368905,-0.525128411712,-0.125702108922,-2.64500620058,-0.0678470240511,2.10967532548,-0.851914834689,-0.0805689196488,0.012805402582,-0.000427688496735,0.00744571277508,-0.000493681644228,-0.00172778403487,-0.0755694064306,0.57383741789,0.818936033976,0.00592764583927,0.0,0.818931928791,-0.573747296682,-0.0120533173036,0.0,-0.00647004966142,0.0117712095511,-0.999909784472,0.0,0.274551096109,-0.247393951013,0.304932066811,1.0,-0.01754,-0.0230525714286,2.373
-0.605677712137,-0.525019103911,-0.125709213957,-2.6448879287,-0.0678284200451,2.10969525965,-0.853220757887,-0.0814054400945,0.00692982627311,0.00230893178439,0.0081903207657,0.000829947535088,-0.00188874992672,-0.0889317442052,0.573837139162,0.818936077197,0.00594862044934,0.0,0.818932455823,-0.57374731516,-0.012016573862,0.0,-0.00642792460565,0.0117673012779,-0.999910102162,0.0,0.274262886348,-0.247775479555,0.304947309828,1.0,-0.01722,-0.022632,2.389
-0.60710658698,-0.524931792348,-0.125715228879,-2.644794097,-0.0678062667674,2.10970529995,-0.854581555601,-0.0753954761304,0.00341334724679,-0.000669342547525,0.00295056091794,0.00033566632794,0.000772519232993,-0.0702268421272,0.573911407103,0.818883832777,0.00597596135621,0.0,0.818880702774,-0.573821703935,-0.0119913976595,0.0,-0.00639054838554,0.0117758260601,-0.999910241378,0.0,0.273931336924,-0.248189208589,0.304958686693,1.0,-0.01686,-0.0221588571429,2.407
-0.608411827133,-0.524828769747,-0.12571163202,-2.64470756427,-0.0677854055348,2.10971811825,-0.855866148112,-0.0738419413744,0.00936093375922,0.00635387839412,0.00589989983059,0.000408627502131,-0.000351477053117,-0.0859782572404,0.573939219858,0.818864186198,0.00599694682389,0.0,0.818861335434,-0.573849436005,-0.0119868690643,0.0,-0.00637439595566,0.0117906291702,-0.999910170035,0.0,0.273630126125,-0.248564957083,0.304961449197,1.0,-0.01652,-0.021712,2.424
-0.60950090416,-0.524698200524,-0.125697854953,-2.64462444395,-0.0677615029717,2.10973963626,-0.856970597518,-0.0730937105427,0.00528021739185,0.00161930512142,0.00867496054113,0.00374682452326,0.000671103022614,-0.0777398481898,0.573931604459,0.818869406412,0.00601294817104,0.0,0.818866625114,-0.573841499165,-0.0120054575408,0.0,-0.00638054554253,0.0118143415471,-0.999909850923,0.0,0.273384553714,-0.248878520655,0.304953545441,1.0,-0.01622,-0.0213177142857,2.439
-0.610678099569,-0.524533766121,-0.125635545369,-2.64451261109,-0.0677407031935,2.10976963821,-0.858171618694,-0.0676482232525,0.00896676393633,0.00389307320559,0.0118027357453,0.000447712525454,0.000908684714539,-0.0687259696537,0.573879448683,0.8189060625,0.00599883996787,0.0,0.818902982336,-0.573789200118,-0.0120252339447,0.0,-0.00640559072094,0.0118137300176,-0.999909698018,0.0,0.273119965518,-0.249231427658,0.304945139172,1.0,-0.01586,-0.0208445714286,2.457
-0.61189485443,-0.524334696207,-0.125522388363,-2.64440630855,-0.0677115723436,2.10981097727,-0.859453452195,-0.0681106846893,0.00850658061268,0.0043542370925,0.00736731900039,0.00119993465957,0.000143822540555,-0.0759854228359,0.57376796984,0.818984396142,0.00596846400414,0.0,0.818980698762,-0.573677465055,-0.012063500483,0.0,-0.00645596965565,0.0118099343798,-0.99990941885,0.0,0.272884087819,-0.249545348,0.304929710995,1.0,-0.01552,-0.0203977142857,2.474
-0.612957590822,-0.524164614764,-0.125444183701,-2.6443213758,-0.0676895700784,2.10982940244,-0.860596004328,-0.066975571866,0.00975949605871,0.00139763286099,0.000402689209518,0.000605407024035,-0.000409890492658,-0.0748453556979,0.573661459379,0.819059129809,0.00595136969915,0.0,0.819054833545,-0.573570364358,-0.0121228577081,0.0,-0.00651593345036,0.0118291421106,-0.999908802846,0.0,0.272656254443,-0.249836124627,0.30490938707,1.0,-0.0152,-0.0199771428571,2.49
-0.614067926189,-0.523975382688,-0.125388738907,-2.64421560974,-0.0676656987493,2.10985357025,-0.861724643356,-0.0686977812807,0.00762957342924,0.00369245305071,0.00354918938016,-2.33629917953e-05,-4.10501172086e-05,-0.0616253062572,0.573623278988,0.819085919231,0.00594454552138,0.0,0.819081197124,-0.573531611763,-0.0121749631235,0.0,-0.00656308244725,0.0118531359401,-0.999908210346,0.0,0.272417084593,-0.250150200687,0.304891449066,1.0,-0.01486,-0.0195302857143,2.507
-0.615180635533,-0.523815923753,-0.125387178449,-2.64411561089,-0.0676428536533,2.10987042993,-0.86286986618,-0.0659949697514,0.011091558028,-0.000632375934592,0.00290116127049,0.00162810697174,-0.000209298961913,-0.0729807303324,0.573610728986,0.819094557745,0.00596522972706,0.0,0.819089848321,-0.573518507741,-0.012210182502,0.0,-0.00658025107526,0.0118901797212,-0.999907657697,0.0,0.272163745089,-0.250474948546,0.304879896977,1.0,-0.01452,-0.0190834285714,2.524
-0.616251276867,-0.523703437836,-0.125394815243,-2.64403885425,-0.0676191618397,2.10988591145,-0.863904197727,-0.0678504209087,0.00397063209526,0.00442820987424,0.00581121661264,8.77722096677e-05,-0.000503609598749,-0.063238728426,0.573660103182,0.819059780083,0.00599245930881,0.0,0.81905531344,-0.573567545116,-0.0122234044681,0.0,-0.00657474538479,0.0119204646118,-0.99990733333,0.0,0.271914050358,-0.250784774197,0.304874671954,1.0,-0.0142,-0.0186628571429,2.54
-0.617454148663,-0.523626623266,-0.125397475075,-2.64395457117,-0.0675969069251,2.10990038557,-0.864980251826,-0.0628978107612,0.00815879936347,-0.000129965786009,0.00583680418979,0.00241448490278,0.0010784305019,-0.0565208083998,0.57377964551,0.818975871984,0.00601551389356,0.0,0.8189718844,-0.5736872825,-0.0121943167816,0.0,-0.0065359532384,0.0119236170758,-0.999907550062,0.0,0.271634158376,-0.25113162768,0.304885981805,1.0,-0.01384,-0.0181897142857,2.558
-0.618587469986,-0.523551447956,-0.125394558456,-2.64382944893,-0.067569976808,2.10992021125,-0.866143427846,-0.0634496900747,0.00284348147315,0.000129901154417,0.00691062282452,0.00159089901233,0.000364991890519,-0.0641974110192,0.573770812478,0.818981912727,0.0060355841106,0.0,0.81897866616,-0.573679240844,-0.012116926198,0.0,-0.00646117848109,0.0118955822406,-0.99990836995,0.0,0.271383479347,-0.251468490305,0.304917044037,1.0,-0.01348,-0.0177165714286,2.576
-0.619491625283,-0.523436443373,-0.125377687543,-2.64369996463,-0.0675454516392,2.10995643371,-0.867072089663,-0.0587453685321,0.00624359966936,-0.000733511086789,0.00753975364491,0.00487517058017,-3.09562828422e-05,-0.0645258930243,0.573755848436,0.818992347912,0.00604213110878,0.0,0.818989541927,-0.57366490754,-0.0120603056211,0.0,-0.00641126287,0.0118683415755,-0.999909014949,0.0,0.271195591562,-0.251742756727,0.304937201873,1.0,-0.01318,-0.0173222857143,2.591
-0.620532645393,-0.523275392681,-0.125320915305,-2.64354160552,-0.067524371315,2.1100312907,-0.868123424132,-0.0542417783815,0.0117656532268,0.00357631734599,0.00818783809235,0.000233398665409,0.00440433924397,-0.0577000700691,0.573724354136,0.819014566107,0.00602103613032,0.0,0.819012005147,-0.573634471617,-0.0119822910234,0.0,-0.00635991945246,0.0118060603559,-0.999910080139,0.0,0.270993078558,-0.252057117915,0.304957822969,1.0,-0.01282,-0.0168491428571,2.609
-0.621499876753,-0.52312885628,-0.1252702572,-2.64340732534,-0.0674985479506,2.11004488901,-0.869095798944,-0.053046504583,0.00516704953222,0.00634538795406,0.00700404393766,0.00291995396521,0.00138069728597,-0.0647863567516,0.573702269519,0.819030089498,0.00601376312919,0.0,0.819027487703,-0.573612521316,-0.0119748351906,0.0,-0.00635830292374,0.0117956545362,-0.999910213228,0.0,0.27079266169,-0.252338120551,0.304967447873,1.0,-0.01248,-0.0164022857143,2.626
-0.622373582296,-0.522981715654,-0.125223903575,-2.64332563913,-0.0674818921144,2.11004357681,-0.870005783137,-0.0545049927876,0.00784357978911,0.0033819504242,0.00288719679156,4.08954958177e-05,0.000119580834612,-0.0584668949928,0.573651374945,0.819065781775,0.00600766600594,0.0,0.819062712024,-0.573560943875,-0.0120359600171,0.0,-0.00641260387848,0.0118253278986,-0.999909515972,0.0,0.27059902921,-0.252580386785,0.304951558474,1.0,-0.01216,-0.0159817142857,2.642
-0.623220681753,-0.52284681281,-0.125199097605,-2.64329503437,-0.0674575139799,2.11005201393,-0.870846977915,-0.0490186288135,0.00906555628746,0.00222956405042,0.00328994084684,0.00264956923574,0.000917930777093,-0.0529160400592,0.573651123424,0.819065842823,0.00602333924773,0.0,0.819062381768,-0.57355952951,-0.0121255013158,0.0,-0.00647696503152,0.0118895269526,-0.999908339836,0.0,0.270397834992,-0.25280805564,0.304917267755,1.0,-0.01184,-0.0155611428571,2.658
-0.624172670925,-0.5227212734,-0.125183576994,-2.64326118623,-0.0674383208229,2.11007702255,-0.871769198641,-0.0523203500271,0.00755765239964,-0.00085766522757,0.0070866668225,0.00261353195682,0.00284138493527,-0.0429489959947,0.573674878348,0.819049093757,0.00603844926109,0.0,0.819045423844,-0.57358246823,-0.0121857588952,0.0,-0.00651731162686,0.0119366578039,-0.999907516148,0.0,0.270171155004,-0.253069729955,0.304889076278,1.0,-0.01148,-0.015088,2.676
-0.625002335353,-0.522626230378,-0.125164939464,-2.64321344357,-0.0674257509062,2.11007905327,-0.872611415639,-0.053126483541,0.00969210768918,-0.000430876987586,0.00320674131427,-0.000527099198738,-3.56685992192e-05,-0.0541820196636,0.573659451016,0.819059847816,0.00604539967241,0.0,0.819055998872,-0.57356651921,-0.0122256147014,0.0,-0.00654619730406,0.0119650906503,-0.999906987628,0.0,0.26997554373,-0.253299023637,0.304876501151,1.0,-0.01116,-0.0146674285714,2.692
-0.62587013246,-0.522522035443,-0.12514871238,-2.64312316357,-0.0674172286754,2.11008416341,-0.873473984127,-0.0481863533182,0.0052118951091,-9.93506726051e-05,0.00665941005516,-0.000351175609066,-0.00041384471405,-0.0544705768761,0.573660591011,0.819059051744,0.00604507882372,0.0,0.819055173159,-0.573567613914,-0.0122295744355,0.0,-0.00654960830383,0.0119671083852,-0.999906941144,0.0,0.269779514726,-0.25355034909,0.304880095798,1.0,-0.01082,-0.0142205714286,2.709
-0.626836691756,-0.522363802249,-0.125138621872,-2.64297897766,-0.0674048440924,2.11012062056,-0.874418457439,-0.0479687291215,0.0087654618972,0.00145722438994,0.00562948355286,-3.96819514872e-05,0.0022708098286,-0.0516768544735,0.573684282074,0.819042469879,0.0060435037226,0.0,0.819038754517,-0.57359164323,-0.0122021439325,0.0,-0.00652769655158,0.0119502720233,-0.99990728579,0.0,0.269573738462,-0.253846036712,0.304890870854,1.0,-0.01042,-0.0136948571429,2.729
-0.627450749032,-0.522282611783,-0.125140323049,-2.64288482032,-0.0674011348186,2.11014650784,-0.875031185821,-0.0470037384098,0.00466041506196,-0.000922987129563,0.00836631425915,0.000746516964385,0.00376022462897,-0.0525392310755,0.573692921404,0.819036427621,0.00604227284795,0.0,0.819032970935,-0.573600789981,-0.0121603106797,0.0,-0.00649400996878,0.0119253344405,-0.999907802866,0.0,0.269442242494,-0.254037369998,0.304906012603,1.0,-0.01016,-0.0133531428571,2.742
-0.628251745735,-0.522174070221,-0.125136465822,-2.64278040965,-0.0673961302826,2.11020749277,-0.875825692533,-0.0422358752764,0.000885630309936,-0.00135397577809,0.00488472601513,-0.00101407946835,0.00703774187274,-0.0476804564047,0.573702993923,0.819029407154,0.00603753936633,0.0,0.819026288232,-0.573611616227,-0.0120995791225,0.0,-0.00644683252307,0.0118866970808,-0.999908568212,0.0,0.269271823712,-0.254284537723,0.30491889381,1.0,-0.00982,-0.0129062857143,2.759
-0.628946716552,-0.522061933782,-0.125127227526,-2.6426797675,-0.067386204708,2.1102346783,-0.876495530758,-0.0483858139326,0.00941384216723,0.00142799274102,0.00746682849743,-2.12997095245e-05,0.0019445392796,-0.0474510425464,0.573726481619,0.819012963314,0.00603631632336,0.0,0.819009956793,-0.573635341084,-0.0120802746448,0.0,-0.00643138098547,0.0118748052669,-0.999908809011,0.0,0.26912332683,-0.254495724472,0.30492598481,1.0,-0.00952,-0.012512,2.774
-0.62969324848,-0.521948719381,-0.125120259786,-2.64259678027,-0.0673775397459,2.11024622929,-0.877184517804,-0.0424668866329,0.00792689720075,-0.000231946321791,-0.00166450135839,-0.000406408103459,0.00537186799115,-0.0399532615269,0.573776776456,0.818977708823,0.00603905218323,0.0,0.818974645256,-0.573685442485,-0.0120950572502,0.0,-0.00644118996379,0.0118859224204,-0.999908613784,0.0,0.268954257892,-0.254714724721,0.304923263889,1.0,-0.00918,-0.0120651428571,2.791
-0.630421260151,-0.52186216368,-0.125103426083,-2.64254258783,-0.067367488331,2.1102613447,-0.877864019973,-0.0399942549506,0.00460974853083,-0.00050600362524,0.00205318818225,0.00426985542408,0.00193440379591,-0.0452990655953,0.573811801789,0.818953156193,0.00604077737291,0.0,0.81895003239,-0.573720300396,-0.0121081899353,0.0,-0.0064504479454,0.0118951461268,-0.999908444419,0.0,0.268786384167,-0.254919982225,0.304917786816,1.0,-0.00884,-0.0116182857143,2.808
-0.631108552532,-0.5217769172,-0.125090959563,-2.64250855454,-0.0673612568539,2.110273489,-0.878535152195,-0.0382243122907,0.00567061825857,-0.000596891794907,0.00308064370553,-0.000833261599401,-0.000549338152684,-0.043747847166,0.573820856066,0.818946786928,0.00604418931112,0.0,0.818943478273,-0.573728915368,-0.0121432271849,0.0,-0.00647705541164,0.0119181158971,-0.999907998901,0.0,0.268622308461,-0.255110085228,0.304903268411,1.0,-0.0085,-0.0111714285714,2.825
-0.631755253787,-0.521720934848,-0.125077260672,-2.64247339332,-0.0673498982383,2.11028609931,-0.879232089731,-0.0446894506168,0.00453643524216,-0.00135438188984,0.00357219318877,-9.48127653873e-05,0.00095075193691,-0.0407607464737,0.573776755683,0.818977635873,0.00605090729125,0.0,0.81897437863,-0.573684727973,-0.0121468901167,0.0,-0.00647684294689,0.0119253708421,-0.999907913778,0.0,0.268470175906,-0.255289218159,0.304900085285,1.0,-0.00816,-0.0107245714286,2.842
-0.632383095595,-0.521655521713,-0.12504782508,-2.64243491148,-0.0673413513045,2.11030266935,-0.879839704281,-0.0377860096718,0.00220859460245,0.000504472248411,0.000783683264278,-0.000337104108052,-0.000257107272889,-0.040196680511,0.573778215292,0.818976651553,0.00604572314953,0.0,0.818973288662,-0.573686140241,-0.0121536765873,0.0,-0.00648535464004,0.0119250302254,-0.99990786267,0.0,0.26832705035,-0.255461232427,0.304895653144,1.0,-0.00782,-0.0102777142857,2.859
-0.632967498992,-0.521594763006,-0.125030663242,-2.64238742887,-0.0673282183207,2.11031303909,-0.880398903932,-0.0357753531015,0.0107462026784,0.000539150605565,0.000488410181504,0.000474268608217,0.00188096929119,-0.033335157179,0.573794796129,0.818965008409,0.00604928414452,0.0,0.81896169498,-0.573702707349,-0.0121528859986,0.0,-0.00648242249955,0.0119276243841,-0.999907850742,0.0,0.268193917523,-0.255625257285,0.304896203573,1.0,-0.0075,-0.00985714285715,2.875
-0.63369622073,-0.521474888091,-0.125026037205,-2.64230127366,-0.0673182571272,2.11033351701,-0.881091289135,-0.0315207677802,0.00484767041727,-0.000691824149,0.00439403526045,-0.000731827243828,-3.86643012901e-05,-0.0360131187314,0.57383009784,0.81894024371,0.00605334178136,0.0,0.818936922461,-0.573737871815,-0.0121621699067,0.0,-0.00648718385483,0.0119365540522,-0.999907713303,0.0,0.268030131539,-0.255841174175,0.304893166,1.0,-0.00708,-0.00930514285715,2.896
-0.634119629606,-0.521398101327,-0.125018611959,-2.64224242302,-0.0673135412127,2.11035093017,-0.88150634624,-0.0327119381009,0.00631319956897,-0.00137130633309,0.0017639239834,0.000292783329297,0.00393331248458,-0.027974814148,0.573836784908,0.818935574779,0.00605107838263,0.0,0.818932237634,-0.573744592611,-0.0121605721445,0.0,-0.00648707653364,0.0119338365454,-0.999907746436,0.0,0.267938583184,-0.255968507236,0.304893353511,1.0,-0.00682,-0.00896342857143,2.909
-0.63463048594,-0.521276268762,-0.125000450255,-2.64215606093,-0.0672985740718,2.1103894535,-0.882012159161,-0.0298007901525,0.00774044192172,8.57209755239e-05,0.00484664192312,0.00045909968336,0.0030574704968,-0.0393240234484,0.573839009484,0.818934033795,0.00604866825822,0.0,0.818930707259,-0.57374690477,-0.0121545413887,0.0,-0.00648348774446,0.0119284198249,-0.999907834346,0.0,0.267836566016,-0.256124920047,0.304891546234,1.0,-0.0065,-0.00854285714286,2.925
-0.635196270922,-0.521198299758,-0.124973285117,-2.64206663314,-0.0672904635708,2.11039923097,-0.882579588445,-0.0285909296923,0.00525769962124,0.00239221246407,0.00354473905565,0.0039762380114,0.00370705114015,-0.0285496217059,0.57382640073,0.81894294719,0.00603804386728,0.0,0.818939648166,-0.573734651081,-0.0121305281085,0.0,-0.00647010001822,0.011905840028,-0.999908190175,0.0,0.26771880439,-0.256292258461,0.304905005856,1.0,-0.00612,-0.00804342857143,2.944
-0.635635743019,-0.521110867626,-0.124944077057,-2.64202159562,-0.0672779976994,2.11040846121,-0.883017368152,-0.0294356368458,0.00846501206508,0.00634259319695,-5.21714874198e-05,-0.000781040011357,1.20532151172e-05,-0.0285355419355,0.573814918247,0.818951017688,0.00603466033279,0.0,0.818947480128,-0.573722828728,-0.0121609000165,0.0,-0.00649708413695,0.0119204052265,-0.999907841672,0.0,0.26762350066,-0.256413372928,0.304894818474,1.0,-0.0058,-0.00762285714286,2.96
-0.63611378275,-0.521045786673,-0.124905390964,-2.64198836784,-0.0672689705566,2.11041512416,-0.883489297065,-0.0227824713588,0.00190200902053,0.00155374620665,-0.000451417957321,0.000370481541865,-0.000796630103039,-0.0215297824048,0.573798216934,0.818962788064,0.00602535568288,0.0,0.818958991468,-0.573705920232,-0.0121833610319,0.0,-0.00652106264258,0.0119255396533,-0.999907624356,0.0,0.267517317043,-0.256540058615,0.304887481594,1.0,-0.00542,-0.00712342857143,2.979
-0.636519252678,-0.520982263672,-0.124891596701,-2.6419570593,-0.0672621571567,2.11043190878,-0.883867409867,-0.0268147912936,0.00437818037975,-0.000135768180834,-5.64642841255e-05,-0.000242308420786,-0.000295524039008,-0.0167608662168,0.573815502839,0.818950681692,0.00602466262839,0.0,0.818946792806,-0.573723053443,-0.0121965323496,0.0,-0.00653199640406,0.0119326672212,-0.999907467957,0.0,0.267425379998,-0.256653951832,0.304880118355,1.0,-0.0051,-0.00670285714286,2.995
-0.636911714083,-0.520945852217,-0.124875134148,-2.64193488057,-0.067249733566,2.110432673,-0.884223865725,-0.0220936142087,0.0037528854308,0.000485531533885,0.000263901933666,-0.000151572711801,2.74423091453e-05,-0.0193032749799,0.573839827635,0.818933603729,0.00602924577897,0.0,0.818929702045,-0.573747219821,-0.0122072829968,0.0,-0.00653781712623,0.0119427835557,-0.999907309138,0.0,0.26733372276,-0.256759096602,0.304877272332,1.0,-0.00478,-0.00628228571429,3.011
-0.637309501058,-0.520927844678,-0.124879334471,-2.64190758292,-0.0672384529778,2.11044575599,-0.884585191388,-0.0249010148257,-0.000406198155891,-0.00276821039657,-0.00128846174722,-0.000212336529971,0.0011582332261,-0.0232241649646,0.573878817204,0.818906196403,0.00604082433474,0.0,0.818902601609,-0.57378643425,-0.0121821118608,0.0,-0.00650998917062,0.0119381325554,-0.999907546242,0.0,0.267239703747,-0.256873614723,0.304884080016,1.0,-0.00444,-0.00583542857143,3.028
-0.637694101294,-0.520912908778,-0.124873255154,-2.6418762864,-0.0672261339322,2.11044174343,-0.884947621281,-0.0240109297198,0.00060482554657,0.000774592292562,0.00476506436704,0.00334868717328,-0.000131329271596,-0.0249712859889,0.573899443631,0.818891679116,0.00604924594217,0.0,0.818888285685,-0.573807186701,-0.0121669617705,0.0,-0.00649244795797,0.0119364990446,-0.999907679794,0.0,0.267149586501,-0.256980904091,0.304892618763,1.0,-0.00408,-0.00536228571429,3.046
-0.637983239519,-0.520909270319,-0.124869876338,-2.64183866217,-0.0672208374209,2.11044615261,-0.885227887968,-0.0157839311276,-0.000425799433393,0.00105827335401,0.000918017026969,-0.00039039315237,-0.000187134690038,-0.0271409050052,0.573908331167,0.818885444419,0.0060500609182,0.0,0.81888232104,-0.573816546498,-0.0121269186222,0.0,-0.00645905644008,0.0119142569422,-0.999908161319,0.0,0.267085841941,-0.257066940846,0.304908836529,1.0,-0.00378,-0.00496800000001,3.061
-0.63829296989,-0.520894076827,-0.12486628808,-2.64178497233,-0.067203718749,2.11045561116,-0.885526917766,-0.0167660836083,0.00138437331941,0.000456538038743,0.000510967399768,0.003539766627,0.000189327117289,-0.0198888019238,0.573924404099,0.818874116219,0.00605863581408,0.0,0.818871421686,-0.573833165242,-0.0120764281038,0.0,-0.00641255168582,0.0118924294918,-0.999908720485,0.0,0.267022146649,-0.257161783988,0.304928550226,1.0,-0.00344,-0.00452114285715,3.078
-0.63856255163,-0.520865752416,-0.124841811117,-2.64171201935,-0.0671868034957,2.11046555328,-0.885777765989,-0.0196614632779,0.00522779057078,-0.00107092264562,0.00164435957193,0.000429337893743,0.00140222130818,-0.0142545043282,0.573933123382,0.818868041214,0.00605374806268,0.0,0.81886564948,-0.573842584387,-0.0120201225803,0.0,-0.00636911842425,0.0118561811033,-0.999909428548,0.0,0.266977475163,-0.25724604641,0.304952724228,1.0,-0.00312,-0.00410057142858,3.094
-0.638810541568,-0.520813650675,-0.124806384896,-2.64164970291,-0.0671609614977,2.11048691356,-0.88602866174,-0.0127144835994,0.00435780787184,0.00281361715207,0.00762880687544,0.000469640483836,-5.29406946221e-05,-0.017287170154,0.57391978403,0.818877404093,0.00605189774344,0.0,0.818875204895,-0.573829659263,-0.0119861528598,0.0,-0.00634255343267,0.011835067127,-0.999909847537,0.0,0.266940294036,-0.257319695281,0.30496456036,1.0,-0.00278,-0.00365371428572,3.111
-0.639020860451,-0.520762100503,-0.124766133193,-2.64161072112,-0.0671403259266,2.11050902773,-0.886241278593,-0.0117346704699,0.00153327918429,0.000675665776377,0.0017012228354,1.17751057398e-05,0.000544308403803,-0.00896088076006,0.573900218949,0.818891160949,0.00604583426118,0.0,0.818888960564,-0.573810268317,-0.0119746875683,0.0,-0.00633692603069,0.0118233703877,-0.999910021593,0.0,0.266908077597,-0.25737694594,0.304966168957,1.0,-0.00244,-0.00320685714286,3.128
-0.639197962995,-0.520722526263,-0.124709826129,-2.64161192981,-0.0671137535284,2.11051687355,-0.886424136635,-0.00821762199471,0.00107676312522,0.00366581623759,-0.000468234234299,0.00044447115188,0.00231180733133,-0.0147213247468,0.573867066506,0.818914414868,0.00604301271286,0.0,0.81891198433,-0.573776774101,-0.0120050957545,0.0,-0.00636392815029,0.0118382525388,-0.999909674018,0.0,0.266877027313,-0.257409205145,0.304953081106,1.0,-0.00212,-0.00278628571429,3.144
-0.639396076891,-0.520696928873,-0.124641639397,-2.64161698774,-0.0670921345889,2.11051812776,-0.886626932527,-0.00863543770066,-0.0017581771143,0.00566203139741,0.000873965083161,0.00523242677812,-0.000525122943517,-0.00987236140647,0.573824020763,0.818944665711,0.00603113593578,0.0,0.818941915855,-0.573733481397,-0.012032359744,0.0,-0.0063936953095,0.0118438350961,-0.999909418013,0.0,0.266841046704,-0.257443300819,0.304943097333,1.0,-0.00174,-0.00228685714286,3.163
-0.639546679047,-0.520669934202,-0.124602823476,-2.64161949636,-0.0670726225187,2.11052567814,-0.886772945302,-0.00902124588767,0.00199351677961,0.00339537913468,-0.00134416720767,0.00390688286806,0.00141600069111,-0.0124441304707,0.573808601639,0.818955474426,0.00603046382573,0.0,0.818952586934,-0.57371782979,-0.0120523456712,0.0,-0.00641067327367,0.0118546318049,-0.999909181362,0.0,0.266812359717,-0.257472895655,0.304933601494,1.0,-0.00142,-0.00186628571429,3.179
-0.639697628937,-0.520674125265,-0.124580458722,-2.64160886468,-0.0670572891275,2.11052648584,-0.886884937914,-0.00765198882356,0.000777269857858,-0.00083076781749,-0.000225615966201,-0.000427515406523,-0.000234244031235,-2.9464361407e-05,0.573831665006,0.818939302812,0.00603203515173,0.0,0.818936546294,-0.573741086228,-0.0120351991943,0.0,-0.0063953943684,0.0118462605038,-0.999909378415,0.0,0.266782350289,-0.257509555163,0.304940579531,1.0,-0.00108,-0.00141942857143,3.196
-0.639802450897,-0.520675963016,-0.124569886633,-2.64160648193,-0.0670403214603,2.11052755195,-0.886944973057,-0.00443409191393,-0.000339525863655,0.00176530521591,-0.000188116807717,0.00184712246372,0.000567683359459,-0.000249121578184,0.573868184613,0.818913643307,0.00604139025209,0.0,0.818911045686,-0.573777627546,-0.0120283117165,0.0,-0.00638385691372,0.0118502547716,-0.999909404813,0.0,0.266759896005,-0.257534237548,0.304942689065,1.0,-0.000780000000005,-0.00102514285715,3.211
-0.639875868268,-0.520668483651,-0.12457928177,-2.6416108727,-0.0670207495571,2.11052502176,-0.887010561197,-0.00477258957637,-0.000314037225813,0.000530164734218,-0.000283843180718,0.000702319878314,0.000506423554811,-0.0035052310169,0.573889431842,0.818898582711,0.00606449959684,0.0,0.818896183984,-0.573798582928,-0.0120404729124,0.0,-0.00638024776787,0.0118763243925,-0.999909118549,0.0,0.26673910607,-0.257552296585,0.304937518797,1.0,-0.000380000000005,-0.000499428571435,3.231
-0.639883646872,-0.520650081474,-0.124568691596,-2.64160560269,-0.0670013893217,2.11052441439,-0.887042140541,0.000191367697898,0.00115743653246,0.000683580194618,0.000757378882265,-7.63912782438e-05,-0.000935100821172,-0.00214969813516,0.573871023564,0.818911398641,0.00607588597685,0.0,0.818909055823,-0.573779957952,-0.0120525949523,0.0,-0.00638390869937,0.0118924620172,-0.999908903379,0.0,0.266741806052,-0.257551004244,0.304933356202,1.0,-6.00000000049e-05,-7.88571428636e-05,3.247
-0.639881670777,-0.520659630909,-0.124544487237,-2.64160466886,-0.0669851109359,2.11052876872,-0.887050799569,-0.00049590210063,-0.00114868507024,0.00123142674706,-0.00183179480174,0.000836487128996,0.000639566906916,-0.00115534865281,0.573852096058,0.818924654656,0.00607690277865,0.0,0.818922423054,-0.573761212725,-0.012036722688,0.0,-0.00637060051633,0.0118840392969,-0.999909088397,0.0,0.266750088438,-0.257544482379,0.30493824441,1.0,0.0,0.0,3.263
-0.639873795949,-0.520655951285,-0.124510915483,-2.64160434382,-0.0669761107348,2.11052212725,-0.887049565132,0.00352445851948,-0.000781376533428,0.000807386692126,-0.000156993849023,-8.41566526712e-05,-0.000331206333709,0.000547799296359,0.573826742537,0.818942482166,0.00606855454708,0.0,0.818940086709,-0.573735797298,-0.0120464177611,0.0,-0.00638369918696,0.0118825680263,-0.999909022342,0.0,0.266759065106,-0.257533168142,0.30493726809,1.0,0.0,0.0,3.278
-0.63987387542,-0.520652509927,-0.124490598833,-2.64162052547,-0.0669644874056,2.11051752235,-0.887059984138,0.000267135892533,-0.00254245189009,0.00166345960943,0.00137986513231,-0.000278875713736,-6.83837996208e-05,0.00109101241483,0.573808106167,0.818955520651,0.00607119378751,0.0,0.818953005731,-0.573716867392,-0.0120696882918,0.0,-0.00640151482701,0.0118979364535,-0.999908725693,0.0,0.26675987009,-0.257522720935,0.304928742006,1.0,0.0,0.0,3.298
-0.639883816544,-0.520646509853,-0.124488051728,-2.64161245456,-0.0669577146922,2.11052056457,-0.88706323817,-0.000723260470882,-0.000170899014656,0.00212296125406,0.000631985965089,0.000302305764606,0.000585368430372,-0.000523512196785,0.5738150646,0.818950620838,0.00607446862963,0.0,0.818948181236,-0.57372387101,-0.0120641279745,0.0,-0.00639498056125,0.0118974824726,-0.999908772906,0.0,0.26676068277,-0.257526489446,0.304930526903,1.0,0.0,0.0,3.314
-0.639874590677,-0.520648646341,-0.124484873722,-2.64160994891,-0.0669522076129,2.11051794969,-0.887068417007,0.00155001740544,-0.00023665307068,9.3909221132e-05,-0.00144987241608,-7.67411039027e-05,-0.000222040133465,-0.00187000766956,0.573803470397,0.818958722104,0.00607747906396,0.0,0.818956332758,-0.573712286862,-0.0120616681903,0.0,-0.00639140700984,0.011898446115,-0.999908784288,0.0,0.266764441846,-0.257523074509,0.304932306418,1.0,0.0,0.0,3.331
-0.639871369768,-0.520651055745,-0.124473460697,-2.64160994762,-0.066945847399,2.1105166497,-0.887069522432,0.000119956956299,-0.00118572842705,0.00130892190191,0.000372186593499,0.000552800117353,-0.000319127345709,-0.000497713843581,0.573794540167,0.818964980563,0.00607726811101,0.0,0.818962597259,-0.573703375778,-0.0120601746929,0.0,-0.00639043453787,0.0118973467295,-0.999908803585,0.0,0.266768135337,-0.257518911558,0.30493335478,1.0,0.0,0.0,3.348
-0.639871369768,-0.520648354584,-0.124464631458,-2.64160787408,-0.0669423111018,2.11052010402,-0.887071166533,-0.000358939000084,-0.000798515192052,-0.00165196297217,-0.000333930977088,0.000195835512135,5.36044996879e-05,0.000935640915833,0.573798929218,0.818961904299,0.00607742018306,0.0,0.818959563259,-0.573707838272,-0.0120539185586,0.0,-0.00638515943563,0.0118939159354,-0.9999088781,0.0,0.266768893055,-0.257520010698,0.304934289444,1.0,0.0,0.0,3.364
-0.639879085989,-0.520643036287,-0.124465982444,-2.64159905736,-0.0669411888125,2.11052433444,-0.887074394974,-0.00133392368757,0.00107398763591,-0.00122844228353,0.000107193016306,-0.000428971217801,0.000332802472732,0.000822431387595,0.573794092131,0.818965307422,0.00607552267662,0.0,0.818962971709,-0.573703066274,-0.0120494654736,0.0,-0.00638267109323,0.0118897691229,-0.999908943304,0.0,0.266771745642,-0.257522542499,0.304936188994,1.0,0.0,0.0,3.381
-0.639876381088,-0.520646248764,-0.124463019825,-2.64160430617,-0.0669375112605,2.11052370199,-0.887079798526,-0.00128745503821,-0.000368382753385,-0.0003181666774,-0.000474672169646,-0.000442423241953,-7.34344175301e-05,-0.00169433948739,0.573786662553,0.818970495016,0.00607791665515,0.0,0.818968172209,-0.573695593982,-0.012051773953,0.0,-0.00638329617268,0.0118929964253,-0.999908900933,0.0,0.266772156553,-0.257519425542,0.304935003392,1.0,0.0,0.0,3.398
-0.639873875422,-0.520648551269,-0.124449043021,-2.64158792529,-0.0669344578644,2.11052852232,-0.887077465493,-0.000712403113571,0.00064912405231,0.00142038349732,0.000942152855787,0.000157997708433,0.000179447639943,-0.000668384543376,0.573778659433,0.818976155329,0.00607073998011,0.0,0.818973895133,-0.57368791395,-0.0120284404752,0.0,-0.00636841839146,0.0118736686237,-0.9999092255,0.0,0.266780705271,-0.257520232516,0.304944036063,1.0,0.0,0.0,3.414
-0.639866080018,-0.520659470496,-0.124445114068,-2.6415527539,-0.0669336274921,2.11053997655,-0.887074825902,0.00114530198753,-0.00395035565963,-0.00057505690495,0.00153721736387,0.00214114443154,0.00280466519205,0.000358337624708,0.573773568564,0.818979777896,0.00606319345074,0.0,0.818977789999,-0.573683547674,-0.0119713624039,0.0,-0.00632607119008,0.0118346999543,-0.999909956296,0.0,0.266793877372,-0.257527902875,0.304965105452,1.0,0.0,0.0,3.432
-0.639873875421,-0.520661977179,-0.124435959191,-2.64150339552,-0.0669312114697,2.11054797253,-0.887074492356,-0.000393843797913,-0.00343684809876,-0.000182226665781,6.93103173269e-05,7.30477527454e-05,0.000351057889047,-0.000675563337658,0.573777028016,0.818977429013,0.00605308093773,0.0,0.818975696104,-0.573687771819,-0.0119120341482,0.0,-0.00628322955682,0.011792404766,-0.999910726123,0.0,0.266806852126,-0.257541400184,0.30498935781,1.0,0.0,0.0,3.449
-0.639873795621,-0.520662571118,-0.124441209763,-2.64141746154,-0.0669313423164,2.1105572822,-0.887075209142,0.000706155496043,0.000401292222724,-0.000444466955294,0.00952852359347,1.95533531212e-05,0.000175741925626,0.00200904671481,0.573783996985,0.81897262147,0.0060429287022,0.0,0.818971362723,-0.573695920236,-0.0118171504753,0.0,-0.00621123874592,0.0117297032199,-0.999911913408,0.0,0.266827192383,-0.257565664132,0.30502930248,1.0,0.0,0.0,3.465
-0.639879165135,-0.520682233663,-0.124436552679,-2.6413152137,-0.0669296671611,2.11058302874,-0.887076489162,-0.00112663819115,-0.00102598689945,0.00117057976847,0.0067036106421,-0.000156911303887,0.00402296877839,0.000333812932083,0.573789367446,0.818968991282,0.00602495022951,0.0,0.818968424699,-0.573703111952,-0.0116707148067,0.0,-0.00610153831026,0.0116309999977,-0.999913741814,0.0,0.266855258021,-0.257595749145,0.30508531817,1.0,0.0,0.0,3.481
-0.639876381081,-0.520712822583,-0.124441192225,-2.64116570228,-0.066930278947,2.11061003011,-0.887077549284,0.000105934185124,-0.00468243268717,-0.00078160844751,0.00857372137508,-0.000128399324143,0.000517840668965,0.000801145201309,0.573795984957,0.818964517656,0.00600277999912,0.0,0.818964932027,-0.573712236815,-0.0114654411196,0.0,-0.00594603559546,0.0114951117107,-0.999916250027,0.0,0.266894632757,-0.257638285688,0.305166733167,1.0,0.0,0.0,3.499
-0.639879880389,-0.52075135852,-0.124441188008,-2.64098900126,-0.0669323119919,2.11070380549,-0.887080589451,0.000273748647502,-0.00186036577528,-0.000563366015236,0.015095899354,-0.000257393327416,0.00649954516209,-0.00146719006412,0.573803413982,0.818959578318,0.0059664131259,0.0,0.818961365566,-0.573723368239,-0.0111590926487,0.0,-0.00571588522359,0.0112896046597,-0.999919933536,0.0,0.266950398836,-0.257697894403,0.305269267143,1.0,0.0,0.0,3.514
-0.639893309145,-0.520966043312,-0.124441007106,-2.64064775476,-0.0669302774886,2.11084939813,-0.887083147359,-0.000955849800255,-0.0119926976916,-0.00191228498599,0.018354882063,-0.000343716317881,0.00464965622651,-0.00930364312597,0.573827731888,0.818943015628,0.00590069238057,0.0,0.818947876294,-0.573755755549,-0.0104621120713,0.0,-0.00518241717203,0.0108360181613,-0.999927859029,0.0,0.267054309699,-0.25781148624,0.305515960567,1.0,0.0,0.0,3.534
-0.639889763149,-0.521125350134,-0.124434972998,-2.64044453786,-0.0669309763998,2.11086840368,-0.887080774398,0.000899552446493,-0.0108111494112,-4.69121226003e-05,0.0149579416059,0.00220336456036,0.000810835926234,0.000553881373611,0.573830844997,0.81894110557,0.00586292074829,0.0,0.818947470935,-0.573763117978,-0.010083213655,0.0,-0.00489372466869,0.0105876869768,-0.999931973858,0.0,0.267110102312,-0.257866028705,0.30566884853,1.0,0.0,0.0,3.548
-0.63988810434,-0.521344098203,-0.124427057858,-2.64025270562,-0.0669309895635,2.11086470286,-0.887086261123,0.00042537524367,-0.00963884826727,0.000600433004675,0.00521519692732,-0.000346810800835,-5.04492886749e-06,-0.0010695823716,0.573827244694,0.818943884485,0.00582702440205,0.0,0.818951791209,-0.573763918336,-0.0096786668627,0.0,-0.00458303692167,0.0103261336197,-0.999936181332,0.0,0.267160864811,-0.257915488177,0.305836582834,1.0,0.0,0.0,3.569
-0.639896539962,-0.52140404565,-0.124440818167,-2.64017484826,-0.0669302818677,2.11085908183,-0.887078482544,-0.000190266599939,-0.0040971564037,-0.00147772545786,0.00451585826224,-3.14067595327e-05,-0.000218232226733,0.00119871775346,0.573853903732,0.818925235109,0.00582266037834,0.0,0.818933694826,-0.573791950374,-0.00954714960764,0.0,-0.00447749228781,0.0102472391403,-0.999937471121,0.0,0.267174221464,-0.257940620989,0.305893297288,1.0,0.0,0.0,3.581
-0.639860863551,-0.521487532189,-0.124530449711,-2.64013922091,-0.0669166716849,2.11104066861,-0.887076825015,0.00890521270285,0.028864297417,-0.0204143270356,0.00292310586697,0.0128969640551,0.0167077862699,0.00127169407561,0.573896498588,0.818895168143,0.00585315308441,0.0,0.818905252272,-0.573837482918,-0.00924542591474,0.0,-0.00421235707685,0.0100992898062,-0.999940128404,0.0,0.26720433198,-0.257985014031,0.30595376223,1.0,0.0,0.0,3.602
