nelsonifechukwu/NELSON_IML_WORK/CNN-GradCAM/train2dof/data_sample_2022-02-21-09-00-15/robot_state.csv
position_joint1,position_joint2,position_joint3,position_joint4,position_joint5,position_joint6,position_joint7,velocity_joint1,velocity_joint2,velocity_joint3,velocity_joint4,velocity_joint5,velocity_joint6,velocity_joint7,ee_T_00,ee_T_10,ee_T_20,ee_T_30,ee_T_01,ee_T_11,ee_T_21,ee_T_31,ee_T_02,ee_T_12,ee_T_22,ee_T_32,ee_T_03,ee_T_13,ee_T_23,ee_T_33,v_x,v_y,time
0.465088215701,0.547590370596,-0.123990536679,-1.35574224872,0.0794434931411,1.89408755075,0.1591807413,0.000286421183016,0.000126289554488,-0.000540018930552,-0.000679016295013,-0.00017859683827,2.52686863705e-05,0.000840883318731,0.573792542085,0.818986121434,0.00214439898382,0.0,0.818946105955,-0.57373379799,-0.0117282346241,0.0,-0.00837510845949,0.00848588413612,-0.999928921138,0.0,0.661700207609,0.260902210204,0.303391585653,1.0,0.0,0.0,0.0
0.465085432289,0.547594280271,-0.123986160166,-1.35574224868,0.0794448155695,1.89408603359,0.159180776798,-0.0007661250243,0.00091941097795,0.000515945487001,-0.000482227352888,0.000321744902959,-0.00049178051117,0.00137439096249,0.573792996256,0.818985805122,0.0021436783819,0.0,0.818945749854,-0.573734224028,-0.0117322579282,0.0,-0.00837881237034,0.00848760714213,-0.999928875485,0.0,0.661698544509,0.260902577449,0.303391265572,1.0,-2e-05,-2.62857142857e-05,0.002
0.465085108485,0.547592135412,-0.123992817936,-1.35574442551,0.0794442052179,1.89408672045,0.159177185255,-0.000200609839536,-0.000596287168024,-0.000769731482654,-0.0002096836298,-5.32494081855e-05,-0.000126945453425,0.000262195626064,0.573794074101,0.818985058929,0.00214025184272,0.0,0.818944991228,-0.573735347309,-0.0117302810235,0.0,-0.00837914808553,0.00848367760246,-0.999928906019,0.0,0.661700790733,0.2608986106,0.303389303895,1.0,-0.00034,-0.000446857142857,0.018
0.465079374239,0.547585037947,-0.123991336743,-1.35575393999,0.0794442051638,1.89408791204,0.159177138344,-0.000324489837593,0.00218192062552,0.000404529444265,-0.000943331383877,-0.000333919856613,0.00105966551968,0.000733286051588,0.573798212231,0.818982160338,0.00213999757617,0.0,0.818942074208,-0.573739470593,-0.011732257971,0.0,-0.00838087026003,0.00848464605875,-0.999928883369,0.0,0.661700190631,0.260894717896,0.303389857474,1.0,-0.0007,-0.00092,0.036
0.465084874015,0.547523608795,-0.123988551816,-1.35579106722,0.079444815407,1.89409539791,0.159179574331,8.8827407127e-05,-0.00605890026315,0.0014726269259,-0.00189787654247,0.000373427470819,0.00239098325266,0.00174112920967,0.573795883471,0.818983711487,0.00217056019733,0.0,0.818943975637,-0.573736978423,-0.0117214017185,0.0,-0.00835446728352,0.00850342296918,-0.999928944813,0.0,0.661692687881,0.260896979942,0.303416261882,1.0,-0.00102,-0.00134057142857,0.052
0.465086495494,0.547392551737,-0.123988552788,-1.35594055157,0.0794402008137,1.8941209686,0.159175263433,0.00056886522173,-0.0120398442398,-0.000742079293893,-0.013857262338,-1.3803708122e-05,0.00241819858314,0.00118898404421,0.573797906688,0.818982266073,0.00218106370363,0.0,0.818942590082,-0.573738883593,-0.0117249522134,0.0,-0.00835132766789,0.00851408291713,-0.99992888033,0.0,0.661666815777,0.260883016804,0.303440160279,1.0,-0.00136,-0.00178742857143,0.069
0.465077569183,0.547259277548,-0.1239885528,-1.35612925138,0.0794408609734,1.89417004845,0.159167553885,0.000471186022276,-0.00724077528871,-0.000523143440651,-0.0103378825413,0.000127664204334,0.00624618273364,-0.000842198698868,0.573809481577,0.81897415054,0.00218323178491,0.0,0.818934369453,-0.573750312981,-0.0117398374949,0.0,-0.00836215451735,0.00852451773528,-0.999928700943,0.0,0.661639151898,0.260859899455,0.303449011076,1.0,-0.0017,-0.00223428571429,0.086
0.465058055339,0.54709345385,-0.123988265798,-1.35633450815,0.0794324724856,1.89429127949,0.159153703723,-0.000378721083576,-0.011961599987,0.00107893018457,-0.0145519222821,-0.000422632152836,0.00383240418474,-0.00428713447562,0.57382342822,0.818964186954,0.00225402166136,0.0,0.81892534751,-0.573764014288,-0.0116994878301,0.0,-0.00828834459817,0.00855948048394,-0.9999290168,0.0,0.661626144912,0.260831854049,0.303479277704,1.0,-0.00202,-0.00265485714286,0.102
0.465038997401,0.546892569095,-0.123988556699,-1.3565524152,0.0794323521327,1.89440821197,0.159143266806,0.000529104201054,-0.011487627318,-0.000780424618221,-0.0121692289956,0.000501375168303,0.00276147211949,-0.0037033611892,0.573842975755,0.818950231477,0.00234615458744,0.0,0.818912524483,-0.573783155329,-0.0116582506133,0.0,-0.00820150096065,0.0086114663975,-0.999929286514,0.0,0.661609844214,0.260803782358,0.303528011964,1.0,-0.00236,-0.00310171428571,0.119
0.465015162332,0.546677497866,-0.123991375857,-1.35682745437,0.0794235021523,1.89453455538,0.159129198313,-0.00603949212542,-0.014885022594,0.00158690872591,-0.0230060739287,-0.000804128346003,0.0115242862155,-0.00129351201488,0.573868442641,0.818932218711,0.00240387152153,0.0,0.818895186109,-0.573808333292,-0.0116369116872,0.0,-0.00815063732079,0.00864674168069,-0.999929397992,0.0,0.661582832263,0.260759061469,0.303556005741,1.0,-0.0027,-0.00354857142857,0.136
0.464965544799,0.546414529094,-0.123993704482,-1.35722587594,0.0794106206067,1.89467787901,0.159036866492,-0.000467411119231,-0.0136617053504,-0.00157609851422,-0.0223136463272,0.00234277614024,0.0152373017015,-0.00389627307344,0.573851559591,0.818944004979,0.00241891812593,0.0,0.81890712664,-0.57379135534,-0.0116338031815,0.0,-0.00813963577385,0.00865711206797,-0.999929397878,0.0,0.661543311841,0.260693340656,0.303569562694,1.0,-0.00304,-0.00399542857143,0.153
0.46492716743,0.546143297462,-0.123989536265,-1.35763103192,0.0793910697894,1.89481784162,0.158961295017,-0.00491146459142,-0.0168883490659,-0.00108963310045,-0.027004198928,-0.000178484054091,0.0163519528553,0.00117064098926,0.573835574201,0.818955177376,0.00242860683203,0.0,0.818918345746,-0.573775253455,-0.0116382311204,0.0,-0.00813787181019,0.00866742860185,-0.999929322864,0.0,0.661495551843,0.260632169757,0.303580761824,1.0,-0.00336,-0.004416,0.169
0.464885874035,0.545849638286,-0.123989591902,-1.3581296428,0.079361998205,1.89498583521,0.158937475883,-3.64856319056e-05,-0.0192292348033,-0.00107831167845,-0.0262211140848,-0.00267869099096,0.00803132022927,-0.00323555205467,0.573870034627,0.818931123516,0.00239691352103,0.0,0.818893849092,-0.573809789367,-0.0116591786253,0.0,-0.00817284916095,0.0086538375938,-0.999929155306,0.0,0.661434755336,0.260556185598,0.303565895363,1.0,-0.0037,-0.00486285714286,0.186
0.464815709332,0.545457540733,-0.123991750097,-1.3587944171,0.0792818276166,1.89521480074,0.158817536292,-0.00641635378155,-0.0210149895493,-0.000509382137076,-0.0361870327333,-0.00360208586332,0.01040090013,-0.009823617758,0.573846602725,0.818947716582,0.00233686696918,0.0,0.818909989896,-0.573786921228,-0.0116509388998,0.0,-0.00820080399537,0.00859970098322,-0.999929393486,0.0,0.661361373623,0.260437323544,0.303546879423,1.0,-0.0041,-0.00538857142857,0.206
0.464764557431,0.545128505853,-0.123992439718,-1.35936675927,0.0792581743303,1.89539881094,0.158771061092,-0.00170839396698,-0.021701598601,0.00052924203406,-0.0442393000136,-0.00136945122764,0.00969923904451,-0.00161277970049,0.573876482623,0.8189269062,0.00229170130319,0.0,0.818888462662,-0.573816825949,-0.0116911452565,0.0,-0.0082593356648,0.00858608638344,-0.999929028729,0.0,0.661290066315,0.260348134807,0.303523338282,1.0,-0.0044,-0.00578285714286,0.221
0.464694244284,0.544690339748,-0.123992442656,-1.36010079287,0.0792360373156,1.89564704936,0.158659143828,-0.00462389784812,-0.0263127354397,-0.000838370066143,-0.041624327433,-0.000379607526499,0.0133208472114,-0.0117825132621,0.573877403955,0.818926339567,0.00226329262838,0.0,0.818887293363,-0.57381761076,-0.011734447196,0.0,-0.00831109073484,0.0085876810077,-0.999928586203,0.0,0.661201963205,0.260233523982,0.30350561242,1.0,-0.00476,-0.006256,0.239
0.464641718331,0.544317847643,-0.12400401051,-1.3607472331,0.0792052613568,1.89586773367,0.158586891713,-0.00331405496021,-0.0213474410194,-0.000436939346475,-0.0437162609655,-0.00299309577878,0.0141888434925,-0.00144728689839,0.573897173815,0.818912606893,0.00221879714147,0.0,0.818872935214,-0.573837498225,-0.0117638643848,0.0,-0.00836050881543,0.00856832641828,-0.99992834027,0.0,0.661125193295,0.260130245272,0.303481035554,1.0,-0.00506,-0.00665028571429,0.254
0.464572500503,0.543840465546,-0.124001612104,-1.36153000641,0.0791705030718,1.89614723397,0.158503079089,-0.005097067071,-0.0265415014708,-0.00080102818927,-0.0456891448215,1.57478597538e-06,0.0232584572061,-0.00896633075271,0.573917900048,0.818898123004,0.00220341668591,0.0,0.818858108729,-0.573858135037,-0.0117892120603,0.0,-0.00838987656891,0.00857049045753,-0.999928075746,0.0,0.661032835421,0.26001256926,0.303470395919,1.0,-0.0054,-0.00709714285714,0.271
0.464498030195,0.543357930674,-0.124007317261,-1.36231690078,0.0791220994927,1.89641461632,0.158378068392,-0.00169828651742,-0.0311333855663,-0.000820206569076,-0.0475822104162,-0.00196281028836,0.0168563838347,-0.00823674247003,0.573911321514,0.818902821812,0.00217033806913,0.0,0.818862371687,-0.573851679959,-0.0118073089662,0.0,-0.00842374866666,0.00855372115661,-0.99992793456,0.0,0.660941123521,0.259883279963,0.303460578752,1.0,-0.00572,-0.00751771428571,0.287
0.464422237617,0.542825319769,-0.124010277843,-1.36318449846,0.0790706931959,1.8967218534,0.158298844885,-0.00427412245044,-0.0337654007834,0.00219528448695,-0.0519102835082,-0.00172874872685,0.0213065560097,-0.0106337931769,0.573945112021,0.818879204388,0.00214567218645,0.0,0.818838414604,-0.573885543903,-0.0118228663201,0.0,-0.00845029181035,0.00854279962128,-0.999927803965,0.0,0.660839860253,0.259748011445,0.303451085601,1.0,-0.00606,-0.00796457142857,0.304
0.464343861874,0.54220741132,-0.124009448174,-1.36413770768,0.079014232291,1.89706713448,0.158162119261,-0.00718787436423,-0.0362823774266,0.000963278388157,-0.0510635619257,-0.00281924340703,0.0173061843682,-0.00356005877434,0.573934616235,0.818886535541,0.00215524903906,0.0,0.818845837031,-0.573874978053,-0.0118216599089,0.0,-0.0084439172037,0.0085498411574,-0.999927797633,0.0,0.660728650926,0.259605965153,0.303464270196,1.0,-0.00642,-0.00843771428571,0.322
0.464270974418,0.541629120458,-0.124019386583,-1.36502043505,0.0789650164597,1.89740006189,0.158026134999,-0.0059248631034,-0.0414899715757,-0.000596505176921,-0.0532625242458,2.61685221584e-05,0.0178328493138,-0.0126017379164,0.573919286414,0.818897231934,0.00217327277091,0.0,0.81885676248,-0.573859574019,-0.011812652106,0.0,-0.00842635695838,0.00855927276506,-0.999927865077,0.0,0.660622240727,0.259460245708,0.303477478119,1.0,-0.00676,-0.00888457142857,0.339
0.464182527199,0.540955200213,-0.124014813822,-1.3660945879,0.0788928905124,1.89779967009,0.157899243217,-0.0113165642727,-0.0369312138456,-0.000141250002192,-0.056270333126,-0.000920067377981,0.017593593804,-0.00548866697178,0.573931504001,0.818888665056,0.00217482378509,0.0,0.818848267723,-0.573871836824,-0.0118057718321,0.0,-0.00841970472067,0.00855671981591,-0.999927942963,0.0,0.660506181806,0.259310506806,0.303481819879,1.0,-0.0071,-0.00933142857143,0.356
0.464107395583,0.540334969631,-0.12401775442,-1.36703329092,0.0788437509144,1.89814480629,0.157781045194,-0.0098537440823,-0.040792947124,0.000616536652654,-0.0663428691365,-0.00325196013164,0.0209001643514,-0.00740120146817,0.573937140023,0.818884644478,0.00220119094688,0.0,0.818844527196,-0.573877305614,-0.011799376371,0.0,-0.00839927630703,0.00857469857813,-0.999927960756,0.0,0.660397487042,0.259171367161,0.303503414417,1.0,-0.0074,-0.00972571428571,0.371
0.464016755622,0.539612571863,-0.124020508328,-1.36814248154,0.0787792200525,1.8985594526,0.15763717931,-0.00246198133534,-0.046427769122,-0.0017998461298,-0.0682684972079,-0.00245408164875,0.0189793197841,-0.01016474348,0.573939636309,0.81888282967,0.00222531965051,0.0,0.818843013559,-0.573879695487,-0.0117881786,0.0,-0.00837623255366,0.00858805573387,-0.999928039424,0.0,0.660270617266,0.259005432299,0.303521974652,1.0,-0.00774,-0.0101725714286,0.388
0.463921374631,0.538958031268,-0.124021206632,-1.36916119602,0.0787170878203,1.89894221186,0.157516480107,-0.00593208732251,-0.0398918677852,0.000537997463731,-0.0659720377477,-0.00157910033201,0.0254749862805,-0.0128251838769,0.57395912615,0.818869129423,0.00223993038665,0.0,0.818829511326,-0.573899135062,-0.0117796884126,0.0,-0.00836069005302,0.00859534625859,-0.999928106858,0.0,0.66015693918,0.25884564316,0.303532713133,1.0,-0.00804,-0.0105668571429,0.403
0.463804915916,0.538141580609,-0.124029453694,-1.3704223051,0.0786508612296,1.89943560643,0.157350066887,-0.00441617533917,-0.0487678496747,-0.0011724286544,-0.0687650821017,-0.00818611253704,0.0307054247252,-0.00766934833479,0.573976089986,0.818857118336,0.00228358830757,0.0,0.818818044666,-0.57391590674,-0.011759618264,0.0,-0.00831901963712,0.0086197489806,-0.999928244345,0.0,0.660020702195,0.258647764823,0.303552190525,1.0,-0.0084,-0.01104,0.421
0.46369769124,0.537349903197,-0.124036083681,-1.37166742958,0.0785764887442,1.89991188764,0.157197768545,-0.00675225006085,-0.0483897452774,-0.000775660911709,-0.0759843440809,-0.00415488149201,0.0320542335532,-0.00697851303014,0.573992689046,0.818845435675,0.002300499447,0.0,0.818806614668,-0.573932474105,-0.0117469079083,0.0,-0.008298730361,0.00862646950879,-0.999928354983,0.0,0.659881514464,0.258456029446,0.30356008316,1.0,-0.00874,-0.0114868571429,0.438
0.463592891259,0.536514058174,-0.124037200095,-1.37296158705,0.0785073845816,1.90039462104,0.157047079922,-0.00511993449094,-0.0459156121143,-0.00144315247476,-0.0738776225075,-0.00197164464152,0.0322299278051,-0.00178037635412,0.57400865348,0.818834174354,0.00232541199507,0.0,0.818795596325,-0.573948259022,-0.0117436921555,0.0,-0.00828162975101,0.00864518446887,-0.999928335129,0.0,0.659730949731,0.258265155984,0.303576061304,1.0,-0.00908,-0.0119337142857,0.455
0.463474719634,0.535707453881,-0.124048162875,-1.37423914622,0.078416521403,1.90086048689,0.156884569781,-0.00649951778484,-0.0499269940951,-0.00108777050753,-0.0853729084522,-0.00401409262569,0.0315973067085,-0.0109062844385,0.574025880487,0.818822140448,0.00231035585738,0.0,0.81878351523,-0.573965694976,-0.0117338433208,0.0,-0.00828202515295,0.0086273771378,-0.999928485654,0.0,0.659586718045,0.258056695094,0.303577969172,1.0,-0.0094,-0.0123542857143,0.471
0.463342580389,0.534709118081,-0.124045741932,-1.37582627805,0.078341215058,1.90143494036,0.156692827205,-0.00379119609783,-0.0510253221916,0.000947801157338,-0.0919993356639,-0.00274752828205,0.036277823687,-0.00461890945377,0.574042259666,0.818810660285,0.00230946359695,0.0,0.818771795175,-0.573981837778,-0.0117619823207,0.0,-0.0083054062554,0.00864296496853,-0.999928157111,0.0,0.659396646737,0.257822451672,0.303576684854,1.0,-0.00978,-0.0128537142857,0.49
0.46321879683,0.533818713103,-0.124055575752,-1.37729134251,0.0782510592512,1.90197092814,0.156514717797,-0.0115678324851,-0.0490448707553,0.000600708754508,-0.0874958807314,-0.00461516522471,0.0347000922089,-0.00817245056955,0.574060812256,0.8187977593,0.00227158480012,0.0,0.818758432971,-0.574000564102,-0.0117782744656,0.0,-0.00834029436066,0.0086214910084,-0.999928052103,0.0,0.65922549136,0.257594693515,0.303554200027,1.0,-0.01012,-0.0133005714286,0.507
0.463099115245,0.53294932227,-0.124050894084,-1.37868969937,0.078171025776,1.90249920638,0.156336937261,-0.00796239667668,-0.0538681713355,0.000672304462537,-0.0874468140319,-0.00500870916921,0.0355822499966,-0.00923407280599,0.574065057496,0.81879477914,0.00227295332787,0.0,0.818755403345,-0.574004734062,-0.0117856552125,0.0,-0.00834550766313,0.00862689175034,-0.999927962026,0.0,0.659062476495,0.257386840038,0.303547340013,1.0,-0.01044,-0.0137211428571,0.523
0.46299003118,0.532091734999,-0.124058864554,-1.38005857797,0.0780915762,1.90302134132,0.156168038062,-0.00300614894877,-0.0553170402963,-0.00017039193646,-0.0937756990018,-0.00891442942329,0.0346342031459,-0.00404551197205,0.57407524035,0.818787619093,0.00228038136897,0.0,0.818748351576,-0.574014899399,-0.0117804482394,0.0,-0.00833687279435,0.00863008829722,-0.999928006472,0.0,0.658904587741,0.257181658036,0.303545898583,1.0,-0.01074,-0.0141154285714,0.538
0.462830531861,0.53090082809,-0.124054574627,-1.38193566507,0.0779820218814,1.90369240396,0.155921882069,-0.00538686014762,-0.0668322840822,0.00122847680813,-0.0951111022587,-0.0126367811316,0.0400890489189,-0.0134821268529,0.574073965569,0.818788539132,0.00227093423793,0.0,0.81874903502,-0.574013543301,-0.0117990110301,0.0,-0.00835750890395,0.00863299647966,-0.999927809103,0.0,0.658678080631,0.256899710586,0.303549768539,1.0,-0.01114,-0.0146411428571,0.558
0.46269527293,0.529944078248,-0.124059296851,-1.38348338306,0.0778817271095,1.90424311478,0.155720736078,-0.00955201335526,-0.0607375154866,0.000371269180147,-0.0990426216799,-0.00713616120566,0.0393537291519,-0.0155778592239,0.574080425971,0.818784118203,0.00223141120206,0.0,0.818744126123,-0.574020182429,-0.0118166409708,0.0,-0.00839456451348,0.00861082288173,-0.999927689894,0.0,0.658493066237,0.256657888055,0.303535015179,1.0,-0.01146,-0.0150617142857,0.574
0.46255924109,0.528896092634,-0.124059528241,-1.38514842377,0.0777754324228,1.90485596929,0.155488421624,-0.00879020770629,-0.0620770327521,0.000587537756335,-0.0989059872543,-0.00728800329146,0.0401189103392,-0.0173776327734,0.574063495818,0.818796008189,0.00222410515022,0.0,0.818755939578,-0.574003301751,-0.0118181168231,0.0,-0.00840014490823,0.00860551444227,-0.999927688729,0.0,0.65829450048,0.256408704937,0.303533698926,1.0,-0.0118,-0.0155085714286,0.591
0.462434264224,0.527932152644,-0.124057776739,-1.38664869021,0.0776822657361,1.90543828107,0.155290881991,-0.0076932899502,-0.0635707552471,0.000814779096647,-0.0986528204933,-0.0162264086609,0.044303211057,-0.0120831270714,0.574059177384,0.818798934995,0.00226093194221,0.0,0.818759374571,-0.573998871515,-0.0117952937017,0.0,-0.0083603625004,0.00862252183262,-0.999927875627,0.0,0.658121733768,0.256186466235,0.303548690293,1.0,-0.0121,-0.0159028571429,0.606
0.462285489146,0.526770807583,-0.124062720218,-1.3884109989,0.0775762270387,1.90610923841,0.155039224626,-0.00919813458628,-0.0702236290058,0.000961088243039,-0.109511632607,-0.00427511752575,0.0404187861003,-0.0221708474688,0.574045179025,0.818808584906,0.00231961702097,0.0,0.818769808845,-0.573984673778,-0.0117618575531,0.0,-0.00829944510987,0.00865123657269,-0.999928135076,0.0,0.657918358595,0.255920119182,0.30358554572,1.0,-0.01244,-0.0163497142857,0.623
0.462129066334,0.525617789965,-0.124068203222,-1.39022240939,0.0774546333973,1.90677669525,0.154798857488,-0.00666860762625,-0.069742209071,-0.00030463606351,-0.108085905715,-0.00461755500198,0.029789227948,-0.0135467728739,0.574045173432,0.818808590557,0.0023190062963,0.0,0.818769905028,-0.573984773139,-0.0117503075067,0.0,-0.00829033803996,0.00864410630136,-0.999928272288,0.0,0.657704922422,0.255639798582,0.303592580112,1.0,-0.01278,-0.0167965714286,0.64
0.461985917657,0.524520778851,-0.124080336976,-1.39196201906,0.0773473435446,1.90739296164,0.154561777753,-0.0102150356355,-0.0659929048311,-0.00258223969677,-0.107421147264,-0.0060005199389,0.0368292351005,-0.020518809421,0.57404177539,0.818811045191,0.00229331231009,0.0,0.818772038645,-0.573981485763,-0.0117622121644,0.0,-0.00831487051606,0.00862986730045,-0.999928191581,0.0,0.657480724518,0.255351615055,0.303592506132,1.0,-0.01312,-0.0172434285714,0.657
0.461826244898,0.523328701129,-0.124081936217,-1.39387331494,0.0772284490274,1.9080803226,0.154296736262,-0.00934464828532,-0.0689476888877,0.0013504802227,-0.114454880808,-0.00167415114018,0.0362774628086,-0.0181972525162,0.574026663898,0.81882172157,0.00226369608104,0.0,0.818782295931,-0.573966453459,-0.0117817262735,0.0,-0.00834800850406,0.0086166651998,-0.999928029328,0.0,0.657260155543,0.255081332404,0.303577902483,1.0,-0.01344,-0.017664,0.673
0.461668772767,0.522103825779,-0.124088578941,-1.39582358587,0.0771153898223,1.90883886192,0.154052669933,-0.00933161074418,-0.0702992910712,-0.00114381261953,-0.111459702189,-0.00345556794015,0.0524005498716,-0.0132297371414,0.574034722248,0.818815998025,0.00229040011264,0.0,0.818776923414,-0.573974413175,-0.0117673109257,0.0,-0.00832079158016,0.00863033797721,-0.999928138265,0.0,0.657032420861,0.25479173151,0.303576428587,1.0,-0.01378,-0.0181108571429,0.69
0.461489070026,0.520713652653,-0.124096109134,-1.39806192811,0.0769691163059,1.90969699819,0.153735901112,-0.0113572987663,-0.0707588901476,-0.00133451426535,-0.125112075982,-0.00928134244299,0.0441340651949,-0.0161619720914,0.574008103543,0.818834663446,0.00228864768127,0.0,0.81879569011,-0.573947933069,-0.0117530798139,0.0,-0.00831042454912,0.00862046388301,-0.999928309653,0.0,0.656767955548,0.254456445159,0.303562246988,1.0,-0.01416,-0.0186102857143,0.709
0.461323018573,0.51947240661,-0.124098930556,-1.39998517933,0.0768501993,1.91039827306,0.153472265688,-0.00643757881554,-0.0758920304416,0.000136482365928,-0.123800320774,-0.0141064700175,0.0435555816102,-0.0217502202173,0.574000414439,0.818840011336,0.00230368407207,0.0,0.818801220098,-0.573940174499,-0.0117467001342,0.0,-0.00829665096902,0.00862903620996,-0.999928350092,0.0,0.656535812602,0.254162162584,0.303579263214,1.0,-0.01448,-0.0190308571429,0.725
0.461151067235,0.518133271401,-0.12410603553,-1.4020647274,0.0767155021165,1.91114195857,0.153186148477,-0.012682322625,-0.0840848884618,0.000398642875602,-0.12642743231,-0.00853105905923,0.0417435501538,-0.015447099559,0.573985805108,0.818850258924,0.00230128118584,0.0,0.818811472086,-0.573925613046,-0.0117435416868,0.0,-0.00829559765155,0.00862510772546,-0.999928392724,0.0,0.656280408704,0.253844645612,0.303594030141,1.0,-0.01482,-0.0194777142857,0.742
0.460972159894,0.516767449134,-0.124109581703,-1.40419338814,0.0765690303985,1.91190577593,0.152898529785,-0.0109151293533,-0.0822032906703,0.000461113720884,-0.123911602235,-0.00651274944611,0.0433265337499,-0.0235233302189,0.573972179912,0.818859833668,0.00229268257782,0.0,0.818821031009,-0.573912121437,-0.0117363941301,0.0,-0.00829482312423,0.00861382627813,-0.999928496397,0.0,0.65601893256,0.253518693719,0.303605353298,1.0,-0.01516,-0.0199245714286,0.759
0.460809108829,0.515580249827,-0.124120898787,-1.40610347773,0.0764539755637,1.9126420051,0.15263324604,-0.0114360100907,-0.0796943219398,-0.00114573606496,-0.127850600601,-0.00827656681147,0.0411524249758,-0.0195928513313,0.573966605201,0.818863721978,0.00229953122006,0.0,0.818825053165,-0.573906568428,-0.0117273153781,0.0,-0.00828351653115,0.0086141670186,-0.99992858719,0.0,0.655794385167,0.253225377563,0.303592997072,1.0,-0.01546,-0.0203188571429,0.774
0.460606862211,0.51402862586,-0.124119138459,-1.40859888214,0.0763132649879,1.91353993788,0.152297432405,-0.0124512623536,-0.0818704800764,0.000140082181919,-0.132050557245,-0.00239668271867,0.0437011690115,-0.0159306706367,0.573949403087,0.818875870831,0.00226666461516,0.0,0.818836582942,-0.573889293294,-0.0117675987186,0.0,-0.00833554857928,0.00861019994149,-0.999928188965,0.0,0.655480317267,0.252856237829,0.303570751932,1.0,-0.01584,-0.0208182857143,0.793
0.460419663182,0.512693326988,-0.124121679671,-1.41073298805,0.076187308621,1.91427854797,0.151994346785,-0.00993233868859,-0.0850821775847,-0.00149322034003,-0.131721789936,-0.00676023089139,0.0441671928707,-0.0229373750841,0.573934079697,0.81888674283,0.00221844104759,0.0,0.818846688267,-0.57387401353,-0.0118095135302,0.0,-0.00839771008335,0.00859461085747,-0.999927802959,0.0,0.655210042784,0.252526175062,0.30355469377,1.0,-0.01616,-0.0212388571429,0.809
0.460234259469,0.511363002289,-0.124121641344,-1.41290795757,0.0760522417533,1.91508389315,0.151696985114,-0.0123698454139,-0.0833572093863,0.000523720162602,-0.138001704909,-0.011717543262,0.045696161355,-0.0194992976035,0.573919819379,0.818896835972,0.00218171062472,0.0,0.818856276152,-0.573859870474,-0.0118319469369,0.0,-0.00843731017787,0.0085772614256,-0.999927618572,0.0,0.65494190085,0.252196955689,0.303521046968,1.0,-0.01648,-0.0216594285714,0.825
0.460045449739,0.509988943571,-0.124123190003,-1.41507945277,0.0759246137761,1.91591431711,0.151378951157,-0.0120276858181,-0.0857207904821,2.68439526353e-05,-0.139602015827,-0.00573447985957,0.0490901978781,-0.0177539831971,0.57389420666,0.818914708783,0.00221047554148,0.0,0.818874480671,-0.573834104934,-0.0118216675091,0.0,-0.00841265312139,0.00859465398134,-0.99992767698,0.0,0.654680759151,0.251868482649,0.303521445064,1.0,-0.0168,-0.02208,0.841
0.459814714187,0.508300826909,-0.124125900939,-1.41772837483,0.0757558039373,1.9168576202,0.151019739349,-0.015703276923,-0.0837459330373,0.000540444002787,-0.142256797194,-0.00608841139744,0.0487981013751,-0.0170296707154,0.573882769766,0.818922772757,0.00219219691366,0.0,0.818882277623,-0.573822711248,-0.011834625147,0.0,-0.00843387404151,0.00858700398657,-0.999927563942,0.0,0.654348460458,0.251460559899,0.303523643039,1.0,-0.01718,-0.0225794285714,0.86
0.459611080882,0.506783023638,-0.124131938826,-1.42011924007,0.0755954665645,1.91773081615,0.150680541777,-0.0108868902757,-0.0865998576404,-0.000168800242977,-0.142159028345,-0.00544058333177,0.044246610236,-0.0256005259493,0.573856419125,0.818941262324,0.00218311557251,0.0,0.818900736478,-0.573796488514,-0.011828798201,0.0,-0.00843458927299,0.00857595184199,-0.99992765276,0.0,0.654051770052,0.251093496257,0.303522976922,1.0,-0.01752,-0.0230262857143,0.877
0.459400026362,0.505270444916,-0.124132361091,-1.42243752923,0.0754493318531,1.91860568112,0.150368214951,-0.0132372305463,-0.0923609293853,0.00174303108823,-0.145884060119,-0.00515134509737,0.0479772894191,-0.0129971174194,0.573854039643,0.818942778423,0.0022391417549,0.0,0.818903005623,-0.573793916165,-0.01179644247,0.0,-0.00837596671882,0.008603241717,-0.999927911108,0.0,0.653771542211,0.250735827857,0.303552603482,1.0,-0.01784,-0.0234468571429,0.893
0.459174077422,0.503620741638,-0.124137766287,-1.4249140871,0.0752930218476,1.91955727386,0.150015997609,-0.0175392649342,-0.0982274537759,7.33824529609e-05,-0.146700980865,-0.00360719170073,0.0499809846235,-0.0301320407043,0.573839784338,0.818952481322,0.00234139890184,0.0,0.818914114303,-0.573779354609,-0.0117333934145,0.0,-0.00826580444269,0.00865065910646,-0.999928418725,0.0,0.653476692902,0.250352155103,0.303608899204,1.0,-0.01818,-0.0238937142857,0.91
0.458953963503,0.502035640881,-0.124145518072,-1.42725509621,0.0751405538083,1.92043518363,0.149694503542,-0.0129107767594,-0.103536862315,-0.00104740079611,-0.149428699783,-0.00634489732223,0.0506105819652,-0.0204518589285,0.573840962972,0.818951367897,0.00243990496452,0.0,0.81891437788,-0.57378027624,-0.0116697558102,0.0,-0.00815715018963,0.00869482457017,-0.999928927938,0.0,0.653195826683,0.249981908468,0.303677622186,1.0,-0.0185,-0.0243142857143,0.926
0.458721798062,0.500329285963,-0.1241440264,-1.42984441223,0.074971848074,1.92134551822,0.149336882045,-0.0133516929954,-0.103320254126,-0.000361487593356,-0.153708123561,-0.0145923909843,0.0551719244592,-0.0173819672433,0.573823337845,0.818963653607,0.00246128366709,0.0,0.818926909367,-0.573762542914,-0.011662262446,0.0,-0.00813893338613,0.0087078574434,-0.999928962968,0.0,0.652865579941,0.249581129083,0.303714741313,1.0,-0.01884,-0.0247611428571,0.943
0.458486111205,0.498733897553,-0.124147005418,-1.43230785878,0.0748202895638,1.92224649202,0.148985730569,-0.0127552351997,-0.101882515724,-0.00305376585533,-0.155787969132,-0.00596264736725,0.0553080876963,-0.022422030051,0.573815300361,0.818969200625,0.00248925714081,0.0,0.818932775517,-0.573754359839,-0.0116529245701,0.0,-0.00811532042789,0.00872532866119,-0.999929002587,0.0,0.652560758372,0.249191064515,0.303733133714,1.0,-0.01916,-0.0251817142857,0.959
0.458226802124,0.497074889776,-0.124146973091,-1.43496552731,0.0746585454026,1.92321631488,0.148588001336,-0.0162837388946,-0.0970543438691,0.000284858076012,-0.160957711673,-0.00362552128604,0.057655571325,-0.0273125666607,0.573793085311,0.818984838065,0.00246519188967,0.0,0.818948006758,-0.573732132724,-0.0116768577829,0.0,-0.00814896657285,0.00871913210861,-0.999928783004,0.0,0.652229071978,0.248768314868,0.303708828561,1.0,-0.0195,-0.0256285714286,0.976
0.457975375753,0.495490529717,-0.124142755117,-1.43750823449,0.0745011997558,1.92409424159,0.148214183926,-0.0188985320102,-0.100142585975,-0.000308107246623,-0.161609492635,-0.0104807051948,0.055459495967,-0.0210208248297,0.57377548552,0.818997364938,0.00239902945611,0.0,0.818959513935,-0.573714605416,-0.0117308554122,0.0,-0.00823133991207,0.00869575267719,-0.999928311895,0.0,0.651900517986,0.248360517224,0.303678510354,1.0,-0.01982,-0.0260491428571,0.992
0.457699931126,0.493825867115,-0.124147253597,-1.44025479817,0.074319509352,1.92508042368,0.147842143917,-0.0165028474643,-0.103154924695,0.000550767201376,-0.165015437405,-0.00964491013255,0.0641151424595,-0.0239153981525,0.573788578726,0.818988452885,0.0023082169863,0.0,0.818949434822,-0.57372805089,-0.0117768301262,0.0,-0.00832095925661,0.00864789011506,-0.999927985224,0.0,0.651554305727,0.247912386863,0.303616250244,1.0,-0.0206382857143,-0.0271246040816,1.009
0.457379708139,0.491790146751,-0.124153357081,-1.44350412922,0.0741142148507,1.92628241174,0.147377714862,-0.0186065530691,-0.1047992752,-0.00123022162507,-0.175540478195,-0.0156639456175,0.0673107817238,-0.0194151733126,0.573782279954,0.818992908868,0.00229288806117,0.0,0.818953685271,-0.573721804787,-0.0117855417159,0.0,-0.00833695572807,0.00864027047582,-0.99992791785,0.0,0.65115007878,0.247390351279,0.303590903459,1.0,-0.0222017142857,-0.0291793959184,1.028
0.457085770604,0.489982934703,-0.12415718562,-1.44643929317,0.0739331811972,1.92730032939,0.146963212711,-0.0183965965431,-0.114354444291,-7.10804595465e-05,-0.186535583644,-0.0137264215502,0.0660200393488,-0.0244895442544,0.573783537317,0.818992283592,0.00219968663608,0.0,0.81895168692,-0.573723258962,-0.0118534180077,0.0,-0.0084460091088,0.00860289882752,-0.99992732489,0.0,0.650769451272,0.246912743533,0.303539302475,1.0,-0.0235182857143,-0.0309097469388,1.044
0.4567531223,0.487907201748,-0.124173071342,-1.44970773838,0.0737330309267,1.92850033694,0.146480510051,-0.0184320741367,-0.127165424095,0.00126182860766,-0.201221807598,-0.0142920373508,0.070468764766,-0.031805673847,0.57378040221,0.818994470118,0.00220337398448,0.0,0.818953887607,-0.573720075202,-0.0118554706525,0.0,-0.00844560762108,0.00860706412246,-0.999927292436,0.0,0.650362656176,0.246376247117,0.303530951025,1.0,-0.0249171428571,-0.032748244898,1.061
0.456370416714,0.48554015952,-0.124191972606,-1.45328597467,0.0735118615864,1.92988547569,0.145957776764,-0.0249923557967,-0.135370259673,0.000138205250021,-0.196008580883,-0.0124355682079,0.0767277019788,-0.0333021660496,0.573796740378,0.818982626865,0.00234617277986,0.0,0.818944013434,-0.573735975387,-0.0117677656449,0.0,-0.00829167153231,0.00867385671977,-0.999928003605,0.0,0.649936945612,0.245781805847,0.303592331213,1.0,-0.0263982857143,-0.0346948897959,1.079
0.455982565089,0.483216257607,-0.124228149012,-1.45688339012,0.0732840493563,1.93112709101,0.145415169274,-0.0239773113026,-0.144346061574,-0.000722669066113,-0.218338825799,-0.00957099420762,0.0710569403914,-0.0263429237517,0.573810748392,0.818972906121,0.00231321643539,0.0,0.818933857897,-0.573750099856,-0.0117858477588,0.0,-0.00832524211608,0.00865738406399,-0.999927867421,0.0,0.649479794938,0.245160903739,0.303601535516,1.0,-0.0277971428571,-0.0365333877551,1.096
0.455628040842,0.481042823011,-0.124254758011,-1.46025253642,0.0730785064377,1.93230323728,0.144911108729,-0.0272428426693,-0.15116630474,-0.00043432769224,-0.228721092105,-0.0148558158851,0.0829687304003,-0.0392300398276,0.573816400548,0.818968992852,0.00229654298037,0.0,0.818929636064,-0.573755719834,-0.011805593366,0.0,-0.00835092101922,0.00865511683653,-0.99992767292,0.0,0.649047973464,0.244591669919,0.303607887405,1.0,-0.0290314285714,-0.0381555918367,1.111
0.455229244422,0.478654483976,-0.12426830256,-1.46392268694,0.0728505182473,1.93367770639,0.144362145149,-0.0216770917383,-0.144868636363,-9.77534217724e-05,-0.227341287361,-0.0190392640877,0.0834723150937,-0.0394680688908,0.573820239767,0.818966085859,0.00237266699282,0.0,0.818927727277,-0.573759278361,-0.0117649858945,0.0,-0.0082739440457,0.00869419720511,-0.999927973799,0.0,0.648594367118,0.243978489625,0.30363547781,1.0,-0.030348,-0.0398859428571,1.127
0.454774231352,0.475987521962,-0.124291348908,-1.46798283469,0.0725976458167,1.93517263794,0.143792434958,-0.026519232979,-0.158197197758,-0.00423237663141,-0.239420827548,-0.0143245982768,0.0880781984991,-0.0370391728011,0.573870908781,0.818930336753,0.00245570804474,0.0,0.818893074745,-0.573809652209,-0.0117201564495,0.0,-0.00818904035333,0.00873698735826,-0.999928299765,0.0,0.648090480726,0.243285365745,0.30367958,1.0,-0.0317468571429,-0.0417244408163,1.144
0.454300974279,0.473227946049,-0.124296037739,-1.47226553013,0.0723248751342,1.93669554732,0.143165243131,-0.0274042617932,-0.165868419153,-0.000354565682384,-0.256303033995,-0.0198649600614,0.0837327383976,-0.0372435872451,0.573879766355,0.818924132578,0.00245474056424,0.0,0.818886742043,-0.573818388539,-0.01173488737,0.0,-0.00820156509109,0.00874473728862,-0.999928129367,0.0,0.647537869717,0.242565442562,0.303682122324,1.0,-0.0331457142857,-0.0435629387755,1.161
0.453819179104,0.470372474964,-0.124291456031,-1.47668541687,0.0720542362651,1.93824741117,0.142500713759,-0.0279007038627,-0.1710053614,0.000941380955515,-0.263065445695,-0.0185226894655,0.101348356009,-0.0350034835424,0.573864158781,0.818935074884,0.00245301691138,0.0,0.818897373383,-0.573802481864,-0.0117707508041,0.0,-0.00823209199265,0.00876374984333,-0.999927712062,0.0,0.646956106322,0.241833315383,0.303686051162,1.0,-0.0345445714286,-0.0454014367347,1.178
0.453353900511,0.467527406797,-0.12429144502,-1.48090706082,0.0717770501657,1.93990584798,0.14181003922,-0.0254467413037,-0.179531188687,0.00144826014277,-0.268744952199,-0.0196483994258,0.096578555533,-0.0373872482922,0.573804706948,0.818976005183,0.00268479412609,0.0,0.81894150886,-0.573742421783,-0.0116269262827,0.0,-0.00798194703285,0.00887044516449,-0.999928799327,0.0,0.646438812929,0.241138629583,0.303784251719,1.0,-0.0358611428571,-0.0471317877551,1.194
0.45282449021,0.464455231316,-0.124299922774,-1.48567043798,0.0714459042407,1.94150801843,0.141086830049,-0.0309455754087,-0.184102992973,-0.00318089854233,-0.287232190263,-0.0291035533823,0.100882446605,-0.0494293676829,0.573784810802,0.818990224946,0.00259792919065,0.0,0.818954559343,-0.573722783853,-0.0116766399465,0.0,-0.00807271823372,0.00882763455735,-0.999928449484,0.0,0.645797591312,0.240325495273,0.303774932185,1.0,-0.03726,-0.0489702857143,1.211
0.452264439747,0.461297538813,-0.124303403816,-1.49064375696,0.0711176130619,1.94325025253,0.14035257103,-0.0363041391755,-0.191534994454,0.000280412324737,-0.294767261237,-0.0237319750314,0.103285839585,-0.0464337798987,0.573787105439,0.818988829413,0.00253018359892,0.0,0.818952157556,-0.573725183324,-0.0117270863495,0.0,-0.00815287964091,0.00880111969792,-0.999928032833,0.0,0.645136104849,0.239482248163,0.303734585299,1.0,-0.0386588571429,-0.0508087836735,1.228
0.451684266567,0.458062873532,-0.124307399074,-1.4956728041,0.0707819308545,1.94502810715,0.139583088076,-0.0346404855196,-0.191716021701,0.0002860802799,-0.298015765423,-0.0195446799538,0.108575312528,-0.0451545806991,0.573775973328,0.818996692321,0.00250944221404,0.0,0.818959682564,-0.573714054581,-0.0117460126196,0.0,-0.00818040071414,0.0087948811513,-0.999927862953,0.0,0.644470658703,0.238622083181,0.303721279634,1.0,-0.0400577142857,-0.0526472816327,1.245
0.451017244624,0.454555348516,-0.12433838359,-1.50127712181,0.0703929781882,1.94696667508,0.138721619542,-0.0348244263414,-0.197912060215,-0.00193245729516,-0.31299766445,-0.0191151322297,0.106416663788,-0.0408399808535,0.573789716301,0.818987525582,0.00235399873726,0.0,0.818948546998,-0.573728434105,-0.0118198210668,0.0,-0.00832989037508,0.00871006331786,-0.999927371224,0.0,0.64372407475,0.237629321168,0.303634252931,1.0,-0.0415388571429,-0.0545939265306,1.263
0.450452566326,0.451421685565,-0.124381427592,-1.50597388045,0.0700881141857,1.9486920673,0.137967027079,-0.0413091808744,-0.213650601967,-0.00469402252097,-0.316894294773,-0.0262532570392,0.119482564863,-0.0524656351973,0.573796617101,0.818982311059,0.00248259470763,0.0,0.818945145831,-0.573735001618,-0.0117363937649,0.0,-0.00818770504915,0.00876758072723,-0.999928042918,0.0,0.643123415909,0.236796579826,0.303700825207,1.0,-0.0427731428571,-0.0562161306122,1.278
0.449787039235,0.447787380561,-0.124409954219,-1.51144963661,0.0697111673496,1.95061334635,0.137156127895,-0.0358731467183,-0.215373981059,-0.00257639041598,-0.328732869931,-0.0261444025293,0.111474571545,-0.0513823889732,0.573841771014,0.818950509516,0.00253608048843,0.0,0.818914144701,-0.573780069781,-0.011696240091,0.0,-0.00812364574769,0.0087887925236,-0.999928379188,0.0,0.642397496785,0.235825428664,0.303753937739,1.0,-0.044172,-0.0580546285714,1.295
0.449064791228,0.443876724376,-0.124420312364,-1.51747602267,0.0692994704262,1.95266825303,0.136241720555,-0.0364236198056,-0.216279369599,-0.000790929817513,-0.336503746442,-0.027689142245,0.110850875108,-0.0598240646802,0.573847740692,0.818946508162,0.00247672621699,0.0,0.818909241936,-0.573786113815,-0.0117429113404,0.0,-0.00819586292261,0.0087670259231,-0.99992798095,0.0,0.641570874755,0.234772345853,0.303742367481,1.0,-0.0456531428571,-0.0600012734694,1.313
0.448351878223,0.440121028416,-0.124416342862,-1.52325501837,0.0688964264228,1.95473130851,0.135300083416,-0.0400001269831,-0.220432638342,0.00049355153596,-0.344890992045,-0.0182061241407,0.117114207372,-0.0505066547984,0.573802161336,0.818978379844,0.00249797833201,0.0,0.818941410078,-0.573740484205,-0.0117290470139,0.0,-0.00817280197456,0.00877601939011,-0.99992809081,0.0,0.640792976403,0.233763546553,0.303739272848,1.0,-0.047052,-0.0618397714286,1.33
0.447599225558,0.4362724739,-0.12443166943,-1.52919170925,0.0684978793119,1.95683177414,0.134331482246,-0.0443216797934,-0.230614278705,-0.0012332588145,-0.346286090557,-0.0312301313593,0.124517200259,-0.0646443280793,0.573787307581,0.818988775915,0.00250149678265,0.0,0.818951777183,-0.573725539277,-0.0117362315282,0.0,-0.00817682673177,0.00878287502305,-0.999927997713,0.0,0.639991729481,0.232705092867,0.303725013151,1.0,-0.0484508571429,-0.0636782693878,1.347
0.446804278235,0.432262465398,-0.124452233584,-1.53520476031,0.0680720787663,1.95901199777,0.133364633083,-0.0506377722962,-0.228073076304,-0.00180926849419,-0.361750192213,-0.0267927001663,0.125113318657,-0.055806718779,0.573804742064,0.818976153302,0.00263157924585,0.0,0.818941084301,-0.573742770361,-0.0116396221452,0.0,-0.0080228778687,0.00883414882852,-0.999928793087,0.0,0.639196988043,0.231611869151,0.303787392871,1.0,-0.0498497142857,-0.0655167673469,1.364
0.446043408391,0.42845070372,-0.124484500364,-1.54116737531,0.0676265071645,1.96093000276,0.132433860663,-0.0473971399164,-0.239499672835,-0.00253533831354,-0.377172461803,-0.0233771310201,0.118739160505,-0.0642947142152,0.573819975306,0.818966167591,0.00240814920363,0.0,0.818928221119,-0.573758829703,-0.0117524845655,0.0,-0.00824334908545,0.0087160795582,-0.999928035987,0.0,0.63834633698,0.230518713217,0.303713319686,1.0,-0.0511662857143,-0.0672471183673,1.38
0.445259734264,0.424500687961,-0.124532657847,-1.5471621029,0.0671966153318,1.96297472735,0.131430695441,-0.0503069486477,-0.249568848382,-0.00403281363734,-0.370009603933,-0.0255170449477,0.1299929217,-0.0557938498125,0.573810550043,0.818972833506,0.00238695220853,0.0,0.818934751687,-0.573749632357,-0.0117464356443,0.0,-0.00825065758186,0.00869515422096,-0.999928157891,0.0,0.637517923816,0.229411466959,0.303725312838,1.0,-0.0524828571429,-0.0689774693878,1.396
0.444446402599,0.420502148524,-0.12454246829,-1.55324199781,0.0667833939768,1.96505711988,0.13044443869,-0.0513695797298,-0.255329743036,-0.00145492988414,-0.379440262385,-0.029460723962,0.129419288982,-0.0689160047457,0.573817059057,0.818968273942,0.00238661091749,0.0,0.818929987482,-0.573755930931,-0.0117709058752,0.0,-0.00827082553764,0.00870898151542,-0.999927870942,0.0,0.636667387057,0.228305245684,0.303728207681,1.0,-0.0537994285714,-0.0707078204082,1.412
0.443531787994,0.416117914937,-0.124561199841,-1.55971068565,0.0663353549727,1.96744452025,0.129393260687,-0.0577623426992,-0.25906282478,-7.8302862027e-05,-0.383140598253,-0.0260529096797,0.1431705537,-0.0668751157139,0.573864014327,0.818934627288,0.0026298649718,0.0,0.818899703297,-0.573802225288,-0.0116202020709,0.0,-0.00800731764464,0.00882218130718,-0.999929023472,0.0,0.635806527691,0.227104808388,0.303829508685,1.0,-0.0551982857143,-0.0725463183673,1.429
0.442611457142,0.411678250642,-0.124565969536,-1.56645848664,0.0658555660118,1.96973984459,0.128226751156,-0.0574933684274,-0.263933355657,-0.000847495211001,-0.39982668794,-0.0331093519569,0.124104018584,-0.0739730165733,0.573808563355,0.818973544533,0.00261014902127,0.0,0.818938242651,-0.573746715238,-0.0116451010671,0.0,-0.00803962005774,0.00881977937405,-0.999928785465,0.0,0.634847344518,0.225869055841,0.303823105762,1.0,-0.0565971428571,-0.0743848163265,1.446
0.441673096726,0.407135933041,-0.124594825141,-1.5733679231,0.065367068697,1.97198103828,0.127127424651,-0.049757136266,-0.271826333472,-0.00268277865475,-0.399725777597,-0.0263217384987,0.141558168048,-0.0673880817309,0.573840877055,0.818951255973,0.00249701067564,0.0,0.818914234325,-0.57377915637,-0.0117347107207,0.0,-0.00817758084808,0.00877886329785,-0.999928026775,0.0,0.633838576961,0.224587837686,0.303800279851,1.0,-0.057996,-0.0762233142857,1.463
0.440682129004,0.4026023766,-0.124595413108,-1.58035067344,0.0648910380223,1.9743990148,0.125958298008,-0.0544102282842,-0.278557786062,-0.000301124636804,-0.406808383827,-0.0276991174682,0.135040681224,-0.071585875327,0.573842434432,0.818950242669,0.00247131116139,0.0,0.818912589904,-0.57378049049,-0.0117841304694,0.0,-0.00823278488381,0.00878619110125,-0.999927509422,0.0,0.632842349847,0.223296614993,0.303746634469,1.0,-0.0593948571429,-0.0780618122449,1.48
0.439710204561,0.398119313049,-0.12461934268,-1.586862843,0.0644223220684,1.97677089452,0.124820274666,-0.0587783802523,-0.286079384201,-0.00137949319621,-0.403381980784,-0.0295494093091,0.141767687224,-0.073968281374,0.573831827833,0.818956765376,0.00275621314087,0.0,0.818923122642,-0.573769215834,-0.0115997010464,0.0,-0.00791837584902,0.0089135759397,-0.999928921218,0.0,0.631892178057,0.221986554663,0.303881413616,1.0,-0.0607937142857,-0.0799003102041,1.497
0.438644228104,0.393321304527,-0.1246265388,-1.59412157643,0.0638618052087,1.97914738072,0.123613732615,-0.0658463987198,-0.284594456234,-0.000508421868448,-0.436648499621,-0.0303460305715,0.138621231032,-0.0750284256911,0.573862842166,0.818935395006,0.00264652383164,0.0,0.818900352361,-0.573800626559,-0.011653358463,0.0,-0.00802492518793,0.00885483918973,-0.99992859365,0.0,0.630885586056,0.220675874758,0.303851355138,1.0,-0.0621102857143,-0.0816306612245,1.513
0.437580339386,0.38844089546,-0.124646811823,-1.60150335477,0.0633181997961,1.98153140853,0.122348749795,-0.0637891648733,-0.290581179224,-0.00233403980127,-0.443964450084,-0.0383401954425,0.14693527851,-0.0777867155248,0.573842009025,0.818950341618,0.00253644312453,0.0,0.818913650869,-0.573779948981,-0.0117366719676,0.0,-0.00815654834959,0.00881229298444,-0.999927904507,0.0,0.62978138646,0.219281162045,0.303822003021,1.0,-0.0635091428571,-0.0834691591837,1.53
0.436479241734,0.383504172295,-0.124645774285,-1.60888556118,0.0627739475101,1.98402170569,0.120991408071,-0.0652758617857,-0.299919335542,0.00118630933103,-0.42364307211,-0.0204946111038,0.152953560035,-0.0765390244879,0.573755820002,0.819010640887,0.00256437705637,0.0,0.818974204573,-0.57369355191,-0.0117348899192,0.0,-0.0081399898516,0.0088332901164,-0.999927854173,0.0,0.628693846031,0.217885554542,0.303832532552,1.0,-0.064908,-0.0853076571429,1.547
0.435395024096,0.378767544834,-0.124647502165,-1.61584951858,0.0622784873569,1.98648269047,0.119785638148,-0.0754385954091,-0.294822275701,-0.00150369610699,-0.439743284186,-0.0285855402098,0.150950850895,-0.077873211061,0.573777458565,0.818994855636,0.00275706092086,0.0,0.818960911959,-0.573714499747,-0.0116380567479,0.0,-0.00794989583929,0.00893575179043,-0.99992847319,0.0,0.627693109023,0.216551970488,0.303899306643,1.0,-0.0662245714286,-0.0870380081633,1.563
0.434106927219,0.373388022386,-0.124686500579,-1.6240677623,0.0616137662772,1.98908917999,0.118311373333,-0.0732607104701,-0.304853407223,-0.00220367792153,-0.456757380006,-0.0337636553702,0.141234852318,-0.0847489795189,0.573762817536,0.819005881331,0.00251842391328,0.0,0.818968954443,-0.573700831139,-0.0117454208512,0.0,-0.00817490425591,0.00880176622113,-0.999927847323,0.0,0.626447959567,0.214921956398,0.303807290433,1.0,-0.0677057142857,-0.0889846530612,1.581
0.432799322064,0.367842038117,-0.124748923919,-1.63233829569,0.0609857340361,1.99173325444,0.116928663034,-0.071401087728,-0.313446563237,-0.00905829762904,-0.457514869397,-0.0385924060982,0.151210244674,-0.0753975952577,0.573865736203,0.818934042989,0.00242836310504,0.0,0.818895888084,-0.573804010419,-0.0117995341975,0.0,-0.00826979497653,0.00876009359956,-0.999927432993,0.0,0.625195243598,0.213273873887,0.30379680789,1.0,-0.0691868571429,-0.0909312979592,1.599
0.431519362021,0.362490740115,-0.124768277038,-1.64000838821,0.0603785936333,1.99444546477,0.115480950467,-0.0769982468814,-0.314803558184,-0.000693706772876,-0.454901796766,-0.031349388306,0.156264184618,-0.0853425843915,0.57383923715,0.818951678797,0.00272481278044,0.0,0.818917915035,-0.573777050669,-0.0115797867628,0.0,-0.00792000325334,0.00887650490358,-0.999929238101,0.0,0.624087782089,0.211744331042,0.303938077473,1.0,-0.0705857142857,-0.0927697959184,1.616
0.430189543007,0.357160181983,-0.124782453024,-1.64799036889,0.0598021603254,1.99697952497,0.114001602498,-0.0809660435001,-0.314738826997,-0.00103171925906,-0.483051096127,-0.0310226504884,0.140213338271,-0.0882241472075,0.573840143887,0.818951339806,0.00263423517113,0.0,0.818915862959,-0.573777671714,-0.0116935767917,0.0,-0.00806516033676,0.00886763148647,-0.99992815657,0.0,0.622854824137,0.210149711565,0.303896384454,1.0,-0.0719845714286,-0.0946082938775,1.633
0.428981476378,0.352389355028,-0.124811852309,-1.65517610425,0.0592442970658,1.99925726029,0.112708238774,-0.079229363619,-0.317595447116,-0.00325829660603,-0.479021290955,-0.0438479904585,0.148949553668,-0.0755444967359,0.573876364187,0.818926374196,0.00250183431067,0.0,0.818889012322,-0.573814188849,-0.0117817263256,0.0,-0.00821293652049,0.00881014851792,-0.999927461848,0.0,0.621740573289,0.208694771557,0.303834513189,1.0,-0.0732188571429,-0.0962304979592,1.648
0.427568682955,0.346846226698,-0.124846938061,-1.66323209929,0.0586537015889,2.00194475916,0.111141415097,-0.0783584943864,-0.33585227667,-0.00129930953998,-0.464040004333,-0.0388473525468,0.163398235474,-0.0899438286712,0.573878230272,0.818924607698,0.00264775896542,0.0,0.818889002663,-0.573815370872,-0.0117246905971,0.0,-0.00808246846748,0.00889693668246,-0.999927756501,0.0,0.620523188577,0.207045608622,0.303896605524,1.0,-0.0746177142857,-0.0980689959184,1.665
0.425968759461,0.340551370675,-0.124850295137,-1.67236468383,0.0579248550877,2.00490518426,0.109464196167,-0.0805098992926,-0.331690175359,0.000710922244929,-0.489096935321,-0.0318959579493,0.161739125639,-0.087054157509,0.573904385985,0.818906013212,0.00272840128082,0.0,0.818871494457,-0.573841282014,-0.011679277485,0.0,-0.00799871527369,0.00893717067633,-0.99992807118,0.0,0.619106160099,0.205190445477,0.303956127844,1.0,-0.0761811428571,-0.100123787755,1.684
0.424601954199,0.335221457465,-0.124854133106,-1.68030966039,0.0572720500754,2.00732929184,0.107922744253,-0.085227552834,-0.337751525634,0.000467931726289,-0.497241349156,-0.0424576898223,0.146853670598,-0.0941438603534,0.573826988263,0.818960836344,0.00254616905125,0.0,0.818923733516,-0.573764312712,-0.0117974167655,0.0,-0.00820087925758,0.00885496488296,-0.999927164936,0.0,0.617822032973,0.203583043358,0.303891796721,1.0,-0.0774977142857,-0.101854138776,1.7
0.423127691125,0.329438937426,-0.124840700788,-1.68863531413,0.0565831976936,2.01005190827,0.106310031435,-0.0860021836247,-0.347716696311,0.001352628854,-0.479098783116,-0.0380858226262,0.165080840451,-0.0933075546911,0.573762053359,0.819005941498,0.00266848595785,0.0,0.818970629712,-0.573699161471,-0.0117101109378,0.0,-0.00805989745529,0.00890440035934,-0.999927872252,0.0,0.616511316567,0.201900171871,0.303959292892,1.0,-0.0788965714286,-0.103692636735,1.717
0.421659938438,0.323996789498,-0.124846184158,-1.6965436817,0.0559642136982,2.01269865728,0.1047229962,-0.0937835195018,-0.33888676697,-0.000643169715587,-0.506939141464,-0.0414348708367,0.160643526399,-0.102296306056,0.573732001153,0.819026531467,0.00280686802863,0.0,0.818993044924,-0.573668665442,-0.0116362174448,0.0,-0.00792031106771,0.00897504851144,-0.999928356022,0.0,0.615280888006,0.200262178196,0.303988597552,1.0,-0.0802131428571,-0.105422987755,1.733
0.420243755787,0.318815551583,-0.124876763986,-1.70419340283,0.055326403949,2.01500370478,0.10330332914,-0.093006631774,-0.3526131447,-0.00396383271095,-0.507593158737,-0.0453955588033,0.161183701155,-0.0971353442118,0.573802810811,0.818977468879,0.00264323189371,0.0,0.818941753575,-0.573739920681,-0.011732628433,0.0,-0.00809238648386,0.00889703943079,-0.99992767537,0.0,0.613950206715,0.198537637935,0.303935688617,1.0,-0.0815297142857,-0.107153338776,1.749
0.418604913737,0.312853199128,-0.124920755882,-1.71288332091,0.0546232983524,2.01767613287,0.10149542438,-0.0974453625795,-0.350424229283,-0.00149264773806,-0.507309664657,-0.0361844677382,0.167409245575,-0.10424974132,0.573738050571,0.819023028889,0.00258348179313,0.0,0.818986308174,-0.573675136385,-0.011790327318,0.0,-0.00817462770846,0.00888056660544,-0.999927152846,0.0,0.612618096502,0.196804010881,0.303919089381,1.0,-0.0828462857143,-0.108883689796,1.765
0.416894995388,0.30676817123,-0.124940407162,-1.72145680238,0.0538814408035,2.02050083337,0.0997467938246,-0.100899525739,-0.351219405568,-0.00102991520323,-0.511537035961,-0.0304956534034,0.160427945227,-0.10397852982,0.57374641009,0.819016393552,0.00281973450278,0.0,0.818983341339,-0.573683332962,-0.0115959903157,0.0,-0.00787982319141,0.00896264595855,-0.999928787146,0.0,0.611269011148,0.194953589613,0.304039522406,1.0,-0.0842451428571,-0.110722187755,1.782
0.415133292829,0.300702804943,-0.124985333769,-1.73035216787,0.0531430509287,2.02313385665,0.0979302547485,-0.105976070431,-0.358010759542,-0.00421876776792,-0.524055034766,-0.0448768069982,0.146735140902,-0.0973804629677,0.57376560442,0.819003554027,0.00263753246227,0.0,0.818967813181,-0.573702792812,-0.0117291685264,0.0,-0.00809322678885,0.00889001882212,-0.999927731011,0.0,0.609788139373,0.193018455539,0.303971039659,1.0,-0.085644,-0.112560685714,1.799
0.413335962048,0.294588071699,-0.1250687845,-1.73926819188,0.0524438926963,2.02582922954,0.0961571040874,-0.105407477648,-0.364434116438,-0.00656867255002,-0.512042349685,-0.041175173883,0.161337001958,-0.107426553894,0.573888200633,0.818917938363,0.00254760721762,0.0,0.818880576342,-0.5738252119,-0.0118310937718,0.0,-0.00822697206339,0.00887608207495,-0.999926763367,0.0,0.608312470141,0.191053528846,0.303920847971,1.0,-0.0870428571428,-0.114399183673,1.816
0.41148939254,0.288279404812,-0.12508602992,-1.74806309397,0.0516939158781,2.02872887777,0.0942496693128,-0.108863569179,-0.36497896908,0.000378445953976,-0.524197898901,-0.0399142280387,0.157042394536,-0.110352181187,0.573861068034,0.818935918268,0.00286064099604,0.0,0.818903125664,-0.573797530967,-0.0116108197566,0.0,-0.00786724006743,0.00900575866807,-0.999928498866,0.0,0.60690248078,0.189123810312,0.304056253583,1.0,-0.0884417142857,-0.116237681633,1.833
0.409716931763,0.282375387788,-0.125107999246,-1.75663213954,0.05095880684,2.03118032077,0.0924525280251,-0.111344718076,-0.373694631364,-0.000413762529822,-0.536152949543,-0.0483359201676,0.155111900142,-0.110335792023,0.573857258314,0.818939237714,0.00266812940044,0.0,0.818903535498,-0.573793929607,-0.0117589453917,0.0,-0.00809906125405,0.0089330687516,-0.999927300102,0.0,0.605427861528,0.187239770775,0.303992710729,1.0,-0.0897582857143,-0.117968032653,1.849
0.407780969095,0.276012834764,-0.125136048845,-1.7657637501,0.050157760896,2.03389541393,0.0905032603771,-0.117976205479,-0.383714758842,-0.00398816065715,-0.535617796593,-0.0457987877613,0.168627331748,-0.119505571044,0.573854361111,0.818941504789,0.0025943920092,0.0,0.818904778534,-0.573791231301,-0.0118039602273,0.0,-0.00817827102263,0.00889848539196,-0.999926963753,0.0,0.603873967051,0.185212510501,0.303968384256,1.0,-0.0911571428571,-0.119806530612,1.866
0.405802037108,0.269555333661,-0.125160428049,-1.77478003916,0.0493649307078,2.0367684893,0.088487993357,-0.118830835018,-0.380114692906,-0.00375845613917,-0.543146873504,-0.0470472689443,0.159516238638,-0.121625156263,0.573822761998,0.818962898215,0.00282064897384,0.0,0.818929551418,-0.573759323661,-0.0116350860382,0.0,-0.00791048243658,0.00898656302455,-0.999928330408,0.0,0.602379570518,0.183192373331,0.304060116516,1.0,-0.092556,-0.121645028571,1.883
0.403867498754,0.263445807204,-0.125239381982,-1.78351878872,0.0486064535105,2.03926070341,0.0866244717636,-0.12119165119,-0.382941215734,-0.00628171987446,-0.546652202903,-0.0477810487879,0.154710119394,-0.114543933425,0.57391833422,0.818896373104,0.0026875015494,0.0,0.818861044176,-0.573855062339,-0.0117347628907,0.0,-0.00806747372512,0.00893565793476,-0.999927532317,0.0,0.600864893619,0.181183902609,0.304020835117,1.0,-0.0938725714286,-0.123375379592,1.899
0.401658445868,0.256470079932,-0.125281604502,-1.79333164727,0.0477249102687,2.04213256195,0.0844354233546,-0.128289644981,-0.400017776528,-0.000236837391532,-0.533179522181,-0.0449628862784,0.163753141388,-0.124720742329,0.57392109301,0.818894447315,0.00268515471234,0.0,0.818859119692,-0.573857864373,-0.0117320286394,0.0,-0.00806655126588,0.00893219409632,-0.999927570707,0.0,0.599163618803,0.17894442421,0.304041878612,1.0,-0.0953537142857,-0.12532202449,1.917
0.399542180763,0.249803178363,-0.125247987717,-1.8025990405,0.0468761182133,2.04492587937,0.0823392653039,-0.127010381878,-0.38474221117,0.00477802669916,-0.553747432759,-0.0464413400113,0.160201575511,-0.130143872736,0.573852725295,0.818941923849,0.00281459326436,0.0,0.818908466617,-0.573789267435,-0.011642455982,0.0,-0.00791966437106,0.00898612235939,-0.999928261687,0.0,0.597551347366,0.176866930432,0.304104278224,1.0,-0.0967525714286,-0.127160522449,1.934
0.397512259094,0.24356731948,-0.125268181899,-1.81152568919,0.0461236933766,2.04744803869,0.0802946926916,-0.128939063722,-0.396275530807,-0.000534076087598,-0.556491958317,-0.0525239067266,0.164184304938,-0.124218242571,0.573817578693,0.81896698389,0.00268562506169,0.0,0.818931107308,-0.573753747918,-0.0117993700511,0.0,-0.00812256344243,0.00897020056258,-0.999926777052,0.0,0.595948470191,0.174847334232,0.304024581454,1.0,-0.0980691428571,-0.128890873469,1.95
0.395146825453,0.236327173331,-0.125268223092,-1.821434265,0.0452657472487,2.05035971445,0.0779714824751,-0.128787780417,-0.415476652174,0.000727147027409,-0.547710280912,-0.0493775130169,0.163528017975,-0.130155708119,0.573791731173,0.818984398214,0.0028899171044,0.0,0.81895097963,-0.573726951792,-0.0117228260919,0.0,-0.00794294126723,0.00909333619612,-0.999927107804,0.0,0.594199026575,0.172568527938,0.304128893586,1.0,-0.0995502857143,-0.130837518367,1.968
0.392878219433,0.229515810361,-0.125257894755,-1.83094462885,0.0443498177426,2.05309003388,0.0757639948569,-0.139199341903,-0.403074741211,-0.00664986231222,-0.563079582776,-0.051635851044,0.151194826854,-0.135329415137,0.57373177088,0.819026471534,0.00287069877473,0.0,0.818993001236,-0.573667292399,-0.0117067697844,0.0,-0.00794148125433,0.00906780254816,-0.999927351277,0.0,0.59248623416,0.1703811987,0.304125121059,1.0,-0.100949142857,-0.132676016327,1.985
0.39063193897,0.223054211005,-0.125289351199,-1.8400722444,0.0434817936066,2.05553235749,0.0735836060343,-0.14364155874,-0.401572731286,-0.00598104773275,-0.570438106814,-0.0541099953316,0.145007112862,-0.1248025882,0.573708664373,0.819043376322,0.00265763560405,0.0,0.819006823249,-0.573644607786,-0.0118504991813,0.0,-0.00818169204977,0.00897552855764,-0.999926247181,0.0,0.59080540752,0.168218789602,0.304048579916,1.0,-0.102265714286,-0.134406367347,2.001
0.388344581264,0.216467230722,-0.125356235256,-1.84895113341,0.0426962312533,2.058222968,0.0713715368737,-0.14474163064,-0.407564270277,-0.00599429524225,-0.555407167349,-0.0508001964136,0.170833743183,-0.129330818949,0.573741056348,0.819019594382,0.00297509322394,0.0,0.818987465223,-0.573676204143,-0.0116572513546,0.0,-0.0078409280505,0.00912498344877,-0.999927624643,0.0,0.58924787208,0.166071378302,0.304174481647,1.0,-0.103582285714,-0.136136718367,2.017
0.385815067332,0.209486013059,-0.125402656785,-1.85863161461,0.0417864404763,2.06087561623,0.0690153909181,-0.146302543152,-0.409914402267,-0.00106924298332,-0.573122585788,-0.0519101579031,0.146600219864,-0.143804425159,0.573800091487,0.818978454339,0.0029143163232,0.0,0.818945354465,-0.573735228421,-0.0117107202712,0.0,-0.00791893410951,0.00910645350475,-0.999927178842,0.0,0.587471919869,0.163712298669,0.304151585817,1.0,-0.104981142857,-0.137975216327,2.034
0.383262390918,0.202455995624,-0.125487358887,-1.86847392435,0.0408037660532,2.06338637078,0.0665754212121,-0.150180473665,-0.422228333479,-0.00409588652498,-0.57820879374,-0.0610296986997,0.151531809467,-0.141484053347,0.57380587892,0.81897538901,0.00262152891831,0.0,0.818938248696,-0.573741817999,-0.0118835181558,0.0,-0.00822838655885,0.00896587550219,-0.999925950624,0.0,0.585611599876,0.16129807327,0.304057726398,1.0,-0.10638,-0.139813714286,2.051
0.380618154363,0.195243685514,-0.12552261711,-1.87805387543,0.0399246956337,2.06622129688,0.0641114001646,-0.153178448018,-0.416746611103,-0.0023994393766,-0.568503773504,-0.0482706454046,0.171367063632,-0.141839138143,0.573854724001,0.818939887242,0.00299394848185,0.0,0.818907957305,-0.573789740634,-0.0116549519917,0.0,-0.00782695884026,0.00914019347106,-0.999927595168,0.0,0.583887348656,0.15892893566,0.304208837431,1.0,-0.107778857143,-0.141652212245,2.068
0.37788880537,0.188125515834,-0.12562987819,-1.88791120098,0.0390009128871,2.06879540191,0.0615532876853,-0.157938581133,-0.423721131275,-0.00992907468811,-0.582687463714,-0.0510887525422,0.14469846902,-0.152410055354,0.573932948431,0.818885580532,0.00285019333878,0.0,0.81885127188,-0.573867864889,-0.0117904660628,0.0,-0.00801956268217,0.00910099661375,-0.999926426531,0.0,0.582027959954,0.15643608447,0.304138678459,1.0,-0.109177714286,-0.143490710204,2.085
0.375106398103,0.180849355493,-0.125722805244,-1.89771350573,0.0380537660726,2.07140097693,0.0589690535823,-0.164104447686,-0.430940004937,0.00056112010921,-0.569031963569,-0.0540045452025,0.161754372008,-0.156204788939,0.574002323074,0.818836794407,0.0028955366796,0.0,0.818803040081,-0.573937028322,-0.0117735286418,0.0,-0.00797889635307,0.0091290827902,-0.999926495829,0.0,0.580182860245,0.153939897747,0.304176449652,1.0,-0.110576571429,-0.145329208163,2.102
0.372485558584,0.173964666511,-0.125705718413,-1.90691283911,0.0370931098904,2.0739567972,0.0565665664025,-0.157837419043,-0.424950627512,-0.000206214558131,-0.577917944056,-0.0586730743916,0.1489310961,-0.15718430573,0.573973740872,0.818856313114,0.00303811830499,0.0,0.818825036741,-0.573908689783,-0.0116241945614,0.0,-0.00777509230026,0.00915984612515,-0.999927819974,0.0,0.578445119131,0.15166063467,0.304239755807,1.0,-0.111893142857,-0.147059559184,2.118
0.369664869138,0.166647736075,-0.125702422985,-1.91696185789,0.0360955477077,2.07638757892,0.0538480812561,-0.163896601078,-0.428014201055,-0.00218173791898,-0.589041981876,-0.0555111283806,0.139606134224,-0.165455875686,0.573853229675,0.818941664823,0.00278698944713,0.0,0.818906306381,-0.573788130381,-0.0118486161375,0.0,-0.00810433999493,0.00908182472505,-0.999925917322,0.0,0.576441761461,0.149188863351,0.304141985607,1.0,-0.113292,-0.148898057143,2.135
0.366916704004,0.159591857237,-0.125705252989,-1.92621185115,0.0351893760822,2.07888006383,0.0512689665518,-0.173626603258,-0.457448477433,-0.0013738036542,-0.573990628747,-0.0538056129247,0.170131148078,-0.154825381692,0.573805566636,0.818974228936,0.0030217440822,0.0,0.81894207355,-0.573739810329,-0.0117156781285,0.0,-0.00786129493943,0.00919733176858,-0.999926801886,0.0,0.57466360457,0.146853443851,0.304249813495,1.0,-0.114608571429,-0.150628408163,2.151
0.363906691433,0.152128860095,-0.125706315063,-1.9361627491,0.0341431743838,2.08143210596,0.0485091002033,-0.183490825573,-0.434508159831,-0.000893796223955,-0.594052003141,-0.0569682013042,0.137315357776,-0.160106675595,0.57377038505,0.818998835847,0.00303298887439,0.0,0.818967011803,-0.573704812294,-0.0116862667434,0.0,-0.00783114931931,0.00918932852753,-0.999927112014,0.0,0.572710587702,0.14430948266,0.304263670286,1.0,-0.116007428571,-0.152466906122,2.168
0.360803689841,0.144652649357,-0.125746620504,-1.94632649641,0.0331303117192,2.08378181768,0.0456809943373,-0.187139983258,-0.433656638586,0.000386460524887,-0.589787230988,-0.0530459390978,0.145601077113,-0.166960802439,0.573793858494,0.818983337541,0.00276544478606,0.0,0.818946986003,-0.573728052787,-0.0119458136253,0.0,-0.00819696687729,0.0091193627414,-0.999924820653,0.0,0.570645547559,0.141683662842,0.304154022594,1.0,-0.117406285714,-0.154305404082,2.185
0.357291732012,0.136106525985,-0.12580775394,-1.95736289297,0.0320049849241,2.08675406292,0.042420892939,-0.187054922306,-0.444102548424,0.000778462628301,-0.587974147353,-0.057298322588,0.150109010931,-0.180149864487,0.57377523273,0.818995080577,0.00312844960022,0.0,0.818964132372,-0.573708908246,-0.0116869751711,0.0,-0.00777690549686,0.00926796334824,-0.99992680962,0.0,0.56849996345,0.138780908026,0.304302233725,1.0,-0.118969714286,-0.156360195918,2.204
0.354396872764,0.129360768226,-0.125868366843,-1.96629564091,0.0310200820208,2.08881244537,0.0397701803242,-0.194067893832,-0.45471309066,-0.00720623973043,-0.605007597692,-0.0644874759702,0.138513677051,-0.176955776498,0.573761889261,0.81900496939,0.00298352935716,0.0,0.818972085591,-0.573696001093,-0.0117630036024,0.0,-0.00792247207613,0.00919276741963,-0.99992636102,0.0,0.566678869374,0.136383822933,0.304277223506,1.0,-0.120204,-0.1579824,2.219
0.350856988337,0.121207591063,-0.126004593932,-1.97702100051,0.0298774001616,2.09141413539,0.0366729168426,-0.198782099002,-0.466485559156,-0.00353138446018,-0.580688572157,-0.0605402308154,0.157109664487,-0.178440113961,0.5739267,0.818889531589,0.00297068724144,0.0,0.818856575649,-0.573860944759,-0.0117588901937,0.0,-0.00792462326932,0.00918148459842,-0.999926447638,0.0,0.564513665715,0.133464548721,0.304272542053,1.0,-0.121685142857,-0.159929044898,2.237
0.34742162968,0.113451523669,-0.126050251103,-1.98705161507,0.0288212913698,2.09395236954,0.0335317197224,-0.204129969246,-0.45084990293,-4.59917649651e-05,-0.595151239816,-0.0597430515972,0.136917901474,-0.183741259789,0.573911819583,0.818899244651,0.00316185929426,0.0,0.818869080977,-0.573845786557,-0.0116270534282,0.0,-0.00770711402201,0.00926223053048,-0.999927403104,0.0,0.562496288563,0.1307370311,0.30433416631,1.0,-0.123084,-0.161767542857,2.254
0.344357768003,0.106595219163,-0.126065040187,-1.99609694654,0.0278006046108,2.09591425485,0.0307944219801,-0.20675002297,-0.458221796244,-0.000502448959514,-0.605948430317,-0.0683478939563,0.129438921609,-0.180508035059,0.573889050193,0.818916008464,0.00294551367763,0.0,0.818882709561,-0.57382337034,-0.0117726180429,0.0,-0.00795073386724,0.00916838332809,-0.999926360578,0.0,0.560580975613,0.128303345528,0.304267166876,1.0,-0.124318285714,-0.163389746939,2.269
0.340861563075,0.0986625961405,-0.126060376486,-2.00612980166,0.0267324448605,2.09833192613,0.0275560796501,-0.205411714924,-0.464622935362,-0.000384572458163,-0.590987204761,-0.0604852050019,0.143808572081,-0.191889875966,0.57377886148,0.818992290145,0.00319275773784,0.0,0.818962431933,-0.573712631224,-0.0116231991039,0.0,-0.00768773302293,0.00928407333731,-0.999927349733,0.0,0.558502659076,0.1256013964,0.304384018259,1.0,-0.125717142857,-0.165228244898,2.286
0.337259643267,0.0907912951862,-0.126075609283,-2.01636324463,0.0256874594278,2.10062454699,0.0243098856565,-0.213781185189,-0.466684430247,-0.00246651045496,-0.606788251629,-0.0644139917598,0.127158027353,-0.184577777823,0.573766983887,0.819000712867,0.00316661100478,0.0,0.818969661676,-0.573699816546,-0.0117456651943,0.0,-0.00780317425003,0.00933281292113,-0.999926001799,0.0,0.556324291424,0.122831428611,0.3043447612,1.0,-0.127116,-0.167066742857,2.303
0.333728948839,0.0833599534662,-0.126157626393,-2.02605410118,0.0245891751298,2.10262977016,0.0211084261099,-0.223774479283,-0.464986511069,-0.00107402567891,-0.599723473219,-0.0611287229582,0.128294643627,-0.20177548153,0.573748937286,0.819014196819,0.0029409648041,0.0,0.818979669634,-0.573681949392,-0.0119192520002,0.0,-0.00807501365078,0.00924742659366,-0.999924636788,0.0,0.554231060435,0.120102469492,0.304263872582,1.0,-0.128432571429,-0.168797093878,2.319
0.329718974978,0.0747832494348,-0.126248422387,-2.03668053798,0.0233748859552,2.10515817925,0.0175203354832,-0.221793462863,-0.469012035009,-0.00417982371551,-0.602299409262,-0.0678755197146,0.128507733356,-0.203246977617,0.573765579944,0.819001265277,0.00327622447113,0.0,0.818972151881,-0.573698671456,-0.0116273691922,0.0,-0.00764341161315,0.00935470093995,-0.999927031252,0.0,0.552007926495,0.117071907049,0.304424667086,1.0,-0.129913714286,-0.170743738775,2.337
0.325759976109,0.0667345259555,-0.126338659411,-2.04707555787,0.0222146416732,2.10723688122,0.0140355757756,-0.235854651492,-0.473409144827,-0.00439832734216,-0.61424837959,-0.0756633130927,0.114296711709,-0.206963395596,0.573833178541,0.818954726163,0.00306375624184,0.0,0.81892200273,-0.573765966432,-0.0118370651323,0.0,-0.00793629417124,0.00930165719262,-0.99992524441,0.0,0.549720764369,0.114095621356,0.304336171266,1.0,-0.131312571429,-0.172582236735,2.354
0.321238848954,0.0576373120417,-0.126478377908,-2.0584042551,0.0208798550329,2.10972004916,0.0100204043624,-0.23588820028,-0.476881122895,-0.00685769108318,-0.591877325781,-0.0743185063577,0.139892249138,-0.199356151547,0.573890152614,0.818914225398,0.0032141990067,0.0,0.818884145862,-0.573823233509,-0.0116790086411,0.0,-0.00771987287906,0.00933470438165,-0.999926630737,0.0,0.547283353373,0.110746001525,0.304417120023,1.0,-0.132876,-0.174637028571,2.373
0.317889258151,0.0509354827176,-0.126470708315,-2.06683020694,0.0199318526815,2.11149481929,0.00706443312852,-0.238651549171,-0.476946066607,0.00160059038035,-0.615088224502,-0.0741728468499,0.118873755574,-0.21222616076,0.573866064961,0.818930944235,0.00325499012862,0.0,0.818901199481,-0.573798777897,-0.0116848138465,0.0,-0.00770149455632,0.00937121388744,-0.99992643096,0.0,0.545419345329,0.108345013025,0.304418955183,1.0,-0.134028,-0.176151085714,2.387
0.314008752786,0.0432491567329,-0.126472878896,-2.07662229904,0.0188318789974,2.11334082507,0.00364559320468,-0.24494131607,-0.48661301258,-6.02038870497e-05,-0.614551636941,-0.0716222725964,0.124804758447,-0.213334728108,0.573841666887,0.818948755781,0.00306979649747,0.0,0.818915528794,-0.57377374995,-0.0119074543514,0.0,-0.00799038011727,0.00934707743564,-0.999924390126,0.0,0.543185085065,0.105567462529,0.304329325521,1.0,-0.135344571429,-0.177881436735,2.403
0.309220249288,0.0339656162104,-0.126524128079,-2.08789781368,0.017473652064,2.11575860605,-0.000640030079697,-0.251190907505,-0.480457717903,-0.00583456427623,-0.599444634028,-0.0774003349435,0.12263479793,-0.218478821342,0.573779268443,0.818991333973,0.00336048850733,0.0,0.818962909191,-0.573711588808,-0.0116410110672,0.0,-0.00760608242268,0.00943166784719,-0.999926592882,0.0,0.540698287714,0.102199888726,0.304465872844,1.0,-0.136908,-0.179936228571,2.422
0.304851519135,0.025655890316,-0.126638009855,-2.09824112512,0.0162312075079,2.11764323214,-0.00449421349947,-0.255574735878,-0.49226601858,-0.00226385323148,-0.60845817979,-0.0722119927692,0.103613505511,-0.230817915039,0.573809464952,0.818970702204,0.00323013360143,0.0,0.818940136084,-0.573741665053,-0.0117601953754,0.0,-0.00777814298719,0.00939357832272,-0.999925627823,0.0,0.538319688612,0.0991026148749,0.304427166919,1.0,-0.138306857143,-0.181774726531,2.439
0.300332016384,0.01727663838,-0.126764742341,-2.10847780133,0.0150164609025,2.11954802655,-0.00842916719848,-0.268757989855,-0.505934512883,-0.0146872271242,-0.595663898749,-0.0810817754156,0.115089579682,-0.229100475476,0.573908126203,0.818901422977,0.00326634734072,0.0,0.818871149413,-0.573839972882,-0.0117674586435,0.0,-0.00776217740455,0.0094283392663,-0.99992542473,0.0,0.535972854966,0.0959567769317,0.304455486139,1.0,-0.139705714286,-0.18361322449,2.456
0.296003948655,0.00938474163444,-0.126845366475,-2.11808672078,0.0138471380951,2.12134562551,-0.0122371618486,-0.280125758624,-0.482038433646,-0.00472941128859,-0.59616966516,-0.0741736907592,0.104887705474,-0.239307444625,0.573923761951,0.818890268055,0.00331530617481,0.0,0.818860699047,-0.573855523558,-0.0117362915112,0.0,-0.007708376551,0.00945069246243,-0.999925629906,0.0,0.533754231642,0.0930010766939,0.304477479066,1.0,-0.13998,-0.183973714286,2.472
0.291334223543,0.00106138842831,-0.126857671201,-2.12837217669,0.012649932312,2.12308645404,-0.016319470639,-0.272606272375,-0.484715747827,0.00157055508071,-0.600391580049,-0.0749682207422,0.0994676125042,-0.24759456767,0.573917799577,0.818894988408,0.00317870891004,0.0,0.818862483721,-0.573848647622,-0.0119460988771,0.0,-0.00795865592105,0.00945918637282,-0.999923588875,0.0,0.53130820677,0.0898853084029,0.304397604671,1.0,-0.13998,-0.183973714286,2.489
0.286961015406,-0.0068644091188,-0.126848583576,-2.13770304648,0.0114791378494,2.1248390191,-0.0202243251593,-0.280606737618,-0.49480170378,-0.000766898991968,-0.587720794381,-0.0714595956136,0.110950321059,-0.243820764143,0.573796714126,0.818978853971,0.00342264641453,0.0,0.818950345565,-0.573727721061,-0.0117294708234,0.0,-0.00764266859032,0.00953349283013,-0.999925348279,0.0,0.529125594046,0.0870198220615,0.304521277916,1.0,-0.13998,-0.183973714286,2.505
0.282490529823,-0.0146679949189,-0.126861930242,-2.14713690236,0.0102910882127,2.1264308898,-0.0241305343599,-0.283264892111,-0.490350396608,-0.00192128940178,-0.597074284426,-0.0746416336265,0.09188507364,-0.247903341122,0.573755862078,0.819007656708,0.00337874030057,0.0,0.81897842375,-0.573686831248,-0.0117689415853,0.0,-0.0077006627147,0.00951979791626,-0.999925033811,0.0,0.526860154358,0.0841022481988,0.304499962603,1.0,-0.13998,-0.183973714286,2.521
0.277629137822,-0.022875918644,-0.126937608774,-2.15706315862,0.0090401217047,2.12791880854,-0.028371204984,-0.290036650671,-0.485420623419,-0.00592944424645,-0.566482134994,-0.0635962101489,0.100280539091,-0.239760215101,0.573774276755,0.818995449415,0.00320625520455,0.0,0.818963161306,-0.573704873076,-0.011950143681,0.0,-0.00794782207965,0.0094826725168,-0.999923452593,0.0,0.524431594687,0.0809398074331,0.304439441322,1.0,-0.13998,-0.183973714286,2.538
0.272690450344,-0.0311761013391,-0.127078421477,-2.16662523851,0.00779010770126,2.12966923405,-0.0326027358911,-0.291282526703,-0.478503579318,-0.00498590169376,-0.571428337507,-0.0783077627876,0.0977200129843,-0.255447155,0.573908236755,0.81890020448,0.00354087403136,0.0,0.818873645462,-0.57383936934,-0.0116223003023,0.0,-0.00748575529702,0.00956984654893,-0.999926188028,0.0,0.522171475962,0.0777595888512,0.304594793527,1.0,-0.13998,-0.183973714286,2.555
0.26769564504,-0.039342084262,-0.127136608008,-2.1763998841,0.00658666585796,2.13104469157,-0.0369532371326,-0.292749854606,-0.481063786473,-0.000345647387073,-0.582277585822,-0.0654723458158,0.0817191691602,-0.260645924759,0.573932459352,0.81888382473,0.0034000880893,0.0,0.818854311093,-0.573862639631,-0.011833636014,0.0,-0.00773933859996,0.00957606897961,-0.999924197897,0.0,0.519728474786,0.0746070613014,0.304529694944,1.0,-0.13998,-0.183973714286,2.572
0.262705709246,-0.0474537508583,-0.127133689803,-2.18596458942,0.00540580076416,2.13251174367,-0.0413002488679,-0.291703483238,-0.483974244722,0.00106723993981,-0.544362279916,-0.0713229096139,0.0914289899782,-0.253015069716,0.573906810719,0.818901639262,0.00343870969695,0.0,0.818872197069,-0.573836324245,-0.011872015265,0.0,-0.00774890541969,0.00962947957951,-0.999923610876,0.0,0.517345907263,0.0715338398695,0.304519388514,1.0,-0.13998,-0.183973714286,2.589
0.257653913708,-0.0556042448177,-0.127139701262,-2.19531471334,0.00411232382156,2.13396419954,-0.0457490347594,-0.301110709721,-0.472494065981,-0.000643081080499,-0.560450807308,-0.0745078786803,0.0797500929202,-0.266925210999,0.573797040459,0.818977969836,0.00357605722208,0.0,0.8189513525,-0.573727417885,-0.0116738642382,0.0,-0.00750910013117,0.00962723100328,-0.999925462141,0.0,0.515018959984,0.0684482966977,0.304604732035,1.0,-0.13998,-0.183973714286,2.606
0.25280887754,-0.0631818079457,-0.127185536065,-2.20430370627,0.00298933874289,2.13508509491,-0.0499567340366,-0.296259582318,-0.480459025069,-0.00497172990028,-0.565335701744,-0.074845414027,0.0783350672352,-0.261532401095,0.573815678382,0.818965650718,0.00340251209101,0.0,0.818935436791,-0.573744962988,-0.0119253811504,0.0,-0.0078144538126,0.00962959379971,-0.999923099661,0.0,0.512695129305,0.0655020824632,0.304510950019,1.0,-0.13998,-0.183973714286,2.622
0.247563255941,-0.0712197282549,-0.127331980586,-2.21350225776,0.00174590958639,2.13637547923,-0.0544692795925,-0.31036322542,-0.47315188922,-0.0116639121243,-0.534013898942,-0.0702790796733,0.0840614718433,-0.262976618889,0.573931751465,0.818883950502,0.00348814732138,0.0,0.818855198118,-0.573861145653,-0.011844700315,0.0,-0.00769787097624,0.00965452304274,-0.999923763578,0.0,0.510358680734,0.0623122452314,0.304553000433,1.0,-0.13998,-0.183973714286,2.639
0.242246125635,-0.0792362639637,-0.127437738761,-2.22264525282,0.000550258460087,2.13758740372,-0.0591405875161,-0.314425011064,-0.463676713909,-0.00411912237648,-0.542850118739,-0.0695107740737,0.0734779224529,-0.276380107129,0.573955439388,0.818866976307,0.00357429885787,0.0,0.818839246511,-0.573884407997,-0.0118203862869,0.0,-0.00762823646064,0.00971133816194,-0.999923747053,0.0,0.508001503676,0.0591440126534,0.304582499104,1.0,-0.13998,-0.183973714286,2.656
0.236967497522,-0.0871671927522,-0.127425238932,-2.23187840368,-0.000653131871984,2.13863404667,-0.0637454914289,-0.31509213103,-0.466098441136,0.00109049558038,-0.539309026545,-0.0737191453585,0.0595224398499,-0.276339280396,0.573892311991,0.818911889782,0.00341729611193,0.0,0.818880977721,-0.573820434206,-0.0120333085908,0.0,-0.00789345711318,0.00970436890855,-0.999921756218,0.0,0.505543471176,0.0560776816703,0.304493946161,1.0,-0.13998,-0.183973714286,2.673
0.231929032224,-0.0946960678374,-0.127438678091,-2.24021856238,-0.00179380347631,2.13968603143,-0.0681914931225,-0.315539473812,-0.474924364325,-0.0030753799808,-0.519475550423,-0.0683136266162,0.074099277189,-0.281812876482,0.573810149862,0.818968714153,0.00359222140965,0.0,0.818940728975,-0.573738455308,-0.0118749411637,0.0,-0.00766435729541,0.00975596602118,-0.999923036415,0.0,0.503352715164,0.0531843129535,0.304589313765,1.0,-0.13998,-0.183973714286,2.689
0.226466529959,-0.102588372078,-0.127459780757,-2.24906255876,-0.00304436440485,2.14067414833,-0.0729189611697,-0.319273465681,-0.464988669973,-0.0056005365464,-0.520709229505,-0.06684677066,0.0438071979234,-0.279994148951,0.573789528815,0.818983123952,0.00360086182848,0.0,0.81895548237,-0.573718101796,-0.0118407967783,0.0,-0.00763168005601,0.00974325832783,-0.999923410255,0.0,0.500985674873,0.0500737214281,0.304614095129,1.0,-0.13998,-0.183973714286,2.706
0.220886646692,-0.110451389525,-0.127587246194,-2.25800906973,-0.0042647721805,2.14154902059,-0.0777207229573,-0.330133325342,-0.457958900819,-0.00930954316774,-0.524841674926,-0.0710212577557,0.0453121839103,-0.292598235354,0.573894826113,0.818909878091,0.00347664012007,0.0,0.818879683075,-0.573822653954,-0.0120155464534,0.0,-0.00784482585805,0.00974279748129,-0.999921765242,0.0,0.49854554207,0.046882309724,0.304547676103,1.0,-0.13998,-0.183973714286,2.723
0.215246989682,-0.118314635084,-0.127670199656,-2.26656860221,-0.00550605881289,2.14253723563,-0.082578221557,-0.328757595961,-0.463032032891,-0.00397808731604,-0.498052540273,-0.0651699021226,0.0622757962819,-0.29122365316,0.573953391889,0.818868018877,0.00366312712084,0.0,0.818841347576,-0.573881934297,-0.0117949094297,0.0,-0.00755641712428,0.00976943631408,-0.999923726428,0.0,0.496242456161,0.0437252671229,0.304647235504,1.0,-0.13998,-0.183973714286,2.74
0.209997738661,-0.125575355145,-0.127662692533,-2.27467030202,-0.00657835115038,2.14330548911,-0.08723945029,-0.330827073218,-0.452091757069,5.24406009865e-05,-0.513249838398,-0.0682808944773,0.038762001762,-0.281999840908,0.573837087272,0.818949558584,0.0036557717276,0.0,0.818922039697,-0.573764703152,-0.0118955965011,0.0,-0.0076444879037,0.00982011555507,-0.999922560569,0.0,0.493849978536,0.0406812143035,0.304618577272,1.0,-0.13998,-0.183973714286,2.757
0.203565938627,-0.134264185656,-0.12770301467,-2.28428282707,-0.00795599290116,2.14408530051,-0.0928651128565,-0.340942253354,-0.447882995411,-0.00190626383597,-0.499789230659,-0.0611847056788,0.0438854665647,-0.299339389891,0.573805436762,0.818972154543,0.00356057951662,0.0,0.818942982656,-0.573732876171,-0.0119885303876,0.0,-0.00777560073883,0.00979518411214,-0.999921794143,0.0,0.49128464584,0.0373599079053,0.304590847576,1.0,-0.13998,-0.183973714286,2.775
0.198477439278,-0.141110455554,-0.127775498094,-2.29163091269,-0.0089991700592,2.14479859631,-0.0973326055728,-0.344771023875,-0.457186259485,-0.00117222522846,-0.48035554769,-0.0647905146801,0.0488214657832,-0.298466362067,0.573804657657,0.818971977556,0.00372313441003,0.0,0.818945491692,-0.573732245171,-0.0118464927038,0.0,-0.00756600896174,0.00984680641196,-0.999922894983,0.0,0.489232904687,0.0346114433849,0.304661379755,1.0,-0.13998,-0.183973714286,2.79
0.192212053618,-0.149235813885,-0.12793879196,-2.30041407879,-0.0102525142092,2.14553120303,-0.102740835626,-0.35153852106,-0.445449737381,-0.00645100303259,-0.491410205044,-0.0722449061731,0.0274332482844,-0.304268305005,0.573949105736,0.818870379445,0.0038042862099,0.0,0.8188449595,-0.573876408225,-0.0118130133521,0.0,-0.00749028083115,0.00989537955369,-0.999922985613,0.0,0.486739204858,0.0312303269606,0.30468689452,1.0,-0.13998,-0.183973714286,2.808
0.18630702364,-0.156875841088,-0.127958152995,-2.3087617417,-0.0114981881421,2.14603078608,-0.107953824385,-0.339839092823,-0.461503440405,0.000523398443696,-0.489056762169,-0.0721299482422,0.0319937501691,-0.299477496943,0.573843213874,0.818945283311,0.00365181268235,0.0,0.818917323231,-0.573770343278,-0.011948129036,0.0,-0.00768971015282,0.00984707501927,-0.99992194869,0.0,0.484297012759,0.0281300674831,0.304636094242,1.0,-0.13998,-0.183973714286,2.825
0.180728081317,-0.164028484133,-0.127950341484,-2.31637547048,-0.0125704786757,2.1465576058,-0.112847606714,-0.351713161286,-0.447447923174,-0.00507518526201,-0.470548022856,-0.0597564178128,0.0370606282308,-0.311304299454,0.573792343343,0.818980572101,0.00373043470943,0.0,0.818953618656,-0.573719175781,-0.011917412994,0.0,-0.00762005449467,0.00989336381078,-0.999922025021,0.0,0.482074526667,0.0252604127742,0.304668326433,1.0,-0.13998,-0.183973714286,2.841
0.174649352081,-0.171605907459,-0.127984577835,-2.32431210836,-0.0136920414377,2.14712664825,-0.118232397249,-0.355610720269,-0.447180412312,-0.00206339144527,-0.471337514953,-0.0641246411193,0.0235637155577,-0.315769119821,0.573748471458,0.819010439453,0.00391643547158,0.0,0.818986328424,-0.573675228648,-0.0117844300876,0.0,-0.00740495181841,0.00996899779126,-0.999922889913,0.0,0.479752425709,0.0221535411872,0.304743677381,1.0,-0.13998,-0.183973714286,2.858
0.168105257321,-0.179517670115,-0.128134741567,-2.33285041657,-0.0149829043948,2.14749368313,-0.123878222013,-0.36804062718,-0.451075431322,-0.00833314042158,-0.468623045551,-0.0749636007152,0.0343614583651,-0.322911655055,0.573871240294,0.818925183809,0.00375363668038,0.0,0.818898034856,-0.5737973308,-0.0119740793631,0.0,-0.00765219576387,0.00994561696057,-0.999921261202,0.0,0.47717454463,0.0187782252071,0.304667963179,1.0,-0.13998,-0.183973714286,2.876
0.162207663399,-0.186564439248,-0.128239879768,-2.34028930567,-0.0160780907619,2.1478595814,-0.129035649581,-0.371218856335,-0.438245360729,-0.0019199716985,-0.455730902718,-0.0703361665595,0.0241778766016,-0.332248087774,0.573929254815,0.818884452678,0.00376968565999,0.0,0.818857224846,-0.573854903138,-0.0120059303504,0.0,-0.0076683647444,0.00997758109682,-0.999920818894,0.0,0.474924564981,0.0157930835152,0.304662423426,1.0,-0.13998,-0.183973714286,2.892
0.1556571357,-0.194487208697,-0.128239776369,-2.34836336833,-0.017297856558,2.14831801871,-0.1348904596,-0.362089521267,-0.441587304835,-0.000364705582424,-0.447554990716,-0.068545801752,0.0235771540453,-0.325554651564,0.573790730778,0.818980512788,0.00398294464201,0.0,0.818957233866,-0.573717218064,-0.011762214778,0.0,-0.00734808224408,0.0100111038845,-0.99992288877,0.0,0.472481485366,0.0125670145688,0.304773554319,1.0,-0.13998,-0.183973714286,2.91
0.150400848849,-0.200526070711,-0.128283623721,-2.35477917694,-0.0182906090523,2.14848129385,-0.139530664231,-0.376976709219,-0.427217278453,-0.00406767459948,-0.460417985224,-0.0722988746757,0.00231247403001,-0.330481524456,0.573752345081,0.819008075079,0.00384270355099,0.0,0.818982316684,-0.573678436278,-0.0119064524303,0.0,-0.00754714982778,0.00997865338,-0.99992173044,0.0,0.470475211442,0.00997960676916,0.304709790355,1.0,-0.13998,-0.183973714286,2.924
0.143992357392,-0.207857302787,-0.128407617206,-2.36245502253,-0.0193873876785,2.14868300507,-0.145159995018,-0.381054620202,-0.43413591692,-0.0120414073125,-0.443800972316,-0.0611730262166,0.0107064659753,-0.340225722346,0.573833263411,0.818951459529,0.00382617826465,0.0,0.818924424012,-0.573758005545,-0.0120534530738,0.0,-0.00767604036469,0.010050216642,-0.999920032577,0.0,0.468060773811,0.00683872517835,0.304667344079,1.0,-0.13998,-0.183973714286,2.941
0.137457504594,-0.215214921644,-0.128547740181,-2.36983317948,-0.0204884752655,2.14892346873,-0.150866730689,-0.377454318094,-0.433442588307,-0.00697614197563,-0.428079658662,-0.0631572246813,0.0105085073458,-0.338560290437,0.573964431946,0.818858568356,0.00402775268282,0.0,0.818834673766,-0.573889107943,-0.0119086407478,0.0,-0.00744015236563,0.0101333948753,-0.999920976098,0.0,0.46573969141,0.00366398424453,0.304757468624,1.0,-0.13998,-0.183973714286,2.958
0.130990442638,-0.222460999312,-0.128542948754,-2.37720216374,-0.0216334588733,2.14909472615,-0.156635880011,-0.381130895741,-0.425526198602,0.00116472821486,-0.44272676633,-0.0746110317306,0.00591900208073,-0.346061923177,0.573847661671,0.818940216692,0.00406565868937,0.0,0.818917138749,-0.573772666792,-0.0118487808561,0.0,-0.0073708212445,0.0101290277841,-0.999921533817,0.0,0.463382196835,0.000613037349032,0.30477893069,1.0,-0.13998,-0.183973714286,2.975
0.124335865579,-0.229623064648,-0.12858642809,-2.38465692527,-0.0228039060664,2.14913300515,-0.162499164975,-0.397326606849,-0.420215716752,-0.00270266428687,-0.42978706591,-0.0687586645353,-0.000204171187435,-0.346539831192,0.573826784573,0.818955596124,0.00391149399132,0.0,0.818929656871,-0.573751188042,-0.0120224048809,0.0,-0.00760173778854,0.0101022108667,-0.999920076265,0.0,0.460942953794,-0.00251516703872,0.30469425569,1.0,-0.13998,-0.183973714286,2.992
0.118033178207,-0.236394072957,-0.128679446971,-2.39148439189,-0.0238400168046,2.149150612,-0.168080244297,-0.405957174671,-0.432730942564,-0.0112186233958,-0.414086149506,-0.059568108309,0.00221083246947,-0.338778096749,0.573857689693,0.81893380725,0.00393931765919,0.0,0.818907836684,-0.573781460102,-0.0120639115748,0.0,-0.00761938429472,0.0101491019289,-0.999919467114,0.0,0.458691027884,-0.00546267779816,0.304696362154,1.0,-0.13998,-0.183973714286,3.008
0.111187363185,-0.243581930228,-0.128848424963,-2.39845101543,-0.0249893341281,2.14923122132,-0.174120192458,-0.40535770681,-0.426246339625,-0.00673081545351,-0.408646057183,-0.0687992452801,0.0114294058575,-0.355062706405,0.573957319604,0.818862973208,0.00414406594963,0.0,0.818840976531,-0.573882127901,-0.0118112374932,0.0,-0.00729372009234,0.0101726730773,-0.999921656116,0.0,0.456390538949,-0.00867084570994,0.304813766996,1.0,-0.13998,-0.183973714286,3.025
0.104421165667,-0.250652214075,-0.128855419486,-2.4055562539,-0.0260498110475,2.14921730566,-0.180180524097,-0.40180692555,-0.406656094107,-0.00181548598099,-0.431046103896,-0.0689554071845,-0.00255165631074,-0.35513368788,0.57387831411,0.818918216692,0.00416915644173,0.0,0.81889615726,-0.573802506815,-0.0118538474347,0.0,-0.00731520002486,0.010216968879,-0.999921047581,0.0,0.45399830741,-0.0117239617195,0.304793273272,1.0,-0.13998,-0.183973714286,3.042
0.0974991424275,-0.257630652081,-0.128892147372,-2.41261949337,-0.0271514197221,2.14914340607,-0.186371880403,-0.410582800486,-0.40827632387,-0.00724594888747,-0.410842003974,-0.0689439648983,0.000974335547087,-0.359876486015,0.573820432603,0.81895910998,0.00410295124809,0.0,0.81893555414,-0.573743987655,-0.0119641839067,0.0,-0.00744427711906,0.0102255427124,-0.999920007308,0.0,0.451582666374,-0.0148322617421,0.304728925018,1.0,-0.13998,-0.183973714286,3.059
0.09051292259,-0.264636277841,-0.129018234964,-2.41941279923,-0.0282432050099,2.14903451727,-0.192533417495,-0.416535475238,-0.414448307503,-0.0107505797972,-0.395571063278,-0.0605490838178,-0.00830623778158,-0.364279791056,0.573915482782,0.818891972737,0.00420743528904,0.0,0.818870142402,-0.573839161682,-0.0118765863701,0.0,-0.00731139086985,0.0102616975042,-0.999920617413,0.0,0.449232289472,-0.0179780103411,0.304778636355,1.0,-0.13998,-0.183973714286,3.076
0.0838173407404,-0.27116513319,-0.129146819995,-2.42559787587,-0.0292715614189,2.14898822063,-0.198522815807,-0.409989469119,-0.403873911498,-0.00613856960044,-0.391797398059,-0.0599544341762,-0.00163056591224,-0.371435523782,0.573955922248,0.818862556939,0.00441124251943,0.0,0.818844653094,-0.573880772011,-0.0116206934664,0.0,-0.00698435797327,0.0102820861482,-0.99992274574,0.0,0.447081656432,-0.0209716294535,0.304881251336,1.0,-0.13998,-0.183973714286,3.092
0.0767891428695,-0.277980291504,-0.129135505761,-2.43242241403,-0.0303541454539,2.14873597615,-0.204901545602,-0.421925201834,-0.394647373012,4.84274917567e-05,-0.400814546465,-0.0684114175693,-0.0162219841537,-0.379379444373,0.573793171504,0.818977320642,0.00427685753834,0.0,0.818956732304,-0.573717113723,-0.0118021581685,0.0,-0.00721213236783,0.0102747568611,-0.999921204155,0.0,0.444645289138,-0.024007892639,0.304792089925,1.0,-0.13998,-0.183973714286,3.109
0.0695523244474,-0.284798508378,-0.129190006578,-2.43903321743,-0.031433966372,2.14848779988,-0.21136478257,-0.426750672856,-0.40546110117,-0.00340130486831,-0.389813731187,-0.061808669491,-0.0161561747709,-0.375780865601,0.573785760451,0.818982505465,0.00427828787892,0.0,0.818961877757,-0.573709616496,-0.0118095563733,0.0,-0.00721746412728,0.0102801078831,-0.999921110685,0.0,0.442258034392,-0.0271360085658,0.30478526775,1.0,-0.13998,-0.183973714286,3.126
0.0622141434908,-0.291580707448,-0.129361557489,-2.44547477033,-0.0324234565107,2.14823182866,-0.217933298862,-0.437707135124,-0.394311107641,-0.013575061197,-0.372534918344,-0.0466116387636,-0.0221681373937,-0.389204065064,0.573907737448,0.818896216892,0.00443190234325,0.0,0.818877484645,-0.573830920053,-0.0117680599049,0.0,-0.00709379371459,0.0103831655853,-0.999920930856,0.0,0.439900610918,-0.0303165557237,0.304821765716,1.0,-0.13998,-0.183973714286,3.143
0.0548593590785,-0.298311927513,-0.129446823438,-2.45172974318,-0.0334258635776,2.14798215618,-0.224513714507,-0.427314198898,-0.398841396444,-0.00114150110126,-0.372582553488,-0.0556153997353,-0.0157471674381,-0.386573189488,0.573960599444,0.818858099841,0.00462487961564,0.0,0.818842703004,-0.573884414426,-0.0115781482391,0.0,-0.00682684557467,0.0104326506902,-0.999922273969,0.0,0.437588995218,-0.0334426355239,0.304907565973,1.0,-0.13998,-0.183973714286,3.16
0.0474656539164,-0.304922958173,-0.12946324217,-2.45812439687,-0.0345360479168,2.14753863131,-0.231186240964,-0.441889928772,-0.384336705606,-0.00429913630556,-0.373604741429,-0.0567456166335,-0.0321993384656,-0.388525272012,0.573859268909,0.818929938746,0.00447680845942,0.0,0.818912120076,-0.573782800758,-0.0117040184552,0.0,-0.00701619050369,0.0103827720812,-0.999921482475,0.0,0.435162980155,-0.03652844924,0.304848012696,1.0,-0.13998,-0.183973714286,3.177
0.0403987887861,-0.311119536957,-0.129531961373,-2.46402607963,-0.0355159245825,2.14713964761,-0.23755521594,-0.441252648332,-0.391782007302,-0.00593154905025,-0.365172989712,-0.0484320353282,-0.0180677179597,-0.406642468315,0.573850094127,0.818936506994,0.00445127901225,0.0,0.818917991325,-0.573773170996,-0.0117651447486,0.0,-0.00708101840239,0.0103968620607,-0.999920879089,0.0,0.432899269356,-0.0394658639395,0.304821726525,1.0,-0.13998,-0.183973714286,3.193
0.0327772180427,-0.317653228536,-0.129695348824,-2.47010537897,-0.0364989991384,2.14673101075,-0.244415125531,-0.450716898297,-0.386829161564,-0.00909863288306,-0.354307466748,-0.0585727364538,-0.0220219204509,-0.409419729233,0.573955039526,0.818862346836,0.00456250345595,0.0,0.81884522893,-0.57387766881,-0.0117328257669,0.0,-0.00698938496255,0.0104703002494,-0.999920757516,0.0,0.430534458341,-0.0426391699211,0.304845014981,1.0,-0.13998,-0.183973714286,3.21
0.0252201309431,-0.324136628276,-0.129705128578,-2.47596137112,-0.0375014240453,2.14634131645,-0.251350346263,-0.447547095753,-0.38290239399,-0.000197489826612,-0.344106663922,-0.0565029752175,-0.0220308132711,-0.406725844327,0.573820082066,0.818956085232,0.00471070913729,0.0,0.818942161666,-0.573744229139,-0.0114909649852,0.0,-0.00670798266658,0.0104517460232,-0.999922879013,0.0,0.428237899267,-0.0457024684941,0.30493842706,1.0,-0.13998,-0.183973714286,3.227
0.0174676298553,-0.330483631938,-0.12973873538,-2.4819181676,-0.0385017033074,2.14580998905,-0.258347375003,-0.458506314412,-0.370336762372,-0.00498833521048,-0.355145237142,-0.0578628585064,-0.0342961166966,-0.414097485724,0.573807680535,0.818965050596,0.00466246301748,0.0,0.81895007519,-0.573731308273,-0.0115718259283,0.0,-0.00680205096062,0.0104585283933,-0.999922172615,0.0,0.425841328451,-0.0488162907289,0.304902294729,1.0,-0.13998,-0.183973714286,3.244
0.0100963078399,-0.336427952215,-0.129879158192,-2.48749799425,-0.0394113361246,2.14523128805,-0.265036057033,-0.463880999009,-0.376875807001,-0.0121266737322,-0.342580137754,-0.0577963335601,-0.0311578981037,-0.413909703652,0.573868535728,0.818922609011,0.00462720789791,0.0,0.818906040724,-0.573790532124,-0.0117502600508,0.0,-0.00696763968402,0.0105325558134,-0.999920255453,0.0,0.423549435563,-0.0517843073671,0.304847409154,1.0,-0.13998,-0.183973714286,3.26
0.0017635456621,-0.343094178182,-0.129971314031,-2.49354833937,-0.0404029087911,2.14465750044,-0.272588012708,-0.459407711304,-0.367265741337,-0.00395298320036,-0.341603012745,-0.0501695483834,-0.0314598226133,-0.427337273817,0.573914211362,0.818890020675,0.00472852369252,0.0,0.818874862539,-0.573836018534,-0.0117017193291,0.0,-0.00686915622658,0.0105880560619,-0.999920350709,0.0,0.421044290155,-0.0550869761226,0.304873776059,1.0,-0.13998,-0.183973714286,3.278
-0.00570885967419,-0.348908731056,-0.130006824283,-2.4987772753,-0.0413560469629,2.144076687,-0.279408999042,-0.475487203824,-0.366674190667,-0.00680465238876,-0.320860407947,-0.0610563373039,-0.0430380263794,-0.429402533186,0.573853641059,0.818932486954,0.00472518326896,0.0,0.818917717019,-0.573776134986,-0.0116390108709,0.0,-0.00682049804075,0.0105488281593,-0.999921098403,0.0,0.418828954703,-0.0580160191374,0.304900915296,1.0,-0.13998,-0.183973714286,3.294
-0.0137347564308,-0.355064830474,-0.130110388383,-2.50417588689,-0.042294744242,2.14349982255,-0.286774707438,-0.475831855251,-0.358105262522,-0.00984588626016,-0.318927925227,-0.0465695808028,-0.0335813826317,-0.441916147403,0.573849178629,0.8189347484,0.00487287906051,0.0,0.818922757493,-0.573772604056,-0.0114570063788,0.0,-0.00658674294366,0.0105653086721,-0.999922491531,0.0,0.416508690415,-0.0611573237862,0.304982210309,1.0,-0.13998,-0.183973714286,3.311
-0.0218594969441,-0.361096467521,-0.130256204072,-2.5097485305,-0.0432374277307,2.1427548879,-0.294187985209,-0.475535733057,-0.349344077442,-0.0024957894764,-0.32967079259,-0.0528347429947,-0.049477318232,-0.436569271296,0.573908466013,0.818893628111,0.00480056040565,0.0,0.818879343971,-0.573829951033,-0.0116856415057,0.0,-0.00681472323144,0.0106377731567,-0.99992019548,0.0,0.414058572859,-0.0643042147458,0.304905748835,1.0,-0.13998,-0.183973714286,3.328
-0.0299467100073,-0.367103923991,-0.13028208898,-2.51512832316,-0.0442133376766,2.14206824517,-0.301678879522,-0.48059959838,-0.351272944041,-0.000962332992343,-0.306204212945,-0.0610958581079,-0.0362531715167,-0.446334311252,0.573770127373,0.818990733179,0.00477145701353,0.0,0.818976205327,-0.573691935834,-0.0116741067102,0.0,-0.0068237701817,0.0106061676545,-0.999920469522,0.0,0.411674073852,-0.0673734454406,0.304902258571,1.0,-0.13998,-0.183973714286,3.345
-0.0377636793643,-0.372633739874,-0.130347990417,-2.52004712449,-0.0450769812883,2.1414062138,-0.3087936824,-0.490136833314,-0.338844901111,-0.00740269934807,-0.310843055676,-0.0490783978441,-0.0461754903622,-0.442420872999,0.573814440023,0.818959605855,0.00478532136268,0.0,0.818945184872,-0.573736083839,-0.0116806326068,0.0,-0.00682058605472,0.0106216360458,-0.999920327053,0.0,0.409437447262,-0.0703329257228,0.304900611128,1.0,-0.13998,-0.183973714286,3.361
-0.0461400885577,-0.378440801885,-0.130510621021,-2.52508516805,-0.0459208877609,2.14067932455,-0.316399855768,-0.493434405566,-0.349942106236,-0.00690096541987,-0.292743506735,-0.0471404253321,-0.037628462259,-0.451013092222,0.573988729405,0.818836678625,0.00491723039472,0.0,0.818823941866,-0.573909888625,-0.0116421160599,0.0,-0.00671107370742,0.010708995561,-0.999920136263,0.0,0.407087121931,-0.0735102309508,0.304941527577,1.0,-0.13998,-0.183973714286,3.378
-0.0544243753605,-0.384173838485,-0.13054912939,-2.53005147645,-0.0468180568253,2.13998593779,-0.324164319687,-0.486488225649,-0.332748965478,-0.000465010152272,-0.293710355119,-0.0503475829968,-0.0405624836023,-0.454420239829,0.573839913472,0.818940613847,0.00497710762137,0.0,0.818929288809,-0.573761941042,-0.0115239682554,0.0,-0.00658189742933,0.0106890179479,-0.999921208657,0.0,0.404758165104,-0.0765828224365,0.304979341105,1.0,-0.13998,-0.183973714286,3.395
-0.062937468503,-0.389849422461,-0.130605417429,-2.53514428309,-0.0477997657126,2.13915003085,-0.331980357392,-0.500793126363,-0.337706109984,-0.00444163767853,-0.299755926304,-0.0534225513458,-0.0489332530256,-0.466894502188,0.5738049061,0.818966011146,0.00483210353215,0.0,0.818952171452,-0.573726364083,-0.011668201684,0.0,-0.00678368600695,0.0106527381502,-0.999920247207,0.0,0.40231201391,-0.079714574048,0.304913451361,1.0,-0.13998,-0.183973714286,3.412
-0.072501797479,-0.396141975376,-0.130777050519,-2.54053063187,-0.0487430948489,2.13825726466,-0.340803842633,-0.507474786025,-0.324039427649,-0.00604769841037,-0.273206569971,-0.0533618880632,-0.0426256800812,-0.462861097308,0.573893595285,0.818903216982,0.00494058790539,0.0,0.818890762445,-0.573814665075,-0.011635988508,0.0,-0.00669389550603,0.0107238275433,-0.99992009245,0.0,0.399653891517,-0.0832389096834,0.304947026527,1.0,-0.13998,-0.183973714286,3.431
-0.0804915457372,-0.401246127366,-0.130822582881,-2.54496487551,-0.0495056699572,2.13751190388,-0.348297891564,-0.508388264536,-0.315156514597,-0.0041859436273,-0.281835552668,-0.0434216986681,-0.0524092319821,-0.46360342637,0.573804932759,0.818965182613,0.00496746521004,0.0,0.818952793516,-0.573725479439,-0.0116680390872,0.0,-0.0067058855116,0.0107635051251,-0.999919585795,0.0,0.397437760001,-0.0861161989685,0.304935747424,1.0,-0.13998,-0.183973714286,3.447
-0.0887474730578,-0.406331265045,-0.130867194232,-2.54932672716,-0.0503618529023,2.13669444526,-0.355900254254,-0.51631562186,-0.323897418379,-0.00366397526974,-0.268501314875,-0.0544318251086,-0.0417682005746,-0.475209442583,0.573803868819,0.818966259617,0.00491249824362,0.0,0.818953192883,-0.573724646468,-0.0116809590011,0.0,-0.00674801990403,0.0107258920946,-0.99991970651,0.0,0.395185717974,-0.0890837445736,0.304935101573,1.0,-0.13998,-0.183973714286,3.463
-0.0970395992733,-0.411348821882,-0.131022920572,-2.55352147517,-0.0511590228807,2.13596140032,-0.363549926085,-0.518218013258,-0.315880563672,-0.0142730630464,-0.26177553289,-0.0534115633964,-0.0512069280077,-0.484577502829,0.573908359022,0.818892469842,0.00500651396003,0.0,0.818881200691,-0.573829759919,-0.0115642849729,0.0,-0.00659714619516,0.0107367866913,-0.999920596384,0.0,0.392973979201,-0.0920846415634,0.30497992394,1.0,-0.13998,-0.183973714286,3.479
-0.10574211392,-0.416607710749,-0.131085507816,-2.55797906902,-0.0519058232455,2.13512405253,-0.371774897932,-0.51316271352,-0.311621954019,-0.00425542868101,-0.266080026696,-0.0383136835525,-0.0518285860276,-0.485716331352,0.573816716956,0.818956190828,0.0050872140771,0.0,0.818945745024,-0.573737527564,-0.0115699210887,0.0,-0.00655665911219,0.0108053744939,-0.999920123862,0.0,0.390608174919,-0.0951452467722,0.304987083295,1.0,-0.13998,-0.183973714286,3.496
-0.115744040268,-0.422406632283,-0.131153108422,-2.56289359087,-0.05280664533,2.13406918796,-0.381047914927,-0.527081798743,-0.301740094432,-0.00414503127228,-0.258274750013,-0.0451488718425,-0.0560419186123,-0.486643343064,0.573843347784,0.818937661473,0.00506613528853,0.0,0.818926347622,-0.57376324389,-0.0116672204663,0.0,-0.00664809202378,0.0108441573037,-0.99991910029,0.0,0.387905185236,-0.0986409241826,0.304973920054,1.0,-0.13998,-0.183973714286,3.515
-0.12421767483,-0.427075847267,-0.131285782823,-2.56685314083,-0.0535515964196,2.13327392819,-0.388903418011,-0.533587157106,-0.286578223484,-0.00632091904189,-0.24200639455,-0.054343519621,-0.0395882945492,-0.48199013061,0.57393826928,0.818871006301,0.00508773005774,0.0,0.818859686453,-0.573857612416,-0.0117047629484,0.0,-0.00666518671605,0.0108841579826,-0.999918551879,0.0,0.385667790235,-0.101616158839,0.304957498844,1.0,-0.13998,-0.183973714286,3.531
-0.132548624961,-0.431678158033,-0.131309980239,-2.57070984156,-0.0542497966512,2.13248090692,-0.396879334525,-0.52180274912,-0.280679159571,-0.00243220724016,-0.239099941204,-0.0429621742825,-0.052277571993,-0.510590585625,0.573760360666,0.818995511939,0.00511339941372,0.0,0.818984506379,-0.573679620836,-0.0116969162096,0.0,-0.00664639680611,0.0108992316019,-0.99991851276,0.0,0.383468396047,-0.104473935698,0.304957127966,1.0,-0.13998,-0.183973714286,3.547
-0.142275501276,-0.436785191017,-0.131382337796,-2.57502524396,-0.0550901194991,2.13148761893,-0.405919624561,-0.544178472932,-0.281339540601,-0.00788116427683,-0.236697577498,-0.0458015198573,-0.049542883062,-0.498682534329,0.573804060502,0.818965259903,0.00505471312573,0.0,0.818952837412,-0.57372244421,-0.0118132978329,0.0,-0.00677480859683,0.0109183001322,-0.999917442938,0.0,0.380911501296,-0.107807836899,0.304921959843,1.0,-0.13998,-0.183973714286,3.565
-0.150976900305,-0.441299274398,-0.131524494836,-2.57862810122,-0.0557696992065,2.13068222246,-0.414029254446,-0.541146344281,-0.283534065623,-0.00348781884614,-0.22619886505,-0.0395354420474,-0.0451906404787,-0.509038376389,0.573923310561,0.818880900713,0.00518178949434,0.0,0.81887074195,-0.573842253714,-0.0116842942541,0.0,-0.00659464260862,0.010949315456,-0.999918308253,0.0,0.378696409182,-0.110806798405,0.304984507783,1.0,-0.13998,-0.183973714286,3.581
