nelsonifechukwu/NELSON_IML_WORK/CNN-GradCAM/train2dof/data_sample_2022-02-21-15-46-04/robot_state.csv
position_joint1,position_joint2,position_joint3,position_joint4,position_joint5,position_joint6,position_joint7,velocity_joint1,velocity_joint2,velocity_joint3,velocity_joint4,velocity_joint5,velocity_joint6,velocity_joint7,ee_T_00,ee_T_10,ee_T_20,ee_T_30,ee_T_01,ee_T_11,ee_T_21,ee_T_31,ee_T_02,ee_T_12,ee_T_22,ee_T_32,ee_T_03,ee_T_13,ee_T_23,ee_T_33,v_x,v_y,time
0.465079054916,0.54785130515,-0.123907199688,-1.35587062026,0.0795170780343,1.89409197899,0.159164529686,-0.000143006365174,0.000188496445887,0.000473883745878,-0.00025704932474,0.000240353493924,-0.000213895568667,-0.00134230393575,0.573755543267,0.819012705298,0.00187404151107,0.0,0.818967928634,-0.573696679096,-0.0120166203469,0.0,-0.00876680213558,0.00842954472473,-0.999926040243,0.0,0.661643829091,0.260937862469,0.303143398873,1.0,0.0,0.0,0.0
0.465076549262,0.547854167303,-0.12390478201,-1.3558755531,0.0795121209992,1.89408843685,0.159169203186,-0.0010696204825,0.00129177931271,0.000371692134899,-0.000978795094848,0.000142923156724,-0.000420267067705,0.00151944113679,0.573758668019,0.81901054282,0.00186239739818,0.0,0.818965637373,-0.573699876136,-0.012020142414,0.0,-0.00877633517828,0.00842206252391,-0.999926019665,0.0,0.661642290626,0.260935933905,0.303138626974,1.0,-6e-05,-7.88571428571e-05,0.004
0.46507591916,0.547850511799,-0.123907701145,-1.35587028796,0.0795156508749,1.89409233237,0.159168299812,-0.000577866433723,-0.000616377593316,8.8021860406e-05,0.000300245896786,-0.000108199765245,-0.000247144739547,0.00042054372531,0.573761154271,0.819008773818,0.0018743427647,0.0,0.818964018427,-0.573702304779,-0.0120145292899,0.0,-0.00876485888838,0.00842865175356,-0.999926064806,0.0,0.661645010592,0.26093534042,0.303144163652,1.0,-0.00038,-0.000499428571429,0.02
0.465076436293,0.547844525028,-0.123913237803,-1.35587735781,0.079515314977,1.89409483827,0.159172363127,0.00112590576788,-0.00122711494138,-0.00206111796339,0.00115762061643,0.000182674460329,0.00246534050092,0.0017043440681,0.57376823078,0.819003816569,0.00187421842415,0.0,0.818959087915,-0.573709408223,-0.0120114170164,0.0,-0.00876230833739,0.00842683994463,-0.99992610243,0.0,0.661645204025,0.260931834027,0.303145440166,1.0,-0.00074,-0.000972571428571,0.038
0.465077010315,0.547801440513,-0.123903649338,-1.35592774467,0.0795123204703,1.89409853886,0.159162020713,-0.000394297077868,-0.00267272714926,0.00133204110501,-0.00928747118292,-1.920158657e-05,-0.000391483273242,-0.00149862430887,0.573754495975,0.819013437934,0.00187449527466,0.0,0.818968641672,-0.573695605432,-0.0120192831586,0.0,-0.00876873354502,0.00843143293074,-0.999926007388,0.0,0.661633346,0.260932113429,0.303151979564,1.0,-0.00108,-0.00141942857143,0.055
0.465076823709,0.547675078864,-0.123911098973,-1.35607858797,0.0795118450324,1.89412502527,0.15916275738,-0.000584739356213,-0.0092650763791,-0.00109144227204,-0.012498601386,0.000242911489553,-0.00043740423222,0.000273505035104,0.573768523527,0.819003596239,0.00188086657284,0.0,0.818958804061,-0.573709527599,-0.0120250610996,0.0,-0.0087696660558,0.00844011628991,-0.999925925954,0.0,0.661609174912,0.260913156605,0.303172247475,1.0,-0.0014,-0.00184,0.071
0.465068794009,0.547526103428,-0.123908517391,-1.35627948218,0.0795088252052,1.89417481561,0.159153025016,-0.00137083691628,-0.0115558014852,-0.00114639386455,-0.0142135543223,1.01915206054e-05,0.00428225569936,-0.00162156553742,0.573775568804,0.818998648649,0.00188601603098,0.0,0.818953793144,-0.573716423992,-0.0120372936472,0.0,-0.0087766578354,0.00845142770795,-0.999925769068,0.0,0.661578651594,0.260890340714,0.303186396674,1.0,-0.00174,-0.00228685714286,0.088
0.4650406615,0.547345787961,-0.123908630275,-1.35650380985,0.0795060620437,1.89431636943,0.159148374898,-0.000226150796286,-0.012344073034,0.000426888573801,-0.0099156334246,-0.00027916729516,0.00493077910593,-0.000983824849999,0.573807060814,0.818976379565,0.00197321493712,0.0,0.818932651666,-0.573747527644,-0.0119930588186,0.0,-0.00869007201029,0.00849779558052,-0.999926132331,0.0,0.661567739959,0.260856590298,0.303219644531,1.0,-0.0021,-0.00276,0.106
0.465025488459,0.547157633235,-0.123908395072,-1.35672501095,0.0795033681912,1.89442636099,0.15913662676,-0.00428824881415,-0.00808839844835,0.000809103304947,-0.0175486315292,0.000400304070525,0.00319408670484,-0.0018532859681,0.573821486461,0.818966097276,0.00204452663121,0.0,0.818923246446,-0.573761599453,-0.011962036806,0.0,-0.00862359775944,0.00853854852093,-0.999926360664,0.0,0.661547980981,0.260829951558,0.30325717408,1.0,-0.00242,-0.00318057142857,0.122
0.464993194988,0.546945061997,-0.123906117206,-1.35702840846,0.0794974933911,1.89455688003,0.159117970575,0.000287292293073,-0.0112468372398,-0.000251916643873,-0.017704933909,-0.000645298005248,0.0146233822598,-0.000215312340586,0.573846582047,0.818948410741,0.00208511833253,0.0,0.818905993397,-0.573786428263,-0.0119522224297,0.0,-0.00859200638588,0.00856642281881,-0.999926394204,0.0,0.661518263039,0.260784603395,0.303274577365,1.0,-0.00276,-0.00362742857143,0.139
0.464949907667,0.546694891057,-0.123908631283,-1.35741618151,0.0794901959113,1.8946952281,0.15905700104,-0.00575976614107,-0.0175000668574,0.000706774435961,-0.0267386762188,0.000264773442167,0.0117794791738,-0.00592274536891,0.573853585996,0.818943479727,0.002094219183,0.0,0.818901038147,-0.573793251101,-0.0119641804183,0.0,-0.00859650421969,0.00858081130684,-0.999926232175,0.0,0.661475762142,0.260719981758,0.303279275038,1.0,-0.0031,-0.00407428571429,0.156
0.464911541761,0.546424498294,-0.123909237234,-1.35782002114,0.0794779776908,1.8948490964,0.15894501293,-0.00439484249879,-0.0162191384383,0.0004028965746,-0.0308387301182,-0.00072767184104,0.0077051124902,-0.0015511602295,0.573813078824,0.818971799285,0.00211883179083,0.0,0.818929572095,-0.573752540557,-0.0119634883641,0.0,-0.00858223970301,0.00860014568297,-0.999926188604,0.0,0.661431733049,0.260658340059,0.303291907074,1.0,-0.00342,-0.00449485714286,0.172
0.464861977369,0.546119057426,-0.123909328293,-1.35834929379,0.0794603881294,1.8950304346,0.158920810434,-0.00521530417179,-0.0211040593258,0.000524285755312,-0.0318010612643,0.000209506563313,0.00850862098241,-0.00517321448197,0.573858802557,0.818939836644,0.00208939868931,0.0,0.818897070544,-0.573798226154,-0.0119971004097,0.0,-0.00862617626866,0.00859580963709,-0.999925847821,0.0,0.661368368941,0.260576146012,0.303271999132,1.0,-0.00378,-0.004968,0.19
0.464809387198,0.545803148478,-0.123906545319,-1.35888847191,0.0794256180015,1.89520945159,0.158845375947,-0.0055649257122,-0.0239981973677,0.00546606991845,-0.0345511847578,-0.00697320967645,0.00751476996549,-0.00472318364342,0.573853901556,0.818943367171,0.00205132545279,0.0,0.818900085796,-0.573793467897,-0.0120188428188,0.0,-0.00866588130723,0.00857705556792,-0.999925665547,0.0,0.661298705467,0.260483520168,0.303256639764,1.0,-0.00412,-0.00541485714286,0.207
0.464754994987,0.545442966909,-0.123908939255,-1.35950146777,0.0793417459761,1.89540601739,0.158754819117,-0.00110269729213,-0.0215085294927,-0.00156092308523,-0.0412299995226,-0.001859017844,0.0164596540375,-0.00673802489212,0.573847022839,0.818948379172,0.00197320364367,0.0,0.818904482988,-0.573787320353,-0.0120127284643,0.0,-0.00870577288713,0.00850949760923,-0.999925896239,0.0,0.661226412559,0.26037952222,0.30323264873,1.0,-0.00444,-0.00583542857143,0.223
0.464685492293,0.545008161319,-0.123909738693,-1.3602437613,0.0793215856328,1.89565437054,0.158675948831,-0.00531640805313,-0.0240384300797,0.000435188037894,-0.0404486821807,-0.00224833043683,0.0102676559346,-0.00367446202236,0.573871647141,0.818931205206,0.00193923932319,0.0,0.818886562977,-0.573811793165,-0.0120652352709,0.0,-0.00876800807937,0.00851207734605,-0.999925330499,0.0,0.661140627405,0.260268773035,0.303210719297,1.0,-0.00478,-0.00628228571429,0.24
0.464622153006,0.54457243967,-0.123913236941,-1.36096273672,0.0792966777523,1.89592237335,0.158584072134,-0.00281731786386,-0.0236316052645,-0.000230205043422,-0.0452771090737,0.000155670810657,0.0137251348032,-0.0129716659172,0.5738842605,0.818922377454,0.00193446533505,0.0,0.818877513812,-0.573824271477,-0.0120859314423,0.0,-0.00878756573676,0.00852018003221,-0.999925089805,0.0,0.661058899586,0.260159408502,0.303200258982,1.0,-0.00512,-0.00672914285714,0.257
0.464557527465,0.544124741032,-0.123913345248,-1.3617028181,0.079263731371,1.89618247187,0.158483833527,-0.00381436762464,-0.0241685960953,-0.00137393227088,-0.0440918518876,-0.00184456217263,0.0216846716738,-0.00621090626646,0.573887601193,0.818920086858,0.00191296610759,0.0,0.818874803217,-0.573827571887,-0.0121128567965,0.0,-0.00882191889258,0.00851806207456,-0.999924805356,0.0,0.660970965894,0.260046973698,0.30318737445,1.0,-0.00544,-0.00714971428571,0.273
0.464481343782,0.543571975004,-0.12391534067,-1.36259474399,0.0792221793167,1.89648894486,0.158380523199,-0.00225802549251,-0.0349495781694,0.00010964116189,-0.0516888354905,-0.00168766034985,0.0124777484604,-0.00871423281127,0.573905254279,0.818907765765,0.00189134388269,0.0,0.81886205116,-0.573845176073,-0.0121409212653,0.0,-0.00885712667146,0.00851665220912,-0.999924506121,0.0,0.660863907853,0.259910923647,0.303180584189,1.0,-0.0058,-0.00762285714286,0.291
0.46440886006,0.54305436383,-0.12391892702,-1.36340925915,0.0791675944263,1.89678765347,0.158274045937,-0.00212851128622,-0.033747855644,-0.000779798780567,-0.050551887342,-0.00593192700222,0.0179527758001,-0.00589760947064,0.573910684348,0.81890396642,0.00188866981287,0.0,0.81885827451,-0.573850672846,-0.0121358329825,0.0,-0.00885443779769,0.00851160099092,-0.999924572945,0.0,0.660772211848,0.259782499951,0.303185052253,1.0,-0.00612,-0.00804342857143,0.307
0.464331018652,0.542465818286,-0.1239193227,-1.36433256887,0.0791173417497,1.89711382119,0.158146551453,-0.00352715613528,-0.0382299313413,0.000692847386292,-0.0554295540866,-0.000632702188212,0.0172056393162,-0.0117513202956,0.573908119632,0.81890577331,0.00188455838901,0.0,0.818859946253,-0.573848048661,-0.0121471136965,0.0,-0.00886606208018,0.00851468049564,-0.999924443725,0.0,0.660663076969,0.259642973441,0.30319013676,1.0,-0.00646,-0.00849028571429,0.324
0.464247923031,0.541844230953,-0.123919984147,-1.36529253107,0.0790634543667,1.89747700162,0.158014119554,-0.00512804202784,-0.0424937544799,0.00499917488333,-0.058729214493,-0.00941383920519,0.0264998520305,-0.00771960867689,0.573907157365,0.818906394982,0.00190732406782,0.0,0.818860835732,-0.573846955915,-0.0121387722803,0.0,-0.00884617645364,0.00852852547403,-0.999924501858,0.0,0.660555224776,0.259497839164,0.303204276771,1.0,-0.0068,-0.00893714285714,0.341
0.464179801467,0.541240231354,-0.123927721008,-1.36623066727,0.0790046472409,1.89782435325,0.157904780448,-0.00263802301013,-0.0365344206372,-0.002332996688,-0.0611415260734,-0.00181453500343,0.0205230886347,-0.00877882981462,0.573915162499,0.818900766747,0.00191503951605,0.0,0.818855361701,-0.573854977123,-0.0121288394243,0.0,-0.0088335310195,0.00852922943883,-0.999924607645,0.0,0.660446638011,0.259358990311,0.303215134273,1.0,-0.00712,-0.00935771428571,0.357
0.464087862132,0.54058733122,-0.123925676347,-1.36722782015,0.0789518737206,1.89819435458,0.157778820348,-0.00341796507931,-0.0368700593006,-4.6930850664e-05,-0.0602794846136,-0.000171057576537,0.0193100435843,-0.0118215929791,0.573927014333,0.818892398127,0.00194149657797,0.0,0.818847255876,-0.573866629677,-0.0121247593229,0.0,-0.00881488285477,0.00854868065148,-0.999924606108,0.0,0.660333671576,0.259206240075,0.303234039375,1.0,-0.00744,-0.00977828571429,0.373
0.463987013532,0.539808378842,-0.12392313011,-1.36842432742,0.0788771739803,1.89864488333,0.157630633461,-0.00565708868602,-0.0478840570875,0.00100140469816,-0.0640157921164,-0.0101079115304,0.02314550057,-0.0111814457565,0.57393274272,0.818888319263,0.00196832658221,0.0,0.818843541328,-0.573872252222,-0.0121094944595,0.0,-0.00878692473175,0.00856195172127,-0.999924738636,0.0,0.660197236329,0.259027819297,0.303253980059,1.0,-0.0078,-0.0102514285714,0.391
0.463888584694,0.539060969813,-0.123933215492,-1.36960182782,0.0788078499293,1.89908651884,0.157496924953,-0.00487672320309,-0.0423006530636,-0.00199228614727,-0.0709788130078,-0.00566271680119,0.0261564316808,-0.013306039791,0.57395752458,0.818870932455,0.00197556572147,0.0,0.818826282491,-0.573897031707,-0.0121021899344,0.0,-0.00877652922823,0.00856395299491,-0.999924812795,0.0,0.660064305503,0.258845785245,0.303260205085,1.0,-0.00814,-0.0106982857143,0.408
0.463792141398,0.538366290211,-0.123928173905,-1.3706576178,0.0787558241125,1.89949656723,0.157356682363,-0.00636716828139,-0.0502294092787,0.000934632136746,-0.0637162924681,-0.00225566406844,0.0276838336838,-0.00388290310481,0.573968087181,0.818863399297,0.00202856870905,0.0,0.818819366537,-0.57390728819,-0.0120837265964,0.0,-0.00873087916667,0.00859687030228,-0.999924929967,0.0,0.659941127648,0.258675055708,0.303286239512,1.0,-0.00846,-0.0111188571429,0.424
0.46366960869,0.537522241874,-0.123937396473,-1.37198992857,0.0786765497357,1.89999700122,0.157192538323,-0.00146738775076,-0.0476951741394,-0.000466412982654,-0.0760903551474,-0.0111760930885,0.0257586235776,-0.0110337991108,0.573987283042,0.818849935645,0.00203192053853,0.0,0.818805945389,-0.573926465834,-0.0120823222764,0.0,-0.00872760387836,0.00859901351143,-0.999924940132,0.0,0.659798285983,0.258476113249,0.303289377988,1.0,-0.0088,-0.0115657142857,0.441
0.463562236473,0.536681370091,-0.12394489369,-1.37327689577,0.07860454064,1.90049706557,0.157026386547,-0.0033820437902,-0.0504777773681,-0.00233779660489,-0.0741616917657,-0.00024436704976,0.0306811451133,-0.00792605299962,0.573996111669,0.818843630815,0.00207821171304,0.0,0.818800257707,-0.573935106616,-0.0120572913515,0.0,-0.00868044469238,0.00862264465183,-0.999925147138,0.0,0.659655215697,0.258281477362,0.303314076445,1.0,-0.00914,-0.0120125714286,0.458
0.463449461578,0.535873906569,-0.123941281991,-1.37456363495,0.0785286592791,1.90096137923,0.156870072514,-0.00600900423909,-0.0511791232541,0.000615555653337,-0.0807707952591,-0.00991992354979,0.0319142311442,-0.0170159611709,0.574008244149,0.818835154767,0.00206684964581,0.0,0.818791564317,-0.573947217831,-0.0120711328849,0.0,-0.00869817282689,0.00862141483579,-0.999925003686,0.0,0.65950294923,0.258086282445,0.303311685734,1.0,-0.00946,-0.0124331428571,0.474
0.463320333301,0.534922692274,-0.123944717871,-1.37609347161,0.0784369042573,1.90150705924,0.156686389078,-0.0050123429982,-0.04904875938,-0.000105797725514,-0.0857169178188,-0.0155089265465,0.0334669185107,-0.0128740003307,0.574025223301,0.818823324986,0.00203773775404,0.0,0.818779312413,-0.573964279163,-0.0120909350908,0.0,-0.00873091908934,0.00860912498487,-0.999924824184,0.0,0.659320609613,0.257852217726,0.30330214874,1.0,-0.00982,-0.0129062857143,0.492
0.463196284922,0.534024079018,-0.123954818674,-1.37757419696,0.0783622944418,1.90204474691,0.156512128307,-0.00703170523228,-0.0599136153166,-0.000903642295678,-0.0875878464988,-0.00192421683444,0.0331758386353,-0.0162552843111,0.574052350115,0.818804390569,0.00200404956305,0.0,0.818759810134,-0.573991424164,-0.0121229202982,0.0,-0.0087761620722,0.00860019170752,-0.999924504991,0.0,0.659145572005,0.257625008531,0.303278250402,1.0,-0.01016,-0.0133531428571,0.509
0.463077066851,0.53315619045,-0.123947677518,-1.37895872588,0.0782882026736,1.90257890973,0.156331329557,-0.00999319094437,-0.0502783262653,-0.00075463215582,-0.0864588236856,-0.0114509129759,0.0310751323138,-0.0100002525131,0.574052920263,0.818803941441,0.00202413430871,0.0,0.818759512918,-0.573991797453,-0.0121253191536,0.0,-0.00876659140809,0.00861802001351,-0.999924435448,0.0,0.658985850704,0.257421875363,0.303277407636,1.0,-0.01048,-0.0137737142857,0.525
0.462945957315,0.532208165844,-0.123945949145,-1.38051187869,0.0781954434783,1.9031567426,0.156134326138,-0.0125918011692,-0.053858550783,0.000112231816444,-0.0887235911645,-0.0081188812041,0.0319070626233,-0.00966200199574,0.574057708307,0.818800643894,0.00199999843583,0.0,0.81875585569,-0.573996647917,-0.0121426461222,0.0,-0.00879458338844,0.00860825577202,-0.999924273751,0.0,0.658802617645,0.25718877189,0.303256586558,1.0,-0.01082,-0.0142205714286,0.542
0.462814598924,0.531198047531,-0.123950865046,-1.3821275659,0.0781042729017,1.90373536307,0.155927485697,-0.00620349332778,-0.0600514401682,-0.000648774356684,-0.0929322127637,-0.00301472242304,0.0276165035021,-0.0141975928516,0.574062809712,0.818797117999,0.00197913200773,0.0,0.818751965492,-0.574001752024,-0.0121636580662,0.0,-0.00882371281279,0.0086032875871,-0.999924059884,0.0,0.658607652545,0.256945379267,0.303249837303,1.0,-0.01116,-0.0146674285714,0.559
0.462684597542,0.530206158357,-0.123950873816,-1.38368712883,0.077999794017,1.90428275712,0.15572729424,-0.0140029340976,-0.0651030357997,0.00126492659175,-0.0957086027679,-0.0109578973132,0.0378576264163,-0.0117075073708,0.574061801046,0.818797878602,0.00195690516799,0.0,0.81875246077,-0.574000867573,-0.0121720544935,0.0,-0.00884335739535,0.00858989782891,-0.999924001455,0.0,0.658417903837,0.256707933063,0.303253821907,1.0,-0.01148,-0.015088,0.575
0.462550360233,0.529156191214,-0.12395196261,-1.38533937181,0.0778946306241,1.90490242048,0.155501957138,-0.00958425639497,-0.0599158201529,-0.00136645158264,-0.0946776848372,-0.00679351508516,0.0421609502731,-0.0119194583103,0.574049384242,0.818806558064,0.00196769532031,0.0,0.818761322965,-0.573988444547,-0.0121617615175,0.0,-0.00882886569491,0.00859268996997,-0.999924105525,0.0,0.658223381741,0.256461629324,0.303260688603,1.0,-0.01182,-0.0155348571429,0.592
0.462396709738,0.52800342087,-0.12395127861,-1.38713370966,0.0777905133125,1.90560177991,0.155247015012,-0.00688880403795,-0.06453959153,-0.000243210175223,-0.0981425923687,-0.0039344550092,0.0418914345668,-0.0162487891033,0.574035351634,0.818816273647,0.00201791648422,0.0,0.818771681913,-0.573974177933,-0.0121376630631,0.0,-0.00878045313586,0.00861982651655,-0.999924298251,0.0,0.658018240552,0.256193646139,0.303278910514,1.0,-0.01218,-0.016008,0.61
0.462261313671,0.526887988212,-0.123951315017,-1.38880101677,0.0776866286983,1.90623953223,0.155016016202,-0.00702001455723,-0.0698167784978,0.000440755305634,-0.102850320783,-0.000343034143055,0.0392349190014,-0.019482110028,0.574019240427,0.818827388538,0.00208956973998,0.0,0.818783782136,-0.573957804354,-0.0120956121584,0.0,-0.00870506125583,0.00865418653831,-0.999924660644,0.0,0.657824535465,0.255947752314,0.303325653768,1.0,-0.0125,-0.0164285714286,0.626
0.462106313214,0.525716503663,-0.123953764507,-1.39063642088,0.077567105528,1.90690247904,0.154777572361,-0.00680116804552,-0.068634232842,0.00117191997646,-0.111331322041,-0.00893758013186,0.036389118099,-0.0118768936781,0.574019230347,0.818827410583,0.00208369174938,0.0,0.818783764078,-0.573957856134,-0.0120943774307,0.0,-0.00870742414974,0.00864866471161,-0.999924687846,0.0,0.657603782905,0.25566757867,0.303333823112,1.0,-0.01284,-0.0168754285714,0.643
0.461947615755,0.524539903039,-0.123965335994,-1.39249312327,0.077453530992,1.90757269586,0.154519518223,-0.00943053622911,-0.0686949889424,8.46535583697e-05,-0.109944973223,-0.00519546352907,0.0371865415355,-0.0181365759314,0.574015203019,0.818830263291,0.00207208208375,0.0,0.818786475044,-0.573953889421,-0.0120990910704,0.0,-0.00871799020391,0.00864182138432,-0.999924654947,0.0,0.657381714491,0.255378688523,0.303336089168,1.0,-0.01318,-0.0173222857143,0.66
0.461790790302,0.52333663336,-0.123969111045,-1.39440216276,0.0773354682228,1.90827557106,0.154263835339,-0.0134098763143,-0.0702620570238,-0.000294066510263,-0.11136100009,-0.004343660706,0.0396665106198,-0.00668472436721,0.574007510816,0.818835669177,0.0020667150508,0.0,0.818791811643,-0.573946222301,-0.0121016525582,0.0,-0.00872324942427,0.00863881514625,-0.999924635056,0.0,0.657151939922,0.255091228035,0.30333446489,1.0,-0.01352,-0.0177691428571,0.677
0.461622992394,0.522020933362,-0.123964781541,-1.39646726378,0.0772147967395,1.909093399,0.153977208076,-0.00772274160554,-0.0823705304057,0.000294682812571,-0.111403074275,-0.00727410992732,0.0509678996823,-0.0189091401433,0.573985515323,0.818850936571,0.00212574150005,0.0,0.818807837967,-0.573923963329,-0.0120729326162,0.0,-0.00866608504218,0.00867042918351,-0.999924858491,0.0,0.656911770613,0.254791597537,0.303346946114,1.0,-0.01388,-0.0182422857143,0.695
0.461461110789,0.520847105592,-0.12396930511,-1.39836463728,0.0770971045514,1.90979838745,0.153729786088,-0.0112951083162,-0.0798800221142,6.69540015022e-05,-0.118124187669,-0.00223498367604,0.044905826136,-0.0114555072163,0.573988273812,0.818849054492,0.00210579821709,0.0,0.818805705796,-0.573926817294,-0.0120818644139,0.0,-0.00868481639281,0.00865925481223,-0.999924792807,0.0,0.656684517852,0.254501657839,0.303329745732,1.0,-0.0142,-0.0186628571429,0.711
0.461300989119,0.519620817202,-0.123973221848,-1.40029897166,0.0769708318642,1.91049578466,0.153465522098,-0.00967995175803,-0.0745356245549,0.00426670564714,-0.13008349721,-0.0135113496563,0.0406210154464,-0.020885783701,0.573974506741,0.818858742174,0.00209114295236,0.0,0.818815238042,-0.573913150856,-0.0120850372789,0.0,-0.00869597140901,0.00864892954409,-0.999924785221,0.0,0.656447649365,0.254207702616,0.30333075348,1.0,-0.01452,-0.0190834285714,0.727
0.461124928497,0.518268761077,-0.123975477529,-1.40239387893,0.076832543358,1.9112375344,0.153179804461,-0.0128172890571,-0.0789634248537,0.000123143209698,-0.123893477726,-0.00894321605614,0.0364860473871,-0.0183400591749,0.573959868872,0.818869017774,0.00208507907305,0.0,0.81882546169,-0.573898568073,-0.0120848563008,0.0,-0.0086994580062,0.00864370479053,-0.999924800071,0.0,0.656188618057,0.253887985371,0.303347015209,1.0,-0.01486,-0.0195302857143,0.744
0.460949350002,0.516892515643,-0.123976099248,-1.40453641593,0.0766970641479,1.91201596434,0.152884668692,-0.00974018984639,-0.0860775141269,0.00137590019744,-0.126990681659,-0.000714793176146,0.0431133273709,-0.0134801585261,0.573939104805,0.818883551358,0.00209289086035,0.0,0.818840090533,-0.573877766282,-0.0120814901892,0.0,-0.00869243741618,0.00864794910527,-0.999924824428,0.0,0.65592485431,0.25356717468,0.303360308421,1.0,-0.0152,-0.0199771428571,0.761
0.460770741633,0.51563276239,-0.123990344856,-1.40658645823,0.0765647922249,1.91279906311,0.152607225438,-0.0115156857196,-0.0797785897496,-0.00233118020368,-0.126312882406,-0.00913879890399,0.0480723556775,-0.0149372921718,0.573941017725,0.818882252579,0.00207641174626,0.0,0.818838704641,-0.573879877147,-0.0120751517007,0.0,-0.00869668394515,0.00863083733125,-0.99992493535,0.0,0.655683801405,0.253246726636,0.303336430861,1.0,-0.01552,-0.0203977142857,0.777
0.46058367909,0.514234339046,-0.123983165655,-1.40883718439,0.0764328231546,1.9135924881,0.152305015797,-0.00984477317021,-0.0789876841322,0.00091312947739,-0.133719854216,-0.00912759893901,0.0461089527062,-0.0169911656248,0.573924294841,0.818894086846,0.00203106416591,0.0,0.818849753341,-0.573863162426,-0.0121201965601,0.0,-0.00875977304195,0.00861937760511,-0.999924483502,0.0,0.655397269008,0.252912099667,0.303314082382,1.0,-0.01586,-0.0208445714286,0.794
0.4603849257,0.512812520985,-0.123985450752,-1.4111030894,0.0763016017042,1.91438019825,0.15197958084,-0.0105612702711,-0.0843376863915,0.00224692217946,-0.135772940475,-0.00740931912926,0.0454491612851,-0.0147725713938,0.573905413644,0.818907425734,0.00198775481876,0.0,0.818862344444,-0.573844297098,-0.0121626658873,0.0,-0.00881960544983,0.00860808310044,-0.999924054849,0.0,0.655110780041,0.252562608924,0.303300249619,1.0,-0.0162,-0.0212914285714,0.811
0.460201351419,0.511485077229,-0.123992414249,-1.41325901675,0.076167662981,1.91519868407,0.151664628829,-0.0118459388512,-0.0806996076849,-0.000287458685247,-0.134230012959,-0.00704382137435,0.0533022545361,-0.0245222788776,0.573879627382,0.81892553018,0.00197387861298,0.0,0.818880302086,-0.573818609855,-0.0121655555284,0.0,-0.00883020573815,0.00859810032851,-0.999924047184,0.0,0.654850677372,0.252233789484,0.303275068431,1.0,-0.01652,-0.021712,0.827
0.460003213788,0.510004544463,-0.12399784397,-1.41559566626,0.0760309811895,1.91607454372,0.151345987287,-0.00752712377059,-0.0829857958542,-0.000866656306267,-0.138939581577,-0.00587142494285,0.0478676740287,-0.0124777716436,0.573869951306,0.818932268212,0.00199147447816,0.0,0.81888721449,-0.573808802141,-0.0121628710682,0.0,-0.00881801178108,0.00861086500163,-0.999924044951,0.0,0.65456558321,0.251880407283,0.303275505772,1.0,-0.01686,-0.0221588571429,0.844
0.459784548801,0.508412990725,-0.124001079184,-1.4180978945,0.0758702365698,1.91696402116,0.15099851948,-0.0102875371828,-0.0853475571411,0.00033740959034,-0.135144803344,-0.00461273762315,0.0462598032564,-0.0163011198407,0.573853096163,0.818944132506,0.00196945661789,0.0,0.818898770889,-0.573792028161,-0.0121761388405,0.0,-0.00884168918274,0.0086002661584,-0.999923927084,0.0,0.654251527692,0.251493896677,0.303275372377,1.0,-0.01722,-0.022632,0.862
0.459592011477,0.50704551622,-0.123999222604,-1.42023033677,0.0757312829962,1.91774236356,0.15069967471,-0.015477031185,-0.0945552766958,0.00105798134685,-0.141526841444,-0.00845229849106,0.0509116861987,-0.0257122822476,0.573837467173,0.818955065935,0.00197690370988,0.0,0.81890981525,-0.57377638098,-0.0121707032437,0.0,-0.00883312848629,0.00860307701078,-0.999923978564,0.0,0.653988003461,0.251164416616,0.30328417917,1.0,-0.01752,-0.0230262857143,0.877
0.459359690464,0.505364389265,-0.124010542766,-1.42282960545,0.0755631450039,1.91873572554,0.150352035689,-0.0122818471317,-0.0925052066134,4.33169225021e-05,-0.144123693147,-0.00893358119583,0.0564477468948,-0.0193124083793,0.573839998824,0.818953157557,0.00203184113633,0.0,0.81890877252,-0.573778813071,-0.0121261231052,0.0,-0.00876506816509,0.00862251300942,-0.999924410068,0.0,0.653677438718,0.250759856453,0.303308604171,1.0,-0.01788,-0.0234994285714,0.895
0.459124405973,0.503607700718,-0.124017179565,-1.42544094675,0.0754040320612,1.91973247986,0.149974319536,-0.0172827577882,-0.098732334659,-0.000458946255678,-0.142657273211,-0.00383149327676,0.0524739294693,-0.0114834638479,0.573819538868,0.818967185386,0.0021524347994,0.0,0.818924425499,-0.573757884489,-0.0120591130801,0.0,-0.00864120783047,0.00868260330532,-0.999924968149,0.0,0.653364680485,0.250357422911,0.303379454639,1.0,-0.01824,-0.0239725714286,0.913
0.45891774413,0.502099585061,-0.124022999471,-1.42767156512,0.075260590274,1.92054887855,0.14966774134,-0.0141063330703,-0.0952963248617,-0.0018502617521,-0.150454918583,-0.0143705458349,0.0573268996017,-0.0298328807706,0.57381717832,0.818968633093,0.00222952370793,0.0,0.81892693663,-0.573755258497,-0.012013438768,0.0,-0.00855959337387,0.00871950243348,-0.999925349033,0.0,0.653091619154,0.250006526084,0.303441611262,1.0,-0.01854,-0.0243668571429,0.928
0.458683709641,0.500379019483,-0.124026878311,-1.43025004881,0.0750938210558,1.92146332923,0.149310537335,-0.0123816563369,-0.101564305872,-0.0017676162995,-0.151363054158,-0.0063694862519,0.0547239322763,-0.0277692061615,0.573805231226,0.818976877704,0.00227536906539,0.0,0.818935784398,-0.573743129041,-0.0119895709679,0.0,-0.00851386794735,0.00874322802613,-0.999925532235,0.0,0.652766618823,0.249603461601,0.303494345502,1.0,-0.01888,-0.0248137142857,0.945
0.458437075853,0.498690972277,-0.124027486824,-1.43287138167,0.0749287698539,1.92243304498,0.148943103177,-0.0162561963586,-0.0927798629965,-6.04281677385e-05,-0.156394946838,-0.00673383303107,0.0571772905534,-0.0286588475564,0.573795484197,0.818983626728,0.00230398938513,0.0,0.818942899957,-0.573733259486,-0.0119758286119,0.0,-0.00848629559738,0.0087586807573,-0.999925631384,0.0,0.652442615862,0.249192647932,0.303508144169,1.0,-0.01922,-0.0252605714286,0.962
0.458193809896,0.497117467116,-0.124032572523,-1.43537733237,0.0747725738742,1.92334744347,0.148556366303,-0.0153031971947,-0.102863302137,-0.00172885960304,-0.15960642137,-0.00942247428568,0.0559650378074,-0.0179066749809,0.573766463899,0.819004007836,0.00228625333141,0.0,0.81896301205,-0.573704276422,-0.0119889536425,0.0,-0.0085075315661,0.00875138494318,-0.99992551481,0.0,0.65213094905,0.248791402919,0.303491806755,1.0,-0.01954,-0.0256811428571,0.978
0.457923760908,0.495434193503,-0.124028359303,-1.43808660899,0.0746087582602,1.92427290442,0.14817119187,-0.018450161746,-0.0987729433863,-0.000606847726695,-0.163274465358,-0.00387766292329,0.0577440632987,-0.0286769281241,0.573761386745,0.819007786471,0.00220537537887,0.0,0.818965497093,-0.573699292989,-0.0120574747223,0.0,-0.0086101091584,0.00872440773263,-0.999924872543,0.0,0.651778932796,0.248355239335,0.303455302867,1.0,-0.01988,-0.026128,0.995
0.457627750885,0.493606459552,-0.124050322894,-1.44105855383,0.0744240379583,1.92535094226,0.147759458606,-0.0175770053614,-0.109263123781,-0.00445818147948,-0.173619872018,-0.014747008713,0.0690841680494,-0.021551792015,0.57378202398,0.818993496986,0.00214190384859,0.0,0.81895037776,-0.573720196791,-0.0120897254777,0.0,-0.00867272002584,0.00869114745144,-0.999924621101,0.0,0.651409570461,0.247864626657,0.30340779869,1.0,-0.0236074285714,-0.0310269061224,1.013
0.457357106831,0.491553217805,-0.124091670407,-1.44424643864,0.0742354664903,1.92654738125,0.147298260181,-0.0189392633973,-0.134656580869,-0.000425898483662,-0.20880960998,-0.0151120319182,0.0797717282104,-0.0289152484958,0.573764782206,0.819005451855,0.00218893408969,0.0,0.818963031919,-0.573702842563,-0.012056022846,0.0,-0.00861831665843,0.00871014511855,-0.999924926177,0.0,0.651014009969,0.247363998082,0.303424326643,1.0,-0.028444,-0.0373835428571,1.029
0.456968150737,0.489009574252,-0.124103298378,-1.44835248701,0.0740074476428,1.92801685676,0.14670152949,-0.0201812769312,-0.16635563009,-0.00130033531951,-0.2526675468,-0.0165156259701,0.0904726571248,-0.0343961199564,0.573746383144,0.819018518619,0.00212153012687,0.0,0.818974845059,-0.573684360595,-0.012132784927,0.0,-0.0087200547714,0.00869878875492,-0.999924142982,0.0,0.650484770469,0.246713893726,0.303366774416,1.0,-0.0335828571429,-0.0441374693878,1.046
0.456486301161,0.485945237213,-0.12414538642,-1.45310039172,0.0737173696096,1.92982208659,0.145998705052,-0.0284976332907,-0.18966756128,-0.00317517505675,-0.288460476973,-0.0156926099878,0.108650630766,-0.0441145077837,0.573752955101,0.819013664787,0.0022159210582,0.0,0.81897137607,-0.573690678915,-0.0120680157738,0.0,-0.00861278239208,0.00873900388363,-0.999924722062,0.0,0.649909348219,0.245929286129,0.303393571036,1.0,-0.0387217142857,-0.0508913959184,1.063
0.455972005293,0.482690238789,-0.124192416041,-1.45815453361,0.073406202894,1.93161608281,0.145214771235,-0.0348010516791,-0.216506476599,-0.000751945411549,-0.330693622454,-0.0191293533652,0.112694399776,-0.0445683819591,0.573730102952,0.819029697683,0.00220684881238,0.0,0.818987253012,-0.573667830168,-0.0120767104731,0.0,-0.00862535242282,0.00873632159097,-0.999924637151,0.0,0.649267602281,0.245083556027,0.303403847655,1.0,-0.0435582857143,-0.0572480326531,1.079
0.455349464467,0.47878480315,-0.124274870124,-1.46426713293,0.0730484779671,1.93375689766,0.144310450614,-0.0421462987889,-0.243996136771,-0.0108408216106,-0.36963568429,-0.0287768963669,0.13492586537,-0.0563461944458,0.573760351493,0.819008658669,0.00215011200353,0.0,0.818965305913,-0.573698150139,-0.0121246500529,0.0,-0.00869684553889,0.00871767845314,-0.999924180606,0.0,0.648483646806,0.244046705636,0.303389739592,1.0,-0.0486971428571,-0.0640019591837,1.096
0.454598810451,0.474169672473,-0.124328688003,-1.47134394236,0.0726229698769,1.93634493414,0.143305909841,-0.0475095784628,-0.269186528813,-8.69826897751e-05,-0.414150549956,-0.0190379916362,0.146537659458,-0.0630716999806,0.573818431926,0.818967678101,0.00225750041795,0.0,0.818925659522,-0.573755693703,-0.012079528981,0.0,-0.00859765561534,0.00878035044591,-0.999924490031,0.0,0.647590815756,0.24285900173,0.303441669414,1.0,-0.0541382857143,-0.0711531755102,1.114
0.453896520186,0.470002065348,-0.12436794604,-1.47775016874,0.0722326084998,1.93863986079,0.142333617277,-0.0503721312003,-0.289481639983,-0.00142062612287,-0.43585736419,-0.0256020989068,0.165301205384,-0.0694062361129,0.573826348844,0.818961989913,0.00230810548745,0.0,0.818920469329,-0.573763229406,-0.012073458351,0.0,-0.00856356229313,0.00881839313394,-0.999924447818,0.0,0.646768724859,0.241771666272,0.303472901394,1.0,-0.0586725714286,-0.077112522449,1.129
0.452989600739,0.464524688312,-0.124400953736,-1.48601802027,0.0716902364084,1.94168845123,0.141005326812,-0.0518443436955,-0.31178614026,-0.00190845116363,-0.481020257052,-0.031040607057,0.1583659289,-0.0785772746164,0.573748391001,0.819016003419,0.00251333790147,0.0,0.818977377318,-0.57368467439,-0.0119455729542,0.0,-0.00834191259154,0.00891229173416,-0.999925488999,0.0,0.645715171165,0.240380831516,0.30358178928,1.0,-0.0641137142857,-0.0842637387755,1.147
0.452015335841,0.45897680793,-0.124445931024,-1.49463330124,0.071137652168,1.94461729406,0.13973384288,-0.0596433925026,-0.335808140745,-0.0021196558962,-0.513484900693,-0.0316550928845,0.180022022372,-0.0802802663464,0.57378819714,0.818988474134,0.00239394234088,0.0,0.818947939158,-0.573724585382,-0.0120465753872,0.0,-0.00849270632887,0.00887286774987,-0.999924570234,0.0,0.644559116603,0.238892410761,0.303557242591,1.0,-0.0692525714286,-0.0910176653061,1.164
0.451049201171,0.453430487497,-0.124510068116,-1.5032023681,0.0705533443539,1.94763228346,0.138367371058,-0.0583041455096,-0.36528845116,-0.0030402260154,-0.542257082506,-0.0357604691333,0.196508386097,-0.089587852606,0.573740938403,0.819021679351,0.00236035058687,0.0,0.818980887956,-0.573677661197,-0.0120413083955,0.0,-0.00850817602817,0.00884184383087,-0.999924713535,0.0,0.643422631772,0.237406112037,0.303554246212,1.0,-0.0740891428571,-0.0973743020408,1.18
0.44991582559,0.447035310184,-0.124553069294,-1.51264681975,0.0699198883794,1.95122337179,0.136896133123,-0.0680100447099,-0.379690335894,-0.00594928631878,-0.569055293562,-0.0312653870212,0.204953594289,-0.0835060495335,0.573751136686,0.819013163054,0.00279621114807,0.0,0.818978615099,-0.573686792981,-0.0117574857834,0.0,-0.00802554073154,0.00903608193896,-0.999926967293,0.0,0.642225822976,0.235765208702,0.303757185998,1.0,-0.079228,-0.104128228571,1.197
0.448704452578,0.440435457592,-0.124580787923,-1.52293827638,0.0692245010623,1.95466374226,0.135282057267,-0.0727302320745,-0.400122991978,-0.00386260117168,-0.619717267634,-0.0466473712207,0.196874859837,-0.109518950226,0.573708334993,0.819043870218,0.00257525130854,0.0,0.819006004461,-0.573644331665,-0.0119202477837,0.0,-0.00828608709579,0.00894806407133,-0.99992563369,0.0,0.64078924915,0.233971407832,0.303675016143,1.0,-0.0843668571429,-0.110882155102,1.214
0.447480016253,0.433777659791,-0.124613460058,-1.53301583718,0.0685496154958,1.95816935337,0.133655986801,-0.0820049252175,-0.435264894611,-0.00318268708491,-0.627775230796,-0.0437159594483,0.230704131865,-0.106200310093,0.573659037112,0.819078184887,0.00264255246276,0.0,0.819041025749,-0.573594595843,-0.0119073364429,0.0,-0.00823744430498,0.00899528322519,-0.999925611929,0.0,0.639406700562,0.232202829302,0.303728693742,1.0,-0.0892034285714,-0.117238791837,1.23
0.445981229694,0.426013549356,-0.124644792113,-1.54490444852,0.0676959233698,1.96236166878,0.131718896989,-0.0817829169992,-0.434981602277,-0.00448116433847,-0.683569846261,-0.0503950472229,0.233396715954,-0.119614243079,0.573597018739,0.819121560216,0.00266018504225,0.0,0.819084891863,-0.573532804306,-0.0118663055138,0.0,-0.00819440106682,0.00898556784385,-0.999926052947,0.0,0.637775176378,0.23008441858,0.303722070116,1.0,-0.0946445714286,-0.124390008163,1.248
0.444427033901,0.418292782651,-0.124752778863,-1.5567158832,0.0668517419576,1.96630673588,0.129801368015,-0.0890047067513,-0.458936795311,-0.000727434731087,-0.688785035157,-0.0526536009191,0.243472239566,-0.110739956034,0.573640756697,0.819091440013,0.00249841037981,0.0,0.819052748067,-0.573577250186,-0.011936534447,0.0,-0.00834424248596,0.00889378377276,-0.999925634349,0.0,0.636116066194,0.227885321509,0.30368886303,1.0,-0.0997834285714,-0.131143934694,1.265
0.442880298252,0.410633663539,-0.124827625917,-1.56816091407,0.0660614940355,1.97041020597,0.127862508188,-0.0977846147167,-0.483459671422,-0.00471478266954,-0.720682478569,-0.0495406232103,0.251714777288,-0.130831895426,0.573628251435,0.819099412202,0.00274390014186,0.0,0.819064190409,-0.57356411866,-0.0117813698966,0.0,-0.00807646598764,0.00900573034974,-0.999926831082,0.0,0.63454704114,0.225775786227,0.303785695132,1.0,-0.10462,-0.137500571429,1.281
0.441082018117,0.402308193701,-0.124890981698,-1.58095789192,0.0651844540471,1.97458814217,0.125749385996,-0.110800666651,-0.496743285294,-0.00742491958086,-0.764852394429,-0.0525027525759,0.25531456094,-0.130529367362,0.573688452373,0.81905804061,0.00249652323302,0.0,0.819018855074,-0.573624447797,-0.0119939494632,0.0,-0.00839183555436,0.00892566175198,-0.999924952013,0.0,0.632686294557,0.22336513595,0.303681565657,1.0,-0.109758857143,-0.144254497959,1.298
0.439181556646,0.393486324958,-0.125009731399,-1.5939374145,0.0642253576975,1.97919579574,0.12352795918,-0.115259960477,-0.51396149603,-0.00498518864427,-0.797866649883,-0.0626902699289,0.277474538264,-0.137492098279,0.573755136732,0.819010276491,0.00282081159423,0.0,0.818976152354,-0.57369082288,-0.0117323706156,0.0,-0.00799081222497,0.00904185941649,-0.999927193199,0.0,0.630884689795,0.220864457151,0.303843269522,1.0,-0.114897714286,-0.15100842449,1.315
0.43715935379,0.384494558527,-0.125054639931,-1.60759586202,0.0631956680392,1.98363707518,0.121120019066,-0.120103233412,-0.544845472999,-0.00250736708552,-0.777455543066,-0.0564957124593,0.253981083715,-0.150283617562,0.573702425723,0.819047944098,0.00259593713646,0.0,0.819010672026,-0.573638694767,-0.0118707150314,0.0,-0.00823371327528,0.00893653028315,-0.999926169471,0.0,0.628854525029,0.218244241204,0.303761856551,1.0,-0.120036571429,-0.15776235102,1.332
0.435033218372,0.375096798107,-0.125134309698,-1.62147018613,0.0621767595388,1.9883735039,0.118631696242,-0.130239276341,-0.543558107595,-0.00412230280214,-0.801481582112,-0.0548638880269,0.281254786085,-0.147498627434,0.573693544662,0.819053539092,0.00278636233492,0.0,0.819018908735,-0.57362929491,-0.0117561071701,0.0,-0.00803069673787,0.0090266600239,-0.999927010996,0.0,0.626831013892,0.215548620818,0.303853142129,1.0,-0.125175428571,-0.164516277551,1.349
0.432710603389,0.365427087114,-0.125231021287,-1.63590236919,0.0610710056094,1.9930766505,0.116129048231,-0.139424305958,-0.584118743359,-0.00737251621689,-0.854739087038,-0.0659530864616,0.28422228656,-0.148231266399,0.573823063383,0.818963120454,0.00269187060795,0.0,0.818927306889,-0.573759188889,-0.0117985633531,0.0,-0.00811825906558,0.00897490690905,-0.999926769777,0.0,0.624668955559,0.21265722667,0.303835807942,1.0,-0.130314285714,-0.171270204082,1.366
0.430584470084,0.356637988298,-0.125347489563,-1.64889818433,0.0600328488937,1.99733543118,0.113698916209,-0.148758838521,-0.586709450858,-0.00991323282301,-0.885907434798,-0.0698956501214,0.283626628051,-0.165023495741,0.573817065959,0.818967384113,0.0026731021065,0.0,0.818931809255,-0.573753793714,-0.0117483144074,0.0,-0.00808793956126,0.00893064359016,-0.999927411785,0.0,0.622710841179,0.210021774689,0.303856183749,1.0,-0.134848571429,-0.17722955102,1.381
0.427842011151,0.345773624461,-0.125439478691,-1.66494956044,0.0588720409798,2.00248410794,0.110671949043,-0.160221536541,-0.620316054116,-0.00766544785556,-0.871636884245,-0.073745031474,0.292682029547,-0.171498967115,0.573866703715,0.818932666987,0.00265333921484,0.0,0.818895989962,-0.573802568046,-0.0118624376917,0.0,-0.00819220260571,0.00898043976048,-0.99992611703,0.0,0.620234860719,0.206751967436,0.303849220354,1.0,-0.140289714286,-0.184380767347,1.399
0.425172704666,0.335270961411,-0.125516725822,-1.68035892883,0.0576351694333,2.00752405946,0.107752901746,-0.154685940512,-0.622347637414,-0.0037372159972,-0.924914608044,-0.0727528836255,0.303552052558,-0.180014091166,0.573863241438,0.8189349024,0.00271157840415,0.0,0.818899263725,-0.573799199444,-0.0117992156254,0.0,-0.0081070440648,0.00899181880431,-0.99992670883,0.0,0.617844690436,0.203602107247,0.303869282905,1.0,-0.145428571429,-0.191134693878,1.416
0.422566211268,0.325029294141,-0.125506947247,-1.69520452593,0.0563884059533,2.01224353697,0.104845086578,-0.165585382591,-0.643158315203,0.00163872791428,-0.926346586861,-0.0831938062885,0.310009448534,-0.19206092447,0.573705437316,0.819045310732,0.00275627695955,0.0,0.81901043721,-0.573641459253,-0.0117527387382,0.0,-0.00804506570706,0.00900020299698,-0.999927133977,0.0,0.615468650169,0.200597631218,0.303927315989,1.0,-0.150265142857,-0.197491330612,1.432
0.419611037548,0.313993118172,-0.125534107701,-1.71136295592,0.0550973641982,2.01725897079,0.101696947402,-0.177778000758,-0.649991303498,0.00145323168444,-0.94937959779,-0.0707957685405,0.285073469827,-0.194190766821,0.573674980573,0.819066990771,0.00265107427934,0.0,0.819030137215,-0.573610717461,-0.0118796484707,0.0,-0.00820970136713,0.00898653985517,-0.999925918708,0.0,0.612836415263,0.197252991099,0.303878823332,1.0,-0.155404,-0.204245257143,1.449
0.416308955548,0.301951262258,-0.125603036149,-1.72863205084,0.0536252875822,2.02271975561,0.0980749152354,-0.186332394464,-0.671690059092,-0.00225860819699,-0.963930962592,-0.0772138135087,0.298961573802,-0.203212209685,0.573522655625,0.819173232821,0.0027793913071,0.0,0.819138507024,-0.573458447629,-0.0117584886051,0.0,-0.00803852846601,0.00902063973196,-0.999927002395,0.0,0.610035561329,0.193585449147,0.303958691787,1.0,-0.160845142857,-0.211396473469,1.467
0.413354215855,0.291637051126,-0.125682767855,-1.74337545822,0.0524521666642,2.02719056574,0.095096475182,-0.20050763207,-0.700438903048,-0.00718021977936,-0.968920042641,-0.0783923852122,0.304438689585,-0.208856285198,0.573622247644,0.819103365805,0.00281780681241,0.0,0.819068498181,-0.573557166621,-0.0118202710425,0.0,-0.00806600579982,0.00908852221937,-0.999926166431,0.0,0.607588031785,0.190381594853,0.30400179206,1.0,-0.165379428571,-0.217355820408,1.482
0.409687043974,0.279124317978,-0.125817670945,-1.76140268623,0.0509220540155,2.0326255536,0.0912434076979,-0.204607380655,-0.694997407417,-0.00542320575963,-1.01462248504,-0.0899976813948,0.289539303717,-0.211901099134,0.573584975184,0.819129841909,0.00270651797669,0.0,0.819093293699,-0.573520055307,-0.0119024904892,0.0,-0.00819760064229,0.00904415456387,-0.999925498531,0.0,0.604550496488,0.186419578942,0.303951804013,1.0,-0.170820571429,-0.224507036735,1.5
0.405976628857,0.266931079644,-0.125967569091,-1.77857650375,0.0493905579438,2.03782475544,0.0875190333021,-0.224283548942,-0.719394780953,-0.0129379310643,-1.01441849132,-0.092530696462,0.306848509144,-0.214373337459,0.573646071299,0.819086697302,0.0028131988048,0.0,0.819052110968,-0.573581388462,-0.0117803747806,0.0,-0.00803570450778,0.00906209660442,-0.999926650239,0.0,0.601656727843,0.182524673876,0.304038034964,1.0,-0.175959428571,-0.231260963265,1.517
0.402471827443,0.256094470871,-0.126134880679,-1.79395139758,0.0480414407555,2.04234577392,0.0841180635448,-0.23297175718,-0.731335788134,-0.0125956510961,-1.0117088198,-0.0894244625321,0.302412829099,-0.235532039904,0.573808145775,0.818973364946,0.00275431528962,0.0,0.81893796854,-0.573743605665,-0.0118163252899,0.0,-0.00809714079364,0.00903609104525,-0.999926389976,0.0,0.599025464213,0.178929492305,0.304020795102,1.0,-0.180493714286,-0.237220310204,1.532
0.398137202082,0.242791631179,-0.126261716004,-1.81274602844,0.0463401135377,2.04782121565,0.0798680189044,-0.238223695244,-0.753425661591,-0.00579600653281,-1.05905292543,-0.094853602759,0.30436650313,-0.236425903272,0.573861928258,0.818935920643,0.00268180503294,0.0,0.818899535673,-0.573797599986,-0.0118579773526,0.0,-0.00817226765016,0.00900114394495,-0.999926093994,0.0,0.595733152997,0.174576139334,0.303985080177,1.0,-0.185934857143,-0.244371526531,1.55
0.393933456497,0.229896127077,-0.126336492952,-1.83052530233,0.044787913316,2.05302403839,0.075683412673,-0.248151143285,-0.75176605881,-0.000209527282748,-1.06425045385,-0.0973712213517,0.299363083118,-0.247375243338,0.573819479361,0.818964767831,0.00294296771941,0.0,0.818931421739,-0.573753801527,-0.0117749149611,0.0,-0.00795485473621,0.00916694080313,-0.999926341028,0.0,0.592575633043,0.170472825964,0.304099025019,1.0,-0.191073714286,-0.251125453061,1.567
0.389729595268,0.21765577284,-0.126415244205,-1.84754881287,0.0431025710773,2.05781469264,0.0715372411261,-0.264687611863,-0.77962080806,-0.0064165022093,-1.0516947097,-0.1007614645,0.307741862942,-0.258180816736,0.573712584813,0.819039976613,0.00285195326886,0.0,0.819005983274,-0.573647856105,-0.0117508913762,0.0,-0.00798858672462,0.00907757582798,-0.999926887377,0.0,0.589490403875,0.166430405378,0.304083199192,1.0,-0.195910285714,-0.257482089796,1.583
0.384762681504,0.203613327796,-0.126557483817,-1.86697308173,0.0412908275119,2.06314695608,0.0667869313436,-0.278498899639,-0.787358761891,-0.00926749630125,-1.09777540343,-0.107245994648,0.288049205743,-0.271981533308,0.573765832926,0.819002926895,0.00277877779266,0.0,0.818967485031,-0.573700801821,-0.0118488545166,0.0,-0.0081102156285,0.00907437125102,-0.999925937352,0.0,0.585906330855,0.161742254203,0.304049628814,1.0,-0.201351428571,-0.264633306122,1.601
0.379842307983,0.190028475803,-0.126728327969,-1.88539342411,0.0395160222726,2.06823451891,0.0620441705266,-0.300714569171,-0.78811876281,-0.0117508702644,-1.101025372,-0.103587685571,0.294046470111,-0.288302851117,0.573768170044,0.819000747683,0.00293415067036,0.0,0.818967562221,-0.573702847152,-0.0117440240116,0.0,-0.00793518662965,0.00914149738991,-0.999926730235,0.0,0.582491621053,0.157196154524,0.304130743389,1.0,-0.206490285714,-0.271387232653,1.618
0.375196531941,0.177876622289,-0.12691453607,-1.90173424465,0.037987548587,2.07257625836,0.0577204219848,-0.313102369702,-0.849700612349,-0.0114215651214,-1.08585760379,-0.106963450571,0.305114044979,-0.286273951471,0.573924029647,0.818891073266,0.00306026466332,0.0,0.818859060013,-0.573857704684,-0.0117439989083,0.0,-0.00786105076465,0.00924626664252,-0.999926352505,0.0,0.579418686847,0.153019852985,0.304204504248,1.0,-0.211024571429,-0.277346579592,1.633
0.369872135507,0.164014853102,-0.127014162998,-1.92064926583,0.0360402485385,2.07736060655,0.0526824735074,-0.311187693579,-0.849578212237,-0.005091066572,-1.1159260946,-0.117129344272,0.279618021245,-0.306875515221,0.57383776658,0.818952539266,0.00277542404815,0.0,0.818916406707,-0.57377201583,-0.0119306151343,0.0,-0.00817830436607,0.00911925340508,-0.999924974463,0.0,0.57571703461,0.148295411946,0.304094023798,1.0,-0.216163428571,-0.284100506122,1.65
0.36395629116,0.148972699776,-0.127117639096,-1.94055992284,0.0339901524122,2.0825544392,0.0471096864544,-0.331045834431,-0.822562788328,-0.00511702306861,-1.11993679438,-0.114289389566,0.282042188812,-0.315903621262,0.573742864911,0.819018303279,0.00298173761488,0.0,0.818985239036,-0.573676803355,-0.0117834814139,0.0,-0.00794048612992,0.00920286466194,-0.999926125252,0.0,0.571830909063,0.143216592136,0.304196301594,1.0,-0.221604571429,-0.291251722449,1.668
0.358796289301,0.136208452508,-0.127239824092,-1.95731297663,0.0323099183245,2.08671551506,0.0423023690904,-0.34914376399,-0.855881575174,-0.00985866809423,-1.11457940193,-0.110305579939,0.289533818729,-0.332593276935,0.573731561737,0.81902569731,0.00312235729664,0.0,0.818994018668,-0.573664489649,-0.0117727483024,0.0,-0.00785114904148,0.00931176849995,-0.999925822462,0.0,0.568486147429,0.138867445821,0.304276570794,1.0,-0.226138857143,-0.297211069388,1.683
0.352240707188,0.120810672786,-0.127448134834,-1.97754355814,0.0301338282757,2.09161477308,0.0363073454859,-0.37466045971,-0.856886232584,-0.0146431507494,-1.10706854042,-0.115025995859,0.277709646748,-0.331663782684,0.573781263326,0.818990925526,0.00311009065708,0.0,0.818959200329,-0.573714360902,-0.0117646585972,0.0,-0.00785099611531,0.00929755703673,-0.999925955905,0.0,0.564398122851,0.133436953769,0.304290469937,1.0,-0.23158,-0.304362285714,1.701
0.345714830356,0.106061468467,-0.127620008408,-1.99681385931,0.0279928919544,2.09619270912,0.0303886176676,-0.381020242044,-0.858003529894,-0.00616432713109,-1.13950893697,-0.126610994644,0.254322632047,-0.347485395198,0.573787961887,0.818986419594,0.00306042721637,0.0,0.818954246694,-0.573721464507,-0.0117630730341,0.0,-0.00787811596121,0.00925603777475,-0.999926127798,0.0,0.560194141653,0.127877579946,0.304275314233,1.0,-0.237021142857,-0.311513502041,1.719
0.339492103263,0.0919427622855,-0.12772300463,-2.01491396292,0.0259929028836,2.10038969192,0.0245901918284,-0.397169328315,-0.87151222972,-0.00969021860527,-1.1403145487,-0.123182096139,0.261097994019,-0.363710772028,0.573623308588,0.819101171743,0.00321203911154,0.0,0.819071177051,-0.573556569195,-0.0116625793884,0.0,-0.00771069476438,0.00932099548929,-0.999926829438,0.0,0.556639112979,0.123287225047,0.304349070836,1.0,-0.241555428571,-0.31747284898,1.734
0.332046268392,0.0758449422134,-0.127912763356,-2.03538827264,0.0237154531183,2.10490579055,0.0177948779159,-0.424464151119,-0.898392028701,-0.00930144707716,-1.13466836679,-0.141625477747,0.259322422069,-0.384661783997,0.573574684975,0.819134866338,0.00330127341229,0.0,0.819105782377,-0.573507359291,-0.0116521679194,0.0,-0.0076515397301,0.00938766142645,-0.999926660187,0.0,0.552266863249,0.117556894904,0.30440956459,1.0,-0.246996571429,-0.324624065306,1.752
0.324625481247,0.0605752044472,-0.128140701043,-2.05489158434,0.0214879178475,2.10898001574,0.0111826968065,-0.451033923316,-0.923292463994,-0.0184284109401,-1.12651754281,-0.143086938866,0.232230807137,-0.404050015188,0.573657811015,0.819077251379,0.0031494501875,0.0,0.819045506188,-0.573590156696,-0.0118126134273,0.0,-0.00786910081565,0.00935612111843,-0.999925267332,0.0,0.548009934731,0.111959215265,0.304339581651,1.0,-0.24998,-0.328545142857,1.769
0.317390000163,0.0461951776987,-0.128321678939,-2.07297316503,0.0193744644583,2.11275671388,0.00479000915292,-0.448923426152,-0.868445205561,-0.00878927849701,-1.1352015814,-0.125643985573,0.223107406817,-0.400746479545,0.573731438655,0.819025575999,0.00317632811503,0.0,0.818994091046,-0.573663573025,-0.0118123121084,0.0,-0.00785259317968,0.0093786693457,-0.999925185872,0.0,0.544027813303,0.106665860403,0.304334874443,1.0,-0.24998,-0.328545142857,1.785
0.309606084398,0.0308781581544,-0.128480414201,-2.09186562447,0.0171633065184,2.11647692935,-0.00211056977055,-0.464654806177,-0.908769714977,-0.00809669905459,-1.10524059487,-0.137011623934,0.217914805156,-0.409261405681,0.573747445566,0.819013910921,0.00329079390308,0.0,0.818983571238,-0.573678763323,-0.0118039593156,0.0,-0.0077798980939,0.00946777993195,-0.999924914345,0.0,0.539766697979,0.101108797023,0.304402699656,1.0,-0.24998,-0.328545142857,1.802
0.30156054582,0.0157278892273,-0.128675710321,-2.1103776848,0.0148764905028,2.1199542694,-0.00922232334495,-0.482053342319,-0.901045907043,-0.0207203244231,-1.06298062935,-0.126770044606,0.207120060587,-0.438152356956,0.573763532586,0.819002444394,0.00333940891824,0.0,0.818972884217,-0.573694861247,-0.0117629926642,0.0,-0.00771826660992,0.00948424417923,-0.999925235942,0.0,0.535526434556,0.0954846665242,0.30446160798,1.0,-0.24998,-0.328545142857,1.819
0.293721832369,0.0016496199435,-0.128868268937,-2.12757848186,0.0127906669281,2.1230065354,-0.0160042627289,-0.489007818696,-0.8739891281,-0.0104668139167,-1.07644512545,-0.125223611345,0.191193982336,-0.427080049179,0.573927048833,0.818888039907,0.00329660667324,0.0,0.81885715039,-0.573857560573,-0.0118833635499,0.0,-0.0078395125561,0.00951981700478,-0.999923954672,0.0,0.531508287067,0.0901415111619,0.304438444264,1.0,-0.24998,-0.328545142857,1.835
0.284925933508,-0.0141157662997,-0.128965322685,-2.1464057279,0.0104142437185,2.12639386066,-0.0238263875324,-0.498518980839,-0.883618319051,-0.00701989997785,-1.05000632252,-0.13278901238,0.177116076839,-0.440264463757,0.573800897867,0.818975462802,0.0035309825182,0.0,0.818948208779,-0.573731354884,-0.0117008829563,0.0,-0.00755704614661,0.0096058538971,-0.999925306523,0.0,0.527313210241,0.0846491856938,0.304539919732,1.0,-0.24998,-0.328545142857,1.852
0.27632417718,-0.0288836574364,-0.129129867534,-2.16387950971,0.00811225798478,2.1291932153,-0.0313866624609,-0.517378995138,-0.8897522999,-0.0117803233979,-1.01631754892,-0.1297105697,0.17698917337,-0.453143053242,0.573753298739,0.819008732254,0.00354902506411,0.0,0.818981918741,-0.573683966949,-0.0116648935558,0.0,-0.00751777564595,0.00959954333472,-0.999925663146,0.0,0.522821493538,0.0787332535739,0.304598342507,1.0,-0.24998,-0.328545142857,1.87
0.268493267938,-0.041728876611,-0.129331707638,-2.17922408041,0.00611450430887,2.13153087264,-0.0381424287746,-0.526325703206,-0.849251413715,-0.0130949074037,-1.02888346347,-0.126768239206,0.147754203367,-0.462143265956,0.573886114777,0.818916211936,0.00342227930543,0.0,0.818887082137,-0.573816342607,-0.0118109511804,0.0,-0.00770856801942,0.00958078565923,-0.999924390404,0.0,0.519034114062,0.0737243318565,0.304522801504,1.0,-0.24998,-0.328545142857,1.885
0.259039463052,-0.0571311383647,-0.129455247466,-2.19703579058,0.00377893733829,2.13423452727,-0.0464663508802,-0.532631306984,-0.824589320969,-0.0119174615773,-1.00016332571,-0.138027668864,0.146845142077,-0.472816824978,0.573813031973,0.818966444581,0.00364882026951,0.0,0.8189405993,-0.573742952242,-0.0116647533981,0.0,-0.00745970032609,0.00968174097636,-0.999925305592,0.0,0.514589763176,0.0678775246412,0.304623350111,1.0,-0.24998,-0.328545142857,1.903
0.249324965405,-0.0723176409412,-0.129646085728,-2.21467076811,0.00139059907854,2.13656640995,-0.0549706883507,-0.54827454274,-0.874614409097,-0.0157499291405,-0.957158531557,-0.14415139481,0.138825399929,-0.473098096608,0.573803643767,0.818973413537,0.00355994666977,0.0,0.818945850222,-0.573733132427,-0.0117785423668,0.0,-0.00760400009507,0.00967416033813,-0.999924292036,0.0,0.510061236294,0.0619601377157,0.304587301865,1.0,-0.24998,-0.328545142857,1.921
0.240970413083,-0.0848810778573,-0.129824323292,-2.22909796196,-0.000529178628653,2.13838577425,-0.0622378565267,-0.554686444012,-0.821905634763,-0.00362617271296,-0.96074427221,-0.130839311906,0.115054189224,-0.486918795182,0.573883506429,0.818917415807,0.0035684782687,0.0,0.818889235568,-0.573812029472,-0.0118710406363,0.0,-0.00767391390997,0.00973497029528,-0.999923167748,0.0,0.506303499157,0.0569882281337,0.304566620175,1.0,-0.24998,-0.328545142857,1.936
0.231505811909,-0.0991067463611,-0.129944134333,-2.24511493866,-0.00274386474938,2.14029335273,-0.0706226856439,-0.5519532876,-0.828605058764,-0.0118417166574,-0.932788959653,-0.138268462173,0.105784996559,-0.497020144364,0.573739619648,0.819017795084,0.00366702645981,0.0,0.818990916301,-0.57366784636,-0.0118248877643,0.0,-0.00758128429528,0.00978785641523,-0.999923358061,0.0,0.502054543601,0.0514933905857,0.304615056161,1.0,-0.24998,-0.328545142857,1.953
0.221673716774,-0.113069252706,-0.130140351884,-2.26096757271,-0.00504171769624,2.14191034091,-0.07910600223,-0.58105790888,-0.811511741368,-0.0116484981129,-0.942441583907,-0.134600055165,0.0905039811603,-0.507981560465,0.573814585745,0.818966225506,0.0034481252101,0.0,0.818935768001,-0.57374266776,-0.0120127424736,0.0,-0.00785984513113,0.00971706699689,-0.999921897672,0.0,0.497745540532,0.0458639064312,0.304517737958,1.0,-0.24998,-0.328545142857,1.97
0.212206530639,-0.126252912678,-0.130321929986,-2.27541980978,-0.00707091989337,2.14336509843,-0.0873533948808,-0.591294470736,-0.815913817031,-0.0120909929716,-0.91477866757,-0.125622052216,0.0745268919581,-0.523698127056,0.573881192069,0.818918779326,0.00362727983855,0.0,0.818890715097,-0.573808679776,-0.0119307435749,0.0,-0.00768909334834,0.00981736414056,-0.99992224558,0.0,0.493781979557,0.040583533157,0.304596929649,1.0,-0.24998,-0.328545142857,1.986
0.202056013289,-0.140026745478,-0.130499676662,-2.29055010438,-0.00925925912414,2.14465453494,-0.0963125615939,-0.604316649467,-0.788314980296,-0.0191890519214,-0.862208822105,-0.126956735851,0.0804290860929,-0.538210582049,0.573816837368,0.818963942672,0.00361173897913,0.0,0.818935129201,-0.573743695519,-0.0120072025725,0.0,-0.00776140292117,0.00984790453599,-0.99992138661,0.0,0.489523107047,0.0350303330316,0.304586519837,1.0,-0.24998,-0.328545142857,2.003
0.191580096449,-0.153763577502,-0.130739417706,-2.30534145313,-0.0114743008348,2.14587186466,-0.105440927344,-0.621665071086,-0.788841995142,-0.0160659046213,-0.851140799958,-0.133360747827,0.0510505386025,-0.548660884956,0.573897864232,0.818906615315,0.00373412960805,0.0,0.818879878032,-0.573824886297,-0.0118950460781,0.0,-0.00759834171669,0.00988453544509,-0.999922277561,0.0,0.485309578318,0.0293936794281,0.30464433062,1.0,-0.24998,-0.328545142857,2.02
0.181685695269,-0.166578916939,-0.130830568802,-2.31903953595,-0.01351107569,2.14672076369,-0.11417798072,-0.611730743795,-0.832765382036,-0.00615864645927,-0.842696603168,-0.120727571848,0.0631257000298,-0.547559915828,0.573776417072,0.818991675551,0.00374239106028,0.0,0.818964706849,-0.573702987102,-0.011934757148,0.0,-0.00762759267855,0.00991295924779,-0.999921773475,0.0,0.481289656408,0.0242358643434,0.30466613174,1.0,-0.24998,-0.328545142857,2.036
0.170850813312,-0.179985631145,-0.131039434253,-2.33330827558,-0.0156871663318,2.14752956194,-0.123722674557,-0.644019181609,-0.779309059482,-0.0155235502968,-0.822443666624,-0.13871764513,0.0458994313814,-0.571716471385,0.57376417586,0.819000363618,0.00371776749102,0.0,0.818972728777,-0.573690389777,-0.0119897080631,0.0,-0.00768687577852,0.00992420622444,-0.999921207932,0.0,0.476778627664,0.0183127600559,0.304644130889,1.0,-0.24998,-0.328545142857,2.054
0.159045161383,-0.194143724901,-0.131282611556,-2.34802579934,-0.0179912004167,2.14823827249,-0.134070208108,-0.65393129385,-0.784801779124,-0.00463058247142,-0.82159633399,-0.131490307802,0.0441790893293,-0.583948469072,0.57382638106,0.818956156907,0.00385283849837,0.0,0.818930853752,-0.573752854133,-0.0118602718742,0.0,-0.00750261003752,0.00996113699157,-0.999922240273,0.0,0.472570547222,0.0126823958918,0.304721197848,1.0,-0.24998,-0.328545142857,2.071
0.14852534145,-0.206536402369,-0.131467506557,-2.36099091867,-0.0199250769416,2.14864299005,-0.143491224306,-0.670955046432,-0.774820835717,-0.00782853213625,-0.774432996567,-0.123421220695,0.0140543386974,-0.597724980845,0.573728103681,0.819025082758,0.00383715547259,0.0,0.818998318075,-0.573652988245,-0.012031249695,0.0,-0.00765284691497,0.0100454833574,-0.99992025792,0.0,0.468522953706,0.00749456053691,0.304672967173,1.0,-0.24998,-0.328545142857,2.087
0.136198220622,-0.220384555205,-0.131768728037,-2.37502338607,-0.0221780055344,2.14900754013,-0.154229990803,-0.681298025871,-0.760074818421,-0.0121811367857,-0.784439873085,-0.133742719998,0.0171456076152,-0.586848329192,0.57393415887,0.818879943866,0.00399571232396,0.0,0.818855856709,-0.573859256749,-0.0118905962397,0.0,-0.00744413759963,0.0100965261789,-0.999921319392,0.0,0.464074821232,0.00148768853696,0.304757549425,1.0,-0.24998,-0.328545142857,2.105
0.125313902655,-0.232517407225,-0.131894443732,-2.38743206538,-0.024138369451,2.14914575054,-0.164042560917,-0.684904096711,-0.752064604622,-0.0138146751931,-0.790459653804,-0.130575659349,0.00860997230176,-0.614771084009,0.573727172003,0.819025172115,0.00395555912044,0.0,0.818999913394,-0.573651570584,-0.0119901763132,0.0,-0.00755128890236,0.010118887345,-0.999920289901,0.0,0.460034942047,-0.00364775828005,0.304715552232,1.0,-0.24998,-0.328545142857,2.121
0.113945535522,-0.244518683767,-0.132169208068,-2.39931883621,-0.0260853853406,2.14922732646,-0.17407569936,-0.724107651046,-0.774990719716,-0.023316400402,-0.727465485331,-0.115616873768,0.00663711154994,-0.624582437736,0.573855456132,0.818934429067,0.00413076944157,0.0,0.818912134633,-0.573780151146,-0.0118321935301,0.0,-0.00731977806706,0.0101729018962,-0.999921463374,0.0,0.456101739807,-0.00898086369668,0.304795558293,1.0,-0.24998,-0.328545142857,2.137
0.101127933758,-0.257829513073,-0.132334393316,-2.4126350563,-0.0282250513966,2.14916066486,-0.185596289437,-0.716243549844,-0.737004179403,-0.0106616272485,-0.736676934981,-0.121816077373,-0.00496798493762,-0.654798045593,0.573722838722,0.819027222915,0.00415443789105,0.0,0.819004822284,-0.573646897657,-0.0118779116609,0.0,-0.00734529401361,0.0102173305781,-0.999920823271,0.0,0.451586768035,-0.014808617302,0.304758837884,1.0,-0.24998,-0.328545142857,2.155
0.0886698062291,-0.270270502704,-0.132631581124,-2.42469289533,-0.0302598101788,2.14898087306,-0.19669833642,-0.747011006971,-0.729978129012,-0.0256253417347,-0.692641780546,-0.116433486998,-0.00500365966419,-0.656388093183,0.573805025795,0.818968724074,0.0043322352752,0.0,0.818949458255,-0.573729652181,-0.0116969198447,0.0,-0.00709401626499,0.0102598306584,-0.999922202378,0.0,0.447400806126,-0.0204328074704,0.304835985954,1.0,-0.24998,-0.328545142857,2.172
0.0768044827061,-0.2817438949,-0.132774283339,-2.43593334775,-0.0321765121513,2.14862133835,-0.20735378766,-0.734631278439,-0.708815934416,-0.00804376243787,-0.702439384811,-0.115548385975,-0.0265767617351,-0.673457712748,0.573707124553,0.819037616079,0.00427382574369,0.0,0.819017384105,-0.573631654756,-0.0117471740346,0.0,-0.0071699137265,0.0102399721689,-0.999921864601,0.0,0.443390289771,-0.025631766435,0.30479399136,1.0,-0.24998,-0.328545142857,2.188
0.063922884181,-0.293820533184,-0.133058176448,-2.44750253043,-0.0340432406121,2.14810454317,-0.218996503483,-0.769892250556,-0.714606718572,-0.0200610194773,-0.653916401466,-0.117158436258,-0.0178396317823,-0.685756623543,0.573740272089,0.819013638928,0.00441659754263,0.0,0.818994625347,-0.573663411356,-0.0117830821464,0.0,-0.00711700159796,0.0103777982112,-0.999920821662,0.0,0.439154235642,-0.031213930792,0.304808644615,1.0,-0.24998,-0.328545142857,2.205
0.0507964023644,-0.305715612044,-0.133276037574,-2.45872284526,-0.0360386983008,2.14754842017,-0.230832893676,-0.772758906141,-0.688429581636,-0.0120826925252,-0.671093155826,-0.103496096009,-0.0378385385521,-0.703312630645,0.573707373733,0.819036169674,0.0045109856259,0.0,0.819019234677,-0.573631478303,-0.0116261442373,0.0,-0.00693472280587,0.0103647882263,-0.999922237369,0.0,0.434699193035,-0.0371147491147,0.304855285454,1.0,-0.24998,-0.328545142857,2.223
0.0374456675102,-0.317430681289,-0.133552774049,-2.46981177322,-0.0379841296947,2.14670472709,-0.242892377939,-0.795032204902,-0.684569045523,-0.029913550367,-0.632182562679,-0.121743275009,-0.0484687610204,-0.724415885523,0.57371970642,0.819027881014,0.00444696398288,0.0,0.819009310226,-0.573642819708,-0.011764865535,0.0,-0.00708492033789,0.010392040184,-0.999920901574,0.0,0.430653923049,-0.0423779910667,0.304808678656,1.0,-0.24998,-0.328545142857,2.239
0.0238903492438,-0.328964795892,-0.133753742683,-2.48030520744,-0.0397891242676,2.14594713567,-0.255236865125,-0.789703094053,-0.669511837919,-0.00869108258274,-0.609446544818,-0.1039468668,-0.0498362357012,-0.730532766735,0.573682687001,0.819052366259,0.00470562014717,0.0,0.819038286096,-0.573606729481,-0.0115044645565,0.0,-0.00672371298704,0.0104541964753,-0.999922747746,0.0,0.426504146556,-0.0479201084429,0.304921418325,1.0,-0.24998,-0.328545142857,2.256
0.0100394317895,-0.340219422124,-0.134056501993,-2.49075477044,-0.0416510762501,2.14490426798,-0.267830532192,-0.835311452209,-0.650660552844,-0.0198167259313,-0.604287079592,-0.119219746321,-0.0618158640431,-0.748595985118,0.573725897405,0.819022342268,0.00466309069746,0.0,0.819006712766,-0.573648521532,-0.0116672657294,0.0,-0.00688090869999,0.0105131174944,-0.999921060612,0.0,0.422213660713,-0.0535199238091,0.304867047106,1.0,-0.24998,-0.328545142857,2.273
-0.00233320036628,-0.350013717551,-0.134218819417,-2.49963480915,-0.0432704936946,2.14389285287,-0.279151774748,-0.814487552702,-0.650501507735,-0.00578894239139,-0.580291458558,-0.103115269725,-0.0625179142501,-0.764728147383,0.573647294656,0.819077441013,0.00465551913857,0.0,0.819061566603,-0.573569731668,-0.0116901637657,0.0,-0.00690501750217,0.0105193901482,-0.999920828448,0.0,0.418463758219,-0.0584045381412,0.304876395172,1.0,-0.24998,-0.328545142857,2.288
-0.0174762379352,-0.361538520204,-0.134557938477,-2.50989179187,-0.0452035648342,2.14274545213,-0.293019445196,-0.855524093444,-0.627763995594,-0.0191793486081,-0.56667817462,-0.109683138284,-0.0752628077316,-0.768179318575,0.573682726475,0.819051895974,0.00478204421285,0.0,0.819038496869,-0.573606067455,-0.0115224531365,0.0,-0.0066946064043,0.0105271133146,-0.999922178037,0.0,0.414013115703,-0.0643549061247,0.304935827357,1.0,-0.24998,-0.328545142857,2.306
-0.0319550363861,-0.372172542272,-0.134744030898,-2.51946933256,-0.0469089379717,2.14142135275,-0.306399263231,-0.858664826852,-0.61201146103,-0.0116058838303,-0.55951714249,-0.104380900385,-0.0810943346917,-0.790008079967,0.573548215997,0.819146347696,0.00473834182472,0.0,0.819131123958,-0.573469754979,-0.0117212963738,0.0,-0.00688429393359,0.0106042560537,-0.999920074931,0.0,0.409462358694,-0.0701857635002,0.304875222383,1.0,-0.24998,-0.328545142857,2.324
-0.0459066542084,-0.381972950921,-0.135041641962,-2.52795382448,-0.0485554932567,2.1401773424,-0.319142560966,-0.881646227652,-0.59972801866,-0.0183727907219,-0.520850692036,-0.10322279965,-0.0709941625452,-0.805993899324,0.573699483593,0.819039784341,0.00484572941421,0.0,0.819026691089,-0.573621815737,-0.0115775082238,0.0,-0.00670295278627,0.0106109965119,-0.999921235487,0.0,0.405754681552,-0.0751722973088,0.304950201036,1.0,-0.24998,-0.328545142857,2.339
-0.0607827770329,-0.392085857266,-0.135265813231,-2.53679460248,-0.0502482841768,2.1388540031,-0.333020118881,-0.880312978863,-0.584541328457,-0.0155139293774,-0.519026486887,-0.102206067013,-0.0841614685275,-0.814462770619,0.573546560594,0.819146756117,0.00486638212066,0.0,0.819133980623,-0.573468936272,-0.0115606151088,0.0,-0.00667924998308,0.0106169744014,-0.999921330643,0.0,0.40127487047,-0.0810206174808,0.304941795462,1.0,-0.24998,-0.328545142857,2.357
-0.0769706221919,-0.40249867667,-0.135589878602,-2.54589582496,-0.0520365821722,2.13719737389,-0.347953203897,-0.885747983126,-0.563223393589,-0.0132002591423,-0.50017042494,-0.0891249633081,-0.100125691888,-0.82783915932,0.57362838196,0.819089946694,0.00478388299919,0.0,0.819074923882,-0.573549156214,-0.0117635613463,0.0,-0.0068917554661,0.0106664766273,-0.99991936174,0.0,0.396963919577,-0.0866371447835,0.304886473045,1.0,-0.24998,-0.328545142857,2.374
-0.0914440000764,-0.411546055531,-0.135816874531,-2.55348617326,-0.0534016151372,2.13585470667,-0.361516151329,-0.918986478709,-0.550886252057,-0.021201479545,-0.466217626945,-0.0928105991174,-0.0790955873856,-0.846074480924,0.573593970922,0.81911272981,0.00500392698041,0.0,0.819100954864,-0.573514667009,-0.0116318256401,0.0,-0.00665807912546,0.0107708737984,-0.999919825916,0.0,0.393030056256,-0.0918461818699,0.304958217261,1.0,-0.24998,-0.328545142857,2.39
-0.107167269784,-0.420847503915,-0.136098997278,-2.56129443818,-0.0550621530881,2.13437158345,-0.376183506816,-0.920684791186,-0.543154370909,-0.00611527124756,-0.458328586187,-0.0957359486613,-0.0954925382029,-0.875969609789,0.573571706072,0.819128279681,0.00501062086801,0.0,0.819117396984,-0.573493695346,-0.0115073132457,0.0,-0.00655253238167,0.0107047621131,-0.999921233092,0.0,0.388804455791,-0.0974716143814,0.304992804694,1.0,-0.24998,-0.328545142857,2.407
-0.123081244244,-0.429805775193,-0.136426475341,-2.56895373826,-0.0565684560859,2.13267020279,-0.391029266621,-0.941371386094,-0.524614989324,-0.0224548155787,-0.436348594108,-0.0860569761339,-0.0967927865438,-0.867608995091,0.573661633553,0.819065614438,0.00495946933339,0.0,0.819052184767,-0.573580735917,-0.0118069858406,0.0,-0.00682617146713,0.0108354875942,-0.999917994433,0.0,0.384480350378,-0.103058000939,0.304912809193,1.0,-0.24998,-0.328545142857,2.424
-0.138116948079,-0.437923015239,-0.136624075599,-2.57578731735,-0.0579378886109,2.13122005374,-0.405262765653,-0.944131720797,-0.500484334198,-0.0152075823034,-0.421454244916,-0.07743826142,-0.0902543549194,-0.894735504647,0.573530271312,0.819157599227,0.0049600826433,0.0,0.81914372394,-0.573448676016,-0.0118710743341,0.0,-0.00688006038955,0.0108716503641,-0.999917232568,0.0,0.38049552064,-0.108238449652,0.304877092282,1.0,-0.24998,-0.328545142857,2.44
-0.154573859016,-0.446349759964,-0.136937542089,-2.58246252013,-0.0593478681316,2.12970253644,-0.420644675436,-0.968125413655,-0.488094456171,-0.0162560477525,-0.390685338902,-0.082153750972,-0.0923067137239,-0.907758929658,0.573689981477,0.819044569371,0.00515222645584,0.0,0.819034781452,-0.573610311874,-0.0115751364944,0.0,-0.00652530809366,0.0108606016105,-0.999919730622,0.0,0.376318808928,-0.113915781897,0.305004534923,1.0,-0.24998,-0.328545142857,2.457
-0.171017486704,-0.454369683935,-0.137181114066,-2.58913683629,-0.0606805364104,2.12801955673,-0.436259411144,-0.974459667459,-0.462950305955,-0.0275352384764,-0.386459725809,-0.0839180635073,-0.0916060794208,-0.915184300277,0.573626698594,0.819088958716,0.00514152422451,0.0,0.819077521818,-0.573544584487,-0.011805496983,0.0,-0.00672098825584,0.0109834666456,-0.999917092452,0.0,0.372030218391,-0.119434425492,0.304940468349,1.0,-0.24998,-0.328545142857,2.474
-0.186701263161,-0.46163232493,-0.13743787645,-2.59503532024,-0.0619917906007,2.12649063129,-0.451208395308,-0.977577054862,-0.450290708949,-0.0178250923916,-0.357096581616,-0.0725168658764,-0.0934671681488,-0.934263478522,0.573539218893,0.819150347529,0.0051204918425,0.0,0.819138342406,-0.573456713295,-0.0118541502802,0.0,-0.00677408132129,0.01099342295,-0.999916624761,0.0,0.36802161469,-0.124671090686,0.304929831867,1.0,-0.24998,-0.328545142857,2.49
-0.203721041025,-0.468978037063,-0.137759443405,-2.60097855234,-0.0632663193344,2.12495001501,-0.467287160195,-1.01306423864,-0.429418230641,-0.0137202016835,-0.334844448878,-0.0873178080404,-0.0915664182523,-0.95140562603,0.573679205661,0.819051962756,0.00517669771811,0.0,0.819040332871,-0.573595895979,-0.0118923567227,0.0,-0.00677125591732,0.0110625349684,-0.999915881669,0.0,0.363500646424,-0.130636602621,0.304912477974,1.0,-0.24998,-0.328545142857,2.508
-0.221771839905,-0.476429948603,-0.137983594091,-2.60667931012,-0.0645436692069,2.12335713576,-0.484533930779,-1.00471962663,-0.40952712861,-0.0176547865997,-0.308217373273,-0.0702221922487,-0.0902364801021,-0.967351767885,0.573637346122,0.819080393827,0.00531511837251,0.0,0.819071986268,-0.573555949032,-0.0116362168196,0.0,-0.00648260410312,0.0110286454335,-0.999918169064,0.0,0.359338828447,-0.136201854529,0.305025421658,1.0,-0.249296571429,-0.327646922449,2.525
-0.237955338303,-0.482564346125,-0.138171286285,-2.61158770538,-0.0655833703401,2.12196022194,-0.50003501682,-1.00004951142,-0.377780778255,-0.00442155021937,-0.294942106574,-0.0581621258735,-0.0855853342044,-0.963137749984,0.573615494684,0.819095395282,0.00536139791704,0.0,0.819087046181,-0.573533027962,-0.0117057044317,0.0,-0.00651327521777,0.011106238851,-0.999917110917,0.0,0.355367993251,-0.141399942388,0.305000943879,1.0,-0.24446,-0.321290285714,2.541
-0.255152270271,-0.488575234233,-0.13832873605,-2.61646536547,-0.0665621857089,2.12041395764,-0.51637630193,-1.01262878529,-0.345991664199,-0.00698255662654,-0.27209938043,-0.0700760204535,-0.0931097940495,-0.965947072202,0.57373911785,0.819008683148,0.00538037896549,0.0,0.818998542376,-0.5736531168,-0.0120098323324,0.0,-0.00674981575518,0.0112972506452,-0.999913402308,0.0,0.351160621584,-0.146837234308,0.304920320962,1.0,-0.239321142857,-0.314536359184,2.558
-0.273132100431,-0.49443063276,-0.138333982347,-2.621069075,-0.0675026478701,2.11909215414,-0.53360713371,-1.00022679576,-0.320986630513,-0.00172648858498,-0.24533266933,-0.0393023566256,-0.071999725127,-0.961872188169,0.573694174925,0.819039728506,0.00544643796192,0.0,0.819030683717,-0.573608327163,-0.0119571334365,0.0,-0.00666937356131,0.0113207555687,-0.999913676249,0.0,0.3469012573,-0.152453247508,0.304917821891,1.0,-0.23388,-0.307385142857,2.576
-0.288991555165,-0.499210212488,-0.138318816437,-2.62473234548,-0.0682687420269,2.11790488033,-0.54871185666,-0.975579364027,-0.292485662278,0.00740984342842,-0.221466175847,-0.0436645568376,-0.0742987459845,-0.941940067368,0.573764785382,0.818989932721,0.00549618583373,0.0,0.818981715548,-0.573679044426,-0.0119184934165,0.0,-0.00660820671268,0.0113399058486,-0.99991386536,0.0,0.343185058839,-0.157367095347,0.304942213314,1.0,-0.229043428571,-0.301028506123,2.592
-0.305596866657,-0.503821049055,-0.138319944512,-2.62826382172,-0.068919729144,2.11671942647,-0.564612769523,-0.985779460352,-0.258482014577,-0.00495368925783,-0.202523148089,-0.0415168661631,-0.0672203738008,-0.933724575674,0.573861861734,0.818921007901,0.00562968625414,0.0,0.8189142481,-0.573775112936,-0.0119298338736,0.0,-0.00653954362007,0.0114565275364,-0.999912987387,0.0,0.339319981155,-0.162466586349,0.304956576299,1.0,-0.223904571429,-0.294274579592,2.609
-0.318103349084,-0.507043741075,-0.138261839584,-2.63069095768,-0.0694039030901,2.11595028782,-0.576678793498,-0.952979846694,-0.239023879144,0.00123270898164,-0.180890955625,-0.0260407304356,-0.0553993141719,-0.931732816622,0.573834047601,0.818939997803,0.00570199210723,0.0,0.818934780884,-0.573748100565,-0.0118189956241,0.0,-0.00640766447688,0.0114519222395,-0.999913893949,0.0,0.336456043808,-0.166282861567,0.304988070826,1.0,-0.219974857143,-0.289109812245,2.622
-0.337183176288,-0.51158171784,-0.138192276903,-2.63410845662,-0.0701084580084,2.11475872041,-0.594930129366,-0.939467823514,-0.213627540297,0.0138064475513,-0.168359283459,-0.035580152892,-0.0534237382259,-0.909958995505,0.573963721883,0.818848576567,0.00577940461121,0.0,0.818844642318,-0.573877969338,-0.0117590371996,0.0,-0.00631231942212,0.011481916321,-0.999914156426,0.0,0.332076410857,-0.172063717994,0.30501759091,1.0,-0.213929142857,-0.281164016327,2.642
-0.352940954037,-0.514862400396,-0.138049976235,-2.63675109047,-0.0705481607144,2.11378564703,-0.610249578992,-0.932349769947,-0.190142125011,0.00424729656887,-0.149300234179,-0.0260637966038,-0.0531590590364,-0.903591302695,0.573881130177,0.818906104139,0.00582991690465,0.0,0.818901318356,-0.573792472245,-0.0119823408485,0.0,-0.00646737414598,0.0116507902612,-0.999911212137,0.0,0.328449405507,-0.176747491036,0.304949805807,1.0,-0.208790285714,-0.274410089796,2.659
-0.368587329271,-0.517727305682,-0.137906661961,-2.63905586541,-0.0709827365754,2.11297779754,-0.625272313387,-0.900124449024,-0.159720139983,0.015465697112,-0.121371628073,-0.0199709464095,-0.037657766285,-0.884112481855,0.57397106257,0.818842895774,0.00585476502222,0.0,0.81883754903,-0.573880694876,-0.0121145882498,0.0,-0.00656013420717,0.0117477507119,-0.999909473399,0.0,0.32489660345,-0.181398175618,0.304893345794,1.0,-0.203651428571,-0.267656163265,2.676
-0.382990825301,-0.520127206778,-0.137783954754,-2.64090502645,-0.0712930179914,2.11231365883,-0.639153079169,-0.899945179902,-0.139915633628,0.004774603255,-0.110874459651,-0.0303797794309,-0.0361456602635,-0.857330516184,0.57407184514,0.818771563352,0.00594899700776,0.0,0.818767223736,-0.573980652763,-0.0121322087955,0.0,-0.00651902388803,0.0118358311294,-0.999908703547,0.0,0.321659564551,-0.185669206815,0.304882408478,1.0,-0.198814857143,-0.261299526531,2.692
-0.398740542426,-0.522463323757,-0.137541046725,-2.64270382554,-0.071594356034,2.11161554842,-0.654533662316,-0.854042527792,-0.124733571515,0.00431145021728,-0.0963325963525,-0.0107290508646,-0.0355568673834,-0.849274684718,0.573968352555,0.818843760693,0.00599772795462,0.0,0.818839711418,-0.573876339921,-0.0121745794366,0.0,-0.00652724991404,0.0118992302268,-0.999907897423,0.0,0.318137271196,-0.190286721749,0.304869439185,1.0,-0.193373714286,-0.254148310204,2.71
-0.413514014802,-0.524434022516,-0.137398740005,-2.64412160759,-0.0718605286124,2.1110127454,-0.668733853104,-0.855616788689,-0.104884683444,0.00861532825168,-0.0788602790475,-0.0101599686174,-0.0256583375638,-0.832326415931,0.57413988784,0.818722877529,0.00608160374067,0.0,0.81872017912,-0.574047941095,-0.0121233875755,0.0,-0.00643468654295,0.0119398819664,-0.999908012783,0.0,0.314840199515,-0.194636843588,0.304899708033,1.0,-0.188234857143,-0.247394383674,2.727
-0.426070251059,-0.525842805726,-0.137157580889,-2.6451402558,-0.0720167348725,2.11061091394,-0.681030636047,-0.829608716072,-0.085081193381,0.0152848404965,-0.0637569723406,-0.00808618690814,-0.0213604520396,-0.822133843305,0.574055161125,0.818781929035,0.00612956546053,0.0,0.818780326532,-0.573963904045,-0.0120399601057,0.0,-0.00634007450509,0.0119305985487,-0.999908727971,0.0,0.312081261325,-0.198297702725,0.304924451118,1.0,-0.183700571429,-0.241435036735,2.742
-0.440189810038,-0.52719483171,-0.136968047738,-2.64614056605,-0.0721977698874,2.11018042931,-0.694662952845,-0.808470572353,-0.0741735344062,0.0236796511742,-0.0596208755868,-0.0162888798691,-0.0229392731502,-0.79376056543,0.57418423381,0.818691004316,0.00618481987638,0.0,0.818690218539,-0.574092896646,-0.0120174452216,0.0,-0.0062880342039,0.0119639094555,-0.999908658577,0.0,0.308951906989,-0.202419703524,0.304932374013,1.0,-0.178561714286,-0.234681110204,2.759
-0.454498155356,-0.528302270771,-0.136636445525,-2.64698628223,-0.0722893817062,2.10981044857,-0.708706914253,-0.798432809918,-0.0566088549748,0.019245044765,-0.036277204597,-0.00196311222239,-0.0234433267332,-0.779113334104,0.574078068947,0.818765166559,0.00622251428471,0.0,0.818764835035,-0.57398652305,-0.0120151224718,0.0,-0.0062660450537,0.0119926250838,-0.999908452621,0.0,0.305806708082,-0.206541046002,0.304929609583,1.0,-0.173120571429,-0.227529893878,2.777
-0.467141690871,-0.52904134676,-0.13641655549,-2.64754278756,-0.0723762763914,2.10952790028,-0.720909231659,-0.778130058391,-0.0455012850514,0.0233289280514,-0.0308944459408,-0.000290124930526,-0.0171219923583,-0.760769108163,0.574214554482,0.818669177521,0.00625860210529,0.0,0.818669246578,-0.574122690319,-0.0120228145028,0.0,-0.0062496225068,0.0120276317127,-0.999908134927,0.0,0.303021764428,-0.210204571967,0.304928043793,1.0,-0.168284,-0.221173257143,2.793
-0.479944753831,-0.529541158837,-0.136075092265,-2.6479573648,-0.0723979055483,2.10931063458,-0.733549143187,-0.748941843142,-0.0209207129028,0.0175478032922,-0.0213471600042,-0.0031970769224,-0.0132494064739,-0.739672313601,0.574074121519,0.818767576875,0.00626936693098,0.0,0.818767563761,-0.573981813002,-0.012054118632,0.0,-0.00627113964513,0.012053343917,-0.999907690593,0.0,0.300228617707,-0.213876541361,0.304912284936,1.0,-0.163145142857,-0.214419330612,2.81
-0.492617255436,-0.529868995147,-0.13583830205,-2.6482246294,-0.0724145214085,2.10910151384,-0.745820323492,-0.728398968282,-0.0178652082326,0.0173299948858,-0.00761901152478,-0.000445133398308,-0.0105854734165,-0.716979738491,0.574213191834,0.818669706939,0.00631412431867,0.0,0.81866989016,-0.574119908327,-0.0121115114058,0.0,-0.00629038412755,0.0121240065094,-0.999906715416,0.0,0.297436716013,-0.217529055365,0.304898655366,1.0,-0.158006285714,-0.207665404082,2.827
-0.503951691025,-0.530006266992,-0.135495022472,-2.64835513509,-0.072409198053,2.10899370467,-0.757063057663,-0.705133812748,-0.00887666776655,0.0174390145983,-0.00677929511663,-6.86364399801e-06,-0.0159802030872,-0.693724063939,0.574041134558,0.818790508934,0.00629485627485,0.0,0.818790368219,-0.573947836291,-0.0121227484537,0.0,-0.00631319378595,0.0121133571832,-0.999906700729,0.0,0.294965979349,-0.220762549377,0.304889049262,1.0,-0.153169714286,-0.201308767347,2.843
-0.515945836839,-0.530041535024,-0.135251326869,-2.64840555305,-0.0724192070114,2.10890132963,-0.768664560778,-0.70011574165,-0.00131844375889,0.0113643696311,-0.000207477987077,-0.00140789435682,-0.00951220172535,-0.675544765651,0.574183818218,0.818690365184,0.00630680201786,0.0,0.818690248246,-0.574090180827,-0.0121444886816,0.0,-0.00632202448143,0.0121367198606,-0.999906361635,0.0,0.292313380027,-0.224205156016,0.30487735878,1.0,-0.148030857143,-0.194554840816,2.86
-0.527908133276,-0.529927184853,-0.134848410584,-2.64833152046,-0.0724013950114,2.10887970093,-0.780528666281,-0.660825008617,0.00656683526221,0.0205859389564,0.0107036543042,-0.000309849237389,0.000849998823539,-0.658145972656,0.573992165088,0.818825177835,0.00625055696348,0.0,0.818824553089,-0.573899256435,-0.01211369567,0.0,-0.00633193092686,0.0120715083309,-0.999907088352,0.0,0.289700494674,-0.227600860618,0.30487778953,1.0,-0.142589714286,-0.18740362449,2.878
-0.538393423887,-0.529736501763,-0.134596762469,-2.64818942314,-0.0723810644846,2.10887373519,-0.79069247918,-0.649866192933,0.015466954765,0.0116886138257,0.0121643035521,0.00305784741059,-0.00121801581187,-0.626212759772,0.574094861342,0.818753230201,0.00624380638779,0.0,0.818752655699,-0.574002224273,-0.0120947185261,0.0,-0.0063187527627,0.01205588093,-0.999907360258,0.0,0.287378253234,-0.230593936861,0.304878744425,1.0,-0.137753142857,-0.181046987755,2.894
-0.549014746223,-0.529377657629,-0.134217061362,-2.64792393902,-0.0723282100524,2.10889265694,-0.801141845449,-0.604719700805,0.0233550813289,0.0271151065296,0.0158109591191,0.0112199158923,-0.00113911827085,-0.601421912765,0.57400575939,0.81881613428,0.00618654440026,0.0,0.818814884169,-0.573913529601,-0.0120910258419,0.0,-0.00634990776195,0.0120061842629,-0.999907760851,0.0,0.285051886568,-0.23359823748,0.304879798391,1.0,-0.132614285714,-0.174293061225,2.911
-0.559225038456,-0.528862489564,-0.133860800977,-2.64757104583,-0.0722783986701,2.10895290675,-0.811229840542,-0.602265121063,0.032611733147,0.0152140431186,0.0179140446824,0.00602348651957,0.000689074358911,-0.582775461708,0.573896330766,0.81889333326,0.00612022677654,0.0,0.818891087417,-0.573804170543,-0.0121205493989,0.0,-0.00641374893371,0.0119679684077,-0.999907811529,0.0,0.282811489362,-0.236492261376,0.304866360661,1.0,-0.127475428571,-0.167539134694,2.928
-0.568683555602,-0.528314059791,-0.133610607668,-2.6471514225,-0.0721955788342,2.1090294546,-0.820370662756,-0.578213959476,0.0373202227129,0.0143419192243,0.0315501635426,0.00533766900987,0.0021030916852,-0.558963349217,0.574039148916,0.818793236888,0.00611863048012,0.0,0.818791053414,-0.573947120647,-0.012110344812,0.0,-0.00640422138322,0.0119619222293,-0.999907944945,0.0,0.280721614994,-0.23919226795,0.304869720137,1.0,-0.122638857143,-0.161182497959,2.944
-0.578575982111,-0.52751993898,-0.133186868256,-2.6465929666,-0.0720047834924,2.1091683426,-0.830269288776,-0.539692495734,0.0412377125719,0.0197220777697,0.0316732037395,0.0129698376132,0.00382836805296,-0.537517287401,0.573848259108,0.818927103906,0.00610908400653,0.0,0.818924625716,-0.573755996252,-0.0121351169175,0.0,-0.00643277642337,0.0119668254492,-0.999907702979,0.0,0.278583409234,-0.241981311208,0.3048560602,1.0,-0.117197714286,-0.154031281633,2.962
-0.58828584999,-0.526685462225,-0.132863426819,-2.6459577364,-0.0718170876832,2.1093036646,-0.839722440812,-0.531553413133,0.0480904136443,0.0199722678237,0.0356217488317,0.0123017072686,0.0147294861384,-0.504181691764,0.573945946219,0.818858443655,0.0061357130536,0.0,0.818856309527,-0.573853538288,-0.0121329239465,0.0,-0.0064142700687,0.0119881406711,-0.999907566539,0.0,0.276458646737,-0.244741571621,0.304859458047,1.0,-0.111756571429,-0.146880065306,2.98
-0.596024702784,-0.525885850864,-0.132594460583,-2.64534644872,-0.0716434022463,2.10945008749,-0.847279324067,-0.50492757146,0.0540674221434,0.0238692465531,0.0406735247704,0.0100940440684,0.0165893105968,-0.492992664367,0.574013339887,0.818811036307,0.00615786937012,0.0,0.81880924597,-0.573920921846,-0.0121219256896,0.0,-0.00639155952776,0.0120004984735,-0.999907563729,0.0,0.274778473573,-0.246951974866,0.304864064738,1.0,-0.107222285714,-0.140920718367,2.995
-0.604140510121,-0.524908748806,-0.132167543124,-2.64464559018,-0.0714107229589,2.10961513546,-0.855445116973,-0.478863682622,0.0574108792685,0.0244043391487,0.040911297697,0.0113843310307,0.0159331399808,-0.472201209445,0.573809395715,0.818954053809,0.00614670973213,0.0,0.818951774415,-0.573716428591,-0.0121736456428,0.0,-0.00644331214742,0.0120194425034,-0.999907004041,0.0,0.273044947286,-0.249234015894,0.304849740095,1.0,-0.102083428571,-0.134166791837,3.012
-0.6112266576,-0.524098184358,-0.131857634288,-2.64404597485,-0.0712295171164,2.10975958984,-0.862300775027,-0.460596177954,0.0525805883032,0.0184058215384,0.0432918929155,0.01171213752,0.0107346252656,-0.442924637836,0.573889818926,0.818897678942,0.00614931360079,0.0,0.818895321767,-0.573796614305,-0.01219197693,0.0,-0.0064556505765,0.0120327272397,-0.999906764679,0.0,0.271499118544,-0.251230611727,0.30484540593,1.0,-0.0975491428572,-0.128207444898,3.027
-0.618888794785,-0.523120533023,-0.131541224564,-2.64327023228,-0.070982653847,2.10993555223,-0.869733192516,-0.449787171671,0.0617240669654,0.0171423230389,0.0514473969932,0.0127636803622,0.00812734954954,-0.432498042629,0.574002231047,0.818818584486,0.00618961669662,0.0,0.818816905292,-0.573909103638,-0.0121640153521,0.0,-0.00640796783527,0.0120505667498,-0.999906856557,0.0,0.269842664286,-0.253410691948,0.304862480084,1.0,-0.0924102857144,-0.121453518367,3.044
-0.626342081603,-0.52203050338,-0.131121692037,-2.6424526501,-0.0706934666028,2.11014541348,-0.87717513343,-0.401076875688,0.0618623783441,0.0243125101774,0.0366346629973,0.01666763124,0.0116663374938,-0.395311555843,0.573869527361,0.818911462729,0.00620714735225,0.0,0.818909962904,-0.573776256064,-0.0121666567217,0.0,-0.00640202414269,0.0120654006468,-0.999906715746,0.0,0.268179552384,-0.25562123019,0.304864183674,1.0,-0.0866668571429,-0.113905012245,3.063
-0.633099781189,-0.521079323017,-0.130749319202,-2.64172020777,-0.0704559743678,2.110336573,-0.883838840192,-0.402333335042,0.0601511126877,0.0230043386126,0.0441695154118,0.00391901020988,0.0144120421116,-0.377794973722,0.573837955712,0.81893357928,0.00620807641243,0.0,0.818932190203,-0.573744873026,-0.0121505319716,0.0,-0.00638874962792,0.0120566621689,-0.999906906055,0.0,0.26680751408,-0.257407992092,0.304871585053,1.0,-0.0818302857144,-0.10754837551,3.079
-0.63951651184,-0.520125046153,-0.130397477692,-2.64094745473,-0.0702043348802,2.11054171106,-0.890034493283,-0.363316960777,0.0560635188753,0.0202063619488,0.0455864630843,0.00953928858805,0.0137316722852,-0.358448840018,0.573919058579,0.818876667803,0.00621804058064,0.0,0.818875846661,-0.573826743538,-0.0120815171733,0.0,-0.00632531632923,0.0120258477422,-0.999907680418,0.0,0.265437824705,-0.259222422747,0.304898257773,1.0,-0.0766914285715,-0.10079444898,3.096
-0.645522881776,-0.519131237274,-0.130114578823,-2.64020072755,-0.0699353361602,2.11073713779,-0.895891648868,-0.342507636522,0.0624983722703,0.0183395040076,0.0382549303766,0.0190937752426,0.0108833806098,-0.330914241662,0.57399625067,0.818822096948,0.00627890663386,0.0,0.81882198345,-0.573903485226,-0.0120870164395,0.0,-0.00629375092049,0.0120794414686,-0.999907233594,0.0,0.264141293448,-0.260925833859,0.304895736164,1.0,-0.0715525714286,-0.0940405224491,3.113
-0.650717526102,-0.518255895721,-0.129754720344,-2.63954915037,-0.0696773817942,2.11091185437,-0.90104689813,-0.313502084264,0.0474320149303,0.026406132421,0.0406179295055,0.0205030699536,0.0133885740521,-0.314361401729,0.573918837442,0.818876222322,0.00629662176708,0.0,0.818876262417,-0.573825861026,-0.0120952457513,0.0,-0.00629146587206,0.0120980764041,-0.99990702268,0.0,0.263040773844,-0.262368320589,0.304893403226,1.0,-0.0667160000001,-0.0876838857144,3.129
-0.655898082986,-0.517364910705,-0.129343337006,-2.63890020754,-0.0694312569141,2.11108697816,-0.906101855402,-0.300106787963,0.0501386006888,0.0239610654786,0.0358721664193,0.0183477207463,0.0085244211462,-0.297008851746,0.573870099857,0.81891051052,0.00627942291975,0.0,0.818910153247,-0.573776879599,-0.0121243658335,0.0,-0.00632590471912,0.0121003271859,-0.999906778161,0.0,0.261945731482,-0.263791663854,0.304885123867,1.0,-0.0615771428572,-0.0809299591838,3.146
-0.660230530005,-0.516603960224,-0.129040629949,-2.63832048913,-0.069209480251,2.11125349269,-0.910317359576,-0.277016351734,0.0506644456101,0.0152277618941,0.0426338664774,0.0170200553949,0.0194280485133,-0.274144337411,0.573876848517,0.818905685838,0.00629184715283,0.0,0.818905595996,-0.573783772689,-0.0121059466945,0.0,-0.00630359014766,0.0120999843421,-0.999906923233,0.0,0.261027637097,-0.264998061775,0.304889672003,1.0,-0.0570428571429,-0.074970612245,3.161
-0.664675582164,-0.515727757562,-0.128700040648,-2.63769175409,-0.0689512310689,2.11143919574,-0.91460509436,-0.253197965449,0.0483051040083,0.017038936363,0.0383411875411,0.0112169297096,0.00693674933546,-0.245516343876,0.573908007251,0.818883685306,0.006313165218,0.0,0.8188836926,-0.573814480542,-0.0121320573685,0.0,-0.00631227975903,0.0121326665053,-0.99990647239,0.0,0.260097408876,-0.266232360812,0.304876336787,1.0,-0.0519040000001,-0.0682166857144,3.178
-0.669310693161,-0.514885077481,-0.128357934677,-2.63707899849,-0.0686982107821,2.11161507513,-0.918973926277,-0.235446914877,0.0436329142718,0.0194167954328,0.0233137637686,0.0102088719516,0.00452344825742,-0.215963469422,0.574023943909,0.818802265665,0.00633312421411,0.0,0.818802413615,-0.573930069835,-0.012150279771,0.0,-0.00631402774709,0.0121603630307,-0.999906124906,0.0,0.259106207631,-0.26750787902,0.304867050664,1.0,-0.0461605714286,-0.0606681795919,3.197
-0.672825800416,-0.514251081132,-0.1280069526,-2.6365927998,-0.068476559715,2.11175561877,-0.922373765243,-0.211912945741,0.0386986070958,0.0216906055577,0.0289943413725,0.0172509780734,0.00506154274189,-0.204210196438,0.573989361814,0.818826571776,0.00632493314816,0.0,0.818826746318,-0.573895789978,-0.0121296603913,0.0,-0.00630235706926,0.0121415542199,-0.9999064271,0.0,0.258379831539,-0.268456992212,0.30487431212,1.0,-0.0413240000001,-0.0543115428572,3.213
-0.676052456568,-0.513600371465,-0.127599935449,-2.63609491546,-0.0682385986908,2.11192074391,-0.925479690251,-0.184072032827,0.039087945196,0.0228067174329,0.0269831980503,0.00823333847245,0.0109138268495,-0.170591417768,0.573926798076,0.818870652975,0.0062953195193,0.0,0.818870699756,-0.573833871268,-0.0120918223445,0.0,-0.00628929197662,0.0120951064493,-0.999907072285,0.0,0.257748003589,-0.269322580927,0.304883998919,1.0,-0.0361851428572,-0.0475576163266,3.23
-0.679125129057,-0.513010729309,-0.12719134813,-2.63564647448,-0.067990007173,2.11203943359,-0.92839693708,-0.166496789538,0.030564951725,0.0199806988137,0.0231590743372,0.0165403471971,0.00874873751895,-0.155933918685,0.57389330461,0.818894220624,0.00628309267185,0.0,0.818894140865,-0.573800502907,-0.0120878378079,0.0,-0.00629353995597,0.0120825495872,-0.999907197369,0.0,0.257139596779,-0.270127007103,0.304889726013,1.0,-0.0307440000001,-0.0404064000001,3.248
-0.681377954585,-0.512575897039,-0.126895816014,-2.63532261531,-0.0677994924639,2.11214649499,-0.930502030338,-0.143746771612,0.0272131185156,0.0203810896304,0.0252637581709,0.0153539073404,0.00293027709313,-0.1211633476,0.573902458547,0.818887820966,0.00628105473635,0.0,0.818887819581,-0.573809865489,-0.0120716241903,0.0,-0.0062812957897,0.0120716464358,-0.999907406051,0.0,0.256693789982,-0.270717543995,0.304892279394,1.0,-0.0262097142858,-0.0344470530613,3.263
-0.683603653958,-0.512127672294,-0.126580822348,-2.63500158969,-0.0675700476541,2.11221817894,-0.932550892734,-0.123114118055,0.0263885424948,0.0148746163554,0.0208736371754,0.00934744715351,0.00180055994344,-0.119774505089,0.573938102877,0.818862628916,0.00630840169774,0.0,0.818862765797,-0.573844959975,-0.0121028758586,0.0,-0.00629066933819,0.01211225007,-0.999906856101,0.0,0.256255760987,-0.271286303146,0.304885979673,1.0,-0.0210708571429,-0.0276931265307,3.28
-0.68559291867,-0.51176422108,-0.126293069344,-2.6347210828,-0.0673565691626,2.11231629852,-0.934279846157,-0.100803325654,0.0188291073318,0.0132032609635,0.014449244778,0.018837197246,0.00426506936955,-0.0990765932821,0.574052267714,0.818782437907,0.00632931344706,0.0,0.818783071221,-0.573959438494,-0.0120661571091,0.0,-0.0062469086142,0.0121091726931,-0.999907167726,0.0,0.255870058498,-0.271795834949,0.304894173179,1.0,-0.019692173913,-0.0258811428571,3.298
-0.687118286904,-0.511486247249,-0.126076742694,-2.6345023489,-0.0672066483805,2.11235068097,-0.935751769928,-0.0934552348099,0.0140465198407,0.012909535054,0.0121903055642,0.00974248361347,-0.000387082299747,-0.0875231237463,0.574017472346,0.818806725621,0.00634306081672,0.0,0.818807468123,-0.573924453537,-0.0120747123633,0.0,-0.00624653824527,0.0121250748829,-0.999906977333,0.0,0.25556595515,-0.272183443812,0.304898740359,1.0,-0.019372173913,-0.0254605714286,3.314
-0.688516450788,-0.511198213272,-0.125915359941,-2.63427285729,-0.0671300356081,2.11240285298,-0.937119528415,-0.0863696605451,0.012655411965,0.00889217914121,0.0107741248186,0.00581247863561,-0.000381110768829,-0.0805546239013,0.573971189185,0.818839417652,0.00631102096918,0.0,0.818839787504,-0.573878410735,-0.0120714123064,0.0,-0.00626291011977,0.0120965908429,-0.999907219919,0.0,0.255264772011,-0.272586557905,0.304906399802,1.0,-0.019032173913,-0.0250137142857,3.331
-0.689863823863,-0.510895119323,-0.125776832835,-2.634039753,-0.0670783291961,2.11250097558,-0.938524691245,-0.0863330828018,0.0186445043504,0.0116427551216,0.0162630085568,0.00282427594867,0.005916458712,-0.0899878453746,0.573860274766,0.818917429112,0.00627504928473,0.0,0.818917552084,-0.573768107003,-0.0120394840858,0.0,-0.0062590407119,0.0120479616056,-0.999907831268,0.0,0.255010103444,-0.272942653821,0.304909871337,1.0,-0.018732173913,-0.0246194285714,3.346
-0.691597273145,-0.510529578447,-0.125706483188,-2.63375721591,-0.0670100086257,2.11253609976,-0.940264944099,-0.0798332992186,0.014446483018,0.000851903059194,0.0135222422359,0.004579617881,0.00510810175257,-0.0805244857424,0.573848478036,0.818925582907,0.0062897390845,0.0,0.818925657594,-0.573755786788,-0.0120752375559,0.0,-0.00628006766782,0.0120804179947,-0.99990730783,0.0,0.254618506846,-0.273436653629,0.304907441867,1.0,-0.018312173913,-0.0240674285714,3.367
-0.692822618581,-0.510265202189,-0.125687321183,-2.63355948411,-0.0669602146505,2.11261357265,-0.941493734649,-0.0820105952716,0.0208016945587,-0.00036327096545,0.0127211318531,0.00660683358775,0.0109981030926,-0.0835158222764,0.573863552885,0.818914870841,0.00630903211452,0.0,0.818915307135,-0.573770985207,-0.0120550062169,0.0,-0.00625220466133,0.0120847243378,-0.999907430403,0.0,0.254341678557,-0.273798944615,0.304906349647,1.0,-0.018012173913,-0.0236731428571,3.382
-0.694084795519,-0.509983748869,-0.125676200519,-2.633343681,-0.0669377255649,2.11268871756,-0.942759029751,-0.0802671162858,0.0170599981805,-0.00022685793432,0.00906305352878,0.000655061652034,0.00259348047374,-0.0786352689399,0.573873855514,0.818907658788,0.006308029623,0.0,0.81890818175,-0.573781482893,-0.0120393792528,0.0,-0.00623982942197,0.0120750145402,-0.99990762501,0.0,0.254053068028,-0.274178845065,0.304906707776,1.0,-0.017692173913,-0.0232525714286,3.398
-0.69540267718,-0.509679508037,-0.125671319127,-2.63310544535,-0.0668826932353,2.11271511597,-0.944046223975,-0.0801098761061,0.0147921633584,0.000427491599393,0.0131700715861,-0.00123352143883,3.28714301154e-05,-0.0758800497008,0.573931382109,0.818867072804,0.00634291796967,0.0,0.818867846049,-0.573838446136,-0.0120679470084,0.0,-0.00624235443448,0.0121204184368,-0.999907059915,0.0,0.253747244955,-0.274569149734,0.304904494064,1.0,-0.017352173913,-0.0228057142857,3.415
-0.697009362434,-0.509314061263,-0.125649002595,-2.63283536305,-0.0668441927053,2.11278785745,-0.945707841732,-0.0739054362005,0.0175390399951,0.00303360178705,0.0128452931158,-7.55832905281e-05,0.00714381851702,-0.0767325447876,0.573900996467,0.818888300474,0.0063517321763,0.0,0.818889095363,-0.573807846562,-0.0120810438297,0.0,-0.00624847199008,0.0121349209429,-0.999906845807,0.0,0.253376534597,-0.275044500944,0.304898366747,1.0,-0.016932173913,-0.0222537142857,3.436
-0.69791401944,-0.509103316372,-0.125626028053,-2.63267359326,-0.0668172723898,2.11284985847,-0.946600285399,-0.0739593348686,0.0196504371705,0.000476070618213,0.0109775259118,0.00224796079052,0.00396872579418,-0.0818771764241,0.573912644318,0.818880183657,0.00634573930574,0.0,0.818881076974,-0.573819861748,-0.0120538349718,0.0,-0.00622945528071,0.0121144873812,-0.999907212236,0.0,0.253160956622,-0.275338827408,0.304903077686,1.0,-0.016672173913,-0.021912,3.449
-0.69922964475,-0.508776869593,-0.12559099958,-2.63242855553,-0.0667773854698,2.11289817127,-0.94791171952,-0.0706629669878,0.0203142854706,0.000576720833065,0.0131822510633,0.00409949354941,0.00221109209354,-0.0736561293014,0.573922705803,0.818873054023,0.00635578943284,0.0,0.818873853499,-0.573829439012,-0.0120885847493,0.0,-0.00625199759807,0.0121427368388,-0.999906728884,0.0,0.252878501142,-0.275703439921,0.304894621355,1.0,-0.016332173913,-0.0214651428571,3.466
-0.700516536584,-0.508474213151,-0.125557669293,-2.63220275253,-0.0667380028053,2.1129542503,-0.949228202939,-0.0659721121416,0.0137703932056,0.00357165457713,0.00842747676336,0.00626393463298,0.00208854747642,-0.063682795089,0.573903252848,0.818886640767,0.00636182710421,0.0,0.818887430737,-0.573809791656,-0.0121014743553,0.0,-0.00625937751035,0.012154929769,-0.99990653457,0.0,0.252585914346,-0.276081279109,0.304890429433,1.0,-0.015972173913,-0.020992,3.484
-0.701475393733,-0.508231552831,-0.125541643636,-2.63202478733,-0.0667087727261,2.11298522889,-0.950158040024,-0.0684892472751,0.0188272397736,0.000899567344399,0.0124175634066,0.00259191497788,-3.17688205092e-05,-0.0613981330231,0.573937342065,0.818862675151,0.00637130517871,0.0,0.818863410134,-0.573843483322,-0.0121292660047,0.0,-0.00627619208733,0.0121789018592,-0.999906137476,0.0,0.252365607554,-0.276365167438,0.304884206692,1.0,-0.015692173913,-0.020624,3.498
-0.702755432081,-0.507909791866,-0.125502966423,-2.63178443363,-0.0666774434156,2.11308215504,-0.951505653936,-0.0662467512325,0.016755677093,0.00123773786144,0.013659318366,0.00258862264254,0.00582914078073,-0.0707938819774,0.57388021625,0.818902794773,0.00636058260646,0.0,0.81890352724,-0.573786685685,-0.0121078199955,0.0,-0.00626563065293,0.0121573759562,-0.999906465667,0.0,0.25208333942,-0.276750042248,0.304883081024,1.0,-0.015312173913,-0.0201245714286,3.517
-0.703826174454,-0.507648567954,-0.12546915247,-2.63157055661,-0.0666368716049,2.11312492341,-0.952578283815,-0.0643151142423,0.0115104355176,0.00367380983659,0.00978257453882,0.00417451274539,0.000911661314614,-0.0593184913553,0.573882851417,0.818900911172,0.00636533045399,0.0,0.818901715118,-0.57378931722,-0.0121056731488,0.0,-0.00626110870261,0.0121600523697,-0.999906461447,0.0,0.251845678558,-0.277067986935,0.304887655581,1.0,-0.014992173913,-0.019704,3.533
-0.704944363353,-0.507371772359,-0.125449424998,-2.63136968162,-0.0666088489676,2.11315618483,-0.953687090419,-0.0640342552914,0.0194957050705,-0.000211822370691,0.0114167378726,0.00439253411427,0.00478971293285,-0.0632852799492,0.573898885084,0.818889616263,0.00637283111348,0.0,0.818890273046,-0.573804837557,-0.0121439700078,0.0,-0.00628793067989,0.012188294921,-0.999905949275,0.0,0.251585124722,-0.277396328458,0.30487920495,1.0,-0.014652173913,-0.0192571428572,3.55
-0.705898152842,-0.507124976141,-0.125439407568,-2.6312004236,-0.0665840903972,2.11320967452,-0.954681489503,-0.0610563919963,0.0187079434452,0.000613827772845,0.0112210506586,0.000782315807651,5.8828849951e-05,-0.0725761338145,0.573877903153,0.818904258328,0.00638082016684,0.0,0.81890489581,-0.573783583747,-0.0121621356026,0.0,-0.00629853603913,0.0122051007374,-0.999905677532,0.0,0.251364387208,-0.277680794897,0.304869187408,1.0,-0.014352173913,-0.0188628571429,3.565
-0.706957078057,-0.50687804007,-0.12542947894,-2.63098860147,-0.0665529812796,2.11326041631,-0.955747745322,-0.0612409056508,0.00967182398779,-0.000243517071955,0.0167804149196,0.00214289844143,0.000179409751693,-0.0591161956967,0.573888885438,0.818896514582,0.00638689888476,0.0,0.818897365487,-0.573794795582,-0.0121401920529,0.0,-0.00627691246854,0.0121975707977,-0.999905905391,0.0,0.251123454953,-0.278001978537,0.304878188275,1.0,-0.014012173913,-0.018416,3.582
