nelsonifechukwu/NELSON_IML_WORK/CNN-GradCAM/train2dof/data_sample_2022-07-06-11-15-46/robot_state.csv
position_joint1,position_joint2,position_joint3,position_joint4,position_joint5,position_joint6,position_joint7,velocity_joint1,velocity_joint2,velocity_joint3,velocity_joint4,velocity_joint5,velocity_joint6,velocity_joint7,ee_T_00,ee_T_10,ee_T_20,ee_T_30,ee_T_01,ee_T_11,ee_T_21,ee_T_31,ee_T_02,ee_T_12,ee_T_22,ee_T_32,ee_T_03,ee_T_13,ee_T_23,ee_T_33,v_x,v_y,w_z,time
0.46510315853691675,0.5472570669860171,-0.12398538996824805,-1.3555596711138305,0.07946864564503349,1.8941848072539837,0.15913815103629206,0.0004612164413664138,-0.0024560706816829595,-0.0007043937525549001,-0.0007806610101981749,-0.00011879060084378153,-0.00041655306998627465,-0.0015315868799812208,0.5737383680990922,0.8190224880988826,0.0026825101145420364,0.0,0.818989509967682,-0.57367782475176,-0.011431660080379432,0.0,-0.007824040751777506,0.008755898221546043,-0.9999310569397513,0.0,0.6617637313899217,0.2609518735439977,0.30372297980826624,1.0,5e-324,6.92322346760325e-310,6.92279906844515e-310,0.0
0.46510034851244375,0.5472651407593175,-0.12398214803259065,-1.3555575165284137,0.0794707771586831,1.8941870936193381,0.15914297940683433,-0.0009356485886741751,2.0010923852563108e-05,0.0007733789089446308,-0.0004848720782848057,9.701762972130496e-05,7.8411821816477e-05,-0.001121432547662389,0.5737428374615066,0.8190193623210102,0.0026809524638754766,0.0,0.818986336331861,-0.5736822674696447,-0.011436074230749747,0.0,-0.007828502058393527,0.008757197718032822,-0.9999310106420587,0.0,0.6617643387702921,0.2609525412314331,0.3037183811206002,1.0,-0.0001,-0.00013142857142857146,-5e-05,0.006
0.4650981762132293,0.5472693717416899,-0.12398537571252775,-1.355555054660844,0.07946710756506012,1.894185455171335,0.1591445984245572,-3.48852062869602e-05,0.0017805831720313302,-0.0003323169792596996,0.0027689029604220706,0.00017707106916556021,-9.668549119696643e-05,-0.00047558130669455526,0.5737470907992641,0.8190164019197651,0.002675086352092704,0.0,0.8189833461546216,-0.5736865903372056,-0.011433358642966494,0.0,-0.007829597833451551,0.00875087591283455,-0.9999310574077217,0.0,0.6617659792642238,0.2609487662298387,0.30371651303183383,1.0,-0.00042000000000000023,-0.0005520000000000004,-0.00021000000000000012,0.022000000000000013
0.46509713091677884,0.5472528054673437,-0.12398758034809675,-1.3555695924593834,0.07946679454053955,1.8941843538092682,0.1591481227361167,-0.0026196162697930164,-0.0023731442180875374,-0.0005070315708134156,-0.0003648272896802428,0.00042126883695424585,-0.00038423718505465135,0.0007499015977413536,0.573753046920011,0.819012226291042,0.0026760487669714806,0.0,0.8189791814247713,-0.5736925409588483,-0.011433098538889339,0.0,-0.007828768998949909,0.00875157184592891,-0.9999310578065804,0.0,0.6617636597969392,0.2609451637290707,0.30372130448546836,1.0,-0.0007600000000000006,-0.0009988571428571438,-0.0003800000000000003,0.03900000000000003
0.46509140694462725,0.5471869400639111,-0.12398855181518578,-1.3556324004728624,0.07946674140652826,1.8941915443295785,0.1591390690908074,-0.0018807099103774405,-0.009481669690114868,-2.216146003310045e-06,-0.007209753751649559,0.00020086584920142218,-0.0002209236254472217,-0.0005804071323538795,0.5737543401287301,0.8190112812949865,0.0026879725070305593,0.0,0.818978345365981,-0.5736937457693486,-0.011432532000499065,0.0,-0.007821450253245765,0.008761024807020179,-0.9999310323018616,0.0,0.6617541504628142,0.26093469974539524,0.30373872101344923,1.0,-0.001100000000000001,-0.0014457142857142872,-0.0005500000000000005,0.05600000000000004
0.4650927977540239,0.5470506173067433,-0.12398354148028187,-1.3557946857398804,0.07946259673396511,1.8942282804375137,0.15914532144071045,-0.0005325704769428487,-0.007538064674038953,0.0008346555844365815,-0.010561801218861546,9.36732093356032e-05,0.0006666176728322769,-0.0010055307979392276,0.5737625875291142,0.8190054541182602,0.002702994200133782,0.0,0.8189726160304548,-0.5737018367060241,-0.011436942492467482,0.0,-0.007816356031620009,0.008775936913078902,-0.9999309413702949,0.0,0.6617265884936399,0.26092286467585607,0.3037610519803222,1.0,-0.001440000000000001,-0.00189257142857143,-0.0007200000000000005,0.07300000000000005
0.46508051415074797,0.5469187339947793,-0.12398857909483595,-1.3559833084140418,0.07946276613589008,1.8942811445153656,0.15914591502404582,0.0009541767820657219,-0.013278405937562677,-0.0005296257928903702,-0.011650132404156624,-0.00020057448964457653,0.007011749421394802,-0.0006487033868819512,0.573787128627042,0.8189882529193026,0.002705458063141284,0.0,0.8189553552098661,-0.5737262642732232,-0.011447565565754336,0.0,-0.007823379999470303,0.008784284269542086,-0.9999308131442174,0.0,0.661701722898731,0.26089477667061045,0.30376943682407315,1.0,-0.0017600000000000014,-0.0023131428571428595,-0.0008800000000000007,0.08900000000000007
0.46505784535595945,0.546734872196858,-0.12398855412304481,-1.3562005623051003,0.07945632089131108,1.894395464162644,0.15913538786139989,0.00013329872352225037,-0.010786741969775419,-0.0014609508149355493,-0.010789322608054302,6.338559463473192e-05,0.0005700902389945196,-0.001293138677938736,0.5738076183727072,0.818973655774092,0.0027776152845627733,0.0,0.8189416807755265,-0.5737465145205308,-0.011410848579575285,0.0,-0.00775168653248931,0.008822506637337149,-0.9999310349881817,0.0,0.66168582617172,0.2608631401859505,0.3038061758991803,1.0,-0.0021000000000000016,-0.0027600000000000025,-0.0010500000000000008,0.10600000000000008
0.46503223856150433,0.5465320836262225,-0.12398639151672661,-1.3564454810750168,0.07945249984174331,1.8945261036851453,0.15913381853705014,-0.000879790592387147,-0.008655055156935995,-0.000871017746006978,-0.012935048982577886,-0.00038515243417656914,0.00043316420695537947,-0.0007290377790751983,0.5738386258711363,0.8189516505255243,0.002858751660057157,0.0,0.8189206781673768,-0.5737772191066159,-0.011374207900795588,0.0,-0.0076747875195953275,0.008868221421074435,-0.9999312237775936,0.0,0.6616674578476424,0.260829294971155,0.3038444971052587,1.0,-0.002440000000000002,-0.0032068571428571463,-0.001220000000000001,0.1230000000000001
0.46499741000737205,0.5463025699150104,-0.12398921416256017,-1.3567531822067749,0.079443408842752,1.8946507534932882,0.15912915520588863,-0.003670535691784561,-0.018204476113139023,-8.514327353477521e-05,-0.018394092368512617,-0.0003260670784875789,0.01191472524523538,0.001255781222018722,0.57388009901657,0.8189224339245847,0.0029027691906566835,0.0,0.818891983828679,-0.5738185024680779,-0.011357462200307127,0.0,-0.007635364922724042,0.00889504721044547,-0.9999312873080934,0.0,0.6616380365653559,0.2607780956376189,0.30387147638712847,1.0,-0.002780000000000002,-0.003653714285714289,-0.001390000000000001,0.1400000000000001
0.4649678680371817,0.546070104829348,-0.12398673777757524,-1.357130583485064,0.07942976463005634,1.8947765303320854,0.15911334968693516,-0.00018191717802317815,-0.01516037609488007,0.0003721065180259571,-0.023065374616695618,-0.0003743083496219583,0.008802985066458277,-0.0009056844968195027,0.573909457343335,0.8189018835929625,0.0028959835955048125,0.0,0.8188712488836711,-0.5738477643877908,-0.011374003694361232,0.0,-0.007652486671403447,0.008899257329930216,-0.999931118961061,0.0,0.6615880427369093,0.2607221683368676,0.3038703054248274,1.0,-0.003120000000000002,-0.004100571428571432,-0.001560000000000001,0.1570000000000001
0.4649264539444929,0.5457559532821014,-0.12398673777935795,-1.3576010083228942,0.07940570630764415,1.8949461041975124,0.15909702684802016,-0.0031651858270439607,-0.014948225001994993,-5.687207833278654e-05,-0.024424375967116607,-0.003102569340478211,0.0014829587979905278,-0.003073132991836265,0.5739474739792366,0.8188752059619586,0.0029053527877834287,0.0,0.8188446488274109,-0.5738856977876272,-0.011375142316932764,0.0,-0.007647628836242093,0.008907938287606013,-0.9999310788292598,0.0,0.6615368868471537,0.26065306481622025,0.30388045597318036,1.0,-0.0034600000000000026,-0.0045474285714285755,-0.0017300000000000013,0.17400000000000013
0.46488138169631454,0.5454413082281531,-0.12398395373162799,-1.3581183984710514,0.07936491573468223,1.8951142562254606,0.1590659215647451,-0.00514429907156639,-0.018307906366230656,0.0006444790866390975,-0.02972979196221343,-0.0006446946967568282,0.011162892391761851,0.0018380942556488606,0.5739749676852242,0.8188560557945948,0.002871107882643137,0.0,0.8188250906938781,-0.5739133305838711,-0.01138888622732744,0.0,-0.007678239198507297,0.008888041899046864,-0.999931021297975,0.0,0.6614733596256974,0.2605723833764973,0.30387137069949716,1.0,-0.003800000000000003,-0.004994285714285719,-0.0019000000000000015,0.19100000000000014
0.4648336162960258,0.5451015317734818,-0.12399172810247053,-1.3586757763894628,0.0793255416872642,1.8952989162816352,0.15894929057180385,-0.009190052059459409,-0.020417117511870444,-0.00040361787670706696,-0.03457249512511171,-0.0007527150158890576,0.005919705700878059,-0.007307821837973398,0.5739479119259635,0.8188751400834602,0.00283659132206441,0.0,0.8188437604578441,-0.5738864190516872,-0.011402670235349632,0.0,-0.007709630384440225,0.008867434602595009,-0.9999309627183788,0.0,0.6614040185222648,0.26047378110152364,0.3038608180887401,1.0,-0.004140000000000003,-0.005441142857142862,-0.0020700000000000015,0.20800000000000016
0.4647734084768483,0.5447162741085807,-0.12398993407842854,-1.3593076686000656,0.07930394863296764,1.8955072522338197,0.15893785718524298,-0.003894100714014816,-0.018949222341920115,-0.0009715261656239887,-0.037553174867236236,-0.003412801963777297,0.015901291742088836,-0.0012208707733175773,0.5740127402910884,0.8188297729182551,0.002814936475753831,0.0,0.8187979542071613,-0.5739511232312245,-0.011435262523937086,0.0,-0.007748046637559791,0.008869021361027976,-0.9999306517121072,0.0,0.6613306378200071,0.2603826580111895,0.3038527098043963,1.0,-0.004460000000000004,-0.005861714285714292,-0.002230000000000002,0.22400000000000017
0.4647134108076119,0.5443103410735913,-0.12399304743296077,-1.3600223479449745,0.0792649043273177,1.8957299424367466,0.15892112881666473,-0.0010977256226757635,-0.024971586059788723,-0.0022921927949133758,-0.04386386186376822,0.00014052604261551537,0.0105039348046681,-0.0004949162183841093,0.5740797184788365,0.8187830629673696,0.0027421761870230384,0.0,0.8187502276271331,-0.5740182363772137,-0.011483726229734637,0.0,-0.007828772126073524,0.008837901855370409,-0.9999302984797453,0.0,0.6612400361406667,0.26027046715473784,0.303819178328504,1.0,-0.004800000000000004,-0.006308571428571435,-0.002400000000000002,0.2410000000000002
0.4646526520582902,0.543852854194559,-0.12399042835249272,-1.3607696297826348,0.07923169027377057,1.8959860351223086,0.1588693086382001,-0.005768183839862629,-0.028803821703934376,5.917409048273251e-05,-0.042142327021999805,-0.00013684947593374774,0.015112734469258616,-0.0074103215403923,0.5741179638121949,0.8187563202048876,0.002720046672234003,0.0,0.8187230581932929,-0.5740563903196961,-0.01151354059145076,0.0,-0.00786547538779675,0.008837265555299456,-0.9999300160683393,0.0,0.6611484166412974,0.26016111637021727,0.30380930225326086,1.0,-0.005140000000000004,-0.006755428571428578,-0.002570000000000002,0.2580000000000002
0.4645938090905383,0.5433965121672627,-0.1239988397749232,-1.3615076995203255,0.0791883783971899,1.8962513116677304,0.1588063149105089,-0.007461153453905977,-0.026368542780881195,-0.0004799955803211999,-0.05109207606595953,-0.006022071360651478,0.014874251850907157,-0.0020188050309684737,0.5741500463094447,0.8187338766447505,0.002703785925155907,0.0,0.8187004184499249,-0.5740885378625047,-0.011520521950744182,0.0,-0.007880180807137205,0.008828268851385268,-0.9999299797583502,0.0,0.6610632178255083,0.26004671492035625,0.30380410005804326,1.0,-0.005460000000000004,-0.007176000000000006,-0.002730000000000002,0.2740000000000002
0.46452379389490694,0.5428924594202966,-0.12399846099866998,-1.3623451561035442,0.07914164597114334,1.896541966527626,0.15874987181064293,-0.00474144355320936,-0.032599886615168536,-8.162200121244224e-05,-0.04271959614087598,-0.000754728019256341,0.016647106874500765,-0.006737496490734933,0.574195031069757,0.8187024444024851,0.0026684687378197456,0.0,0.8186684651530964,-0.5741335621462442,-0.011547462160414659,0.0,-0.007922030559093296,0.008815256320876874,-0.9999297638773528,0.0,0.6609624419196087,0.2599200226667021,0.3037872005636014,1.0,-0.005800000000000004,-0.007622857142857149,-0.002900000000000002,0.2910000000000002
0.46445205187128474,0.542351525174558,-0.12399673890384515,-1.3632240019646527,0.0790836735825581,1.8968473985200547,0.15867354166938727,-0.002256560526948925,-0.02742939373698599,-0.001521826168602713,-0.05229804686746868,0.00011374847081842707,0.015329545423527243,-0.0031493815182926975,0.5742234326905136,0.8186826233930751,0.0026378788001709674,0.0,0.8186482493106828,-0.574162063861398,-0.011563529918783726,0.0,-0.007952444182665275,0.008799714127402616,-0.999929659357496,0.0,0.6608566925020568,0.2597877295676174,0.30377784776986194,1.0,-0.006140000000000005,-0.008069714285714293,-0.0030700000000000024,0.3080000000000002
0.4643674667989844,0.5417516500765042,-0.12400271049235219,-1.3641459525167892,0.07903570361172026,1.8971852864152055,0.15862413003210812,-0.004620309462703987,-0.03600766568171977,-0.0007375304859865049,-0.05594928395735493,-0.004753636207160651,0.023414405173845538,-0.002489200078871871,0.5742948120507874,0.8186325034614498,0.0026533053345804206,0.0,0.8185982891527785,-0.5742333382229962,-0.011561192439639227,0.0,-0.007940904417277683,0.008811693699102424,-0.9999296455707215,0.0,0.6607534324813445,0.25964197470311695,0.30379268357783973,1.0,-0.006480000000000005,-0.008516571428571436,-0.0032400000000000024,0.32500000000000023
0.4642810919879891,0.5411373345621436,-0.1240007595006123,-1.3651027997105976,0.07897511534148195,1.8975241885856353,0.15855722195452346,-0.006478403632576717,-0.03714121448773113,0.0008296364826409306,-0.056893643481846064,-0.0038206368034623675,0.019282802433043564,-0.0021950767584997064,0.574346230368566,0.8185964444022165,0.0026487307668651237,0.0,0.8185621635252385,-0.5742847573162944,-0.011564984230600645,0.0,-0.007946082251798603,0.008810625516081819,-0.9999296138503264,0.0,0.6606419067238523,0.2594937139363257,0.3038008399454297,1.0,-0.006820000000000005,-0.008963428571428579,-0.0034100000000000024,0.34200000000000025
0.4641929756447223,0.5404804676339158,-0.12400887397147387,-1.366117166360116,0.07891041594028034,1.897904401069193,0.15846285821206477,-0.00787410634081884,-0.03820886657366228,0.0019312756266110123,-0.060569285228056845,-0.004295734532282801,0.021399293845522974,-0.0008761417458501017,0.5743857934031823,0.8185686372957441,0.0026633200321451765,0.0,0.8185346144220415,-0.5743243433759235,-0.011549047579024169,0.0,-0.007924231176169527,0.008813798185250507,-0.9999297592940297,0.0,0.6605292894174297,0.2593343454495288,0.3038155240452788,1.0,-0.007160000000000006,-0.009410285714285723,-0.003580000000000003,0.35900000000000026
0.46409556058680623,0.5398215678289603,-0.12401133090960319,-1.367120079965189,0.07886042251191375,1.898281541014508,0.1584010690433296,-0.006587657393579707,-0.03930377602444112,-0.00030567851475454285,-0.06465343207738586,-0.0015753441651626182,0.02049681455288887,0.001098307367814225,0.5744588747231375,0.8185172453782281,0.0026957691801110725,0.0,0.8184835744608666,-0.574397231977466,-0.01154145292397701,0.0,-0.00789858797218479,0.008836702987752243,-0.9999297600273491,0.0,0.660418869386396,0.25917567839521,0.30383657343712345,1.0,-0.007480000000000006,-0.009830857142857152,-0.003740000000000003,0.3750000000000003
0.46399976030403023,0.5390807273990836,-0.12402086914589712,-1.3682593639532115,0.07878648959614253,1.8986892931936792,0.15833792530726595,-0.010833950575175819,-0.046611471066180854,0.0009445999084580794,-0.07184752943343813,-0.0009253385513471559,0.022646818719574833,-0.004173447224817826,0.5745354406993908,0.8184634965181664,0.0026979897743494834,0.0,0.8184299221725462,-0.5744738569582025,-0.011532435363578092,0.0,-0.007889104669051128,0.008834078478379442,-0.9999298580825349,0.0,0.660287540986108,0.25899707900490887,0.303853351138097,1.0,-0.007820000000000006,-0.010277714285714295,-0.003910000000000003,0.3920000000000003
0.4639007668028244,0.5383275638102862,-0.12402189672557234,-1.369435736416852,0.07873042260505984,1.8991477335881424,0.15821258205446198,-0.006772325458956624,-0.048879402428427435,-0.001068070316588993,-0.07189925946375829,-0.0003990664498001746,0.024814826201778373,-0.004349562767381838,0.5745647511768016,0.8184428003975802,0.002734242804669125,0.0,0.818409598167459,-0.5745029359314554,-0.01152619341867506,0.0,-0.007862850884917671,0.00886044559971269,-0.9999298315780645,0.0,0.660155731628267,0.2588233987123409,0.30386522130104915,1.0,-0.008160000000000006,-0.010724571428571437,-0.004080000000000003,0.4090000000000003
0.4637984891502523,0.5376034007580228,-0.12403387771074882,-1.3705816207121304,0.07865794485063324,1.8995844042886656,0.15815529485470073,-0.009309693530686877,-0.045828688125932285,6.574513912235093e-05,-0.06961864662295676,-0.0057913573760266955,0.033484948228520446,-0.0006962240923121168,0.5746539127227537,0.8183801807137205,0.0027399468272061136,0.0,0.8183471474424149,-0.5745921750390592,-0.011511974546264458,0.0,-0.007846970881113524,0.008857799426451068,-0.9999299797672393,0.0,0.6600299038733513,0.2586403204143011,0.3038694341256446,1.0,-0.008480000000000007,-0.011145142857142867,-0.004240000000000003,0.4250000000000003
0.4636865300845732,0.5367427508400504,-0.12403719113808616,-1.3719281944935693,0.07857560333709013,1.9000849231548713,0.15803328603743202,-0.00549636946310805,-0.042463990463937604,-0.000509462724063133,-0.07459695686815346,-0.008990012444354024,0.027991760303538903,-0.008459608806216032,0.5747001725111197,0.8183476629535716,0.0027497555027330466,0.0,0.8183147746064964,-0.5746384176661649,-0.011505020819337117,0.0,-0.007835142599451894,0.008862273630288756,-0.9999300328755748,0.0,0.6598747234798259,0.2584366003593498,0.3038796046563976,1.0,-0.008840000000000008,-0.011618285714285727,-0.004420000000000004,0.44300000000000034
0.4635897652985543,0.5359536580127655,-0.12405123040872115,-1.3731817785866036,0.07850658416039218,1.9005429836218073,0.15795947732972934,-0.00059565306089567,-0.05074980091176362,-0.0016230411695849765,-0.08368407678047816,-0.007265889421538841,0.02613904281025964,-0.0029074444336668667,0.5747792963630487,0.8182921138710479,0.002742945507824418,0.0,0.8182591318776493,-0.5747175473222061,-0.011510030407948213,0.0,-0.007842299187105772,0.008860337977980304,-0.9999299939267627,0.0,0.6597282370709601,0.2582460672797148,0.30388005493297,1.0,-0.009160000000000007,-0.012038857142857153,-0.004580000000000003,0.45900000000000035
0.4634825595632158,0.5351815257588305,-0.12405304783669278,-1.3743915495078938,0.07843467950477472,1.9009830789224924,0.15787194331141174,-0.0010126329352403924,-0.05348995351229804,-0.0008925473980090973,-0.08170723064950743,-0.0026981978780206946,0.02927789469568337,-0.002938852199311056,0.5748438089843393,0.818246791117896,0.0027442665414940714,0.0,0.8182138087956676,-0.574782027880209,-0.011512185857133133,0.0,-0.007842605043037798,0.00886327619264865,-0.9999299654882196,0.0,0.659587676486746,0.2580590481533187,0.30388728408797394,1.0,-0.009460000000000008,-0.01243314285714287,-0.004730000000000004,0.47400000000000037
0.4633416602991703,0.5341751153946515,-0.12405858780182302,-1.3759996386631048,0.07835365589109046,1.9015601773461286,0.15775295698841543,-0.004946977522178986,-0.05532735974530178,-0.0005013918708445213,-0.08573989345438784,-0.008237550292990071,0.03328118458143255,-0.011787917352041537,0.5749320590018017,0.8181848353303369,0.0027294081091995756,0.0,0.8181515174134262,-0.574870153525461,-0.011538979197893226,0.0,-0.007872114098729621,0.008867369179540674,-0.9999296973204919,0.0,0.6593978352830948,0.25781127402396325,0.30388206366037473,1.0,-0.009840000000000008,-0.012932571428571443,-0.004920000000000004,0.4930000000000004
0.4632271593527334,0.5332564459691962,-0.12405965974808421,-1.3774717966302097,0.07826654077401231,1.9020970126074608,0.15763617596153595,-0.005410958250882098,-0.05917088549444084,-0.0009374132054151305,-0.08263429646346296,-0.006888699785574819,0.02916789340994266,-0.006732100635930098,0.5749881643352379,0.8181454579416896,0.0027143000911157237,0.0,0.8181119101097285,-0.574926262905854,-0.011551695067318983,0.0,-0.007890596361495583,0.008862859811387389,-0.9999295916238419,0.0,0.6592213445087919,0.2575947968115732,0.30387579227040806,1.0,-0.010180000000000007,-0.013379428571428582,-0.005090000000000003,0.5100000000000003
0.46309854185013205,0.5323282870491182,-0.12406024520329567,-1.3789483493615087,0.07818529826355712,1.9026609144708613,0.15756116930422037,-0.008474409083777121,-0.05685215749060106,0.0015464839903125095,-0.09054133049974344,-7.322329609909603e-05,0.028455136233207605,-0.0038029139285024015,0.5750914703344717,0.8180727972986519,0.002728730419578133,0.0,0.8180393877420323,-0.575029453653739,-0.011551382364549024,0.0,-0.007880923053484645,0.008875481310687439,-0.999929555960483,0.0,0.6590523072503041,0.2573716919969177,0.30387627943862644,1.0,-0.010520000000000007,-0.013826285714285725,-0.005260000000000003,0.5270000000000004
0.46297654287795564,0.5314275763480235,-0.12406024553230485,-1.3804147149086046,0.0780905831873528,1.9032145354732997,0.15741903295586687,-0.00893547988175617,-0.04950953792000271,-0.0001562569491714919,-0.08864210255012386,-0.010438753410230634,0.031941250477492425,-0.007304214106780999,0.5751296769219214,0.8180459911004152,0.0027125761618683646,0.0,0.8180124188653641,-0.5750677610169428,-0.011554207986910064,0.0,-0.007892110371619243,0.008864259558591714,-0.9999295672677951,0.0,0.6588814017349929,0.257151298253586,0.3038611489154319,1.0,-0.010840000000000008,-0.014246857142857155,-0.005420000000000004,0.5430000000000004
0.4628471434968103,0.5304113854723943,-0.12406298470120594,-1.3820388028373178,0.07800384939618714,1.9037894471944568,0.15732650936254677,-0.0107172788541773,-0.06185440881125869,0.0006462499495422549,-0.09186314314321899,-0.005636478138219264,0.02826813369135844,-0.004932140669434093,0.5752267892622269,0.8179777860739981,0.0026887368332594317,0.0,0.8179437748517959,-0.575164794579339,-0.011583918115622007,0.0,-0.007929073585136448,0.008862786215803678,-0.9999292879061871,0.0,0.6586826734422377,0.25690998946987054,0.3038540713506571,1.0,-0.011180000000000008,-0.014693714285714298,-0.005590000000000004,0.5600000000000004
0.46269557458638605,0.5293302718670405,-0.1240659471588275,-1.3837802098430827,0.07787469744701629,1.9044230907079789,0.15717930136640357,-0.00915586629058197,-0.06099872084574863,-0.005942483232010378,-0.09923038116816876,-0.005890119780828121,0.034799352339840786,-0.008794561592216282,0.5752922443452521,0.8179318776760347,0.0026502789980238943,0.0,0.8178975465808079,-0.5752305694241413,-0.011581977304486516,0.0,-0.007948899987650526,0.008830848428889398,-0.9999294130612484,0.0,0.6584775834261698,0.25663805305556253,0.303841686654592,1.0,-0.011540000000000009,-0.015166857142857157,-0.005770000000000004,0.5780000000000004
0.4625653299461344,0.5283219115336582,-0.12407688941765997,-1.3853641632089788,0.07778884763763466,1.9050060943807694,0.15708245106120378,-0.0047884030569218606,-0.0650438240482502,-0.0011338799491822042,-0.10123525906392067,-0.0068642005186637855,0.03740400598962364,-0.0018570428194465965,0.5753900641206962,0.8178630431835218,0.0026577447165508665,0.0,0.8178287602064691,-0.5753282977175188,-0.011585151091792048,0.0,-0.007946144172031877,0.008839731088252159,-0.999929356478289,0.0,0.6582907426029507,0.2563968132834554,0.30384868819911476,1.0,-0.01186000000000001,-0.015587428571428587,-0.005930000000000005,0.5940000000000004
0.4624183013190138,0.5272206884123964,-0.12407302262653391,-1.3871027951551054,0.07768499427346161,1.9056692656035619,0.15695250394754892,-0.00915791209155192,-0.06313625739070766,-0.0006641828829624088,-0.10104855070799948,-0.011766372626258726,0.04262538382074357,-0.013670048978040134,0.5754675552208313,0.8178084524199372,0.0026786078241498486,0.0,0.8177744218239149,-0.5754056890591048,-0.011577344695002826,0.0,-0.007926916785090332,0.008853053660986043,-0.9999293912227794,0.0,0.6580876007707729,0.25613854791312773,0.30385365661250197,1.0,-0.01220000000000001,-0.01603428571428573,-0.006100000000000005,0.6110000000000004
0.46227024074889245,0.5260692778860063,-0.1240787290872773,-1.38888329735539,0.07757025433179349,1.9063430409512796,0.15683256705857565,-0.00800756405783345,-0.0707663068475772,-0.00025516374021367425,-0.105848589510209,-0.0042744444718415845,0.03504524252810392,-0.009119185205001306,0.5755535963730697,0.8177478019505173,0.0027086912580185207,0.0,0.817714276979503,-0.5754917494788767,-0.011547917857279894,0.0,-0.007884606777133651,0.008861551779321464,-0.9999296504634875,0.0,0.6578942039515364,0.2558834753387122,0.30387416104745596,1.0,-0.012520000000000009,-0.016454857142857156,-0.006260000000000004,0.6270000000000004
0.462131766669164,0.5249720127536629,-0.12408753129620691,-1.3905964073721404,0.07745844683932417,1.9069667486382256,0.15670312578674309,-0.011337313103847014,-0.0685481325618849,-0.001697371286489593,-0.11285948800306221,-0.002771486669300915,0.038824179327618474,-0.00641407068385202,0.5756354413246978,0.8176901917016954,0.0027085027179705387,0.0,0.8176567177173371,-0.5755736448013449,-0.01154202248372503,0.0,-0.007879007491315426,0.008858793207723717,-0.9999297190422208,0.0,0.6576755172606068,0.25560781851870235,0.3038856588902217,1.0,-0.01286000000000001,-0.0169017142857143,-0.006430000000000005,0.6440000000000005
0.4619688347202969,0.5238115530632096,-0.12408621609444168,-1.3924634492187284,0.07734207474715032,1.9076399338146552,0.15656676633223313,-0.008794947795597339,-0.06667606792775373,0.002691482177634724,-0.11208133808868144,-0.00901154931397874,0.041531682188812556,-0.010342451990157854,0.5757251255380135,0.8176271534957018,0.0026766755431658308,0.0,0.8175932437638022,-0.5756633963813425,-0.011562383823836064,0.0,-0.007913007189227161,0.008845357018869418,-0.999929569507989,0.0,0.6574494900378595,0.2553219384824901,0.3038712658601945,1.0,-0.01320000000000001,-0.017348571428571446,-0.006600000000000005,0.6610000000000005
0.4618153528853495,0.5226073304750235,-0.124092346506754,-1.3943783994440009,0.07722355460871785,1.9083625947681329,0.15642277753441336,-0.01280931605289702,-0.07447816440749415,0.0018422505253469627,-0.11144336278566418,-0.011322677113131197,0.045685776132698724,-0.008736061274691538,0.5758080130024129,0.817568768047449,0.0026811521400133837,0.0,0.8175349615519466,-0.5757463091918795,-0.011555128445575194,0.0,-0.007903600847692316,0.008845641467944101,-0.999929641385163,0.0,0.6572220092198582,0.25503584747683666,0.3038690543906016,1.0,-0.01354000000000001,-0.017795428571428587,-0.006770000000000005,0.6780000000000005
0.4616545505884754,0.5213893300179748,-0.12409261287336783,-1.3963466959335828,0.0771056348123263,1.909129482776852,0.15628202018353918,-0.008155988185585005,-0.07144027964819648,0.004670349796236636,-0.11514059030508773,-0.0062350397600994464,0.04807207901116397,-0.004001938805847076,0.5758983429351718,0.8175051082093545,0.002691385766298398,0.0,0.8174714502277911,-0.5758366118760139,-0.011548653031130458,0.0,-0.007891436319573064,0.00885115158135548,-0.9999296887024096,0.0,0.6569910221394866,0.25474532424708785,0.30385448024338424,1.0,-0.01388000000000001,-0.01824228571428573,-0.006940000000000005,0.6950000000000005
0.4614830451493759,0.5201243333665707,-0.12410359718484364,-1.3983677617887778,0.07697969365127212,1.9098829381180256,0.1561297938868059,-0.014893079086802801,-0.06995295571126113,-0.0011906225533591943,-0.11947597712861763,-0.012447343168323896,0.04753130418954273,-0.013945724795446795,0.575995729594792,0.8174365256870211,0.0026819512493670636,0.0,0.8174028055500713,-0.5759340846441443,-0.011546883787075614,0.0,-0.0078943694186287,0.008843360489157237,-0.9999297344847491,0.0,0.656751051353686,0.2544337449864143,0.3038466069124766,1.0,-0.01422000000000001,-0.018689142857142873,-0.007110000000000005,0.7120000000000005
0.4613235175495091,0.5188764129359411,-0.12411266292520029,-1.4003018188087741,0.07685342317580345,1.9105781936411634,0.15598376300631225,-0.013671624391252461,-0.0799287742590101,-0.0010935042558813729,-0.12122292250130758,-0.0071726520406689195,0.03270285320980366,-0.010904615750758928,0.5760817270104631,0.817375921124784,0.0026822138731934274,0.0,0.8173422723897702,-0.5760201465860162,-0.011538951120424471,0.0,-0.007886803417864297,0.008839835865727966,-0.9999298253546172,0.0,0.6565153867567773,0.2541373235283607,0.30386264307004385,1.0,-0.014540000000000011,-0.019109714285714303,-0.007270000000000006,0.7280000000000005
0.4611500559503545,0.5175147086999129,-0.12411387103777388,-1.402411260513098,0.07671608015207902,1.9113355395462719,0.15582819558563246,-0.017041274629515782,-0.07587438620833986,-0.0017444984945104588,-0.12406991478112944,-0.009166906107492288,0.04658150276188254,-0.011189580644828473,0.5761717371449588,0.8173124674530932,0.002684541358491504,0.0,0.8172788788744176,-0.5761101714461436,-0.011534790994140579,0.0,-0.007881088642060163,0.008840209717888917,-0.9999298671076687,0.0,0.6562553086509272,0.2538194893098144,0.30387980332701703,1.0,-0.014880000000000011,-0.019556571428571447,-0.007440000000000006,0.7450000000000006
0.46096506558761574,0.5161737363576121,-0.12412269299092411,-1.4045259380467392,0.07657891453283311,1.9121305275339815,0.15567083198334422,-0.007235121661989946,-0.07828909032533632,-0.00025152725076002427,-0.1216083370449533,-0.004807384169457287,0.04543633249942864,-0.0018184658493985532,0.5762753827088712,0.8172393634680104,0.0026931363414466006,0.0,0.8172059888570241,-0.5762138913111301,-0.01151825236338689,0.0,-0.007861498016779933,0.008838702608301247,-0.9999300346449917,0.0,0.6560048448961658,0.2534913623431992,0.30388305470920784,1.0,-0.015220000000000011,-0.02000342857142859,-0.007610000000000006,0.7620000000000006
0.46078285468142655,0.5148121212327212,-0.12413435111726098,-1.4066911561280842,0.07644605589806466,1.9129611425605926,0.1555038273749169,-0.015746363811763364,-0.07992044349984384,-0.0016022827055714004,-0.12998878514620038,-0.00969134229012962,0.04665042633127521,-0.0062602609815775225,0.5763745810676367,0.8171693523051697,0.0027090318314664363,0.0,0.8171362553983331,-0.5763131069482594,-0.011501729193590798,0.0,-0.007837760945087646,0.008843122729544198,-0.9999301819045957,0.0,0.6557489741847341,0.2531608164121783,0.3038795235053713,1.0,-0.015560000000000011,-0.020450285714285733,-0.007780000000000006,0.7790000000000006
0.4605965568805814,0.5134042447225672,-0.12413308173802771,-1.4089526364420686,0.07631809723196642,1.9137525031621716,0.1553313011514032,-0.008139483806917617,-0.08052488486338807,-0.0009189162865862147,-0.1317691839082371,-0.0009683765811098752,0.05350037630281859,-0.0188756179665341,0.5764630650461124,0.8171070747624026,0.0026664418387101667,0.0,0.8170732546581929,-0.5764015253855633,-0.011546642658015631,0.0,-0.007898054324453563,0.008835061431454183,-0.9999297787481831,0.0,0.6554777504205862,0.2528402226294295,0.3038629398846624,1.0,-0.015880000000000012,-0.020870857142857163,-0.007940000000000006,0.7950000000000006
0.46040975040477516,0.5120677098250429,-0.12413306197386162,-1.4111093160002077,0.07617973672708796,1.9145081242025708,0.1551729317705988,-0.01089410318169774,-0.08199578188544228,0.0007404022732450382,-0.13352196151595594,-0.004597482142027094,0.05421666938599276,-0.0044785851175510125,0.5765677139996445,0.817033447709765,0.00260065336546339,0.0,0.8169987407884028,-0.5765063422407234,-0.011586276692465902,0.0,-0.007967235826983887,0.008805173118021023,-0.99992949355424,0.0,0.6551882675730015,0.25249076178104124,0.303833599154938,1.0,-0.016220000000000012,-0.021317714285714304,-0.008110000000000006,0.8120000000000006
0.46021946260366114,0.5106369854547231,-0.12413453435740388,-1.413421497809775,0.07604041257648049,1.9153789767314577,0.15498101330303576,-0.009014776054354195,-0.08021544681329504,0.0018945421373822002,-0.13195878224497878,-0.012348195504513257,0.052319247066510054,-0.016767505667878633,0.5766507801639293,0.8169748617771584,0.0025884091123184495,0.0,0.8169399729767719,-0.5765894138335821,-0.011596348949792753,0.0,-0.007981629958653591,0.008801788000915356,-0.9999294085640196,0.0,0.6549048210037409,0.2521462255765534,0.3038104305539468,1.0,-0.016560000000000012,-0.02176457142857145,-0.008280000000000006,0.8290000000000006
0.4600227348391017,0.5091436158176904,-0.12414195362167689,-1.4157847531329395,0.07590510294542978,1.9162653653376003,0.15480123044911817,-0.010410687703904764,-0.09027010709238686,-0.0015011328366479099,-0.1421953989373374,-0.012647862218154095,0.05310097224381147,-0.012356951273658219,0.576756593595019,0.8169001193747288,0.002602616266799883,0.0,0.816865357587363,-0.5766951026973802,-0.011597111697993287,0.0,-0.007972919378633203,0.008814867419431008,-0.9999293628396757,0.0,0.6546157542070944,0.2517905148582017,0.3038078327383511,1.0,-0.016900000000000012,-0.02221142857142859,-0.008450000000000006,0.8460000000000006
0.45981073812135703,0.5076468067663554,-0.12414411288764694,-1.4181611237862382,0.07575001087334672,1.9171039650463093,0.15461765442452952,-0.013320903445871666,-0.08426755686687212,-0.0003838636312739745,-0.1385013866642068,-0.005207441814865363,0.05122263138506972,-0.012852018441965343,0.576862422004937,0.8168255227680679,0.0025609245360181257,0.0,0.8167902250995169,-0.5768010651431486,-0.011619222556528516,0.0,-0.00801388783094259,0.00879460031731931,-0.9999292137982027,0.0,0.654316828743746,0.2514201274276261,0.3037965390075937,1.0,-0.017240000000000012,-0.022658285714285735,-0.008620000000000006,0.8630000000000007
0.4596040653936868,0.5061868024120462,-0.12414485333096507,-1.4204411323498682,0.07559833458853472,1.917933861446483,0.15443322723601188,-0.014185540070144586,-0.09102784029032471,0.0006820078017997016,-0.14760059160456898,-0.00553320611976796,0.05397431756637821,-0.013357168186706906,0.5769577984602396,0.8167581561630801,0.002561257153679093,0.0,0.8167229210493263,-0.5768964924108448,-0.011612673160312302,0.0,-0.008007319416133418,0.008792029038727028,-0.9999292890305546,0.0,0.654035460685858,0.251065016282981,0.3038040453927834,1.0,-0.017560000000000013,-0.023078857142857165,-0.008780000000000007,0.8790000000000007
0.4593776448717469,0.504568996166983,-0.12415432475636101,-1.4228956818153122,0.0754443300964294,1.9188980857276805,0.15424681204608653,-0.014303060287959263,-0.09505129737698485,-0.0001945908361350889,-0.14848542836229983,-0.004477187893914699,0.05628340770181861,-0.015032903900917244,0.5770823100420793,0.8166698638494148,0.0026622956042529743,0.0,0.8166360627465644,-0.5770207875539191,-0.011545503611901256,0.0,-0.007892816917720868,0.00883700263476457,-0.9999298029489553,0.0,0.6537493543467463,0.2506819423398271,0.3038501243316656,1.0,-0.017900000000000013,-0.023525714285714306,-0.008950000000000007,0.8960000000000007
0.45915114217131964,0.5029136769248838,-0.12416101215182612,-1.4253773778386654,0.07528809780321923,1.919841465153237,0.15404625243686756,-0.008842560299886936,-0.10041595477645715,5.140582864724016e-05,-0.14910909973924683,-0.007182352284415077,0.05847333979984767,-0.014793776712920027,0.5771934295023301,0.8165910185724529,0.002756850984467479,0.0,0.8165585160146082,-0.5771316722242509,-0.01148780835794281,0.0,-0.007789925089636274,0.008881988658141812,-0.9999302112370514,0.0,0.6534519870917761,0.250296075322111,0.3039069366678194,1.0,-0.018240000000000013,-0.02397257142857145,-0.009120000000000007,0.9130000000000007
0.4589255487844651,0.5012179983914402,-0.12416429034721164,-1.4278994548366162,0.07512169536385997,1.920767344672964,0.15384204335863774,-0.0168419043646886,-0.1043633200257108,0.0001958181532210482,-0.14526489344514718,-0.00789894096567614,0.059971664583915445,-0.00967850843050257,0.5772968884803624,0.8165176132231777,0.00283491594680712,0.0,0.8164861988189789,-0.5772349653495019,-0.011438042546797686,0.0,-0.0077030989004566175,0.008917987816852657,-0.9999305634695981,0.0,0.6531409172213994,0.2499058735959228,0.3039703875472497,1.0,-0.018580000000000013,-0.024419428571428592,-0.009290000000000007,0.9300000000000007
0.458694297363067,0.4995168228741794,-0.12416443212527194,-1.430494147328166,0.07495471228131013,1.9216949237104595,0.15364248529242494,-0.01267606248741437,-0.10228421637015117,-0.0008470069381180525,-0.15100792928713586,-0.005997192095806305,0.056854680382020954,-0.01188557382362527,0.5774095704052427,0.8164378453138319,0.0028600078581731223,0.0,0.8164067483939421,-0.5773475485937145,-0.011426994830976419,0.0,-0.007678360344569868,0.00893315788322048,-0.9999306183294178,0.0,0.6528124498275525,0.24950544432997093,0.30400255627557926,1.0,-0.018920000000000017,-0.02486628571428574,-0.009460000000000008,0.9470000000000007
0.4584554237438143,0.49795203212466305,-0.12416457566629623,-1.4329555626094834,0.07480334092037484,1.9226192397594504,0.15344349171709612,-0.015606595970876996,-0.09280079817627858,-0.00032260317770522274,-0.15509371059951654,-0.010680744666419191,0.05960849833823933,-0.013654443759413663,0.5775264175834488,0.8163551225226497,0.002880594637526758,0.0,0.8163242788375439,-0.5774643037689178,-0.011419131063758168,0.0,-0.0076587730169701,0.008946521443531641,-0.9999306490701916,0.0,0.6525118706494692,0.24911637769613804,0.30400225653981217,1.0,-0.019240000000000014,-0.025286857142857166,-0.009620000000000007,0.9630000000000007
0.4581999067923676,0.4962734311194009,-0.12416720749597958,-1.4356388827375204,0.07464369328883892,1.9235770444780522,0.15323451045861766,-0.012842996536986548,-0.10183089988219605,-0.00045164058545658377,-0.15930608913799282,-0.015059822201795579,0.058704407240927986,-0.009883244666538652,0.5776588529472395,0.8162615535663698,0.0028412466110132708,0.0,0.8162300829089202,-0.5775967045889565,-0.011456243000362284,0.0,-0.007710344478087661,0.008937083214092187,-0.9999303371393699,0.0,0.6521713503874216,0.2486913152974939,0.3039780964676897,1.0,-0.019580000000000014,-0.025733714285714308,-0.009790000000000007,0.9800000000000008
0.45792042382758263,0.4945944417320373,-0.12416501752657143,-1.4383813751322112,0.07447509225309809,1.9245125808204686,0.1530173203235261,-0.018768976728829368,-0.10466415561558778,-0.00035293214452648835,-0.16325478552561584,-0.00752613139183447,0.06029115889437858,-0.019396617520687134,0.5778004378924502,0.816161709799401,0.0027320925714686426,0.0,0.8161286612228911,-0.5777384265340131,-0.011535412335172489,0.0,-0.007836477867812497,0.00889507660901101,-0.9999297311445174,0.0,0.6518161171635823,0.24824374144420636,0.30392337004765446,1.0,-0.019920000000000018,-0.026180571428571456,-0.009960000000000009,0.9970000000000008
0.45763836360767135,0.4928405145974507,-0.12421374729466579,-1.4411476884302095,0.074301667658241,1.9255087258660086,0.15285566944540693,-0.01185107090125603,-0.13569201064745703,-0.004982321016294491,-0.20208373055652856,-0.013745283299449925,0.07309442419985483,-0.006132758409875403,0.5780385060431528,0.8159932212163934,0.0027009926882941232,0.0,0.8159599188627855,-0.5779767339880233,-0.01153484630077553,0.0,-0.007851396620414897,0.008871657904833186,-0.9999298221661,0.0,0.6514513210244579,0.2477379312492585,0.30391410395295837,1.0,-0.028567428571428084,-0.03754576326530549,-0.048530289260569175,1.0139999999999991
0.4573512957920461,0.4899199263053623,-0.12434184764300393,-1.4456689477553066,0.0740972456031682,1.9272475038512027,0.1529970560716504,-0.01774069101482747,-0.16845383807668377,-0.01370893433794744,-0.2836592521640539,-0.019267967200687068,0.1108227211707661,0.016744900112993604,0.57863924234585,0.8155669267455621,0.0028217224222025685,0.0,0.8155351938718824,-0.5785770186576369,-0.011477279242048251,0.0,-0.007728054401315243,0.008942590280028292,-0.9999301511876986,0.0,0.6509154642777181,0.24709120500989212,0.30394992364148016,1.0,-0.03979714285714113,-0.05230481632652836,-0.09892912906284936,1.0309999999999973
0.456956602408048,0.4864685703578038,-0.12450151673248114,-1.451170885760472,0.0738639399201832,1.929332487184919,0.1538835445150912,-0.030221065059756178,-0.23497482388278318,-0.006966387632458618,-0.3705818559106514,-0.025527452989426064,0.14315778286032838,0.07183137055315239,0.5800106687479972,0.8145920732238527,0.0028504877783683035,0.0,0.8145605945660169,-0.5799480436061946,-0.01149136192158337,0.0,-0.007707785920244015,0.008987180563588937,-0.9999299078544083,0.0,0.6502259951350305,0.24623733818928545,0.3039154125192627,1.0,-0.050366285714282824,-0.06619568979591459,-0.14636333122970127,1.0469999999999955
0.4563550335424727,0.48185709567076124,-0.12471311426207224,-1.4584714452951701,0.07347907893956289,1.9320103622532243,0.15550595654732455,-0.03943898869595973,-0.2868953488620425,-0.010325554338311772,-0.45898239483534464,-0.027283291228925474,0.1653553965029816,0.10786696630418013,0.5822289028410931,0.8130082484790212,0.0027999112020600713,0.0,0.8129764647165031,-0.582166556646459,-0.011494130705269535,0.0,-0.007714956945889362,0.00896864969451068,-0.9999300189323153,0.0,0.64930922241831,0.24503708414066522,0.30387948429291056,1.0,-0.061595999999995876,-0.08095474285713745,-0.19676217103198146,1.0639999999999936
0.45559511762428634,0.4762333360403878,-0.12492651297975076,-1.4673582077236254,0.07303207144958052,1.9351755535863762,0.1577323596807735,-0.046116374519323364,-0.34126581985848076,-0.012650941592657465,-0.5426327918916386,-0.02856583030131296,0.19147641444529745,0.13918392118505374,0.5851195842141034,0.8109306852730894,0.002691236303363609,0.0,0.8108974305821172,-0.5850571369737442,-0.011586649757989047,0.0,-0.007821593411610206,0.00896206483983561,-0.9999292495323407,0.0,0.6481579257019118,0.2435824035421958,0.30382664478972166,1.0,-0.07282571428570893,-0.09571379591836032,-0.24716101083426162,1.0809999999999917
0.45466891756872335,0.46971790843601796,-0.1251634110773283,-1.4775250496789494,0.0724874447563651,1.938891032701284,0.16062847290192403,-0.055604071071433586,-0.4010534826728495,-0.014955813383482728,-0.6080031219304519,-0.02444008828680374,0.23099629413802575,0.1879143627138208,0.5887256315462025,0.8083165251980708,0.0026968043031992787,0.0,0.8082836353524779,-0.5886630354680449,-0.011581985846053851,0.0,-0.007774551230993854,0.008998567968119445,-0.999929288563786,0.0,0.6468589572714317,0.2418891885820547,0.30382114501195767,1.0,-0.08405542857142198,-0.11047284897958319,-0.2975598506365418,1.0979999999999899
0.453570116901651,0.4622367297529196,-0.12534207574770995,-1.48893414639278,0.07185632254761273,1.9431551848086905,0.1641532153136631,-0.07289642653196493,-0.4494553690475395,-0.011918373490742687,-0.6879912926291489,-0.03243869874642545,0.252929353777074,0.21746556552076352,0.5929518490551112,0.8052206051613456,0.002937452455613003,0.0,0.8051910918672741,-0.5928882758032793,-0.011469302237256025,0.0,-0.007493881647042955,0.009166130995421726,-0.9999299094338737,0.0,0.645399336821713,0.24000951766066284,0.30392490130031075,1.0,-0.09528514285713503,-0.12523190204080606,-0.347958690438822,1.114999999999988
0.4523408433524552,0.45447347447984365,-0.1255766518328448,-1.5011555077932806,0.0711183468500506,1.9473318423812138,0.16804242395976665,-0.0784572520975713,-0.5009064514280395,-0.012907175192823094,-0.7604672248189436,-0.05188898921664386,0.2633249095846349,0.25188637008842074,0.5975956276180839,0.8017813768041886,0.0026146821866118034,0.0,0.8017480234190092,-0.5975328248398848,-0.011635165825546155,0.0,-0.007766650374013584,0.009049614732069167,-0.9999288892792172,0.0,0.6437506027397317,0.237902181988025,0.30381723972257024,1.0,-0.10585428571427673,-0.13912277551019228,-0.3953928926056739,1.1309999999999862
0.4508450208235247,0.4451456930137883,-0.12583642252860308,-1.5150508218623928,0.07020886377466312,1.95251763058409,0.172802239141788,-0.09028625983909004,-0.5584026156623234,-0.014057868504700281,-0.8195769523631179,-0.05647742758880616,0.311229212849342,0.2927295962543418,0.6031628312265617,0.7976003140977929,0.00301411331384895,0.0,0.7975735554586935,-0.6030998934805468,-0.011299956545923327,0.0,-0.007195176001233594,0.009219868366294584,-0.9999316093961723,0.0,0.6419701216989108,0.23547527249717806,0.30405624505114637,1.0,-0.11708399999998978,-0.15388182857141516,-0.4457917324079541,1.1479999999999844
0.4491659020177966,0.4351953243694672,-0.12604839180686186,-1.5303811161101006,0.06930596506549279,1.9578599631379394,0.17818817720890875,-0.10486379837340878,-0.6071697867609654,-0.01273463553525071,-0.9095724317866137,-0.054702155270100764,0.32076533789602224,0.3161589244373587,0.6093612410680066,0.7928752329058505,0.0029137312436246163,0.0,0.7928471644089311,-0.609297698877567,-0.011420811373412549,0.0,-0.007280088900050885,0.009269721817733681,-0.9999305338687428,0.0,0.6398664974927565,0.23281700524199417,0.30402957756415105,1.0,-0.12831371428570285,-0.16864088163263805,-0.49619057221023427,1.1649999999999825
0.4472653555005375,0.4243548936999956,-0.12627092461600903,-1.5466641629013167,0.06823902304142132,1.9637571084408796,0.184274120859814,-0.12482751418759254,-0.6441836995327973,-0.008478119240052512,-0.9734745807506876,-0.06045633482993404,0.3537917616636932,0.37178216517967727,0.6162333483817675,0.7875449867624655,0.003178217851493674,0.0,0.7875212790623851,-0.6161694678814944,-0.011232487515657676,0.0,-0.006887901042901101,0.00942492903906722,-0.9999318614444845,0.0,0.6376703046357672,0.22992943224610288,0.3041774831097879,1.0,-0.13954342857141588,-0.1833999346938609,-0.5465894120125145,1.1819999999999806
0.4452627031956799,0.41344452886378447,-0.12647521439712386,-1.5630865772547353,0.06709671714460899,1.9696114128552196,0.1905064007710708,-0.13095315176537445,-0.6993329273515642,-0.013451202066201642,-1.0559147070243007,-0.07511297119073028,0.38243773368714007,0.3959880546063337,0.6236506275056438,0.7816836850107893,0.0033553391747983595,0.0,0.7816634256283409,-0.6235869948492672,-0.011058742742088876,0.0,-0.006552219056030539,0.009519721048174917,-0.9999332194384816,0.0,0.6352628499123,0.22678028514494117,0.3042911829229405,1.0,-0.15077314285712895,-0.19815898775508378,-0.5969882518147946,1.1989999999999787
0.44287807566621284,0.40125517324945925,-0.1266956410394584,-1.5816833695119779,0.06584399291363728,1.975992517714559,0.19779406826087143,-0.14997707092990795,-0.7390855277873137,-0.014580351877981124,-1.0912264195023507,-0.06983760877739753,0.38688383621982203,0.44400588975487737,0.6317894659532581,0.7751210358924722,0.003193325646728181,0.0,0.7750993192447464,-0.6317258425433488,-0.01114684127610861,0.0,-0.006622972334912325,0.009517784678652885,-0.9999327717463119,0.0,0.6326026725831075,0.22333738710314843,0.304230895058247,1.0,-0.162002857142842,-0.21291804081630664,-0.6473870916170749,1.2159999999999769
0.44020697937079567,0.3882220974743516,-0.1269542942226237,-1.6011579400506397,0.0645265682198993,1.9828221086885909,0.20563362705030255,-0.1659247601895424,-0.7721225403890658,-0.012054043321724958,-1.162810698767947,-0.07145247086821518,0.39693552746090427,0.47358081923210915,0.6399687140825254,0.7683811195589831,0.0033536550285807915,0.0,0.7683621667412646,-0.6399046473681083,-0.011062092865932363,0.0,-0.006354006196841178,0.009656400906375942,-0.9999331880314734,0.0,0.6299875622526288,0.21986982664438148,0.30430463355348614,1.0,-0.17257199999998368,-0.2268089142856929,-0.6948212937839268,1.2319999999999751
0.4372857777838417,0.374497242433444,-0.12720201452867902,-1.6216455190756458,0.0629633178403399,1.9897725609254113,0.21405578762901178,-0.1788572440343479,-0.800061330548098,-0.015370254980619833,-1.2158567630513357,-0.10157386712433979,0.4167634003406671,0.508564923538451,0.6485642272399154,0.7611401264396926,0.0033012072440702736,0.0,0.7611219237774006,-0.6485011120262785,-0.010975962248347348,0.0,-0.006213528354370834,0.009631423116949311,-0.9999343117195908,0.0,0.6271682852711279,0.21616464971780053,0.3043396279957562,1.0,-0.18314114285712538,-0.2406997877550791,-0.7422554959507787,1.2479999999999734
0.43405318509747204,0.36012122298467925,-0.12745425956713202,-1.6429852216558285,0.06138532777925053,1.997039461062181,0.22317130195751436,-0.1928282753463357,-0.8491714443601214,-0.014678808709402004,-1.2580674230535835,-0.09700623892605302,0.4452840239902539,0.5399151128762353,0.65894932960114,0.7521670005214058,0.003366191623780295,0.0,0.75215081597694,-0.6588864152478762,-0.010889845188756287,0.0,-0.005973159261564609,0.009707926870827319,-0.9999350366520351,0.0,0.623819998268052,0.2117335568217829,0.3043846556949437,1.0,-0.1950314285714098,-0.2563270204081386,-0.7956189733884871,1.2659999999999714
0.43067066977608,0.3460814390111898,-0.12772654040194623,-1.6639062867097825,0.05977917165716451,2.003900006559596,0.23230856099348568,-0.22424116870688704,-0.9154985666087663,-0.014747160519499989,-1.2893577628980757,-0.09750700006399181,0.43278758581472926,0.5722158426886518,0.6687443706531234,0.7434728461632272,0.003136979266243483,0.0,0.7434549595567052,-0.6686821205209483,-0.010940370530940942,0.0,-0.006036342687239071,0.009648699766311192,-0.9999352304823457,0.0,0.6206333084835992,0.20747972359979833,0.30431796515491455,1.0,-0.20560057142855148,-0.2702178938775248,-0.8430531755553391,1.2819999999999696
0.4267859711399585,0.33048558837374425,-0.12799432465890834,-1.686858332664781,0.058023762253430734,2.0114632239587857,0.24258762768511427,-0.22892174559184725,-0.9149219063219679,-0.003949300072219101,-1.3526617376543526,-0.1101806477249036,0.43259907485014076,0.6180646342188341,0.6796172187090795,0.7335472167984604,0.0031086432050789507,0.0,0.7335299901540265,-0.6795549075256578,-0.010937463309052039,0.0,-0.005910765823991027,0.00971375843339524,-0.9999353507824753,0.0,0.6170848317310685,0.20276312999485172,0.30431395456592114,1.0,-0.21683028571426455,-0.2849769469387477,-0.8934520153576192,1.2989999999999677
0.4226433690778294,0.31422903692716087,-0.1282121659693095,-1.7105013752096967,0.05603849472528041,2.01922107801435,0.2533353953119919,-0.25340302026388495,-0.9555641977912938,-0.011739850862488776,-1.4183247784576654,-0.12165852826050617,0.45418832995619673,0.6359523075793159,0.6907449708867389,0.723078225856851,0.003164077684734801,0.0,0.7230633637460945,-0.6906835812305311,-0.010784689516129993,0.0,-0.00561290572098444,0.009737486176503343,-0.9999368363313403,0.0,0.6133491092999582,0.19786675721354616,0.3043619457364071,1.0,-0.2280599999999776,-0.2997359999999706,-0.9438508551598994,1.3159999999999659
0.4181653167724039,0.2973852699950184,-0.12840326876585043,-1.7348485969945204,0.05397987870376795,2.0269963019014323,0.2648013698219236,-0.2748446606515225,-0.9846979589747198,-0.01501436484944444,-1.471758867628092,-0.12814154482755147,0.4512339324850855,0.6870723250463986,0.7031018720142056,0.7110688949073668,0.003087258742579437,0.0,0.7110545581873825,-0.7030410449479104,-0.01074482669495842,0.0,-0.0054699477449918765,0.009750104884641037,-0.9999375056104283,0.0,0.6091419191975127,0.19243419147294433,0.3043619276650356,1.0,-0.239950285714262,-0.31536323265303007,-0.9972143325976078,1.3339999999999639
0.41324251576756243,0.2799305590267251,-0.12863574292931224,-1.7598004219002163,0.05188131313400887,2.0348395705997286,0.2768139833040809,-0.29535858312696583,-1.031537775151612,-0.01842205754318792,-1.5011947084692865,-0.12934994721975873,0.46521228828488564,0.7088387789240369,0.7145477404794031,0.6995656169004522,0.0031970498397516484,0.0,0.6995536789852147,-0.7144867280259802,-0.010682349656716026,0.0,-0.005188854749739902,0.009869746810725125,-0.9999378300095854,0.0,0.6052615477001084,0.18732714672550843,0.30444213117922303,1.0,-0.2505194285714037,-0.32925410612241635,-1.0446485347644596,1.3499999999999621
0.4082369165388574,0.2630040167648822,-0.1288675898737501,-1.7837614474848251,0.04981916261892416,2.042206575697222,0.28860340257755357,-0.32370169729424236,-1.05500696478661,-0.017162238708314112,-1.5046359211906166,-0.12148170994575695,0.4574672394970555,0.7361459059688963,0.7263287401848896,0.687325786925188,0.0032512628793439713,0.0,0.6873155626712416,-0.726267533068694,-0.010655262616965252,0.0,-0.004962445634817181,0.009974059079772724,-0.9999379442139371,0.0,0.6012125319905285,0.18199035417432374,0.30450871485806846,1.0,-0.26108857142854536,-0.34314497959180257,-1.0920827369313115,1.3659999999999604
0.40240363914341676,0.2445672039619274,-0.12914755843622563,-1.80978774297827,0.04743168169994342,2.050107767771999,0.30159026317613874,-0.36028286701281004,-1.0896624633843122,-0.012801831376036719,-1.5365346422181612,-0.12811867500822044,0.46169418448000543,0.7754054254140567,0.7392019282153214,0.6734618763900969,0.0032182717550291876,0.0,0.6734529030394091,-0.739141584471925,-0.010566569610470651,0.0,-0.004737514524435715,0.009978375201518994,-0.9999389921312541,0.0,0.5967503726081875,0.17598104994716748,0.3045162474485624,1.0,-0.2723182857142584,-0.3579040326530254,-1.1424815767335919,1.3829999999999585
0.3962300971822423,0.22550846546083614,-0.12938175400597363,-1.8362629296688422,0.04499477454422343,2.0580324590071566,0.315219492065543,-0.3569260993047312,-1.1090322673694166,-0.013494113648709106,-1.5392544855675212,-0.12536850669841607,0.4598277923990672,0.8128327337242046,0.7523730109222313,0.6587140070076343,0.0033847169705648835,0.0,0.6587083331729708,-0.752312727072912,-0.01047088314390121,0.0,-0.004351035509048806,0.010107745757362452,-0.999939449149649,0.0,0.5920921733320761,0.1698296774151931,0.30460380417668126,1.0,-0.28354799999997143,-0.3726630857142483,-1.192880416535872,1.3999999999999566
0.3896384773371187,0.2060015414053657,-0.12956332899154457,-1.8632730181853945,0.042362206571908013,2.0657299776082643,0.3292256931657071,-0.39557286738891445,-1.1482090090890869,-0.015340196732758165,-1.575173232420628,-0.1490404290174789,0.4409471136113095,0.8270271457082117,0.7656272532413971,0.6432613964111369,0.003229842478553792,0.0,0.6432554280677599,-0.7655676316240625,-0.010459568446880722,0.0,-0.004255655682732451,0.010085938551780568,-0.999940079823906,0.0,0.5871645582813915,0.16346198078487154,0.3045927137682073,1.0,-0.2947777142856845,-0.38742213877547116,-1.243279256338152,1.4169999999999547
0.3829131333540753,0.18712277368845984,-0.12975303303283725,-1.8891115133119238,0.039796776630825086,2.0729455462661193,0.3429379419748457,-0.43800968326185064,-1.1811511872177558,-0.013406993452971677,-1.6549041827755222,-0.15660953894533328,0.4407582549320493,0.8757714580160416,0.7792268187696774,0.626718813992445,0.0031368773007012505,0.0,0.6267133053266079,-0.779167769193586,-0.01042915517656632,0.0,-0.0040920728596624545,0.0100927944697866,-0.9999406934611181,0.0,0.5820545709398961,0.15678518193923488,0.3046014442587994,1.0,-0.30600742857139757,-0.40218119183669404,-1.2936780961404324,1.4339999999999529
0.37414850140147726,0.16421277528181025,-0.130111469183908,-1.920216419515533,0.03663756737400424,2.0814076852127528,0.35972162352767545,-0.47726260212372157,-1.21586237000798,-0.016164765721760423,-1.6889353220524428,-0.16937700421313506,0.42183499698742605,0.8881161158697364,0.793960954918089,0.6079454937430977,0.0030042643401664323,0.0,0.6079401141596028,-0.7939024720111945,-0.010412945372554744,0.0,-0.0039454862924418466,0.010094079199733888,-0.9999412696268843,0.0,0.5764844621147929,0.14929202213191187,0.30456684501089515,1.0,-0.317897714285682,-0.4178084244897535,-1.3470415735781407,1.4519999999999509
0.3668948481931167,0.14567055409466814,-0.130267146419076,-1.9449230532699961,0.03398939982056384,2.087974964028862,0.37331180088537536,-0.5078165988736258,-1.228419081496719,-0.012201170400635383,-1.687272447272783,-0.1811308130880702,0.42270252480870835,0.9051995635007204,0.8069199510834473,0.5906369526553295,0.002988244086668567,0.0,0.59063303551754,-0.8068624071031059,-0.01031601959704888,0.0,-0.0036819914512976615,0.01008935195569291,-0.9999423222946746,0.0,0.5713425725715314,0.14257327100009945,0.3045946523968851,1.0,-0.32846685714282364,-0.43169929795913975,-1.3944757757449926,1.4679999999999491
0.3580511161659817,0.12421962008043001,-0.13049242171817788,-1.9732523393292418,0.030923773529709094,2.09524270137658,0.389209976127271,-0.5376912341881522,-1.2581278891015506,-0.01479541658043283,-1.6804978939753616,-0.18884617636240847,0.41960168327457986,0.9318885979016523,0.8200850231364774,0.5722167507078364,0.0030482680029099195,0.0,0.5722149920183015,-0.8200279308461471,-0.010244141881565413,0.0,-0.0033622694122736885,0.010145527315751385,-0.9999428800785997,0.0,0.5660422130266404,0.13558504132714413,0.30464559079229214,1.0,-0.33903599999996537,-0.44559017142852597,-1.4419099779118445,1.4839999999999474
0.34850343279390356,0.102300766466913,-0.13079171857172156,-2.001718051155646,0.027723396111269144,2.102212540360314,0.4053955628299518,-0.5840562884089293,-1.2664043220049288,-0.018581067166582317,-1.648225029985537,-0.18537722047188826,0.38529737856400187,0.947119215066729,0.8340815856600282,0.5516151310232313,0.003066364343099526,0.0,0.5516152533851301,-0.8340253200415104,-0.010155031448658,0.0,-0.003044302112728381,0.010161773722847475,-0.9999437337067781,0.0,0.5602481814038484,0.1278327826460323,0.30471544537385503,1.0,-0.35026571428567843,-0.46034922448974885,-1.4923088177141248,1.5009999999999455
0.3390451116815003,0.08130646087783466,-0.1309477275391449,-2.028721836595937,0.02470831223334527,2.108598537440413,0.42095091481036107,-0.6066136270859792,-1.3062881792146328,-0.012397317465627191,-1.6615971928260522,-0.17566175123400551,0.36756820202395696,0.970126355710001,0.8470897393239529,0.5314227690455959,0.0030920823400474476,0.0,0.5314244588181241,-0.8470332469246262,-0.0101720241544053,0.0,-0.0027866023494143577,0.010260023010769559,-0.9999434817904285,0.0,0.5545802345304809,0.12046843455948188,0.3047432906877836,1.0,-0.35998,-0.47311657142857155,-1.5359064300000003,1.5169999999999437
0.32832987237274264,0.058978457070993105,-0.13111410453101724,-2.0572095476991827,0.021280387964999207,2.115103861051917,0.43766927843621534,-0.6448594440331575,-1.292653006431136,-0.013267371924814704,-1.6301902654282903,-0.19684331908725283,0.37031846501380933,0.9740605911799765,0.8607007384018459,0.5090833787789695,0.0030164990823648716,0.0,0.5090860355404081,-0.8606455813406382,-0.010066709382588978,0.0,-0.0025287065047550628,0.010200278144886374,-0.9999447784598806,0.0,0.548477219812313,0.11241628175467021,0.304710062425289,1.0,-0.35998,-0.47311657142857155,-1.5359064300000003,1.533999999999942
0.31700612054807736,0.036737723976073874,-0.1313178942979166,-2.0851315695562755,0.01796024980273732,2.1209732480526213,0.4540070591681806,-0.6636668329302009,-1.2966560085979086,0.0012549214561313983,-1.5921514810200077,-0.18028931320995298,0.33626561054684345,0.9577834993437241,0.8738256466838241,0.4862112870074706,0.00284085996555175,0.0,0.48621347011450466,-0.8737704340144241,-0.010121117658871002,0.0,-0.002438789152047871,0.010225553438976867,-0.9999447436555375,0.0,0.5423141955222313,0.10422223799370038,0.30468340756436196,1.0,-0.35998,-0.47311657142857155,-1.5359064300000003,1.5509999999999402
0.30604385951473245,0.015982897457258574,-0.13137641094565547,-2.1106655601713897,0.014742536300115417,2.1261605576672893,0.46922495535445014,-0.6948119112754273,-1.2965889637776846,-0.0010560138446420687,-1.5430539492073498,-0.19009476188621277,0.3309776191589647,0.9431075112309321,0.8855622126332143,0.4644911444921802,0.002879434965215283,0.0,0.4644952766624264,-0.8855079006042628,-0.010032089858827097,0.0,-0.0021100951150705427,0.0102217204333106,-0.9999455304815302,0.0,0.5365448804757128,0.0966125673083052,0.30473692706244804,1.0,-0.35998,-0.47311657142857155,-1.5359064300000003,1.5669999999999384
0.29319013616265654,-0.007102731541617398,-0.13151097330505596,-2.1385873501925357,0.011178062551467392,2.1316297115017955,0.48589283364805896,-0.722101629864788,-1.2811214698552589,-0.0011230229706501284,-1.5292150010932168,-0.19434479875137203,0.3193399435245661,0.9092793635976197,0.8981481998932043,0.4396599269459393,0.003115536502225057,0.0,0.43966818654833173,-0.8980947800547094,-0.009919610727890174,0.0,-0.0015632383554206042,0.010279280710961354,-0.9999459448759764,0.0,0.5301141208958435,0.087979228252182,0.3048351260763399,1.0,-0.35998,-0.47311657142857155,-1.5359064300000003,1.5849999999999365
0.28157996393287754,-0.02740863017823247,-0.13149089032897404,-2.162754793287015,0.008047698353064443,2.1359186734755293,0.5004614870860756,-0.7270365749181813,-1.2530995386926311,0.0010305009891232895,-1.500227368805755,-0.19049677844388052,0.26855703337825665,0.9287183158718104,0.9086396167807682,0.41754575994764564,0.003214353348610562,0.0,0.41755638688381796,-0.9085866396209258,-0.009885796684809307,0.0,-0.0012072772257059605,0.010324999069898574,-0.9999459669781698,0.0,0.5243401169356868,0.080484933838726,0.3049195158365856,1.0,-0.35998,-0.47311657142857155,-1.5359064300000003,1.600999999999935
0.26862977263946625,-0.048652897073378214,-0.13163051382655785,-2.187854986708655,0.004733938624341804,2.1400647842046445,0.5156427038803918,-0.7794188888218054,-1.2433087239882574,-0.007589426694181441,-1.4274547220128397,-0.18089682007171076,0.23705230930872856,0.8888354112522251,0.9193484636809934,0.3934070432048339,0.0031697926485823816,0.0,0.39341860596578,-0.9192958450810594,-0.009884158934943162,0.0,-0.0009745392924536134,0.010334240702781806,-0.9999461254198969,0.0,0.5182113377645018,0.07232454150022191,0.3049248603504646,1.0,-0.35998,-0.47311657142857155,-1.5359064300000003,1.617999999999933
0.256276802166449,-0.06838986140136563,-0.1315982053005595,-2.2108958750424192,0.0015683420336395516,2.143575866846823,0.5294829600549666,-0.779248227336524,-1.2029812689338109,0.00230189218829213,-1.3858005169128673,-0.1929528428797422,0.1872669991060812,0.8530100220404538,0.9286398373107716,0.3709439770795072,0.003060282514817156,0.0,0.3709557271597071,-0.9285881488607516,-0.009830828245057432,0.0,-0.0008049599497557125,0.010264725695496281,-0.9999469923180306,0.0,0.5124095874147094,0.06483596037297414,0.30490140636446644,1.0,-0.35998,-0.47311657142857155,-1.5359064300000003,1.6339999999999313
0.24257585190022443,-0.08917185763886773,-0.13170406200085918,-2.234735609856683,-0.0017031587206286865,2.146985699435863,0.543973667001025,-0.8235749323112722,-1.2041603923766722,-0.007654622293173186,-1.4062256429752034,-0.19128072506876553,0.19259341851875253,0.8360763823768077,0.9380764021441457,0.3463867872800276,0.0030990707195389707,0.0,0.3464003025999329,-0.9380252388922338,-0.009809610647282625,0.0,-0.0004909224163185955,0.010275881140019434,-0.9999470812307907,0.0,0.5062881889788164,0.05673973691662109,0.304911071718936,1.0,-0.35998,-0.47311657142857155,-1.5359064300000003,1.6509999999999296
0.22865856896095718,-0.10968400720927725,-0.1316526353901262,-2.2578947263655844,-0.00507351051220107,2.149938119696456,0.5580029165938505,-0.8296381352085632,-1.1785585043587046,-0.0005340988122920533,-1.3839215496517971,-0.21183271747716179,0.17547484823354606,0.8150555506248418,0.9466949701297481,0.32208677714031797,0.0030803284901778434,0.0,0.32210144396098095,-0.9466455404515925,-0.009676127457393671,0.0,-0.0002005773413335521,0.010152714920032724,-0.9999484397450115,0.0,0.5001528120381659,0.04881870397800671,0.3049207661348848,1.0,-0.35998,-0.47311657142857155,-1.5359064300000003,1.6679999999999278
0.21415757382849562,-0.12995660145954954,-0.13174294750520107,-2.2804558795983407,-0.008239051374101958,2.1524086817961687,0.5716090329837067,-0.8640982930270052,-1.1846316671039159,0.00010184333023855342,-1.311010629378331,-0.18554808478215448,0.1346410696758269,0.7865582616288119,0.9547883104202202,0.297239130896591,0.002988017729013684,0.0,0.29725414680310247,-0.9547388010776972,-0.00972321069859452,0.0,-3.73429523448654e-05,0.010172004418047338,-0.9999482631274597,0.0,0.49400231997533667,0.04077772563108099,0.3049086065291094,1.0,-0.35998,-0.47311657142857155,-1.5359064300000003,1.684999999999926
0.19929916184045132,-0.1499721856953844,-0.13174334564071327,-2.3024403499949133,-0.011464695832997637,2.1545246127650524,0.5849414823544435,-0.8885119778560344,-1.1596230284898985,0.003307886510889571,-1.2890770098867728,-0.18093474413753907,0.11155492732300022,0.7755950671723613,0.962203248238354,0.27228203604518586,0.002854615185389529,0.0,0.27229697721141316,-0.9621545425935845,-0.009681904216935433,0.0,0.00011037450004869331,0.010093457103078015,-0.9999490536728248,0.0,0.4878366993685064,0.032816031341949436,0.3048730718741264,1.0,-0.35998,-0.47311657142857155,-1.5359064300000003,1.701999999999924
0.18478371241657748,-0.16863571365660593,-0.1319110018046973,-2.322521189193319,-0.014418020187906068,2.156229040942755,0.5969921630422502,-0.8956195251903507,-1.1603657940419303,-0.0014163746749833008,-1.2441337351512285,-0.18445716704018209,0.11465020135962324,0.7601298159286857,0.9690037614273359,0.24699007977765447,0.0028909742840098657,0.0,0.24700665742503686,-0.9689554986900926,-0.009679857806446642,0.0,0.00041040447877044306,0.010094102861883184,-0.9999489690257086,0.0,0.4817052017273936,0.024748291409359028,0.304890294827664,1.0,-0.35998,-0.47311657142857155,-1.5359064300000003,1.7189999999999221
0.1690521192847024,-0.18812628925855943,-0.13205857458990444,-2.3432452833658193,-0.01753627101127341,2.157514173714103,0.6093306902013498,-0.9411908162110346,-1.1232076038963492,-0.024919709993045554,-1.1826649673010572,-0.18527879022713187,0.07637611628830895,0.7142538738457104,0.9747713589367264,0.22314623379582998,0.0027024138456011983,0.0,0.2231620992590262,-0.97472328659533,-0.00969220946489115,0.0,0.0004713347407286905,0.010050958050130648,-0.9999493767615621,0.0,0.47590772695494116,0.017184766856425483,0.30485752004949596,1.0,-0.35998,-0.47311657142857155,-1.5359064300000003,1.7349999999999204
0.1527861603962024,-0.20741353122039582,-0.13220207319028102,-2.363382914933352,-0.02059113368611556,2.158602265041977,0.6213300357622289,-0.9565914046276836,-1.1278129922108489,-0.011980401492089256,-1.170315490681551,-0.16165954907291502,0.035767078018762076,0.688563758329113,0.9802835699262042,0.19752861717884468,0.0027045941207907162,0.0,0.19754575708668337,-0.9802359529412252,-0.00969006293401943,0.0,0.0007370898548434979,0.010033483754627913,-0.9999493916705442,0.0,0.46976936247756534,0.009150440609881485,0.30485765658476877,1.0,-0.35998,-0.47311657142857155,-1.5359064300000003,1.7519999999999185
0.13601870209314249,-0.2263947463029174,-0.1324180348891939,-2.3827496018556973,-0.023657372455552817,2.1593115215879153,0.6327913606675818,-0.9868062301641872,-1.0966780978079593,-0.007127949348379376,-1.1454193538368538,-0.18291014057547958,0.027255567149227295,0.6654083748874626,0.9851212102158484,0.17178219489330815,0.002797427694858197,0.0,0.17180144519456825,-0.985074713368476,-0.009634283174234034,0.0,0.0011006981666383808,0.009971730807685927,-0.9999496752578326,0.0,0.4636775742446948,0.0010660614922760809,0.3049132252627608,1.0,-0.35998,-0.47311657142857155,-1.5359064300000003,1.7689999999999166
0.1189338467752298,-0.24511677471449136,-0.13254247029120012,-2.401489112024663,-0.02661621049598438,2.1597426530327075,0.6437121721282164,-1.008767053582258,-1.1045708868704844,-0.005414481754812583,-1.0894107593303302,-0.16954256854967004,0.027167132027809654,0.6328377097312177,0.9892407539245188,0.14620014929015895,0.00299900376681835,0.0,0.1462225412469612,-0.9891954683876218,-0.00959378204266405,0.0,0.0015640186811253787,0.009929273302145705,-0.9999494804125139,0.0,0.4576010006002876,-0.006893200913526271,0.3049969998734017,1.0,-0.35998,-0.47311657142857155,-1.5359064300000003,1.7859999999999148
0.10233092393876132,-0.2623461657215627,-0.13271991347960346,-2.41875327158552,-0.02935326013998752,2.159781983149181,0.6536599291955933,-1.037764871661433,-1.065022482143847,-0.002420397239852607,-1.0623186542185836,-0.17787206449896611,0.001058764768737814,0.630069312646936,0.9925420896241088,0.1217908452616307,0.002817310113049221,0.0,0.12181257656256905,-0.9924969037123579,-0.009609329517664147,0.0,0.001625874502767355,0.009881038043796933,-0.9999498595526071,0.0,0.4517943930766876,-0.01444248698418364,0.30493388277103683,1.0,-0.35998,-0.47311657142857155,-1.5359064300000003,1.801999999999913
0.08422203183771979,-0.2803253789422979,-0.132980508369367,-2.436333604303372,-0.03226891061574454,2.1597324185167923,0.6636836897789488,-1.079452820299986,-1.0314382683424292,-0.016706529968344323,-1.0213391444714177,-0.16179055606220108,-0.0077194566142020265,0.5621554332808373,0.9953860871051214,0.0958042543741569,0.002971420969120448,0.0,0.09582853323490026,-0.9953424747732644,-0.009539236420678606,0.0,0.002043721416385924,0.009780158426200556,-0.999950084606192,0.0,0.44572164036176226,-0.022500677153131046,0.30495455583029485,1.0,-0.35998,-0.47311657142857155,-1.5359064300000003,1.8189999999999111
0.06570978795012104,-0.29809587910447993,-0.1331275953094954,-2.453311243008996,-0.03500319674538992,2.159448974172422,0.6731833509951396,-1.1027241453134522,-1.0403380038627656,-0.013354415413516146,-0.9741285858010257,-0.16832481892752885,-0.017997383898927154,0.5428873800195912,0.9975387756677931,0.06990127931993173,0.003308940894766947,0.0,0.0699299506438486,-0.9974967107842764,-0.009532097287952866,0.0,0.002634402584092921,0.009740218261009698,-0.9999490927398518,0.0,0.43966103072569895,-0.030454970639770033,0.3050353176490075,1.0,-0.35998,-0.47311657142857155,-1.5359064300000003,1.8359999999999093
0.04777950457995789,-0.31436928849968654,-0.13334419663214894,-2.4688580835468215,-0.03763060616941387,2.158728985037248,0.6816315686336256,-1.1063100997993278,-1.0276501289781335,-0.012646903490882254,-0.9414413970835147,-0.16621066999132691,-0.056234268415908416,0.5144487992178575,0.9990201697823036,0.04392691369237939,0.0031422162255642975,0.0,0.04395495795333004,-0.998978753037634,-0.009495238380535799,0.0,0.0027219631361836694,0.00962423593748657,-0.9999499812487146,0.0,0.4334920160311682,-0.03846680770021231,0.3049762974714,1.0,-0.35998,-0.47311657142857155,-1.5359064300000003,1.8529999999999074
0.028273904243589144,-0.3312683366895744,-0.13361462680499236,-2.4845519137273406,-0.04029216804907926,2.1578913971387,0.6901515816067995,-1.145660793518279,-0.9917257297776503,-0.009440539355235832,-0.8987365618951797,-0.15508830881143154,-0.04725730572437711,0.4867767256692896,0.9997981275160741,0.019315593657120822,0.0033703053619938486,0.0,0.019346744746598865,-0.9997583667459773,-0.009468816733600012,0.0,0.003186656520715092,0.009532293203785507,-0.9999494890275687,0.0,0.42779736614217956,-0.04602886562389532,0.3050260220119462,1.0,-0.35998,-0.47311657142857155,-1.5359064300000003,1.8689999999999056
0.008277280838547356,-0.34774483323413036,-0.1339185434688893,-2.4996657956762327,-0.04288536458389528,2.15666358570121,0.6981260951864139,-1.2020099748700164,-0.9335135497438797,-0.02765801098906996,-0.8690453558015658,-0.15347421459170038,-0.06321271750129927,0.4564957211321843,0.9999614152751191,-0.006827117062706944,0.003362340673086502,0.0,-0.006795003138672151,-0.9999224294300375,-0.009471533998519552,0.0,0.0034268091024695635,0.009448503339527348,-0.9999494901063846,0.0,0.42168243622524143,-0.054058632566882724,0.3050324633892148,1.0,-0.35998,-0.47311657142857155,-1.5359064300000003,1.8859999999999038
-0.012171202672470906,-0.3638725082842216,-0.13415698483868482,-2.51412873932905,-0.0454546911585377,2.1553732659206126,0.7055245561093805,-1.2097912928689691,-0.9489355937193684,-0.023916137072439083,-0.8175947375473294,-0.1474391720914714,-0.08430807353414621,0.4314893270938163,0.9994460944628191,-0.03279144317288407,0.003601724429453846,0.0,-0.03275639877872438,-0.9994096011105603,-0.00939225469672422,0.0,0.003907658796044378,0.00926925121494819,-0.9999494043123622,0.0,0.41560809737021454,-0.06205351869426404,0.3050986883105934,1.0,-0.35998,-0.47311657142857155,-1.5359064300000003,1.9029999999999019
-0.03309689295244409,-0.3794659530294894,-0.13448768854083326,-2.5279582412226413,-0.04784998601590248,2.1537731883849496,0.7123853849628494,-1.2367354504599557,-0.9284774646557457,-0.015933017995452024,-0.7873546575428402,-0.13920680822937195,-0.08840923073369128,0.39370997572151767,0.9982502466737035,-0.05885484560391113,0.003646788455323523,0.0,-0.05881828684910778,-0.9982145149079031,-0.009430708378712137,0.0,0.004195400828933826,0.0091998862422326,-0.9999488790458313,0.0,0.40949772923448174,-0.07006001537809851,0.30512127097038133,1.0,-0.35998,-0.47311657142857155,-1.5359064300000003,1.9199999999999
-0.05461863841542425,-0.3945284560005425,-0.13483628592618635,-2.541121261897682,-0.05027995129251185,2.1520662584805152,0.7186651147496331,-1.2622472795957838,-0.8618267427222505,-0.017754990519662995,-0.7642705804101889,-0.14177575410338158,-0.10158901362514852,0.3607343955997452,0.9963731412790833,-0.08489664968271793,0.0037241256033884265,0.0,-0.0848587538014049,-0.9963392957148873,-0.009367316523049786,0.0,0.004505833221410516,0.009017491546378723,-0.9999491898657609,0.0,0.4033896852050249,-0.07813209349930708,0.30514387324860937,1.0,-0.35998,-0.47311657142857155,-1.5359064300000003,1.9369999999998981
-0.07523220867060028,-0.40818618925595096,-0.13518743446949882,-2.5528769669042277,-0.052419647935888804,2.150274421686119,0.7241259239041361,-1.2790653977922757,-0.8320941037204455,-0.01459044621699093,-0.6892731707373968,-0.12703820609633787,-0.11708637476179373,0.3404443782809899,0.9939839912965875,-0.10937367520553898,0.0037377960547537218,0.0,-0.10933482334047873,-0.9939511274199646,-0.00937014444371154,0.0,0.004740124999798756,0.008905273755972096,-0.9999491123623827,0.0,0.3976415486888869,-0.0856939538831731,0.3051618896352953,1.0,-0.35998,-0.47311657142857155,-1.5359064300000003,1.9529999999998964
-0.09760147602407647,-0.42216803105982137,-0.13559752766273397,-2.5646771621565585,-0.054518626980266015,2.1484234387969137,0.7293968024683747,-1.3266128270269275,-0.7850401412736076,-0.031911321882763015,-0.6780666873095449,-0.14264252091093146,-0.11629505628960891,0.310888282710529,0.9907748803442686,-0.13538856094820845,0.003977555075855168,0.0,-0.13534637021598467,-0.9907436095580209,-0.009444950529759246,0.0,0.0052195760265325575,0.008819641894565272,-0.9999474835924909,0.0,0.39157890555714475,-0.09374204874930629,0.3052237722015697,1.0,-0.35998,-0.47311657142857155,-1.5359064300000003,1.9699999999998947
-0.1203715022184184,-0.43544041610583756,-0.13591878511153763,-2.5759783321547265,-0.05663157033812455,2.1462527087493113,0.7341692025295126,-1.3502805057902818,-0.7632431546840321,-0.03099447639187989,-0.6336908444341137,-0.12145890335981326,-0.12032176034226263,0.26369316485594835,0.9869163078603471,-0.1611313251099551,0.0036938122338431465,0.0,-0.16109097299652614,-0.9868849243145399,-0.009412304761631275,0.0,0.005162084131524747,0.008694284648910491,-0.9999488798442961,0.0,0.38541624594451096,-0.10171869221156314,0.3051451971558694,1.0,-0.35998,-0.47311657142857155,-1.5359064300000003,1.9869999999998929
-0.14362580626725902,-0.4482001305038313,-0.1362732024805074,-2.5863079952135286,-0.0586440061103553,2.1443336862883964,0.7383248221218924,-1.369125320772327,-0.7242703084498442,-0.01936963127209337,-0.6051821022667966,-0.11320027694434147,-0.11970931992947705,0.23492858471903014,0.9823875531982857,-0.18675760331652602,0.0041279323832326435,0.0,-0.1867130750887962,-0.9823601327438144,-0.009356499754134988,0.0,0.0058026253919838955,0.008421132083820948,-0.999947705669145,0.0,0.37940995144293327,-0.10976515040494941,0.30527531217360926,1.0,-0.35998,-0.47311657142857155,-1.5359064300000003,2.003999999999891
-0.16731365244908195,-0.4601556017698006,-0.1366610763695753,-2.596251924367137,-0.06046155228451593,2.1420428920564563,0.7420101829148665,-1.376392365956785,-0.6967046334755924,-0.018721216282437596,-0.562798109492522,-0.09195583955006134,-0.12974818933410232,0.21098209349330016,0.977174657431541,-0.21235846394192193,0.0037839882381114375,0.0,-0.21231570383998583,-0.9771458279454567,-0.009424422153523345,0.0,0.005698973854834255,0.008406068206124204,-0.9999484285273494,0.0,0.3732297864198452,-0.11775591877820395,0.305185526651094,1.0,-0.35998,-0.47311657142857155,-1.5359064300000003,2.0209999999998893
-0.1914072537052309,-0.4715133129188341,-0.13708698389438215,-2.6053403570913822,-0.062276060770343644,2.1399514721306767,0.745198786831404,-1.418960721181981,-0.6520982786695856,-0.017010021091311903,-0.49633132852744166,-0.08863019973532749,-0.10150025061290532,0.1744170207813558,0.9712967991093777,-0.23779837789447184,0.0038995399527836975,0.0,-0.2377540498093516,-0.9712699528413431,-0.009404116547298587,0.0,0.006023905625371362,0.008207214898994258,-0.9999481757494327,0.0,0.36713949803984697,-0.1257953537897392,0.3052285463755677,1.0,-0.3549674285715028,-0.46652862040826093,-1.5134100620609048,2.0379999999998875
-0.21555565634041196,-0.4817447140795628,-0.1374081965035468,-2.61357537481666,-0.06385302944034635,2.1380329224666457,0.7476201802745519,-1.4114395798861155,-0.582569601413459,-0.027883183713482446,-0.47346078968344507,-0.08599532966429256,-0.10769078969531252,0.12681898076717968,0.9653080038716864,-0.2610471608813847,0.003947702906441882,0.0,-0.2610019541135112,-0.9652827110077296,-0.0093816139179392,0.0,0.0062598135623554985,0.00802594335566012,-0.999948198141992,0.0,0.3615270044232745,-0.13324246643584464,0.3052144095743957,1.0,-0.3443982857143611,-0.4526377469388747,-1.4659758598940527,2.0539999999998857
-0.23805420936262536,-0.4905610448935084,-0.13755430251405937,-2.6206433639210935,-0.06512014379710795,2.1360673826348067,0.7494724040867746,-1.393423600027136,-0.523340359340748,-0.003793960617085289,-0.4187097001568056,-0.06858871185303807,-0.1165889231570671,0.10363463432621199,0.9585388787697572,-0.2849042064149833,0.0036821128545733786,0.0,-0.2848601890972443,-0.958512652455723,-0.009429456558296717,0.0,0.006215963273099534,0.007989767180543617,-0.9999487613977969,0.0,0.35564272271486785,-0.1408528539470295,0.3051565917728688,1.0,-0.33316857142864803,-0.4378786938776518,-1.4155770200917726,2.070999999999884
-0.26155384892644007,-0.49896695031120253,-0.1376501103184597,-2.6271747331786233,-0.06622076398219556,2.1343082803052953,0.7508458889570387,-1.3636777735785581,-0.4739841246878457,0.010770881145054829,-0.3590332627306593,-0.062278271732124114,-0.10906534450356664,0.06948436681369248,0.951447057874425,-0.30775800734729497,0.00377516581507604,0.0,-0.30771220990831466,-0.951421965448294,-0.009496653992580881,0.0,0.006514572414602571,0.007874050485037032,-0.9999477784740629,0.0,0.3500356440321304,-0.1482453855571081,0.3051898018656951,1.0,-0.321938857142935,-0.42311964081642894,-1.3651781802894924,2.087999999999882
-0.2833794152383905,-0.5059879655082286,-0.1376740497807902,-2.632422186054541,-0.06716975944700357,2.1328908101328214,0.7517261599345195,-1.3439577189697443,-0.4162560427452373,0.0030453773611464063,-0.31418173831030627,-0.06656207123579665,-0.08670073033632973,0.04573301691703428,0.9440675777708356,-0.3296971022826284,0.004120224454244362,0.0,-0.3296482581209031,-0.94404609867835,-0.009472929285601863,0.0,0.0070130141795545775,0.0075850066255256365,-0.9999466412297247,0.0,0.3446768091210719,-0.15546030215729775,0.305308058764642,1.0,-0.31070914285722195,-0.40836058775520606,-1.3147793404872123,2.10499999999988
-0.3058780540095834,-0.5125515963220302,-0.13757644807957986,-2.6374344346544145,-0.06791692545469623,2.1314242184070142,0.7521740169065438,-1.3154511675362104,-0.3626067707194248,-0.006185370432411167,-0.28484535676038264,-0.0459505041065011,-0.0847179594670347,0.018442528150808615,0.9369947585309077,-0.3492906495843716,0.004196605740572178,0.0,-0.349240385107015,-0.9369744247399078,-0.00953035649024021,0.0,0.007261116457871919,0.007464413586398544,-0.9999457778887795,0.0,0.33976507151953567,-0.16193087839062906,0.3053355249516009,1.0,-0.30014000000008023,-0.39446971428581984,-1.2673451383203602,2.1209999999998783
-0.32778707371045446,-0.5181856406402803,-0.13740253024843802,-2.641924040337139,-0.06856771956404405,2.129939837252205,0.7523135043256045,-1.2606619330396507,-0.3199280839884771,0.0074178493283919116,-0.24641874653264997,-0.0343042546579115,-0.08663875684893801,0.0027002599898067092,0.9293677653683557,-0.3691089393240456,0.0038593401658072266,0.0,-0.36906069521350326,-0.9293460072864126,-0.009536712774178072,0.0,0.007106885140129693,0.007438925897614773,-0.9999470758820663,0.0,0.3346605590765274,-0.16849768029696097,0.3052506230891905,1.0,-0.28891028571436717,-0.37971066122459696,-1.2169462985180801,2.1379999999998764
-0.34910360566731247,-0.5229932638709314,-0.13718993741292404,-2.645650865022291,-0.06908464797518112,2.1288399070683095,0.7522848631504336,-1.2214928952586654,-0.2652419878479015,0.019479730360430363,-0.20772065855406224,-0.027566725704949124,-0.06058181745141359,-0.0018472198257976887,0.9215804485871277,-0.3881435700858088,0.0038461258688917105,0.0,-0.3880950642483973,-0.921559671087744,-0.009525787730657646,0.0,0.007241947178279362,0.007286257546806674,-0.9999472309337272,0.0,0.32982453982035875,-0.17486399905144073,0.30523478246523505,1.0,-0.27768057142865415,-0.36495160816337413,-1.1665474587158,2.1549999999998746
-0.3698527855914146,-0.5270886087097292,-0.13695437315223197,-2.648784200759612,-0.06949234268698319,2.1278433431288275,0.7519765727887832,-1.2065858426855278,-0.2208726326166099,0.008475107419595002,-0.17757417011306664,-0.019799774365990366,-0.055802320807584585,-0.02581020051633029,0.9137158367771838,-0.40631208801424956,0.003821473181891528,0.0,-0.4062634592230901,-0.9136959415439306,-0.009511835125088354,0.0,0.007356579764492166,0.0071387269190177904,-0.9999474582757556,0.0,0.3251548926404191,-0.18101298987247647,0.3052308978057249,1.0,-0.2664508571429411,-0.35019255510215125,-1.11614861891352,2.1719999999998727
-0.38869677891795906,-0.5302386833593177,-0.13672298583094028,-2.651307229907466,-0.06976150104571843,2.12700051157612,0.7513338769481691,-1.1455972353758574,-0.17947358641859862,0.025746534807383918,-0.15060686589670735,-0.018927997042161464,-0.04482545448979399,-0.0508007974716846,0.9063911532831402,-0.42240113480843283,0.0036201469328362565,0.0,-0.4223535187090405,-0.9063705720730113,-0.00952041046082449,0.0,0.007302767429900381,0.007100370726127403,-0.9999481258162425,0.0,0.3209140554282147,-0.1865418513395483,0.3051674434191354,1.0,-0.2558817142857994,-0.33630168163276497,-1.0687144167466678,2.187999999999871
-0.40801043021355154,-0.5330174600189729,-0.1364273819908829,-2.6535065086940013,-0.06993150459081188,2.1263301025053387,0.7504402330002543,-1.1324431469403962,-0.15530561101113896,0.010079286982740954,-0.12013849717642737,-0.008155768651802658,-0.03219153257129185,-0.06465503057290119,0.8986777972059752,-0.4385731062988786,0.0035488225620600865,0.0,-0.4385255431493682,-0.8986574649148557,-0.009531823517289432,0.0,0.007369719225656268,0.007009923783060784,-0.9999482727656921,0.0,0.31662012330798406,-0.19217401481822927,0.3051299951321744,1.0,-0.24465200000008636,-0.32154262857154214,-1.0183155769443877,2.204999999999869
-0.42658567421516796,-0.5352522805635737,-0.13605812528044556,-2.6552306603127547,-0.07004055517832615,2.1257838252349592,0.7494306462798859,-1.0681229271656645,-0.12060120712580306,0.025661003478550416,-0.09242285676371352,-0.003086055970118062,-0.02769668531791209,-0.06400425766788295,0.8910626132288952,-0.45384542309336806,0.0035352714326341663,0.0,-0.453797909331598,-0.8910432666843932,-0.009492169608930666,0.0,0.007458201131672615,0.006853950631685174,-0.9999486979823604,0.0,0.31253060765898755,-0.19755774546969446,0.3051214126253533,1.0,-0.2334222857143733,-0.30678357551031926,-0.9679167371421075,2.221999999999867
-0.44443806072864783,-0.5370470635162238,-0.13573596129665158,-2.6565714398306732,-0.0700779354119851,2.1253385862757006,0.7482665710767475,-1.0089312281161427,-0.09243310049773554,0.026375427257680953,-0.07226596409818177,0.0001419997226414003,-0.020966970833873333,-0.06559673777631647,0.8835492603253929,-0.4683040999998669,0.00356670758180925,0.0,-0.4682561245844792,-0.8835309807603666,-0.009484446581519087,0.0,0.0075930480579010085,0.006709972279671905,-0.9999486596286815,0.0,0.3086053644406187,-0.2027228311955467,0.3051336689293743,1.0,-0.22219257142866025,-0.2920245224490964,-0.9175178973398274,2.2389999999998653
-0.46149905991960627,-0.5383061671872245,-0.13536043966775196,-2.6575851006579354,-0.07006948159866294,2.124991756033265,0.7469227929170444,-0.9942487167462792,-0.06662622423589289,0.01388911491047258,-0.05536230117909047,0.00011075203239061031,-0.021066117828450654,-0.08073107116742692,0.8762690081364448,-0.4817895671504652,0.0034907399999351157,0.0,-0.4817421876129597,-0.8762512032908676,-0.009436117124903503,0.0,0.007605134332909769,0.006587067091195109,-0.9999493849585159,0.0,0.3048641149060668,-0.20762547250704722,0.3051090998555359,1.0,-0.21096285714294719,-0.27726546938787355,-0.8671190575375471,2.2559999999998634
-0.4767731388329113,-0.53917326941808,-0.13493756372779345,-2.658279921062599,-0.06998824239648266,2.124729858487195,0.7456705743429304,-0.9309762098534552,-0.045087408727601655,0.023500361711796838,-0.037837269406726944,0.016261818567451448,-0.012661664925296521,-0.07892954383313237,0.8696109694340928,-0.4937061510261781,0.0034271241620836774,0.0,-0.49365935954347173,-0.8695936770293694,-0.00938192447627862,0.0,0.0076122658838515544,0.006466917028236319,-0.9999501149518727,0.0,0.30152784631696694,-0.21197543157590454,0.30509565629409613,1.0,-0.2003937142858055,-0.26337459591848733,-0.8196848553706952,2.2719999999998617
-0.49227814321200436,-0.5397453624390249,-0.1345405843295215,-2.6587544216409604,-0.06986868549416327,2.1245379566318645,0.7442399181394586,-0.8927915705533308,-0.01995227821012978,0.02598809738532208,-0.025117591695134712,0.0041715497643698175,-0.007687031536469558,-0.08514241520830534,0.8627348068525476,-0.5056264540553019,0.0033598966899658087,0.0,-0.5055801666572528,-0.8627179023108926,-0.009341467568103272,0.0,0.0076220828951962805,0.006360634551548228,-0.9999507218760534,0.0,0.2981406246854916,-0.2163958574024656,0.3050807063292048,1.0,-0.18916400000009245,-0.24861554285726442,-0.769286015568415,2.28899999999986
-0.5067670248970569,-0.539993504325661,-0.1340120569486694,-2.6589659755650614,-0.06962792574870236,2.124446263932621,0.742658458424469,-0.8366264113108133,-0.009391669683233522,0.031171556716199,-0.011040242343538393,0.008494781925004247,-0.0009460427597453626,-0.09409329620279108,0.856313962524736,-0.5164261826113883,0.0033380233406213795,0.0,-0.5163801475091367,-0.8562977368153333,-0.009299251829505636,0.0,0.0076608664508831525,0.006239510327529119,-0.9999511886267721,0.0,0.2950233654450922,-0.2204841467436763,0.30508014050526144,1.0,-0.1779342857143794,-0.23385648979604157,-0.7188871757661348,2.305999999999858
-0.5206798358422263,-0.5400463667372816,-0.1336089585492323,-2.6590169790527267,-0.069384484169927,2.1244575941838963,0.7411412674305152,-0.7796198215180695,0.003477583589585718,0.03217602187020746,-0.0007933185293323567,0.012545326968970278,0.010843009783305524,-0.08716801999381611,0.8499635945899121,-0.5268123063070649,0.0033806355075573003,0.0,-0.526765811766439,-0.8499482578459101,-0.009299754833065036,0.0,0.007772740201092809,0.0061237677407972035,-0.9999510407907093,0.0,0.2920105071154396,-0.2244351422753399,0.30508766183009595,1.0,-0.16670457142866635,-0.21909743673481868,-0.6684883359638547,2.322999999999856
-0.5327903591429121,-0.5399109320444087,-0.13311416434833637,-2.6589541552920744,-0.06906225497549494,2.1244757882683287,0.7395668698301191,-0.7417040660949077,0.015403655816867604,0.030315735083599468,0.0044252785826827575,0.011129685661790354,0.00046988246830730225,-0.09455741164717069,0.8445005808529606,-0.5355261222801715,0.0033597910326466397,0.0,-0.5354795639972725,-0.8444855331946308,-0.009304174733919387,0.0,0.007820074098559338,0.006058398172807344,-0.9999510699292606,0.0,0.28940454568924556,-0.22781808530067538,0.3050815457901682,1.0,-0.15613542857152465,-0.20520656326543246,-0.6210541337970028,2.3389999999998543
-0.5457208435486346,-0.539627040478313,-0.13263756598061316,-2.6587745898719812,-0.06872396407739587,2.124507530226547,0.7379193284199702,-0.6816502562665528,0.023320544909987532,0.03146850727418,0.01228569123723383,0.022288954852205264,0.0024965630040438692,-0.08834584649350297,0.8385241735104915,-0.5448366064947674,0.003321078593123557,0.0,-0.544790017954854,-0.8385092622266832,-0.009316673119826311,0.0,0.007860971075396739,0.006003080739199085,-0.999951082881253,0.0,0.2865955348880333,-0.23143514275928515,0.30507536087436316,1.0,-0.14424514285724024,-0.18957933061237298,-0.5676906563592944,2.3569999999998523
-0.5561765496756992,-0.5391971353204744,-0.13211808693736574,-2.658525575222929,-0.06836211622085664,2.1246525435274424,0.7363147997582409,-0.6411410296038145,0.02798351928927438,0.03476615448257889,0.020229965592383756,0.020247908269780696,0.0021007014376109297,-0.092651350776596,0.8338003539941334,-0.5520386728745822,0.0033196733779519896,0.0,-0.5519920022567695,-0.8337858606373686,-0.009312086069917387,0.0,0.007908680626811104,0.005932101718127192,-0.9999511302758496,0.0,0.2843651436476326,-0.23433059060787392,0.30505870004255253,1.0,-0.13367600000009855,-0.1756884571429867,-0.5202564541924424,2.3729999999998506
-0.5667765109160428,-0.538656931553822,-0.13166095817216805,-2.658174361180221,-0.06800204657466848,2.1247858060900597,0.734671015526061,-0.6053445046151594,0.033870199281997485,0.02932133522127835,0.024606036217183252,0.025759076922260267,0.002789103600886759,-0.09878753738024376,0.8289228578302584,-0.5593360089691604,0.003297231896069476,0.0,-0.559289226045811,-0.8289085084634107,-0.009327010627724296,0.0,0.007950189538937835,0.005887379379597046,-0.9999510654278716,0.0,0.28207953665665414,-0.23728099467935063,0.30504578747653466,1.0,-0.12244628571438551,-0.16092940408176387,-0.46985761439016227,2.3899999999998487
-0.576264183278432,-0.5379646032438848,-0.13110071136208012,-2.657696772792269,-0.06759680874556645,2.1249676465038903,0.7330076204615237,-0.5345241108485314,0.044888790077932776,0.03622819229972037,0.03228498121549715,0.023552481814531196,0.007959959998893257,-0.09949161629315802,0.824654033218037,-0.5656108039331709,0.0033001321951339375,0.0,-0.5655640283969874,-0.8246401584805831,-0.009310515866401647,0.0,0.007987703688678294,0.005811630293938219,-0.9999512095813018,0.0,0.2800898182809417,-0.2399038085338266,0.30504187857859133,1.0,-0.11121657142867244,-0.146170351020541,-0.41945877458788194,2.406999999999847
-0.5850134405826173,-0.5372619077636461,-0.1306029351276655,-2.657235737280795,-0.06721375453036406,2.1251146266065852,0.7314297866779709,-0.49783816782706514,0.044931378343344625,0.03173575930745519,0.027718176083891446,0.016751024065679243,0.0075117493706902795,-0.09345795215985346,0.8206879874478823,-0.5713505788315454,0.0032388622710802137,0.0,-0.5713040569419834,-0.8206739458414927,-0.009311070818860756,0.0,0.007978089184881465,0.005791220314907919,-0.9999514047493618,0.0,0.2782305134096055,-0.24231234062159876,0.30502172169774466,1.0,-0.0999868571429594,-0.1314112979593181,-0.36905993478560184,2.423999999999845
-0.5929898468724193,-0.536601174798575,-0.13014517642474827,-2.6567466110503215,-0.06680536571330893,2.1252773972285235,0.7296981971329867,-0.44748804033793455,0.04015194504210672,0.028623427743106753,0.02806982200166192,0.017267822311351783,0.006035465449898013,-0.10481750434475416,0.8171875533873311,-0.5763458922938627,0.003265260483805795,0.0,-0.5762988105182122,-0.8171737765657612,-0.009351298827077815,0.0,0.008058023049535012,0.005760110176614319,-0.9999509434943727,0.0,0.27654397089013383,-0.2445088137765803,0.30503000969157945,1.0,-0.08875714285724634,-0.11665224489809523,-0.31866109498332174,2.440999999999843
-0.5998979057498954,-0.5358867271166253,-0.12959376012324425,-2.65623639104572,-0.06638654969332906,2.125452373647344,0.728080308620436,-0.38291878219645376,0.04193249287786625,0.03213594186020387,0.029473477607912142,0.02215449823258822,0.012691209657042067,-0.09151404177941613,0.8142542720563812,-0.580482578907336,0.00327153239772581,0.0,-0.5804354054922927,-0.8142407944300343,-0.00934963304909678,0.0,0.008091270024725983,0.005714175434115676,-0.9999509385707357,0.0,0.2751293563084307,-0.2463836394157424,0.305031487582211,1.0,-0.07752742857153327,-0.1018931918368724,-0.26826225518104163,2.457999999999841
-0.6056723114571455,-0.5352940657224691,-0.12906135649048436,-2.6557947113372036,-0.06601326187426859,2.1256042943317954,0.7265076603214307,-0.3548830456661159,0.03486620848046633,0.032130214570215386,0.026986749783882248,0.02755532506330368,0.014281689682052094,-0.08695542002700113,0.8119431537845739,-0.5837106593444561,0.0033057663602603458,0.0,-0.5836634019668939,-0.8119302553166374,-0.00932955556819216,0.0,0.008129969284105365,0.0056457226291645735,-0.9999510135078788,0.0,0.273958490926296,-0.2479307221188851,0.30504343704808795,1.0,-0.06695828571439161,-0.08800231836748612,-0.2208280530141895,2.4739999999998394
-0.6110661735413144,-0.5346934357886343,-0.1285017703732975,-2.6553536267176554,-0.06564486678322301,2.1257476457259603,0.7249584118144423,-0.2961380622517342,0.036198036563431936,0.03330815807272822,0.025404808219010883,0.02095023386832041,0.008766646070149941,-0.09836373671369829,0.8098443394988546,-0.5866190018236521,0.003322556590044805,0.0,-0.5865719074059952,-0.8098319554730002,-0.009292375265662157,0.0,0.008141953161227677,0.005576566519094883,-0.9999513040666422,0.0,0.27287745799171564,-0.24936143545669662,0.30505191499884154,1.0,-0.05572857142867854,-0.0732432653062633,-0.1704292132119094,2.4909999999998376
-0.6155224910778407,-0.534120909478545,-0.12795305152788355,-2.6549686647610438,-0.06526376017773758,2.125875000747349,0.7232882730310874,-0.24841134806280987,0.029732046467710667,0.03153691622562018,0.01819805947546179,0.02116292576305381,0.00496525802064697,-0.09967925921566373,0.8083516593209541,-0.58867433278907,0.003297224531596973,0.0,-0.5886274619143017,-0.8083392665766085,-0.009278366878185005,0.0,0.008127368968034954,0.005559453391079328,-0.9999515180005729,0.0,0.2720077357656068,-0.25051794745171896,0.3050431769835433,1.0,-0.044498857142965476,-0.05848421224504041,-0.1200303734096293,2.5079999999998357
-0.6191889693760906,-0.5336734701765766,-0.12744781154024226,-2.654680356303535,-0.06491005599444354,2.125946181045836,0.7216768467733803,-0.19947129652268417,0.019866092365172797,0.02919668969181398,0.01604630459586659,0.019711061414469655,0.0033145680364027436,-0.09588776080321738,0.8072760298036445,-0.5901488318366299,0.0032426667318756494,0.0,-0.5901022412199581,-0.8072632794602292,-0.009278439712928622,0.0,0.008093501963014837,0.005576864440138385,-0.9999516957378447,0.0,0.27129161990078354,-0.25143991964399864,0.3050298897179847,1.0,-0.033269142857252465,-0.04372515918381753,-0.06963153360734897,2.524999999999834
-0.6218332780052833,-0.5333641889800386,-0.126928350522094,-2.6544699077369565,-0.06458570411094844,2.1260192819263137,0.7201123701419921,-0.1495090668785112,0.016318118864133015,0.03148402561823232,0.010703728448881178,0.018441831513703592,0.0033274066213408136,-0.09994341561764088,0.806793554497512,-0.5908082189035119,0.0032489688423055795,0.0,-0.5907617644773608,-0.8067810179866307,-0.009256000716248429,0.0,0.008089883442663648,0.005548421976597606,-0.9999518832421157,0.0,0.27081591002064825,-0.2520659819954007,0.3050320403902536,1.0,-0.022700000000110743,-0.029834285714431308,-0.02219733144049707,2.540999999999832
-0.6236624167126431,-0.5331657856614334,-0.1264887613711088,-2.654322533238113,-0.06431112640912727,2.1260375249344032,0.7187526924429879,-0.1154749676201502,0.012187821024817858,0.024957111065246514,0.008201471556875716,0.018189928286205602,0.0005186182846584558,-0.08923853784792216,0.8066489768724462,-0.5910056281365748,0.0032438438212554826,0.0,-0.5909592985726803,-0.8066364785158708,-0.009243692942160701,0.0,0.008079832872236903,0.005539542438386225,-0.9999520137338243,0.0,0.2705026890009198,-0.2524719645329976,0.3050391197724458,1.0,-0.01976235294117987,-0.025973378151264978,-0.009881176470589935,2.5559999999998304
-0.6256226038077757,-0.5329622536975246,-0.12610229276605917,-2.654129423516101,-0.06405131456494804,2.1260783753049424,0.7170377784908518,-0.1035157396644834,0.015975528505006727,0.01737881968986653,0.014828635921205835,0.013951028378624447,0.0011172226927905374,-0.0844385549621971,0.8066124042268141,-0.591055209978807,0.003303786548080737,0.0,-0.5910085899197137,-0.8066004224415143,-0.00923861783443106,0.0,0.008125525270922918,0.005499523396853556,-0.9999518643822207,0.0,0.27015756775031097,-0.2529406600169009,0.3050659065183249,1.0,-0.019382352941179907,-0.025473949579836452,-0.009691176470589953,2.5749999999998288
-0.6272085006419093,-0.5327517485059136,-0.1259055141857643,-2.653919085695626,-0.06386478585415398,2.126137531022599,0.7157062704608224,-0.09045535412477147,0.018431700036872403,0.00924844155625559,0.01295372353937218,0.014736059021155767,0.010783501558178683,-0.06886873739998277,0.8064957686124479,-0.5912138955844543,0.003384047765554338,0.0,-0.5911666109479796,-0.806484302425592,-0.00926579422365118,0.0,0.008207405718219707,0.005472393145885435,-0.9999513445186389,0.0,0.2698672124198591,-0.25336390740577214,0.3050949986855292,1.0,-0.01904235294117994,-0.025027092436979356,-0.00952117647058997,2.591999999999827
-0.6286216407047187,-0.5325524950620458,-0.1257681758209285,-2.65375306918899,-0.06373757806447268,2.1261822658221408,0.7144427380072196,-0.09636077466579061,0.00966090189082674,0.0081878247368954,0.014394292592617944,0.002586113881738396,0.00027239165821489435,-0.07438261157916258,0.8064311367296753,-0.5913018844270588,0.003413222392530281,0.0,-0.5912543340864047,-0.8064198458587857,-0.009278552168461374,0.0,0.008239074285343206,0.005464536048886026,-0.9999511270560631,0.0,0.2695900804541662,-0.25374643961234783,0.30510516265933313,1.0,-0.01872235294117998,-0.024606521008407975,-0.00936117647058999,2.607999999999825
-0.630107150313388,-0.5323579090959502,-0.12567958637760754,-2.6536032321026184,-0.06370428621171433,2.1261778557644484,0.7131510187595522,-0.08765725743345924,0.016116135753591797,0.0020137240643526566,0.006960951465137035,0.0009621112778380917,-0.00013806441636790627,-0.06925325013173188,0.806345859179864,-0.5914183787090959,0.003376923126091258,0.0,-0.5913713297296066,-0.8063344795865945,-0.009241444955256835,0.0,0.008188647600689214,0.005454890376582089,-0.9999515939391523,0.0,0.269264198269078,-0.25415766217022207,0.30510399647483427,1.0,-0.018382352941180014,-0.02415966386555088,-0.009191176470590007,2.6249999999998233
-0.6315053795989513,-0.53215835788302,-0.1256301609188432,-2.653439736306503,-0.06361031777155832,2.126186513969645,0.7119505112718991,-0.08007590558197543,0.010507679625806104,0.0001906309166590384,0.010212369423852272,0.0013250605712599264,0.0033269333377629723,-0.06577279582109744,0.8062281911836169,-0.5915788530831934,0.0033632167303220325,0.0,-0.5915316309796959,-0.8062165445496088,-0.009271447901911855,0.0,0.0081964312938268,0.0054855592077991955,-0.999951362394303,0.0,0.2689791552677796,-0.2545293598536704,0.3051063423504404,1.0,-0.01806235294118005,-0.023739092436979498,-0.009031176470590025,2.6409999999998215
-0.6328448331539299,-0.531929317958805,-0.12561869369494075,-2.653269412002782,-0.06358321397168228,2.1262479330630675,0.7106534765479592,-0.08604300650052318,0.013830221957996252,-0.0004724594093906728,0.006029873096274632,0.0006153940469576936,0.004197154508245094,-0.07410063869863229,0.8061841782473351,-0.591638737832222,0.003379577070032488,0.0,-0.5915914897555015,-0.8061727123697978,-0.009263583561346206,0.0,0.008205375678157656,0.00546893076128957,-0.999951380121208,0.0,0.26866979681557634,-0.25495508043272597,0.3051070651314357,1.0,-0.01770235294118009,-0.023265949579836694,-0.008851176470590045,2.6589999999998195
