nelsonifechukwu/NELSON_IML_WORK/CNN-GradCAM/train2dof/data_sample_2022-02-22-16-19-41/robot_state.csv
position_joint1,position_joint2,position_joint3,position_joint4,position_joint5,position_joint6,position_joint7,velocity_joint1,velocity_joint2,velocity_joint3,velocity_joint4,velocity_joint5,velocity_joint6,velocity_joint7,ee_T_00,ee_T_10,ee_T_20,ee_T_30,ee_T_01,ee_T_11,ee_T_21,ee_T_31,ee_T_02,ee_T_12,ee_T_22,ee_T_32,ee_T_03,ee_T_13,ee_T_23,ee_T_33,v_x,v_y,time
0.465038193673,0.547745566953,-0.123976465676,-1.35583127233,0.0795825350834,1.89410324926,0.159164604276,0.00105857841433,0.000969356371316,0.00113712815416,-0.00137545282492,0.000487167931766,0.00012357429468,0.000601661776955,0.573852559048,0.818944366898,0.00202763420232,0.0,0.818901424461,-0.573792865789,-0.0119562153772,0.0,-0.00862819931245,0.00852170139647,-0.999926464687,0.0,0.661680819978,0.260888210894,0.30324042393,1.0,0.0,0.0,0.0
0.46503290396,0.547745566627,-0.123978971341,-1.35582876667,0.0795812126547,1.89410430982,0.159160077685,-0.000602157539124,0.00195343207151,0.000333334340492,0.000643041607354,-0.000163417002773,-0.000109965601174,-0.00179305687945,0.573854454929,0.818943034378,0.00202926160488,0.0,0.818900142256,-0.5737947834,-0.0119520064541,0.0,-0.00862379874428,0.00852063881466,-0.999926511704,0.0,0.661683636135,0.260883416488,0.303241789323,1.0,-0.00016,-0.000210285714286,0.009
0.465034452961,0.547738201025,-0.123979921436,-1.35583161551,0.0795818230063,1.89410268275,0.159169593348,-0.000315982349092,-0.000839095497461,-2.25517131787e-05,-0.000283000984273,0.000136402899028,-0.000623946042588,0.00159236857763,0.573861935164,0.818937785773,0.00203206921815,0.0,0.818894925732,-0.573802246556,-0.0119511237261,0.0,-0.00862138690765,0.00852251024507,-0.999926516554,0.0,0.661682633648,0.26088363927,0.303245542523,1.0,-0.0005,-0.000657142857143,0.026
0.465034766418,0.54771971283,-0.123981208567,-1.35584723612,0.0795818230003,1.89410768731,0.159162397676,-0.000917069196469,-0.00174561361756,-0.00043781099783,-0.000921295886612,-6.43576886492e-06,0.000264576207364,-0.00156506215315,0.573857540026,0.818940847618,0.00203930384638,0.0,0.818898079127,-0.573797819171,-0.0119476197458,0.0,-0.0086144115961,0.00852637783826,-0.999926543699,0.0,0.661680754604,0.260881831962,0.303251682327,1.0,-0.00084,-0.001104,0.043
0.465037898238,0.547642164458,-0.123979556759,-1.35592654503,0.0795806242661,1.89412098462,0.159160590294,0.000222713482141,-0.00619769882684,-0.000146273240359,-0.00441669406578,0.000501295825837,0.00266335632931,4.24478142165e-05,0.573856308285,0.818941677003,0.00205280550851,0.0,0.818899024009,-0.573796471623,-0.0119475742929,0.0,-0.00860663967432,0.0085373956754,-0.999926516614,0.0,0.661666147537,0.260877175999,0.303269968083,1.0,-0.00116,-0.00152457142857,0.059
0.465031839127,0.547497972162,-0.123977156279,-1.35612224356,0.0795796771487,1.8941560943,0.159159703022,-0.000799454190454,-0.0076082172884,0.000530364614484,-0.0163282652742,0.000264720142228,0.00129350630048,-0.00105386030045,0.573869289033,0.81893259508,0.00204712545248,0.0,0.818889707421,-0.573809315185,-0.011969285212,0.0,-0.00862754425292,0.00854533968196,-0.999926268607,0.0,0.661633173004,0.260855448264,0.303281934659,1.0,-0.00152,-0.00199771428571,0.077
0.46501371371,0.547346568882,-0.123982167627,-1.3563262173,0.0795755961619,1.8942451575,0.159154790664,-0.0011319378208,-0.0118942919726,-0.000368659836281,-0.0105177203676,0.000225450635227,0.00777922969466,0.000224175340501,0.573894016856,0.818915180597,0.0020811788526,0.0,0.818872710766,-0.573833872316,-0.0119548085334,0.0,-0.00859588876663,0.00856517856481,-0.999926371496,0.0,0.661614277772,0.260823725517,0.303299991814,1.0,-0.00186,-0.00244457142857,0.094
0.464996908222,0.547173118371,-0.12397966503,-1.35652998749,0.0795734451851,1.89434676863,0.159142478905,-0.0043598861934,-0.0117329366772,0.000126457769359,-0.0151196743958,1.78163222115e-05,0.00946606837693,-0.000739673940842,0.573906896007,0.818905982267,0.00214798120052,0.0,0.81886432241,-0.573846414683,-0.0119273106921,0.0,-0.00853489909066,0.00860423668555,-0.999926558607,0.0,0.661596332513,0.260798709255,0.303334602108,1.0,-0.00218,-0.00286514285714,0.11
0.464979985477,0.546975985722,-0.123980696728,-1.35677714715,0.0795720115515,1.89447612686,0.159129770624,0.000454803424405,-0.00902243597842,-9.87103222853e-05,-0.0181233347002,0.000194749841441,0.0097770177551,-0.00502582891181,0.573924719183,0.818893293852,0.00222191273517,0.0,0.818852541648,-0.573863881061,-0.0118957114719,0.0,-0.00846640588887,0.00864682823472,-0.999926773485,0.0,0.661575388759,0.260768730976,0.303367856511,1.0,-0.00252,-0.003312,0.127
0.464946903913,0.546748436464,-0.12398063677,-1.35711935566,0.0795612589438,1.89461281858,0.159104562153,-0.000616985976905,-0.0145265652819,0.000272805460017,-0.0245835697489,-0.00026832566556,0.00748870699249,-0.00462232350321,0.573947491023,0.818877269084,0.00224557966889,0.0,0.818836752398,-0.573886481237,-0.0118922864708,0.0,-0.00844977793828,0.00866447796383,-0.999926761355,0.0,0.661539372564,0.26071678935,0.303377985943,1.0,-0.00286,-0.00375885714286,0.144
0.464916440586,0.546482536094,-0.123980112945,-1.35749680912,0.0795532158335,1.89474841816,0.158986136205,-0.00482026706962,-0.0159047225163,0.000838174239813,-0.0218370668116,8.47991360747e-05,0.00914545645876,-0.0151919660168,0.573894019588,0.818914660893,0.00227582031944,0.0,0.818874394381,-0.573832748691,-0.0118932610273,0.0,-0.00843378796822,0.00868924965776,-0.999926681393,0.0,0.661495100403,0.260663533816,0.303398381054,1.0,-0.00318,-0.00417942857143,0.16
0.464876983584,0.546186060434,-0.123982858286,-1.35798236079,0.0795409096642,1.89491610481,0.158937031219,-0.00214677015365,-0.0225254379881,-0.000310240735789,-0.0300151994354,6.23590641852e-05,0.00802019399193,-0.00354193540214,0.573911897359,0.81890215914,0.00226599333493,0.0,0.818861605747,-0.573850499879,-0.0119172699144,0.0,-0.008458899516,0.00869516533764,-0.999926417852,0.0,0.661436525413,0.260591488402,0.303391845847,1.0,-0.00354,-0.00465257142857,0.178
0.464829157951,0.545863230212,-0.123984905264,-1.35851500766,0.0795192338122,1.89509945857,0.158907033215,-0.00724106566838,-0.0267100092736,-0.000815859319208,-0.0356841859518,-0.000469720073679,0.00172629505171,-0.00214531139298,0.573951914135,0.818874162118,0.00224806067981,0.0,0.818833269001,-0.573890474913,-0.0119393166756,0.0,-0.00848682072545,0.00869354791254,-0.999926195326,0.0,0.661373458934,0.260508614525,0.303382855355,1.0,-0.00388,-0.00509942857143,0.195
0.464769272889,0.545550815206,-0.123980431261,-1.35907476562,0.0794865713371,1.89528793929,0.15879844907,-0.00352947805064,-0.018817539331,0.000152656843331,-0.0324127904027,-0.00162063230489,0.00899309410279,-0.00798287256184,0.573931494241,0.818888606569,0.00219928427528,0.0,0.818847001858,-0.573870179174,-0.0119729655501,0.0,-0.00854258588593,0.00867270632016,-0.99992590145,0.0,0.661307117061,0.260416753195,0.303353775725,1.0,-0.0042,-0.00552,0.211
0.464708563771,0.545164935029,-0.123980597627,-1.35975539067,0.079431696445,1.89549653271,0.158723091792,-0.00499160297228,-0.0183400803478,-0.000673009261566,-0.0439181592373,-0.00453711481447,0.0105989837107,-0.00437240313756,0.573942857048,0.81888085647,0.00211817195687,0.0,0.818838241459,-0.573881925368,-0.0120090366899,0.0,-0.00861855558304,0.008627107127,-0.999925643997,0.0,0.661221405449,0.260306047404,0.303321009763,1.0,-0.00454,-0.00596685714286,0.228
0.464639979686,0.544726591145,-0.123983528695,-1.36045824127,0.0794016801336,1.89573578375,0.158647435728,-0.00616203196387,-0.0269213100007,0.000661550284415,-0.0408980965818,-0.000317110689516,0.00992506680507,-0.0154295568293,0.573970259283,0.818861689486,0.00210282005996,0.0,0.818818740498,-0.573909255247,-0.0120326162112,0.0,-0.00864638701489,0.00862835844225,-0.999925392928,0.0,0.661139299829,0.260192704942,0.303317563445,1.0,-0.00488,-0.00641371428571,0.245
0.464573165791,0.544314035211,-0.123980757379,-1.36116427214,0.0793713807979,1.89599018255,0.158555355376,-0.00548815107278,-0.0303204961919,0.000689763291405,-0.0453084660241,-7.25741341582e-05,0.0229263979107,-0.0049402383164,0.57397899327,0.818855636193,0.00207587615136,0.0,0.818812185882,-0.573917954007,-0.0120637150218,0.0,-0.00868722570151,0.00862423773575,-0.99992507451,0.0,0.661056960048,0.26008410375,0.303295443153,1.0,-0.0052,-0.00683428571429,0.261
0.464512928109,0.543816871325,-0.123989213187,-1.36197867528,0.0793332955502,1.89627984618,0.158466898485,-0.0027527199522,-0.0248776990348,-0.00112091653866,-0.0533348848678,-0.000421253122477,0.0151425066361,-0.00190915062091,0.573997042021,0.818843035573,0.0020556617454,0.0,0.818799235456,-0.573936002439,-0.0120840399928,0.0,-0.00871528150138,0.00861954342997,-0.999924870848,0.0,0.660960153226,0.259962732614,0.303284987139,1.0,-0.00554,-0.00728114285714,0.278
0.464424035728,0.543289388669,-0.123994115742,-1.36281830558,0.0792831005126,1.89656853963,0.15834070006,-0.00391548350317,-0.0335970459389,-0.000690210425659,-0.0474053378839,-0.00765654564632,0.0170054461064,-0.00731056205136,0.574003197827,0.818838771425,0.00203523881692,0.0,0.818794682358,-0.573942224123,-0.0120970414756,0.0,-0.00873758531215,0.00861034898778,-0.999924755416,0.0,0.660865335015,0.259819866659,0.303283691821,1.0,-0.00588,-0.007728,0.295
0.4643508722,0.542763631599,-0.123992466023,-1.36366245575,0.0792338284609,1.89687128164,0.158240914911,-0.00399681747313,-0.0363340078992,-0.00200134857011,-0.0571273507641,-0.00496958180595,0.0271471344477,-0.00870718191695,0.574003137779,0.818838833214,0.00202729893934,0.0,0.818794584564,-0.573942143688,-0.0121074724428,0.0,-0.00875068478691,0.00860983433157,-0.999924645295,0.0,0.660760763656,0.259686575452,0.303282773249,1.0,-0.00622,-0.00817485714286,0.312
0.464274988166,0.542131022487,-0.123993235875,-1.36462173715,0.0791805213458,1.89722629645,0.158099102969,-0.004064838999,-0.0384508750951,0.000214373390181,-0.05690686673,-0.00137689949575,0.0284905681555,-0.00520001479079,0.573999706632,0.818841182935,0.00204958965093,0.0,0.818797190176,-0.573938581032,-0.0121001431052,0.0,-0.00873192503462,0.0086238428755,-0.999924688574,0.0,0.660655659066,0.259551064775,0.303301558879,1.0,-0.00656,-0.00862171428571,0.329
0.464189979366,0.541507919664,-0.12399337697,-1.36557399572,0.0791205089933,1.89757671297,0.15797945174,-0.00648369037639,-0.0356427775579,-0.00120491302165,-0.0539533368853,-0.00258436129237,0.0189984121281,-0.00672275427112,0.574008279623,0.818835131284,0.00206630098203,0.0,0.818791373539,-0.573947096999,-0.0120898042097,0.0,-0.0087137767343,0.00863168332127,-0.99992477924,0.0,0.66054774039,0.259404041372,0.303319247549,1.0,-0.0069,-0.00906857142857,0.346
0.464113846023,0.540913832445,-0.123999677923,-1.36647594836,0.0790669767041,1.89791964816,0.157867566498,-0.0092377247879,-0.0411328044691,0.00074702958017,-0.0583510064844,-0.0084853815711,0.0261850888929,-0.00161809010786,0.574019214029,0.818827393682,0.00209479908646,0.0,0.818784042566,-0.573957941483,-0.0120714518275,0.0,-0.00868227602712,0.00864459978994,-0.999924941672,0.0,0.66044777231,0.259265448021,0.303339845461,1.0,-0.0072,-0.00946285714286,0.361
0.464012924592,0.540164337758,-0.124004978049,-1.36762690298,0.0790016399767,1.898328994,0.157719361973,-0.00430734538425,-0.0421535362991,-0.000343784419535,-0.0669639805483,-0.00615404357515,0.0247687420428,-0.0109615587484,0.574030418669,0.818819517513,0.00210311279605,0.0,0.818776232096,-0.57396906635,-0.0120722627716,0.0,-0.00867804976932,0.00865199140154,-0.99992491443,0.0,0.660314309552,0.259086152426,0.303357398099,1.0,-0.00756,-0.009936,0.379
0.463910774388,0.539417163304,-0.124000648751,-1.36877740078,0.0789329697758,1.89876908028,0.157580361168,-0.0035195352344,-0.0499855063918,0.000891319024957,-0.0695642857577,-0.00668705466559,0.0190398480824,-0.00765820317439,0.574042615072,0.818810884465,0.00213505596405,0.0,0.818768002609,-0.573981111345,-0.0120577205348,0.0,-0.00864767751527,0.00866992785772,-0.999925022201,0.0,0.660185094298,0.258913210785,0.303375751281,1.0,-0.0079,-0.0103828571429,0.396
0.463825184635,0.538705636324,-0.124014763108,-1.36986911331,0.0788672365811,1.89919467356,0.157446126569,-0.00541438869253,-0.0417555136877,-0.0010515925169,-0.0644630365721,-0.000814066849757,0.0235386261482,-0.00951207634206,0.5740555938,0.81880169523,0.00216933568878,0.0,0.818759356244,-0.573994039585,-0.0120293800361,0.0,-0.00860465667723,0.00868186394449,-0.99992528977,0.0,0.660065197621,0.258746514435,0.30339612818,1.0,-0.00822,-0.0108034285714,0.412
0.463692361891,0.53782916564,-0.124009771987,-1.37124985438,0.0787911945671,1.89971960099,0.157273094715,-0.00410462445729,-0.043512739327,0.00150258177836,-0.073005215856,-0.00190051873451,0.0246476011854,-0.00786445353318,0.574075159862,0.818787920038,0.00219082859984,0.0,0.8187457786,-0.574013429231,-0.0120282994619,0.0,-0.00859122666829,0.00869904708782,-0.999925255909,0.0,0.659910708674,0.258532664541,0.303403303499,1.0,-0.0086,-0.0113028571429,0.431
0.463595096142,0.537008254968,-0.124021194587,-1.37252930835,0.0787098769195,1.90019096513,0.157111981948,-0.00601774015142,-0.0483721925594,0.00126452689692,-0.0754546547346,-0.000904301076908,0.0283983217751,-0.0152863004606,0.5740796339,0.818784768292,0.00219637303006,0.0,0.81874277682,-0.574017958181,-0.0120164883172,0.0,-0.00857832519967,0.00869685320882,-0.999925385757,0.0,0.659762078446,0.258339585059,0.303415160549,1.0,-0.00894,-0.0117497142857,0.448
0.463491403864,0.536264788062,-0.124024375217,-1.37369439841,0.0786490518716,1.90063228692,0.156965263283,-0.00618309576886,-0.0485561773133,0.000110273943486,-0.0787439115553,-0.0045044715014,0.0256618961776,-0.0118531370387,0.574094566993,0.818774243167,0.00221670376307,0.0,0.818732451226,-0.57403273801,-0.0120139878105,0.0,-0.00856444813863,0.00871222017274,-0.999925370939,0.0,0.659630313156,0.258160887747,0.303423796484,1.0,-0.00924,-0.012144,0.463
0.463375735326,0.535390275596,-0.124027303005,-1.37508270936,0.0785720678486,1.90113807541,0.156795457289,-0.0128771960295,-0.0527444796763,-0.000393772845302,-0.0842080935876,-0.00269514885333,0.0317650905128,-0.0169335049844,0.574107954417,0.818764868032,0.00221234110461,0.0,0.818722942695,-0.574046064134,-0.0120252342311,0.0,-0.0085760187296,0.0087152448407,-0.999925245411,0.0,0.659466694487,0.257951440093,0.303424106955,1.0,-0.00958,-0.0125908571429,0.48
0.463264896686,0.53449438711,-0.124033300596,-1.37651604288,0.078490475645,1.90165387002,0.156631101128,-0.00961763734757,-0.0560295965564,-0.000391182478562,-0.0874560765279,-0.00654686859754,0.0334353688495,-0.0173285488209,0.574125074563,0.818752911262,0.00219452941101,0.0,0.818710696062,-0.574063198411,-0.0120410666361,0.0,-0.00859902534818,0.00870993067503,-0.99992509413,0.0,0.659294539413,0.257738284002,0.303418862484,1.0,-0.00992,-0.0130377142857,0.497
0.463145927211,0.533633095473,-0.124036517105,-1.37791693019,0.0784147271081,1.9021639698,0.156460047896,-0.00802872648918,-0.0560057881427,-0.000557099662805,-0.0834523089426,-0.00094418416895,0.0412739464823,-0.0138057267249,0.574141144009,0.818741701923,0.00217236980187,0.0,0.81869909634,-0.574079257146,-0.012064123195,0.0,-0.00863045447773,0.00870519428829,-0.999924864601,0.0,0.659128668893,0.25752535099,0.303403915617,1.0,-0.01024,-0.0134582857143,0.513
0.463016983746,0.53269120132,-0.124031177543,-1.37943247809,0.0783318287185,1.90274029782,0.156256741384,-0.00592500543929,-0.0539684824463,0.00116126380051,-0.0925101300301,-0.00641507196137,0.0355121623883,-0.0150728112629,0.574137306978,0.818744375177,0.0021789339747,0.0,0.818701749027,-0.574075285495,-0.0120730950866,0.0,-0.0086340727822,0.00871567915985,-0.99992474203,0.0,0.658952093237,0.257301611847,0.303396518733,1.0,-0.01058,-0.0139051428571,0.53
0.462876363578,0.531650797952,-0.124031969351,-1.38108470106,0.0782339899742,1.90334868739,0.15605693832,-0.00876606124353,-0.0577188963021,-0.0010867760404,-0.0914953819427,-0.00914285582506,0.0351491851689,-0.00671342045897,0.574153324574,0.818733150642,0.00217596465415,0.0,0.818690443766,-0.574091271335,-0.0120795846246,0.0,-0.00864092042793,0.00871714297201,-0.999924670119,0.0,0.658757452887,0.257051482655,0.30339625676,1.0,-0.01094,-0.0143782857143,0.548
0.462757770463,0.53076562279,-0.124033967485,-1.38252385552,0.0781465612819,1.9038544039,0.155860048222,-0.00954912605348,-0.0569495065067,0.00400896609746,-0.0984530589632,-0.00868621763555,0.0376077008328,-0.0143129171854,0.574145413672,0.818738808569,0.0021340579399,0.0,0.818695496288,-0.574083482856,-0.0121072693156,0.0,-0.00868773110545,0.00869864424969,-0.999924425602,0.0,0.658581547856,0.256833172062,0.303378941769,1.0,-0.01124,-0.0147725714286,0.563
0.462602776885,0.529669928223,-0.124040375414,-1.38426689928,0.0780378368215,1.90448955318,0.155641168459,-0.00914868583826,-0.0597871952018,-0.000613282184618,-0.0963606592459,-0.00653881951326,0.032347051482,-0.0134634254352,0.574163122192,0.818726427533,0.002119640407,0.0,0.818682946454,-0.574101270997,-0.0121124203507,0.0,-0.00870003789345,0.00868998584882,-0.999924393885,0.0,0.65837714651,0.256560377433,0.303376442098,1.0,-0.0116,-0.0152457142857,0.581
0.462468403412,0.528578005365,-0.124041066276,-1.38595156247,0.077926400818,1.90512020568,0.155402406492,-0.00881011357159,-0.0684694315416,0.000640383769915,-0.100829034399,-0.00740701771655,0.0410293974873,-0.0190985580975,0.574139550181,0.818742888109,0.00214638995224,0.0,0.818699837274,-0.574077667673,-0.0120894511256,0.0,-0.00866612444224,0.00869844860788,-0.999924614798,0.0,0.658178447604,0.256310651849,0.303398198661,1.0,-0.01194,-0.0156925714286,0.598
0.462337647654,0.527534450614,-0.124043224911,-1.38757580218,0.0778281986015,1.90575232378,0.155179637927,-0.00869730372543,-0.0724295244512,0.000101228724524,-0.10348761063,-0.00968831037078,0.0400615488734,-0.0157627655987,0.574127458154,0.818751256708,0.00218822614412,0.0,0.81870878944,-0.574065436452,-0.0120639821962,0.0,-0.00862138157586,0.00871795125855,-0.999924831728,0.0,0.657991120775,0.256071232655,0.303414606364,1.0,-0.01226,-0.0161131428571,0.614
0.46218472409,0.526389025423,-0.124046690409,-1.38936589395,0.0777192454483,1.90642833864,0.154940296996,-0.00781442599473,-0.0677970554442,-0.000929499074712,-0.105674834883,-0.00750474311383,0.046792189826,-0.0127987694289,0.574126620179,0.818751778199,0.00221282618294,0.0,0.81870965124,-0.574064514204,-0.0120493733811,0.0,-0.00859530638049,0.00872969624075,-0.99992495374,0.0,0.657782428558,0.255799396981,0.303427351052,1.0,-0.0126,-0.01656,0.631
0.462023271763,0.525128935796,-0.124047379529,-1.39129955291,0.0775907097582,1.90712134905,0.154678442841,-0.00607380666681,-0.0725907178784,0.000733257013115,-0.10719761032,-0.00421481290304,0.0393348224879,-0.0158123305019,0.574114234166,0.818760432596,0.00222419516571,0.0,0.81871850311,-0.574052132003,-0.0120378282395,0.0,-0.00857945866122,0.00873224640027,-0.999925067574,0.0,0.657548476935,0.255506095093,0.303453450617,1.0,-0.01296,-0.0170331428571,0.649
0.461889222156,0.524095635759,-0.124058745408,-1.39296433411,0.077489246029,1.90771082249,0.154456732366,-0.0125459315517,-0.0724023332494,0.000107110322997,-0.115839503125,-0.00568192387609,0.0336683856324,-0.0151004299059,0.57410983438,0.818763648455,0.0021755318883,0.0,0.818721052171,-0.57404790585,-0.0120659612874,0.0,-0.00863047712463,0.00870850845874,-0.999924835548,0.0,0.657330693909,0.255232564639,0.303430543669,1.0,-0.01328,-0.0174537142857,0.665
0.461726373969,0.522821733895,-0.12406194848,-1.39500346196,0.0773728326536,1.90848577831,0.154175677316,-0.00320122499372,-0.0749629807213,9.37417046492e-05,-0.112524066819,0.000669346878256,0.0466015517267,-0.0196138251079,0.574096307028,0.818773081908,0.00219488037347,0.0,0.818730697569,-0.574034257178,-0.0120608185886,0.0,-0.0086153029526,0.00872125526188,-0.999924855307,0.0,0.657101414764,0.254950431171,0.303431388591,1.0,-0.01362,-0.0179005714286,0.682
0.461566049965,0.521579277715,-0.124065256515,-1.39696150832,0.0772508129337,1.90925928366,0.153909634649,-0.00830497236975,-0.0744630360173,-0.00124444733579,-0.117266792167,-0.00279584034354,0.0446828154746,-0.0129937988459,0.574084301078,0.818781380834,0.00223887380818,0.0,0.818739660036,-0.574022158941,-0.0120281765391,0.0,-0.00856344869154,0.00873841034373,-0.999925150964,0.0,0.656875394243,0.254659786062,0.303439600245,1.0,-0.01396,-0.0183474285714,0.699
0.461416694602,0.520463869369,-0.124060656472,-1.39874725403,0.0771292306249,1.9099198781,0.153670960292,-0.00546433915373,-0.0775713827135,0.00195586662196,-0.123681636989,-0.0104820808591,0.0500680246262,-0.0144495549149,0.574070382317,0.81879118206,0.00222333721053,0.0,0.81874931816,-0.574008367515,-0.0120289208533,0.0,-0.00857312522095,0.00872597102025,-0.999925176678,0.0,0.656658877023,0.254392244157,0.303430203042,1.0,-0.01426,-0.0187417142857,0.714
0.461234857817,0.519066992399,-0.124071641513,-1.40092644044,0.0769954393059,1.9106944851,0.153381503774,-0.00745090986191,-0.0828240341283,-0.000523833909807,-0.118767039382,-0.0129534727876,0.0518394758061,-0.0187433544058,0.574069740282,0.818791656236,0.00221446871753,0.0,0.818749659437,-0.574007745169,-0.0120353877883,0.0,-0.00858351816462,0.00872241538363,-0.999925118539,0.0,0.656391416184,0.254057109034,0.303441213239,1.0,-0.01462,-0.0192148571429,0.732
0.461065605769,0.517699505997,-0.124075083492,-1.40303774873,0.0768593511165,1.91145401245,0.153094725864,-0.00721799862747,-0.0815867959253,0.000238697544507,-0.128750885264,-0.00200957123863,0.0367478862117,-0.0176146470011,0.574051059537,0.818804727896,0.00222385250574,0.0,0.818762875658,-0.573989050089,-0.0120279143337,0.0,-0.00857221117753,0.00872561283503,-0.99992518764,0.0,0.656130641329,0.25374096489,0.303461893163,1.0,-0.01496,-0.0196617142857,0.749
0.460889168899,0.516448274118,-0.124078719605,-1.40503625145,0.0767292705908,1.91219693484,0.152801039952,-0.00715074354679,-0.0758564036299,0.000443090271931,-0.120883873234,-0.0110910632067,0.042209596595,-0.0209200766701,0.57402832759,0.818820692037,0.00221366616085,0.0,0.818778763382,-0.573966421029,-0.0120262657215,0.0,-0.00857695030991,0.00871608785272,-0.999925230073,0.0,0.655891010075,0.253431729276,0.303452928486,1.0,-0.01528,-0.0200822857143,0.765
0.460694190797,0.514991092982,-0.124082193558,-1.40736036724,0.076583898093,1.91307295153,0.152496729584,-0.0122135739616,-0.0787318112961,-0.00133662387173,-0.129648723703,-0.0128855379512,0.0480937231006,-0.0131143749917,0.574024833853,0.818823133815,0.00221642751752,0.0,0.818781271729,-0.573962947266,-0.0120212783536,0.0,-0.00857131856806,0.00871544945055,-0.999925283928,0.0,0.655610850357,0.253081085075,0.303444555754,1.0,-0.01564,-0.0205554285714,0.783
0.460513767744,0.513657436094,-0.124082611796,-1.40949663868,0.0764520634273,1.91380759539,0.1521944224,-0.00978301916982,-0.08427460001,0.000944389256995,-0.138975286353,-0.00810575632641,0.0515558597345,-0.0221753263954,0.574007362392,0.818835541923,0.0021564100236,0.0,0.818792729863,-0.573945562445,-0.0120707818211,0.0,-0.00864648968175,0.00869453788184,-0.999924818787,0.0,0.655320081053,0.252736358042,0.303423464506,1.0,-0.01598,-0.0210022857143,0.8
0.460283342338,0.511996843312,-0.124090816493,-1.41218763029,0.0762884724319,1.9147672535,0.151817399436,-0.0135283009311,-0.0816613412366,-0.000410378789301,-0.132078067059,-0.0119301914911,0.0476002921021,-0.0207268388977,0.573984451108,0.818851756928,0.00209689361124,0.0,0.818808127152,-0.573922869392,-0.0121052798369,0.0,-0.00870914214237,0.00866536276845,-0.999924528318,0.0,0.655001500833,0.252340610019,0.303392200555,1.0,-0.01636,-0.0215017142857,0.819
0.460074308315,0.510448607545,-0.124093877606,-1.41465888868,0.0761413530672,1.9157081316,0.15147786641,-0.0164039668209,-0.0898526527922,0.000352872631971,-0.142230803172,-0.00801926955683,0.0528953950078,-0.0191770796218,0.573969493142,0.818862205317,0.00211105340308,0.0,0.818818730572,-0.573907822239,-0.0121014436715,0.0,-0.00869803225521,0.00867459657094,-0.999924544958,0.0,0.654702246591,0.251969049185,0.303381702045,1.0,-0.01672,-0.0219748571429,0.837
0.45986083466,0.508871439645,-0.12409710943,-1.41716078131,0.0759783126831,1.91661814901,0.151128100635,-0.0145129628075,-0.0911453339128,2.04094165115e-05,-0.140446748734,-0.0142052701598,0.0560168208857,-0.0291556627184,0.573946283494,0.81887852219,0.00209199908247,0.0,0.818834827809,-0.573884727229,-0.0121074985426,0.0,-0.00871417196599,0.00866222227402,-0.999924511707,0.0,0.654391209301,0.251586731395,0.303373607462,1.0,-0.01708,-0.022448,0.855
0.459676206625,0.507549303412,-0.124101082638,-1.41925544792,0.0758508086923,1.91736138996,0.150830251332,-0.0126046284379,-0.0881843609076,0.000724138906947,-0.143028866134,-0.00421416896852,0.0482808011566,-0.0181312150416,0.573930537409,0.818889620991,0.00206730839524,0.0,0.818845521752,-0.573869009218,-0.0121292483692,0.0,-0.00874631977319,0.00865431887888,-0.999924299462,0.0,0.654127561081,0.251262327827,0.303366006415,1.0,-0.01738,-0.0228422857143,0.87
0.45945216844,0.505898112043,-0.124107546301,-1.42182801954,0.075685920093,1.91832526366,0.150479039523,-0.0125975652656,-0.0894592094249,-0.000629927708651,-0.145874370808,-0.00950625288358,0.0534354714835,-0.0294116000618,0.57391958279,0.818897222841,0.00209709699021,0.0,0.818853585314,-0.573857998148,-0.012105811867,0.0,-0.00871014753471,0.00866514471611,-0.99992452145,0.0,0.653813785639,0.250867279912,0.303379706362,1.0,-0.01774,-0.0233154285714,0.888
0.459230516542,0.504257862142,-0.124108445198,-1.42430512124,0.0755348939797,1.91927881567,0.15013349184,-0.0133802655535,-0.0940899381329,0.00140133284039,-0.143372256962,-0.00299250016886,0.0556731052474,-0.0238712343645,0.573905860759,0.818906580138,0.00219610905853,0.0,0.818864265568,-0.57384388456,-0.0120522873159,0.0,-0.00860963939785,0.00871536135516,-0.999924955477,0.0,0.653516868409,0.25048980257,0.30342944225,1.0,-0.01808,-0.0237622857143,0.905
0.459013626821,0.502672355977,-0.124116015919,-1.42663189884,0.0753797570749,1.92016813701,0.149817999674,-0.0108890537146,-0.10315592923,0.000416316584665,-0.145495764255,-0.00880634645816,0.0570246058892,-0.0206441443784,0.57390801449,0.818904745218,0.00231431740881,0.0,0.818864153926,-0.573845734234,-0.011971533618,0.0,-0.00847564769713,0.00876583942558,-0.999925658964,0.0,0.65324130705,0.25012375772,0.303506427857,1.0,-0.0184,-0.0241828571429,0.921
0.458795710932,0.501057874493,-0.124119578686,-1.42904737868,0.0752261249053,1.92101525149,0.149484129505,-0.0132405333425,-0.104405920507,0.000383912795191,-0.156791355997,-0.00895326787136,0.0534535291629,-0.0178106578981,0.573897265829,0.818912166606,0.0023534147369,0.0,0.818872052928,-0.573834795785,-0.0119555418719,0.0,-0.00844022993291,0.00878856755595,-0.999925759044,0.0,0.652934989004,0.24974682418,0.30355709331,1.0,-0.01872,-0.0246034285714,0.937
0.458545366995,0.499263905687,-0.124119450886,-1.43179311788,0.0750543449172,1.92201286721,0.149093001085,-0.00996872743734,-0.0993335204597,-0.000606086176393,-0.153216406053,-0.0070699854524,0.055227384289,-0.0213144746301,0.573875312551,0.81892743835,0.00239233413354,0.0,0.818887790846,-0.573812646714,-0.0119406606304,0.0,-0.00840594488177,0.00881167321695,-0.999925844503,0.0,0.652590971308,0.249321410305,0.30358814562,1.0,-0.01908,-0.0250765714286,0.955
0.458333835069,0.497870307262,-0.124122535203,-1.43397179478,0.0749146532919,1.92282845249,0.148776404058,-0.0149571786896,-0.105372262891,-0.000818095282729,-0.159329788172,-0.00909383739094,0.0554232912453,-0.0230826182568,0.573864480878,0.818934965578,0.00241384381503,0.0,0.818895636914,-0.573801771602,-0.0119251687863,0.0,-0.00838103119288,0.00882028678109,-0.999925977689,0.0,0.652325192732,0.24897433166,0.303593670648,1.0,-0.01936,-0.0254445714286,0.969
0.458082380272,0.496297615644,-0.12412026944,-1.43649284865,0.0747651797548,1.92372436423,0.148396218514,-0.0189151125651,-0.0978423531456,-0.000898729885362,-0.162915441031,-0.00592233102225,0.0557284665845,-0.0331209897621,0.573844714769,0.818948933874,0.00237359200304,0.0,0.818908900076,-0.573781979353,-0.0119666389631,0.0,-0.00843830436669,0.00881091777641,-0.999925578604,0.0,0.652005676046,0.248570135995,0.303567466057,1.0,-0.01968,-0.0258651428571,0.985
0.45781886202,0.494615058143,-0.124117763798,-1.43923077386,0.0745950021229,1.92466385895,0.148015927784,-0.0165965110456,-0.105026586647,0.000764358616378,-0.155679365381,-0.00949406081328,0.05145411697,-0.0191522858977,0.573839111056,0.818953137281,0.00227606284691,0.0,0.818911637373,-0.573776575075,-0.0120382296098,0.0,-0.00855295903222,0.0087720702202,-0.999924946021,0.0,0.651648054374,0.248133798892,0.303517798972,1.0,-0.0209405714286,-0.0275218938776,1.002
0.457528438269,0.492638843616,-0.124195446992,-1.44220937835,0.0744195418653,1.92574211918,0.147582709494,-0.0149689153585,-0.16359697196,-0.0111793643181,-0.241128256183,-0.00875475399771,0.0844771447641,-0.0265159728705,0.573880340694,0.818924093652,0.00233030078964,0.0,0.818883511509,-0.573817792734,-0.0119867519083,0.0,-0.00847923513837,0.00878737534664,-0.999925439523,0.0,0.651291065077,0.247616822042,0.30357153967,1.0,-0.0353491428571,-0.0464588734694,1.017
0.457095444532,0.488960192883,-0.124261127591,-1.44792158072,0.0741292958878,1.92797627055,0.146705534078,-0.0340359858238,-0.233174117992,-0.00334836144211,-0.370912982539,-0.0120549478737,0.140474510246,-0.0600332435499,0.573773066995,0.818998708376,0.00251598321771,0.0,0.818960381461,-0.57370961986,-0.0119127066329,0.0,-0.00831320762517,0.00889585206938,-0.99992587445,0.0,0.650580736939,0.246772075821,0.303606953323,1.0,-0.0526394285714,-0.0691832489796,1.035
0.456445480421,0.484389996686,-0.124332859494,-1.4551263291,0.0737233657237,1.93072937373,0.145598917734,-0.0508196051564,-0.307082513573,-0.0115723262771,-0.492695161165,-0.0302621815938,0.182952116106,-0.0793422684196,0.573699697782,0.819049783988,0.00261820821247,0.0,0.819012737449,-0.573635812598,-0.0118674892962,0.0,-0.00821832477724,0.00895289326891,-0.999926149693,0.0,0.64968724333,0.245634759936,0.303592937284,1.0,-0.0680085714286,-0.0893826938775,1.051
0.455560445373,0.478630340862,-0.124496980897,-1.46438145811,0.0731679190337,1.93390001581,0.144198398827,-0.0632372258865,-0.385034649793,-0.0117692218938,-0.61316701707,-0.0307468653727,0.212208594683,-0.091846278517,0.573698729006,0.819051347418,0.00232497998525,0.0,0.819010336861,-0.573635854757,-0.0120300105509,0.0,-0.00851966850009,0.00880595394581,-0.999924932394,0.0,0.648479992135,0.244069620467,0.30346149227,1.0,-0.0833777142857,-0.109582138776,1.067
0.454305381545,0.470629470853,-0.124672568158,-1.47698246189,0.0724155085611,1.93828467858,0.142385213856,-0.0774895767106,-0.473222826114,-0.00792866675195,-0.745622979009,-0.0407879813787,0.259667325326,-0.109245353684,0.573772537996,0.819000162497,0.00213433191525,0.0,0.818956338104,-0.573710138423,-0.0121630691389,0.0,-0.00873723596154,0.00872692771965,-0.999923747813,0.0,0.646831123591,0.24194433451,0.303383999587,1.0,-0.100668,-0.132306514286,1.085
0.452897056872,0.461687356621,-0.124808583223,-1.49060188613,0.0715844623473,1.94335171488,0.140168007691,-0.0910944251544,-0.542144757302,-0.00785008507235,-0.822618984591,-0.0524056628912,0.301897155132,-0.133770907878,0.573628911816,0.819099860809,0.00245691937245,0.0,0.81906041892,-0.573565349804,-0.0119819265352,0.0,-0.00840535236696,0.00888571596784,-0.999925194254,0.0,0.645092704185,0.239671800228,0.303512065002,1.0,-0.116997714286,-0.15376842449,1.102
0.451369935462,0.452850041183,-0.124950626628,-1.50438014185,0.0707070385241,1.94812537689,0.138035759977,-0.113948202571,-0.630707473078,-0.0149199955974,-0.935298613211,-0.0622704136162,0.332898980564,-0.154891370753,0.573638975201,0.819093209469,0.00232104164717,0.0,0.819051788725,-0.573575754668,-0.0120734396746,0.0,-0.00855814400877,0.00882701882236,-0.999924418099,0.0,0.643130433039,0.237099825033,0.303463945964,1.0,-0.132366857143,-0.173967869388,1.118
0.449251983359,0.440808674669,-0.125136598007,-1.52272826272,0.0694599047434,1.9546557075,0.135186782747,-0.124798629664,-0.690159783215,-0.00834077402118,-1.07099357227,-0.0664816733357,0.362318935716,-0.164685821705,0.573657808195,0.819079704336,0.00242980328967,0.0,0.819040275709,-0.573594737968,-0.0119519974572,0.0,-0.00839607781275,0.00884663374626,-0.999925618708,0.0,0.640812455781,0.23404930045,0.303536631061,1.0,-0.148696571429,-0.195429779592,1.135
0.446933598026,0.428140104644,-0.125290908199,-1.5418784473,0.0681928383345,1.9612679583,0.132062527059,-0.139852029676,-0.770806434134,-0.0118838676361,-1.15640450418,-0.0709909156143,0.397858290385,-0.184164554094,0.573599642316,0.819120142622,0.00252768426258,0.0,0.819081720796,-0.573535907211,-0.0119350198531,0.0,-0.00832665779156,0.00891647476396,-0.999925578855,0.0,0.638178941734,0.230639839003,0.303640157944,1.0,-0.165026285714,-0.216891689796,1.152
0.444420025389,0.415225744647,-0.125471380004,-1.56121619529,0.066819645361,1.9680106688,0.128847568725,-0.16270980185,-0.841896542991,-0.0156139234404,-1.23180551916,-0.0895600802049,0.45517231075,-0.193672104383,0.573594030829,0.81912340556,0.00273517119809,0.0,0.819088323157,-0.573530215844,-0.0117540326242,0.0,-0.00805945507405,0.00898256268375,-0.999927176724,0.0,0.635518483156,0.227077972938,0.303793101228,1.0,-0.180395428571,-0.237091134694,1.168
0.441226865745,0.399567617468,-0.125650774266,-1.58460643546,0.0652275841735,1.97606826457,0.124869575843,-0.183758644986,-0.915078960767,-0.0164573063877,-1.31834779837,-0.0868533887507,0.448937538516,-0.228426247537,0.57359382161,0.819122634088,0.00299750514692,0.0,0.819090689906,-0.573528790154,-0.0116582792508,0.0,-0.00783055567089,0.0091425215295,-0.999927545724,0.0,0.632213875265,0.222722153853,0.303938795806,1.0,-0.197685714286,-0.259815510204,1.186
0.437833827825,0.383768880447,-0.125830146157,-1.60823999586,0.0635139585137,1.98409702964,0.120746908137,-0.204768707267,-0.947602516556,-0.00459737717145,-1.4156568408,-0.100540605901,0.456203618534,-0.263671105635,0.573566511512,0.819141345753,0.00310796579195,0.0,0.81911097678,-0.573501289271,-0.0115855868976,0.0,-0.00770795925604,0.00919105051252,-0.999928053389,0.0,0.628791755487,0.218220539968,0.303999525057,1.0,-0.214015428571,-0.281277420408,1.203
0.434268925581,0.367870681348,-0.126040691415,-1.63176233621,0.0617283243679,1.99193961814,0.116516349756,-0.232425562885,-1.00615287786,-0.0160779098502,-1.51006585164,-0.111012971384,0.498925064985,-0.263489997884,0.57353305598,0.819164216676,0.00325064872393,0.0,0.819136135336,-0.573467928968,-0.0114574488208,0.0,-0.00752153410974,0.00923412725456,-0.999929076194,0.0,0.625537752594,0.213914804641,0.304117125387,1.0,-0.228424,-0.3002144,1.218
0.430029480744,0.350197823784,-0.12626673633,-1.6579530746,0.0597001416073,2.00049856644,0.111699707042,-0.262017171762,-1.04687227736,-0.0125389375709,-1.56200239909,-0.120039397085,0.507708245456,-0.300280881169,0.573575117806,0.819135097583,0.00316591899853,0.0,0.819106187696,-0.57351056527,-0.0114643666925,0.0,-0.00757532298337,0.00916907585078,-0.999929268763,0.0,0.621333235677,0.208344143054,0.304102540114,1.0,-0.245714285714,-0.32293877551,1.236
0.425337403443,0.331559358711,-0.126520210499,-1.68523572393,0.0576253396879,2.00931703601,0.106459705999,-0.285168728277,-1.10362532014,-0.0123471809676,-1.67518572066,-0.1342289281,0.521753406285,-0.326750036916,0.57362096622,0.819102561251,0.0032753879528,0.0,0.81907474855,-0.573555690921,-0.0114530607707,0.0,-0.00750275846246,0.00925268149209,-0.999929045733,0.0,0.617099982931,0.202724252955,0.304160158147,1.0,-0.262044,-0.344400685714,1.253
0.420592547239,0.313205022081,-0.126695717819,-1.71190412276,0.0554074142788,2.01775230398,0.101191523962,-0.316740228734,-1.15246801038,-0.011986195144,-1.67048999115,-0.145262608885,0.520037852242,-0.348010602225,0.573492365976,0.81919259098,0.00327901700923,0.0,0.819165178943,-0.573427533837,-0.0114026289053,0.0,-0.00746081412366,0.00922555480487,-0.999929610218,0.0,0.612818862443,0.197192267325,0.304198317671,1.0,-0.277413142857,-0.364600130612,1.269
0.415030508871,0.292894258643,-0.126926117392,-1.74118060525,0.0529685134847,2.02675316982,0.0951307528969,-0.339580099916,-1.20882006032,-0.0203917967326,-1.71331968473,-0.142850196961,0.505102235038,-0.352301858867,0.573369901917,0.819278482957,0.00323571334002,0.0,0.819250330554,-0.573304990534,-0.011446860559,0.0,-0.00752326079374,0.00921432194365,-0.999929245906,0.0,0.607992732817,0.190934137516,0.304219209312,1.0,-0.293742857143,-0.386062040816,1.286
0.408901077106,0.271723945426,-0.127182965536,-1.77132844775,0.050476597131,2.03593345281,0.0886950399462,-0.372909023689,-1.26836720184,-0.021311261934,-1.77194132683,-0.149308825606,0.537000879599,-0.389545772744,0.573359137662,0.819285454898,0.00337484105574,0.0,0.819258497559,-0.573293067715,-0.0114594758975,0.0,-0.00745395245339,0.00933544216768,-0.99992864151,0.0,0.602919756048,0.184315686858,0.304278970423,1.0,-0.310072571429,-0.40752395102,1.303
0.401687863189,0.248397829772,-0.127585008089,-1.8041412992,0.0475588762138,2.0457601567,0.0814004979126,-0.412864702804,-1.3038996288,-0.0259131241234,-1.84901732362,-0.165037270412,0.556382712001,-0.415445858698,0.573483937029,0.819197407842,0.00353947113797,0.0,0.819173162001,-0.573418134261,-0.0113013653828,0.0,-0.00722859146323,0.00938077188634,-0.999929871833,0.0,0.597300351046,0.176782368472,0.304370457171,1.0,-0.327362857143,-0.430248326531,1.321
0.39477075848,0.227003808076,-0.127878857765,-1.83389114609,0.0448828429252,2.05440313993,0.0744358345238,-0.439414615898,-1.34648626621,-0.0168015561888,-1.87963214829,-0.161753060974,0.541069165453,-0.445468622861,0.573467297732,0.819208275474,0.00371574069359,0.0,0.819186197233,-0.573400903151,-0.0112305578898,0.0,-0.00706969300539,0.00948442377829,-0.999930030125,0.0,0.592028853099,0.169856280816,0.304450531588,1.0,-0.342732,-0.450447771429,1.337
0.386841270104,0.203594539359,-0.128190085303,-1.86626473684,0.0418045263196,2.0633906559,0.0664903306356,-0.475186515744,-1.38970150714,-0.0210817098452,-1.93518252084,-0.190742151316,0.523424045486,-0.48485237085,0.573314992331,0.819315214909,0.00363938026423,0.0,0.81929200722,-0.573248620867,-0.0112859417344,0.0,-0.00716061192428,0.00945229674664,-0.99992968739,0.0,0.58608295758,0.162165492492,0.304434575946,1.0,-0.359061714286,-0.471909681633,1.354
0.379151079797,0.182285761675,-0.128543248408,-1.89525532151,0.0390004145453,2.07111059631,0.0589995935017,-0.530201553544,-1.43322937044,-0.026916878375,-1.93585593605,-0.180314133423,0.49736498231,-0.520568169567,0.573311089032,0.8193180668,0.00361213347766,0.0,0.819294094442,-0.573244247886,-0.0113563189065,0.0,-0.0072339417896,0.00947028551863,-0.999928989368,0.0,0.580629246997,0.154990102705,0.304468945746,1.0,-0.373470285714,-0.490846661224,1.369
0.369082370803,0.155986328647,-0.129070750826,-1.93049509203,0.0354629219613,2.08030150674,0.0494705320603,-0.578542582733,-1.47666843163,-0.0256841257337,-1.94891084863,-0.194342306156,0.51796531929,-0.542444635962,0.573471366149,0.819205378138,0.00372659864079,0.0,0.819182911195,-0.573404234656,-0.0112999374119,0.0,-0.00712025914605,0.00953314001093,-0.99992920807,0.0,0.573865149711,0.145939464657,0.304554685098,1.0,-0.390760571429,-0.513571036735,1.387
0.358885899547,0.130450477062,-0.129536403167,-1.96435588441,0.0318941023129,2.08877111809,0.0398043356527,-0.618243109635,-1.49531724172,-0.0287816135877,-1.9967400509,-0.207637721664,0.47729054436,-0.591737402882,0.573420483977,0.819240927717,0.00374136484372,0.0,0.819218709231,-0.573353398856,-0.0112842087373,0.0,-0.00709949807235,0.00953577610672,-0.999929330553,0.0,0.567125863084,0.13712111114,0.304570760724,1.0,-0.407090285714,-0.535032946939,1.404
0.348385247256,0.1057918287,-0.130117994664,-1.99656773602,0.0283186344906,2.09642723673,0.0300775808874,-0.670493017584,-1.53244998355,-0.034055062357,-2.03197696483,-0.242141817547,0.464535427366,-0.633109383109,0.573525777174,0.819167434952,0.00369368812142,0.0,0.819145014951,-0.573459353299,-0.0112499553278,0.0,-0.00709755369771,0.00947798806464,-0.999929893779,0.0,0.560545665353,0.128352546833,0.304584535914,1.0,-0.422459428571,-0.555232391837,1.42
0.336470131582,0.0791145880567,-0.130632969603,-2.03072978454,0.0245275845724,2.10407530683,0.0190077375616,-0.715783167191,-1.57955381196,-0.0328490001075,-1.97639522695,-0.215739209721,0.425562553259,-0.66478313279,0.573459971985,0.819213062983,0.00379010162373,0.0,0.819191265023,-0.573392474881,-0.0112910566774,0.0,-0.00707670162338,0.00957997163376,-0.999929069703,0.0,0.553318616599,0.118884031261,0.304656157232,1.0,-0.42998,-0.565116571429,1.437
0.322933945245,0.0510116578545,-0.131243289172,-2.06638020578,0.0202994073203,2.11162986548,0.00684601241328,-0.769019004494,-1.57594648716,-0.0363803469554,-1.97148510382,-0.240201833437,0.39919587821,-0.677933052145,0.573612608244,0.819106650662,0.00369017686417,0.0,0.81908347601,-0.573545237261,-0.0113519621371,0.0,-0.00718212259763,0.00953437506944,-0.999928753866,0.0,0.545558262334,0.108573880564,0.304611918965,1.0,-0.42998,-0.565116571429,1.455
0.311170157226,0.0277712714341,-0.131646646734,-2.09516215463,0.0168164766355,2.11722249315,-0.00352418813737,-0.792464441872,-1.57711965919,-0.0223657451328,-1.91656170746,-0.241741055215,0.369120901222,-0.697119158926,0.573766802728,0.818998611887,0.00369820440489,0.0,0.818974999885,-0.573698670849,-0.0114250396432,0.0,-0.00723557596417,0.00958422994531,-0.999927891889,0.0,0.539067858153,0.100042267013,0.304657878314,1.0,-0.42998,-0.565116571429,1.47
0.296458300374,0.000309334020972,-0.132219218933,-2.12853012293,0.012579088977,2.12338325591,-0.0165407331363,-0.837424192981,-1.5103055062,-0.0449014368059,-1.84960755539,-0.227725933651,0.328600891179,-0.7407653137,0.573899895252,0.818904779977,0.00382340968858,0.0,0.818883024035,-0.573831723952,-0.0113354503494,0.0,-0.00708879718267,0.00963652458903,-0.999928440614,0.0,0.531359715091,0.089756579825,0.304753478008,1.0,-0.42998,-0.565116571429,1.488
0.282066919444,-0.0252126946233,-0.132588461771,-2.15890213143,0.00860772011763,2.12855115912,-0.0293184315237,-0.855297063937,-1.51377045053,-0.0224899718887,-1.75614144154,-0.235365750408,0.28162546869,-0.756470471395,0.573798493827,0.818974887022,0.00402117021395,0.0,0.818955966589,-0.57373023471,-0.0112022082131,0.0,-0.00686739249368,0.00972115870204,-0.999929166488,0.0,0.524102184334,0.0801963205472,0.304876363875,1.0,-0.42998,-0.565116571429,1.505
0.26787837626,-0.0488804816044,-0.133120914156,-2.18669622181,0.00490315681524,2.13280891677,-0.0416930080185,-0.900111717801,-1.46696292586,-0.0367542532177,-1.71219370419,-0.225663610832,0.235959484944,-0.782512455374,0.57402051607,0.81881880217,0.00411864597143,0.0,0.818800808072,-0.57395152228,-0.0112086428202,0.0,-0.00681407555503,0.00980653039178,-0.999928697626,0.0,0.517258693532,0.0710448917753,0.304931304376,1.0,-0.42998,-0.565116571429,1.521
0.252425088122,-0.0737165732772,-0.13352524867,-2.21544006994,0.000909853469651,2.13679867724,-0.0553152838032,-0.923188941485,-1.46779920362,-0.0255761263643,-1.67759893748,-0.226346663896,0.223344123272,-0.812425586533,0.57393078488,0.818881529799,0.00415225505172,0.0,0.818863851224,-0.573861554273,-0.0112096648955,0.0,-0.00679669885793,0.00983389266752,-0.999928547167,0.0,0.509933823874,0.0615002412946,0.304950963726,1.0,-0.42998,-0.565116571429,1.538
0.236314505498,-0.0981519934581,-0.134048576781,-2.24326838914,-0.00304957024593,2.14017821343,-0.0695040548806,-0.941021331692,-1.4385934295,-0.0165359605197,-1.62491306887,-0.233480865203,0.2061733724,-0.826557059775,0.573914372892,0.818893061682,0.00414644633678,0.0,0.818875084303,-0.573844835171,-0.011244925804,0.0,-0.00682910638681,0.00984923576292,-0.999928175351,0.0,0.502180175285,0.0513051101907,0.304941071023,1.0,-0.42998,-0.565116571429,1.556
0.220626928441,-0.120739494953,-0.134483507709,-2.2685926651,-0.0068024772738,2.14283699913,-0.0832717814254,-0.993429608475,-1.39710750132,-0.0356455269341,-1.54964658686,-0.218997293467,0.167687651525,-0.864115893644,0.573913712615,0.818893880774,0.00407546368591,0.0,0.818874363259,-0.573843464049,-0.0113667439094,0.0,-0.00696961301927,0.00986101278325,-0.999927089803,0.0,0.495732045438,0.0428660323803,0.304898200101,1.0,-0.42998,-0.565116571429,1.571
0.203365146379,-0.144384799198,-0.134971451564,-2.29471589294,-0.0107720518497,2.14511925936,-0.0985002332645,-1.02806611277,-1.40141930623,-0.0261187545044,-1.5139831187,-0.240792746374,0.140543922217,-0.910530324459,0.573836511032,0.818948657083,0.00393733037744,0.0,0.818926612979,-0.573765628429,-0.011530528576,0.0,-0.00718394436765,0.00984121239244,-0.999925767986,0.0,0.488391332106,0.0332917439275,0.304814574805,1.0,-0.42998,-0.565116571429,1.588
0.184421369537,-0.169062483178,-0.135571159572,-2.32145637258,-0.014924651556,2.14695641568,-0.115261614739,-1.0641884969,-1.39336033364,-0.0278579372023,-1.45981039315,-0.22955270355,0.106647090339,-0.940957565688,0.573796468238,0.818977260899,0.00382178885347,0.0,0.818952581107,-0.57372441458,-0.0117351146186,0.0,-0.00741828127896,0.00986362107378,-0.999923836141,0.0,0.480606435954,0.0231399534468,0.304725643609,1.0,-0.42998,-0.565116571429,1.606
0.168086180565,-0.189220264302,-0.136057759881,-2.34303765825,-0.0183708891447,2.14792044665,-0.129761669792,-1.11152923511,-1.33380716231,-0.0439758579723,-1.39852867208,-0.225168771842,0.0610340536127,-0.970824022924,0.573720244531,0.819031857984,0.0035557733763,0.0,0.81900176102,-0.573646631697,-0.0120997640126,0.0,-0.0078704863113,0.00985425395,-0.9999204714,0.0,0.474071780679,0.0146942698367,0.30457998134,1.0,-0.42998,-0.565116571429,1.621
0.147773428914,-0.213250396958,-0.136677187687,-2.36799454547,-0.0224019019972,2.14869358572,-0.147837556096,-1.14237606699,-1.31978080185,-0.0237017778498,-1.33657407763,-0.218336913189,0.0130689129433,-1.00870865198,0.573678813503,0.819060825892,0.00356781853837,0.0,0.819029470123,-0.573603391055,-0.0122728864323,0.0,-0.00800588182305,0.009963035273,-0.999918318556,0.0,0.466277625551,0.00454909663503,0.304551035004,1.0,-0.42998,-0.565116571429,1.639
0.127870023122,-0.235597872473,-0.137420677061,-2.39065314075,-0.0263042650639,2.14903921011,-0.165461907797,-1.184938743,-1.28509722141,-0.0359584414111,-1.32160849834,-0.216402772093,0.0109335176929,-1.05283620113,0.573811503623,0.818967578802,0.00363456757274,0.0,0.818937167205,-0.573735876641,-0.0122395639383,0.0,-0.0079386770757,0.00999987758778,-0.999918486605,0.0,0.458942256894,-0.00512330148254,0.304571193619,1.0,-0.42998,-0.565116571429,1.656
0.108479804614,-0.256200121399,-0.138116741953,-2.41097472274,-0.0297893184003,2.14898912342,-0.182754478488,-1.22536434771,-1.27086025546,-0.037980480078,-1.27121192637,-0.235359098671,-0.0152246297299,-1.09516100327,0.573947208642,0.818871214042,0.00390939987016,0.0,0.818844694509,-0.573870867854,-0.0120971155239,0.0,-0.0076626365087,0.0101444923429,-0.999919183373,0.0,0.452112078089,-0.0142179537204,0.304671400633,1.0,-0.42998,-0.565116571429,1.672
0.0872888601943,-0.277647848742,-0.138837496092,-2.43168580726,-0.0334473670167,2.14864664745,-0.201758064261,-1.26605033336,-1.22727221157,-0.0513380642811,-1.20153580996,-0.195387417147,-0.0455932655365,-1.11694372798,0.574031098006,0.818810586179,0.00427427002641,0.0,0.818790060882,-0.573955149158,-0.011792788307,0.0,-0.00720295929511,0.0102693547525,-0.99992132577,0.0,0.444887687428,-0.0238336617478,0.3048059496,1.0,-0.42998,-0.565116571429,1.689
0.0641570590862,-0.299757134493,-0.139558081626,-2.45262801721,-0.0373170192331,2.14774510041,-0.222754049668,-1.30441424339,-1.22750446417,-0.0562161801005,-1.1382397935,-0.214621500289,-0.0455573385796,-1.177003377,0.573911437246,0.818893188835,0.00451158283325,0.0,0.818876952781,-0.573836544346,-0.0115283770769,0.0,-0.00685173028109,0.0103108971768,-0.999923366659,0.0,0.437221202776,-0.0339743162721,0.304926664132,1.0,-0.42998,-0.565116571429,1.707
0.0442785875693,-0.317533762553,-0.140173651058,-2.46945569722,-0.040448971142,2.14657895113,-0.240744718338,-1.32561637621,-1.16601380968,-0.0384123856658,-1.10580500242,-0.198154043725,-0.0867666936489,-1.22953064458,0.57393253638,0.81887854192,0.00448599698628,0.0,0.818861058784,-0.573856348298,-0.0116706823325,0.0,-0.006982687921,0.0103717922434,-0.999921830942,0.0,0.430754510659,-0.0424181601281,0.30487578959,1.0,-0.42998,-0.565116571429,1.722
0.0197217452615,-0.338364546383,-0.140970264052,-2.48857443438,-0.0441646531669,2.14496463446,-0.263197487412,-1.3735991873,-1.14551377091,-0.0467751662954,-1.03910068762,-0.199281345873,-0.111265960771,-1.27266441876,0.573879884352,0.8189145922,0.00463852556232,0.0,0.818899741962,-0.57380423935,-0.0115175700347,0.0,-0.00677043088787,0.0104083895393,-0.999922910375,0.0,0.423071807816,-0.0525761582461,0.30493540931,1.0,-0.42998,-0.565116571429,1.74
-0.00425705415685,-0.357361979908,-0.141740309399,-2.50574885897,-0.0476075140842,2.1430420221,-0.285138250002,-1.42853703972,-1.09468769336,-0.0482098119267,-0.983609007852,-0.201343540282,-0.112116728961,-1.3165084121,0.573904914961,0.818896854018,0.00467311073245,0.0,0.818882377363,-0.573829052375,-0.0115159713631,0.0,-0.00674895595524,0.0104360015174,-0.999922767751,0.0,0.415768588558,-0.0621980250621,0.30494716656,1.0,-0.42998,-0.565116571429,1.757
-0.0274267986503,-0.374586131995,-0.142473814542,-2.52127462738,-0.0507623919097,2.14092645567,-0.306528888934,-1.46093822516,-1.05384014389,-0.0313039369196,-0.961710903004,-0.198925920559,-0.149409801279,-1.33891273828,0.573850206874,0.818935813696,0.00456289589084,0.0,0.818918280304,-0.573772223123,-0.0117912280135,0.0,-0.00703833149823,0.0105032397109,-0.999920068728,0.0,0.40880806867,-0.0712202420266,0.304846004457,1.0,-0.42998,-0.565116571429,1.773
-0.0527006732437,-0.392316735189,-0.143302010855,-2.53659978911,-0.0539010994384,2.13861797399,-0.329868268659,-1.49256232877,-1.02715997503,-0.0381800463766,-0.903326362758,-0.181209311206,-0.152066240782,-1.38057450879,0.573974379235,0.818847409064,0.00480411816507,0.0,0.818833406177,-0.573896209652,-0.0116507672405,0.0,-0.00678326596175,0.0106212188267,-0.999920585353,0.0,0.401537145794,-0.080824141694,0.304927721464,1.0,-0.42998,-0.565116571429,1.79
-0.0786660643012,-0.409145601954,-0.144133165819,-2.55109485186,-0.0570259019354,2.13595839809,-0.354078252666,-1.52473897272,-0.964231309103,-0.0391741270424,-0.834273527409,-0.181639542251,-0.168243580855,-1.42979745689,0.573965719911,0.818853587855,0.00478549110483,0.0,0.818838118517,-0.573885709644,-0.0118353213274,0.0,-0.00694520409034,0.0107118174942,-0.999918507233,0.0,0.394182018358,-0.0904257098616,0.304894562948,1.0,-0.42998,-0.565116571429,1.807
-0.103702018198,-0.42427555764,-0.144895840753,-2.56365627808,-0.0597914841945,2.13362957312,-0.37759287646,-1.56972367952,-0.922689912792,-0.0331309245024,-0.767991443198,-0.182595725104,-0.152596616004,-1.48412793087,0.573937827866,0.81887161515,0.00503930021923,0.0,0.818860990428,-0.573859486225,-0.0115202138266,0.0,-0.00654185181928,0.0107385796197,-0.999920940416,0.0,0.387394200963,-0.0994733351571,0.305006431826,1.0,-0.42998,-0.565116571429,1.823
-0.130887108218,-0.4393430226,-0.145654538714,-2.57633161149,-0.0626645519013,2.130757101,-0.403190487778,-1.59522291224,-0.868995049015,-0.0286262296184,-0.720599058189,-0.181572049288,-0.172811006121,-1.51265786206,0.57388490268,0.818909250491,0.00495023616092,0.0,0.818895674967,-0.573803956799,-0.0118169193828,0.0,-0.00683665112535,0.0108354872289,-0.999917922841,0.0,0.380030414838,-0.109015575658,0.304923637272,1.0,-0.42998,-0.565116571429,1.84
-0.158739677604,-0.453548737213,-0.146408169278,-2.58774315347,-0.0653199924778,2.12810614305,-0.429570093274,-1.64288466273,-0.787752111475,-0.0202731921003,-0.668356067543,-0.154647268157,-0.167681440488,-1.56001599853,0.573872106951,0.818916933114,0.00515833542081,0.0,0.818907378153,-0.573792643686,-0.0115522707773,0.0,-0.00650066039521,0.010853933878,-0.999919963564,0.0,0.372814557792,-0.118608885008,0.305028763787,1.0,-0.427730857143,-0.562160555102,1.857
-0.186901735026,-0.466362538575,-0.146909392928,-2.59829763025,-0.0676821525716,2.12531527373,-0.456377934977,-1.66876159266,-0.71057458213,-0.018588843597,-0.597314587054,-0.143736234613,-0.16755038203,-1.56704340965,0.573735448264,0.819012921344,0.00512025173645,0.0,0.819000650839,-0.573652483371,-0.0118957618375,0.0,-0.00680566856022,0.0110187218994,-0.999916131805,0.0,0.36558396174,-0.12797475163,0.30492177953,1.0,-0.411401142857,-0.540698644898,1.874
-0.21491626926,-0.477828636602,-0.147221799209,-2.60732979229,-0.0696676047028,2.12283094222,-0.482806692918,-1.64146890407,-0.6484058431,-0.0110775191625,-0.505344277338,-0.119520746707,-0.142968726074,-1.54704184104,0.57388470403,0.81890726906,0.00528942927032,0.0,0.818897562332,-0.573801717049,-0.0117948641217,0.0,-0.0066239439008,0.0111006065623,-0.99991644646,0.0,0.358699542425,-0.137099611287,0.304974881082,1.0,-0.395071428572,-0.519236734694,1.891
-0.24246641055,-0.487931827975,-0.147306080727,-2.61530699128,-0.0712776094855,2.12051527377,-0.508914281807,-1.60692469406,-0.568536136645,8.95423022367e-05,-0.450715804576,-0.0906791675766,-0.137457149459,-1.52943787257,0.573966278115,0.818849003508,0.00545600052736,0.0,0.818840956587,-0.573881835446,-0.0118268196652,0.0,-0.0065534060741,0.0112560090692,-0.999915173967,0.0,0.35203923349,-0.145825631445,0.304974282852,1.0,-0.378741714286,-0.49777482449,1.908
-0.267945768119,-0.496192858268,-0.147148015579,-2.62179424517,-0.0724557015683,2.11849963237,-0.533055613935,-1.57958057608,-0.487770684806,0.00418271339172,-0.385636790843,-0.0675004452454,-0.110100035956,-1.50237012853,0.574055967228,0.818785074289,0.0056120863011,0.0,0.818778257708,-0.573969549217,-0.0119108428764,0.0,-0.00653137947427,0.0114327647878,-0.999913312728,0.0,0.34601502886,-0.15370161904,0.304962615981,1.0,-0.363372571429,-0.477575379592,1.924
-0.294167054909,-0.503685794666,-0.146844988256,-2.62760804914,-0.0735155675277,2.11665124265,-0.558045689447,-1.51990402343,-0.406842151343,0.0180468450053,-0.310859035287,-0.0569675985443,-0.0942865293459,-1.4418473725,0.574042042982,0.818794004061,0.00573225118899,0.0,0.818788674681,-0.57395503877,-0.0118939727171,0.0,-0.00644878325089,0.0115213645737,-0.999912831877,0.0,0.339944036902,-0.161686067758,0.304968769122,1.0,-0.347042857143,-0.456113469388,1.941
-0.319632801635,-0.510056134532,-0.146448767388,-2.63235606407,-0.0743345666986,2.11510873231,-0.582316589072,-1.47846463314,-0.347835542814,0.0215786237093,-0.260653182016,-0.0461836198235,-0.0800458040441,-1.39464951179,0.574123619913,0.818735413865,0.0059277351202,0.0,0.818734067777,-0.574038547564,-0.0116197707865,0.0,-0.00611088703863,0.0115246454393,-0.999914916184,0.0,0.333866509529,-0.169801677565,0.305060816702,1.0,-0.329752571429,-0.433389093878,1.959
-0.342878659932,-0.515046114131,-0.145874252951,-2.63621025771,-0.0749152589043,2.11365932771,-0.604507546412,-1.434603327,-0.285248070027,0.0427672177899,-0.225804321393,-0.0346086884143,-0.0890953673221,-1.36255167765,0.574077524353,0.818767613329,0.00594460232678,0.0,0.818765443253,-0.57399044539,-0.0117840755458,0.0,-0.00623639454265,0.0116324318355,-0.999912893163,0.0,0.328632026433,-0.176613041671,0.305028292425,1.0,-0.314383428572,-0.41318964898,1.975
-0.367954768446,-0.519556773719,-0.145107693721,-2.63983501477,-0.0753449280169,2.11236265836,-0.62851121327,-1.37064182009,-0.230191496106,0.0591415776121,-0.182804130447,-0.0261388717624,-0.061229468642,-1.31324086168,0.573997134901,0.818823965898,0.00594549394683,0.0,0.818820721234,-0.573908056884,-0.0119547322051,0.0,-0.0063767771299,0.0117305015244,-0.999910862051,0.0,0.323356853134,-0.183468998345,0.304964412095,1.0,-0.298053714286,-0.391727738776,1.992
-0.390571183484,-0.522907948697,-0.144353630409,-2.64246022784,-0.0756048250011,2.11136388661,-0.650166595965,-1.30620808931,-0.186677809295,0.0584911082582,-0.141749258038,-0.0231703026961,-0.0540193503172,-1.26181289775,0.57397828084,0.81883701437,0.00596857798771,0.0,0.818833515111,-0.573888092349,-0.012036564836,0.0,-0.00643081279125,0.0117962255996,-0.999909742781,0.0,0.318388696322,-0.189986383297,0.304936875621,1.0,-0.281724,-0.370265828572,2.009
-0.41094202183,-0.525342309669,-0.143636113652,-2.64436324071,-0.0756916072926,2.11062060681,-0.669736706941,-1.26120604335,-0.134057459963,0.0345137770452,-0.108472917534,-0.00943036555838,-0.0405246116104,-1.20017735453,0.573973067525,0.818840192559,0.00603354852318,0.0,0.818837166622,-0.573881918051,-0.0120824498296,0.0,-0.00643117496596,0.0118757232138,-0.999908799435,0.0,0.313960738694,-0.195822364916,0.304919784835,1.0,-0.266354857143,-0.350066383674,2.025
-0.432700432982,-0.527395141379,-0.142670855197,-2.64601329674,-0.075733827883,2.10999365773,-0.690630995609,-1.19112611147,-0.100740558845,0.0495657892025,-0.0817116056865,-0.00852420724354,-0.0339049847155,-1.13810372555,0.573880442663,0.818905449733,0.00598738916407,0.0,0.818901679756,-0.573789249785,-0.0121112602702,0.0,-0.00648260231193,0.0118537266698,-0.99990872835,0.0,0.309272284448,-0.201979818371,0.304893159607,1.0,-0.249064571429,-0.327342008163,2.043
-0.45426038445,-0.528882516977,-0.141677386289,-2.64723302353,-0.0756854004926,2.10948702783,-0.711343909298,-1.09531881651,-0.0662011611707,0.0619877227308,-0.064486594045,-0.00375023631958,-0.0166969140364,-1.06162956892,0.573819880295,0.818948251196,0.0059374862729,0.0,0.818943555364,-0.573728417083,-0.0121615566705,0.0,-0.00655330713782,0.0118412370917,-0.999908415441,0.0,0.304639494032,-0.208047873439,0.30486555018,1.0,-0.230813714286,-0.303355167347,2.062
-0.468353220399,-0.529567370165,-0.141015878824,-2.64776288854,-0.0756608112831,2.10920993079,-0.72469849226,-1.05817746262,-0.0544465134647,0.0554714024887,-0.0389837405374,0.00113883733497,-0.0210851725164,-1.00293657776,0.57393624715,0.818867264191,0.0058595856976,0.0,0.818861658273,-0.573845290023,-0.0121620158716,0.0,-0.00659670801686,0.0117786385835,-0.999908869406,0.0,0.301622287249,-0.212016249352,0.304868734341,1.0,-0.218326285714,-0.286943118367,2.075
-0.486592980526,-0.530110695614,-0.140033365057,-2.64818719732,-0.0754041476563,2.10897271338,-0.742128426679,-1.00212946054,-0.0274002889937,0.0491415178794,-0.0115113512572,0.018219389258,-0.0110258979697,-0.936319804582,0.573990326248,0.818829408282,0.00585255561521,0.0,0.818823952591,-0.573899820615,-0.012127549723,0.0,-0.00657174027229,0.0117535352357,-0.999909329209,0.0,0.297761571789,-0.217098657785,0.304880257878,1.0,-0.201036,-0.264218742857,2.093
-0.503366064625,-0.530310198414,-0.138868835213,-2.64830939501,-0.0750232395117,2.10884469173,-0.758309364309,-0.905794694458,-0.00641825967206,0.0647930693107,-0.00341894199003,0.025362819854,-0.00273161615519,-0.875550261912,0.573808753068,0.818956985397,0.00580670929673,0.0,0.818951616679,-0.573719699628,-0.0120292434763,0.0,-0.00652013499322,0.0116581236206,-0.999910784017,0.0,0.294272588429,-0.22169826648,0.304917744841,1.0,-0.183745714286,-0.241494367347,2.111
-0.516460640985,-0.530294664152,-0.137997009595,-2.64830381975,-0.0746460696789,2.10880022174,-0.770724433714,-0.857292765435,0.00133202857626,0.0641812234751,0.00157370826418,0.0332944003079,-0.00346047522796,-0.80819203308,0.57391137803,0.818884863421,0.00583588287865,0.0,0.818880200188,-0.573822771087,-0.0119746408567,0.0,-0.00645721397865,0.0116514959028,-0.999911269579,0.0,0.291529836804,-0.225277567134,0.304934092993,1.0,-0.169337142857,-0.222557387755,2.126
-0.530670190349,-0.530052659569,-0.13677720853,-2.64818985966,-0.0740775541372,2.10880176348,-0.784368471249,-0.762017977172,0.0138399570788,0.0638235478187,0.00649234676689,0.0345989582035,-0.000165022769906,-0.740750006906,0.573763434619,0.818988465663,0.00584475038195,0.0,0.81898390395,-0.573674796879,-0.0119724432414,0.0,-0.00645243116163,0.0116563310609,-0.9999112441,0.0,0.288599363529,-0.229068608853,0.304930106175,1.0,-0.152046857143,-0.199833012245,2.144
-0.542362330458,-0.529724532385,-0.135813291493,-2.64799071241,-0.0735898205607,2.1088199853,-0.795375781974,-0.710916657831,0.0250239977133,0.0544174715391,0.0183356157293,0.0336605957316,0.000550561302671,-0.662137845295,0.573863947689,0.818917834286,0.00587342598302,0.0,0.818913558263,-0.573775016089,-0.0119817322131,0.0,-0.00644215313848,0.0116859373094,-0.999910964802,0.0,0.286171299294,-0.232191471915,0.304927851656,1.0,-0.136677714286,-0.179633567347,2.16
-0.552740483052,-0.52922436465,-0.134705800306,-2.64771833006,-0.0729942995135,2.10891060418,-0.805300541392,-0.62591676505,0.0327873288542,0.0633255812367,0.0169509343565,0.0429338527073,0.00472279165422,-0.591714564858,0.5737238902,0.819015813133,0.00589428143098,0.0,0.819011524422,-0.573634386599,-0.0120191628588,0.0,-0.00646284635867,0.0117233910041,-0.999910392845,0.0,0.284081582015,-0.234894117733,0.304905804416,1.0,-0.121308571429,-0.159434122449,2.176
-0.562791414114,-0.528658377401,-0.133668693336,-2.64741083507,-0.0724383879847,2.10897575965,-0.814669021603,-0.574233802939,0.0323919764542,0.0583628359786,0.0143616927122,0.0330367893897,0.00185855828826,-0.533807013862,0.573806047033,0.818958160702,0.00590747905623,0.0,0.818953382005,-0.573715273719,-0.0121198063243,0.0,-0.00653652918011,0.011792595154,-0.999909100112,0.0,0.282029882232,-0.237510362918,0.304871347315,1.0,-0.104978857143,-0.137972212245,2.193
-0.572097244645,-0.528032887628,-0.132581765144,-2.64699681887,-0.0718085286439,2.10912541444,-0.823209398988,-0.471069153177,0.0410103861743,0.0658561213061,0.0251842050422,0.0319545070144,0.0129024911029,-0.449735187784,0.573957757497,0.818851621315,0.00593816302409,0.0,0.818847400496,-0.573867107643,-0.0120923268452,0.0,-0.00649423003739,0.0118031614024,-0.999909251061,0.0,0.280187999346,-0.239916044016,0.304871761483,1.0,-0.0876885714287,-0.115247836735,2.211
-0.578613935144,-0.527507024568,-0.131599802853,-2.64669117842,-0.0712527538497,2.10920688219,-0.82928028273,-0.424934772088,0.0313736031435,0.0570619432085,0.0216122417634,0.0304157783886,0.00886347322098,-0.386061981951,0.573884013113,0.818903258187,0.00594475601841,0.0,0.818898660488,-0.573792510702,-0.0121608147335,0.0,-0.00654760038774,0.0118472779992,-0.99990838127,0.0,0.278937760951,-0.241528672832,0.304850470065,1.0,-0.0732800000001,-0.096310857143,2.226
-0.585402902885,-0.527005860492,-0.13045043971,-2.64636353696,-0.0706138142993,2.10929982266,-0.835307347376,-0.349402468839,0.0289018152187,0.0642488703555,0.0205698383161,0.03433477909,0.0114559656563,-0.302832129707,0.573986971308,0.81883114924,0.00593739876523,0.0,0.818826437553,-0.573895447198,-0.0121666655334,0.0,-0.00655512480803,0.011845434641,-0.999908353809,0.0,0.277660795014,-0.243170456823,0.304853111721,1.0,-0.0559897142858,-0.0735864816328,2.244
-0.590436303405,-0.526554857805,-0.129360174128,-2.64605607756,-0.0699486827568,2.10942283505,-0.839673151923,-0.26654040867,0.0231404988809,0.0602044829707,0.0131553666815,0.0435400990951,0.00240754858298,-0.229188614992,0.574063987546,0.818776961968,0.00596419777091,0.0,0.818772864122,-0.573972810198,-0.0121225835386,0.0,-0.00650252995965,0.0118426899451,-0.999908729734,0.0,0.276795116204,-0.244330301094,0.304865717087,1.0,-0.0396600000001,-0.0521245714287,2.261
-0.594032262391,-0.526198379764,-0.128305170165,-2.64587211834,-0.0693226261488,2.10945892324,-0.842758781533,-0.200289616446,0.0213166654658,0.0710404120416,0.0115830993584,0.0346664954524,0.00014324654206,-0.170876141675,0.574013824136,0.818812025202,0.00597862751706,0.0,0.818807564264,-0.573921591733,-0.012203530148,0.0,-0.00656126013873,0.0119005695659,-0.999907658891,0.0,0.276224772433,-0.245062187142,0.304848176959,1.0,-0.024290857143,-0.0319251265308,2.277
-0.596469953749,-0.526009464732,-0.1273517756,-2.64575423008,-0.0687929011627,2.10947055135,-0.844676867927,-0.14306760109,0.00897106660308,0.0526778501555,0.00560770361576,0.0309342678575,0.00239910431056,-0.1096793465,0.574021936656,0.818806452515,0.00596292361761,0.0,0.818801693144,-0.573929603801,-0.0122206418272,0.0,-0.00658416875825,0.0118975975086,-0.999907543674,0.0,0.27584865595,-0.245545004038,0.304855943977,1.0,-0.0197297560976,-0.0259305365854,2.294
-0.59875556263,-0.52583946148,-0.126513887156,-2.64557810526,-0.0683749263701,2.10951610526,-0.846636697547,-0.118596895258,0.00742889989051,0.0389196439045,0.00618328247006,0.0243278411216,0.000829255739271,-0.105673637252,0.573859788788,0.818920587116,0.00589590624809,0.0,0.818915601094,-0.57376895248,-0.0121315438352,0.0,-0.0065520091947,0.0117902817915,-0.999909026077,0.0,0.275583253752,-0.245932084069,0.304899244151,1.0,-0.0193897560976,-0.0254836794425,2.311
-0.600386590404,-0.525648798693,-0.12607454178,-2.64538361071,-0.06819265879,2.10963550741,-0.848183570759,-0.0983271302271,0.0139783331769,0.0215504978085,0.00796452786377,0.0152778804076,0.00705127957418,-0.0899187336364,0.573705912376,0.819028933775,0.00582053653137,0.0,0.819023975896,-0.573617237311,-0.0119891145607,0.0,-0.00648079640618,0.0116456090935,-0.999911185589,0.0,0.275349460417,-0.246322898217,0.304938662226,1.0,-0.0190697560976,-0.0250631080139,2.327
-0.602054386991,-0.525412823687,-0.125873784743,-2.64522096562,-0.0680257968583,2.10967488711,-0.849776555146,-0.0950594915858,0.010899650705,0.0093849525809,0.00454080086211,0.00637498245664,-0.000885557888713,-0.0900155364583,0.573705141841,0.819029192706,0.00585991645443,0.0,0.819024588891,-0.57361602206,-0.0120053708419,0.0,-0.00647153181966,0.0116871836613,-0.999910760525,0.0,0.275033840755,-0.246760096906,0.304934412911,1.0,-0.0187097560976,-0.0245899651568,2.345
-0.603736249019,-0.52522126893,-0.125775074661,-2.64511183064,-0.067966282504,2.10966969251,-0.851371245246,-0.0914282073548,0.0136161196819,0.00436796095317,0.00798477601763,0.000915434095404,0.000250910612917,-0.080266230703,0.573738178787,0.819005992231,0.00586803155795,0.0,0.819000996549,-0.573648122163,-0.0120808316375,0.0,-0.00652821390662,0.0117373840167,-0.999909804052,0.0,0.274664770206,-0.247216798371,0.304915780276,1.0,-0.0183497560976,-0.0241168222997,2.363
-0.605039254092,-0.525097815146,-0.125714003663,-2.64500238352,-0.0679192137835,2.10968448776,-0.852576414817,-0.0860657897632,0.00619320757276,0.00289568637101,0.00881632685671,0.00477500549842,0.00010771646854,-0.0811033600355,0.573800922309,0.818961956115,0.00587902155945,0.0,0.81895716025,-0.573710908684,-0.0120710328234,0.0,-0.00651298324742,0.0117412626243,-0.999909857838,0.0,0.274384875113,-0.247582646585,0.304923037191,1.0,-0.0180497560976,-0.0237225365854,2.378
-0.606396319493,-0.52493570241,-0.1256702954,-2.64484742468,-0.0678839126175,2.10972221532,-0.854003040294,-0.0784671485535,0.00578974207089,0.000460853664688,0.00945637743615,0.000739208214046,0.000977360965251,-0.0751983438817,0.573736146315,0.819007294995,0.00588490073186,0.0,0.819002819596,-0.573646561932,-0.0120312251268,0.0,-0.00647793279475,0.0117227247309,-0.999910303033,0.0,0.274100297661,-0.247981801543,0.304938341362,1.0,-0.0177097560976,-0.0232756794425,2.395
-0.607743350743,-0.524803343486,-0.125670118085,-2.64471147919,-0.0678459433103,2.10976885294,-0.855307562452,-0.0790446667334,0.00912748776408,-0.000103948784281,0.00682371347668,0.00616324119467,0.00515596676054,-0.0741819720745,0.573794019353,0.818966535125,0.00591477824456,0.0,0.818962795994,-0.573704932737,-0.0119722943447,0.0,-0.00641169440698,0.0117138397495,-0.999910834091,0.0,0.273806452106,-0.248384396644,0.304955627981,1.0,-0.0173697560976,-0.0228288222997,2.412
-0.609046343073,-0.524697210181,-0.125675463021,-2.64460842735,-0.0678302339695,2.10977097862,-0.85656438849,-0.0784981872049,0.00759082479985,0.000113150357727,0.00168360400152,0.00465225038029,0.000898456638306,-0.0779795705419,0.573847655472,0.818928810577,0.00593451076657,0.0,0.81892535081,-0.573758519601,-0.0119656963016,0.0,-0.00639420043621,0.0117266338542,-0.999910796151,0.0,0.273505371675,-0.248764535116,0.304963625042,1.0,-0.0170497560976,-0.0224082508711,2.428
-0.610425123548,-0.524567061612,-0.125678257282,-2.64448165496,-0.0678048284263,2.10978279309,-0.857921707405,-0.0783997280202,0.00798393728466,-0.000508759098542,0.00998595603828,0.00353936741121,0.000594291672762,-0.0759919863087,0.573884608829,0.818902736297,0.00595912215299,0.0,0.818899677666,-0.573795515052,-0.0119487122827,0.0,-0.00636563817674,0.0117373312646,-0.999910852879,0.0,0.273192942928,-0.249170201873,0.30497449001,1.0,-0.0166897560976,-0.0219351080139,2.446
-0.611661529892,-0.524412723677,-0.125670080089,-2.64440026879,-0.067778986145,2.10981360554,-0.859173314467,-0.0725480003028,0.00693760495238,-0.000694253966862,0.000765693548531,0.000302061034657,0.00472731778372,-0.0814103299372,0.573881944756,0.818904444758,0.0059808645233,0.0,0.818901425722,-0.573792314491,-0.0119825574431,0.0,-0.00638091830469,0.0117745385501,-0.99991031804,0.0,0.272909487138,-0.249525038558,0.304957732482,1.0,-0.0163497560976,-0.0214882508711,2.463
-0.612815537337,-0.524258264421,-0.125602762247,-2.64429878689,-0.067757550562,2.10983866281,-0.860391055409,-0.0746437285371,0.00763710896119,0.00612026342003,0.00539946816181,0.000358915228113,0.000661483375441,-0.0772514920521,0.573796778388,0.818964222023,0.00596716505557,0.0,0.818960902797,-0.573706997472,-0.0120028180888,0.0,-0.0064065975776,0.0117742799234,-0.999910156884,0.0,0.272661944474,-0.249848477165,0.304950971894,1.0,-0.0160297560976,-0.0210676794425,2.479
-0.614070281918,-0.524054794614,-0.125473788356,-2.64417864127,-0.0677322082839,2.10985177247,-0.861648929378,-0.0666776167815,0.00999467511087,0.00628168509961,0.00455933700818,0.0019390331196,0.000392826633503,-0.0644241982886,0.573720401442,0.819018031988,0.00592546604344,0.0,0.819013811606,-0.573630155611,-0.0120651511877,0.0,-0.00648267518444,0.0117752886235,-0.999909654669,0.0,0.272403383978,-0.250187100619,0.304935158673,1.0,-0.0156697560976,-0.0205945365854,2.497
-0.61519061168,-0.52387636596,-0.125405180883,-2.64408470617,-0.0677012911106,2.10988189256,-0.862853482129,-0.069945175648,0.00789668960466,0.00231127384433,0.00536852147564,0.00050930433178,0.00232476741442,-0.078399687407,0.573621305746,0.819087480461,0.00591978439236,0.0,0.81908288111,-0.573530551865,-0.0121114347458,0.0,-0.00652527299298,0.0117963981862,-0.999909128772,0.0,0.27216307112,-0.250498009258,0.304916625342,1.0,-0.0153297560976,-0.0201476794425,2.514
-0.61617956213,-0.523715433252,-0.125350119085,-2.64401278854,-0.0676818417016,2.10989685731,-0.863883055509,-0.0657714607282,0.0100997287526,0.00292075805938,-7.50725926423e-05,0.000301935946347,0.00460636718901,-0.0698379116941,0.573561499137,0.819129411683,0.00591274254742,0.0,0.819124280014,-0.573469994437,-0.0121789274135,0.0,-0.00658546400198,0.0118288625895,-0.999908350637,0.0,0.271944235206,-0.250769959726,0.304892871682,1.0,-0.0150297560976,-0.0197533937282,2.529
-0.617316486248,-0.523550698534,-0.125337961995,-2.64391090523,-0.0676578889689,2.1099232968,-0.86496145602,-0.0660544032878,0.0121942438227,0.000556491210638,0.00342727379155,-0.000178492195361,0.00457306088917,-0.0682676346167,0.573625287261,0.819084615617,0.00593036041793,0.0,0.819079498041,-0.573533303523,-0.0122095266544,0.0,-0.00659950330588,0.0118613582367,-0.999907873125,0.0,0.271673153592,-0.251116249707,0.304881101134,1.0,-0.0146697560976,-0.0192802508711,2.547
-0.618464265828,-0.523425710583,-0.125348439894,-2.64382728591,-0.0676291416678,2.10994273228,-0.866118748572,-0.0654592325022,0.00633306311928,-0.00540192610009,0.00193843514666,0.00181907009745,0.000659622105027,-0.077172670499,0.573632979207,0.819079007215,0.00596087300816,0.0,0.819074168707,-0.573540642483,-0.0122222943166,0.0,-0.00659234868304,0.0118937371968,-0.999907535702,0.0,0.271420313629,-0.251432443862,0.304874868389,1.0,-0.0143497560976,-0.0188596794425,2.563
-0.61954331502,-0.523322558849,-0.125354925594,-2.64373160472,-0.0676092154958,2.10995154478,-0.86717385887,-0.0641756848318,0.0101276527242,-0.00158734751414,0.0060705671689,0.00108694369142,-0.000907256412279,-0.0656249050738,0.573670641204,0.819052469062,0.00598291275938,0.0,0.819047950629,-0.573578255963,-0.0122141622201,0.0,-0.00657249759877,0.0119074279618,-0.99990750344,0.0,0.271170949031,-0.251747919602,0.304881111327,1.0,-0.0140297560976,-0.0184391080139,2.579
-0.620702711679,-0.523241340216,-0.125346692565,-2.64360523328,-0.0675853264731,2.1099782498,-0.868276189093,-0.061994412947,0.00310898362103,0.00720796945856,0.0117647499717,0.000131128245388,0.00350879218462,-0.0707457138366,0.573728022202,0.819012178677,0.00599621723888,0.0,0.819008340096,-0.573636486988,-0.0121353430263,0.0,-0.00649946987374,0.0118735668838,-0.999908383454,0.0,0.270915071303,-0.252091666941,0.304911226541,1.0,-0.0136697560976,-0.0179659651568,2.597
-0.621626562517,-0.523135390937,-0.125324184073,-2.64346806768,-0.0675628695899,2.11001449701,-0.869199683791,-0.0598212501395,0.00250330915408,0.00675586063573,0.0132796083718,-0.000534170602327,0.000372750507727,-0.0682981977242,0.573728857563,0.819011587512,0.00599703430383,0.0,0.81900823141,-0.573638183133,-0.0120622815646,0.0,-0.00643914448452,0.0118323272895,-0.999909262608,0.0,0.270724629112,-0.25237195042,0.304938321895,1.0,-0.0133697560976,-0.0175716794425,2.612
-0.6225485224,-0.522980663592,-0.125281202638,-2.64331967483,-0.0675392421767,2.11006465685,-0.870188288625,-0.0584642331784,0.014290704356,0.00278743350885,0.0110478890179,0.000385838752621,0.00053574790286,-0.0635940708985,0.573650945696,0.819066255789,0.00598398114165,0.0,0.819063130703,-0.573561079829,-0.0120009386699,0.0,-0.0063975083889,0.011785835059,-0.999910078946,0.0,0.270533417616,-0.25266586097,0.304957814324,1.0,-0.0130297560976,-0.0171248222997,2.629
-0.62364636869,-0.522797313289,-0.125210149716,-2.64317353642,-0.0675092863488,2.11010174075,-0.871279367244,-0.0550458452598,0.00731233756323,0.005798627727,0.0118574577712,0.00271734151633,-0.000600122124309,-0.0549978443912,0.57363727597,0.819075918021,0.00597185374744,0.0,0.819072615687,-0.57354742736,-0.0120060693946,0.0,-0.00640886434833,0.0117787375893,-0.999910089857,0.0,0.27031895669,-0.252967340386,0.304958260183,1.0,-0.0126497560976,-0.0166253937282,2.648
-0.624485747357,-0.522674531787,-0.125156137329,-2.64310893408,-0.0674935251567,2.11011250603,-0.872135761902,-0.0542261170345,0.00211915553403,0.00459837260906,0.00233269418145,0.00069659337354,0.00301784124475,-0.0623153927652,0.573595419806,0.819105306259,0.00596142073514,0.0,0.819101605186,-0.573505141361,-0.0120482411334,0.0,-0.00644999698443,0.0117940522962,-0.999909644853,0.0,0.270133481754,-0.253196123593,0.304944748137,1.0,-0.0123497560976,-0.0162311080139,2.663
-0.625475932806,-0.522533028794,-0.125130896267,-2.64304546439,-0.0674704368458,2.11012717036,-0.873168123796,-0.058685957167,0.00575183180682,0.0012924298636,0.00166998981516,0.000475496619593,0.00262419924202,-0.060296329763,0.573556479253,0.819132483279,0.00597384671992,0.0,0.819128559995,-0.573465454536,-0.012104608879,0.0,-0.00648960855066,0.0118362531972,-0.999908889895,0.0,0.269904085921,-0.25347106028,0.304923498139,1.0,-0.0119897560976,-0.0157579651568,2.681
-0.626275621072,-0.522432946341,-0.125133578518,-2.64300284102,-0.0674574793483,2.110136883,-0.8739411456,-0.0511656451627,0.00606354955366,-0.00091293019427,-4.94821825252e-05,0.00555489046661,0.000154717355955,-0.0521281917292,0.573588212806,0.819110137588,0.00599095415416,0.0,0.819106143707,-0.573496571684,-0.012147201716,0.0,-0.00651422981945,0.0118749477067,-0.999908271006,0.0,0.269711187347,-0.25369644631,0.304906890172,1.0,-0.0116897560976,-0.0153636794425,2.696
-0.627175147178,-0.522310130461,-0.125131215269,-2.64291911196,-0.0674422832325,2.11015681317,-0.874831560049,-0.0551409434784,0.00609931905878,-0.000346119903069,0.00977865243954,0.000552575064127,0.000140014542128,-0.0526020475613,0.57360090098,0.819101157784,0.00600388313782,0.0,0.819097200737,-0.57350895987,-0.0121653440074,0.0,-0.00652149214666,0.0118960451908,-0.99990797289,0.0,0.269491789638,-0.253971785119,0.304899664371,1.0,-0.0113297560976,-0.0148905365854,2.714
-0.628153904284,-0.522187559587,-0.125127977615,-2.64282530534,-0.0674328022492,2.11016759286,-0.875817242474,-0.0536614094904,0.0118293685262,7.00960611557e-05,0.00592145410658,-0.000194927019291,0.000264200788445,-0.0508265605711,0.573606003865,0.819097531436,0.00601109195336,0.0,0.819093609984,-0.573513923062,-0.0121731277613,0.0,-0.0065236595717,0.0119064554139,-0.999907834845,0.0,0.269278623598,-0.254243575896,0.30490021813,1.0,-0.0109697560976,-0.0144173937282,2.732
-0.628911801909,-0.522075721437,-0.12511772122,-2.64272112944,-0.0674264480526,2.1101921618,-0.87656820763,-0.0501108878442,0.00842849581469,-0.000483143585964,0.00836948002524,-0.000584204425325,0.00278893181057,-0.0462511309092,0.573612507544,0.819093005808,0.00600715623398,0.0,0.819089173077,-0.57352069855,-0.0121524394647,0.0,-0.00650887504543,0.011891416853,-0.999908110154,0.0,0.269114463632,-0.25447237794,0.304908823259,1.0,-0.0106697560976,-0.0140231080139,2.747
-0.629809378078,-0.521928172562,-0.125107166894,-2.64259990733,-0.0674196108401,2.11022502881,-0.877372034339,-0.0464642769355,0.00777064350015,-0.000584647491375,0.00667837522205,0.00326554751181,0.00498621001815,-0.0400865312147,0.57369107414,0.819038018789,0.00600184398408,0.0,0.819034199774,-0.573599423702,-0.0121419780491,0.0,-0.00650221258281,0.0118816886731,-0.999908269146,0.0,0.268919164164,-0.254743363029,0.304912767526,1.0,-0.0103097560976,-0.0135499651568,2.765
-0.63062720834,-0.521797392142,-0.125108450149,-2.6424927046,-0.0674131167054,2.11026373426,-0.878146093547,-0.0473128994427,0.00580948929921,0.000323563053061,0.00545433977581,0.000112319695455,0.00945743536712,-0.049617725881,0.573736201225,0.819006401721,0.00600268648712,0.0,0.819002721518,-0.573644771462,-0.0121229213175,0.0,-0.00648546531388,0.0118718039629,-0.999908495319,0.0,0.268739418661,-0.254992977451,0.304916713068,1.0,-0.00996975609756,-0.0131031080139,2.782
-0.631369127655,-0.52167984663,-0.12510277741,-2.64240320841,-0.067408581714,2.1103064947,-0.878886046307,-0.046006227728,0.0102806159269,0.000987592877331,0.00796292298437,-0.000575254173531,0.00143222969822,-0.0426253198234,0.573740435844,0.819003457954,0.00599958647257,0.0,0.818999860457,-0.573649244116,-0.012104552749,0.0,-0.00647213692207,0.0118587601716,-0.999908736461,0.0,0.268576936766,-0.255217054008,0.304917979633,1.0,-0.00964975609756,-0.0126825365854,2.798
-0.632113935183,-0.521562118609,-0.125098872871,-2.64233858186,-0.0673956876413,2.11032013113,-0.879651153065,-0.0480853626475,0.0105353363685,0.00168312344303,0.00428211205042,3.04095865978e-05,0.000849080481549,-0.0402660580064,0.573727980463,0.819012112635,0.00600921733556,0.0,0.819008358529,-0.573636232798,-0.0121461097238,0.0,-0.00650083135187,0.0118903911552,-0.999908174679,0.0,0.268394533203,-0.255441281286,0.304901886597,1.0,-0.00928975609756,-0.0122093937282,2.816
-0.632748711943,-0.521471352244,-0.12506910892,-2.64230639876,-0.0673910904782,2.11033142589,-0.880259980955,-0.042840502769,0.00988562094687,0.00174631782908,0.000343524192061,8.84226606222e-05,0.000632764885281,-0.0393236984466,0.573734170899,0.819007815306,0.00600387470706,0.0,0.819003757141,-0.573642017706,-0.012183111807,0.0,-0.00653411478565,0.0119072927463,-0.999907756607,0.0,0.268255226116,-0.255602489961,0.304888293101,1.0,-0.00900975609756,-0.0118413937282,2.83
-0.633448434221,-0.521385623664,-0.125047613104,-2.64227312558,-0.067384963661,2.11034269312,-0.880938216639,-0.0337610645177,0.00408223952101,0.000732952418581,0.00408446449862,-0.000519732015332,0.00196003930904,-0.0383060358663,0.573741110014,0.819002959699,0.00600313134271,0.0,0.818998649487,-0.573648517723,-0.0122203581746,0.0,-0.00656494851271,0.0119281079793,-0.999907306549,0.0,0.26808908012,-0.25579327691,0.304873381942,1.0,-0.00866975609757,-0.0113945365854,2.847
-0.634114986059,-0.521306606118,-0.125032456663,-2.64223306413,-0.0673766928198,2.11035110688,-0.881590971585,-0.0368477551862,0.00644047322855,-0.00173864254107,0.00115618615173,0.000463863079788,0.000524351948703,-0.0460042442557,0.573747439903,0.818998501855,0.00600633549168,0.0,0.818994055844,-0.573654509212,-0.0122469364693,0.0,-0.00658478795959,0.0119460315091,-0.999906962121,0.0,0.267931403166,-0.255977684006,0.304863627812,1.0,-0.00832975609757,-0.0109476794425,2.864
-0.634718352924,-0.521227032772,-0.125009752476,-2.64218419849,-0.0673696480624,2.11035979074,-0.882210636862,-0.0353894737633,0.00820359631645,-0.000486806451235,0.00271400054929,0.000179114854853,-7.45066719897e-05,-0.0405057885484,0.573727962287,0.819012168862,0.00600328638605,0.0,0.819007618499,-0.573634932664,-0.0122569070234,0.0,-0.00659498819694,0.0119490976339,-0.999906858261,0.0,0.267785456181,-0.256160404683,0.304860712542,1.0,-0.00798975609757,-0.0105008222997,2.881
-0.635453179615,-0.521132533326,-0.124996220592,-2.64207335406,-0.0673620815924,2.11038573313,-0.882935095871,-0.0360882519632,0.00576302057418,0.00122258357822,0.00895467633077,4.23112654484e-05,0.00347029984743,-0.027501935673,0.573731382278,0.81900982003,0.00599688134137,0.0,0.819005438605,-0.573638839114,-0.0122196847631,0.0,-0.0065681242244,0.0119225246089,-0.999907352284,0.0,0.267636518192,-0.256368790976,0.304876038327,1.0,-0.00760975609757,-0.0100013937282,2.9
-0.635968505541,-0.521051684779,-0.124987755107,-2.64197412645,-0.0673492977684,2.11040054225,-0.88341861118,-0.0368960059581,0.00967983804137,0.000893398455228,0.00952235068486,-0.000198363049101,-0.00124232047394,-0.0330174915766,0.57376187748,0.818988457346,0.00599679800353,0.0,0.818984313629,-0.573669762358,-0.0121837879219,0.0,-0.00653832587226,0.0119021056822,-0.999907790836,0.0,0.267530984667,-0.256529315471,0.304892878903,1.0,-0.00730975609757,-0.00960710801394,2.915
-0.636566832846,-0.520983308279,-0.124973137333,-2.64188127464,-0.0673410274264,2.11043417766,-0.883987381811,-0.0371361714813,0.00517459814241,0.00116971536748,0.00232536727562,-2.16033818045e-06,0.00303291413389,-0.0273251414155,0.573783873153,0.81897310063,0.005989512123,0.0,0.818969269327,-0.573692528518,-0.0121229337301,0.0,-0.00649234326898,0.0118613986053,-0.999908574172,0.0,0.267406783788,-0.256712293296,0.304913154561,1.0,-0.00694975609757,-0.0091339651568,2.933
-0.637085302003,-0.520924764291,-0.124956908336,-2.64180316713,-0.0673338333834,2.11046550548,-0.88447615197,-0.0343426388915,0.000569043028487,0.00175326229593,0.00480119653856,-4.35470118317e-05,0.000535552921714,-0.0279743922909,0.57380433456,0.818958806678,0.00598377022699,0.0,0.818955236433,-0.57371362498,-0.0120724534631,0.0,-0.00645399583324,0.0118278938105,-0.999909219312,0.0,0.267292116184,-0.256879527224,0.30492905775,1.0,-0.00660975609757,-0.00868710801394,2.95
-0.637608715432,-0.520850977403,-0.124940316302,-2.64172645925,-0.0673237305437,2.11047229924,-0.884990000488,-0.0347452438755,0.00163821755704,0.000708851437588,0.00594172439881,0.00457600324507,-0.000246333199154,-0.0367979654617,0.573807948014,0.818956310391,0.00597891025019,0.0,0.818952781602,-0.573717450337,-0.01205717987,0.0,-0.00644422246674,0.0118151782992,-0.999909432678,0.0,0.267186885104,-0.257024065682,0.304938890845,1.0,-0.00628975609757,-0.00826653658537,2.966
-0.638098494125,-0.520765762757,-0.124918236913,-2.64168024305,-0.0673085430924,2.11048611902,-0.88547783263,-0.0253056381109,0.0110047106352,0.000133332171371,0.00432266384748,0.000725065460073,0.000328874815944,-0.0288204623407,0.573802917984,0.818959816782,0.00598136361204,0.0,0.81895617544,-0.573712146151,-0.0120790301033,0.0,-0.00646078371567,0.0118296851454,-0.999909154285,0.0,0.267078089506,-0.257160684639,0.304930269396,1.0,-0.00594975609757,-0.00781967944251,2.983
-0.638575781077,-0.520688330981,-0.124900122741,-2.64164358911,-0.0672983804491,2.11050203852,-0.885949686922,-0.0296214755399,0.00382054170847,0.00423264301655,0.00135397366034,0.000150608501958,0.00438502429125,-0.0330733735022,0.573800927088,0.818961205352,0.00598223222295,0.0,0.818957432401,-0.573709890452,-0.0121009261323,0.0,-0.00647824798422,0.011842944188,-0.999908884337,0.0,0.266969431035,-0.257293305608,0.30492024502,1.0,-0.00560975609757,-0.00737282229966,3.0
-0.639006597268,-0.52061267018,-0.124889486773,-2.641615512,-0.0672899403927,2.11050897008,-0.886350702721,-0.0248196959027,0.00729796847958,0.00503393633311,0.00322176026099,0.000736728697321,-0.00234100645661,-0.0222114608619,0.573823056007,0.818945668884,0.00598654426987,0.0,0.818941702706,-0.573731540559,-0.0121389389369,0.0,-0.00650658747262,0.0118684622998,-0.999908397766,0.0,0.266867519804,-0.257411910275,0.304906028492,1.0,-0.00528975609757,-0.00695225087109,3.016
-0.639425488328,-0.520552319262,-0.124873318717,-2.6415935222,-0.0672782307457,2.11052370393,-0.886758866982,-0.0236609559962,0.00124407287833,0.000219780963044,0.000770725601003,-0.00081753651147,0.00102158463356,-0.022105191904,0.573826677061,0.818943101985,0.00599060141738,0.0,0.818939049371,-0.573734888986,-0.0121596659421,0.0,-0.00652118305958,0.0118837069298,-0.99990812162,0.0,0.266770283504,-0.257525532054,0.304895473247,1.0,-0.00494975609757,-0.00650539372823,3.033
-0.639785806474,-0.520510870111,-0.124868295908,-2.64157253165,-0.067263650602,2.11052967659,-0.887097517951,-0.0211038030343,1.77801643425e-05,0.00104352717124,0.00148774284897,0.00447611890561,0.00480553068026,-0.0201705088622,0.573848248237,0.818927901242,0.00600228823643,0.0,0.81892391467,-0.573756246425,-0.0121712189275,0.0,-0.00652362600334,0.0119000791534,-0.99990791097,0.0,0.266684739805,-0.257624505457,0.30489040551,1.0,-0.00462975609757,-0.00608482229966,3.049
-0.640142046264,-0.52050270497,-0.124859147904,-2.6415473239,-0.0672499977567,2.11053002218,-0.887431979948,-0.0178582735591,-0.0018984289213,0.000741173998534,0.000882851287556,-0.000133007877615,-0.000562925783289,-0.0147324207335,0.573866629363,0.818914963183,0.00601013144227,0.0,0.81891120311,-0.573774815895,-0.0121510891002,0.0,-0.00650237181216,0.0118950975328,-0.999908108686,0.0,0.266601847239,-0.25772240041,0.304899110592,1.0,-0.00430975609757,-0.00566425087109,3.065
-0.640517083966,-0.520483671071,-0.124846464918,-2.64150245279,-0.0672343650112,2.1105373308,-0.887798138526,-0.0201326150648,0.00261874310038,-0.000591324264963,0.00495289661823,-0.000203592144358,-0.00024959895294,-0.0128314098254,0.573873711909,0.818909964341,0.00601497998004,0.0,0.818906579431,-0.573782447768,-0.0121022187717,0.0,-0.00645946197117,0.0118710804447,-0.99990867223,0.0,0.266519380733,-0.257834756717,0.304918191231,1.0,-0.00390975609757,-0.00513853658537,3.085
-0.64081067964,-0.520484930994,-0.124821460173,-2.64143731223,-0.067209355994,2.11054434108,-0.888106599784,-0.0186513789885,-0.000129714478958,-0.000326069238408,0.00334758620834,0.000124008326245,1.07017466732e-05,-0.0170083899855,0.57385751977,0.818921289231,0.00601796885847,0.0,0.81891834521,-0.573766986934,-0.0120389154443,0.0,-0.00640613563513,0.011837075157,-0.999909418436,0.0,0.266468587946,-0.257917819612,0.304944699521,1.0,-0.00358975609757,-0.0047179651568,3.101
-0.641087522135,-0.520457350483,-0.124776390562,-2.64137136546,-0.067185427391,2.11055572859,-0.888382920075,-0.0149172556426,-0.000234652456125,0.00460777727268,0.00760123981435,0.00485164077604,0.000782966967011,-0.0163442279919,0.573839387098,0.81893405578,0.00600974205619,0.0,0.818931344538,-0.573749521205,-0.0119869408568,0.0,-0.00636855007924,0.0118003721306,-0.999910092352,0.0,0.266425496443,-0.257997109802,0.304966573043,1.0,-0.00324975609757,-0.00427110801394,3.118
-0.641305506811,-0.520416095086,-0.124733244368,-2.64132658508,-0.067162527114,2.11056726117,-0.88861154064,-0.0167507741745,0.00671762347056,0.00125520517324,0.00374383173669,0.00182643964703,0.000539821321626,-0.0175608126544,0.573812124781,0.818953197995,0.00600431913157,0.0,0.818950529135,-0.573722496101,-0.0119697617881,0.0,-0.00635798414693,0.011785861689,-0.999910330731,0.0,0.266391875159,-0.25805564942,0.304973764003,1.0,-0.00294975609757,-0.00387682229966,3.133
-0.64152974308,-0.520358892952,-0.124677794911,-2.6412993771,-0.0671420074179,2.11057778126,-0.888840014031,-0.0107361761707,0.00269153530988,0.000330252153979,0.000177233868022,0.000298190859523,0.0017070326845,-0.0113132638703,0.573779629535,0.818976042574,0.00599377348774,0.0,0.818973134216,-0.573689861512,-0.0119872904516,0.0,-0.00637885942593,0.0117870294703,-0.999910184011,0.0,0.266354477179,-0.258108509284,0.30496730448,1.0,-0.00260975609757,-0.0034299651568,3.15
-0.641740299341,-0.520312142037,-0.124629200673,-2.64129806283,-0.0671191849227,2.11059033796,-0.889081180609,-0.00898078101259,0.00377416256507,0.00220839582584,-0.000102473114719,0.000111153752966,-0.000123249263063,-0.0119214847474,0.573727972503,0.819012228754,0.00599413215446,0.0,0.819009122102,-0.573637839093,-0.0120180853346,0.0,-0.00640462114772,0.0118045879209,-0.999909812199,0.0,0.266310817839,-0.258154897856,0.304952602113,1.0,-0.00220975609757,-0.00290425087109,3.17
-0.641910428087,-0.520274613061,-0.124595080937,-2.64130799111,-0.0670997624589,2.11058668105,-0.88925017585,-0.0118641811616,0.00110678633382,0.00382629277793,-0.000126030131382,0.000209310540762,-0.000708828532604,-0.01014031209,0.573714872788,0.819021389714,0.00599623496677,0.0,0.819017996261,-0.573624155169,-0.0120663709557,0.0,-0.00644315474266,0.0118339086649,-0.999909218061,0.0,0.266275314529,-0.258185016902,0.304935122286,1.0,-0.00190975609757,-0.0025099651568,3.185
-0.642076472862,-0.520254415709,-0.124570245615,-2.64130613202,-0.0670761042625,2.11059110333,-0.889415996152,-0.0109078695568,0.00248567651554,0.00277660827644,0.000850077456961,0.00122090281457,0.000962407609145,-0.0120962999025,0.573707721015,0.819026329011,0.00600584185987,0.0,0.819022975649,-0.573616807616,-0.0120776769593,0.0,-0.00644700771309,0.0118482071095,-0.999909023902,0.0,0.266240577572,-0.258222099383,0.304929514503,1.0,-0.00158975609757,-0.00208939372823,3.201
-0.642235356152,-0.520238817074,-0.124544919126,-2.64129806176,-0.0670530889798,2.11059658372,-0.889549321387,-0.0130622205168,0.00142720258085,0.0050035114022,0.000705808395369,0.000742263403769,0.000338724771708,-0.00410973173764,0.573720959682,0.819017001816,0.00601315720459,0.0,0.819013738074,-0.57363000175,-0.0120774517264,0.0,-0.00644243496161,0.0118541737843,-0.999908982656,0.0,0.266209445272,-0.258259033634,0.304928521972,1.0,-0.00126975609757,-0.00166882229966,3.217
-0.642370849812,-0.520238152234,-0.124536090552,-2.64129495474,-0.0670373655836,2.11059951224,-0.889616508986,-0.0135522599759,0.00156606081709,-0.00174725923487,0.000628122329619,0.000584696216291,0.0010878667377,-0.00473120794168,0.573777493801,0.818977330468,0.00602218306123,0.0,0.81897422469,-0.573686559832,-0.0120705121398,0.0,-0.00643075413847,0.0118580292118,-0.999909012133,0.0,0.266178921765,-0.258292741995,0.304930156956,1.0,-0.000949756097566,-0.00124825087109,3.233
-0.642487279441,-0.52024514164,-0.124522610335,-2.64129195797,-0.0670186420408,2.11060098562,-0.889712473614,-0.00794263682517,-0.00100558075666,-0.000293480318034,-0.000194603678648,0.000708899537013,-0.000311325308213,-0.00274974873409,0.573792786632,0.818966545936,0.00603171183842,0.0,0.818963640883,-0.573701950247,-0.0120571180734,0.0,-0.00641409498869,0.0118582683744,-0.999909116298,0.0,0.26615450317,-0.258319942634,0.3049345448,1.0,-0.000569756097566,-0.000748822299658,3.252
-0.642527584539,-0.520237440256,-0.124516983861,-2.64129411465,-0.0670019683059,2.11060424137,-0.889733321059,0.000790127859699,0.000412573627726,0.00127903524493,-3.60714829458e-05,0.000418445538641,0.000516284245224,0.00117382345318,0.573811778639,0.8189531524,0.00604348989719,0.0,0.818950356397,-0.573720805958,-0.0120622331903,0.0,-0.00641125143805,0.01187099824,-0.999908983486,0.0,0.266146631027,-0.258327505347,0.304931152644,1.0,-0.000249756097566,-0.000328250871087,3.268
-0.642531926003,-0.520226061517,-0.124498408435,-2.64129615556,-0.0669822242019,2.11060180432,-0.889775131639,0.000197443770891,0.001228824883,0.00215367112921,-0.000954705079638,0.000367134454341,0.000731647701279,0.00133767447054,0.573776307582,0.818977938928,0.0060523803315,0.0,0.818975153828,-0.573685109919,-0.0120763807258,0.0,-0.006418252492,0.0118861190994,-0.999908758941,0.0,0.266150152742,-0.258321513205,0.304926281138,1.0,0.0,0.0,3.287
-0.642523923073,-0.520227907808,-0.124481446025,-2.64129590259,-0.0669718777959,2.11059628137,-0.889789092063,-0.000983886284819,-0.00092371839432,0.00124158867889,0.00143722263795,0.000588179319978,-0.00746854578303,0.00218533989787,0.573758839771,0.818990189363,0.006050654002,0.0,0.81898738523,-0.573667659603,-0.0120758461753,0.0,-0.00641905861222,0.0118842615997,-0.999908775845,0.0,0.266156459133,-0.258314533668,0.30492971445,1.0,0.0,0.0,3.301
-0.642524599,-0.520220098296,-0.124440233151,-2.64129356746,-0.0669602419905,2.11060575368,-0.889786802748,0.0014125102146,0.00284201622223,0.00414487633793,0.000892927642432,0.000435027722572,0.00101645389505,-0.000726273134627,0.573729030048,0.819011138773,0.0060416510707,0.0,0.819008231087,-0.573637920241,-0.0120747991425,0.0,-0.00642379851915,0.0118760534071,-0.999908842929,0.0,0.266167643727,-0.258305641054,0.304926982804,1.0,0.0,0.0,3.318
-0.64252459768,-0.520230607735,-0.124429539331,-2.64129984752,-0.0669502791424,2.11059885977,-0.889789071711,-0.000543568151725,-0.000636741412352,-0.000144803591083,-0.000516294847351,0.000640243124967,0.000469385865963,-0.000127510187092,0.573723502771,0.819014978129,0.00604606231703,0.0,0.819012110323,-0.57363234263,-0.0120766524295,0.0,-0.00642286599492,0.0118806863311,-0.999908793883,0.0,0.266168517771,-0.258299893036,0.304927664842,1.0,0.0,0.0,3.336
-0.642526635327,-0.520233193188,-0.124419994288,-2.64129360714,-0.0669400245439,2.11059701307,-0.889791255032,-0.00436975810259,-0.00128581222561,0.00570610827151,-1.45927624262e-05,0.000569235656381,-0.000710978970185,-0.0109003876644,0.573721266592,0.819016520853,0.00604927525068,0.0,0.819013740161,-0.573630176878,-0.0120689893186,0.0,-0.00641477831428,0.0118789040924,-0.999908866976,0.0,0.266172170446,-0.258298665755,0.304931524977,1.0,0.0,0.0,3.352
-0.642523896633,-0.520225318336,-0.124417449348,-2.64129885823,-0.0669384251439,2.11060023047,-0.889794172592,0.000196664927854,0.00150693373736,0.000331185385678,-2.35289664864e-05,0.000244533517593,0.000732725846785,0.000337213897359,0.573715305902,0.819020690621,0.00605004213918,0.0,0.819017855826,-0.573624095489,-0.0120787339346,0.0,-0.00642240671039,0.0118850758992,-0.999908744668,0.0,0.266172687925,-0.25829619248,0.304926577387,1.0,0.0,0.0,3.369
-0.642521111717,-0.520225159389,-0.12440961442,-2.64129354195,-0.0669330245745,2.11060448721,-0.889804725251,0.000457919393976,0.00114938465789,-0.000110411941704,0.00210898763784,0.000166261641988,-0.00046634052593,-0.00212938929084,0.573701374138,0.819030452218,0.0060496737834,0.0,0.819027673988,-0.573610281824,-0.012068998653,0.0,-0.00641484584638,0.011879080068,-0.999908864452,0.0,0.266177483548,-0.25829512014,0.304929485505,1.0,0.0,0.0,3.385
-0.642523895657,-0.520225159401,-0.124402564164,-2.64129607311,-0.0669311038354,2.11060027409,-0.889800064005,-7.19271329323e-05,0.000603668596339,0.00076665306784,3.09629337514e-05,-0.000435189477842,0.000733784774123,-0.000147303814539,0.573703179381,0.819029196141,0.00604853187936,0.0,0.81902636177,-0.573612015207,-0.0120756629872,0.0,-0.00642093361181,0.0118819820731,-0.999908790897,0.0,0.266177198101,-0.258292885456,0.304928142799,1.0,0.0,0.0,3.403
-0.642523171583,-0.520222421676,-0.124398653872,-2.64129356746,-0.0669268017493,2.11060179997,-0.889807355047,-0.000949592139072,0.000524143342657,0.00188951737697,0.000329910598082,5.17256604495e-05,0.000262924210187,-0.00235759790397,0.573694748243,0.819035088411,0.006050346387,0.0,0.81903225562,-0.573603537201,-0.0120786284911,0.0,-0.00642244411717,0.011885103405,-0.9999087441,0.0,0.266179471115,-0.258290381538,0.304927011383,1.0,0.0,0.0,3.419
-0.642524255435,-0.520225275868,-0.124393310166,-2.64129599658,-0.0669275137639,2.11060261425,-0.889797195659,-0.00197122384927,-0.0014015853412,0.000748614926545,-0.000751902448788,0.000187304393562,0.000250810033734,0.00180862496989,0.573700795675,0.819030879504,0.00604668181879,0.0,0.819028040009,-0.573609675071,-0.0120729965086,0.0,-0.00641984535726,0.0118789183678,-0.999908834286,0.0,0.266179813633,-0.258290927543,0.304928639933,1.0,0.0,0.0,3.435
-0.642528906977,-0.520222178096,-0.124395765677,-2.64129356742,-0.0669274743881,2.11060579268,-0.889802816429,-0.00164757067883,0.000749089692929,-8.32555826658e-05,2.66545972475e-05,-8.9357407005e-05,0.000265751754614,0.000657784928595,0.573701884167,0.819030111516,0.00604743200476,0.0,0.819027297368,-0.573610788935,-0.012070455035,0.0,-0.00641731744331,0.0118780833771,-0.999908860433,0.0,0.266179085678,-0.258293709461,0.304928817687,1.0,0.0,0.0,3.454
-0.64252111161,-0.520223956813,-0.124395765677,-2.64129102359,-0.0669252831813,2.11060205016,-0.889804230954,0.000931842133028,-0.000627115082867,-0.000574886742199,0.000692973097982,-0.00043009810349,-0.000410893650226,-4.88926840033e-05,0.573695386527,0.819034649159,0.00604928548119,0.0,0.819031861231,-0.573604288542,-0.0120696874402,0.0,-0.00641571964592,0.0118791102577,-0.999908858487,0.0,0.266181326528,-0.258291567827,0.304930309987,1.0,0.0,0.0,3.47
-0.642531012682,-0.520229974417,-0.124398268083,-2.64128799742,-0.0669245777695,2.1106020458,-0.889805683406,0.000659327574553,-0.00128297640067,0.00101203031958,0.000247900344476,-0.000314608964755,0.000454775793606,0.000378756283897,0.573704491279,0.819028262406,0.00605053444169,0.0,0.819025548736,-0.573613493458,-0.0120605780075,0.0,-0.00640740941323,0.0118749786917,-0.999908960849,0.0,0.266179127528,-0.258295552128,0.304933840061,1.0,0.0,0.0,3.487
-0.642532066017,-0.520226737972,-0.124398271331,-2.64129050497,-0.0669287179568,2.11060286009,-0.889805931099,0.000748214957015,-0.000857020270774,0.000870116727527,-0.000326081175211,1.85083423267e-06,0.000209843840996,-0.000728622268626,0.573703287486,0.819029128789,0.00604739813394,0.0,0.819026344026,-0.573612247322,-0.0120658366762,0.0,-0.00641353354732,0.0118754171905,-0.999908916379,0.0,0.266177963469,-0.258295676441,0.304931576774,1.0,0.0,0.0,3.503
-0.642535225067,-0.520217564561,-0.124401496042,-2.64129320357,-0.0669263544895,2.1106026269,-0.889800877168,0.00119960594277,0.00198094284598,-0.00021523739228,-0.00148529785307,-0.000134793555117,8.7705273157e-05,0.000111551660506,0.573713228056,0.819022134407,0.00605162848356,0.0,0.819019325005,-0.573622019993,-0.0120776797631,0.0,-0.00642066332096,0.0118857541577,-0.999908747802,0.0,0.266175792789,-0.258296111204,0.304926881708,1.0,0.0,0.0,3.52
-0.642546566716,-0.520225125956,-0.124398271331,-2.64129046802,-0.066928480873,2.11060300644,-0.889805931242,-0.00167717482359,-0.000821514835447,0.000787620564873,-0.00117858433709,0.000539176747743,0.000344675729491,0.000644641067047,0.573715274311,0.81902073057,0.00604762928418,0.0,0.81901794085,-0.573624215894,-0.0120672452375,0.0,-0.00641438090091,0.0118765084545,-0.999908897983,0.0,0.26617423467,-0.258299514617,0.304931013188,1.0,0.0,0.0,3.538
-0.642547662756,-0.520221561842,-0.124402907851,-2.64128443644,-0.066929430033,2.11060348571,-0.889802777784,-0.000452763083841,0.00015398266601,0.00051301331943,7.49126912903e-05,-2.39496448096e-05,0.000304554148537,0.00100012661027,0.57372193165,0.819016062066,0.00604831571792,0.0,0.819013299499,-0.573630902626,-0.0120643979169,0.0,-0.00641155831081,0.0118754893296,-0.99990892819,0.0,0.266174260782,-0.258302464215,0.304932374085,1.0,0.0,0.0,3.553
-0.64255607901,-0.520216514791,-0.124406066698,-2.64128694132,-0.0669301581859,2.11060453773,-0.889810744706,-0.000997863462647,0.00197671747388,-0.00055364650986,0.000227994356478,0.000155237610241,-5.31365992248e-05,-0.0006146633437,0.573724136644,0.819014506781,0.00604976163881,0.0,0.819011720335,-0.573633021854,-0.0120708365105,0.0,-0.006415970688,0.0118803846772,-0.999908841735,0.0,0.266170814491,-0.258304896823,0.304929394239,1.0,0.0,0.0,3.57
