nelsonifechukwu/NELSON_IML_WORK/CNN-GradCAM/train2dof/data_sample_2022-02-22-08-46-37/robot_state.csv
position_joint1,position_joint2,position_joint3,position_joint4,position_joint5,position_joint6,position_joint7,velocity_joint1,velocity_joint2,velocity_joint3,velocity_joint4,velocity_joint5,velocity_joint6,velocity_joint7,ee_T_00,ee_T_10,ee_T_20,ee_T_30,ee_T_01,ee_T_11,ee_T_21,ee_T_31,ee_T_02,ee_T_12,ee_T_22,ee_T_32,ee_T_03,ee_T_13,ee_T_23,ee_T_33,v_x,v_y,time
0.465070091111,0.547787824351,-0.124007010064,-1.35583842262,0.0795076215796,1.89411053912,0.159154580987,-0.000326692528466,-0.00107691428117,0.00219131513705,-0.000773605685197,0.000277472674261,0.000313189294287,-0.00177277703862,0.573820235134,0.818967224321,0.00194168460948,0.0,0.818923998584,-0.573761724338,-0.0119044163339,0.0,-0.00863542875124,0.00842124923938,-0.99992725332,0.0,0.661682408074,0.260878579252,0.303208590497,1.0,0.0,0.0,0.0
0.465072668393,0.547792835293,-0.124012989966,-1.35583843146,0.0795069094969,1.89411084302,0.159155996773,0.000290365397623,-9.59711528343e-05,0.000481979391924,-0.000890428193539,4.80258004218e-06,5.77393527159e-05,-0.00103552447068,0.573825263191,0.818963694811,0.0019444295006,0.0,0.818920552378,-0.573766786802,-0.0118974853401,0.0,-0.00862812560454,0.00841957304016,-0.999927330479,0.0,0.661685183216,0.260874132646,0.303212007541,1.0,-0.00028,-0.000368,0.015
0.465069780546,0.547781386301,-0.124012312605,-1.35584473646,0.0795055475285,1.89410933023,0.159155274289,0.000247065781448,-0.00172660055151,-0.000117249048946,-0.000719770389336,-0.000596698031624,-0.000221918199665,-0.000767855917016,0.573824537366,0.818964216936,0.00193870998112,0.0,0.818920990732,-0.573766075692,-0.0119016059697,0.0,-0.00863478964196,0.00841724589604,-0.999927292546,0.0,0.661682304981,0.260874221644,0.30321021298,1.0,-0.00062,-0.000814857142857,0.032
0.465069063986,0.547745747464,-0.124010514606,-1.35587450539,0.0795040613067,1.89411245284,0.159158073617,-3.24562527194e-05,-0.00326102699939,-0.000157062971282,-0.00107917367683,9.29580266174e-05,0.00330625331132,-7.19502786821e-05,0.573827351027,0.81896222417,0.00194769043051,0.0,0.818919093387,-0.573768830814,-0.0118993349766,0.0,-0.00862774788833,0.00842332692528,-0.999927302122,0.0,0.661676904901,0.260871695811,0.303221500175,1.0,-0.00096,-0.00126171428571,0.049
0.465066928325,0.54764825865,-0.124013697824,-1.35598590789,0.0795041458891,1.89414278269,0.159162752655,-0.000113057072949,-0.0104468714755,-0.00209742133653,-0.00781754377846,0.000396734794129,-6.56525807475e-06,0.00114093618759,0.573841299772,0.818952407751,0.00196555717422,0.0,0.818909451071,-0.573782646775,-0.011896726732,0.0,-0.00861521627332,0.00843660890837,-0.999927298197,0.0,0.661661277585,0.260858574098,0.303240278535,1.0,-0.00128,-0.00168228571429,0.065
0.465059816518,0.54751642529,-0.124010514642,-1.35617282129,0.0794987694125,1.89418375429,0.159152416241,-0.00326793169862,-0.00914096774226,3.58723766778e-05,-0.00493089806401,-0.000616563183275,0.003376600668,0.000180278785924,0.573845265735,0.818949644862,0.00195884532673,0.0,0.81890649275,-0.573786534321,-0.0119128529227,0.0,-0.00863223379626,0.00844040791143,-0.999927119371,0.0,0.661631502234,0.260837163011,0.303248147064,1.0,-0.00162,-0.00212914285714,0.082
0.465038989304,0.547352166112,-0.124013287299,-1.35639084827,0.0794982884518,1.89429043523,0.159148379759,-0.00449335464509,-0.0161172965667,-0.000132067497164,-0.0164925722374,0.000363489652439,0.00471800792635,0.000403356657679,0.573873179202,0.818929962333,0.00200944962351,0.0,0.818887405264,-0.573814172815,-0.0118936738469,0.0,-0.00858720053213,0.00847113650674,-0.99992724727,0.0,0.661613227215,0.260805231863,0.303270084796,1.0,-0.00196,-0.002576,0.099
0.465024316138,0.547169015294,-0.124010917121,-1.35659396126,0.0794958140071,1.89440299847,0.159137191607,0.000347556008967,-0.0110619348891,0.000738939114458,-0.0183154551584,0.000555800934527,0.00309979154489,0.000381851623058,0.573885260257,0.818921284497,0.00209398162918,0.0,0.818879781366,-0.573825863707,-0.0118544806934,0.0,-0.00850646951546,0.00851799495446,-0.999927539244,0.0,0.661597367266,0.260782450519,0.303312833325,1.0,-0.00228,-0.00299657142857,0.115
0.464994881472,0.54694258657,-0.124009897825,-1.35689132109,0.0794916957144,1.89454366656,0.159120501111,-0.00441678040276,-0.0194507606084,0.000500936991532,-0.0217863483107,-0.000186864743945,0.00642926488567,-0.00048261081367,0.573910687545,0.818903291848,0.00216060717548,0.0,0.818862570951,-0.573850937967,-0.0118295304637,0.0,-0.00844753762475,0.00855849908589,-0.999927692987,0.0,0.661570876361,0.26074013851,0.303343851745,1.0,-0.00264,-0.00346971428571,0.133
0.464962308279,0.546707244587,-0.124007473737,-1.35724944242,0.0794840923874,1.89466704326,0.159085912241,-0.00499808941163,-0.018343386401,0.000587333439978,-0.0195328022103,0.000148148825994,0.00658941969932,-0.00377349667752,0.573925302736,0.818893024921,0.00216968110106,0.0,0.81885227173,-0.57386536314,-0.0118426758808,0.0,-0.00845294258758,0.00857362470747,-0.999927517734,0.0,0.661527897744,0.26068771714,0.303350694429,1.0,-0.00298,-0.00391657142857,0.15
0.464928120288,0.546446409351,-0.124013710941,-1.35763269162,0.0794805621854,1.89482032058,0.158940533483,0.000226943568216,-0.0117462380304,-0.000253014182072,-0.0224344951277,0.00082724594486,0.00848116881096,-0.00927418248497,0.57385917579,0.818939268901,0.00220615400441,0.0,0.818898852609,-0.573798960621,-0.0118392941949,0.0,-0.00842993635994,0.0086008701849,-0.999927477973,0.0,0.661487950711,0.260629261156,0.303366509543,1.0,-0.0033,-0.00433714285714,0.166
0.464882698739,0.54615167821,-0.124010926881,-1.35811714011,0.0794652766342,1.89498272941,0.158914004424,-0.00233619006351,-0.0234918092643,0.000536130484771,-0.0302685018615,0.000592315340869,0.00603195601689,-0.00352645948777,0.573895665798,0.818913738876,0.00219088118159,0.0,0.81887296068,-0.573835340264,-0.0118669048982,0.0,-0.0084609293099,0.00860458431212,-0.999927184251,0.0,0.661428969234,0.260555736586,0.303358615127,1.0,-0.00364,-0.004784,0.183
0.464829870471,0.5458376783,-0.124016216595,-1.35866587969,0.0794373988998,1.89516893592,0.158874875783,-0.0032588477819,-0.0190460256866,-0.00156042929741,-0.0355493791682,0.000330593814195,0.00814089096995,0.000681120625364,0.573933826915,0.818887102202,0.00215013287622,0.0,0.818845744157,-0.573873609705,-0.0118942953219,0.0,-0.00850634428737,0.00858733092036,-0.999926947259,0.0,0.661364920817,0.26046483499,0.303336055416,1.0,-0.00398,-0.00523085714286,0.2
0.464770825095,0.545505663884,-0.124013058722,-1.35924160693,0.0793270659583,1.89536414851,0.158766522207,-0.00399666790147,-0.0228210607511,-0.000357362683189,-0.0361339463311,-0.00366722824271,0.0154994762549,-0.00735406629402,0.573894040849,0.818915197879,0.00206771895397,0.0,0.818873395496,-0.573834791224,-0.0118634493445,0.0,-0.00852879409894,0.00850172660807,-0.999927487529,0.0,0.661301184916,0.260359008623,0.303313732809,1.0,-0.0043,-0.00565142857143,0.216
0.464710941161,0.545107814357,-0.124019385572,-1.35993545842,0.0792979510192,1.89557536658,0.158704233916,-0.0014418974968,-0.0265143838147,-0.00116514384911,-0.0376090930911,-0.000485961868122,0.0156480774916,-0.00260821966308,0.573927274438,0.818892072757,0.00200093278453,0.0,0.818849248541,-0.573868142468,-0.0119168001752,0.0,-0.00861046739405,0.00847800217941,-0.999926989,0.0,0.661213004444,0.260248217658,0.303283621093,1.0,-0.00464,-0.00609828571429,0.233
0.464629102074,0.544651232395,-0.124016828319,-1.36070063334,0.0792801159202,1.89583180175,0.158595551191,-0.00916897984494,-0.0234981150333,0.000164578778076,-0.0429675708407,-0.0013950860986,0.0116638207189,-0.0118340662514,0.573941338555,0.818882284054,0.00197272955454,0.0,0.818838773772,-0.573882009842,-0.0119686360731,0.0,-0.00866895694718,0.00848480581667,-0.999926425921,0.0,0.661121950045,0.260125266212,0.303264750631,1.0,-0.005,-0.00657142857143,0.251
0.464579987801,0.544210468149,-0.124022229059,-1.36142676303,0.0792540083056,1.89609555185,0.158501879261,-0.000210602765407,-0.027718316685,-0.00309103049964,-0.048359353973,-0.00128267757139,0.0211263282637,-0.00687157200401,0.573942190968,0.818881712455,0.0019619722834,0.0,0.8188379105,-0.573882759654,-0.0119917221612,0.0,-0.00869402729727,0.00848925602018,-0.999926170485,0.0,0.661034601015,0.260022932922,0.303254107209,1.0,-0.00532,-0.006992,0.267
0.464496814513,0.543695581067,-0.124014893643,-1.36225047908,0.0792171055753,1.89638069197,0.158397850344,-0.00471502453253,-0.030040616697,0.000701397435471,-0.0506865502004,-0.0021972593986,0.017746808291,-0.00632919635851,0.573955938904,0.818872103346,0.00195075888256,0.0,0.818827963982,-0.573896367358,-0.0120196437819,0.0,-0.00872318549726,0.00849624543523,-0.999925857176,0.0,0.660937450866,0.259894563848,0.303250834457,1.0,-0.00566,-0.00743885714286,0.284
0.464424476156,0.543152693761,-0.124025423104,-1.36309442032,0.0791606453238,1.8966756146,0.158310187135,-0.00331298138719,-0.0332569626143,0.000978205444802,-0.0523923538913,-0.000813272216398,0.0118159839801,-0.00713868089948,0.573982578219,0.818853456273,0.00194009063583,0.0,0.818809252634,-0.57392312204,-0.012016850255,0.0,-0.00872674450697,0.00848619024048,-0.999925911508,0.0,0.660840586656,0.259758482259,0.303259083424,1.0,-0.006,-0.00788571428571,0.301
0.464337835798,0.542581604442,-0.124026512024,-1.36399955859,0.0791132165521,1.89699800362,0.158169156155,-0.00473782682736,-0.0369310724177,-0.000343270336502,-0.0566430431563,-0.000857956696722,0.0210992044586,-0.0119762540761,0.573976436253,0.818857775731,0.00193407664861,0.0,0.818813403604,-0.573916919238,-0.0120302448781,0.0,-0.00874122854634,0.00848888840325,-0.999925762093,0.0,0.660736754582,0.259614856562,0.30326017975,1.0,-0.00634,-0.00833257142857,0.318
0.464261548372,0.541983081531,-0.124031851237,-1.3649260408,0.0790572878254,1.89734871309,0.158052117423,-0.00606564221452,-0.0382966923402,-3.58812287513e-05,-0.0566185223716,-0.00436527298732,0.014230406712,-0.00605913850612,0.573979824955,0.818855381168,0.00194220972029,0.0,0.818811122357,-0.573920279471,-0.0120252076324,0.0,-0.00873240055979,0.00849269300349,-0.999925806921,0.0,0.660635892056,0.259485190319,0.303267183276,1.0,-0.00666,-0.00875314285714,0.334
0.464173765485,0.541334999231,-0.124026908264,-1.36590621699,0.078996762005,1.89770745511,0.157926665213,-0.00487272568128,-0.0382955921635,-6.35677618421e-05,-0.0581602750877,-0.00124892427644,0.0212230755337,-0.0105766637553,0.573987296855,0.818850065093,0.00197505633191,0.0,0.818806233695,-0.573927608666,-0.0120082710565,0.0,-0.00869960167304,0.00850994732297,-0.999925946122,0.0,0.660520479945,0.259325583519,0.303295618509,1.0,-0.00702,-0.00922628571429,0.352
0.464100560658,0.540675766749,-0.124029692437,-1.36691041228,0.0789378011533,1.89807591598,0.157782992831,-0.00107651797051,-0.0439000564007,-0.000127935949674,-0.06012903179,-0.00252640846132,0.0326976180176,-0.0167566132767,0.573971431053,0.818861136287,0.00199567411507,0.0,0.818817558703,-0.573911642342,-0.0119991351831,0.0,-0.00868045198712,0.008521417863,-0.999926014859,0.0,0.660402384296,0.259180539075,0.303315669949,1.0,-0.00734,-0.00964685714286,0.368
0.463994487301,0.539954336053,-0.124029867913,-1.36801533452,0.0788757779607,1.8984834721,0.15765318738,-0.00937720280425,-0.0381949584608,-0.000253940273272,-0.0667574380348,-0.000800876941601,0.0258307566335,-0.00901418054174,0.573996708726,0.81884336144,0.00201858830755,0.0,0.818800031948,-0.573936769944,-0.0119932768332,0.0,-0.00866223983866,0.00853708596517,-0.999926039147,0.0,0.660278355933,0.25900632693,0.30333494196,1.0,-0.00768,-0.0100937142857,0.385
0.463901473154,0.539189700275,-0.124035426387,-1.36917383667,0.0788015313577,1.89892708811,0.157518847595,-0.00450754848839,-0.0521443899064,0.0017854741918,-0.0670199655735,-0.00375369678546,0.0278706326905,-0.00900885352094,0.57401105267,0.818833211715,0.00205662502031,0.0,0.81879045953,-0.573951033009,-0.0119641962235,0.0,-0.00861644505762,0.0085516904606,-0.999926310017,0.0,0.660148582372,0.258832305274,0.303362403783,1.0,-0.00802,-0.0105405714286,0.402
0.463794144268,0.538478169566,-0.124040221957,-1.37029559615,0.0787463492938,1.89935976767,0.15737025251,-0.00851734161845,-0.046360130383,-0.000416410591408,-0.0681444705491,-0.00578535350815,0.0272219241803,-0.0100307968713,0.574027982749,0.8188212837,0.00208021192585,0.0,0.818778762287,-0.57396778662,-0.0119609886984,0.0,-0.00860010306417,0.00856934054651,-0.999926299599,0.0,0.660025965399,0.258655284426,0.303368781975,1.0,-0.00834,-0.0109611428571,0.418
0.463685182866,0.537687493862,-0.124045748283,-1.37153051897,0.0786703509769,1.89983519517,0.157226362988,-0.00559847507579,-0.0498526468142,-0.000570094639629,-0.0705212472793,-0.00931717602308,0.0312907018475,-0.00452552606883,0.574051171553,0.818804968093,0.00210322775764,0.0,0.818762802196,-0.573990932865,-0.0119427647458,0.0,-0.00857172647627,0.00857796789886,-0.999926469283,0.0,0.659889261469,0.258463919055,0.303380773272,1.0,-0.00868,-0.011408,0.435
0.46358866553,0.536867744173,-0.124057403255,-1.37283457701,0.078592508685,1.90031506763,0.157063014186,-0.00765651138935,-0.0476836635387,0.000947139811682,-0.0772854574308,-8.96632321199e-05,0.0279925378131,-0.0114184949632,0.574055637093,0.818801855109,0.00209630436594,0.0,0.818759627889,-0.573995455254,-0.0119430308999,0.0,-0.0085758717897,0.00857249864184,-0.999926480642,0.0,0.65973618953,0.258269399973,0.303380834382,1.0,-0.00902,-0.0118548571429,0.452
0.463470763246,0.536069726911,-0.124058363218,-1.37407376787,0.0785270881723,1.90078215754,0.156915286735,-0.00976761766237,-0.050528076724,0.000246232011875,-0.0812074601591,-0.00161365273182,0.0265186846986,-0.0102957011594,0.574082587447,0.818782892123,0.0021225592438,0.0,0.818740927834,-0.574022214992,-0.011938872893,0.0,-0.00855711346843,0.0085918905868,-0.99992647491,0.0,0.659597150449,0.258075547141,0.303394835261,1.0,-0.00934,-0.0122754285714,0.468
0.46335325835,0.53511636323,-0.124066655878,-1.37556108636,0.0784436455078,1.90131211734,0.156724088839,-0.00402189846872,-0.058201844639,-0.0011606081835,-0.0801273402525,-0.00129635026606,0.0306110611326,-0.00468958244568,0.574087259413,0.818779620166,0.00212110399827,0.0,0.818737573529,-0.574026828722,-0.0119470708295,0.0,-0.00856461240972,0.00859545418042,-0.999926380081,0.0,0.659419384126,0.257851660691,0.303405878586,1.0,-0.0097,-0.0127485714286,0.486
0.463229100546,0.534276775594,-0.124064153632,-1.37695450332,0.0783646347336,1.90181391104,0.156554645365,-0.00738381283382,-0.0562648580538,-0.00129675094787,-0.0888616697553,-0.00609849598688,0.033164863852,-0.0110938234527,0.574103629533,0.818768250421,0.00207883662937,0.0,0.818725548876,-0.574043268073,-0.0119811894018,0.0,-0.00861664120902,0.00858060618537,-0.999926060612,0.0,0.65925345552,0.257638128879,0.303378390036,1.0,-0.01002,-0.0131691428571,0.502
0.463094829608,0.53329850943,-0.12405955716,-1.37852289677,0.0782787856321,1.90240057208,0.156362996382,-0.0109281247276,-0.0532534737083,-0.000844948183829,-0.0872104766377,-0.000746787530341,0.0260393135579,-0.010329253546,0.57411921222,0.818757311375,0.00208377803856,0.0,0.818714592902,-0.574058747096,-0.0119882089101,0.0,-0.00861938863536,0.00858884590584,-0.999925966192,0.0,0.659081882559,0.257415319554,0.30337651178,1.0,-0.01036,-0.013616,0.519
0.462961319,0.532344258375,-0.124064847632,-1.38005332808,0.0781822212438,1.90297595656,0.156161332537,-0.00910444565385,-0.0599992930532,-0.00107899832765,-0.0866147304031,-0.0110505854134,0.0265160344112,-0.013637112676,0.574122008236,0.818755373929,0.00207466208931,0.0,0.81871255264,-0.57406159693,-0.0119910792369,0.0,-0.00862694282774,0.00858305963792,-0.999925950731,0.0,0.658893820589,0.25716808669,0.303366939129,1.0,-0.01072,-0.0140891428571,0.537
0.462840412203,0.531423277043,-0.12406451687,-1.38153070865,0.0781054060337,1.90351854324,0.155974333836,-0.00889022041285,-0.060302655428,0.000324540778706,-0.0882991061228,-0.00501410977371,0.0382288985729,-0.0154955901693,0.574127634817,0.818751442987,0.00206892421448,0.0,0.818708402154,-0.574067103073,-0.0120108414789,0.0,-0.00864635893124,0.00858976702788,-0.999925725431,0.0,0.658717031996,0.256949723697,0.303359942247,1.0,-0.01104,-0.0145097142857,0.553
0.462713241692,0.530458459676,-0.124065256366,-1.38307200904,0.0780072466326,1.90405384622,0.155767637079,-0.00441674949505,-0.0595314148332,0.000501389114399,-0.0943366635264,-0.00407834729174,0.0348413327416,-0.00544843297301,0.574120319094,0.818756666511,0.00203153859453,0.0,0.818713108379,-0.574059917719,-0.0120334507711,0.0,-0.00868641040186,0.00857206091275,-0.99992553025,0.0,0.658527655375,0.256715706607,0.30335258014,1.0,-0.01136,-0.0149302857143,0.569
0.462575951915,0.529413632075,-0.124073703067,-1.38471030543,0.0779041491783,1.9046667586,0.155545520302,-0.00544522268519,-0.0647864607135,-0.000725235525159,-0.0952357375225,-0.00308546801638,0.0299700348046,-0.0107861875712,0.574118129344,0.818758173054,0.00204316361634,0.0,0.818714830679,-0.574057742061,-0.012020054394,0.0,-0.00866879078446,0.00857386457095,-0.999925667694,0.0,0.658337417488,0.256464555646,0.303362167826,1.0,-0.0117,-0.0153771428571,0.586
0.462418250866,0.528192554116,-0.12406597373,-1.38661776185,0.0777842776201,1.90539634778,0.155291938309,-0.0103056591128,-0.0610166196363,0.000948415349637,-0.0994122960351,-0.0081283607815,0.0438256457108,-0.0137572739502,0.574105434813,0.818766986873,0.00207793775077,0.0,0.818724107912,-0.574044911949,-0.0120008787211,0.0,-0.00863325993414,0.0085911928347,-0.999925826363,0.0,0.658114087603,0.256184967384,0.3033770705,1.0,-0.01208,-0.0158765714286,0.605
0.462292311319,0.527268799511,-0.124071367383,-1.3880548471,0.0776917502033,1.90594635766,0.155096873122,-0.0125329479654,-0.0669194794976,0.000704399020257,-0.104760755793,-0.00793345560633,0.0390375847482,-0.00674431467467,0.574105554858,0.818766836432,0.0021038873484,0.0,0.818724379245,-0.574045006626,-0.0119778169485,0.0,-0.00859947883002,0.00859920066978,-0.999926048621,0.0,0.657950082499,0.25596285098,0.303391129996,1.0,-0.01236,-0.0162445714286,0.619
0.462120121139,0.525949927876,-0.124076933291,-1.39009550367,0.0775719456112,1.90670002107,0.154817538216,-0.00938314860983,-0.0742198247795,-0.00253911158246,-0.109742435838,-0.0033313533635,0.0464119794883,-0.0130907688709,0.574099606067,0.81877093515,0.00213189324413,0.0,0.818728805921,-0.574038905181,-0.0119676478864,0.0,-0.00857513768562,0.00861623023636,-0.999926111065,0.0,0.6577084856,0.255653190178,0.30341336129,1.0,-0.01274,-0.016744,0.638
0.461978806618,0.524852802868,-0.124077622015,-1.3918230637,0.0774526418534,1.9073167911,0.154579933577,-0.0056855597376,-0.0687328657676,0.000434510003495,-0.107075536182,-0.00933521904568,0.0503196847049,-0.0176374027315,0.574081890981,0.818783406401,0.00211252254187,0.0,0.818741097088,-0.574021345183,-0.0119690481983,0.0,-0.00858759036167,0.00860098844214,-0.999926135417,0.0,0.657497550254,0.255391796191,0.303416242615,1.0,-0.01306,-0.0171645714286,0.654
0.461828614738,0.523739473508,-0.12408960525,-1.39360700866,0.0773422246176,1.90796247571,0.154334440641,-0.00561133121159,-0.0697069711061,-2.49929618438e-05,-0.109739475041,-0.011691327434,0.034408003357,-0.0175879425305,0.574078346885,0.818785957257,0.00208680080759,0.0,0.818743336198,-0.57401793208,-0.0119795652517,0.0,-0.00861100450646,0.00858592857704,-0.999926063483,0.0,0.65728337665,0.255114921565,0.303406320415,1.0,-0.01338,-0.0175851428571,0.67
0.461670227677,0.522522054529,-0.124093572821,-1.395550915,0.0772275909761,1.9087053728,0.154080205617,-0.00992920118821,-0.0747414713339,-0.000482464092347,-0.113356636727,-0.00772700438462,0.050157820983,-0.0116316132327,0.574076170497,0.81878745083,0.00209945990597,0.0,0.818744983883,-0.574015692323,-0.0119742738828,0.0,-0.00859942782226,0.00859323300838,-0.999926100363,0.0,0.657053618237,0.254825623382,0.303401315173,1.0,-0.01372,-0.018032,0.687
0.461506213382,0.521276384759,-0.124098950325,-1.39754092967,0.0771094897409,1.90948285925,0.153816491605,-0.0136784633281,-0.0725935005084,-0.00136152112322,-0.118066460226,-0.00420654649117,0.0438632242175,-0.0166134550295,0.574073219611,0.818789454093,0.00212492170148,0.0,0.818747344799,-0.574012662124,-0.0119580938032,0.0,-0.00857159416416,0.00860476107929,-0.99992624021,0.0,0.656821926114,0.254528515982,0.303396923488,1.0,-0.01406,-0.0184788571429,0.704
0.461350344971,0.52005751832,-0.124096799485,-1.39945482867,0.0769764277927,1.91017882233,0.153554255002,-0.0112582873637,-0.0842610541778,0.00146405671886,-0.120725581468,-0.00581018704387,0.0450166189601,-0.0182538717005,0.574050536599,0.818805377639,0.00211704514827,0.0,0.818763254547,-0.573990103589,-0.0119516060324,0.0,-0.00857104134594,0.00859435009963,-0.999926334485,0.0,0.656587567036,0.254241998521,0.303402215043,1.0,-0.01438,-0.0188994285714,0.72
0.461162516496,0.518641879196,-0.124102589471,-1.40166496344,0.076836918059,1.91096339392,0.153260360143,-0.0109906212704,-0.0801278339243,-0.000329779383899,-0.125102253084,-0.00468451588958,0.0431777286267,-0.0146752168095,0.574047378638,0.818807621476,0.00210546747193,0.0,0.818765336506,-0.573986982823,-0.0119588539527,0.0,-0.00858365510089,0.00858899791105,-0.999926272272,0.0,0.656315636118,0.253902318127,0.303412226683,1.0,-0.01474,-0.0193725714286,0.738
0.460998102932,0.517380061636,-0.124108139239,-1.40366666106,0.0767022016027,1.91167504223,0.152975514779,-0.0113865760365,-0.0815253307399,-0.00019332951406,-0.12596890511,-0.00955244969392,0.0477589604997,-0.0180557073986,0.574024190658,0.818823921068,0.00208847499412,0.0,0.818781454054,-0.573963907557,-0.0119628684102,0.0,-0.00859693906808,0.00857714558616,-0.999926259887,0.0,0.65605278983,0.253580442576,0.303414152391,1.0,-0.01508,-0.0198194285714,0.755
0.460813160839,0.516022185347,-0.124114976469,-1.40581414041,0.0765717556457,1.91248651836,0.152684930042,-0.00964165536333,-0.0774561133756,-0.00193048913548,-0.127667000503,-0.00870226555389,0.0467979887381,-0.0154996463321,0.574019015158,0.81882754736,0.00208921578994,0.0,0.818785126699,-0.57395876625,-0.0119581705316,0.0,-0.00859272116661,0.00857500118226,-0.999926314534,0.0,0.655811562834,0.253268384631,0.303407638871,1.0,-0.0154,-0.02024,0.771
0.46062892333,0.514639735304,-0.124117495724,-1.4080350205,0.0764394930589,1.91330564271,0.152382624441,-0.0108313967043,-0.079528267337,-0.00289986680884,-0.138426680376,-0.00967955830491,0.0433272118242,-0.0174883826575,0.574005564718,0.818837018479,0.0020726173259,0.0,0.818794315368,-0.573945320673,-0.0119743433721,0.0,-0.00861563248693,0.0085705520235,-0.999926155531,0.0,0.655538620658,0.252934905856,0.303390942662,1.0,-0.01574,-0.0206868571429,0.788
0.46043658374,0.513239567225,-0.12411848022,-1.41030476796,0.0763028741795,1.91409391466,0.152066142541,-0.00784535655058,-0.0825570547674,-0.00161972137494,-0.132656671973,-0.00622657758316,0.0465731312899,-0.0183158966761,0.57398675022,0.818850375886,0.00200484010567,0.0,0.818806647672,-0.57392665521,-0.0120256005637,0.0,-0.00869670380423,0.00854427629682,-0.999925678581,0.0,0.655249417117,0.252588773245,0.303360257478,1.0,-0.01608,-0.0211337142857,0.805
0.46025039109,0.511891222119,-0.124113903835,-1.41245077768,0.076175064843,1.91486008677,0.151752844589,-0.0131632928889,-0.0857947396812,-0.00297382608582,-0.132485505257,-0.0104117429117,0.0512976530338,-0.0257949479683,0.573957204649,0.818871142622,0.00198139181187,0.0,0.818826968619,-0.573897077085,-0.0120535171627,0.0,-0.00873333054593,0.00854078450443,-0.999925389185,0.0,0.654979759235,0.252263883628,0.303349611842,1.0,-0.0164,-0.0215542857143,0.821
0.460039409007,0.510343155796,-0.124116284608,-1.4149070746,0.0760184451101,1.91580319857,0.151408462628,-0.00666633691924,-0.082522098839,0.000724191614222,-0.135287532383,-0.00859617738564,0.0548099653061,-0.0187506266824,0.573935853328,0.818886051519,0.00200444351019,0.0,0.818842251053,-0.573875700517,-0.0120330855542,0.0,-0.00870359206465,0.00854770683157,-0.999925589328,0.0,0.654685240798,0.251891866309,0.303346221799,1.0,-0.01676,-0.0220274285714,0.839
0.459833157794,0.508843835885,-0.124124896754,-1.41728135482,0.0758696015978,1.91666399202,0.151085726346,-0.0130711370267,-0.0914356835237,-0.000230317497178,-0.140875571141,-0.013708473853,0.0454192554062,-0.0184301372104,0.573929861536,0.818890290467,0.00198824484252,0.0,0.818846278264,-0.573869778671,-0.0120414535079,0.0,-0.00871980361624,0.00853918103974,-0.999925520932,0.0,0.654391341146,0.25152421139,0.303340276644,1.0,-0.0171,-0.0224742857143,0.856
0.459643197386,0.507418764061,-0.124127956181,-1.4195278216,0.0757273137177,1.91746820603,0.150772518337,-0.0106354869223,-0.0908774555726,0.00265493574378,-0.144195490538,-0.00774780998709,0.0562170782856,-0.0146203966587,0.573909009636,0.818904946335,0.00197089537228,0.0,0.818860678733,-0.573848975927,-0.0120535701815,0.0,-0.00873990022175,0.00853170550947,-0.999925409291,0.0,0.654108107183,0.251181965225,0.30333763951,1.0,-0.01742,-0.0228948571429,0.872
0.459426186539,0.505849009716,-0.124133765647,-1.4219673141,0.0755820423319,1.91838481617,0.150434565544,-0.0129186145248,-0.0984289673953,-0.000810067412703,-0.145589230805,-0.00651629960279,0.0538363897224,-0.0199415322046,0.57390117364,0.818910340404,0.00201101346577,0.0,0.818866563656,-0.57384093611,-0.012036522406,0.0,-0.00870299837072,0.00855469072582,-0.99992553477,0.0,0.653811563134,0.250806563218,0.303353610807,1.0,-0.01776,-0.0233417142857,0.889
0.459199822698,0.504199210573,-0.124135168262,-1.42444558463,0.0754218794282,1.91934275976,0.150102687608,-0.00977963535687,-0.0970334492522,-5.26407817459e-05,-0.142993210472,-0.00438367314336,0.0560591942858,-0.0182210685892,0.57390026697,0.818910712149,0.00211565604263,0.0,0.8188684128,-0.573839700083,-0.0119694622898,0.0,-0.00858803880516,0.00860188712224,-0.999926123835,0.0,0.653517202002,0.250424553988,0.303409807965,1.0,-0.0181,-0.0237885714286,0.906
0.458978750109,0.502628755534,-0.124140848462,-1.4267648237,0.0752713457031,1.92022184176,0.149773110502,-0.0131928543672,-0.100816655654,0.000397455858122,-0.147960961403,-0.00866475657891,0.0575046789172,-0.0128923982345,0.573893775202,0.818914980624,0.00222175485915,0.0,0.818874171185,-0.573832885254,-0.0119020363542,0.0,-0.00847200298153,0.00865000878423,-0.99992669857,0.0,0.653241306401,0.250057647298,0.303478928417,1.0,-0.01842,-0.0242091428571,0.922
0.458742378215,0.500929056298,-0.124144461566,-1.42933611805,0.0751062260338,1.92112650513,0.149411584662,-0.0167740582425,-0.0991957964926,0.00105179583171,-0.155269886324,-0.00635872591984,0.0526388837266,-0.0204749273962,0.573880313855,0.818924341512,0.00224836615047,0.0,0.818883851936,-0.573819292022,-0.0118913432294,0.0,-0.00844811720358,0.00866552535671,-0.999926766311,0.0,0.65291633583,0.249653350883,0.303519896126,1.0,-0.01876,-0.024656,0.939
0.458499200285,0.499207483764,-0.124143006154,-1.43193569439,0.0749419009775,1.9220748856,0.149052158176,-0.0160506994828,-0.100652088128,0.00136595294706,-0.153415384449,-0.00356968345081,0.0608402786786,-0.0243219674232,0.573871924778,0.81893005482,0.00230784850274,0.0,0.818890317402,-0.573810646258,-0.0118632713742,0.0,-0.00839108299038,0.00869804063486,-0.999926964241,0.0,0.652593219182,0.249247659412,0.30356562452,1.0,-0.0191,-0.0251028571429,0.956
0.458260163017,0.497635887272,-0.124147696062,-1.43442490743,0.0747918597265,1.9229984559,0.148676017859,-0.0194496241973,-0.100119935156,0.000168128904613,-0.154323427122,-0.0108299939894,0.0545785555341,-0.0279334370482,0.573849035564,0.818946079903,0.00231289745278,0.0,0.818906351688,-0.573787681553,-0.0118672054419,0.0,-0.00839165087419,0.00870419839532,-0.999926905892,0.0,0.652286297766,0.248852884678,0.303556872381,1.0,-0.01942,-0.0255234285714,0.972
0.45798189143,0.495864754291,-0.124150142942,-1.43728101898,0.0746137831772,1.9239874972,0.148258058221,-0.0156320815193,-0.0936618568014,-0.000356160277163,-0.161596310194,-0.0135185677691,0.0507155560702,-0.0203513247174,0.573832426006,0.818957945235,0.00223107624177,0.0,0.818917007041,-0.573771250795,-0.0119261998039,0.0,-0.00848709208281,0.00867087338606,-0.999926389902,0.0,0.651918446408,0.248393156894,0.303517592733,1.0,-0.01978,-0.0259965714286,0.99
0.457712078561,0.494165329052,-0.124145371525,-1.44002591481,0.0744467926378,1.92495359349,0.147874529598,-0.0148447795233,-0.100744186723,0.00255979712838,-0.158469758229,-0.0058062875838,0.0565333518991,-0.0288350993022,0.573828885823,0.818960599439,0.00216639398295,0.0,0.818918630317,-0.573767784652,-0.0119813653774,0.0,-0.00856942408326,0.00864952046848,-0.999925872636,0.0,0.651565381041,0.247955759715,0.303478412562,1.0,-0.0232748571429,-0.0305898122449,1.007
0.457424801187,0.492011322244,-0.124231048545,-1.44329374918,0.0742507738406,1.92617459227,0.147408482118,-0.0164246771335,-0.150061180703,-0.00100983990996,-0.224077593652,-0.0129676680562,0.0862894361269,-0.0385594225918,0.573855344653,0.818941856151,0.00224199854107,0.0,0.8189011818,-0.573794246996,-0.0119064462447,0.0,-0.00846440428916,0.00866871996794,-0.999926600883,0.0,0.65117292566,0.247410566627,0.303530630336,1.0,-0.0320611428571,-0.0421375020408,1.023
0.457024835318,0.489058976286,-0.124251012527,-1.4480223389,0.0739988836543,1.92793591358,0.146696303302,-0.0240026846719,-0.189557809874,-0.00134167867436,-0.308019705099,-0.0169243981284,0.112936095057,-0.0488095288016,0.573783044117,0.818992506649,0.00224482446593,0.0,0.818951498012,-0.573721564339,-0.0119481135313,0.0,-0.00849767485302,0.00869419470277,-0.999926097519,0.0,0.6505674355,0.246695687558,0.303486670293,1.0,-0.0413965714286,-0.054406922449,1.04
0.456451692476,0.485262331517,-0.124323902977,-1.45398547927,0.0736476973986,1.93018228881,0.145801902325,-0.0394890227064,-0.245024121771,-0.00667104756247,-0.37170390275,-0.0219985129997,0.139836302289,-0.0526768865517,0.573773837298,0.818998792201,0.00230410650404,0.0,0.818958651876,-0.573712219212,-0.0119064245308,0.0,-0.00842961555062,0.00871873071044,-0.999926459954,0.0,0.649834729756,0.245719287374,0.303482820566,1.0,-0.050732,-0.0666763428571,1.057
0.45579015176,0.480981687113,-0.124439893645,-1.46075822993,0.0732356219565,1.93255619914,0.144770345791,-0.0426670771885,-0.279450458551,-0.00750484173171,-0.453190001953,-0.0305386962045,0.154614156614,-0.0602326011317,0.573775376757,0.81899803266,0.00218779067978,0.0,0.818956440206,-0.573714293049,-0.0119585073715,0.0,-0.0085389916297,0.00865336894375,-0.999926099683,0.0,0.648969232908,0.244570659456,0.30343824673,1.0,-0.0595182857143,-0.0782240326531,1.073
0.454933800923,0.475622951346,-0.124569459524,-1.46913111559,0.0727327679918,1.93551407197,0.143556740205,-0.0522959349968,-0.339591555335,-0.00488555121993,-0.511934704615,-0.0328209870253,0.184212033045,-0.076736857312,0.573847112253,0.818947927802,0.0021284286137,0.0,0.818905553372,-0.573786256789,-0.011990541182,0.0,-0.00859853131555,0.0086238854799,-0.99992584418,0.0,0.647900380325,0.243138529341,0.303424839774,1.0,-0.0688537142857,-0.0904934530612,1.09
0.453883507555,0.469136372197,-0.124666229585,-1.47910052317,0.0721544460943,1.9391654748,0.142051497646,-0.0618242332332,-0.387475891182,-0.00302433103235,-0.568167119182,-0.0336951639491,0.215877849989,-0.08857155426,0.57386713212,0.818933488902,0.00228086145341,0.0,0.818892855275,-0.573805398732,-0.0119416441987,0.0,-0.00847080482038,0.00872086616087,-0.999926093248,0.0,0.646633918544,0.241462356006,0.303482531461,1.0,-0.0787382857143,-0.103484604082,1.108
0.452861903063,0.463056896936,-0.124703448365,-1.48834667418,0.0715679275253,1.94256785682,0.140546070999,-0.0696975106327,-0.407145226839,-0.0011736429768,-0.647570604765,-0.0376202324922,0.225161992154,-0.0968914763805,0.573775374297,0.818997211558,0.00247673395024,0.0,0.818959125476,-0.573712881042,-0.0118417830997,0.0,-0.00827761253808,0.00882303727113,-0.999926814894,0.0,0.645450864435,0.23990422003,0.303570409693,1.0,-0.0869754285714,-0.114310563265,1.123
0.45146619761,0.455090320376,-0.124807010185,-1.50085700312,0.0707519826416,1.94677047558,0.138679332637,-0.0803126632634,-0.454687891681,-0.0146872581557,-0.729664512349,-0.0497206511924,0.238801817,-0.105939896975,0.573821747951,0.81896558766,0.00217133793819,0.0,0.818923144786,-0.573760084019,-0.0120414211103,0.0,-0.00861584835978,0.00868795547212,-0.999925140491,0.0,0.643754600942,0.237727233187,0.303465075136,1.0,-0.09686,-0.127301714286,1.141
0.450015359216,0.446642502752,-0.124935360807,-1.5133910053,0.0698880682959,1.95140090876,0.136697786768,-0.0903144532725,-0.503258476079,-0.00479587075558,-0.752087005559,-0.047392881627,0.277212874864,-0.115339402435,0.573814364992,0.818969572683,0.00258078450354,0.0,0.818933378764,-0.573752061932,-0.011723458389,0.0,-0.00812058162327,0.00884074961618,-0.999927946054,0.0,0.642143921531,0.235528213896,0.303698979464,1.0,-0.106195428571,-0.139571134694,1.158
0.448483271813,0.43822171572,-0.124967193089,-1.52633382243,0.0690494826413,1.95584427673,0.13466636074,-0.101396201376,-0.537246024179,-0.000158795645274,-0.83546104314,-0.0546514483596,0.272581243553,-0.138723902104,0.57377495662,0.818997361447,0.00252348947974,0.0,0.818959785993,-0.573712181431,-0.0118299917402,0.0,-0.00824113403432,0.00885455987956,-0.999926837563,0.0,0.640358633348,0.233283430198,0.303685018382,1.0,-0.114981714286,-0.15111882449,1.174
0.446588702767,0.427948396177,-0.125062808308,-1.54172962971,0.0679996128535,1.96133182096,0.132127499632,-0.111580023358,-0.575654973355,-0.00449112178884,-0.89474087362,-0.0679411106701,0.316959186546,-0.13681151203,0.573697622725,0.819050623363,0.00280373845081,0.0,0.819016953202,-0.573634140145,-0.0116554934942,0.0,-0.00793827195295,0.00898321118752,-0.999928140296,0.0,0.638275282066,0.230548606397,0.303838699809,1.0,-0.124866285714,-0.16410997551,1.192
0.444695408929,0.418324696241,-0.125137562121,-1.55636202196,0.0669638021477,1.96632515067,0.129694138516,-0.124297832384,-0.613282195131,-0.00440342399912,-0.933753647956,-0.0616345862499,0.313183041667,-0.150001852607,0.573641448469,0.819090123732,0.00275766277342,0.0,0.819055850662,-0.573578126342,-0.0116787576187,0.0,-0.00798437370022,0.00895827173994,-0.99992799698,0.0,0.636226992462,0.227886790999,0.303846859669,1.0,-0.133652571429,-0.175657665306,1.208
0.442517545784,0.40742312029,-0.125246784324,-1.57274361838,0.0658094436664,1.972066767,0.126978707502,-0.133940895497,-0.640428394321,-0.00324374951099,-0.996888098721,-0.0644898310975,0.337115716944,-0.164300979136,0.573636300808,0.819093161703,0.00292125811077,0.0,0.819061140902,-0.573572576506,-0.0115798896924,0.0,-0.0078096052782,0.00903550804952,-0.999928682287,0.0,0.633792214481,0.224692916619,0.303917171201,1.0,-0.143537142857,-0.188648816327,1.226
0.440083769712,0.395865245454,-0.125354626991,-1.59004375241,0.0646365103961,1.97793546205,0.124041364135,-0.147260795891,-0.69520927189,-0.00809395927926,-1.03293362017,-0.0769070064582,0.359217394735,-0.178040014865,0.573667213759,0.819071044045,0.00304951901098,0.0,0.819040311824,-0.573602633737,-0.0115643019303,0.0,-0.00772292140956,0.00913191568678,-0.999928479743,0.0,0.631460335324,0.221627348343,0.303995732681,1.0,-0.152323428571,-0.200196506122,1.242
0.4372842044,0.383160006722,-0.12549800418,-1.60929510632,0.0631629390792,1.98432846166,0.12065819109,-0.15772288479,-0.733333765193,-0.00176541819331,-1.07081692318,-0.0726188385954,0.349589980933,-0.202613770449,0.573618131711,0.819106177847,0.00283818359063,0.0,0.819073079315,-0.573554684288,-0.0116216080663,0.0,-0.00789162940867,0.00899121798852,-0.999928437532,0.0,0.628637413408,0.217921459015,0.303916675619,1.0,-0.162208,-0.213187657143,1.26
0.434737610828,0.371924534349,-0.125626016609,-1.62594265896,0.0619325221286,1.98991100591,0.117672751574,-0.176684958036,-0.744666231292,-0.00904016499081,-1.12432363479,-0.0895733841086,0.373084536253,-0.198271320833,0.573623271073,0.819102203253,0.00294455594228,0.0,0.819070580202,-0.573559583968,-0.011555742594,0.0,-0.00777660566151,0.00904061607041,-0.999928893305,0.0,0.626184893643,0.214664721408,0.303984617707,1.0,-0.170445142857,-0.224013616327,1.275
0.431604126452,0.358738106942,-0.12581323329,-1.64544467489,0.0604116911873,1.99636625505,0.114214711819,-0.185928811646,-0.778831098937,-0.0143169140245,-1.16973231394,-0.0943337148202,0.382185608209,-0.205225412429,0.573757516652,0.819008046228,0.00297979862357,0.0,0.8189774628,-0.573694382809,-0.0114637455034,0.0,-0.00767955393015,0.00901797169183,-0.999929847858,0.0,0.623273161045,0.21073777214,0.304033134437,1.0,-0.179780571429,-0.236283036735,1.292
0.428152495543,0.345045056588,-0.126000575101,-1.66566987481,0.0589188388305,2.00288084252,0.11036933223,-0.206286105186,-0.824495658042,-0.0163056300824,-1.18814581103,-0.0962979450453,0.402847209343,-0.222888145305,0.573840596142,0.818949940084,0.00295173807894,0.0,0.818918448127,-0.573776902158,-0.0115494055552,0.0,-0.00776489535478,0.00904492467856,-0.999928945344,0.0,0.620179261464,0.20657170302,0.30403250337,1.0,-0.189116,-0.248552457143,1.309
0.424748049057,0.331744520811,-0.126107843397,-1.68528868204,0.0574017498374,2.00919358146,0.106652580884,-0.215250917855,-0.815210242259,-0.00131212188879,-1.24592405004,-0.0936404747146,0.375584489516,-0.239061566998,0.573865464539,0.818932634389,0.00291819180459,0.0,0.818900325935,-0.573801434058,-0.0116153931445,0.0,-0.00783791276907,0.00905555555011,-0.999928279447,0.0,0.617103479215,0.20255673157,0.303995268005,1.0,-0.197902285714,-0.260100146939,1.325
0.420929237691,0.316977139342,-0.126221004436,-1.70662905978,0.0555953277845,2.01603012711,0.10244467051,-0.230749325683,-0.866197377078,-0.00285579085709,-1.28684469846,-0.10036965087,0.393176143085,-0.248241515215,0.573756717871,0.819008384141,0.00304011616441,0.0,0.818978379332,-0.573693161312,-0.0114593957543,0.0,-0.00764139446739,0.00906486923292,-0.999929716148,0.0,0.613706853256,0.198131579407,0.304092274361,1.0,-0.207237714286,-0.272369567347,1.342
0.416557785187,0.300860577354,-0.126324850976,-1.72987175031,0.0536583609831,2.02329849289,0.0976229009355,-0.252432469953,-0.914747953046,-0.0062885285117,-1.31086580612,-0.110157901842,0.405031280142,-0.271474096225,0.573566842454,0.819141153583,0.00309752243955,0.0,0.8191118881,-0.573503133411,-0.0114288075758,0.0,-0.00758551384145,0.00909257758843,-0.999929890049,0.0,0.609911555525,0.193229501159,0.304138131781,1.0,-0.217122285714,-0.285360718367,1.36
0.412336314604,0.286081756284,-0.126479758764,-1.75106838082,0.0519424265914,2.02976265809,0.093258146738,-0.262966948863,-0.928310868022,-0.00526685346245,-1.33120233213,-0.114941483772,0.39897847444,-0.282961821519,0.573637035646,0.819091904127,0.0031226318927,0.0,0.819062328364,-0.573572479577,-0.0115004272459,0.0,-0.00762899801544,0.00915487740241,-0.999928990783,0.0,0.606384011486,0.188620190017,0.304158442384,1.0,-0.225908571429,-0.296908408163,1.376
0.407524768503,0.269927694006,-0.126658620346,-1.77410100456,0.0499622507015,2.0366840101,0.0882625808084,-0.288474997694,-0.97357090794,-0.0146859900823,-1.35964651179,-0.117502309688,0.427219967037,-0.296082096182,0.573611818739,0.819109644451,0.00310139825368,0.0,0.819079640788,-0.573547148832,-0.0115306987514,0.0,-0.00766625602789,0.00915461350434,-0.999928708244,0.0,0.602482944119,0.183496211221,0.30416521878,1.0,-0.235244,-0.309177828571,1.393
0.402296249764,0.253298162919,-0.126885458225,-1.79750000288,0.0478517852746,2.04360834819,0.0831096947911,-0.314619110319,-1.01892440231,-0.0176245210023,-1.38065139897,-0.135081360531,0.420459232312,-0.304757211075,0.573751708781,0.819011528213,0.0031369135687,0.0,0.818982405914,-0.573687417332,-0.011459184079,0.0,-0.00758574207002,0.00914397951814,-0.999929419587,0.0,0.59847139902,0.178097439391,0.304227186325,1.0,-0.244579428571,-0.32144724898,1.41
0.397446021472,0.238410196693,-0.127034283531,-1.81858343453,0.0459958181469,2.04959717089,0.078264713063,-0.320659646352,-0.996288248649,-0.00579079855031,-1.39475225959,-0.115141982568,0.395195873222,-0.327017266268,0.57374555099,0.819016368629,0.0029962539908,0.0,0.818984565634,-0.573680687637,-0.0116403087294,0.0,-0.00781486079578,0.00913263695038,-0.999927758837,0.0,0.594479816441,0.172901144895,0.304168946094,1.0,-0.253365714286,-0.332994938775,1.426
0.391370969104,0.219983231537,-0.127181137276,-1.8441989621,0.0436506153242,2.05693992899,0.0721677152905,-0.344742115205,-1.01986082091,-0.00584892983087,-1.41149674506,-0.13776889593,0.386228219207,-0.338719869133,0.573625426494,0.819100406895,0.00302331035239,0.0,0.819068630416,-0.573560108679,-0.0116673605438,0.0,-0.00782284016846,0.00916916987259,-0.99992736211,0.0,0.59010376052,0.167283632053,0.304157258196,1.0,-0.262701142857,-0.345264359184,1.443
0.385145060324,0.202081450785,-0.127374462711,-1.86881671796,0.0412667325271,2.06374663758,0.0660927615537,-0.372145326226,-1.02886719104,-0.00981238079728,-1.44630058865,-0.132608452781,0.382358316507,-0.365227145384,0.573567048698,0.819141288334,0.00302279587505,0.0,0.819109564171,-0.573501809474,-0.0116594731913,0.0,-0.00781732749499,0.00916366706848,-0.999927455667,0.0,0.585305160291,0.161018967526,0.304198497642,1.0,-0.272585714286,-0.358255510204,1.461
0.378872958907,0.184771001893,-0.12762961337,-1.89226419655,0.0389827803638,2.07008233896,0.0600415007858,-0.404740768713,-1.0863240103,-0.0194809200511,-1.50121508501,-0.141133004892,0.392004349635,-0.380079743513,0.573584924855,0.819128449527,0.00310870656594,0.0,0.81909804044,-0.573519638521,-0.0115918626219,0.0,-0.00771246867953,0.00919543014788,-0.999927978352,0.0,0.581185745833,0.155550802006,0.304268050338,1.0,-0.280822857143,-0.369081469388,1.476
0.371277689068,0.165037362481,-0.127932064991,-1.91893173619,0.0363483704506,2.07705217749,0.052938245981,-0.434345381081,-1.10554898191,-0.0123683241414,-1.49634560423,-0.167484883217,0.381807587863,-0.400187215806,0.57372816549,0.819028219349,0.00308462882008,0.0,0.81899710408,-0.57366247076,-0.0116559020009,0.0,-0.00777712660422,0.00921379873711,-0.999927308465,0.0,0.576084696648,0.148748932849,0.304267660055,1.0,-0.290707428571,-0.382072620408,1.494
0.363805064067,0.145970853027,-0.128153067219,-1.94434861528,0.0336877486718,2.08354691456,0.0458473149293,-0.445424043406,-1.12308874113,-0.0150871429458,-1.51451837351,-0.171226762866,0.384713432446,-0.423790976913,0.573615185054,0.819107250881,0.00311093727096,0.0,0.819076731149,-0.573549721129,-0.0116091681328,0.0,-0.00772502532078,0.00920746872985,-0.999927770643,0.0,0.571089864416,0.142249675496,0.304300768126,1.0,-0.300042857143,-0.394342040816,1.511
0.356284396693,0.127638912555,-0.128410031819,-1.96844567194,0.0312104170436,2.08946411509,0.0388028388284,-0.484513200605,-1.14004812458,-0.0186764035626,-1.53558850022,-0.16638482324,0.36657792144,-0.452579173408,0.573599815295,0.819117612223,0.00321498679669,0.0,0.819087914341,-0.573533382323,-0.0116273317024,0.0,-0.00768039780041,0.00930297125783,-0.99992723046,0.0,0.566252881761,0.13591034522,0.30436255331,1.0,-0.308829142857,-0.405889730612,1.527
0.347696754944,0.107819032109,-0.128814160748,-1.99425937449,0.0283529207737,2.09562518085,0.0310083218809,-0.518800802641,-1.16469999085,-0.0250855320213,-1.5349052736,-0.174299614507,0.342684370235,-0.464175227199,0.573773054091,0.818996161131,0.00324304679303,0.0,0.818967365331,-0.57370716383,-0.0115451979055,0.0,-0.00759505981473,0.00928045162749,-0.999928091557,0.0,0.560994384272,0.128830367742,0.304409021449,1.0,-0.318164571429,-0.41815915102,1.544
0.338733695273,0.0877007945407,-0.129099318767,-2.02021797363,0.0255039088419,2.1015576592,0.0227271290683,-0.539139085815,-1.1762858279,-0.0251404456665,-1.53727012471,-0.161029929744,0.331297757833,-0.501642459567,0.573696656372,0.81904951628,0.00328378585269,0.0,0.819020779294,-0.573630074292,-0.0115865375906,0.0,-0.00760641613342,0.00933682648563,-0.999927480423,0.0,0.555533899204,0.121721038233,0.304420695967,1.0,-0.3275,-0.430428571429,1.561
0.329790641427,0.0684994367636,-0.129398434045,-2.04468667886,0.0227474810861,2.1069109159,0.0145189841014,-0.557866846659,-1.1890853731,-0.0141027154388,-1.51304395111,-0.165898326688,0.312637048753,-0.502836659236,0.57363259872,0.819094209217,0.00332641154304,0.0,0.819065565705,-0.573565324684,-0.0116260181519,0.0,-0.00761503644078,0.00939379301712,-0.999926881263,0.0,0.550272014501,0.114840105479,0.304433552015,1.0,-0.32998,-0.433688,1.577
0.319716515068,0.0482380848449,-0.129810560905,-2.07027856735,0.0196926210232,2.11216765396,0.00564526068526,-0.59949734894,-1.17032362949,-0.0205735494684,-1.47365399261,-0.167570720739,0.283744261323,-0.526753724269,0.573861317206,0.818934517107,0.00319252371341,0.0,0.818903967007,-0.573794246304,-0.0117133526108,0.0,-0.00776076644491,0.00933639004626,-0.999926298447,0.0,0.544652503019,0.107303332501,0.30439742586,1.0,-0.32998,-0.433688,1.594
0.308816630007,0.0269121062411,-0.13005855197,-2.09669698012,0.0165744661825,2.11733179928,-0.00398510050393,-0.613344169146,-1.1752225776,-0.0108233339186,-1.45757446142,-0.174334996521,0.264015367829,-0.542995685539,0.573920104045,0.818893073527,0.00325502733563,0.0,0.818862483968,-0.57385178334,-0.0117944905934,0.0,-0.00779067340595,0.0094346966851,-0.999925143151,0.0,0.538679229509,0.0995139132052,0.304429668997,1.0,-0.32998,-0.433688,1.612
0.298804251985,0.00816366763239,-0.130350183285,-2.11951673845,0.0136612791185,2.12162284192,-0.0128468240713,-0.624774815246,-1.16365322695,-0.0199605758949,-1.42353012101,-0.176775188632,0.244863300701,-0.550561490926,0.573924411845,0.818889703738,0.0033420803927,0.0,0.818860923226,-0.573856627198,-0.0116664791172,0.0,-0.00763583165941,0.00943255780748,-0.999926357752,0.0,0.533430355936,0.0925359828234,0.304506901439,1.0,-0.32998,-0.433688,1.628
0.287848442603,-0.0116039335394,-0.130553933011,-2.14319972191,0.0107337254044,2.12583622064,-0.0225490811813,-0.641884532392,-1.17562545662,0.000291242521928,-1.38476475732,-0.177624385069,0.253856218628,-0.572362521937,0.573878632231,0.818920736028,0.00359033054704,0.0,0.818894938037,-0.573809769298,-0.0115834372292,0.0,-0.00742589317,0.00958777521885,-0.999926462635,0.0,0.527846305933,0.085206354281,0.304616478367,1.0,-0.32998,-0.433688,1.645
0.27659759288,-0.0310983007852,-0.130811328783,-2.16631569708,0.00765707884156,2.12961431717,-0.0324425703308,-0.674165769106,-1.15709495432,-0.0166797957694,-1.3578449131,-0.190197720774,0.234714295845,-0.583894333506,0.573836878495,0.818949749213,0.00364582559093,0.0,0.818925096708,-0.573768409384,-0.0114997946023,0.0,-0.00732603540424,0.00958484885061,-0.999927227291,0.0,0.522252041257,0.0778501942979,0.304682266668,1.0,-0.32998,-0.433688,1.662
0.265606666815,-0.0491976807252,-0.131120539307,-2.18762414737,0.00492127151172,2.13276913212,-0.0420257986294,-0.685420293103,-1.15194637903,-0.0107930045413,-1.31131496111,-0.166174889953,0.193865842258,-0.595097281898,0.573977341024,0.818851253772,0.00365829028195,0.0,0.81882562141,-0.573907324857,-0.0116503690653,0.0,-0.00744054298026,0.00968273609413,-0.999925438691,0.0,0.516958631841,0.0708636454634,0.304676579065,1.0,-0.32998,-0.433688,1.678
0.253029781484,-0.0693077254435,-0.131339827588,-2.21101583393,0.001736207977,2.13605442504,-0.053134349486,-0.704342462889,-1.11206318631,-0.0169309292547,-1.29124466621,-0.169895664889,0.159366732948,-0.607718899185,0.573832832944,0.818952578738,0.00364698706267,0.0,0.818926505918,-0.573762492046,-0.0116930546597,0.0,-0.00748369696571,0.00969665974424,-0.999924981721,0.0,0.511008411778,0.0631423588064,0.304660311333,1.0,-0.32998,-0.433688,1.696
0.239901644248,-0.089218666785,-0.131705923913,-2.23383951882,-0.00144134045397,2.13897059782,-0.0646125943235,-0.728750884344,-1.1025212417,-0.0134081804934,-1.26898689816,-0.16616222962,0.144333303202,-0.641870875756,0.57390385452,0.818902789156,0.00365165446684,0.0,0.818876419191,-0.573833024973,-0.0117395248768,0.0,-0.0075182344854,0.00972779960122,-0.999924420176,0.0,0.505069275961,0.0552705483647,0.304641827301,1.0,-0.32998,-0.433688,1.714
0.229596854667,-0.104618249845,-0.131853300476,-2.25106486456,-0.00391070272769,2.14092947393,-0.0737401165603,-0.742359614846,-1.08652342913,-0.0133231228193,-1.23263220056,-0.17870073675,0.128575715477,-0.655329821727,0.573725014686,0.819027698999,0.00373934438105,0.0,0.819002714939,-0.573654250233,-0.0116662339056,0.0,-0.00741002058025,0.00975593125089,-0.999924953884,0.0,0.500464512129,0.0493145580474,0.304710479635,1.0,-0.32998,-0.433688,1.728
0.216536668165,-0.123000812936,-0.13223525696,-2.27164473578,-0.00690292089865,2.14303310026,-0.085087894441,-0.776950049321,-1.07979073725,-0.0279463179481,-1.19355506483,-0.171001520541,0.121366821938,-0.678508499632,0.573867133995,0.818928381806,0.00368305493647,0.0,0.818902114373,-0.573795809737,-0.0117661677694,0.0,-0.00752247207276,0.00976846652399,-0.999923991849,0.0,0.494845344684,0.041872191322,0.30466398318,1.0,-0.32998,-0.433688,1.745
0.202443893601,-0.142308831846,-0.132513048686,-2.29289707007,-0.0100358647618,2.1448318924,-0.0975395100271,-0.798914015031,-1.08748672033,-0.0245763919364,-1.14879329148,-0.169011421613,0.10607078545,-0.704133563938,0.573743652442,0.819015214099,0.00361209884673,0.0,0.818987165187,-0.573671486443,-0.011907804254,0.0,-0.00768066261252,0.00979047819717,-0.999922573982,0.0,0.488858280232,0.0341287378114,0.304629527837,1.0,-0.32998,-0.433688,1.763
0.189428748976,-0.159262289058,-0.132920253912,-2.31136055074,-0.0128525192308,2.14619182707,-0.10890101336,-0.817413052728,-1.05942388774,-0.0251347917833,-1.15233207147,-0.173424584574,0.0733429273509,-0.707370926526,0.573872347507,0.818925409653,0.00352832725789,0.0,0.818895553556,-0.573799566502,-0.012036475831,0.0,-0.00783257405096,0.00979692076491,-0.999921332469,0.0,0.483535747709,0.0271019565563,0.304569822688,1.0,-0.32998,-0.433688,1.779
0.175388013458,-0.177103649976,-0.13320022784,-2.33026580659,-0.0156966261858,2.14734621799,-0.121318220482,-0.842907114969,-1.03456166991,-0.0173652034115,-1.11549540254,-0.17385366521,0.0539214728986,-0.737293190405,0.573811819247,0.818967190801,0.00367197294723,0.0,0.818938835035,-0.57373803631,-0.0120248519111,0.0,-0.0077413576864,0.00990731414545,-0.99992095513,0.0,0.477947073879,0.0198083196413,0.304622937038,1.0,-0.32998,-0.433688,1.796
0.160793865638,-0.194805243557,-0.133642196364,-2.34864427696,-0.018656824005,2.14823925725,-0.13413509249,-0.860379765028,-1.04713028512,-0.0173262355741,-1.06619909789,-0.180162844064,0.0509305041736,-0.762365663136,0.573923429194,0.81888824057,0.00383324661854,0.0,0.818862763218,-0.573850062384,-0.011858660036,0.0,-0.00751135305802,0.00994505722482,-0.99992233469,0.0,0.472378506228,0.0123457912079,0.304722019646,1.0,-0.32998,-0.433688,1.813
0.14599890561,-0.212127614435,-0.133937746317,-2.36662469853,-0.0214036038527,2.14873627386,-0.147343849589,-0.880293273508,-1.02306589185,-0.014254576001,-1.04793614123,-0.169675581633,0.0133134071562,-0.785115309609,0.573810546939,0.818967290462,0.00384451239546,0.0,0.818940439883,-0.573735152624,-0.0120531103466,0.0,-0.0076655188012,0.0100648222916,-0.999919966384,0.0,0.467057725288,0.00550239160528,0.304688666254,1.0,-0.32998,-0.433688,1.829
0.13161191043,-0.228175926171,-0.134319133142,-2.38293651736,-0.0241626045237,2.14906128549,-0.160016943981,-0.895824106654,-0.990140838853,-0.0149041072344,-1.00473889867,-0.174437070305,0.0118012847338,-0.800685174217,0.573899096618,0.818904985035,0.00389862640864,0.0,0.818879396931,-0.573824225959,-0.0119598447276,0.0,-0.00755699568199,0.0100564425449,-0.99992087676,0.0,0.461498679924,-0.00190042421335,0.304722485711,1.0,-0.32998,-0.433688,1.846
0.115997025128,-0.245089148235,-0.134683414713,-2.39979855314,-0.0269412620539,2.14916110622,-0.173976948326,-0.936225025984,-0.992712282281,-0.0330413101013,-0.992676561254,-0.162574445347,0.00876716792705,-0.829707288492,0.573854590187,0.818935194425,0.00409921382693,0.0,0.818912629305,-0.57377958566,-0.0118253771621,0.0,-0.00733231350403,0.0101431402252,-0.999921673875,0.0,0.455595360643,-0.00967744748182,0.304802186528,1.0,-0.32998,-0.433688,1.864
0.100007100314,-0.261689805391,-0.135036763243,-2.41635990547,-0.0297250598966,2.14902093355,-0.188359695116,-0.94439329187,-0.978156154783,-0.0172906283507,-0.980026394904,-0.170860794329,-0.00806304189947,-0.854428587888,0.573732260504,0.819020998333,0.00407976087197,0.0,0.818997601344,-0.573656544492,-0.0119098638272,0.0,-0.00741418978369,0.0101745833563,-0.999920750681,0.0,0.450283722348,-0.0165574127737,0.304746133132,1.0,-0.32998,-0.433688,1.88
0.0835172358048,-0.277977292379,-0.135500629807,-2.43217239095,-0.0324970934197,2.14870976613,-0.203092372646,-0.97433739763,-0.944147255372,-0.0248234369081,-0.920306824797,-0.158077570907,-0.038258406026,-0.881064842742,0.573814757866,0.818962427551,0.00423235344918,0.0,0.818941792195,-0.573739598425,-0.0117456841518,0.0,-0.00719114368966,0.0102060945253,-0.999922058506,0.0,0.44473049497,-0.0239713015586,0.304794715885,1.0,-0.32998,-0.433688,1.897
0.0667396907417,-0.293995593333,-0.13586438018,-2.44753392359,-0.0351030221919,2.14801755101,-0.218316082418,-1.00198308481,-0.937920004614,-0.0314182257843,-0.864578681213,-0.165428009844,-0.0419523485215,-0.906196957232,0.573709548763,0.81903553422,0.00434675088569,0.0,0.819015822289,-0.573633226782,-0.0117792560051,0.0,-0.0071543262412,0.0103181280543,-0.999921172818,0.0,0.439126321502,-0.0312669087127,0.304813293197,1.0,-0.32998,-0.433688,1.914
0.0494196266299,-0.309715315601,-0.136350108035,-2.46233536208,-0.037804207312,2.14718874841,-0.233875345773,-1.02214570414,-0.910660072642,-0.0246695326538,-0.852539832027,-0.159011024531,-0.0659965650087,-0.915824115553,0.573815524805,0.818960685362,0.00445939737212,0.0,0.818943012584,-0.573739668421,-0.0116568400862,0.0,-0.00698809511897,0.0103410672274,-0.999922111394,0.0,0.433542427314,-0.0386874052379,0.304859725285,1.0,-0.32998,-0.433688,1.931
0.0317261147197,-0.325111314762,-0.136833306021,-2.47659165464,-0.040366497456,2.1461422272,-0.249897638201,-1.05159047017,-0.925370745765,-0.0224817510504,-0.837418605947,-0.15014735546,-0.0613840912022,-0.9475710816,0.573899667848,0.818900724301,0.00463916850158,0.0,0.818885591593,-0.573823571346,-0.0115604390476,0.0,-0.0068049186874,0.0104336812532,-0.999922412679,0.0,0.427961216657,-0.0460750985171,0.304916603035,1.0,-0.32998,-0.433688,1.948
0.0137476571249,-0.340070348573,-0.137216517626,-2.49034094386,-0.042908386265,2.14492042684,-0.266421389037,-1.07443474203,-0.880207998526,-0.0264195468872,-0.788576636724,-0.15629404847,-0.0819757194378,-0.982368138648,0.573731409937,0.819018204921,0.00471128020437,0.0,0.819004178166,-0.573655397508,-0.0115059965943,0.0,-0.0067210987601,0.0104601112102,-0.999922703465,0.0,0.422380751122,-0.0533693684162,0.304929369669,1.0,-0.32998,-0.433688,1.965
-0.00259599529176,-0.35297030712,-0.137644498831,-2.50197010109,-0.0451721762455,2.14360645388,-0.2813112706,-1.08709798608,-0.887066613961,-0.0245037126941,-0.752353405971,-0.143244808225,-0.0888190468128,-1.00385605314,0.5737809995,0.818983330455,0.00473454867139,0.0,0.81896979861,-0.5737052159,-0.0114691375404,0.0,-0.00667692574407,0.0104584269304,-0.999923017021,0.0,0.417443986937,-0.0599072770119,0.304961374647,1.0,-0.32998,-0.433688,1.98
-0.0214604128754,-0.367175649303,-0.138144638058,-2.51470802104,-0.0475508349958,2.14205171251,-0.29867067153,-1.11544803889,-0.811649608662,-0.0289702678816,-0.732003577471,-0.149463455317,-0.103581884529,-1.03148117841,0.573812972168,0.818960284889,0.00484475466214,0.0,0.818947652888,-0.573736040377,-0.011508462255,0.0,-0.00664549111682,0.0105715089253,-0.999922037284,0.0,0.411842776407,-0.0672810642822,0.304956251785,1.0,-0.32998,-0.433688,1.997
-0.0418242698005,-0.381763979773,-0.138628402641,-2.52759066141,-0.0500859257882,2.1401782181,-0.317440598454,-1.15736159211,-0.807001545897,-0.0391189943238,-0.683089797089,-0.134490882037,-0.10106528682,-1.05116973361,0.573806548121,0.818964727016,0.00485470261544,0.0,0.818951811036,-0.573728932439,-0.011566770719,0.0,-0.00668762263296,0.0106130606124,-0.999921316228,0.0,0.405903291733,-0.0750551346354,0.304950696725,1.0,-0.32998,-0.433688,2.015
-0.0603337408113,-0.394323103821,-0.139005980296,-2.53854603669,-0.0522852210889,2.13851595808,-0.33461016371,-1.15626151987,-0.769886257105,-0.021720964891,-0.667733052814,-0.133389369794,-0.114660909907,-1.08259025452,0.573726168605,0.819020850921,0.00488631920797,0.0,0.819008583022,-0.573648853789,-0.0115186971721,0.0,-0.00663114941663,0.0106107196558,-0.999921717179,0.0,0.400641165737,-0.0819585992031,0.30494970755,1.0,-0.32998,-0.433688,2.031
-0.0792221047831,-0.406466459667,-0.139460376371,-2.54907764617,-0.0543517730516,2.13657825497,-0.352183497922,-1.18663643488,-0.73744364249,-0.0240250454195,-0.639099746805,-0.138490626036,-0.125901224054,-1.10047052321,0.573729736077,0.819018376033,0.00488227028413,0.0,0.819004361822,-0.573649747244,-0.0117715633976,0.0,-0.00684054532451,0.0107525036386,-0.999918792005,0.0,0.394985626809,-0.0893095012117,0.304891627449,1.0,-0.32998,-0.433688,2.048
-0.100891412464,-0.419653489407,-0.13999446704,-2.56003840822,-0.0566468130731,2.13457326947,-0.372440353331,-1.21161093532,-0.704693088723,-0.014293425664,-0.61202883952,-0.131991397608,-0.12173885745,-1.1185372624,0.573766050373,0.818991572734,0.00510589183986,0.0,0.818982083827,-0.573688000435,-0.0114530095769,0.0,-0.00645085364478,0.0107531890408,-0.999921374615,0.0,0.389461079545,-0.0967089372358,0.30501355788,1.0,-0.32998,-0.433688,2.065
-0.120483783381,-0.430819421382,-0.140404710093,-2.56955010314,-0.0586207573329,2.13248572796,-0.390873128742,-1.24050791012,-0.702157058581,-0.0351390044738,-0.576373737736,-0.121781430463,-0.125993468865,-1.13483832669,0.573685361125,0.819048590615,0.00502588734027,0.0,0.819036292568,-0.573604666544,-0.0117466964511,0.0,-0.00673837247532,0.0108555009317,-0.999918372886,0.0,0.384114949337,-0.103594681965,0.30493106823,1.0,-0.32998,-0.433688,2.081
-0.141604914762,-0.442213904376,-0.140791652672,-2.5789143491,-0.0605834435151,2.13039514892,-0.410792631804,-1.25688807259,-0.673477571184,-0.0158592625236,-0.532259318546,-0.108175990539,-0.113780526634,-1.18692064231,0.573608164207,0.819101861851,0.00515371396584,0.0,0.819091579115,-0.573527650976,-0.0116518448975,0.0,-0.00658837723156,0.0109051670301,-0.999918832015,0.0,0.37823056171,-0.111328084329,0.304982691222,1.0,-0.32998,-0.433688,2.099
-0.163204048143,-0.45297846252,-0.141286203349,-2.58767125603,-0.0625875366432,2.12835076218,-0.431211503563,-1.27673917622,-0.623210554444,-0.0294735246291,-0.518920962813,-0.100681376905,-0.131503126855,-1.20994141522,0.573619495874,0.819093794065,0.00517468633717,0.0,0.819084097059,-0.573539436425,-0.0115975735535,0.0,-0.00653173959463,0.0108913072726,-0.99991935465,0.0,0.372970039335,-0.118289438084,0.304993063313,1.0,-0.32998,-0.433688,2.115
-0.18513278739,-0.463209093011,-0.141715588243,-2.59599835054,-0.0645078717913,2.12613024765,-0.452092121666,-1.2816136379,-0.589848089281,-0.0187041059707,-0.488416301158,-0.116034820082,-0.122506135187,-1.24338617268,0.573511229789,0.819169986395,0.00511366761393,0.0,0.819158596015,-0.573429897469,-0.0117513473181,0.0,-0.00669415001024,0.0109286448454,-0.999917873166,0.0,0.367317654397,-0.125628546037,0.304960552585,1.0,-0.328899428571,-0.432267820408,2.132
-0.208571502562,-0.473172483825,-0.142083898035,-2.60393168705,-0.0661737725658,2.12405153657,-0.474330784254,-1.29610892028,-0.533260719374,-0.00860021870578,-0.417648681564,-0.0997780673445,-0.11090508618,-1.19991983692,0.573605506158,0.819102786489,0.00530050683551,0.0,0.819093850209,-0.573523586886,-0.0116921656151,0.0,-0.006537245605,0.0110485158458,-0.999917593963,0.0,0.361494327422,-0.133331456952,0.304986394309,1.0,-0.319014857143,-0.419276669388,2.15
-0.229385013259,-0.481236716043,-0.142361498633,-2.61019828834,-0.0674991652218,2.12225782038,-0.494019243301,-1.2950769449,-0.486358188451,-0.0175155554454,-0.387552077791,-0.0940206549257,-0.115888974794,-1.20901979469,0.573804116562,0.818962443316,0.0054862698163,0.0,0.818956241212,-0.57372212374,-0.0115907986017,0.0,-0.00634495653252,0.011144077417,-0.999917772152,0.0,0.356442620173,-0.140078619685,0.305046041437,1.0,-0.310228571429,-0.407728979592,2.166
-0.249867803804,-0.488538415188,-0.142379322552,-2.61604940956,-0.0686650551078,2.12046026807,-0.513512327996,-1.2748040461,-0.43860913893,0.00011389172049,-0.351267272067,-0.0606738394914,-0.113116889192,-1.21202398571,0.573792886678,0.818970168054,0.00550762532963,0.0,0.818962901295,-0.573708482234,-0.011793668501,0.0,-0.0064990164319,0.0112778810471,-0.999915282504,0.0,0.351467986014,-0.146517585799,0.304993682788,1.0,-0.301442285714,-0.396181289796,2.182
-0.271405112416,-0.495486150476,-0.142336131563,-2.62149171842,-0.0697611861105,2.11881669955,-0.533967809843,-1.25395726901,-0.394150520272,0.0126231331618,-0.308224423776,-0.0542307873464,-0.0858459036404,-1.20578586672,0.573862875483,0.818920616928,0.00558302919552,0.0,0.818914273747,-0.573778093772,-0.0117838135522,0.0,-0.00644671213387,0.0113345336531,-0.999914980511,0.0,0.346379488025,-0.153226015884,0.304992954404,1.0,-0.292106857143,-0.383911869388,2.199
-0.292478888556,-0.50160927005,-0.142206294191,-2.62624345666,-0.0707072410587,2.11727259168,-0.554035681787,-1.23810709635,-0.339369981993,0.0075013088433,-0.270739653249,-0.0446040122265,-0.0820367571184,-1.15627365786,0.573910520758,0.818886890366,0.0056322154942,0.0,0.818880988583,-0.5738252061,-0.0118028082796,0.0,-0.0064333816154,0.0113860892554,-0.999914480629,0.0,0.341468291455,-0.159700084486,0.304994689367,1.0,-0.282771428572,-0.37164244898,2.216
-0.311952315003,-0.506704881133,-0.142014972582,-2.63013221711,-0.0714080916112,2.11600186059,-0.572612984669,-1.20626033976,-0.309038397128,0.0261129959672,-0.231126489061,-0.0457596217131,-0.0749122526308,-1.14773595851,0.57397851022,0.818838477792,0.0057414278688,0.0,0.81883426662,-0.573893281865,-0.0117342124013,0.0,-0.0063135792945,0.0114366838226,-0.999914666849,0.0,0.337010976521,-0.165614250496,0.305020835714,1.0,-0.273985142857,-0.360094759184,2.232
-0.333336058106,-0.511740003605,-0.141800549251,-2.63396313173,-0.0720565962987,2.11470258186,-0.593110891035,-1.1898116494,-0.258166254181,0.0115376448685,-0.203545573985,-0.0362101444139,-0.0709931661132,-1.13212591008,0.574046695721,0.818789637406,0.00588792915961,0.0,0.818787405792,-0.57396108381,-0.0116878265589,0.0,-0.00619054825562,0.0115305424571,-0.999914358184,0.0,0.332142599112,-0.172046193593,0.305041318601,1.0,-0.264100571429,-0.347103608163,2.25
-0.35290895247,-0.515769434134,-0.141375014991,-2.6371942419,-0.0725564857039,2.11350227595,-0.611982303839,-1.14465690503,-0.228904251094,0.0217427039968,-0.183782328261,-0.0258400327707,-0.0673112203452,-1.11459608938,0.573913603869,0.818883014955,0.00587622442864,0.0,0.818879130833,-0.573825297538,-0.011926604389,0.0,-0.0063946906467,0.0116569824926,-0.999911607439,0.0,0.327684256459,-0.177789532446,0.304970082221,1.0,-0.254765142857,-0.334834187755,2.267
-0.370929465614,-0.518968938008,-0.141064256828,-2.63976699946,-0.0729688982645,2.11259511565,-0.629284576182,-1.11554531157,-0.188877704361,0.0230814371338,-0.14666749237,-0.0180056591854,-0.0549502593636,-1.07239004326,0.573952579859,0.818855481642,0.00590619663115,0.0,0.818851042378,-0.57386242578,-0.0120678737238,0.0,-0.00649262522776,0.0117629089975,-0.999909735821,0.0,0.323623732649,-0.183089010715,0.304910036429,1.0,-0.245978857143,-0.323286497959,2.283
-0.389534618379,-0.521867170562,-0.140681523361,-2.64198583663,-0.0733320804878,2.11174589443,-0.647184367931,-1.07823523991,-0.158945051446,0.0331363274429,-0.121705202615,-0.0269350669366,-0.0502614480217,-1.04191639065,0.573971395353,0.818842115141,0.00593082539103,0.0,0.818837819256,-0.573880811279,-0.0120907858734,0.0,-0.0064969828784,0.0117963764851,-0.999909313246,0.0,0.319486703694,-0.188534614682,0.304904093939,1.0,-0.236643428572,-0.311017077551,2.3
-0.40855902104,-0.524407607672,-0.140251271439,-2.64386090243,-0.0735450515648,2.1109902834,-0.66554542885,-1.05475737506,-0.12893677762,0.0142235066896,-0.0944121776155,-0.0104184217895,-0.0356620916669,-1.01387509048,0.574006710729,0.818816622755,0.0060316863778,0.0,0.818813849128,-0.573916073675,-0.0120402555924,0.0,-0.00639720282363,0.0118502440026,-0.999909319645,0.0,0.315299524295,-0.194067244042,0.30493023879,1.0,-0.226758857143,-0.298025926531,2.318
-0.423885958368,-0.526111104123,-0.139848543118,-2.64513417007,-0.0736719882389,2.11048044432,-0.680392719137,-1.00089717025,-0.109106872091,0.0217017140548,-0.0797799218754,-0.00287394164484,-0.025672769852,-0.975556414376,0.573984384139,0.818831885388,0.00608417106982,0.0,0.818829983799,-0.573893882491,-0.0120006738325,0.0,-0.00633498779132,0.0118703296181,-0.999909477505,0.0,0.311944344415,-0.19849440381,0.30494222422,1.0,-0.218521714286,-0.287199967347,2.333
-0.440768657626,-0.52766151849,-0.13942080068,-2.64629516868,-0.0738167034576,2.10999974472,-0.696635839353,-0.976203844983,-0.0841867936107,0.0306146409978,-0.0641204973805,-0.00893757142196,-0.0292551552625,-0.940384590671,0.574074868169,0.818768282201,0.00610677483653,0.0,0.818766916275,-0.573984707729,-0.011959891627,0.0,-0.00628730560318,0.0118661268701,-0.999909828345,0.0,0.308246533729,-0.203365201858,0.304951565617,1.0,-0.209186285714,-0.274930546939,2.35
-0.457775633042,-0.528847497667,-0.138849331147,-2.64720974239,-0.0738383837769,2.10958930015,-0.713127646446,-0.941512127999,-0.0548430330721,0.0274573414332,-0.045895925477,-0.00117126161634,-0.0176991968291,-0.905579268279,0.574029722631,0.818799822296,0.00612171908286,0.0,0.818798620519,-0.573939452648,-0.0119612136594,0.0,-0.00628046443751,0.0118787760027,-0.999909721148,0.0,0.304550545428,-0.208211729957,0.304949054817,1.0,-0.199301714286,-0.261939395918,2.368
-0.472387427248,-0.52957177908,-0.138359083136,-2.64776347364,-0.073836349758,2.10930376921,-0.727213177874,-0.893024654092,-0.0392729641259,0.0360021342636,-0.0264691890588,-0.000318380229171,-0.0183296222577,-0.879622477251,0.574082798221,0.818762627467,0.00611944040519,0.0,0.81876141463,-0.57399256168,-0.011959596573,0.0,-0.0062796783426,0.0118763890064,-0.99990975444,0.0,0.301382147202,-0.212374750081,0.304950227075,1.0,-0.190515428572,-0.250391706123,2.384
-0.487190937997,-0.530009728835,-0.137843782209,-2.64811936515,-0.0738350918971,2.10909154926,-0.741551692925,-0.864140109111,-0.0187947305908,0.0277784644783,-0.0139399785609,0.0027045737256,-0.0125861532099,-0.824801797843,0.574079817022,0.818765039523,0.00607623598862,0.0,0.818763243207,-0.573989719468,-0.0119708153179,0.0,-0.00631370964482,0.0118474302516,-0.999909883673,0.0,0.298177857719,-0.216589381397,0.304943620943,1.0,-0.18118,-0.238122285714,2.401
-0.501231012733,-0.530185817175,-0.137231716488,-2.64827611512,-0.0737781791155,2.10894591758,-0.755312880313,-0.817545963602,-0.00811697874212,0.0373186194115,-0.00565235491068,0.00373551685008,-0.00483696603837,-0.790594167662,0.573891803631,0.818897412975,0.00599763698336,0.0,0.818894605237,-0.573802089711,-0.0119805783849,0.0,-0.00636953064419,0.0117872152481,-0.99991024129,0.0,0.295162100104,-0.220549856143,0.304940200847,1.0,-0.171844571429,-0.225852865306,2.418
-0.513987786702,-0.530228346691,-0.136731168029,-2.64831886395,-0.0737271349386,2.10887536792,-0.767599973753,-0.798233664275,-0.000239241317366,0.025724397876,-0.000188777817387,0.00510038447558,-0.00385628612562,-0.770107540269,0.573942833497,0.818862070317,0.00593974529015,0.0,0.81885876256,-0.573853811177,-0.0119531283553,0.0,-0.00637954078553,0.0117244505676,-0.999910915391,0.0,0.292399555273,-0.224153806108,0.304943333047,1.0,-0.163058285714,-0.21430517551,2.434
-0.526705122773,-0.530062381871,-0.136067179714,-2.64824853397,-0.0735426444253,2.10886349553,-0.780007868424,-0.729759993841,0.0108547065009,0.0392178694212,0.00306703882733,0.0191397882341,-0.00254420931222,-0.715872219365,0.573811079168,0.818954732697,0.00589390516234,0.0,0.818950838587,-0.573722285857,-0.0119586617169,0.0,-0.0064122613233,0.011689056211,-0.999911120485,0.0,0.289677160528,-0.227688257945,0.304931121514,1.0,-0.153722857143,-0.202035755102,2.451
-0.539520140169,-0.529756822499,-0.135483474388,-2.64807322971,-0.0733108717365,2.10885777281,-0.792353517527,-0.701919582404,0.0182246293828,0.0302168628124,0.0112797836563,0.0202325792635,-0.00113556133725,-0.670543491686,0.573897082967,0.818894297032,0.00591737703297,0.0,0.818890417172,-0.573807646143,-0.0120006996764,0.0,-0.00643199217454,0.011733075783,-0.999910478198,0.0,0.286750588875,-0.231447015468,0.304913510912,1.0,-0.143289142857,-0.18832287347,2.47
-0.549511458542,-0.529359727192,-0.134882651168,-2.64782235997,-0.0730562475968,2.10889209241,-0.802044835625,-0.642841499554,0.0270633252634,0.0456576710884,0.0208928343396,0.0186533095142,-8.21215574521e-05,-0.642973521233,0.573838145879,0.818935681811,0.00590578464018,0.0,0.818931460691,-0.573748422351,-0.012031518677,0.0,-0.00646472979697,0.0117408032584,-0.99991017637,0.0,0.284773310644,-0.233998873455,0.304901770041,1.0,-0.135601142857,-0.178218644898,2.484
-0.560180084012,-0.528804053623,-0.134241152809,-2.64747429323,-0.0727253046713,2.10896324609,-0.812437712176,-0.61655833465,0.0310014599807,0.0364352635882,0.0198732855765,0.022805921523,0.00561533884072,-0.600056899627,0.573772727016,0.818981297845,0.0059361952674,0.0,0.818977090082,-0.573682194013,-0.0120835878092,0.0,-0.00649086787081,0.0117950681473,-0.999909368394,0.0,0.282498839828,-0.236922599835,0.304879839399,1.0,-0.126265714286,-0.16594922449,2.501
-0.570872757026,-0.52814133315,-0.133639167645,-2.64697439941,-0.0723872056317,2.1090926607,-0.822620041107,-0.568060145729,0.0399419024068,0.0325251355925,0.0303096083209,0.0237226339022,0.00776261028695,-0.554290199904,0.573938309183,0.818864989089,0.0059744286186,0.0,0.818861558316,-0.573848090326,-0.0120359645584,0.0,-0.00642753928324,0.0118003582702,-0.999909715066,0.0,0.280225911519,-0.239881595363,0.304891595584,1.0,-0.116381142857,-0.15295807347,2.519
-0.578891724568,-0.527462015223,-0.13302923209,-2.64653061416,-0.0720435807346,2.10918831582,-0.830530786492,-0.532129888022,0.0435200230033,0.0378601775553,0.0259861490846,0.0163905468612,0.00248251082142,-0.508541224288,0.57376830046,0.818983992661,0.00599199912638,0.0,0.818980284108,-0.573677113448,-0.0121082884594,0.0,-0.00647914640778,0.0118549094815,-0.999908736727,0.0,0.27855270842,-0.242054166229,0.304868885267,1.0,-0.108144,-0.142132114286,2.534
-0.58808984888,-0.526688694433,-0.132399750432,-2.64598433952,-0.0716838966479,2.10931804936,-0.839295974359,-0.499677394998,0.0405144973842,0.0339734826706,0.0332395953691,0.0235348041278,0.00251840524591,-0.465198035861,0.573862541478,0.818917809756,0.00601259129144,0.0,0.818914194552,-0.573770924582,-0.012133217457,0.0,-0.00648638268368,0.011886824219,-0.999908310921,0.0,0.276608200191,-0.244563213926,0.304861553927,1.0,-0.0982594285715,-0.129140963265,2.552
-0.596021359888,-0.525914678953,-0.131823786515,-2.64540122219,-0.0713079314912,2.10946576034,-0.846863461923,-0.447406224067,0.0491351128718,0.0408883744179,0.030375644785,0.0271948838783,0.0144777989668,-0.424478393428,0.573946560775,0.818858604788,0.00605620671229,0.0,0.818855656604,-0.573854916733,-0.0121117748628,0.0,-0.00644257110656,0.0119108999731,-0.999908307666,0.0,0.274956156316,-0.246730357454,0.304870643243,1.0,-0.0889240000001,-0.116871542857,2.569
-0.60260198378,-0.525157581663,-0.131166598614,-2.64488647621,-0.0709146103636,2.10958643335,-0.853290315472,-0.404193280346,0.0493813017478,0.0406379382532,0.0294178283178,0.0237756688531,0.00638973274149,-0.393253965146,0.573804618245,0.818957974208,0.00606988166158,0.0,0.818954771204,-0.573712144166,-0.012173958265,0.0,-0.00648772028465,0.011956662225,-0.999907469576,0.0,0.273621204529,-0.248476566421,0.304854321696,1.0,-0.0801377142858,-0.105323853061,2.585
-0.609168267763,-0.524464452905,-0.130527885937,-2.64436784996,-0.0705570448647,2.1097348132,-0.85943932544,-0.373227339568,0.0433350762887,0.0381934948885,0.0270976992771,0.0220346965333,0.00758016448711,-0.339471690255,0.573875833473,0.818908157017,0.0060584673716,0.0,0.818905013562,-0.573783779413,-0.0121449638426,0.0,-0.00646948420904,0.0119312402661,-0.999907891398,0.0,0.272278939688,-0.250225224548,0.304864814101,1.0,-0.0708022857144,-0.0930544326532,2.602
-0.61494118908,-0.523764365582,-0.129867870102,-2.64382583124,-0.0701534190256,2.10988752383,-0.864903937847,-0.322577168797,0.0377485583067,0.0388827966138,0.0269425508629,0.0212273369179,0.00824499160822,-0.302381581944,0.573863204416,0.818916960653,0.00606474024459,0.0,0.818914198104,-0.573771678474,-0.0120972734659,0.0,-0.0064270099691,0.0119089112934,-0.999908431495,0.0,0.271140014229,-0.25174834882,0.304884068099,1.0,-0.061466857143,-0.080785012245,2.619
-0.619732974173,-0.523132088143,-0.129304437319,-2.64338228459,-0.0697606313236,2.11001584169,-0.869394328406,-0.282561786605,0.0329078409812,0.0372833068958,0.0282442921692,0.0256734537664,0.0116204734995,-0.271729362084,0.573903227654,0.818888561332,0.00611198075692,0.0,0.818886283788,-0.57381124372,-0.0121102314476,0.0,-0.00640993013885,0.0119553483016,-0.999907986988,0.0,0.270194216216,-0.252996976562,0.304878751013,1.0,-0.0526805714287,-0.0692373224491,2.635
-0.624296642143,-0.522548977528,-0.128554536538,-2.64295953165,-0.069340648313,2.1101384799,-0.873679415434,-0.230797406123,0.0271760989173,0.0398261541497,0.0167039173643,0.0163330525512,0.00607215438094,-0.223895057933,0.573802694449,0.818959173109,0.00608995276554,0.0,0.818956682614,-0.573710966468,-0.0121006552588,0.0,-0.0064161934696,0.0119310258155,-0.999908237332,0.0,0.269338027392,-0.254131210416,0.304885911387,1.0,-0.0427960000001,-0.0562461714287,2.653
-0.6279381232,-0.522131817063,-0.127830688471,-2.64264042053,-0.0689448016584,2.11022324844,-0.877024258877,-0.200433347165,0.0275923500759,0.0380851180362,0.0166587172482,0.0233752666245,0.000677004519598,-0.191209100463,0.573719078604,0.819017947423,0.00606362473225,0.0,0.819015309625,-0.573627846037,-0.0120732659962,0.0,-0.00641008095452,0.0118930935095,-0.999908728429,0.0,0.268678283906,-0.254994481144,0.304902815292,1.0,-0.0334605714287,-0.0439767510205,2.67
-0.630771681824,-0.521793113541,-0.127214413157,-2.64238358707,-0.0686004363007,2.11029985073,-0.879475728645,-0.165830336407,0.0259760686121,0.0410077239288,0.0137879243872,0.0235757257418,0.00350769376387,-0.148302415314,0.573756152748,0.818992119955,0.00604413242525,0.0,0.818989429834,-0.573665369617,-0.0120459297684,0.0,-0.00639833528387,0.0118617352641,-0.999909176147,0.0,0.268180957362,-0.255652922893,0.30491675708,1.0,-0.0246742857144,-0.0324290612246,2.686
-0.633118118339,-0.521483801932,-0.126658349426,-2.64218078002,-0.0682337003118,2.11037516793,-0.881489600266,-0.132882849922,0.0175978551201,0.031850488209,0.00719813150706,0.0190171415017,0.00286002042513,-0.108146700331,0.573802018631,0.818959756687,0.00607513317665,0.0,0.818957449648,-0.573711055649,-0.0120443843187,0.0,-0.00637861779129,0.0118865964617,-0.99990900689,0.0,0.267783863744,-0.256177586466,0.304915295674,1.0,-0.0198109677419,-0.0260372718894,2.703
-0.635041274132,-0.5212299196,-0.126308824613,-2.64202302535,-0.0679747120664,2.11038323854,-0.883201789644,-0.111157154199,0.0131989924655,0.0207370755222,0.0103684962574,0.0158213201324,-0.000261504227179,-0.0940717727089,0.57384624517,0.818928392565,0.00612549235894,0.0,0.818926291162,-0.573754213943,-0.0121069619045,0.0,-0.00640033102405,0.0119640917142,-0.999907943899,0.0,0.2674206741,-0.256625290907,0.304902900757,1.0,-0.0194709677419,-0.0255904147465,2.72
-0.636600545947,-0.521018320026,-0.126043546888,-2.64183986971,-0.0678172200577,2.11040805847,-0.884596895258,-0.0921456663418,0.0144318608504,0.0203675783646,0.00978741733654,0.00102657412597,0.0034426099196,-0.0810478746462,0.573869489447,0.818912129318,0.00612212695907,0.0,0.818910069547,-0.573777627909,-0.0120945692988,0.0,-0.00639177307481,0.0119544058818,-0.999908114487,0.0,0.267132800078,-0.257013725984,0.3049168998,1.0,-0.0191509677419,-0.025169843318,2.736
-0.638194383991,-0.520714213575,-0.125838721421,-2.6416243131,-0.0676969693698,2.11052116087,-0.886224301621,-0.0880701882252,0.0233554478588,0.0116082187122,0.014141957161,0.00566179409972,0.0130526392979,-0.0934702674088,0.573759625385,0.818989203051,0.00610937515945,0.0,0.81898722688,-0.573668309712,-0.0120556850012,0.0,-0.00636884355024,0.0119207950421,-0.999908662067,0.0,0.266838753387,-0.257447093861,0.304917651045,1.0,-0.0187909677419,-0.0246967004608,2.754
-0.63967516634,-0.520470867753,-0.125702097504,-2.64145619243,-0.0676609397332,2.11054199976,-0.887679040314,-0.0883978999568,0.012126862934,0.00290396019125,0.00879410297106,0.00468740452513,0.000319478316739,-0.074063904985,0.573708512627,0.81902529209,0.00607127315651,0.0,0.819022559678,-0.573616888885,-0.0121020009032,0.0,-0.00642938379054,0.0119157600344,-0.999908334642,0.0,0.26652668028,-0.257849775575,0.304909607911,1.0,-0.0184509677419,-0.024249843318,2.771
-0.641014002418,-0.520277792543,-0.125640856571,-2.64130314376,-0.0676319451729,2.11054489786,-0.889005957699,-0.0823431744885,0.0124256827308,0.00117860856843,0.0139736442453,0.00279607973881,0.000322622276314,-0.089272990874,0.573695304324,0.819034584988,0.00606574742762,0.0,0.819031597092,-0.57360336814,-0.0121311963322,0.0,-0.00645666050934,0.0119278788235,-0.99990801439,0.0,0.266228566548,-0.258226090544,0.304909860382,1.0,-0.0181309677419,-0.0238292718894,2.787
-0.642362415983,-0.52007620017,-0.125584469489,-2.64111411357,-0.067597421899,2.11059420155,-0.890413806202,-0.0771230419361,0.0111166171306,0.000381970495274,0.0109644739968,0.00105457097952,0.0036178782146,-0.079123774064,0.573631126844,0.819079586143,0.00605877710967,0.0,0.819076797913,-0.573539771904,-0.0120861932243,0.0,-0.00642472819864,0.0118958494247,-0.99990860164,0.0,0.265942421452,-0.258620596663,0.30492716395,1.0,-0.0177909677419,-0.0233824147465,2.804
-0.643704361486,-0.51987095043,-0.125579990129,-2.64093823752,-0.0675682595298,2.11067148079,-0.891699731895,-0.0782373579669,0.0104007473618,0.000192192736236,0.0163855157002,0.00833688572978,0.000789800241479,-0.0771747173616,0.573695405326,0.819034479174,0.00607048045942,0.0,0.81903219398,-0.573604638071,-0.0120304326163,0.0,-0.00637140603461,0.0118739514556,-0.999909203109,0.0,0.265647002034,-0.259025488703,0.304938284388,1.0,-0.0174509677419,-0.0229355576037,2.821
-0.645077307629,-0.519682291201,-0.125588889233,-2.6407669317,-0.0675390275277,2.1106897202,-0.893074473758,-0.081712669592,0.00807612497798,0.000884491420931,0.012139888045,0.000506076915584,-0.000159195106684,-0.0837411039473,0.573721588004,0.819015947464,0.00609624141131,0.0,0.819014034344,-0.573630774678,-0.0120205154426,0.0,-0.00634812438192,0.011889565392,-0.99990916565,0.0,0.265329976714,-0.259432078278,0.30494806513,1.0,-0.0171109677419,-0.0224887004608,2.838
-0.646410214609,-0.519482701171,-0.125577928667,-2.64059520176,-0.0675109734175,2.11072675765,-0.89433937513,-0.0800839665881,0.0104817525816,0.00110468797613,0.00749051591438,0.0013958127495,0.00159213764955,-0.0731030752193,0.573790409402,0.818967645382,0.00610809269937,0.0,0.818965988665,-0.573699723186,-0.0120034964404,0.0,-0.00632638592783,0.0118900402333,-0.999909297779,0.0,0.265029785126,-0.259825999868,0.304956079062,1.0,-0.0167709677419,-0.022041843318,2.855
-0.647687931936,-0.519291825232,-0.125560934927,-2.64042291773,-0.0674842062629,2.11078692684,-0.895620664791,-0.0748118262971,0.0114430712417,0.00345101522786,0.0113168464175,0.000494636111751,0.00262871102245,-0.0705998015127,0.573795744077,0.818963870502,0.00611308378803,0.0,0.818962583552,-0.573705610207,-0.0119543489946,0.0,-0.00628319042801,0.0118659699255,-0.999909856075,0.0,0.264748566945,-0.260207309515,0.304969656784,1.0,-0.0164309677419,-0.0215949861751,2.872
-0.648844663221,-0.519102168313,-0.125521541115,-2.64026687732,-0.0674620175845,2.11081345775,-0.896783233964,-0.0691786544184,0.0101308349542,0.00214775135469,0.00746586913934,-0.000399062773243,0.000368636529162,-0.0750347457075,0.573780641021,0.818974492699,0.00610763442885,0.0,0.818973135215,-0.573690533462,-0.0119550203903,0.0,-0.00628708575156,0.0118617761559,-0.999909881349,0.0,0.264493775495,-0.260543034391,0.30497394828,1.0,-0.0161109677419,-0.0211744147465,2.888
-0.650020574969,-0.518887355464,-0.125462059901,-2.64010675989,-0.0674328256053,2.11085194552,-0.897985205332,-0.0717080712608,0.00929641441471,0.00375455729449,0.00802316880561,2.56986585766e-05,0.00191865028689,-0.0680006133694,0.57373800881,0.819004433697,0.00609768260381,0.0,0.819002894159,-0.573647852178,-0.01196444535,0.0,-0.00630113257575,0.0118587050686,-0.999909829356,0.0,0.264240839504,-0.260880783421,0.304972318162,1.0,-0.0157709677419,-0.0207275576037,2.905
-0.651184861298,-0.51867011025,-0.125393798973,-2.63995149678,-0.0674066986707,2.11089128593,-0.899231274285,-0.0665876551811,0.0125207508097,0.000101133924547,0.00706147856281,0.000289297539097,0.00491840407926,-0.0649125394441,0.573632529747,0.819078422323,0.0060832394067,0.0,0.819076568165,-0.573542217181,-0.0119853032854,0.0,-0.00632803052329,0.0118580270037,-0.999909667533,0.0,0.263975455442,-0.261231186312,0.304966061558,1.0,-0.0154109677419,-0.0202544147465,2.923
-0.652272602717,-0.518477964614,-0.125368725516,-2.63980258662,-0.0673861538488,2.11092490364,-0.900341506148,-0.0669353198534,0.00782098070753,0.00296233796938,0.0116604744567,0.00088056493731,0.000776290187636,-0.0665457133501,0.573619070657,0.819087878011,0.00607920838012,0.0,0.819085979206,-0.57352879231,-0.0119845718195,0.0,-0.00632993833096,0.0118542015282,-0.999909700816,0.0,0.263733915814,-0.261550773009,0.304967216991,1.0,-0.0150909677419,-0.019833843318,2.939
-0.653416308964,-0.518270114422,-0.125358079787,-2.63963912904,-0.067363301207,2.11096424595,-0.901460736709,-0.0662079722415,0.0150377344296,0.00267677647572,0.0118630814666,0.000164386966186,0.00959008438854,-0.0643481691211,0.573658896328,0.819059856341,0.00609666268856,0.0,0.819058152088,-0.573568475789,-0.0119872424567,0.0,-0.00632153726802,0.0118703380941,-0.999909562531,0.0,0.26347597014,-0.261893246008,0.304967694647,1.0,-0.0147509677419,-0.0193869861751,2.956
-0.654540547921,-0.518070999734,-0.125368617188,-2.63948342008,-0.0673410185759,2.11100864837,-0.90260718149,-0.0659408269064,0.0132951591947,0.000318818501759,0.00513289020013,-0.000359746404722,0.000112345325928,-0.0670843892528,0.573660074711,0.819058954625,0.00610691669614,0.0,0.819057454038,-0.573569743252,-0.0119742854351,0.0,-0.00630502446062,0.011871313678,-0.999909655208,0.0,0.263236604954,-0.262211684624,0.304970474255,1.0,-0.0144309677419,-0.0189664147465,2.972
-0.65559390283,-0.517895483734,-0.125371451655,-2.639338473,-0.0673214750589,2.11102568046,-0.903580993704,-0.063788684901,0.00704100944461,-0.000599566295883,0.012184976954,9.31973650082e-05,0.00330122628299,-0.0550893729455,0.573743122957,0.81900068332,0.00612017007727,0.0,0.818999301856,-0.573652618304,-0.0119818184534,0.0,-0.00630238725191,0.0118871298227,-0.999909483933,0.0,0.262993246076,-0.262524259616,0.304973052741,1.0,-0.0141109677419,-0.018545843318,2.988
-0.656729948787,-0.517705493131,-0.125359478255,-2.6391761245,-0.0672978684593,2.11106038459,-0.904681883344,-0.0629885549357,0.0118402525895,-0.000399013889956,0.00932470624633,0.000970804539831,0.00171160208678,-0.0615216278144,0.573781898428,0.818973467402,0.00612695920388,0.0,0.818972256369,-0.573691512332,-0.0119682445677,0.0,-0.00628681130122,0.0118852005197,-0.99990960492,0.0,0.262737834214,-0.262861457352,0.304980053873,1.0,-0.0137509677419,-0.0180727004608,3.006
-0.657757790433,-0.51751690526,-0.125348859487,-2.63901463553,-0.0672791849588,2.11111289267,-0.905773760097,-0.0592908777713,0.0138570651268,0.000782121912195,0.00389693353197,0.000287248081663,0.00428038390236,-0.0668060787926,0.573738234391,0.819004048956,0.00612805782721,0.0,0.819003042472,-0.573648213069,-0.0119369579859,0.0,-0.00626118804779,0.011867815696,-0.999909972185,0.0,0.262512367454,-0.263173121776,0.304988654741,1.0,-0.0134109677419,-0.017625843318,3.023
-0.658701346635,-0.517332678004,-0.125333347422,-2.63887578358,-0.0672574751815,2.11116275495,-0.906721411185,-0.0566398276577,0.0120382502288,-0.000394039161712,0.00652715592597,0.00590534437504,0.000505146198844,-0.0533750396557,0.573740407702,0.819002503282,0.00613115723274,0.0,0.819001596352,-0.573650485597,-0.011926963102,0.0,-0.00625119166809,0.0118646366649,-0.999910072456,0.0,0.262304634467,-0.263454971434,0.3049884593,1.0,-0.0130909677419,-0.0172052718894,3.039
-0.65975738676,-0.517131128264,-0.125286139358,-2.63873911815,-0.0672377420923,2.11118097023,-0.907772751532,-0.0618863723747,0.0142926837101,0.000324120140878,0.00687174771701,0.000187975209603,0.0035443737593,-0.0598151735834,0.573726437771,0.81901234901,0.00612320769091,0.0,0.819011087786,-0.573636076317,-0.0119681633289,0.0,-0.0062897018233,0.0118816554637,-0.999909628874,0.0,0.262067914215,-0.26375411435,0.304978919371,1.0,-0.0127309677419,-0.0167321290323,3.057
-0.660674186399,-0.516947128236,-0.125260892578,-2.63861784055,-0.067223852162,2.1112160416,-0.90869071843,-0.0614864292758,0.0105468664772,-0.00088953948782,0.0112404422903,0.00406954381348,0.0038145968551,-0.059661992727,0.573719947359,0.819016925899,0.00611914988706,0.0,0.81901547071,-0.573629337894,-0.0119911778232,0.0,-0.00631097520632,0.0118914852825,-0.999909377979,0.0,0.261861780012,-0.264020640765,0.304969764365,1.0,-0.0124109677419,-0.0163115576037,3.073
-0.661549744348,-0.516779107329,-0.125228497322,-2.63849387812,-0.0672082272028,2.11127173484,-0.909589344207,-0.0543941928686,0.00448592367755,0.000688878077942,0.00620982586358,0.00346670132183,0.00804607755574,-0.0547372882253,0.573691208875,0.819037131699,0.00610906368706,0.0,0.81903565387,-0.573600852209,-0.0119752635052,0.0,-0.00630414270981,0.0118738729772,-0.999909630379,0.0,0.261672211147,-0.264278398296,0.304969641859,1.0,-0.0120909677419,-0.0158909861751,3.089
-0.662491795862,-0.516593328506,-0.12521783227,-2.63834518135,-0.0671905486333,2.11130342806,-0.910501942868,-0.0508383372945,0.00974034425128,-0.000749726279092,0.00943101599489,0.00277450444789,0.000118851805974,-0.0478837242493,0.573723037362,0.819014818135,0.00611154447531,0.0,0.819013370525,-0.573632659812,-0.0119757003914,0.0,-0.00630261591006,0.0118764005004,-0.999909609987,0.0,0.261461634127,-0.264560604251,0.304971637422,1.0,-0.0117309677419,-0.015417843318,3.107
-0.663426063894,-0.516412679933,-0.125196626582,-2.6382056255,-0.0671769197304,2.11132546772,-0.911434389919,-0.050325253076,0.0118791498171,-7.14251885225e-05,0.0136884825943,1.64225128531e-05,0.00418127222013,-0.048916586236,0.573722576048,0.819015167255,0.00610806350705,0.0,0.819013586907,-0.573632048507,-0.0119901746952,0.0,-0.00631647556319,0.0118818496778,-0.999909457793,0.0,0.261251327764,-0.264835079362,0.304970784864,1.0,-0.0113709677419,-0.0149447004608,3.125
-0.66419063792,-0.516260733936,-0.125178022563,-2.63809266559,-0.0671602972691,2.11135979043,-0.912238874614,-0.0507196647583,0.011835612021,0.000704903011658,0.0070660112999,2.68102361643e-05,0.000653849056632,-0.0525163609415,0.573689682168,0.819038208264,0.00610809947799,0.0,0.819036623191,-0.573599151611,-0.0119904146467,0.0,-0.00631712867432,0.011881763099,-0.999909454696,0.0,0.2610819574,-0.265060688617,0.304969419075,1.0,-0.0110709677419,-0.0145504147465,3.14
-0.665091209764,-0.516084528523,-0.125164530153,-2.6379673078,-0.0671452948286,2.11139105614,-0.913109201569,-0.0499576644518,0.0114725826799,0.00237834669486,0.00663656062171,0.000542058375794,0.00151762383211,-0.0457320931565,0.573717875134,0.819018447478,0.0061097744103,0.0,0.819016791063,-0.573627156504,-0.0120053396335,0.0,-0.00632798393954,0.0118919147327,-0.999909265375,0.0,0.260876822225,-0.265325308233,0.304964343907,1.0,-0.0107109677419,-0.0140772718894,3.158
-0.66592107213,-0.515929526972,-0.125164893731,-2.63785666774,-0.0671289107365,2.11141276567,-0.913902050166,-0.0479361093962,0.00866632943763,-0.000275573268802,0.004872344954,-0.000257025790855,0.000119962343615,-0.0470673735254,0.573761270229,0.81898796392,0.00612100000813,0.0,0.818986333975,-0.573670269989,-0.012023019377,0.0,-0.00633539440842,0.0119115875616,-0.999908984288,0.0,0.260682902229,-0.26556936508,0.304959257886,1.0,-0.0103709677419,-0.0136304147466,3.175
-0.666684294447,-0.515777075951,-0.125160239103,-2.63775101867,-0.0671119974144,2.11145621307,-0.914651776111,-0.0478806174422,0.00728097014384,0.001732739746,0.00842501040745,-0.000184134088466,0.00222591960116,-0.0466712525381,0.573781803111,0.818973529505,0.00612758436855,0.0,0.818971987715,-0.573690775099,-0.0120218470079,0.0,-0.00633035772833,0.011916466432,-0.999908958055,0.0,0.26050995564,-0.265796640323,0.304954812134,1.0,-0.0100509677419,-0.013209843318,3.191
-0.667453567761,-0.515609862102,-0.125155644264,-2.6376364185,-0.0670966773011,2.11148872207,-0.915428513388,-0.039007706723,0.00806049732023,-0.000534378942787,0.00459361358242,0.00014589555864,0.000113556043514,-0.0565429109297,0.57377584906,0.818977642082,0.00613544674332,0.0,0.818976091507,-0.573684579475,-0.012037928148,0.0,-0.00633910487278,0.0119320863672,-0.999908716366,0.0,0.2603265855,-0.266037457557,0.304946876015,1.0,-0.00969096774194,-0.0127367004608,3.209
-0.668192456502,-0.515462241631,-0.125134341226,-2.63751808179,-0.0670763802454,2.11150761323,-0.916142520946,-0.0397360134448,0.00900898034469,0.000752353464883,0.00820785106388,0.00486422948973,0.00141575534403,-0.0447906788336,0.573805069881,0.818957167886,0.0061356212571,0.0,0.818955586537,-0.573713731168,-0.0120436227828,0.0,-0.0063432431679,0.0119357229175,-0.99990864672,0.0,0.260171342277,-0.266242742087,0.304949426143,1.0,-0.00937096774194,-0.0123161290323,3.225
-0.668864751771,-0.515322181202,-0.12509643607,-2.63741393122,-0.0670549763625,2.11153248851,-0.916776343606,-0.0409107926984,0.0111008085216,0.00121044439398,0.00792173758232,0.000105005265222,0.00239746501849,-0.0372604089348,0.573824222739,0.81894378842,0.00613022904999,0.0,0.818942097204,-0.573732828637,-0.0120511274371,0.0,-0.00635220460464,0.0119357612696,-0.999908589372,0.0,0.260026931101,-0.266435606312,0.304948054484,1.0,-0.00905096774194,-0.0118955576037,3.241
-0.66959490712,-0.515177783886,-0.125042671025,-2.63731506124,-0.0670269425003,2.11157920254,-0.917506107985,-0.0369773783442,0.00870251356348,0.00583607306942,0.00404504224791,-1.09677454344e-05,0.00681843644887,-0.0380366406918,0.573803501772,0.818958368072,0.00612206016441,0.0,0.818956611791,-0.573712224801,-0.0120456638756,0.0,-0.00635271878215,0.0119257753706,-0.999908705256,0.0,0.259873216812,-0.266641033722,0.304944916749,1.0,-0.00869096774194,-0.0114224147466,3.259
-0.670209651771,-0.515070285201,-0.125010440242,-2.63722816146,-0.0670063134671,2.11159751711,-0.918156705993,-0.0392608480761,0.00704712940624,0.000722664363086,0.00457425876554,-4.97196343562e-05,-0.00022254556737,-0.0420176150269,0.573764533265,0.818985678925,0.00612086457065,0.0,0.818983914707,-0.573673283989,-0.0120439856212,0.0,-0.00635259756904,0.011923530981,-0.999908732792,0.0,0.259738356787,-0.266815209275,0.304947027151,1.0,-0.00837096774194,-0.011001843318,3.275
-0.670769179419,-0.514962284157,-0.124991407968,-2.63715088167,-0.0669872539122,2.11160972645,-0.918744136982,-0.0364539953231,0.00677844859217,0.00470199780936,0.00335061152614,0.000653424140699,-0.000166996964145,-0.0370259514863,0.573740349707,0.819002578528,0.00612653119616,0.0,0.819000786923,-0.573648891256,-0.0120585024674,0.0,-0.0063615892664,0.0119363131044,-0.999908523122,0.0,0.259611908581,-0.266974578468,0.304943746232,1.0,-0.00807096774194,-0.0106075576037,3.29
-0.671416121888,-0.51483794568,-0.124978529562,-2.63705955776,-0.0669640522795,2.11163855488,-0.919372673186,-0.0337051752241,0.00713316861484,-0.000750245308098,0.00395167357652,-0.000108728497422,0.000160955567635,-0.0300140762732,0.573760945027,0.818988082218,0.0061356374303,0.0,0.818986403938,-0.573669432927,-0.0120581421213,0.0,-0.00635576941403,0.0119437246074,-0.99990847163,0.0,0.259466386721,-0.267163257945,0.304942082219,1.0,-0.00771096774194,-0.0101344147466,3.308
-0.672017700348,-0.514715833208,-0.12496229956,-2.63698782256,-0.0669427925998,2.11166023679,-0.919953559957,-0.0350618759874,0.00575707069028,0.00170123929329,0.00598097395761,-0.0005687311491,0.00479987966048,-0.0383131290812,0.573779294066,0.818975156764,0.00614501472028,0.0,0.818973437555,-0.573687430877,-0.0120825135638,0.0,-0.00637008337628,0.011965530306,-0.99990811984,0.0,0.259327978144,-0.267333454813,0.304931806171,1.0,-0.00737096774194,-0.00968755760369,3.325
-0.672559942199,-0.514632597016,-0.124951567323,-2.63692247196,-0.0669185048113,2.11167230085,-0.920477045545,-0.0330991157161,0.00208698848915,-0.000325203332268,0.00451455325581,-0.000222616520696,0.000289833025436,-0.0319431718179,0.573800786865,0.8189599935,0.00615897242058,0.0,0.818958436033,-0.573708820147,-0.0120837344413,0.0,-0.00636276078165,0.0119778293622,-0.999908019209,0.0,0.259202308022,-0.267486706813,0.304932038994,1.0,-0.00705096774194,-0.00926698617512,3.341
-0.673101538394,-0.514524799016,-0.124933790499,-2.63684578913,-0.0668942553113,2.111689923,-0.921016021507,-0.0344589470751,0.00620534504038,0.00437501179638,0.00485684332639,0.00618152180637,0.0011900620593,-0.0289400015997,0.573804671928,0.818957199917,0.00616847456577,0.0,0.818955698255,-0.573712534535,-0.012092928291,0.0,-0.0063647820564,0.0119909170081,-0.999907849483,0.0,0.259081160273,-0.267641562733,0.304928982772,1.0,-0.00671096774194,-0.00882012903226,3.358
-0.673612214506,-0.514430285963,-0.124887724278,-2.63676776314,-0.0668696169917,2.11170612395,-0.921549280437,-0.0337385631018,0.00480088746876,0.00247702904279,0.00268225315317,0.000658465621659,0.000490254195434,-0.0317519619068,0.573767963688,0.818982955936,0.00616349189873,0.0,0.81898141029,-0.573675895518,-0.0120898057043,0.0,-0.0063656206358,0.0119847592316,-0.99990791797,0.0,0.258974961666,-0.267782626651,0.30493198477,1.0,-0.00637096774194,-0.00837327188941,3.375
-0.674069747983,-0.514348186284,-0.124857067598,-2.63670083311,-0.0668470343463,2.11172418361,-0.922007041815,-0.0271093985631,0.00919226888899,-0.000410655843036,0.00428128102612,0.000312490915484,0.000978369802681,-0.0248304596068,0.573759069696,0.818989180836,0.00616429371107,0.0,0.818987683324,-0.573667070878,-0.01208359449,0.0,-0.00636020328928,0.0119817832454,-0.999907988109,0.0,0.258877353156,-0.267910979311,0.304934325622,1.0,-0.00605096774194,-0.00795270046084,3.391
-0.674553066269,-0.514268284167,-0.12483216655,-2.63663016193,-0.0668245381534,2.11175998728,-0.92248073961,-0.0177796569966,0.00293999492708,0.000619659356769,0.00210698230497,-4.17047440498e-06,0.0014179690289,-0.0269601604621,0.57376244086,0.818986815009,0.00616483582798,0.0,0.81898551434,-0.573670796933,-0.0120536694788,0.0,-0.00633533206802,0.0119650844279,-0.999908345961,0.0,0.25877510162,-0.268050790411,0.3049405538,1.0,-0.00569096774194,-0.00747955760369,3.409
-0.674967434778,-0.514181591798,-0.124809830489,-2.63656881634,-0.0668046161868,2.11177570151,-0.922883718457,-0.0192394694959,0.00510246391434,0.002609554376,0.00273552162721,0.00012652154737,8.99376269865e-05,-0.0260866844339,0.573767606689,0.818983169257,0.00616837815742,0.0,0.818981869933,-0.573675861676,-0.0120602384932,0.0,-0.00633860472636,0.0119717945483,-0.999908244903,0.0,0.258685112516,-0.268168070273,0.304938259478,1.0,-0.00535096774194,-0.00703270046084,3.426
-0.675343108384,-0.514123048429,-0.124799263015,-2.63652390048,-0.0667914140316,2.11178787899,-0.923265213421,-0.0234103958477,0.00358746256383,0.00139312210427,-0.0003859657636,-0.000443398268846,0.00344730202305,-0.0237251526225,0.573763290641,0.818986156033,0.00617328444789,0.0,0.818984923428,-0.573671530521,-0.0120589041161,0.0,-0.00633475995418,0.0119750139541,-0.999908230718,0.0,0.258598584095,-0.268274175084,0.304938320971,1.0,-0.00503096774194,-0.00661212903227,3.442
-0.675736735407,-0.514064783419,-0.124779424164,-2.63647646515,-0.0667703291139,2.11180329424,-0.923638837195,-0.0267571746724,0.00712446872526,0.00425238772507,0.00419187205847,0.00118293610362,0.00132111449464,-0.0250968920225,0.573777008019,0.818976500468,0.00617929211923,0.0,0.818975391104,-0.573685303986,-0.0120510438574,0.0,-0.00632467441704,0.0119755306341,-0.999908288374,0.0,0.258511076006,-0.268383260612,0.304940127064,1.0,-0.00469096774194,-0.00616527188941,3.459
-0.676114387228,-0.514005082867,-0.124755616439,-2.63642838075,-0.0667551935702,2.11181485643,-0.923994031845,-0.0218976185,0.00488082747978,0.00111998703015,0.00535267334747,0.000260147629515,-7.0787201451e-05,-0.0241800828471,0.573787409833,0.818969217848,0.00617862727964,0.0,0.818968116403,-0.573695737856,-0.0120487170579,0.0,-0.00632299798613,0.011973731429,-0.999908320524,0.0,0.258427676499,-0.268487516009,0.304941457098,1.0,-0.00435096774194,-0.00571841474655,3.476
-0.676441146836,-0.513941229131,-0.124737036278,-2.6363832551,-0.0667413939518,2.11182368347,-0.924318519918,-0.0155763536902,0.00777322343885,0.00355407183568,0.00508959871335,2.31284956497e-05,-0.000171535700227,-0.021008634105,0.573784313589,0.818971375316,0.00618019360177,0.0,0.818970244129,-0.573692540533,-0.0120563290331,0.0,-0.006328379242,0.0119793577812,-0.99990821909,0.0,0.258355430416,-0.26857860462,0.304939550271,1.0,-0.00403096774194,-0.00529784331798,3.492
-0.676771903935,-0.513873645641,-0.124713972582,-2.6363283764,-0.0667240700102,2.11183240275,-0.924651397169,-0.0178366995091,0.0101030782505,0.000761740695788,0.00427527818494,4.62413058854e-05,-3.73621300412e-05,-0.0239095825354,0.573776400021,0.818976911965,0.00618120933181,0.0,0.81897578232,-0.573684602111,-0.0120578677806,0.0,-0.00632917255997,0.0119810113869,-0.999908194256,0.0,0.258285493016,-0.268671878734,0.304940791385,1.0,-0.00367096774194,-0.00482470046084,3.51
-0.677078721838,-0.513812644324,-0.124687722152,-2.63628770716,-0.0667066304928,2.11185141187,-0.924949325118,-0.0206406882515,0.00441931245176,0.000183369818965,-0.000842331335361,0.0046611392142,-0.000254726102852,-0.015017407943,0.573774594486,0.818978178941,0.0061809418765,0.0,0.818977051872,-0.573682809596,-0.0120569226305,0.0,-0.00632857828265,0.0119802361055,-0.999908207307,0.0,0.258221247827,-0.268756129905,0.304938962566,1.0,-0.00331096774194,-0.00435155760369,3.528
-0.677328798138,-0.513773133361,-0.124656852968,-2.63626441959,-0.066696273112,2.11186322113,-0.925193522074,-0.0132863346263,0.000265602896738,0.0013296468386,1.95987382014e-05,-0.00010219077606,0.000106234769843,-0.0154017809188,0.573763119901,0.818986267258,0.00617439762232,0.0,0.818985040677,-0.573671338949,-0.0120600546148,0.0,-0.00633506613034,0.0119765844362,-0.999908209968,0.0,0.258168099315,-0.268820197314,0.304936671622,1.0,-0.00299096774194,-0.00393098617512,3.544
-0.677572714428,-0.513743333592,-0.124646107678,-2.63625174126,-0.0666818931694,2.11187206228,-0.925422572488,-0.00947604672896,0.00368721746861,-0.00135342047857,-0.000745170479623,0.000641897950372,-0.0003985460144,-0.0137089447091,0.573774935978,0.818977911555,0.00618466896038,0.0,0.818976713415,-0.573682908383,-0.0120751983138,0.0,-0.00634140391177,0.0119937769155,-0.999907963721,0.0,0.258105130868,-0.268885374179,0.304928658184,1.0,-0.00263096774194,-0.00345784331798,3.562
-0.677786691392,-0.513714663486,-0.124629366868,-2.63623877622,-0.0666727391638,2.11188254143,-0.925625001178,-0.0103033425273,0.00260898889788,-0.000444798865671,0.00333932359568,0.000215577033501,0.000234716300646,-0.0151934178766,0.573779351309,0.818974835445,0.00618237976281,0.0,0.818973653512,-0.573687419863,-0.0120683903223,0.0,-0.00633707649188,0.0119880301189,-0.999908060071,0.0,0.258062202003,-0.268933637833,0.30492913784,1.0,-0.00233096774194,-0.00306355760369,3.577
