nelsonifechukwu/NELSON_IML_WORK/CNN-GradCAM/train2dof/data_sample_2022-07-06-11-30-03/robot_state.csv
position_joint1,position_joint2,position_joint3,position_joint4,position_joint5,position_joint6,position_joint7,velocity_joint1,velocity_joint2,velocity_joint3,velocity_joint4,velocity_joint5,velocity_joint6,velocity_joint7,ee_T_00,ee_T_10,ee_T_20,ee_T_30,ee_T_01,ee_T_11,ee_T_21,ee_T_31,ee_T_02,ee_T_12,ee_T_22,ee_T_32,ee_T_03,ee_T_13,ee_T_23,ee_T_33,v_x,v_y,w_z,time
0.4650881378278571,0.5472988517344645,-0.1239787336034719,-1.3555844600744416,0.07946530262657488,1.8941698102951048,0.1591289687933665,-8.985394409374305e-05,-0.0013850671658507177,-0.0011049216049282507,-0.00015801619977944727,-0.0002478413678493908,-0.0008023153748293386,-0.0023128020215029592,0.5737389854372703,0.8190222801007196,0.0026130804118097446,0.0,0.8189883566804399,-0.5736786115601202,-0.011474718364022142,0.0,-0.007899133738275277,0.008723743663793013,-0.9999307475933887,0.0,0.6617565454507243,0.26094072908335364,0.30368004010349425,1.0,5e-324,6.93616764192814e-310,6.93595544234914e-310,0.0
0.46508259516092365,0.5473041414505696,-0.12397158359958796,-1.3555844600744416,0.0794667394583222,1.8941670919700904,0.15913064046473466,0.0063832487541664795,0.0004549391542127972,0.0014521797357711576,0.0009896088350500635,-0.0003126884762123812,0.0005864071987557421,-0.002686206892084297,0.5737402729827988,0.819021391915691,0.0026087627940633773,0.0,0.8189873638293769,-0.5736798591212691,-0.011483206329992245,0.0,-0.007908549223945849,0.008725089683067344,-0.9999306614256785,0.0,0.6617555880207691,0.2609411773066722,0.3036758219232438,1.0,-4e-05,-5.2571428571428585e-05,-2e-05,0.003
0.46508718419795986,0.5472958394613746,-0.12397371046006028,-1.355585206303269,0.07946628257400142,1.8941698102412605,0.15913352327712907,-0.00035958024592958043,-0.000548196518866533,0.0010053329679579818,1.1649527833492e-05,0.0003634579455150258,-0.0002923812872971127,0.0012586198289888796,0.5737402799163767,0.8190213612693534,0.002616846801279933,0.0,0.8189874545614204,-0.5736798582850838,-0.011476775253515127,0.0,-0.007898643862374988,0.008728020988696877,-0.9999307141371128,0.0,0.6617554935896919,0.26094311486232813,0.30368165461986163,1.0,-0.00040000000000000024,-0.0005257142857142861,-0.00020000000000000012,0.02100000000000001
0.4650902388014047,0.5472885381506354,-0.12397920810408877,-1.3555940232677317,0.07946101125163794,1.8941685363881646,0.1591309590668358,0.0005413020074755845,-0.00042862706596404575,-0.0013446609326826242,-0.002568392320725467,-0.0004022795461972181,-0.00044480873710417,0.0003261493312973071,0.5737385857542355,0.8190225675373819,0.0026107436512504264,0.0,0.8189886416208118,-0.5736782501338493,-0.011472450508506832,0.0,-0.007898621094957814,0.008720524823569858,-0.9999307797200764,0.0,0.6617541724421023,0.2609400622130129,0.30368269064421505,1.0,-0.0007200000000000005,-0.000946285714285715,-0.00036000000000000024,0.037000000000000026
0.4650840005731344,0.5472494658498835,-0.12397493474388697,-1.3556319700621684,0.07946124938584534,1.8941752031444399,0.15912592301876458,-0.00048262146488234044,0.002470031882482747,0.0007290553923819985,-0.0021957308414636482,-0.0002363743323383797,0.00024878589526490633,-0.0016032859006668465,0.5737386912681818,0.8190224623414069,0.0026205387425036215,0.0,0.818988613415038,-0.5736782689286539,-0.011473524164113567,0.0,-0.00789387986481499,0.008729164192736338,-0.9999307417782375,0.0,0.6617484660079905,0.2609349062112515,0.30369274409069513,1.0,-0.0010400000000000008,-0.001366857142857144,-0.0005200000000000004,0.05300000000000004
0.4650864157302805,0.5471284222558123,-0.12397189536170156,-1.3557672076110892,0.07946326436293795,1.8942044461646996,0.15913411238788727,0.0006400936643952273,-0.005612653012248009,0.0004816508126827601,-0.010534386126230663,0.0003251766255360969,0.0015879659522006232,-0.00036135137649531283,0.5737491902597301,0.8190150411577315,0.0026411995213874075,0.0,0.8189813369704281,-0.5736885639428402,-0.011478161723027548,0.0,-0.007885712959899871,0.00874884755191506,-0.9999306341930062,0.0,0.6617250465129114,0.26092610914918507,0.30371655558904376,1.0,-0.001360000000000001,-0.001787428571428573,-0.0006800000000000005,0.06900000000000005
0.4650708640503958,0.5469662574205592,-0.12397931626722981,-1.355994674240059,0.079458474153193,1.8942692180241256,0.159131342366584,-0.0009478239097639075,-0.0071586742707721454,0.0004656240003417603,-0.014263406836698255,-0.00019507308210521226,0.0005933745995512473,-0.0011650540270843057,0.5737761526392716,0.8189961411079132,0.0026446954514429246,0.0,0.8189624201243019,-0.5737154428309004,-0.011484423481347997,0.0,-0.007888547770985077,0.008755563079534345,-0.9999305530531734,0.0,0.6616961283658377,0.2608902712706413,0.30372900574830297,1.0,-0.0017400000000000013,-0.002286857142857145,-0.0008700000000000007,0.08800000000000006
0.4650523648398085,0.546832696437057,-0.12397753108256764,-1.3561530160784643,0.07945277198463367,1.8943547421809093,0.15913326659824678,-0.003969552000931736,-0.012211037927959367,-0.0015834355869902722,-0.0077726540225739665,0.000542095922181265,0.007898536235029924,0.006428989403979645,0.5737990826380328,0.8189799008652687,0.0026984520886756706,0.0,0.8189468714386257,-0.5737381929212724,-0.011456641983076558,0.0,-0.007834705332863234,0.00878386867244102,-0.9999307281224498,0.0,0.6616851387713623,0.2608669105068319,0.3037556010678579,1.0,-0.0020000000000000013,-0.0026285714285714306,-0.0010000000000000007,0.10100000000000008
0.46503002031172086,0.5466302034682923,-0.12397469087994163,-1.3563787736661543,0.0794501153620542,1.894467599834723,0.15911791137263018,-0.002138074540913016,-0.009362091783319247,0.00045757845946048863,-0.01203337216533485,0.0005873732228631515,0.001746679829062964,-0.001498161634158986,0.5738148001291101,0.818968610147346,0.0027816626902472585,0.0,0.8189365933004327,-0.5737535756947404,-0.01142092081182891,0.0,-0.007757536085569061,0.008831668797183834,-0.9999309087432683,0.0,0.6616665383524514,0.2608368676387714,0.3038012717747185,1.0,-0.002340000000000002,-0.0030754285714285744,-0.001170000000000001,0.11800000000000009
0.4650041242189092,0.5464104865882827,-0.12397211312717668,-1.3566591257456928,0.07944103990716071,1.8946032065987808,0.159117437084085,-0.001999209056977296,-0.012773523011417709,0.0017049398407048492,-0.017168644169322865,2.6700620005573068e-05,0.011245994191082827,0.0003571656445238931,0.5738472030319939,0.8189456718576189,0.00284974020555254,0.0,0.8189145029584906,-0.573785729831914,-0.01138946823669216,0.0,-0.007692363555360071,0.008869678844441412,-0.9999310757947912,0.0,0.6616417494812379,0.26079857341861734,0.303835115142087,1.0,-0.002680000000000002,-0.0035222857142857174,-0.001340000000000001,0.1350000000000001
0.4649772123540693,0.5461577517255697,-0.1239771593097663,-1.357038686209508,0.0794272763733176,1.8947361640890161,0.15911003101809787,0.0010757067793402495,-0.014057619651126127,-0.0014843057467622109,-0.02355129330932755,8.039382728566773e-05,0.009112318727251167,-0.001640559256125273,0.5738842237228483,0.8189196985431375,0.002858671238322414,0.0,0.8188885865021229,-0.5738226513684761,-0.011392742172787249,0.0,-0.007689518723417277,0.008879219200013097,-0.9999310130044976,0.0,0.6615968161151651,0.26074290686686563,0.30384510452065644,1.0,-0.0030200000000000023,-0.003969142857142861,-0.0015100000000000011,0.1520000000000001
0.46493988655432056,0.5458716654611344,-0.12398008079288278,-1.3574760684423706,0.07941312983896852,1.8948961929750816,0.15910124586117697,-0.0036704375037093524,-0.02087392216068442,-0.00047956501639272707,-0.029303568312806796,-0.0004482553277082903,0.006639091272963265,0.0012828969660688358,0.5739303253274046,0.8188873441349298,0.0028716173890933226,0.0,0.8188563131833986,-0.5738686084393356,-0.011397609784550396,0.0,-0.00768557530204822,0.008893047138423246,-0.9999309204364422,0.0,0.6615471183055319,0.2606769323918669,0.3038534518332136,1.0,-0.0033600000000000023,-0.004416000000000004,-0.0016800000000000012,0.16900000000000012
0.46490045859487605,0.5455687562509256,-0.12397764720076622,-1.3579697402785205,0.07937955696051627,1.8950595697326842,0.15908220866802697,0.0010290183101198513,-0.01573572935284229,-0.0007997327261236132,-0.032714337036957086,-0.006650827470809757,0.00655521585829494,-0.004478229733829478,0.5739674537803535,0.8188613965529297,0.0028499364013186207,0.0,0.8188300372441567,-0.5739057425774527,-0.011415587788805755,0.0,-0.007712337778917944,0.008885960468456924,-0.9999307773803827,0.0,0.6614890178531218,0.26060772623865375,0.3038469464121289,1.0,-0.0036800000000000027,-0.004836571428571433,-0.0018400000000000014,0.18500000000000014
0.4648504483643112,0.5452484395691423,-0.12397506194391367,-1.35848843501113,0.07931870368256809,1.895231557763437,0.15903593536029315,-0.0009990297716566884,-0.020255402558546447,-0.00012105529472193014,-0.03315567933912279,-0.005032956637218635,0.009727021603358801,-0.0006416364971172899,0.5739779279361473,0.8188541986452452,0.002808292076799071,0.0,0.818822546829164,-0.5739166250451603,-0.01140575303004979,0.0,-0.007728072035843914,0.008846313680255416,-0.999931007438453,0.0,0.6614254985362091,0.26051615856312,0.30384156887637925,1.0,-0.004020000000000003,-0.005283428571428576,-0.0020100000000000014,0.20200000000000015
0.46479764209145014,0.5448748854462335,-0.12397800254224749,-1.3591123756809456,0.07929587950778356,1.8954339782577219,0.15892877596801763,-0.0026105325185353783,-0.022390077885590894,0.0002720682847797289,-0.03714417691004517,-0.0013174429491666566,0.01437484412633861,-0.0015649226780222267,0.5739641469710435,0.8188639706644614,0.002775327123541362,0.0,0.8188317409687016,-0.5739027747253715,-0.011442554168216153,0.0,-0.007777277140442962,0.008840311986057198,-0.9999306790194357,0.0,0.6613481235043329,0.2604204150846423,0.30382662666698335,1.0,-0.004360000000000004,-0.00573028571428572,-0.002180000000000002,0.21900000000000017
0.4647294085075346,0.5444751541611126,-0.12397743804306591,-1.3598099979625382,0.0792694581089159,1.8956677993099356,0.15892143629296387,-0.005939397996718387,-0.01786744865081566,-0.0015318726366064669,-0.04019391333811448,-0.0003011122006601985,0.012728000516560227,0.0006037283450954831,0.5740447845879076,0.8188076013334272,0.002728403788002795,0.0,0.8187746420098142,-0.5739834120829735,-0.011483690891703806,0.0,-0.007837025764743877,0.008826270632042832,-0.9999303365604489,0.0,0.6612685896530968,0.2603145204687667,0.3038001086362009,1.0,-0.004680000000000004,-0.006150857142857149,-0.002340000000000002,0.23500000000000018
0.46466770913891625,0.5440551528809269,-0.1239860230937122,-1.3605047671258133,0.07923330073580047,1.895894985193635,0.15888787278805241,-0.0010930762685863152,-0.02456818553636406,-0.0010573828133974307,-0.04275678339411428,-0.003971592453379042,0.013482415018352345,-0.0035556118789629174,0.5741035386371944,0.8187665408118782,0.0026880238857964556,0.0,0.8187329693133547,-0.5740421890450912,-0.011516816264291317,0.0,-0.00788669654161922,0.008812788422253581,-0.9999300649434865,0.0,0.6611808270150019,0.2601964904286103,0.30378417570398775,1.0,-0.005020000000000004,-0.006597714285714292,-0.002510000000000002,0.25200000000000017
0.46459732184265207,0.543586203584521,-0.12398608458559487,-1.3612734535046056,0.0791996256152553,1.8961672331219908,0.15884680642972918,-0.002959410174890713,-0.025288384100494117,1.794345230801051e-05,-0.04696178565962855,-0.00488512613897098,0.011462212123483322,-0.0076645994376967124,0.5741614471721178,0.8187259910124991,0.002670416265139978,0.0,0.8186920676371657,-0.574100010104587,-0.011542256586299345,0.0,-0.007917011884350067,0.00881353704668035,-0.9999298187810735,0.0,0.6610908895268192,0.26007785797229394,0.3037736890347635,1.0,-0.005360000000000004,-0.007044571428571435,-0.002680000000000002,0.2690000000000002
0.46451254799901176,0.5430476126407239,-0.12398212892614718,-1.3621418357176331,0.07915216181696837,1.8964823904326873,0.15875106298465647,-0.006775707267139129,-0.03036687194798928,0.007107332076399592,-0.05068210976953964,-0.001647413248063532,0.019385051574491413,-0.008483571510620383,0.5741854204266457,0.8187092096453219,0.002660810518731161,0.0,0.8186750878686,-0.5741239300103866,-0.011556833215762011,0.0,-0.007934203554057162,0.008814274126107413,-0.9999296760200651,0.0,0.6609918790147652,0.2599418106939055,0.303768535539069,1.0,-0.005720000000000004,-0.007517714285714292,-0.002860000000000002,0.2870000000000002
0.4644425805308219,0.542541426768192,-0.12399303830305092,-1.3629725334233487,0.07910130288009616,1.896757467379492,0.15870319359208035,-0.0034478013190524554,-0.031101159670217805,6.816568803042283e-05,-0.05479059333252453,-0.001597620883055913,0.023146571851127444,-0.0009447266649815966,0.5742436728390564,0.8186684994253711,0.0026151776479339008,0.0,0.8186337974612431,-0.5741823407375221,-0.011579816085456884,0.0,-0.007978595447654002,0.008790678176472819,-0.9999295305129658,0.0,0.6608923155717671,0.25980772259298424,0.30375533375532693,1.0,-0.006040000000000005,-0.007938285714285722,-0.0030200000000000023,0.3030000000000002
0.46436204328074465,0.5420078689315039,-0.12399354962733122,-1.3638291455965406,0.07905156194897921,1.8970633337276428,0.1586581713404981,-0.005336002224416164,-0.03276253943197993,0.007731702926930713,-0.051608828054024024,-0.003506800188346742,0.01959375651902337,0.0007036186708096475,0.5743051051929853,0.8186254392296792,0.00260447624246472,0.0,0.818590558561475,-0.574243757716344,-0.011590990425049297,0.0,-0.007993229297890425,0.008788933851639799,-0.9999294289734366,0.0,0.6607877270239731,0.25966616302272805,0.3037545879470528,1.0,-0.006380000000000005,-0.008385142857142865,-0.0031900000000000023,0.32000000000000023
0.4642845272660415,0.5413928124276374,-0.12399951287746548,-1.3647718999362477,0.07898521838542782,1.8974010088790567,0.15857216395455517,-0.00017632941680276887,-0.035102323761534805,-0.0008370453265829746,-0.057175543013473266,-0.004060467783937925,0.024291348914398922,-0.004102329222991085,0.5743392056952407,0.8186015223515748,0.002602173370962786,0.0,0.8185667108087845,-0.5742779706149932,-0.01158012621784169,0.0,-0.007985291849896548,0.008781142055224525,-0.9999295608483019,0.0,0.6606852012377539,0.2595259102308183,0.30376700221963365,1.0,-0.0067000000000000046,-0.008805714285714293,-0.0033500000000000023,0.33600000000000024
0.464193191811798,0.5407611954099721,-0.1239999233606454,-1.3657584454490692,0.07893090457453854,1.8977592128055563,0.15853048673140363,-0.0015870375047509744,-0.034876647666686515,-0.00047147898854559163,-0.05305838082191118,-0.0023200579898910887,0.024279829934559898,-0.00048510480490488936,0.5744203238994063,0.8185445888607529,0.0026066145266512375,0.0,0.818509783670238,-0.5743590072926207,-0.011584976441230584,0.0,-0.007985840998312399,0.008788354615119273,-0.9999294930977426,0.0,0.660572496401624,0.25937204004003506,0.30377497200263637,1.0,-0.0070400000000000055,-0.009252571428571438,-0.0035200000000000027,0.35300000000000026
0.4640992491211505,0.5400550017476706,-0.12400062581861739,-1.3668078612603802,0.07887439073298327,1.898157765078473,0.15843540168727097,-0.001293095228049416,-0.03613291454148723,0.000763699580484104,-0.06434674148269588,-0.001578731763108974,0.028528232841023255,-0.011903309815212463,0.5744629192792976,0.8185145336553871,0.0026569661683394025,0.0,0.8184803395292999,-0.574401381916955,-0.011564305301339717,0.0,-0.007939539782717664,0.008818108930347388,-0.9999295998533753,0.0,0.6604559710184541,0.25921218399300916,0.3038091424952552,1.0,-0.0073800000000000055,-0.009699428571428581,-0.0036900000000000027,0.3700000000000003
0.4639987645488133,0.5393394320586563,-0.1240070348040675,-1.3679397239392108,0.07879991919985255,1.898571374241553,0.15832998039162327,-0.011409552087005724,-0.040559567369200744,-0.0005238123965160596,-0.07126488564955523,-0.004847405113254399,0.021745317182182772,-0.0032110585055354266,0.5745060912611669,0.8184842589588875,0.0026487433897523054,0.0,0.8184500255599175,-0.5744446506412088,-0.011560532508414646,0.0,-0.007940710295435138,0.008809630052029102,-0.9999296652956898,0.0,0.6603274532714154,0.2590331684677728,0.3038120462261312,1.0,-0.0077200000000000055,-0.010146285714285724,-0.0038600000000000028,0.3870000000000003
0.4639060807475638,0.5386045322550979,-0.12401540512432521,-1.3690904784265236,0.07874052319748719,1.899014712116916,0.15828274137672746,-0.006011855698210704,-0.04227915209096042,0.005674215309205405,-0.07152711519070724,0.0002507316291371374,0.03544350217496026,-0.0063041879191564724,0.5745969945750001,0.8184203654004591,0.0026732422943843244,0.0,0.8183864250054619,-0.5745354339061359,-0.011551686209217888,0.0,-0.007918415280830982,0.008825479300389558,-0.9999297023363987,0.0,0.6601983704686112,0.2588606372982162,0.30382217562954783,1.0,-0.008060000000000006,-0.010593142857142867,-0.004030000000000003,0.4040000000000003
0.4638063756754657,0.5378816288632206,-0.12402082911098519,-1.3702189224567245,0.0786819745756218,1.8994508929695249,0.15817417092869648,-0.00443031469826294,-0.04514122208188257,-0.00150896560024371,-0.06871104563039993,-0.0027749758307593748,0.029717174074331287,-0.001744625534504081,0.574640291220751,0.8183898726489318,0.0027016573809586593,0.0,0.8183562631843863,-0.5745785897426099,-0.011541993653153424,0.0,-0.007893688205958871,0.008843583099181027,-0.9999297378938559,0.0,0.6600735736733503,0.25868733059142746,0.30383361447062895,1.0,-0.008380000000000007,-0.011013714285714297,-0.004190000000000004,0.4200000000000003
0.4637143322523765,0.5370881330592596,-0.12402508897820755,-1.3714675064457338,0.0786002426969738,1.8999218614956004,0.15809102654050144,-0.008662883562379216,-0.048566414176696285,9.927750714158497e-05,-0.07323127495890291,-0.003779618875384031,0.025365937171326104,-0.0042417308044752555,0.5746975681414069,0.8183496287674571,0.002708721049952431,0.0,0.8183161880998836,-0.5746359230065347,-0.011529058301187233,0.0,-0.007878423844180749,0.008842482298061088,-0.9999298680130221,0.0,0.6599285549756004,0.2585050499428842,0.303840534800906,1.0,-0.008720000000000007,-0.01146057142857144,-0.004360000000000004,0.43700000000000033
0.4636048963333907,0.536249909410765,-0.12403104527637332,-1.3727887658063576,0.07852851229452722,1.9004073817509788,0.15800444179521714,-0.006864322995318916,-0.04893145570423137,-0.0035314447916546536,-0.08024855888556072,-0.0056772394075920345,0.03293325955314942,-0.00786255814949842,0.5747739578297854,0.8182959658652769,0.002712296168532638,0.0,0.8182625209915789,-0.5747122347115414,-0.01153433633027013,0.0,-0.007879862807553595,0.008849176818104085,-0.9999297974516891,0.0,0.6597748183254621,0.25830488175422933,0.30384563104528894,1.0,-0.009060000000000007,-0.011907428571428583,-0.004530000000000004,0.45400000000000035
0.4634913114331653,0.5353847241780858,-0.12403459486548787,-1.3741385702372448,0.07843261233655807,1.9008947536458696,0.15788145731433975,-0.006730193006354272,-0.05380026130073168,-0.0006432432801469248,-0.08636221605810741,-0.0036991311339879002,0.03661900415591345,-0.0032184302987775045,0.5748171238617512,0.8182656673358985,0.002705305130521353,0.0,0.8182322425175388,-0.5747555423263254,-0.01152435556114205,0.0,-0.00787524699931158,0.008838134963142133,-0.9999299314727373,0.0,0.6596170858182323,0.2580965827658335,0.30385604296184043,1.0,-0.009400000000000007,-0.012354285714285726,-0.004700000000000004,0.47100000000000036
0.4633738484103587,0.53449697149756,-0.12403197000223819,-1.375553526297629,0.0783769685576433,1.9014120213634034,0.15778927954036534,-0.006159718774305212,-0.04774120932039896,-0.000524803623044291,-0.08316391582201926,-0.004202658962121878,0.03563099863750357,-0.0037579383066928015,0.5748987127237619,0.8182083238993604,0.002712141509760525,0.0,0.8181747108178594,-0.5748367878249995,-0.011556679555853695,0.0,-0.00789688473514144,0.008863096437538007,-0.9999295398841955,0.0,0.6594478197782804,0.2578904098385488,0.30385367394199236,1.0,-0.009740000000000007,-0.012801142857142869,-0.004870000000000004,0.4880000000000004
0.46325532929873153,0.5336380944793275,-0.12403722959483406,-1.3769447450182455,0.07828855611141552,1.901915093761313,0.15769286574687916,-0.006627652831046183,-0.05763673285773935,-0.0010751785252001776,-0.08847387002404844,-0.007712272172886457,0.02931331457800886,-0.0007301153883418575,0.574985058672415,0.8181477299989895,0.002687210856643596,0.0,0.8181138672272092,-0.5749232875822107,-0.011561165486706892,0.0,-0.007913953567093457,0.008846112196751396,-0.9999295553377449,0.0,0.6592772454073452,0.25765682941952106,0.3038474964577517,1.0,-0.010080000000000007,-0.013248000000000012,-0.005040000000000004,0.5050000000000003
0.46313101083675606,0.53270432401557,-0.12404331238432173,-1.3784317849222667,0.0782029599443144,1.902471994693526,0.15756835071186265,-0.01125769253149279,-0.05806814019620689,-0.000638218597015082,-0.0858129814582209,-0.004736610195767602,0.03431952639769731,-0.008318504664895107,0.5750354890834589,0.8181122976021727,0.002683599793094975,0.0,0.8180783356478191,-0.5749736651189662,-0.011570136756571703,0.0,-0.00792282449566456,0.00884880446776426,-0.9999294612678948,0.0,0.6591118173783264,0.2574493668716897,0.3038401246515254,1.0,-0.010400000000000006,-0.01366857142857144,-0.005200000000000003,0.5210000000000004
0.4629968109508393,0.531732360519444,-0.12403889404934369,-1.3799560615189477,0.07812054626884524,1.9030641698854311,0.15746953680788353,-0.0055113795193859495,-0.060666890232474194,0.0011136321930459501,-0.08988637797557193,-0.009473443689190427,0.03143526174620533,-0.006852426720639687,0.5751225770171087,0.8180509545440168,0.002721043188091226,0.0,0.8180174057920986,-0.575060537174532,-0.011560679344754578,0.0,-0.00789261217297682,0.008874839254751285,-0.9999294694633664,0.0,0.6589385590571982,0.25722214251659137,0.303850947853864,1.0,-0.010740000000000008,-0.014115428571428584,-0.005370000000000004,0.5380000000000004
0.46286682152532677,0.5307429780484703,-0.12403660603285284,-1.381547873088299,0.07802922984385108,1.9036336930093014,0.15735772946932478,-0.007210944081970908,-0.05469621757314686,0.0008122515717114752,-0.09071136581241605,-0.010336641825716522,0.03501936182837726,-0.0013113768461411666,0.575197950413317,0.8179980460893576,0.002694686534777258,0.0,0.817964063504702,-0.5751358852378438,-0.011586683208149411,0.0,-0.007928225942222256,0.008868963936312577,-0.9999292398525536,0.0,0.6587449676426874,0.2569857415061954,0.30383977750068364,1.0,-0.011080000000000008,-0.014562285714285727,-0.005540000000000004,0.5550000000000004
0.46273012195662927,0.5297964391112611,-0.12404219159491914,-1.383093690573534,0.07792277945706891,1.9041772641512489,0.1572384201030426,-0.011723952103831078,-0.056887212889487435,-0.0014750042953580221,-0.096733536645549,-0.01101682338825799,0.038650442890774066,-0.006750245112421405,0.5752879251778042,0.8179349734932689,0.0026323340196632737,0.0,0.817900304116659,-0.5752261943071201,-0.011604516794433344,0.0,-0.007977706251947492,0.00882909517202135,-0.9999291991343192,0.0,0.6585495912010261,0.25672335292907067,0.3038157143209652,1.0,-0.011420000000000008,-0.01500914285714287,-0.005710000000000004,0.5720000000000004
0.46258209363187053,0.5286775266899577,-0.12405000263033862,-1.3848713966213908,0.0778167156470057,1.9048278219267918,0.15712933002261717,-0.00338267364000436,-0.05858360016710532,0.0011763873007455221,-0.09689378536740662,-0.010235719426845372,0.034700895383204325,-0.005985398007334271,0.5753814384628438,0.8178692008924964,0.002630096026083532,0.0,0.8178344743616354,-0.5753196722974854,-0.011610086750314271,0.0,-0.007982540077567546,0.008831381647550221,-0.9999291403655088,0.0,0.6583632171108544,0.2564826446708478,0.30381887065153446,1.0,-0.011740000000000009,-0.0154297142857143,-0.0058700000000000046,0.5880000000000004
0.4624439389537096,0.5276326349624219,-0.12405704875851187,-1.386492253102432,0.077708335664499,1.905449516892474,0.1570087105769922,-0.007962564704934708,-0.06286418580524007,-0.0008971988508366345,-0.10602686880389481,-0.008716450081731688,0.0303408068682965,-0.007130703068907778,0.5754545985338125,0.8178176416798092,0.00265647977074868,0.0,0.8177833773113728,-0.5753928671957641,-0.011582015137743387,0.0,-0.00794360973301339,0.008837519019611648,-0.9999293961685434,0.0,0.658164391941585,0.25622065824933044,0.30383474850552145,1.0,-0.01208000000000001,-0.015876571428571445,-0.006040000000000005,0.6050000000000004
0.46229708203705805,0.52649872991594,-0.12406179076449708,-1.3882532852239486,0.07760955517598371,1.9061238329650494,0.1568693746628869,-0.010142489446255462,-0.06501320425410324,-0.0008915882022199006,-0.10878987258038042,-0.003962320346854971,0.04341472847074366,-0.007888732182919935,0.575532766851582,0.8177624987633125,0.002697554031819499,0.0,0.8177287395894317,-0.5754708584098243,-0.011564880965588307,0.0,-0.007905114419970771,0.00886200601992572,-0.9999294845214388,0.0,0.6579603732464467,0.25595686161836795,0.3038531294707204,1.0,-0.01242000000000001,-0.016323428571428586,-0.006210000000000005,0.6220000000000004
0.4621402182163828,0.5253466496917782,-0.12406565386803192,-1.3900731013871082,0.07749129836637393,1.9067891985487575,0.15675094475984216,-0.009642604288921428,-0.06695427911014253,0.0003537365412036199,-0.10731749053789975,-0.008844982733862309,0.039622623825372606,-0.007361139006863236,0.5756330673875454,0.8176919295195315,0.002688313567920547,0.0,0.8176581087953059,-0.575571242110051,-0.011563272823252996,0.0,-0.007908031141041993,0.008854494068531893,-0.9999295280059803,0.0,0.6577441344091164,0.2556765705619269,0.30385519130531297,1.0,-0.01276000000000001,-0.01677028571428573,-0.006380000000000005,0.6390000000000005
0.4619857893626255,0.524169365146488,-0.12407232922256269,-1.3919087823417615,0.07736604298050838,1.9074492664924567,0.15661798155952905,-0.008427391930449056,-0.06681166658319843,-0.00016289161393665547,-0.10873139976649988,0.00013926601560584038,0.04326412166486884,-0.016160580621637905,0.5757200590452372,0.8176307114052197,0.00267960466322435,0.0,0.8175968835553724,-0.5756583699521611,-0.01155525879293633,0.0,-0.007905549821123847,0.008843600963087922,-0.9999296440270343,0.0,0.6575235880635186,0.255393253722583,0.30386673130059677,1.0,-0.01310000000000001,-0.017217142857142872,-0.006550000000000005,0.6560000000000005
0.461832021952886,0.5230014237261426,-0.12407628363509103,-1.393811207363647,0.07724856443180006,1.9081453759454465,0.15646942468975575,-0.012369899484192665,-0.069600894280583,-4.241049327715794e-05,-0.11492582876522618,-0.0026379971326708634,0.04248113131843652,-0.013586926480731315,0.5757975085658478,0.8175762932422794,0.002642112561029016,0.0,0.8175419797972154,-0.5757359347348197,-0.01157547517301331,0.0,-0.007942827863521074,0.008825337614174658,-0.9999295099663406,0.0,0.6572924980806485,0.25510763835319505,0.3038427218780142,1.0,-0.01344000000000001,-0.017664000000000016,-0.006720000000000005,0.6730000000000005
0.46168466562087934,0.521830401414178,-0.12407493232317339,-1.3956540222488767,0.07714249233467814,1.9088666243971861,0.1563394805714174,-0.005376447186031816,-0.07429980132664277,0.001167912378928501,-0.11279148533110021,-0.009855200310984878,0.04129748022417945,-0.01429571888553323,0.5758810517472877,0.8175173130345927,0.0026840321059578894,0.0,0.8174835235976998,-0.5758193065533022,-0.011556891795444382,0.0,-0.007902593771042243,0.008849717410001526,-0.9999296132795812,0.0,0.6570764656140187,0.25483997608121506,0.3038509541081841,1.0,-0.01376000000000001,-0.018084571428571446,-0.006880000000000005,0.6890000000000005
0.4615177825441343,0.5206053893875093,-0.12408482163742686,-1.397659650318217,0.07701507540776656,1.909639378080088,0.15619251999937794,-0.013901788735346476,-0.07679387884633206,0.0005531936081590882,-0.11768051383883901,-0.006162395473972131,0.04496020104424789,-0.011588901983235943,0.5759772735922581,0.8174495788366298,0.002667070725303637,0.0,0.8174156747350956,-0.5759156898846107,-0.011553343382317241,0.0,-0.0079084200668888,0.00883473873481018,-0.9999296996706983,0.0,0.6568418410575587,0.25453442949314364,0.30382414097178523,1.0,-0.01410000000000001,-0.018531428571428588,-0.007050000000000005,0.7060000000000005
0.4613478445220114,0.5192858340317472,-0.12408828089774128,-1.3997229171181937,0.07688531276646433,1.9103758173611027,0.1560431806802852,-0.00662052837203005,-0.0789082083097207,-0.002455340869703239,-0.1216887042734141,-0.009740020805574514,0.04824924094176192,-0.003203898936028101,0.5760711242950435,0.8173834765578571,0.002656859959466455,0.0,0.8173494366392055,-0.5760095586755873,-0.011560001779288717,0.0,-0.007918730170749066,0.00883113623968522,-0.999929649898031,0.0,0.6565875557646319,0.2542222691587388,0.3038325071298553,1.0,-0.01444000000000001,-0.018978285714285732,-0.007220000000000005,0.7230000000000005
0.4611823437624127,0.5180384603913443,-0.12408930804936807,-1.4016767883862555,0.07675669270104127,1.9110827761391282,0.15590028128755773,-0.012032487816366929,-0.07543952325939675,-0.0003796962795398513,-0.12304362564820827,-0.006966764409522724,0.04887220388977841,-0.008658947845523918,0.5761626737208534,0.8173189421422097,0.002658406963861071,0.0,0.8172849754365628,-0.5761011507958119,-0.011553349237642318,0.0,-0.007911412185145739,0.008829454651713031,-0.9999297226744438,0.0,0.6563363633755748,0.25390408307451123,0.3038448078982141,1.0,-0.014780000000000012,-0.019425142857142877,-0.007390000000000006,0.7400000000000005
0.46100094285971494,0.5166723473295091,-0.124092610045982,-1.4038037076036716,0.07661925391572162,1.9118493248654411,0.1557429200440647,-0.008993472640154133,-0.07413490961461901,0.0005156767038550722,-0.12433013091418073,-0.01075658929584529,0.0497474820320803,-0.00694532241092445,0.5762563345794718,0.8172529385395855,0.002649189810538464,0.0,0.8172188784466083,-0.5761948594326873,-0.011555759387476617,0.0,-0.007917681205876437,0.008824217367198808,-0.9999297192863998,0.0,0.6560886117726217,0.25359908553148974,0.30385181449004867,1.0,-0.015100000000000011,-0.019845714285714303,-0.0075500000000000055,0.7560000000000006
0.4608036068243969,0.5152302208436932,-0.12410960927078019,-1.4060843095635853,0.07647633664636343,1.9127148433947025,0.15556527859775143,-0.012061942225323665,-0.08075111230319813,0.0006865345194580478,-0.1292789809929433,-0.005460193401819592,0.0434240859312237,-0.006618615986398326,0.5763663613584391,0.8171753024525332,0.002662603472644607,0.0,0.8171415276380487,-0.5763049526954653,-0.011535692837533931,0.0,-0.007892363667619529,0.008824679078067305,-0.9999299153615253,0.0,0.6558203019865295,0.2532436173866051,0.3038531456107342,1.0,-0.015460000000000012,-0.020318857142857163,-0.007730000000000006,0.7740000000000006
0.46063277337128256,0.5139124578683252,-0.12410890422240461,-1.408182184933928,0.07636220925897454,1.9134855256640289,0.15540869512894653,-0.007969127566785063,-0.08089829599925126,0.0005971989761192192,-0.1325801885700974,-0.0030610923923722316,0.045101584384365616,-0.007672778702577713,0.5764570865607227,0.8171113256350371,0.0026562707099004462,0.0,0.817077327126105,-0.5763955291100755,-0.011557786102213021,0.0,-0.00791308771355237,0.008833116340204061,-0.9999296770766224,0.0,0.655542916059273,0.2529146026249853,0.30384454355138557,1.0,-0.015800000000000012,-0.020765714285714304,-0.007900000000000006,0.7910000000000006
0.4604466105228469,0.5125189780155095,-0.12411137853764015,-1.4104651838658895,0.0762314036573588,1.914271152762487,0.1552277748383849,-0.008621770548878293,-0.07757893073552485,-0.0005626596355856751,-0.13554620078422733,-0.0046463698951961,0.04573240637805845,-0.011089948882643162,0.5765474412915618,0.8170478369036361,0.0025743062075570386,0.0,0.8170125932958651,-0.576485946848463,-0.011624215388770658,0.0,-0.008013642975015334,0.008805321759721318,-0.9999291214056008,0.0,0.6552653832909048,0.252590337080515,0.3038029615949405,1.0,-0.016120000000000013,-0.021186285714285734,-0.008060000000000006,0.8070000000000006
0.46024864428360296,0.5110845067873752,-0.12410894453258423,-1.4127745814731079,0.07608471408556715,1.9151224139708316,0.15504207368619635,-0.015876400308696054,-0.08512303478336326,0.0009425387988503994,-0.1342462330455196,-0.011684296736980928,0.05055442653763754,-0.010906790019895057,0.5766368387821761,0.8169848271837138,0.0025485706002452632,0.0,0.8169492492225063,-0.5765754213763271,-0.011638494778202809,0.0,-0.008039185256532744,0.008793406975879936,-0.9999290212280907,0.0,0.6549804828753775,0.25224094009467,0.30378204251196195,1.0,-0.016460000000000013,-0.02163314285714288,-0.008230000000000006,0.8240000000000006
0.4600425511534906,0.5096174220485367,-0.12411453236026479,-1.415098514524424,0.0759349826801122,1.9160135622901475,0.15487047347611824,-0.007690038765726567,-0.08700115330133776,0.004295653040245976,-0.13786787243990997,-0.013552715732106754,0.05172843910146446,-0.0051517678301357265,0.576749786290328,0.8169050345627169,0.002568155243674831,0.0,0.8168698145109891,-0.5766884010400872,-0.011616417167881008,0.0,-0.008008638518033906,0.00879778400117523,-0.9999292278485296,0.0,0.6547040467492389,0.25188248594237644,0.30378025359657534,1.0,-0.016800000000000013,-0.02208000000000002,-0.008400000000000006,0.8410000000000006
0.45983455551234736,0.5081159140906969,-0.12411456836895222,-1.4174760820285495,0.0757792176103327,1.9168705247532543,0.15468884572492575,-0.014004330946401937,-0.09119955763621014,-0.00017068448715959657,-0.14316252536425486,-0.010731232442915715,0.05298395940069859,-0.006759753312368684,0.5768524993506182,0.8168325816161187,0.0025445047651786266,0.0,0.8167970807432637,-0.5767912109379666,-0.011626468733225495,0.0,-0.00802938507623896,0.008785270755203925,-0.9999291714881885,0.0,0.6544074536475244,0.25151698360857233,0.3037733654993304,1.0,-0.017140000000000013,-0.022526857142857164,-0.008570000000000006,0.8580000000000007
0.4596315196462551,0.5066774089857394,-0.12412034943773685,-1.4197198361099483,0.07564007115887615,1.9176792951249526,0.15450241078412705,-0.012551080395456696,-0.09083432744935709,-0.0003255544860010956,-0.13787988653759012,-0.016357275862565534,0.061309190044060935,-0.007927208862809896,0.5769485357396906,0.8167647520632383,0.0025443655618784576,0.0,0.8167292341847536,-0.5768872191138733,-0.011629331548136147,0.0,-0.008030770742395943,0.008787752736639162,-0.999929138550889,0.0,0.6541297946389678,0.2511658915227613,0.30378159925873316,1.0,-0.017460000000000014,-0.022947428571428594,-0.008730000000000007,0.8740000000000007
0.4594163660849579,0.5050923145806149,-0.12412855110594051,-1.4221719621663855,0.07548597804646444,1.9186127454073783,0.15431307850721315,-0.01132839776721075,-0.08778049509887204,-0.0025915020325243078,-0.14529651951828726,-0.010438078413311097,0.06075037874144054,-0.011185618277300769,0.5770604008867696,0.816685564741971,0.0025940261558431233,0.0,0.8166507677169935,-0.576998984998382,-0.01159490402247405,0.0,-0.00797279378172866,0.008809543026101985,-0.9999294107640724,0.0,0.6538344479509819,0.2507887238380076,0.3038034885572415,1.0,-0.017800000000000014,-0.023394285714285736,-0.008900000000000007,0.8910000000000007
0.459205316530482,0.50352806309287,-0.12413291839230806,-1.424512794481933,0.07534044098472295,1.9195168325288108,0.1541288362414592,-0.0145394321043494,-0.09980934535477554,-6.086449391123753e-05,-0.1487114480937614,-0.007688313716446753,0.058172914587457214,-0.007396640550976471,0.5771664629431478,0.8166102732474756,0.0026986258702334587,0.0,0.8165768996749593,-0.577104762834137,-0.011532845815071698,0.0,-0.007860601870491979,0.008860177959133048,-0.9999298516319866,0.0,0.6535560229615229,0.2504288502995119,0.3038604812614274,1.0,-0.018120000000000015,-0.023814857142857165,-0.009060000000000007,0.9070000000000007
0.4589646282574253,0.5017604801103028,-0.12414228910688278,-1.4271415460136734,0.07516766456877215,1.9204946375407743,0.15392191229781296,-0.012696414390173336,-0.09416299012300987,0.0015371134949755847,-0.1458285986215292,-0.012307199407581633,0.0632257705411917,-0.01505015569193259,0.5772883402960527,0.8165238138506079,0.0027893501563973234,0.0,0.8164917360289108,-0.577226473725448,-0.011471265326410978,0.0,-0.007756623898296844,0.008899880423245812,-0.9999303110287998,0.0,0.6532374197941074,0.2500159665889259,0.3039282832901411,1.0,-0.018480000000000014,-0.02428800000000002,-0.009240000000000007,0.9250000000000007
0.45874457855292217,0.5001442955491813,-0.12414581207188075,-1.4295781961880554,0.07501430456683163,1.921359778106404,0.15372832766123748,-0.014032459914829133,-0.09236218555705272,-0.0004007159766026497,-0.15001608233118752,-0.00229845718402528,0.0504160176064074,-0.013122967156881883,0.5773949306586563,0.8164483183898238,0.0028256590953316396,0.0,0.8164166855909014,-0.5773329094527505,-0.011456616114626167,0.0,-0.007722537657375184,0.008922079077977763,-0.9999303770348499,0.0,0.6529299032458851,0.24963643397962804,0.3039712753553123,1.0,-0.018800000000000015,-0.02470857142857145,-0.009400000000000007,0.9410000000000007
0.45850597017893013,0.4984664392452305,-0.124138041445358,-1.432189656239689,0.07484913126172657,1.922331495174011,0.153520529289666,-0.01143840859676462,-0.09309791116658758,0.0014642050821142432,-0.15388635370160555,-0.007314694835392717,0.05422189070255303,-0.000886460865209048,0.5775025820944867,0.8163720740746541,0.0028550387837971243,0.0,0.8163408020237125,-0.5774404347188609,-0.011444920453334298,0.0,-0.00769484676129778,0.00894032789325648,-0.9999304275150753,0.0,0.652604808749609,0.24923685275408575,0.30398244237245137,1.0,-0.019140000000000015,-0.025155428571428596,-0.009570000000000007,0.9580000000000007
0.45825037662996515,0.4968055361535548,-0.12414055298167041,-1.4348427563005546,0.07469178848950106,1.9232956277455246,0.15331161255557857,-0.012842753510775967,-0.0934828886441034,0.0005461147829072075,-0.1585738933975466,-0.009289900324641564,0.05623814824929551,-0.013003957493835342,0.5776343857168271,0.8162789028040546,0.0028312851783211654,0.0,0.8162472253870097,-0.5775721810583175,-0.011471251751867091,0.0,-0.007728618038008839,0.008937390202633358,-0.999930193323308,0.0,0.6522726263822215,0.24881590345730842,0.3039610836168258,1.0,-0.019480000000000015,-0.025602285714285737,-0.009740000000000007,0.9750000000000008
0.45799994566090757,0.49522508983130054,-0.12414055013129012,-1.4374000263584519,0.07453482252091191,1.9241716526484767,0.15311629042284378,-0.0196419411734789,-0.09040949056968071,0.0010581095021424318,-0.16277968921422262,-0.008287985205199255,0.04959436874720311,-0.010298765075459222,0.577765651077467,0.8161862924304372,0.0027450655540000694,0.0,0.8161533592875235,-0.5777035424815974,-0.011535078201384377,0.0,-0.007829089349423557,0.008905137892113626,-0.9999296994684583,0.0,0.6519408189790404,0.2484044351760471,0.30392096620645515,1.0,-0.019800000000000016,-0.026022857142857167,-0.009900000000000008,0.9910000000000008
0.4577344982177039,0.4936379454492334,-0.12415205648431252,-1.4399950042251355,0.07437037890269421,1.9250885255332946,0.152904550974962,-0.018065582409583968,-0.09538417990177592,-0.004542436522774694,-0.1612584388381708,-0.010759773737181845,0.05876861504514095,-0.004319579858954762,0.5779035325727438,0.8160889514321296,0.0026603179433067536,0.0,0.8160549006448253,-0.5778416621017003,-0.011582727412713708,0.0,-0.007915445723744752,0.008864835259092277,-0.9999293777136582,0.0,0.6516137640017166,0.2479737209421934,0.3038709342946566,1.0,-0.025465714285714307,-0.03346922448979595,-0.03460982811428575,1.007
0.4574331032523221,0.490670885354229,-0.12432647351996429,-1.4443473559714581,0.07416291583561099,1.9267250017991144,0.15298839162191324,-0.01739274205581462,-0.18110318299177844,-0.01034167115914317,-0.2833089723494984,-0.008484583460237718,0.11236642276840211,0.016611423422009015,0.5785055519429879,0.8156616157928153,0.002863877546442217,0.0,0.815630474828014,-0.5784432697523011,-0.011448105140294476,0.0,-0.007681337133907062,0.008958830671193352,-0.9999303657819578,0.0,0.651085863667831,0.24727549634990803,0.30401077643890406,1.0,-0.041922857142855555,-0.055098612244895886,-0.10846931245713569,1.0249999999999981
0.45671454472715756,0.4840718680633448,-0.12462073180327383,-1.4548519751010769,0.07373186036988327,1.93081268096495,0.15505415097522515,-0.03681469765340668,-0.2835831501890924,-0.0133095472368566,-0.4478795692011793,-0.018081851241002787,0.1813152577894445,0.09841574391917537,0.581394706096232,0.8136042176772353,0.0030198679272423748,0.0,0.8135748859776452,-0.5813313405884857,-0.011424721321076203,0.0,-0.007539802746637958,0.009099336389694637,-0.9999301742880897,0.0,0.6497773148421059,0.24568369190597472,0.3039591750806213,1.0,-0.06569428571428151,-0.08634106122448429,-0.21515523428569538,1.0509999999999953
0.45624673452626435,0.4803426008894651,-0.12481303524210723,-1.4608428221626126,0.07342985178746451,1.932938513614521,0.15660125706051542,-0.03985598253835657,-0.32782791354339014,-0.016832054646040637,-0.5331366191695223,-0.032093143321058684,0.1884399553321568,0.13348320741582267,0.5835820501255687,0.81203729878769,0.0028571051849939884,0.0,0.8120060140489705,-0.58351907052745,-0.011509751530422541,0.0,-0.0076793200312422205,0.009037044978665296,-0.9999296774583257,0.0,0.6489237554534494,0.24460469655926617,0.303878882569311,1.0,-0.07666571428570888,-0.10076065306121741,-0.2643948905142614,1.062999999999994
0.455516269405616,0.47473689944316233,-0.12507822977883087,-1.469748891993509,0.07297802911417187,1.9360760255802332,0.15901563161398694,-0.058762918541949406,-0.41728238833687437,-0.01653639875573098,-0.6659490206077185,-0.03835745749559551,0.23310916327124853,0.18410700382458592,0.5864355748735807,0.8099795054911081,0.002695200972290473,0.0,0.8099462440364876,-0.5863728774155637,-0.011605055096252356,0.0,-0.007819614590536539,0.00898875812268865,-0.9999290254088372,0.0,0.6478422638332051,0.2432305204879487,0.3038070918513758,1.0,-0.08855142857142186,-0.1163818775510116,-0.3177378514285413,1.0759999999999925
0.4544998873583013,0.4672758441591991,-0.12538151723260352,-1.4813178980899184,0.07237529083673586,1.9403335343763666,0.1626795908706485,-0.06250432509351692,-0.4924701976369227,-0.01847690670521387,-0.7355744917243423,-0.04402165320632415,0.28547725341188324,0.24674237478753588,0.5908279657041706,0.8067808937067142,0.002766115123264661,0.0,0.8067489376929002,-0.5907649176021006,-0.011563328377615013,0.0,-0.0076950967843016915,0.009063672723131938,-0.9999293151629509,0.0,0.646362823213901,0.24131369697462926,0.3038333514734981,1.0,-0.10317999999999168,-0.13560799999998907,-0.38339072639996263,1.0919999999999908
0.4531816716612135,0.4581765146731223,-0.12564824546573405,-1.4954497810300666,0.0715906854520042,1.9454723371947764,0.16728388888113593,-0.08360843095127254,-0.5579960264791406,-0.012571836213382178,-0.8639517954838827,-0.05222144475310382,0.3129445009909728,0.293593962229397,0.5958866062354486,0.8030517281962728,0.002796650029478937,0.0,0.8030204110461014,-0.5958230817050809,-0.011568130878377044,0.0,-0.007623645633669074,0.009139237264465791,-0.9999291746766248,0.0,0.6446317872522316,0.23912781454576149,0.30382308305510486,1.0,-0.11780857142856149,-0.15483412244896658,-0.449043601371384,1.107999999999989
0.4516368436782311,0.44838575195347263,-0.12600128809543987,-1.5104237199363535,0.07068889394425318,1.9508130375899226,0.17248132642646224,-0.09713142254106444,-0.6507052480594409,-0.026989365970309938,-0.9590680845162654,-0.06318290602396949,0.3607598418752889,0.3494448224606542,0.6023230023967152,0.7982354646411877,0.0028090343682532475,0.0,0.7982052879507329,-0.6022597641776767,-0.011499636574480486,0.0,-0.007487793531272602,0.009168858243720893,-0.9999299300383699,0.0,0.6425444785833629,0.23635033424479393,0.3038973843374485,1.0,-0.13335142857141694,-0.17526187755100514,-0.5187997810285192,1.1249999999999871
0.4497743809831501,0.4369724639215782,-0.12632558492713092,-1.5280628057283823,0.06958195111001164,1.9570555309789668,0.17883312745494725,-0.1197957825802158,-0.6781561927216961,-0.014520362428414485,-1.071128470518494,-0.05840561641302912,0.3746346618786079,0.3860563092656778,0.6095685437430763,0.7927166731977415,0.0026857800465560945,0.0,0.7926858194135405,-0.6095058016276054,-0.011515918729401326,0.0,-0.007492006508056481,0.009148897711345055,-0.9999300813102638,0.0,0.6401583056082545,0.23328096702874965,0.3038599345339132,1.0,-0.14889428571427238,-0.19568963265304373,-0.5885559606856544,1.1419999999999852
0.44758075412928516,0.42424989335571045,-0.12663531586345436,-1.5471705372756186,0.06838362968429641,1.9638479090173289,0.1861235065223506,-0.13951671312084085,-0.7754915584035414,-0.018951503609258416,-1.1588924602853334,-0.06716114007647334,0.3925420512464363,0.4360831867348861,0.6177680858030438,0.786342718119917,0.002910107254417027,0.0,0.7863155095149171,-0.6177045551263929,-0.011390740696268914,0.0,-0.007159577337593204,0.009325278084813121,-0.9999308874322205,0.0,0.6375586179622574,0.22988555021242962,0.3040274460248565,1.0,-0.16443714285712782,-0.2161173877550823,-0.6583121403427896,1.1589999999999834
0.4451043918146125,0.4105225615758714,-0.12696234662942835,-1.5677207205477317,0.06698733267236627,1.971244227284336,0.19425449731221328,-0.15172325962654673,-0.8102094201653333,-0.01658472652113358,-1.2304481597605728,-0.08241224824973549,0.45238744970573214,0.5022339496016329,0.6267660155782573,0.7791885100607076,0.003220932588327111,0.0,0.7791667527501067,-0.6267025038399902,-0.011130588068434564,0.0,-0.006654387932926886,0.009486100557200616,-0.9999328642551243,0.0,0.6347401381936708,0.22616718509956213,0.30420059212176787,1.0,-0.17997999999998324,-0.23654514285712086,-0.7280683199999248,1.1759999999999815
0.44220804685884885,0.39576154294554605,-0.12729471255215347,-1.5897784192834898,0.06550436520170626,1.978982162137404,0.20321913153391177,-0.17645732156331986,-0.9168223501156914,-0.03048074288305959,-1.3042123748039538,-0.08905244633224337,0.474599256852288,0.5353017098837366,0.6360446507996089,0.771632351308997,0.003385779638495455,0.0,0.7716135907285326,-0.635980792226711,-0.011029298387202568,0.0,-0.006357395030564761,0.009627825190997585,-0.9999334420402773,0.0,0.6318213206670383,0.22229592576694676,0.30431112128499616,1.0,-0.19460857142855306,-0.25577126530609834,-0.7937211949713462,1.1919999999999797
0.4389751029379407,0.3801336813670538,-0.1276294742651292,-1.613280558817316,0.0638751167222839,1.9869673577837554,0.21300551642100826,-0.19692627043747177,-0.9649059587543034,-0.019366073309480758,-1.4024867461645234,-0.110583078720341,0.4850571850758794,0.5861629581510479,0.6473063775681536,0.7622099611937387,0.0033429803832622953,0.0,0.7621916486192537,-0.6472423985661491,-0.011041520484542025,0.0,-0.00625235863569884,0.009695425024289786,-0.9999334511581703,0.0,0.6282144509518648,0.2175735045894929,0.30432769113579056,1.0,-0.21106571428569412,-0.277400653061198,-0.8675806793141951,1.2099999999999778
0.43558897907667776,0.36454419459102433,-0.12792575796945824,-1.6365319864406347,0.062162701885689425,1.9948078645882552,0.22308181254228138,-0.21910524041068713,-0.9673430442571058,-0.015262966446923779,-1.4273349131411726,-0.09491537694039366,0.4812067290093862,0.6531410274841891,0.6580636542331768,0.7529423615923722,0.0032823769113017286,0.0,0.752924482849783,-0.657999975605375,-0.011022800457295066,0.0,-0.006139847691207234,0.009725273528922676,-0.9999338584752074,0.0,0.6247561208053708,0.21306371759918866,0.30433883372041126,1.0,-0.22569428571426395,-0.2966267755101755,-0.9332335542856165,1.225999999999976
0.43155041341430256,0.3470466723903871,-0.1282795682444616,-1.6624681044623282,0.06014673308517582,2.003439294542274,0.23457448107446616,-0.24556299641865215,-1.0440254430449945,-0.01836284442343317,-1.5077018281657164,-0.10468992333939443,0.49126199150793753,0.7015754624292775,0.6702254581239867,0.7421377941495381,0.0031743784523108427,0.0,0.7421202740355187,-0.6701627547777805,-0.010960286278725303,0.0,-0.00600680812350296,0.009701820289354526,-0.9999348943502474,0.0,0.6208256008354294,0.20787283821743824,0.3043392372210788,1.0,-0.24123714285711936,-0.31705453061221406,-1.0029897339427516,1.2429999999999741
0.42700927547677403,0.3286912394301596,-0.12866657398284778,-1.6893566095531287,0.058093967831821816,2.012398905900339,0.24685897327871717,-0.26985249629671715,-1.0751667207088644,-0.020410277796538416,-1.5954836792150044,-0.12247105410988177,0.5079966771126374,0.7297101690294261,0.6831500864200242,0.7302573709497855,0.003298256968354119,0.0,0.7302427192984042,-0.6830873073896899,-0.010865003266622129,0.0,-0.005681360633049526,0.009831145338074998,-0.9999355332833706,0.0,0.6167018011355347,0.20231561626071576,0.30439717993606236,1.0,-0.2567799999999748,-0.33748228571425265,-1.072745913599887,1.2599999999999723
0.42209378961649446,0.3094580806008247,-0.12894316971263325,-1.7173187594681716,0.05580048014698031,2.0214648253375707,0.2599119483846007,-0.3014312704376259,-1.1359237291734985,-0.01165565501372141,-1.645150084268362,-0.1308439674231292,0.5208162846561635,0.7812193864643892,0.6965144805457889,0.7175217178451819,0.0033029852766584405,0.0,0.7175086614461307,-0.6964521167926828,-0.010794288581542967,0.0,-0.005444870228905829,0.009888489232926359,-0.9999362835545478,0.0,0.6122430770683291,0.19651277459492947,0.3044319483501293,1.0,-0.2723228571428302,-0.35791004081629124,-1.142502093257022,1.2769999999999704
0.4170374619930521,0.2906024007542304,-0.12920636199953053,-1.7445156768699908,0.053484141702274425,2.0300603464146794,0.2730560483608316,-0.3293669621449348,-1.197066863003212,-0.014482896012638517,-1.6676626657879812,-0.14308353448056269,0.5343964726596069,0.8337859628850793,0.7097088635232047,0.70447402868709,0.003227823289878799,0.0,0.7044615997388572,-0.7096470713203097,-0.010753397653108749,0.0,-0.005284975774518419,0.009905849904170136,-0.9999369695979534,0.0,0.6077803730605593,0.1907414405405768,0.3044471036908968,1.0,-0.28695142857140005,-0.3771361632652687,-1.2081549682284434,1.2929999999999686
0.4110885384637054,0.26977832866871837,-0.12948656636595796,-1.7742204277202716,0.05095892214918536,2.039381599682576,0.2876897904797211,-0.3556595465449586,-1.2340431319354876,-0.012269589137629017,-1.7395645451380193,-0.15020472880140315,0.5601259101171591,0.8779893259457633,0.7242605913436649,0.6895044015207883,0.0033200920457941287,0.0,0.6894944242966091,-0.7241985553746335,-0.01070692105087059,0.0,-0.0049781591730262975,0.010043979303225828,-0.9999371662314611,0.0,0.6028173849276476,0.18425879328877,0.30449357961784385,1.0,-0.30249428571425546,-0.39756391836730726,-1.2779111478855785,1.3099999999999667
0.4045607410294924,0.2482304586704878,-0.12981618781915472,-1.8046304979477552,0.048164434031563445,2.048707366237549,0.30304935110156045,-0.3916133646679306,-1.266067699215367,-0.02506766535483406,-1.8181841499333629,-0.16831637973458038,0.547312895511634,0.9277205310382423,0.7392765756105626,0.6733792153809456,0.0033651073787726183,0.0,0.6733717626027498,-0.7392156333825858,-0.010557631990986253,0.0,-0.004621838948693058,0.010071172213118054,-0.9999386031627073,0.0,0.5976179682092954,0.1773854434705475,0.30454367055091247,1.0,-0.3180371428571109,-0.41799167346934585,-1.3476673275427138,1.3269999999999649
0.39733237354982415,0.22589327615424712,-0.130162029009889,-1.8357195515152982,0.04525074211239743,2.058012390903273,0.3192074536222329,-0.4283809732604406,-1.3352076863961149,-0.005663046499631209,-1.8426151187346873,-0.17087032746141073,0.5339258572963066,0.9598056941007663,0.7548375986234421,0.6558877402850021,0.0034955327830424737,0.0,0.6558836469862748,-0.7547773726949027,-0.010416630211908006,0.0,-0.00419387174594632,0.01015572245393466,-0.9999396345486149,0.0,0.5921772594323851,0.1701113395727904,0.30463239483841054,1.0,-0.33357999999996635,-0.43841942857138444,-1.4174235071998489,1.343999999999963
0.38958201679730203,0.20292906434238162,-0.13043042262088742,-1.8675766808166403,0.042168863402422624,2.0670793692996723,0.3359410694002207,-0.4653008439125046,-1.3656544678545495,-0.026215471288910698,-1.8938047313539117,-0.19591164863621813,0.5150438315310578,0.9841972443486522,0.7705295305771509,0.6373808035033928,0.0032711978132842394,0.0,0.637375749970343,-0.7704697887715819,-0.010450112019734777,0.0,-0.004140421423550589,0.010137297242973575,-0.9999400442601764,0.0,0.5863562996408606,0.16258997847709294,0.3045829139666761,1.0,-0.34912285714282176,-0.458847183673423,-1.4871796868569842,1.3609999999999611
0.38102695699459493,0.17921645709998282,-0.1307184997578816,-1.8997831310418227,0.03895396490981349,2.0760602060368174,0.35354597475199045,-0.5231861444773342,-1.3971364574504732,-0.01672407561898502,-1.8784422740580062,-0.18481448084571558,0.521714317760397,1.0403416102049177,0.7867078837811645,0.617300886677622,0.0033268310434165465,0.0,0.6172981959617865,-0.7866484889840719,-0.010384553076975975,0.0,-0.003793420243853929,0.010223453409730118,-0.9999405437140914,0.0,0.5803616381819242,0.15467502731546073,0.3046631357717099,1.0,-0.36466571428567723,-0.47927493877546157,-1.5569358665141193,1.3779999999999593
0.37217723223127946,0.15622792683115183,-0.13111571982345605,-1.9305238939381941,0.03576990191103102,2.0844441600844164,0.37057878028427965,-0.5620823292349202,-1.4485005219237395,-0.022599398237411476,-1.9050214267367391,-0.20003359967077447,0.5187695208417037,1.0782635474483937,0.8021774762115383,0.5970591529149101,0.003522993134371869,0.0,0.5970604827941102,-0.8021188228588616,-0.010243085589145336,0.0,-0.0032899322405982034,0.010320411228104745,-0.9999413310079421,0.0,0.574537651625277,0.14677571306677872,0.3047845110335355,1.0,-0.379294285714247,-0.49850106122443905,-1.6225887414855407,1.3939999999999575
0.36219612645360544,0.13123624668137687,-0.13136555521375223,-1.9636819300756287,0.03216129610961245,2.0931758584416875,0.38924792168536676,-0.6013442257719659,-1.4857321969828123,-0.013587334977175224,-1.9308786597594731,-0.20905541154863572,0.502993031402661,1.1171021449678078,0.8184761988338987,0.5745123478429995,0.0036084649845989263,0.0,0.5745165811960449,-0.8184187199965999,-0.010111557305561174,0.0,-0.0028560342216280565,0.010349391211915665,-0.9999423649241328,0.0,0.5680166159824602,0.13824298290152268,0.3048286503908054,1.0,-0.3948371428571025,-0.5189288163264776,-1.6923449211426758,1.4109999999999556
0.35193050551053984,0.10714202343253498,-0.13168490579012,-1.9953059123945973,0.028592757353200045,2.10105143786268,0.4073151272302531,-0.6528970533156931,-1.5103912104747217,-0.018655947546188274,-1.9981321931411313,-0.23601011009049905,0.4639377678394838,1.1207158533003596,0.8339263945311366,0.5518471375625434,0.0035003099197552217,0.0,0.5518520249819259,-0.8338701319880729,-0.01003456041637593,0.0,-0.0026187899675119697,0.010299936211703886,-0.9999435250318595,0.0,0.5616109097184785,0.12978126915273025,0.304810534397295,1.0,-0.4094657142856723,-0.5381549387754551,-1.7579977961140971,1.4269999999999539
0.34012638367238357,0.08093075400348056,-0.13198398637912806,-2.0290041103660728,0.024728333385787834,2.1089654583634556,0.42701452255061784,-0.7083241107941849,-1.5395028179336454,-0.014486907823675095,-1.9537842710579147,-0.2230253837414586,0.45093780752501483,1.179078428472525,0.8502785394254468,0.526303293248671,0.00346349669281154,0.0,0.5263095566116223,-0.8502227739741405,-0.01001160008208355,0.0,-0.002324439080732099,0.010335719098446008,-0.9999438833723011,0.0,0.5545678108844677,0.1204929235547576,0.30486327093861776,1.0,-0.41998,-0.5519737142857144,-1.8051858000000003,1.443999999999952
0.32757248660856014,0.054798777380074395,-0.13221889886867974,-2.062255380854665,0.02074183991054206,2.116513409871786,0.44671281443891003,-0.7648101861216205,-1.5388542116434314,-0.020649429067905036,-1.925141805107603,-0.2368504968899999,0.4352459427360389,1.1386428887421272,0.8660855199868888,0.49986494117369296,0.0034146091532010624,0.0,0.4998725614590499,-0.8660308392131316,-0.009937541616293821,0.0,-0.0020103105296155888,0.010313828895097951,-0.9999447902684913,0.0,0.5474279567474427,0.1110646106104145,0.3048401283819411,1.0,-0.41998,-0.5519737142857144,-1.8051858000000003,1.4609999999999501
0.31423066224445273,0.02878781549558268,-0.13241404474252716,-2.094673730795037,0.01677110017214554,2.1231673328762914,0.46596370718264035,-0.7812558868967315,-1.5559116234265877,0.0010154095457929483,-1.8796224400467576,-0.23916037836129714,0.379820682214312,1.1188481579182157,0.8811457246424265,0.4728134723372862,0.0032216799871139473,0.0,0.47282073175521433,-0.8810913292101937,-0.009968556278912515,0.0,-0.0018747095002534242,0.010307226281055376,-0.9999451217695302,0.0,0.5402094498727698,0.10150412796271584,0.3048490059450375,1.0,-0.41998,-0.5519737142857144,-1.8051858000000003,1.4779999999999482
0.3004370997945516,0.00321623841229324,-0.13258283151599543,-2.125842499181623,0.012799791825737223,2.129354735940044,0.4847495068595708,-0.8145518536476908,-1.504523845840224,-0.01919901624086215,-1.8132377238887962,-0.22969414943977964,0.3322766454451908,1.082129796425398,0.8952804324238546,0.4454686992050587,0.003366340552807097,0.0,0.4454792611597234,-0.8952270181112694,-0.009877288160228594,0.0,-0.0013864103860701804,0.010342776848045437,-0.999945550934306,0.0,0.5331027699562081,0.09203267179055187,0.3049475083640005,1.0,-0.41998,-0.5519737142857144,-1.8051858000000003,1.4949999999999464
0.2860557233278673,-0.022030562019387117,-0.13266800568573564,-2.156058957909676,0.008810541560200995,2.135042611181241,0.5032909741556933,-0.8459257809340004,-1.478446931366368,-0.002228240854332141,-1.760099265339742,-0.24679776743687026,0.3016721398455596,1.0776256807852165,0.9086175561361329,0.4175902455880671,0.0036428521940265347,0.0,0.417605452708782,-0.9085657392603739,-0.00973294463932135,0.0,-0.000754626574447359,0.010364998870173274,-0.9999459972104265,0.0,0.5260204876525527,0.08258882324575897,0.30506533821755477,1.0,-0.41998,-0.5519737142857144,-1.8051858000000003,1.5119999999999445
0.27199191031346165,-0.04540504778277582,-0.13277849573513437,-2.183642309957712,0.0051617218104276575,2.139760843570314,0.5202557727902586,-0.8926625016832868,-1.4151316719436242,-0.019503882351193182,-1.7149697449049925,-0.21956343683995164,0.26368553366638225,1.0532185790837971,0.9203858112043344,0.3909685811768551,0.0037780904574787975,0.0,0.39098670517014883,-0.9203346483334911,-0.009709704334770568,0.0,-0.00031908791828727523,0.010414057743399013,-0.9999457213190213,0.0,0.5193422465517641,0.0736876358705147,0.305129723894426,1.0,-0.41998,-0.5519737142857144,-1.8051858000000003,1.5279999999999427
0.2565794704016812,-0.06990995300684925,-0.13282568969123315,-2.2121454520165456,0.0012325954019085095,2.144038209427833,0.5377352592790251,-0.9096525934130184,-1.3943941717817256,-0.003736082269697111,-1.6690325609878465,-0.22300037325545483,0.23081500448422745,1.0051612829903762,0.9319332741437043,0.36258470049251595,0.003668025866322623,0.0,0.36260324158834806,-0.9318829678249949,-0.009683510133717441,0.0,-9.292358024948211e-05,0.010354622732051948,-0.9999463851393658,0.0,0.5121783149498703,0.06429634725879875,0.3051447760692791,1.0,-0.41998,-0.5519737142857144,-1.8051858000000003,1.5449999999999409
0.24057727658695216,-0.09407898535568858,-0.13293169289023507,-2.239838120373359,-0.0026043340274662144,2.147865555519409,0.5548457113919337,-0.9420570999075082,-1.4028988432928777,-0.004270178641075563,-1.6153624247183749,-0.21721406932988488,0.18365139236952552,1.0177452692652293,0.9426817481567185,0.3336447867609302,0.003608997181438341,0.0,0.33366426388364,-0.942631872347024,-0.009698409340760274,0.0,0.00016613525263464712,0.010346906069594854,-0.9999464555334275,0.0,0.505018332147222,0.05488367674356321,0.3051321299841101,1.0,-0.41998,-0.5519737142857144,-1.8051858000000003,1.561999999999939
0.22416846201495824,-0.1178598444845392,-0.13291815064113838,-2.2667162561585292,-0.006521852964095025,2.15115268607776,0.5712335939912823,-0.9800187420335936,-1.3805104845710097,-0.0005319179654309579,-1.546433023864727,-0.22549039482486935,0.17640933142786167,0.9442772558651443,0.952357686007277,0.30493244019049326,0.003433907911453675,0.0,0.3049515870215421,-0.9523092075540044,-0.009615075772732226,0.0,0.0003382001153742209,0.010204363446605053,-0.999947876935259,0.0,0.4978283301550703,0.04561177936800519,0.3050670939043615,1.0,-0.41998,-0.5519737142857144,-1.8051858000000003,1.5789999999999373
0.2070273907687623,-0.1413137037852683,-0.13301475953569036,-2.292762841440885,-0.010292480401108512,2.1538385693476485,0.5872980175896245,-1.0083293141759715,-1.364862117988366,-0.004053943013465503,-1.483016401045982,-0.2202382769920096,0.1522046864270552,0.9258652516995428,0.9613009926281895,0.2754467602533239,0.0031985526748590843,0.0,0.27546501169778376,-0.9612527466037573,-0.009640092234033837,0.0,0.0004192934421552996,0.01014831497011074,-0.9999484166177157,0.0,0.4906284713748591,0.0362375316952233,0.30498832148614063,1.0,-0.41998,-0.5519737142857144,-1.8051858000000003,1.5959999999999355
0.1903600042370919,-0.1630771924002519,-0.1331801976219538,-2.316546732220585,-0.013839329118284626,2.155912161574295,0.6018079554398298,-1.0535655152270218,-1.33433002544315,-0.011123024115917708,-1.4324188607665886,-0.20710004133261484,0.10525011886008936,0.8978772488409019,0.9693158807204032,0.24576121771008724,0.002982306840823278,0.0,0.24577876399519688,-0.9692679843847862,-0.009649897245851148,0.0,0.0005190940366728292,0.010086980542548463,-0.9999489903814671,0.0,0.48343590368230516,0.02684597775339929,0.3049067282233364,1.0,-0.41998,-0.5519737142857144,-1.8051858000000003,1.6129999999999336
0.1721471840995942,-0.18595317198472572,-0.1332706737519188,-2.340981038684257,-0.017548678830425022,2.1575921047270477,0.6165974266680573,-1.0803578236612845,-1.3223811705663642,-0.00702669162676874,-1.395130893042516,-0.22425516594826925,0.07001588425207993,0.8566536601227968,0.9759644789760219,0.21786780997148864,0.002774897565318884,0.0,0.2178846182109092,-0.9759172974136463,-0.009616062455051337,0.0,0.0006130518680629304,0.009989735213697927,-0.9999499134245511,0.0,0.47663090653732265,0.01809365437975292,0.30485073517903577,1.0,-0.41998,-0.5519737142857144,-1.8051858000000003,1.6289999999999318
0.15320056235950377,-0.2084721234233427,-0.1334880225055297,-2.36455363788299,-0.0212022674242827,2.158891810582268,0.6308344700689543,-1.1120001255680014,-1.3109563616998205,-0.012382912592105891,-1.3774066804958944,-0.20880368919785525,0.06108753377530742,0.8122738567977826,0.9822059741349174,0.1877356690996584,0.0027367540242554315,0.0,0.18775351625414077,-0.9821595765829176,-0.009588021791711915,0.0,0.0008879325827187423,0.009931438686102018,-0.9999502878150255,0.0,0.46945373855169725,0.00869581799679328,0.30482766708282205,1.0,-0.41998,-0.5519737142857144,-1.8051858000000003,1.64599999999993
0.13360484969471192,-0.23062407143545463,-0.13374426256820995,-2.387125256731534,-0.024833110071178697,2.1596323477662778,0.6443183058384842,-1.1585884650197777,-1.2798020362288176,-0.009047675329004872,-1.3182750566755101,-0.22861433233977496,0.03826483758523086,0.7710019418960835,0.9875008480277826,0.15752795795113106,0.0027864869217039973,0.0,0.15754762625731134,-0.987455759395689,-0.009519222561628455,0.0,0.0012520129730312357,0.009839434191883366,-0.9999508077892126,0.0,0.46231370029632257,-0.0007208909174132479,0.3048781155523493,1.0,-0.41998,-0.5519737142857144,-1.8051858000000003,1.662999999999928
0.11343288052324363,-0.2523598556376192,-0.13399431719979993,-2.408843804377291,-0.028259436424661142,2.159948505060975,0.6573033450966692,-1.2112141267562961,-1.2343464994908784,-0.029791643658659193,-1.2818650162527618,-0.196577887089215,0.004587468107848575,0.7421579205551098,0.9918846194935405,0.12703291557868485,0.0028786929223517444,0.0,0.1270549257455061,-0.9918399565187368,-0.009554757868327221,0.0,0.001641465516571905,0.009843158999384814,-0.999950207666297,0.0,0.4551809261747419,-0.01007664299715358,0.30493314545670025,1.0,-0.41998,-0.5519737142857144,-1.8051858000000003,1.6799999999999262
0.09265448514841039,-0.2737391548176242,-0.13419791550504312,-2.429808724540329,-0.03175982637776625,2.1600163454989536,0.6695597823683687,-1.2217191498817832,-1.2514787961436638,-0.009455011378743453,-1.2183064718906806,-0.2117270957880013,0.002227408117960349,0.7148558595476563,0.995302536747106,0.09666365961830248,0.0031215629388053026,0.0,0.09668915914060316,-0.9952601617407572,-0.009442661576754307,0.0,0.0021940472530216915,0.009700313077831542,-0.9999505438184648,0.0,0.44805661949383857,-0.01940052191626125,0.3049987903429432,1.0,-0.41998,-0.5519737142857144,-1.8051858000000003,1.6969999999999243
0.07251427002554668,-0.29329589285915414,-0.13448447338206163,-2.448700301196724,-0.03482909345714424,2.1596620529983834,0.6804242404383622,-1.265585004350883,-1.1903308737831473,-0.020004169960975975,-1.142201357469296,-0.1881598406572615,-0.013933348920956483,0.6571970406282985,0.9976776053239442,0.06789453668389761,0.0032364524973334894,0.0,0.06792246253889994,-0.9976358763343216,-0.009483893425701839,0.0,0.0025849463415215657,0.009681882311847398,-0.9999497883430504,0.0,0.4413588688743549,-0.02818498421795141,0.3050220847100667,1.0,-0.41998,-0.5519737142857144,-1.8051858000000003,1.7129999999999226
0.05040649290855499,-0.31367018371504707,-0.13481450929567307,-2.4680206725737555,-0.038182938076192975,2.1589561622526316,0.6912977165554054,-1.2932741379256605,-1.1858278261144142,-0.01022957835316219,-1.1131221789465562,-0.1903875861391945,-0.06122148671157239,0.632187552514231,0.9992895039882983,0.0372803497637787,0.0033778160872581396,0.0,0.03731062239897026,-0.9992499416740547,-0.009392466226079359,0.0,0.0030251863463371387,0.009512004472412378,-0.9999501837684148,0.0,0.43422032925060394,-0.03756945194696244,0.30504931124886936,1.0,-0.41998,-0.5519737142857144,-1.8051858000000003,1.7299999999999207
0.027686114134028383,-0.33338539083003493,-0.13517427387299366,-2.4863412415485673,-0.04127327648721638,2.157877728003961,0.7014864677873316,-1.33619704743435,-1.1399379723719882,-0.013029884524275616,-1.070271553614429,-0.18713191165642745,-0.07258693850308587,0.5865158417007454,0.9999628093543839,0.006540332932920612,0.003514378241278546,0.0,0.006573237346685912,-0.9999242649651827,-0.009434181778602441,0.0,0.003452475860797055,0.009457113836344178,-0.9999493204199487,0.0,0.42712211469604183,-0.04691995057390331,0.3050838651137683,1.0,-0.41998,-0.5519737142857144,-1.8051858000000003,1.7469999999999188
0.0042924589419247915,-0.3526483359963362,-0.13561551623961018,-2.503806721050648,-0.044407329749870515,2.1564273743743723,0.7109004881759855,-1.3736782868950979,-1.1293143033330184,-0.028703419713090372,-1.0009030324228065,-0.19145000324641775,-0.08478063796827415,0.5357039648665961,0.9996920170459888,-0.024145769688361185,0.003687785499090117,0.0,-0.024110248481533092,-0.9996555710904051,-0.009390527529529622,0.0,0.003913332177903128,0.009298901015051604,-0.999949106840532,0.0,0.4200030351635936,-0.05631463419664522,0.3051582513882059,1.0,-0.41998,-0.5519737142857144,-1.8051858000000003,1.763999999999917
-0.0197437160388706,-0.371099541544843,-0.13603336029693602,-2.5205493173905382,-0.04736121565339831,2.1547207278998455,0.7195444353742592,-1.4306242572988832,-1.0618706842503167,-0.03583610994907059,-0.9500338055033335,-0.18335187693993635,-0.10032492040586193,0.5024409649159565,0.9984842726494333,-0.054748478693137814,0.0035367009666159056,0.0,-0.05471318790365298,-0.9984481796518336,-0.009404601031814723,0.0,0.004046178142765755,0.009197019107381611,-0.999949520366891,0.0,0.41283115298162154,-0.0656636194386225,0.30508492079110794,1.0,-0.41998,-0.5519737142857144,-1.8051858000000003,1.780999999999915
-0.042909083840835825,-0.3879671965734403,-0.13641599400022442,-2.5353375051387173,-0.050063758887668126,2.1528541118947735,0.7270760470051529,-1.4550961799716884,-1.033463203120725,-0.039795235294467435,-0.912489436575808,-0.16602778031750196,-0.1318160841568448,0.46627704763575994,0.9964926419182343,-0.08348704422095332,0.0036159302087720004,0.0,-0.08345011855436324,-0.9964581500721724,-0.009379753153201158,0.0,0.004386295442685539,0.009045279345224824,-0.9999494703903076,0.0,0.4061350176364204,-0.07444141347433438,0.305131351066375,1.0,-0.41998,-0.5519737142857144,-1.8051858000000003,1.7969999999999133
-0.06818255553398145,-0.4051064495659643,-0.1368592866925564,-2.5503259612171347,-0.052839605281378974,2.1506925522959848,0.7343631166296666,-1.5064075825328276,-0.9891972463513279,-0.038708203535313956,-0.8849902991823033,-0.14291751929822388,-0.1326474295032264,0.40968496428903606,0.9934673804792462,-0.11397906358158033,0.003476189002225577,0.0,-0.11394246484110732,-0.9934336322012058,-0.00935307535845631,0.0,0.004519504852136869,0.008896061009364964,-0.9999502158479738,0.0,0.3989669707708606,-0.08377700370581678,0.3050790421935503,1.0,-0.41998,-0.5519737142857144,-1.8051858000000003,1.8139999999999115
-0.09410989174060452,-0.42155374499307163,-0.1373545688616561,-2.564213899160785,-0.055411555892323036,2.148431367882774,0.7408600518760405,-1.5460331436395611,-0.934916799355788,-0.036249871052939975,-0.8278600739634598,-0.15079694513606487,-0.1389231429953055,0.35690043913826774,0.9895009151832641,-0.14441361114030543,0.0036598729633407355,0.0,-0.14437418624695758,-0.9894688469114097,-0.009393734004244628,0.0,0.004978009172625697,0.008766886003060956,-0.9999491792758703,0.0,0.3918757525128066,-0.09314032359743565,0.3051491838222487,1.0,-0.41998,-0.5519737142857144,-1.8051858000000003,1.8309999999999096
-0.11906447535375551,-0.4361567629892213,-0.13783893876036302,-2.576671805362363,-0.057809378227269434,2.1460371927162734,0.7463703445691824,-1.5570733929385216,-0.8904660412750355,-0.03626120703004901,-0.7353485983530811,-0.14243235991701603,-0.15272512911051458,0.3269531983823216,0.9849209541610761,-0.1729175938687873,0.003311598748715036,0.0,-0.17288037799300782,-0.9848884637838755,-0.009372070829906924,0.0,0.0048822453401177746,0.008658405201948854,-0.9999505966295523,0.0,0.3850879215621778,-0.10192790082767131,0.30504708505761685,1.0,-0.41998,-0.5519737142857144,-1.8051858000000003,1.8469999999999078
-0.14622871016728936,-0.45103907439433694,-0.13837695136955072,-2.588740873902103,-0.060098448107497544,2.1437055920871253,0.7514037359181516,-1.6045884341352166,-0.8195766335744884,-0.03758705441063,-0.7166174679257996,-0.13244752447366026,-0.141840960643882,0.28858569601649753,0.9791454899110696,-0.20307918452655738,0.0037015267186146475,0.0,-0.2030372909526726,-0.9791156318931189,-0.009443768651685223,0.0,0.005542162212503754,0.008495439089252738,-0.9999485546530337,0.0,0.37802349415175873,-0.11131717744743848,0.30516875455974524,1.0,-0.41998,-0.5519737142857144,-1.8051858000000003,1.863999999999906
-0.17394449169324513,-0.46487189971197507,-0.13891751746361117,-2.6000694050070687,-0.062364112259357236,2.141085043203767,0.7558262588124286,-1.6290723600401544,-0.7751642617409752,-0.04231862049130376,-0.6442631116387819,-0.12797417955248355,-0.15914089584501162,0.2330493991712067,0.9724544360807266,-0.2330254351030659,0.0035018913677223942,0.0,-0.23298438618547546,-0.9724248510013853,-0.009430368493284907,0.0,0.005602949786956246,0.008354878521675352,-0.9999494001991164,0.0,0.3708371062503784,-0.12066755920231581,0.3051284755665626,1.0,-0.41540857142865895,-0.5459655510205232,-1.7846692765718215,1.880999999999904
-0.20176214097676548,-0.4773923392924256,-0.13922209020525012,-2.6099516510344283,-0.06430480145157767,2.1388441779764666,0.7593468757582541,-1.63807741888658,-0.6874454677857597,-0.023763683580303098,-0.563430794338168,-0.11042789781512746,-0.12936587767165544,0.18708960312604342,0.965045364912495,-0.26201806909475345,0.00383692975886075,0.0,-0.26197365038543047,-0.965019329147334,-0.009394028793327845,0.0,0.006164235347961622,0.008060644642041925,-0.9999485127797979,0.0,0.3639667238924374,-0.1298389304381505,0.3052267019566781,1.0,-0.39986571428580353,-0.5255377959184847,-1.7149130969146864,1.8979999999999022
-0.22922133445732729,-0.48849645249302237,-0.13942884827585025,-2.6189462789620452,-0.06583470136324483,2.1364644933382175,0.762008794951155,-1.5940679008296912,-0.6319931879446035,-0.015726906184815332,-0.5038040396149863,-0.08843087987623979,-0.13257238867507498,0.1381221592767363,0.9570766576669536,-0.2897802616272904,0.0035239496989251484,0.0,-0.28973688229760614,-0.9570490321303982,-0.00950978632461431,0.0,0.006128459009625553,0.008080731890678011,-0.9999485705586455,0.0,0.3571769692349434,-0.13862378872418626,0.3051355837639717,1.0,-0.38432285714294806,-0.5051100408164462,-1.645156917257551,1.9149999999999003
-0.2545939492078094,-0.49781427097181696,-0.13949597804516012,-2.6262671134626165,-0.06709004700206339,2.134494499569617,0.7638213958964998,-1.5584456527465986,-0.5558168527889142,-0.007283473704917408,-0.42976991415017574,-0.07476471455488255,-0.11647380528818917,0.10465017711411108,0.9491960081560671,-0.31463514238394186,0.003523092225996389,0.0,-0.3145907542653488,-0.949169129438071,-0.00955865857439196,0.0,0.006351622571049154,0.007964861669685658,-0.9999481075882377,0.0,0.3510766052305499,-0.14660386802399128,0.30513869459868753,1.0,-0.36969428571437823,-0.48588391836746864,-1.5795040422861297,1.9309999999998986
-0.2809715957048189,-0.5064868927019965,-0.139444867029175,-2.6327550983211196,-0.06821772325734858,2.1327362360124895,0.765093656142842,-1.531280517346911,-0.49275853657723767,-0.004226100116639547,-0.3576874592646925,-0.060287488086364645,-0.09375907100906648,0.06476538556369772,0.9405055430143408,-0.3397272635386191,0.0039315224875369915,0.0,-0.33967904096823553,-0.9404826307304592,-0.009556009754218895,0.0,0.0069440993514346405,0.007652171682847736,-0.9999466104511449,0.0,0.3449525478925168,-0.15480851645961885,0.30527644440769397,1.0,-0.3541514285715228,-0.46545616326543005,-1.5097478626289946,1.9479999999998967
-0.3065464246984729,-0.5139597157907478,-0.1392682898318754,-2.6384236379722665,-0.06910027855015767,2.1311122470139727,0.7657428998211379,-1.4755008565938108,-0.42273638551974,-0.0001625378643359699,-0.32064976469011264,-0.039422090142573155,-0.09918782333890237,0.024553224732310194,0.9316449505485309,-0.36332019451862996,0.004107222124353953,0.0,-0.363270049102002,-0.9316244748451548,-0.009563273295631797,0.0,0.007301059536698018,0.007417687307270604,-0.9999458347553899,0.0,0.3390454703919409,-0.1625978227241482,0.3053352129989129,1.0,-0.3386085714286674,-0.4450284081633915,-1.4399916829718595,1.9649999999998948
-0.3313475175680197,-0.5202563905246669,-0.1390605152245351,-2.6432089845436124,-0.06977833822674177,2.129575304274795,0.7660080434139491,-1.421136311075563,-0.3570208825933226,0.0023211723535885723,-0.26572163442872165,-0.030379371155695705,-0.07548070667521743,0.008066422072368556,0.9225865128386548,-0.385743691447284,0.004083838640463608,0.0,-0.38569301511976145,-0.9225668672772664,-0.009592725954917627,0.0,0.007468091525794307,0.007275151618074127,-0.9999456484119007,0.0,0.3333626608780797,-0.1700519552323797,0.3053542954385066,1.0,-0.32306571428581193,-0.4246006530613529,-1.3702355033147242,1.981999999999893
-0.3552929116213104,-0.5255958870761697,-0.13873949229782748,-2.6469915900741676,-0.07029290148370874,2.128477946948425,0.7660045469516739,-1.3914094377108275,-0.2994932660652397,0.015841077452474168,-0.2102221887077063,-0.01573916550459682,-0.05689768456846709,0.0011964059730614656,0.9134201794097268,-0.4069687962321474,0.004552102994004454,0.0,-0.4069145698706964,-0.9134055321115466,-0.009571501249893718,0.0,0.008053373451663515,0.006890618022835471,-0.9999438297021046,0.0,0.32804821173041665,-0.17721176439778394,0.305509300784303,1.0,-0.3075228571429565,-0.4041728979593143,-1.300479323657589,1.998999999999891
-0.3769518225715935,-0.529700945584564,-0.13836487957972338,-2.649836065619644,-0.07061950456812832,2.127601180558196,0.765717762856239,-1.335213299851733,-0.24384555598255447,0.03186610562825825,-0.16845260275264948,-0.016463399342483434,-0.0515179035088977,-0.03237213340032719,0.9048116319922967,-0.42576067551227176,0.0049502222150978915,0.0,-0.42570377347346366,-0.904801640140559,-0.009541286633174545,0.0,0.008541438270632362,0.006525864496483347,-0.9999422267935496,0.0,0.3233005113101696,-0.18362938459087147,0.30565240894073914,1.0,-0.29289428571438647,-0.3849467755103366,-1.2348264486861669,2.0149999999998895
-0.3989648561263668,-0.5332621020339314,-0.13793249405215793,-2.6521482633129376,-0.07077852747294565,2.126883989206071,0.7649856097169191,-1.2598601070845277,-0.19553266296383948,0.015826319561500556,-0.12141065097231603,-0.002521679757266685,-0.03907963597185387,-0.04986930738560383,0.8958218535401387,-0.4443575885821395,0.005503370838394729,0.0,-0.4442969636580364,-0.8958179177995179,-0.00955055677926709,0.0,0.009174057214411224,0.006110584170641198,-0.999939246872189,0.0,0.3185466782932566,-0.19011867775576918,0.3058506038219563,1.0,-0.27735142857153106,-0.36451902040829803,-1.1650702690290315,2.0319999999998877
-0.4200546604525809,-0.5361356687923785,-0.13741104674481003,-2.6539437690429435,-0.07089574416857762,2.126290036080617,0.7640104545215326,-1.2251646350050194,-0.1614792918753041,0.037977747827726026,-0.09700355223372728,-0.002437787055540544,-0.03993382146712117,-0.06058721073002964,0.8869969731350901,-0.4617152290794643,0.0060136333854129255,0.0,-0.46165235410641603,-0.8869995298418395,-0.009470211696044267,0.0,0.00970681783449534,0.00562394937868399,-0.9999370724605192,0.0,0.31401066064239225,-0.19628106945253404,0.3060432739116063,1.0,-0.26180857142867564,-0.34409126530625944,-1.0953140893718962,2.048999999999886
-0.4401096624905776,-0.5383715148126127,-0.13696015550251514,-2.655357007429716,-0.07089972055604975,2.125784086806827,0.7628057458178875,-1.176059800277092,-0.11892522584851331,0.026206293770946125,-0.07260605265804651,-0.0012589713124574883,-0.02547453210972963,-0.07625761474184722,0.8783703970518784,-0.4779181685108205,0.006357412319230617,0.0,-0.4778536594583944,-0.878377610681095,-0.009455162484040412,0.0,0.010103197098276895,0.005267323496165988,-0.9999350882490223,0.0,0.30966539161757417,-0.20210376693218152,0.30618153637241624,1.0,-0.2462657142858202,-0.3236635102042209,-1.0255579097147611,2.065999999999884
-0.4590278625089313,-0.5399196012884001,-0.13638349812219025,-2.6564349515120163,-0.07086569008643553,2.125391647650358,0.7614491630358743,-1.0943957087831793,-0.08144913292441505,0.026613403058858016,-0.055601695171497476,0.000100525173808921,-0.02963069340078959,-0.08050172198076308,0.8701163167063991,-0.49278444981147784,0.006467482237861915,0.0,-0.49272067260525454,-0.8701263164869638,-0.009342325484699748,0.0,0.010231476208135415,0.00494234279733155,-0.9999354429873342,0.0,0.3055665933729862,-0.20752443085978245,0.3062340215763557,1.0,-0.23072285714296475,-0.3032357551021823,-0.955801730057626,2.082999999999882
-0.47690033770363416,-0.5410149333438548,-0.1358497163488147,-2.657274158766953,-0.07065036002320042,2.1251045032323796,0.7599637341871933,-1.0168555389716265,-0.037473388713074735,0.04265368658159779,-0.04476867252228003,0.02461158175463634,-0.019035824192705747,-0.09523137971602509,0.8621306103270795,-0.5066257820189887,0.0064710611118772915,0.0,-0.5065619589218565,-0.8621415736422936,-0.009361392634073163,0.0,0.01032189240256759,0.004792842029050365,-0.9999352415044258,0.0,0.3016717471340335,-0.21259587291921048,0.3062382858403625,1.0,-0.2151800000001093,-0.2828080000001437,-0.8860455504004908,2.09999999999988
-0.49362822531405365,-0.5413281774482909,-0.13525196220980124,-2.6577188996347525,-0.07049100459430202,2.1248711166881415,0.7584192492627132,-0.9393954504362159,-0.03139387600227077,0.037886332963480214,-0.020535743206914932,0.0071059126942870105,-0.013991281531232632,-0.08573606485188208,0.8545816171792902,-0.5192622558151537,0.0061413488905271135,0.0,-0.5192014740648443,-0.8545907596036527,-0.009230917080813604,0.0,0.010041800175743298,0.004700065141079929,-0.9999385339294111,0.0,0.2980429770753126,-0.21732801444008443,0.306143686289063,1.0,-0.19963714285725348,-0.26238024489810463,-0.8162893707433537,2.1169999999998788
-0.5090549018057806,-0.5416124964312793,-0.13460908682713457,-2.65803337878153,-0.07015329464869308,2.1247955200640356,0.7568044707361101,-0.8948278858823677,0.008087943336421795,0.036529470837144654,-0.011284472347535901,0.019668417685783132,-0.008010508940097265,-0.10311422435385796,0.8475396578673853,-0.5306791599063733,0.006074906115279395,0.0,-0.5306189684325984,-0.8475490174439569,-0.009215219504543019,0.0,0.010039298941707298,0.004586891881721317,-0.9999390845944688,0.0,0.2947103380957976,-0.22163214888042396,0.30611363060936925,1.0,-0.18409428571439804,-0.24195248979606604,-0.7465331910862185,2.133999999999877
-0.5227254661507799,-0.541509017168861,-0.13401825902092818,-2.658032702603336,-0.06979356017587496,2.124816598060086,0.7552401986558974,-0.8034403607860661,0.006747893579643501,0.042526783558533704,0.0012006891869719405,0.027051566839604694,0.007178564706504159,-0.09754980768504458,0.841225635636544,-0.5406327922681764,0.006029989503804772,0.0,-0.5405730421004378,-0.8412353076298176,-0.009202730706327942,0.0,0.010048131531160964,0.004482009510689111,-0.999939471489889,0.0,0.2917915560751959,-0.22546151927924393,0.3060936244665484,1.0,-0.16946571428582824,-0.22272636734708856,-0.6808803161147972,2.149999999999875
-0.5359560396959353,-0.5412619535709363,-0.1332771025303982,-2.6580125754234474,-0.06932108532561061,2.1248630913910866,0.7535533458404197,-0.7560903014704098,0.02070580251257488,0.037284763568362,0.006467853124322614,0.02996130397186411,0.00794662435298882,-0.09583044849114956,0.8351423846209762,-0.5499847368952184,0.005893512797563274,0.0,-0.5499257296568338,-0.8351513655676019,-0.009199747451804054,0.0,0.009981888124936111,0.00444219022529585,-0.9999403126464418,0.0,0.28896685199367683,-0.22908331181473404,0.3060362280706775,1.0,-0.15392285714297277,-0.20229861224504997,-0.6111241364576621,2.1669999999998732
-0.5480118578714999,-0.5409757210156386,-0.13257205745729492,-2.657833377266661,-0.06885498549596832,2.124935653906567,0.7518439314564593,-0.6810293087743295,0.014529976103656583,0.04645017748807051,0.009248227420808977,0.021955849608607927,0.01413349273015456,-0.0974859892685274,0.829601890752468,-0.5583069261484794,0.005901353723911243,0.0,-0.5582480068822557,-0.8296115524893948,-0.00919683039603467,0.0,0.010030678455045294,0.004335372400552651,-0.9999402932354913,0.0,0.2864060619685695,-0.23238242553000868,0.30603871585375064,1.0,-0.13838000000011735,-0.18187085714301143,-0.5413679568005267,2.1839999999998714
-0.5588164520429141,-0.5404048028247185,-0.13179009299425995,-2.6575976425482675,-0.068372344016593,2.1250397271646118,0.750053126027961,-0.6301019601685186,0.03292671715647501,0.04428683820681944,0.012263279542761825,0.03326571231878249,0.0015153976510615145,-0.10610197032161264,0.8250318037930209,-0.5650403185277377,0.005719096896811846,0.0,-0.5649826288365156,-0.8250402835356785,-0.009160052268162805,0.0,0.009894474675945564,0.004326227339591537,-0.9999416898639106,0.0,0.2842605974255397,-0.23512887383393136,0.305966900348579,1.0,-0.12375142857154753,-0.16264473469403395,-0.4757150818291054,2.1999999999998696
-0.5686975249797528,-0.539970051602308,-0.13116563812372536,-2.657254075087282,-0.06789221740612737,2.1251866151664967,0.748291186002395,-0.5618825222590692,0.026907162092690135,0.03678243575191033,0.018402135455387065,0.029407042025848044,0.005186638321065524,-0.09685621653190178,0.8202944467193608,-0.5718950914582791,0.005811363739522701,0.0,-0.5718368678890223,-0.8203042354067543,-0.009181764417663125,0.0,0.010018285173441777,0.004208679354041289,-0.9999409587472046,0.0,0.28205236869519407,-0.23798697558808302,0.3059955003306228,1.0,-0.10729428571440647,-0.14101534693893425,-0.40185559748625654,2.2179999999998676
-0.5771146805549373,-0.5393032934015443,-0.13042767134923589,-2.6568328986336844,-0.06733928016630458,2.1253422948692133,0.7464971958095598,-0.47178787022022695,0.03510450875593825,0.04202576448500008,0.025462919706315063,0.03449453495748749,0.018488885287243816,-0.11392277761257287,0.816670550132461,-0.5770586708537432,0.005766267429011063,0.0,-0.5770005032226634,-0.8166801725927845,-0.009201188826507901,0.0,0.010019014970724993,0.00418728135070251,-0.9999410412688872,0.0,0.28034345978541875,-0.2402369777617036,0.30597755661719583,1.0,-0.09175142857155105,-0.12058759183689571,-0.3320994178291212,2.2349999999998658
-0.584598904676098,-0.538700744580306,-0.12976013743111692,-2.6564218638504316,-0.06686020078948209,2.1254807562404996,0.7448628457762836,-0.4137754482803424,0.03358101556394635,0.03862048850893965,0.01996541664586452,0.032406240974063916,0.006387880827185482,-0.09934049098710979,0.813451988850332,-0.581587062513087,0.005753038679402545,0.0,-0.5815290226318437,-0.8134618092626076,-0.009199326565900836,0.0,0.010030279681431109,0.004137731194866989,-0.9999411346024683,0.0,0.2788188688315597,-0.24223470019308102,0.3059748536109192,1.0,-0.07620857142869564,-0.10015983673485712,-0.2623432381719861,2.251999999999864
-0.5905329641918241,-0.5382270118297228,-0.12912952635512107,-2.65604484098651,-0.06636181270496272,2.1256235940014085,0.7431612654942303,-0.3424554207972369,0.030380172242200368,0.038291520293900594,0.022602342547377093,0.02281185349801736,0.012931043633289318,-0.10953380242205656,0.8111316241004538,-0.5848180356470012,0.005839560544372386,0.0,-0.5847592719056369,-0.8111423827196578,-0.009239901377931771,0.0,0.010140571264832476,0.004080117593940724,-0.9999402589429243,0.0,0.27764799028041554,-0.2437932257863522,0.3060030499018087,1.0,-0.06158000000012581,-0.08093371428587964,-0.19669036320056477,2.267999999999862
-0.5953700926610908,-0.5377119591323853,-0.12846139620654998,-2.6557330947531907,-0.06589831222646651,2.1257174562736973,0.7414916073270109,-0.2773749802166791,0.029519411513778644,0.04024884972257782,0.013343993534035373,0.02766804648571702,0.004295596318298081,-0.1052641115692939,0.8094576683143896,-0.5871334900643239,0.0057701779111068675,0.0,-0.5870750606740543,-0.8094679008028032,-0.009237835550977555,0.0,0.010094810785037378,0.004090188026897146,-0.9999406808191769,0.0,0.2767176163427987,-0.24501484340552077,0.30598252814370464,1.0,-0.046951428571555986,-0.061707591836902165,-0.1310374882291434,2.2839999999998604
-0.5992528225964922,-0.5373598692326842,-0.12765622612176938,-2.655537172622954,-0.06544185490903023,2.125754498643951,0.7397408355836542,-0.20414029852998467,0.01331658687252325,0.04563731209965428,0.0073373974184500704,0.0244601627514011,5.0041289755497174e-06,-0.10330773990510195,0.8084636203065412,-0.5885022491431906,0.005694233526531876,0.0,-0.5884447615026076,-0.8084734372528417,-0.009176645243386933,0.0,0.010004305530920687,0.004068320274049353,-0.9999416796198625,0.0,0.2760108216506497,-0.24590604513051628,0.3059667380855837,1.0,-0.031408571428700516,-0.04127983673486357,-0.061281308572008086,2.3009999999998585
-0.6018969173540767,-0.5371497847988846,-0.12693327957704953,-2.6553655154952827,-0.0650020631020124,2.125800182995151,0.7381738948355467,-0.1413629045092737,0.014799342826776687,0.042034819756830516,0.016489728949558972,0.029820479131093924,0.0033657772824032626,-0.10212184562443563,0.8080528261895541,-0.5890657168636672,0.005740923634452946,0.0,-0.5890083088712792,-0.808063256273808,-0.00915056511776017,0.0,0.010029506745960592,0.004012765541520746,-0.999941651651306,0.0,0.27558733711154626,-0.2464716096838909,0.3059904945647104,1.0,-0.019910000000002873,-0.026167428571432352,-0.009955000000001437,2.3169999999998567
-0.6039713532024628,-0.5369530447484949,-0.1263938423689594,-2.655202361612494,-0.06465160990637075,2.1258744609893743,0.7364932048911781,-0.1084701042698257,0.008370781136108285,0.02846672978556753,0.008104257100788366,0.0172551515690057,-0.0008531296588881576,-0.08939028580334424,0.807979058727756,-0.5891661563379061,0.0058161658019176355,0.0,-0.5891085426930562,-0.8079902895700498,-0.009141323086898908,0.0,0.010085357851821186,0.003959720900547636,-0.9999413013609301,0.0,0.2752614322944096,-0.24693207294029268,0.3060131627037911,1.0,-0.01957000000000291,-0.02572057142857526,-0.009785000000001456,2.333999999999855
-0.6057603639163249,-0.5367107316796433,-0.12594769243716725,-2.6550044139484887,-0.06444074037747825,2.125917671518149,0.7349621572259921,-0.0931708786000884,0.013371337481283087,0.02083146418351489,0.01026741397379552,0.010766142542010207,0.0008860837304979002,-0.08264562976374566,0.8079804170497831,-0.589164042909483,0.005841498764839799,0.0,-0.5891071566927073,-0.8079922246029346,-0.009059239252975313,0.0,0.010057457243203283,0.003878493854619358,-0.9999419007318477,0.0,0.2749768895092573,-0.24735268225309454,0.30602981707247146,1.0,-0.01921000000000295,-0.025247428571432452,-0.009605000000001475,2.351999999999853
-0.6072307485434025,-0.5365043775551465,-0.12573441482456632,-2.6548622294698014,-0.06428976511545069,2.1259494899879514,0.7336415939178516,-0.08676858257054583,0.020846594826978402,0.007163898539821137,0.010260414714123714,0.007968305168929163,0.00029726147895267933,-0.07599285235163611,0.8079481552833743,-0.5892084107302573,0.0058287219976051845,0.0,-0.5891516411056932,-0.8079598631616005,-0.00905263517240244,0.0,0.010043455578086669,0.003880133462150992,-0.9999420351022188,0.0,0.2747036169214075,-0.24772926773523482,0.30602740078614993,1.0,-0.018890000000002988,-0.024826857142861074,-0.009445000000001494,2.367999999999851
-0.6087586327380321,-0.5362741883099108,-0.1255889465035907,-2.654733211629368,-0.06420156644459718,2.125949115338968,0.7323672249229591,-0.08906496531007715,0.011414779996369117,0.004131172911682629,0.00894678509883834,0.0049643845652878535,0.0068125175218556695,-0.07624210996309962,0.8078408548259426,-0.5893563575224118,0.0057431718774525065,0.0,-0.5893001504526203,-0.8078518057867269,-0.009029920534067766,0.0,0.00996166463973197,0.003910361958378794,-0.9999427355138694,0.0,0.27438752281844686,-0.24813510964053118,0.30600561602730697,1.0,-0.018550000000003022,-0.024380000000003975,-0.009275000000001511,2.3849999999998492
-0.6102989470486693,-0.5360947919974794,-0.12555906635887015,-2.6545985525295395,-0.0641560227227806,2.1259485182620472,0.7309997724682619,-0.08676775062834816,0.014686028344750036,0.0008629852200854186,0.004407956727794908,0.0020736117281291346,9.715380750252361e-05,-0.08007441443735602,0.8077351005600097,-0.5895015959563719,0.005711618808106506,0.0,-0.5894455117429098,-0.8077457465918667,-0.00903019657011983,0.0,0.009937042407146823,0.003927394277927487,-0.9999429137517721,0.0,0.2740428162021629,-0.24857639917978844,0.3060022159132392,1.0,-0.018190000000003065,-0.023906857142861174,-0.009095000000001532,2.4029999999998473
-0.6117266787400247,-0.5359558379472067,-0.1255668350897489,-2.654447655490213,-0.06409910928517187,2.1259922774973474,0.7296729928318137,-0.08154545562071565,0.009361800084798044,0.00015957167946562003,0.005731703337409963,0.0037930583778736267,0.006744280282947881,-0.07479733722893685,0.8076477238717732,-0.5896206277332579,0.005780690044555057,0.0,-0.589564011636414,-0.8076589638095735,-0.009056559083494098,0.0,0.010008952886761513,0.003906497729386449,-0.9999422784029091,0.0,0.2737305497139934,-0.24900423005561115,0.3060241640781072,1.0,-0.0178500000000031,-0.02346000000000408,-0.00892500000000155,2.4199999999998454
-0.6129811588011055,-0.5357985376016864,-0.12558564011356133,-2.654313565902419,-0.06406550445196019,2.126039953154367,0.7286291421843529,-0.0851770817689144,0.00956970393908559,-0.0009599676800585375,0.0074678828891315795,0.0010583960803105105,0.0021081377662507243,-0.07933484814574455,0.8074896619324816,-0.5898367192736691,0.005816989758443919,0.0,-0.589779836764498,-0.807501231339302,-0.009069312695090445,0.0,0.010046833471447969,0.0038927079186129032,-0.9999419522963606,0.0,0.2734345609380223,-0.2494103084273669,0.30603288764859776,1.0,-0.017530000000003137,-0.023039428571432697,-0.008765000000001568,2.4359999999998436
-0.6143011086518442,-0.5356819771367042,-0.12561814578717356,-2.654150705007277,-0.06402666435447311,2.126066349277843,0.7274587630048309,-0.08159642490105787,0.004594120083119373,-0.001750090705690471,0.008755320237560354,0.005757369617559238,0.0012591358591401963,-0.07313185671949543,0.8073745448852712,-0.5899934712435724,0.005898733971748756,0.0,-0.589936007935344,-0.807386847764348,-0.009095685772268556,0.0,0.010129150466907044,0.003863823980223391,-0.9999412338608048,0.0,0.27316012697802133,-0.2497912737918617,0.3060652089058724,1.0,-0.01723000000000317,-0.022645142857147027,-0.008615000000001585,2.450999999999842
-0.6156697209894242,-0.5354764257272848,-0.12560662675242046,-2.6540105385852644,-0.0639890149666864,2.126094789587797,0.7262939027615795,-0.08542266514677525,0.009183241693330707,0.0017913996727315236,0.010297269504141488,0.0005441334530919784,-0.0006017491368507277,-0.0644408593425243,0.8072431781840486,-0.590173451505623,0.005873271189406129,0.0,-0.5901160744696685,-0.8072552304375935,-0.009097169057711612,0.0,0.010110331204351786,0.0038777905835217785,-0.9999413702528407,0.0,0.2728566783424232,-0.25019379905373834,0.30605683516108473,1.0,-0.016890000000003208,-0.022198285714289934,-0.008445000000001604,2.46799999999984
-0.6169209708439741,-0.5353078362845306,-0.12557037909730528,-2.6538778753602403,-0.06394636885186306,2.126103746629992,0.7251762449760826,-0.07125139034326579,0.005775629778024604,0.0024259739213074918,0.005248567783088081,0.0038774006161506275,0.0008295385110380745,-0.0673359871439992,0.807164568370333,-0.5902811126341689,0.005857861052432609,0.0,-0.5902238386297016,-0.8071764885640835,-0.009093048101952486,0.0,0.0100959766444913,0.0038822117544634605,-0.9999414981325094,0.0,0.27258351141690335,-0.2505540373123912,0.3060574443943934,1.0,-0.016550000000003243,-0.02175142857143284,-0.008275000000001621,2.4849999999998382
-0.6180519297233916,-0.5351074155976454,-0.12550102136226393,-2.6537563326973514,-0.06390497590439169,2.1261309804430355,0.7240522019980355,-0.07258964801909075,0.009373856773478085,0.0044784897439529535,0.010836685628390777,0.0029121394079748724,0.004240999514538147,-0.07198857829407265,0.8071784237822401,-0.5902625597948857,0.005818039705603444,0.0,-0.5902056673765068,-0.8071900291250474,-0.009070500480466174,0.0,0.010050433973635586,0.0038877471246494544,-0.99994193541387,0.0,0.2723464592442851,-0.2508731697449525,0.3060436693729146,1.0,-0.01623000000000328,-0.021330857142861457,-0.00811500000000164,2.5009999999998365
-0.619399395604158,-0.5348988067954183,-0.125395554888504,-2.6536237148880413,-0.06386593619706091,2.1261691707366186,0.7228129136711393,-0.07382767175782684,0.008315939955710101,0.0017091195873944497,0.012157616506059538,0.0013330839036325513,0.000598110210085176,-0.06600840252584961,0.8071511023343515,-0.5903001653338573,0.005793074181311192,0.0,-0.5902438249427188,-0.8071626357687014,-0.009025155794777915,0.0,0.010003696585370703,0.0038654126067110828,-0.9999424906663419,0.0,0.2720661518987346,-0.251247280192331,0.3060337814112983,1.0,-0.01585000000000332,-0.020831428571432938,-0.00792500000000166,2.5199999999998344
-0.6205623029934672,-0.534734124231312,-0.12534455077148463,-2.653505623830307,-0.06382629800437155,2.1261924771403553,0.7217470396443111,-0.06855793386586825,0.01278417622257684,0.00024647158381545123,0.00801405636276901,0.0046132319732854,0.001102966452174573,-0.06805485769366953,0.80710298585257,-0.5903660723103719,0.00578081256392665,0.0,-0.5903099116371644,-0.8071144521123963,-0.00901200951163022,0.0,0.009986354292568722,0.0038612231720770995,-0.9999426801989995,0.0,0.27181563436500017,-0.25157804636800574,0.30603074096643057,1.0,-0.015510000000003358,-0.020384571428575846,-0.007755000000001679,2.5369999999998325
-0.6217411092900935,-0.5345357295788471,-0.12533972708836386,-2.653387439711383,-0.0637855586115433,2.1262212366118978,0.7206327683251833,-0.07133392106255665,0.011039146613297465,0.001539413410832393,0.009517624415811868,0.0034118211746082512,-0.0003450880543947939,-0.059772057090790615,0.8070502686147369,-0.5904385287193025,0.0057406126741630596,0.0,-0.5903824212782249,-0.8070612986878251,-0.009022400300929398,0.0,0.00996039084766015,0.0038924487179216594,-0.9999428180936849,0.0,0.2715513261598427,-0.2519232770727552,0.3060147368045096,1.0,-0.015170000000003396,-0.019937714285718753,-0.007585000000001698,2.5539999999998306
-0.6227743144221956,-0.5344002297735644,-0.1253552170484874,-2.653255700227329,-0.06374747981605218,2.1262456880347607,0.7197162646676262,-0.0694501716213793,0.009195165828912836,-0.006994230992294331,0.008789410653016317,-4.036726175619869e-05,0.0005055335409186963,-0.06281994751580484,0.8069564023692446,-0.5905665187946993,0.005770481366780664,0.0,-0.5905101052768669,-0.8069676647002375,-0.009041603583289723,0.0,0.009996452687943524,0.003888727209873599,-0.9999424727124779,0.0,0.2713227008428608,-0.2522373032301087,0.30602717972848026,1.0,-0.014870000000003429,-0.019543428571433083,-0.0074350000000017145,2.568999999999829
-0.6240217395310244,-0.5341880811328521,-0.12535564281183517,-2.653123184231367,-0.06371253356947748,2.1262864788010587,0.7186829281115374,-0.06573473018562423,0.012515232550512822,0.0008275493222579418,0.009207421163737746,0.0003570056202985342,0.00017702287024202784,-0.06233979937637435,0.8068138037917177,-0.590761597367941,0.0057417756509979614,0.0,-0.5907052349095584,-0.8068247682508509,-0.009047965993112455,0.0,0.009977989759209327,0.003908402173613601,-0.9999425804079024,0.0,0.2710436177825672,-0.2526073703274302,0.3060136093699213,1.0,-0.01451000000000346,-0.019070285714290265,-0.00725500000000173,2.5869999999998274
-0.6250747722345236,-0.5340555650352373,-0.12536075318719678,-2.653022883829045,-0.06368101288729229,2.1263022509275222,0.7176962773643175,-0.0643001754754243,0.008229478543790318,0.0032161184211942475,0.0024223549046145797,0.0017075237925230316,-0.00020916787456268736,-0.0603200036814674,0.8067583454850674,-0.5908373946490391,0.0057351526345050365,0.0,-0.5907809428305423,-0.8067692035228842,-0.009059621212561226,0.0,0.0099798996607528,0.003920781626673309,-0.9999425128847145,0.0,0.27080214220000404,-0.2529156938905001,0.3060121910160385,1.0,-0.014190000000003495,-0.018649714285718884,-0.0070950000000017475,2.6029999999998257
-0.626158723094598,-0.5338962137101307,-0.12535773165392108,-2.6528984763246055,-0.06363751195557883,2.1263194561071828,0.7167395181990857,-0.06293157810093117,0.007230519305067337,0.0011659569270246614,0.010411811694374136,0.0033406775242657166,0.0012319581144120864,-0.05845208717280643,0.8066664583214704,-0.5909629158220533,0.005727481418630638,0.0,-0.5909063442246041,-0.8066771889161715,-0.009074807911203428,0.0,0.00998329576345991,0.003936013831443985,-0.9999424191426314,0.0,0.2705604885138064,-0.25323493832820054,0.3060122859072141,1.0,-0.013850000000003533,-0.018202857142861788,-0.0069250000000017665,2.619999999999824
-0.627259957501028,-0.5337284235392787,-0.12534449410218254,-2.6527536282737825,-0.06359784108244548,2.1263530466515195,0.7157662488603888,-0.05947404641142047,0.012576294444581923,0.0013781244836259365,0.01195500660788508,0.0007281409922454524,0.00023131948560403172,-0.052905655384748396,0.806579526741136,-0.5910813601550352,0.005748010136274766,0.0,-0.5910246756853741,-0.8065904575159991,-0.00907818684198207,0.0,0.010002429729692508,0.003925139391141974,-0.9999422706737937,0.0,0.27032310052433145,-0.253563966483985,0.3060203351991266,1.0,-0.013490000000003572,-0.017729714285718984,-0.006745000000001786,2.637999999999822
