nelsonifechukwu/NELSON_IML_WORK/CNN-GradCAM/train2dof/data_sample_2022-02-21-10-41-17/robot_state.csv
position_joint1,position_joint2,position_joint3,position_joint4,position_joint5,position_joint6,position_joint7,velocity_joint1,velocity_joint2,velocity_joint3,velocity_joint4,velocity_joint5,velocity_joint6,velocity_joint7,ee_T_00,ee_T_10,ee_T_20,ee_T_30,ee_T_01,ee_T_11,ee_T_21,ee_T_31,ee_T_02,ee_T_12,ee_T_22,ee_T_32,ee_T_03,ee_T_13,ee_T_23,ee_T_33,v_x,v_y,time
0.465079029398,0.547687661488,-0.123969091906,-1.3557517245,0.0794822908358,1.8940923322,0.159169339086,-0.00290037489783,0.000305606864208,6.75454696809e-05,0.00091825553792,-0.000320875689957,-4.52383690339e-06,0.000726218117394,0.573786754416,0.818990338119,0.00208168825858,0.0,0.818949045276,-0.573727789448,-0.0118165882536,0.0,-0.00848351254025,0.00848516179991,-0.999928013431,0.0,0.661691704356,0.260912736521,0.303317928827,1.0,0.0,0.0,0.0
0.465081838941,0.547688815228,-0.123972907467,-1.35575564424,0.0794799434702,1.8940923322,0.159175606613,-0.000433535278696,0.00121607002495,-0.00108707108125,-0.00195415457482,-0.000102266333935,0.00923943011853,0.000920273754735,0.57379184684,0.818986786965,0.00207513299992,0.0,0.818945445524,-0.573732943875,-0.0118158059071,0.0,-0.00848658014322,0.00847939706713,-0.999928036302,0.0,0.66169104991,0.260911525575,0.303315367697,1.0,-0.0001,-0.000131428571429,0.006
0.465079028098,0.547690505881,-0.123970065625,-1.35575500311,0.0794790263292,1.8940923322,0.15918033122,0.000169018384661,0.000475851428063,0.00060459570691,-0.000709014638787,-0.000339429259573,0.00039740656722,0.00626829203519,0.573795757594,0.818984049108,0.00207431316714,0.0,0.818942692102,-0.573736852503,-0.0118168538136,0.0,-0.00848786829412,0.00847936744981,-0.99992802562,0.0,0.661691284241,0.260911215358,0.303314379398,1.0,-0.00032,-0.000420571428571,0.017
0.465071224581,0.547679478678,-0.123972571256,-1.35576442454,0.0794795845443,1.89409318447,0.159167728414,-0.00131361960054,-0.000463696937425,-0.000538727285354,0.000363004695755,-4.14830106206e-05,-0.000495920355653,-0.00206306383728,0.573794226636,0.818985115446,0.00207679043459,0.0,0.818943789232,-0.573735310485,-0.0118156879668,0.0,-0.00848550794106,0.00848071144699,-0.999928034255,0.0,0.661692166337,0.260903777009,0.303317864922,1.0,-0.00068,-0.000893714285714,0.035
0.465077545587,0.547631802201,-0.123968351036,-1.35581007325,0.0794789737019,1.89410016645,0.159170010884,0.00124049619146,-0.00654005813927,-0.000123754649309,-0.00496269769877,0.000211333589471,-0.000318894307992,0.00107073581701,0.573797440699,0.818982834964,0.00208805710044,0.0,0.818941605217,-0.573738429451,-0.0118156132759,0.0,-0.00847894910218,0.00848992894907,-0.999928011673,0.0,0.661681404632,0.260903192632,0.303332670527,1.0,-0.00104,-0.00136685714286,0.053
0.46507442336,0.547508062861,-0.123971042243,-1.35594658484,0.0794773306527,1.89412683709,0.159166942827,-0.00014724687682,-0.0112186461829,-0.000133351171336,-0.0062188695109,6.85635348428e-05,-0.000428492099708,-0.00168550529388,0.573799169185,0.818981582886,0.00210410007324,0.0,0.818940483811,-0.57374001611,-0.0118162934697,0.0,-0.00847028339892,0.00850347582597,-0.999927970005,0.0,0.661660590609,0.260889330208,0.303355460608,1.0,-0.00134,-0.00176114285714,0.068
0.465064788341,0.547369905762,-0.12396791301,-1.35614132323,0.0794764678574,1.89417481979,0.159167330154,0.000524157418805,-0.0123615730185,8.36097880478e-05,-0.0136303857217,0.000227489682417,0.0064275114762,0.00128325884856,0.573815679235,0.818970014148,0.00210454069487,0.0,0.818928776808,-0.573756377853,-0.0118331859347,0.0,-0.0084836941436,0.00851370047673,-0.99992776931,0.0,0.661631004524,0.260866581355,0.303364698463,1.0,-0.00168,-0.002208,0.085
0.465040392444,0.547190114756,-0.123970513611,-1.3563546233,0.0794703778371,1.89430076444,0.159149415886,-0.00408607622338,-0.0153219059312,0.000408496497042,-0.011632774842,-0.000610310037622,0.0141978298099,-0.00121233929707,0.57383337615,0.818957402581,0.00218542310501,0.0,0.818917234781,-0.573773773177,-0.0117884135368,0.0,-0.00840043180402,0.00855443048453,-0.999928124649,0.0,0.661619273307,0.260833559316,0.303401541994,1.0,-0.00204,-0.00268114285714,0.103
0.465023956543,0.547005112096,-0.123970523375,-1.35656499221,0.0794694291089,1.89441629803,0.159140425979,-0.00356792915784,-0.0215773646302,-0.000486458059576,-0.01578163594,4.73913688363e-05,0.00520190589286,-0.00026834743256,0.573851164092,0.818944713302,0.00226824314546,0.0,0.818905571926,-0.573791190643,-0.0117507748865,0.0,-0.00832189725768,0.00860083839067,-0.999928383238,0.0,0.661603305317,0.260807843616,0.303442485334,1.0,-0.00236,-0.00310171428571,0.119
0.464991352403,0.546798718111,-0.123969697174,-1.35685699004,0.079463769434,1.89454800637,0.159118871604,-0.00216945126754,-0.0153949163633,-0.000475864627746,-0.0155021447676,7.78226638661e-05,0.00298430327812,-0.00374802064677,0.573874601731,0.818928162843,0.00231354554089,0.0,0.818889533923,-0.573814375995,-0.0117362700273,0.0,-0.00828377584954,0.00862985166879,-0.999928449799,0.0,0.661576681719,0.260762834139,0.303461085022,1.0,-0.0027,-0.00354857142857,0.136
0.464953065723,0.546524200555,-0.123970675478,-1.35726322142,0.079455745623,1.89468931272,0.159023430331,0.00142815193404,-0.0132220985242,-0.000354187610227,-0.023405578337,-4.60054408254e-06,0.0146910042118,-0.00568646502392,0.573848999833,0.818946051745,0.00233165658219,0.0,0.818907501668,-0.573788546282,-0.011745414787,0.0,-0.00828114266283,0.00864967212759,-0.999928300354,0.0,0.661529569991,0.260700618661,0.303474432367,1.0,-0.00306,-0.00402171428571,0.154
0.464915063482,0.5462554126,-0.123971552896,-1.35766863317,0.0794418488292,1.89483559649,0.158946952944,-0.00169817550819,-0.0175089910901,-0.00167178397819,-0.0280074067867,-0.00167156845852,0.00349914808328,-0.00280066141097,0.573837057745,0.818954378685,0.00234599500904,0.0,0.818915918214,-0.573776450879,-0.0117494771874,0.0,-0.00827636844553,0.00866362487782,-0.999928219088,0.0,0.661483691176,0.260638059816,0.30348451407,1.0,-0.00338,-0.00444228571429,0.17
0.464871102002,0.545961818403,-0.123968719197,-1.35816193874,0.0794258232325,1.89501290089,0.158925101194,-0.00172648317166,-0.0159788322266,0.00116583483529,-0.0283017356748,-6.65997220177e-05,0.0191763087735,0.000663691640983,0.573876529857,0.818926753522,0.00233404073648,0.0,0.818887994483,-0.57381581334,-0.0117733493024,0.0,-0.00830236108487,0.00866793366475,-0.999927966269,0.0,0.66142526586,0.260565359673,0.303472875615,1.0,-0.00372,-0.00488914285714,0.187
0.464816417474,0.545602657253,-0.123966220474,-1.35875688558,0.079371349154,1.89520665469,0.158830422853,-0.00191969103836,-0.0255635381593,0.00186160124436,-0.0356020508397,0.000159217965354,0.0108488130201,-0.00358329630203,0.573860688041,0.818937981828,0.00228900458862,0.0,0.818898743959,-0.57380025547,-0.0117839240685,0.0,-0.00833703209062,0.00863696004453,-0.999927945813,0.0,0.661353485229,0.260469058985,0.303460625916,1.0,-0.00408,-0.00536228571429,0.205
0.464758171796,0.545288691294,-0.123973968797,-1.35931683976,0.0792720468382,1.89539500855,0.158749358988,-0.000594433633868,-0.0170970481196,-0.000689556557905,-0.0399454031124,-0.00433147498298,0.0166948277539,-0.00720334705753,0.573852273155,0.818944119105,0.00220119952894,0.0,0.818904323247,-0.573792777355,-0.0117603114029,0.0,-0.0083681665842,0.00855141788346,-0.999928420958,0.0,0.661293200433,0.260360407766,0.303432798609,1.0,-0.00438,-0.00575657142857,0.22
0.464697618277,0.544851889313,-0.123974670647,-1.36005342988,0.0792667983046,1.89563345416,0.158691250959,-0.00138537152312,-0.0237612458138,-0.000605873113736,-0.0391047445652,0.000204373629379,0.00954258450459,-0.00515905774551,0.573894321671,0.818914736248,0.00217007163326,0.0,0.818874140041,-0.573834538486,-0.0118242173141,0.0,-0.00843792620521,0.00856303158219,-0.999927735335,0.0,0.661199198347,0.260253592286,0.303412113335,1.0,-0.00474,-0.00622971428571,0.238
0.464640876815,0.544504725988,-0.123974916325,-1.36065002183,0.0792484100994,1.89584162464,0.158584231261,-0.00721542549754,-0.0249895243563,-0.000219611364285,-0.0456196446116,-0.00164412553022,0.0165429840881,-0.00523913242304,0.573881693192,0.818923654241,0.00214421184189,0.0,0.818882537476,-0.573821827582,-0.0118594649716,0.0,-0.00848176413427,0.00856195231633,-0.999927373688,0.0,0.6611285407,0.260160825509,0.303391916725,1.0,-0.00502,-0.00659771428571,0.252
0.464573610995,0.544036424748,-0.123980352289,-1.36142485895,0.0792182148111,1.89611882721,0.158508996365,-0.00509721976338,-0.030734579206,-3.63769260609e-05,-0.0473427524963,-0.00116739504038,0.0249723681178,-0.00256747757907,0.573914122605,0.818900975031,0.00212599836148,0.0,0.818859479733,-0.573854183469,-0.0118859357106,0.0,-0.00851355520114,0.00856256513282,-0.999927098271,0.0,0.661038358571,0.260041306737,0.303378719867,1.0,-0.00536,-0.00704457142857,0.269
0.464503207062,0.543527256088,-0.123979694471,-1.3622579896,0.0791759649662,1.89640459025,0.158399488792,-0.00250679620322,-0.0267013089693,0.000635520534081,-0.048388187046,-0.000853669440312,0.00826084996419,-0.000307156639374,0.57391669009,0.818899247935,0.00209796773483,0.0,0.818857270485,-0.573856746862,-0.0119143424564,0.0,-0.00855287780727,0.00855594084847,-0.999926819401,0.0,0.66093752468,0.259915495694,0.303367162609,1.0,-0.0057,-0.00749142857143,0.286
0.464426205875,0.542982723511,-0.123989203973,-1.36312124476,0.0791204892872,1.89670438133,0.158311076083,-0.00452007931999,-0.0323537569641,-0.000355093111326,-0.0510347993677,-0.00333719899561,0.0122592752339,-0.00352643777257,0.573947145561,0.818877954664,0.00207758725288,0.0,0.818835756623,-0.573887326734,-0.0119200163797,0.0,-0.00856890261587,0.00854282658221,-0.999926794331,0.0,0.660838145611,0.259775143262,0.303367752162,1.0,-0.00604,-0.00793828571429,0.303
0.464348834243,0.54233266096,-0.123994932341,-1.36412733082,0.0790658967422,1.89707157358,0.158160267813,0.000738645281792,-0.0354172837872,-0.00203975096417,-0.0493772900215,-0.00226972073251,0.0206503353968,-0.00505705038619,0.573932362865,0.818888285828,0.00208928005923,0.0,0.818846195795,-0.573872453774,-0.0119189484156,0.0,-0.00856147179761,0.00855163390097,-0.999926782699,0.0,0.66072111739,0.25962589425,0.30338065688,1.0,-0.00642,-0.00843771428571,0.322
0.464272475684,0.541793558148,-0.123993020765,-1.36497222148,0.0790201772856,1.89738667209,0.158036095356,-0.010446612403,-0.0338151460527,-0.0047279597508,-0.0515102536329,-0.00546564450632,0.0224615758795,-0.0063834695776,0.573926624401,0.818892279606,0.00210026332382,0.0,0.818850269792,-0.573866608261,-0.01192050692,0.0,-0.00855650483488,0.00856146232176,-0.999926741111,0.0,0.660625275245,0.259497326295,0.303386973932,1.0,-0.00672,-0.008832,0.337
0.464186584243,0.541102846103,-0.123995606789,-1.36603168306,0.0789551629633,1.89778249457,0.157903414103,-0.00446177614861,-0.0401921102341,-0.000704231009377,-0.0648219806912,-0.00270349072748,0.0255000694285,-0.00615659936131,0.573931554475,0.818888768769,0.00212180640992,0.0,0.818847059438,-0.573871469864,-0.0119069822783,0.0,-0.00853301418135,0.00857139281341,-0.999926856772,0.0,0.660504456706,0.259338740509,0.303405401038,1.0,-0.00708,-0.00930514285714,0.355
0.464095653057,0.540403975156,-0.123993515552,-1.36709517566,0.0788850334232,1.89816803928,0.157779552291,-0.004553501816,-0.0403088611753,-0.000305461317799,-0.0579402237416,-0.0070212139804,0.0209634259695,-0.00976873915748,0.573943231292,0.818880544937,0.00213711916605,0.0,0.818839060235,-0.573883108577,-0.0118961348159,0.0,-0.00851522071466,0.00857782785543,-0.999926953275,0.0,0.660381193532,0.259177653267,0.303426511617,1.0,-0.00742,-0.009752,0.372
0.464011487721,0.539716568084,-0.124001936766,-1.36813757713,0.0788269133215,1.89857065291,0.157641953869,-0.00626311274718,-0.0453936065295,-9.03197590877e-05,-0.0617909114583,-0.00989614026625,0.022625993473,-0.00459269880174,0.573947634142,0.818877351982,0.0021777455393,0.0,0.818836410878,-0.573887362635,-0.0118732526677,0.0,-0.00847312019371,0.0085980081577,-0.99992713759,0.0,0.660265701207,0.259020397854,0.303451300629,1.0,-0.00774,-0.0101725714286,0.388
0.463907402086,0.538970438877,-0.123999658992,-1.36929940713,0.0787661124539,1.89901493311,0.157507566661,-0.00836837705616,-0.044058505648,0.000948398452985,-0.0673240087831,-0.000476336049236,0.021013456373,-0.00608878602182,0.573969296642,0.81886209109,0.00220662396114,0.0,0.818821442196,-0.573908822395,-0.0118682888135,0.0,-0.00845225356856,0.00861903033991,-0.999927133208,0.0,0.660135101973,0.25884518963,0.303463893515,1.0,-0.00808,-0.0106194285714,0.405
0.463796028168,0.538207448033,-0.124009887755,-1.37049575025,0.0786960816638,1.89947483187,0.157352886758,-0.00686040625451,-0.0404193962577,-0.000137590278953,-0.0691984394083,0.000486447250071,0.0283222681563,-0.00925025536538,0.57399253519,0.81884574012,0.00222942475499,0.0,0.818805411378,-0.573931991817,-0.0118538587881,0.0,-0.00842710583028,0.00862965765886,-0.999927253802,0.0,0.659998622658,0.258641889719,0.30347227192,1.0,-0.00844,-0.0110925714286,0.423
0.463697676204,0.537455889801,-0.124014004799,-1.37166751316,0.0786188112604,1.89992334601,0.157200952238,-0.00427414008311,-0.049097752497,0.000613074122897,-0.0690360852352,-0.0101209964637,0.0334423656702,-0.0172991101321,0.573991483366,0.81884643436,0.0022451859206,0.0,0.818806416951,-0.57393098732,-0.0118330154517,0.0,-0.00840100248358,0.00863058889645,-0.999927465416,0.0,0.659873592992,0.258475031312,0.303485589815,1.0,-0.00874,-0.0114868571429,0.438
0.463570102235,0.536572412691,-0.124010302707,-1.3730482356,0.0785467470477,1.9004313915,0.15703550155,-0.00526380660535,-0.0427370374698,0.00146748620983,-0.0745922193279,-0.00487147025886,0.0283376721338,-0.0121728237998,0.574014572918,0.81883020514,0.00226100188711,0.0,0.81879025842,-0.573953873298,-0.0118410702399,0.0,-0.0083982768758,0.00864839970456,-0.999927334424,0.0,0.659714200394,0.258263519768,0.303496052817,1.0,-0.0091,-0.01196,0.456
0.46346713807,0.535766922605,-0.124028981294,-1.3743300503,0.0784788669191,1.9009017671,0.156872317858,-0.000604242772847,-0.0502992612566,-0.00234885198577,-0.0807096038368,-0.0035741343857,0.0332945900191,-0.0125827216261,0.574030691155,0.818818919686,0.00225594260318,0.0,0.818778892092,-0.573969993814,-0.0118456307276,0.0,-0.00840474501077,0.0086470402613,-0.999927291835,0.0,0.659566400114,0.258064105291,0.303495852047,1.0,-0.00942,-0.0123805714286,0.472
0.463350385507,0.534920341215,-0.124025385788,-1.37564656051,0.0784015029001,1.90138545764,0.156725641279,-0.00767902655047,-0.0507529297724,-0.00016917116602,-0.0839375276267,3.96991522984e-05,0.0243596185267,-0.00813225997761,0.574055144716,0.818801739216,0.00226926931019,0.0,0.818761831793,-0.573994337365,-0.0118452679486,0.0,-0.00839653992319,0.0086579947969,-0.999927265977,0.0,0.659412979347,0.257864338855,0.303508388477,1.0,-0.00974,-0.0128011428571,0.488
0.463222810596,0.533971545034,-0.12403572989,-1.37720222468,0.0783152329436,1.90195256593,0.156532343546,-0.00588854676696,-0.0569329276879,-0.00136569772758,-0.0823062853941,-0.00368403315369,0.0292613553686,-0.00466568522365,0.574070763585,0.81879088127,0.00223563141831,0.0,0.818750480704,-0.574010029596,-0.0118694217325,0.0,-0.00843546183274,0.00864447872873,-0.999927055325,0.0,0.659229420275,0.257626528968,0.303486741772,1.0,-0.0101,-0.0132742857143,0.506
0.463100454303,0.533159859214,-0.124030874054,-1.37852119154,0.0782376340437,1.90244930828,0.156357073241,-0.00919940881336,-0.0526035409322,-0.000524066814552,-0.0846153608148,-0.00439686352376,0.0324651818922,-0.011123620637,0.574075465066,0.81878760748,0.00222736347275,0.0,0.818747048107,-0.57401471086,-0.0118798077841,0.0,-0.00844866265605,0.00864371986534,-0.999926950435,0.0,0.65907761815,0.257423933799,0.303474273864,1.0,-0.0104,-0.0136685714286,0.521
0.462974386379,0.532206184193,-0.124031135976,-1.38006652786,0.0781464065682,1.90303007767,0.156168703968,-0.00700607147972,-0.0553795401994,-1.23836780138e-05,-0.0951581553854,-0.00273488694741,0.0315562397467,-0.0163812380366,0.574084657957,0.818781189441,0.00221725431825,0.0,0.818740468859,-0.574023912595,-0.0118886215631,0.0,-0.00846158561705,0.00864059744203,-0.999926868148,0.0,0.658896127262,0.25719443084,0.303461457602,1.0,-0.01074,-0.0141154285714,0.538
0.462838954634,0.531167190565,-0.124033983076,-1.38175869064,0.0780504009289,1.90364302933,0.155953858738,-0.00357550216524,-0.0575845661307,-0.000563700249139,-0.102181007899,-0.00698880549345,0.0339779588968,-0.0147180971185,0.574088082564,0.818778876041,0.00218460713408,0.0,0.818737639642,-0.57402737558,-0.0119162250151,0.0,-0.00850289273168,0.00862974900821,-0.999926611431,0.0,0.658691880388,0.256942387789,0.303441558518,1.0,-0.0111,-0.0145885714286,0.556
0.462703683153,0.530187048032,-0.124036463578,-1.38329731548,0.0779549037724,1.90418254631,0.155753495182,-0.0108448021391,-0.0605212866828,-0.00230397452253,-0.0938406883001,-0.00834678006609,0.0348724372243,-0.0113539907175,0.574094345447,0.818774530888,0.00216725548826,0.0,0.818733038307,-0.574033677477,-0.0119287890498,0.0,-0.00852307511592,0.0086228200282,-0.999926499381,0.0,0.658506651664,0.25670326156,0.303446622953,1.0,-0.01142,-0.0150091428571,0.572
0.462554376203,0.529086232516,-0.124038725966,-1.38504770628,0.0778369020967,1.90482221943,0.155522858455,-0.00525802993798,-0.0668000148185,-0.000888255499494,-0.101311219859,-0.00167077561787,0.0329641407216,-0.0185266715655,0.574092555994,0.818775828519,0.00215097333584,0.0,0.81873420401,-0.574032035538,-0.0119277936241,0.0,-0.00853162576489,0.008608898719,-0.999926546415,0.0,0.658299433813,0.256434652476,0.303444327746,1.0,-0.01178,-0.0154822857143,0.59
0.462419157993,0.527991054945,-0.124037869759,-1.38675448621,0.0777400209693,1.90548736239,0.155275291929,-0.00625189331436,-0.0658011614776,0.000956637461975,-0.102695035285,-0.00596524405074,0.0388048328999,-0.0232244384432,0.574066585936,0.818793910045,0.00219879227687,0.0,0.818752870072,-0.574005836309,-0.0119073310803,0.0,-0.00848769398809,0.00863603465868,-0.999926686291,0.0,0.658101360622,0.25618737021,0.3034606847,1.0,-0.01212,-0.0159291428571,0.607
0.462284101068,0.526903986043,-0.124040639838,-1.38840610897,0.0776351096494,1.90611994949,0.155045695388,-0.00858939552148,-0.0720882276999,-0.000665551971533,-0.103871068089,-0.0067503917432,0.0375968558898,-0.0117633648509,0.574052221208,0.818803833828,0.00225298391445,0.0,0.818763568667,-0.573991328127,-0.0118710050103,0.0,-0.00842699343024,0.00865940466444,-0.999926997582,0.0,0.657910230616,0.255941062992,0.303494571709,1.0,-0.01244,-0.0163497142857,0.623
0.462132834469,0.525747660212,-0.124040795209,-1.3902274615,0.0775119096237,1.90678500396,0.154813189874,-0.0118852878379,-0.0688525108135,0.000597476867663,-0.109588916908,-0.00615774667295,0.0366656889001,-0.0182666889722,0.574050742208,0.818804891364,0.00224547315585,0.0,0.818764602829,-0.573989955363,-0.0118660523384,0.0,-0.00842726491032,0.00865039663548,-0.999927073263,0.0,0.657691631296,0.255665680202,0.303498861169,1.0,-0.01278,-0.0167965714286,0.64
0.461972427667,0.524572494672,-0.124043513963,-1.39206658193,0.0774043582066,1.90744053691,0.154550741067,-0.00965495182762,-0.0663308422721,0.00086318194068,-0.109188183141,-0.00115952869774,0.0382709275786,-0.017971924115,0.574038934814,0.818813182352,0.00224067524944,0.0,0.818772745115,-0.573978079955,-0.0118786568801,0.0,-0.00844046486966,0.00865358197562,-0.999926934367,0.0,0.657468931764,0.255382848802,0.303506920154,1.0,-0.01312,-0.0172434285714,0.657
0.461824328422,0.523444019989,-0.124046742224,-1.39387145575,0.0772888193389,1.90808801887,0.154314451847,-0.00697063030732,-0.0706729790076,0.000849355894668,-0.11069352958,-0.0070497626974,0.0398013497602,-0.0115069090107,0.574034621711,0.818816284977,0.00221165882691,0.0,0.818775477824,-0.573973890981,-0.0118926988945,0.0,-0.00846866415277,0.00863783922899,-0.999926832054,0.0,0.657248274788,0.255109475717,0.303497470478,1.0,-0.01344,-0.017664,0.673
0.461656086327,0.522226345482,-0.124052422711,-1.39581598577,0.0771689172803,1.90884973338,0.15404758277,-0.0124108641982,-0.070193451466,-0.000231339083,-0.115872433712,-0.00915204800293,0.0442606152337,-0.0172066638587,0.57403000928,0.818819452357,0.0022360207756,0.0,0.8187790329,-0.573969254309,-0.0118717013023,0.0,-0.00843753523043,0.00864568619319,-0.999927027392,0.0,0.657025245452,0.254813061916,0.30349394346,1.0,-0.01378,-0.0181108571429,0.69
0.461511649904,0.521135153106,-0.124055643602,-1.39758034906,0.0770638573223,1.90953079073,0.153808399658,-0.0101379430912,-0.0704237308723,0.00107508003926,-0.116418001887,-0.00974828027806,0.0438826783012,-0.017688949211,0.574020904175,0.818825823113,0.00224050747363,0.0,0.818785465314,-0.573960135935,-0.0118689110692,0.0,-0.00843277125853,0.00864766451218,-0.999927050473,0.0,0.656817198658,0.254550414746,0.303479942072,1.0,-0.01408,-0.0185051428571,0.705
0.461330753323,0.519765766944,-0.124063706626,-1.39974977799,0.076926827439,1.91031945377,0.153508285913,-0.00901899688728,-0.0754947263027,0.00109237028886,-0.117913095864,-0.0106513154002,0.0466201813194,-0.0155968397772,0.574007529151,0.818835239328,0.0022258062051,0.0,0.81879471566,-0.573946846907,-0.0118733918528,0.0,-0.00844501979897,0.00863806098832,-0.999927030109,0.0,0.656553832422,0.25421879826,0.30347764623,1.0,-0.01444,-0.0189782857143,0.723
0.461149666736,0.518339173845,-0.124077611775,-1.40194020816,0.0767824263856,1.91109887372,0.153230749245,-0.00567450012517,-0.0753898425974,-0.00111984214609,-0.119319563826,-0.0043949918085,0.0408519844261,-0.0142615650246,0.574015481148,0.818829650712,0.00223101279467,0.0,0.81878928564,-0.573954870276,-0.0118599961113,0.0,-0.00843097813657,0.00863471699171,-0.999927177484,0.0,0.656286113262,0.253880173599,0.303504403112,1.0,-0.0148,-0.0194514285714,0.741
0.460975343937,0.51705526475,-0.124080096285,-1.40397174142,0.07664530748,1.91182379875,0.152937960261,-0.0143394803054,-0.0821077056569,-0.000809501841716,-0.125167729248,-0.0145669690361,0.0538440445049,-0.0285976406441,0.573990587921,0.818847173285,0.00220424204588,0.0,0.818806514058,-0.573930141543,-0.0118672687096,0.0,-0.00845256122608,0.00861671418782,-0.999927150569,0.0,0.656035867391,0.253567170166,0.303501190987,1.0,-0.01512,-0.019872,0.757
0.460798599173,0.515705691897,-0.124078494047,-1.40611172176,0.0765171691118,1.91264037738,0.152646696595,-0.00635009219293,-0.0860692824791,0.000404998211957,-0.127098792841,-0.00943807830791,0.0455506062073,-0.0168549562592,0.573969883308,0.818861658026,0.00221471678049,0.0,0.818821116321,-0.573909378804,-0.0118638648816,0.0,-0.00844397990864,0.00862312403009,-0.999927167815,0.0,0.655761192383,0.253227539392,0.303492968589,1.0,-0.01548,-0.0203451428571,0.775
0.460601456282,0.514238708071,-0.124081691779,-1.40846434127,0.0763851732081,1.91349519289,0.152316918299,-0.00879900689604,-0.0758167487671,0.000546073977789,-0.136722706055,-0.00337297856662,0.0481933157208,-0.0175456105248,0.573956356996,0.818871165774,0.00220477409233,0.0,0.818830326103,-0.573895721834,-0.0118888357265,0.0,-0.00847027743094,0.00862917486987,-0.999926893198,0.0,0.655486813522,0.252896220512,0.303482759039,1.0,-0.01582,-0.020792,0.792
0.460418639459,0.512902443929,-0.124081955878,-1.41060099475,0.0762501692098,1.91424605071,0.15203036615,-0.0114805827576,-0.0868957458671,-0.000196211013817,-0.131668895343,-0.00836637705526,0.0494556156512,-0.0216832292743,0.573947069707,0.818877793255,0.0021605068292,0.0,0.818836318608,-0.573886554656,-0.0119185827635,0.0,-0.00852014097069,0.00860990287782,-0.999926635694,0.0,0.655217326291,0.252569442704,0.303467215041,1.0,-0.01614,-0.0212125714286,0.808
0.460227245257,0.511497929379,-0.124087623046,-1.41288557479,0.0761156865554,1.91508959055,0.15169848577,-0.00855107178748,-0.0886004455749,0.000140098453271,-0.13277993251,-0.0053608966472,0.0534511419296,-0.017761701191,0.573919494845,0.818897201511,0.00212924764378,0.0,0.818855245597,-0.57385903627,-0.0119432051983,0.0,-0.00855853409139,0.00859814943753,-0.999926408952,0.0,0.654935462483,0.252223608089,0.30343692073,1.0,-0.01648,-0.0216594285714,0.825
0.460025562334,0.510034185026,-0.124087703214,-1.41521161073,0.0759742795558,1.91596705971,0.151369598754,-0.0139534046275,-0.0856880091132,-0.00140851576168,-0.13955589178,-0.00867619398374,0.0488635952779,-0.0178681643028,0.573898741744,0.818911715524,0.0021408650114,0.0,0.818869882757,-0.573838209738,-0.0119403123643,0.0,-0.00854971614523,0.00860578581082,-0.999926418695,0.0,0.65465284797,0.251871396707,0.303430619921,1.0,-0.01682,-0.0221062857143,0.842
0.459827734142,0.508609732536,-0.124088226,-1.41745229797,0.075822349259,1.91677416815,0.151060337715,-0.0148846228884,-0.083929930851,0.0015947914891,-0.140373041883,-0.0136361705612,0.049172509254,-0.0186331897308,0.573883060223,0.818922745973,0.00212513974176,0.0,0.818880768538,-0.573822655224,-0.011941280161,0.0,-0.00855969741125,0.00859329991442,-0.999926440683,0.0,0.654374298314,0.251524749579,0.303430826673,1.0,-0.01714,-0.0225268571429,0.858
0.459614012316,0.507073516728,-0.12409188355,-1.41985277118,0.0756728150183,1.91763628318,0.150729186329,-0.0119253907186,-0.0937300284284,-0.000117187061659,-0.145696429506,-0.00755147372947,0.0485393601794,-0.015530628021,0.573873355266,0.818929555437,0.00212185024193,0.0,0.81888749289,-0.573812922607,-0.0119478340493,0.0,-0.00856705428008,0.00859426570515,-0.999926369378,0.0,0.654075112414,0.251152562663,0.303437542577,1.0,-0.01748,-0.0229737142857,0.875
0.459388622408,0.505481442661,-0.124105693682,-1.42230486835,0.0755180769527,1.91856420393,0.150383027141,-0.0144991109312,-0.0984350184718,-0.00150080032734,-0.144501467148,-0.0122134712389,0.0550229292286,-0.0297553621673,0.573869271717,0.818932282091,0.00217329922746,0.0,0.818890985522,-0.573808726203,-0.0119099313971,0.0,-0.0085065330143,0.00861460466108,-0.999926711056,0.0,0.653782674711,0.250765068893,0.303464177962,1.0,-0.01782,-0.0234205714286,0.892
0.459186743286,0.503946841566,-0.124114299969,-1.42463742481,0.0753686043275,1.91946536364,0.150072010866,-0.0144787957696,-0.0947141865901,-0.00215349884105,-0.145862078483,-0.00353998483521,0.0508443424824,-0.0160431657522,0.573865880374,0.818934439286,0.00225441692638,0.0,0.818894318828,-0.573805134567,-0.0118536507858,0.0,-0.00841392884614,0.00864870147141,-0.999927200232,0.0,0.653503709562,0.250408509136,0.303504467895,1.0,-0.01814,-0.0238411428571,0.908
0.458939831643,0.502165729742,-0.124118900569,-1.42726455341,0.0752035699527,1.9204411985,0.149696565281,-0.00908607459308,-0.104873835804,-0.000684781729868,-0.148969040396,-0.0182292571772,0.0465520133217,-0.023875468325,0.573853900126,0.818942525563,0.00236390244558,0.0,0.818903861412,-0.573792766441,-0.0117929574569,0.0,-0.00830152406983,0.00870341103898,-0.999927665051,0.0,0.653185502001,0.249995851584,0.303582346691,1.0,-0.0185,-0.0243142857143,0.926
0.458726416148,0.500555154119,-0.124111701672,-1.42970047078,0.0750519769224,1.92129986508,0.149355365954,-0.0119555202295,-0.103063646543,-0.0011429152777,-0.149254409826,-0.0132440938468,0.05695534878,-0.019563181286,0.573838852783,0.818952985137,0.0023929214388,0.0,0.818914606231,-0.573777514387,-0.0117889179407,0.0,-0.00828172447263,0.00872470544204,-0.99992764366,0.0,0.652854081243,0.249596671907,0.303621659025,1.0,-0.01884,-0.0247611428571,0.943
0.458476086902,0.498865324168,-0.124119587503,-1.43232765822,0.0748832825561,1.92225522729,0.148991347093,-0.0109039363265,-0.0968887452093,-0.000220064815215,-0.160716658379,-0.0021069397152,0.0520323155953,-0.0194573739807,0.573827804462,0.818960688398,0.00240594828147,0.0,0.818922485163,-0.573766425025,-0.0117813288605,0.0,-0.0082681520371,0.0087309073165,-0.999927701846,0.0,0.652547250907,0.249207104444,0.303632349549,1.0,-0.01916,-0.0251817142857,0.959
0.458216916246,0.497196812157,-0.124119557738,-1.43498309561,0.0747297513244,1.92321713379,0.148590553243,-0.0132226052405,-0.0989934399724,-0.000427189673467,-0.158810816741,-0.00700975144052,0.04832159136,-0.0190332848244,0.573805166224,0.81897659595,0.00239027225246,0.0,0.818938014198,-0.573743664821,-0.0118102870592,0.0,-0.00830110495291,0.00873445670635,-0.999927397826,0.0,0.652214296436,0.248785609862,0.303615100159,1.0,-0.0195,-0.0256285714286,0.976
0.457946031417,0.495524612622,-0.124120295651,-1.43767863299,0.0745579818576,1.92414868474,0.148203881803,-0.0188573339517,-0.0981845048831,-0.00123658079558,-0.159854959193,-0.00651839876524,0.0458040311358,-0.0167264828381,0.573800292319,0.818980240271,0.00231029908726,0.0,0.818940507273,-0.573738984752,-0.011864645963,0.0,-0.00839156351228,0.00870010233221,-0.999926942272,0.0,0.651868443972,0.248346593698,0.303578099908,1.0,-0.01984,-0.0260754285714,0.993
0.457685133718,0.493939165346,-0.124123919671,-1.44026189606,0.0743902082291,1.92507034545,0.147841773247,-0.0131006704484,-0.103311679226,-0.00142259702926,-0.163621822202,-0.00925574516273,0.0576342012841,-0.0211276051149,0.573804515197,0.818977478254,0.00223949832085,0.0,0.818936795464,-0.573743458656,-0.011904435543,0.0,-0.00846473006106,0.00866499327174,-0.999926630427,0.0,0.651542270187,0.247924636298,0.303532776573,1.0,-0.0211502857143,-0.0277975183673,1.009
0.457400959372,0.492045410248,-0.124140265763,-1.4432622138,0.0742049512186,1.92619447077,0.147411161444,-0.0153738166884,-0.11950404571,-0.00159617234681,-0.186226599297,-0.0113253677406,0.0700905577705,-0.0265932990634,0.573796931173,0.81898276559,0.00224907620279,0.0,0.818942236698,-0.573735867204,-0.011895988236,0.0,-0.00845239639414,0.00866791192325,-0.999926709463,0.0,0.651171641156,0.247445614828,0.303520784121,1.0,-0.0236371428571,-0.0310659591837,1.026
0.457066436974,0.489841573939,-0.124151898936,-1.44682214248,0.0739867725206,1.92745588157,0.14690263743,-0.0204642187657,-0.126820533498,-0.000665690150468,-0.207624116874,-0.0161752823377,0.0671003005597,-0.0302302970263,0.573781359662,0.818993895536,0.00216732119968,0.0,0.818952159175,-0.573720483498,-0.0119546936087,0.0,-0.00854754908875,0.00863447896971,-0.999926189865,0.0,0.650711714554,0.246878681792,0.303469075906,1.0,-0.0262702857143,-0.0345266612245,1.044
0.456717948929,0.487633258503,-0.124172400177,-1.45028747086,0.0737800335831,1.92872933415,0.146397185941,-0.0231335458756,-0.144637118825,0.000385355291648,-0.220916596411,-0.00400505740788,0.0889430816687,-0.0308544220059,0.573783964567,0.818992034393,0.00218094185181,0.0,0.818950411701,-0.573722967637,-0.01195518643,0.0,-0.00854011044801,0.00864594395562,-0.999926154357,0.0,0.6502800738,0.246311502131,0.303465576332,1.0,-0.0286108571429,-0.0376028408163,1.06
0.456302554404,0.485066432921,-0.124201483201,-1.45418966342,0.0735334486453,1.9302343618,0.145814102814,-0.0252042379048,-0.155836580152,-0.00144395607254,-0.237426020454,-0.00948438170595,0.0910453356365,-0.0400023308411,0.573793947677,0.818984672642,0.00231484072054,0.0,0.8189449981,-0.573732622449,-0.0118623322172,0.0,-0.00838713010875,0.00870242920975,-0.99992695922,0.0,0.649815546431,0.245658180055,0.303522023945,1.0,-0.0310977142857,-0.0408712816327,1.077
0.45585075188,0.482308341033,-0.12424799529,-1.45848476118,0.0732653006828,1.93169128985,0.145147324144,-0.0259223114523,-0.166181234537,-0.00224668956186,-0.260381860013,-0.0178925026956,0.0897847409924,-0.0476344413944,0.573789046798,0.818988307952,0.00224234582865,0.0,0.818947611737,-0.573727929087,-0.0119088000061,0.0,-0.00846683455096,0.00866966968307,-0.999926572074,0.0,0.649261039425,0.244921047098,0.303519067433,1.0,-0.0335845714286,-0.044139722449,1.094
0.455385970454,0.479503248792,-0.124289545521,-1.46285104294,0.0729970742707,1.93326156286,0.144504205468,-0.0283429464163,-0.182463015729,-0.00086083336862,-0.275969617996,-0.0166096214283,0.0980749271545,-0.0356338479823,0.573813412425,0.81897122947,0.00224497731254,0.0,0.818930559588,-0.573752272965,-0.0119085994584,0.0,-0.00846490247951,0.0086719615814,-0.999926568558,0.0,0.64871171688,0.244178467246,0.303522720408,1.0,-0.0359251428571,-0.0472159020408,1.11
0.454850804059,0.476327735944,-0.124310472249,-1.4676804573,0.0727006223906,1.93505805312,0.143816845476,-0.0364626137149,-0.198052618867,-0.00143818781039,-0.293545229049,-0.0145227753066,0.104111979545,-0.0380610666657,0.573857843147,0.818939758641,0.00236526452629,0.0,0.818900643928,-0.573796213184,-0.0118485446462,0.0,-0.00834622515511,0.00873646512275,-0.999927004687,0.0,0.648113616975,0.243363549562,0.303579276392,1.0,-0.038412,-0.0504843428571,1.127
0.454282337032,0.472969570143,-0.124328707198,-1.47285670068,0.0723901120247,1.93691612307,0.14306714827,-0.0304377396971,-0.198128723378,-0.00134094721342,-0.313618932017,-0.0226322567261,0.104402578273,-0.0483505478892,0.573887517838,0.818918845507,0.00240587712012,0.0,0.818880040638,-0.573825497516,-0.0118542965195,0.0,-0.00832731351119,0.00877332647289,-0.99992683962,0.0,0.647450663053,0.242492709488,0.303600048292,1.0,-0.0408988571429,-0.0537527836735,1.144
0.453717915921,0.469615001614,-0.124338378536,-1.47797839415,0.0720750672751,1.93876069936,0.142274846948,-0.0368437632359,-0.217845506929,0.000149467361051,-0.320663779925,-0.016792777312,0.120940229281,-0.0517248485592,0.573860118844,0.818937781841,0.0024940677369,0.0,0.818899980305,-0.573797611942,-0.0118266515464,0.0,-0.00825436059461,0.008829405676,-0.999926950895,0.0,0.646750587332,0.241576663848,0.303650170986,1.0,-0.0433857142857,-0.0570212244898,1.161
0.453057058266,0.465620809125,-0.124348901882,-1.48401371754,0.0716729063471,1.94100544831,0.141305891333,-0.0409328149257,-0.224700356389,-0.000309774279755,-0.347369457388,-0.0283782646383,0.12388320143,-0.0562413358503,0.57379786239,0.818980952342,0.00263812791535,0.0,0.818945159719,-0.573734979144,-0.0117365233355,0.0,-0.00809855871637,0.00889504534599,-0.99992764314,0.0,0.646023596427,0.240628683958,0.303718324969,1.0,-0.0458725714286,-0.0602896653061,1.178
0.45238364867,0.461675855777,-0.124359236015,-1.49015885189,0.0712609849048,1.94310092648,0.140396623136,-0.0414353831945,-0.232279145152,-0.00428377655191,-0.371014411484,-0.0214007682077,0.1240723815,-0.0595707815535,0.573786642456,0.81898911821,0.00254167159353,0.0,0.818951909782,-0.573723937993,-0.0118050556471,0.0,-0.00821015234994,0.0088552605405,-0.999927086221,0.0,0.645194304117,0.239590792214,0.303694019786,1.0,-0.0483594285714,-0.0635581061224,1.195
0.451712606699,0.457796537265,-0.124359981794,-1.4961129268,0.0708541542982,1.9452065922,0.13949809663,-0.0432630298817,-0.245820086196,0.000355450565709,-0.376391209038,-0.020227717141,0.132221261331,-0.0556513863335,0.573765090654,0.819004170131,0.00255674721587,0.0,0.81896715588,-0.573702330754,-0.0117974649508,0.0,-0.00819551894388,0.00886303618356,-0.999927137375,0.0,0.644403830913,0.238584090741,0.303712253266,1.0,-0.0507,-0.0666342857143,1.211
0.450941288077,0.453582841969,-0.124372742726,-1.50276506687,0.0704164038657,1.94756145992,0.138445948363,-0.0489754947862,-0.252891164629,0.00100681823754,-0.395762198869,-0.0283973085377,0.139436925437,-0.0606521959319,0.573730108776,0.819028917491,0.00247820455395,0.0,0.818990729233,-0.573667486406,-0.0118552676719,0.0,-0.00828830124614,0.00883152059997,-0.999926651463,0.0,0.64351743412,0.237440912441,0.303646783305,1.0,-0.0531868571429,-0.0699027265306,1.228
0.450131372298,0.449024042747,-0.124436784336,-1.50954765284,0.0699460608502,1.95009683605,0.137393607271,-0.0450303102703,-0.267458111199,-0.0043778814549,-0.401111685468,-0.0274264234015,0.147709551246,-0.0594378709863,0.573757467931,0.819009015175,0.00271071136007,0.0,0.818974404965,-0.573694598445,-0.0116695599284,0.0,-0.00800250839232,0.00891567203383,-0.999928232751,0.0,0.642657345739,0.236239734926,0.303767727033,1.0,-0.0556737142857,-0.0731711673469,1.245
0.449263474572,0.444329974118,-0.12445549061,-1.51680667259,0.0694620188215,1.9524747421,0.136317511664,-0.0516764785381,-0.275505187401,0.000328203523816,-0.434881257245,-0.034300791727,0.147628125768,-0.0640853931819,0.573792378427,0.818985066942,0.00255215312698,0.0,0.818948004035,-0.573729644102,-0.0117986891676,0.0,-0.00819886218599,0.00886024921636,-0.999927134667,0.0,0.641643766695,0.234963841493,0.303735255753,1.0,-0.0581605714286,-0.0764396081633,1.262
0.448420454346,0.439792598787,-0.124483079213,-1.52383630277,0.0689664609198,1.95489680088,0.135176903913,-0.0544978174066,-0.285408231014,-0.00111038533182,-0.443847164783,-0.0221686805658,0.153354313128,-0.0723859353515,0.573743229036,0.819019746596,0.00247158300712,0.0,0.818981677178,-0.573680848675,-0.0118339854433,0.0,-0.00827452723215,0.00881401991424,-0.999926919956,0.0,0.640680963732,0.233726131267,0.303703752029,1.0,-0.0605011428571,-0.0795157877551,1.278
0.44739424174,0.43445414803,-0.124503753842,-1.53186758065,0.0684452110897,1.95780991407,0.133869391925,-0.0612636297643,-0.309972308232,-0.00202338101185,-0.456143852054,-0.0242759667417,0.167060724608,-0.0698011324363,0.573737105562,0.81902345012,0.0026587133608,0.0,0.818987731613,-0.573673943256,-0.0117494339367,0.0,-0.00809798325336,0.00891871155602,-0.999927436993,0.0,0.63961369265,0.232298370637,0.303778871871,1.0,-0.0631342857143,-0.0829764897959,1.296
0.446424331488,0.429620906309,-0.124541171536,-1.53928279097,0.0679005200469,1.96044265229,0.13268389148,-0.0597604307557,-0.308629282827,-0.00259497840122,-0.488865147207,-0.0356362497376,0.153805269435,-0.0712694507113,0.57375676695,0.819009658613,0.00266427822807,0.0,0.81897438163,-0.573693989451,-0.0117010941027,0.0,-0.00805498376418,0.00889572880682,-0.99992798903,0.0,0.638616209837,0.230942561475,0.303772906491,1.0,-0.0654748571429,-0.0860526693877,1.312
0.445358491645,0.424258227271,-0.12462522487,-1.54754909534,0.0672949857366,1.96312707489,0.131316779609,-0.0603560612739,-0.321515100438,-0.00813546615308,-0.485924855291,-0.0337015658064,0.165628537834,-0.0785547963041,0.573754244923,0.819012113447,0.0024436367944,0.0,0.818974077651,-0.57369239131,-0.0118003046697,0.0,-0.00826285571637,0.00877191897208,-0.99992738669,0.0,0.637446794795,0.229402749028,0.303721982801,1.0,-0.0679617142857,-0.0893211102041,1.329
0.444222173457,0.418721206189,-0.124678764254,-1.55595860193,0.0667001399349,1.96601590882,0.129977409259,-0.067164295461,-0.3338677816,-0.00184479532857,-0.48733096464,-0.036676905799,0.180446227246,-0.0782241210985,0.573814755738,0.818969746447,0.00243462594692,0.0,0.81893167769,-0.573753017776,-0.0117952859088,0.0,-0.0082632674193,0.00876227011472,-0.999927467887,0.0,0.636282302166,0.227839132232,0.303730702502,1.0,-0.0704485714286,-0.0925895510204,1.346
0.443105126159,0.413339815247,-0.124687917818,-1.5639115291,0.0661661806,1.96897495215,0.128644895221,-0.0711912189482,-0.331168668894,0.000947229221326,-0.508214319401,-0.0338264968252,0.181851210857,-0.0832980998254,0.573827031467,0.818960119399,0.00275820478255,0.0,0.8189263492,-0.573764240844,-0.0116179781441,0.0,-0.0079322542154,0.00892564832939,-0.999928703531,0.0,0.635218167705,0.226381102792,0.303848021066,1.0,-0.0727891428571,-0.0956657306122,1.362
0.441866070161,0.407543711276,-0.124730932525,-1.57281259357,0.065527692179,1.971865686,0.127156312655,-0.0735305614167,-0.350698187983,-0.00403255388753,-0.541250576841,-0.0407531149113,0.164165591221,-0.0861573114404,0.57383733887,0.818953535907,0.00256153168341,0.0,0.818916960511,-0.573774960003,-0.0117496366595,0.0,-0.00815282071582,0.0088402321757,-0.99992768829,0.0,0.633928995788,0.224705166574,0.303783294019,1.0,-0.075276,-0.0989341714286,1.379
0.440493965419,0.401228984964,-0.12479974232,-1.58247359429,0.0648491969473,1.97511891195,0.125541408955,-0.0774195790645,-0.360086107049,-0.00184284619669,-0.530562628204,-0.0369530861708,0.184288292419,-0.0913216940605,0.573886560024,0.818919337778,0.00246603697461,0.0,0.818881373541,-0.573824371328,-0.0118166762945,0.0,-0.00826199167814,0.00880099290092,-0.999927138354,0.0,0.632547364403,0.222869689223,0.303730338061,1.0,-0.0779091428571,-0.102394873469,1.397
0.439202770131,0.395333007538,-0.124821816673,-1.59108485286,0.0642047050839,1.97820661092,0.12405433319,-0.0839731521145,-0.36522597685,-0.000107346732514,-0.544457207797,-0.0443861069447,0.185451440436,-0.0942723038456,0.573899102864,0.818909647234,0.0027488724435,0.0,0.818875819496,-0.573836406019,-0.0116154325324,0.0,-0.00793473944229,0.00891724316913,-0.999928758804,0.0,0.631355161958,0.221226509494,0.303868095366,1.0,-0.0802497142857,-0.105471053061,1.413
0.437881833312,0.389410250135,-0.124860443327,-1.60008972727,0.0635352037383,1.98111930012,0.122552504111,-0.080358409213,-0.389701597115,-0.00293465058019,-0.565298504692,-0.0411717709242,0.194679799352,-0.0980898376998,0.573937223918,0.818883464643,0.00258480902253,0.0,0.818847339151,-0.573874908354,-0.011720564326,0.0,-0.00811457551266,0.00884360240908,-0.999927969586,0.0,0.630020193433,0.219499969201,0.303814713471,1.0,-0.0825902857143,-0.108547232653,1.429
0.436365150963,0.382529142906,-0.124879806712,-1.61035513318,0.0627836212711,1.98450723245,0.120678257335,-0.0831146362539,-0.396257583119,-0.00113110697555,-0.573754636587,-0.0415752232712,0.200676870788,-0.104586603431,0.57383411223,0.818955744434,0.00257821666929,0.0,0.818919279063,-0.573771556955,-0.0117542209783,0.0,-0.00814703625475,0.00885649481111,-0.999927591528,0.0,0.628493992547,0.217552299439,0.30383409266,1.0,-0.0852234285714,-0.112007934694,1.447
0.434941946241,0.376316663459,-0.124878476094,-1.6195644951,0.0621346498358,1.98768591299,0.119075372941,-0.0944599570778,-0.395607476983,-0.00397290941434,-0.586107462954,-0.0398314664396,0.194422333744,-0.101093370839,0.57384500618,0.818947605222,0.00273416976331,0.0,0.818912919758,-0.573781619738,-0.0117059645128,0.0,-0.00801790961874,0.00895662866502,-0.999927743354,0.0,0.627146168828,0.215794392594,0.303879018909,1.0,-0.087564,-0.115084114286,1.463
0.433350846179,0.369574012653,-0.124915839277,-1.62973510126,0.0613214851064,1.99093862565,0.117290937452,-0.0967942548013,-0.399158564656,-0.00445489141942,-0.606722418054,-0.0464569748019,0.184542294229,-0.100053751769,0.573848958488,0.818945453935,0.00254228702286,0.0,0.818908357223,-0.573786355661,-0.0117926853977,0.0,-0.00819899434631,0.00884929069901,-0.999927230625,0.0,0.625600785306,0.213792170844,0.303818043622,1.0,-0.0900508571428,-0.118352555102,1.48
0.4317260535,0.362599955719,-0.124971727726,-1.63987433057,0.0605243831662,1.9943731667,0.115467331396,-0.0972216674596,-0.408043770261,-0.000661026208853,-0.595088316027,-0.0506256019036,0.20742263645,-0.117568577121,0.573858872423,0.818937914507,0.00272646748931,0.0,0.818903679226,-0.573796125903,-0.0116411747722,0.0,-0.00796911633777,0.00891327729495,-0.999928520782,0.0,0.624097969154,0.211783736797,0.303928421734,1.0,-0.0925377142857,-0.121620995918,1.497
0.430109737782,0.356014840499,-0.124977761866,-1.64969973775,0.0598064078308,1.99758217465,0.113615019443,-0.105910926162,-0.405397092233,0.00035781982369,-0.626815849097,-0.0494849991514,0.198270725973,-0.112155182723,0.573806413868,0.818974746347,0.00270391393244,0.0,0.818939737873,-0.573743217011,-0.0117121120117,0.0,-0.00804072649474,0.00893499958574,-0.99992775364,0.0,0.622591475163,0.209844976374,0.303899037488,1.0,-0.0948782857143,-0.12469717551,1.513
0.428183321712,0.34847063836,-0.125040475338,-1.66098818797,0.0589453975876,2.00117522278,0.111512656479,-0.11056660338,-0.427097798313,-0.00735586344317,-0.62475580457,-0.0420802548704,0.195428501969,-0.121481029365,0.573844293053,0.818948672983,0.00255836889639,0.0,0.818911455746,-0.573781274659,-0.0118246944728,0.0,-0.00821603186458,0.00888078202016,-0.999926811587,0.0,0.620846200607,0.207537973207,0.303830918523,1.0,-0.0975114285714,-0.128157877551,1.531
0.426664084217,0.342368008816,-0.125079993463,-1.66970056354,0.0582818713386,2.00415212049,0.109891422253,-0.111830053838,-0.424966221152,-0.000459129791456,-0.62718410538,-0.0545258220615,0.202676597211,-0.114896224643,0.573888261728,0.818916897127,0.00285053531208,0.0,0.818883716489,-0.573824461442,-0.0116487433252,0.0,-0.00790379802161,0.00901950766201,-0.999928086643,0.0,0.619536437881,0.205763991077,0.303967777652,1.0,-0.0995594285714,-0.130849534694,1.545
0.424737406723,0.334959465094,-0.125087674531,-1.68074996668,0.0574001131025,2.00756604093,0.107772150409,-0.117298866664,-0.44159753884,-0.00034878544832,-0.667329198231,-0.0498122981757,0.201867057063,-0.123774542581,0.573822745782,0.818963577939,0.00261941462542,0.0,0.818927011799,-0.573759346985,-0.0118113502284,0.0,-0.00817030932214,0.00892290260483,-0.999926811249,0.0,0.617659430893,0.203387779668,0.303872275795,1.0,-0.102192571429,-0.134310236735,1.563
0.422780634321,0.327296771551,-0.125093181239,-1.69173780643,0.0564683822683,2.01111559282,0.105607875411,-0.116186205054,-0.457996019893,2.81989647027e-05,-0.640198375105,-0.0532046855778,0.226118473149,-0.123334940044,0.573737842661,0.819022529523,0.0027804554415,0.0,0.818988441036,-0.573674303949,-0.0116821804127,0.0,-0.00797304661778,0.00897984274479,-0.999927893876,0.0,0.616032575478,0.201270114796,0.303984309731,1.0,-0.104533142857,-0.137386416327,1.579
0.420705634048,0.319638213345,-0.125098557356,-1.70294980543,0.0555870738721,2.01470717677,0.103448925968,-0.125229716464,-0.455976472701,-0.00126371359097,-0.665536999484,-0.0536817602821,0.206541974892,-0.122809684373,0.573757302859,0.819008824419,0.00280175673736,0.0,0.818974716255,-0.573693353397,-0.0117088557945,0.0,-0.00798246068859,0.00901278297322,-0.999927522406,0.0,0.614242615849,0.198946217782,0.303968568093,1.0,-0.10702,-0.140654857143,1.596
0.418318587692,0.310859466908,-0.125178167297,-1.7156592439,0.0545305925406,2.01865427158,0.10083755384,-0.12288011671,-0.472730355879,-0.00424283897983,-0.66652441425,-0.0615148193521,0.221640075321,-0.139880764013,0.573696424027,0.819051564035,0.00277406053271,0.0,0.819017176436,-0.573632669895,-0.0117120293837,0.0,-0.00800161829089,0.00899132571118,-0.99992756246,0.0,0.61218566135,0.196244856966,0.303985269593,1.0,-0.109799428571,-0.144307820408,1.615
0.416213549017,0.303335014381,-0.125205765942,-1.72649586859,0.0536225641644,2.02208345964,0.098619969436,-0.13576713813,-0.470317696915,-0.000998230158333,-0.698014752372,-0.058136172152,0.205436312529,-0.142031676343,0.573663941926,0.819074020655,0.00285960195122,0.0,0.819040964378,-0.573600147661,-0.0116411414994,0.0,-0.00789484047157,0.00902040793173,-0.999928149286,0.0,0.61054468499,0.194081723784,0.304027335934,1.0,-0.111993714286,-0.147191738775,1.63
0.413839261599,0.295274422724,-0.125269737237,-1.73829243017,0.0526716166009,2.02553351377,0.0962821645107,-0.141546483734,-0.477313837771,-0.00778965855453,-0.680865977629,-0.0494362495807,0.207389532169,-0.140136182293,0.573792028131,0.81898511433,0.00261493046683,0.0,0.818947994965,-0.573728110518,-0.0118736534365,0.0,-0.00822424464353,0.00895467215462,-0.999926085092,0.0,0.608338263681,0.191201464727,0.303931342877,1.0,-0.114773142857,-0.150844702041,1.649
0.411732189462,0.287936485333,-0.12536596242,-1.74851440202,0.0518022173072,2.02890250284,0.0940811545129,-0.137602986812,-0.485218545575,-0.00214098227788,-0.694420893494,-0.060449981187,0.210623319562,-0.153168110473,0.573798147527,0.818979670764,0.00295494003456,0.0,0.818947752067,-0.573733903752,-0.0116074963421,0.0,-0.00781110463927,0.00908047622464,-0.999928263225,0.0,0.60681714114,0.189088138828,0.304082942143,1.0,-0.116821142857,-0.153536359184,1.663
0.409083880719,0.279169494372,-0.125396176512,-1.76126677668,0.0507050364904,2.03258959521,0.0913638230814,-0.150033641159,-0.479287442327,-0.00500907794576,-0.7101857429,-0.0691302682586,0.206670996268,-0.157798007687,0.573761366499,0.819006375492,0.00268293085372,0.0,0.818970348448,-0.573697425548,-0.0118143634293,0.0,-0.00813700510983,0.0089760389382,-0.999926607243,0.0,0.604625807598,0.186283359462,0.303975238081,1.0,-0.119454285714,-0.156997061224,1.681
0.406481760782,0.270653677722,-0.125494042808,-1.77319203832,0.0496550576786,2.03630770955,0.0887671459656,-0.15597146205,-0.49572250899,-0.0110698035491,-0.709547189719,-0.0597608284031,0.230748155769,-0.154518955673,0.573818291056,0.818965797966,0.00288747503279,0.0,0.81893300315,-0.573754268076,-0.0116414396514,0.0,-0.00787739145377,0.00904489374857,-0.999928065713,0.0,0.602648383597,0.183573006359,0.304079643507,1.0,-0.121941142857,-0.160265502041,1.698
0.403445340499,0.261098810889,-0.125622664573,-1.78685682701,0.0484534831669,2.0402908146,0.0858091892994,-0.155151799213,-0.497719239888,-0.00766814889104,-0.730907140865,-0.0694130807426,0.202285324171,-0.157680671809,0.573939990866,0.818881023367,0.00273922524827,0.0,0.818846179584,-0.57387632408,-0.0117322522163,0.0,-0.00803549689319,0.00897678569036,-0.99992742142,0.0,0.600298856727,0.180425647014,0.304024797739,1.0,-0.124720571429,-0.163918465306,1.717
0.400965252045,0.253346618607,-0.125706509306,-1.79760885432,0.0474728462058,2.04345895361,0.0834088074066,-0.172723141806,-0.525096907628,-0.00449184511322,-0.71917844097,-0.0722242563636,0.216066020808,-0.162105130325,0.574011718933,0.818830422243,0.00283426157561,0.0,0.81879714833,-0.573948092195,-0.0116432063388,0.0,-0.00790724477754,0.00900419553883,-0.999928197394,0.0,0.598451821959,0.1779184101,0.304112144541,1.0,-0.126914857143,-0.166802383673,1.732
0.397778209611,0.243528593923,-0.125692923996,-1.8115435188,0.0462507097969,2.0475279794,0.0802214877784,-0.164846481361,-0.52649903559,-0.00119708492095,-0.755047820522,-0.0740765143728,0.205879300339,-0.171219341496,0.57392649384,0.818890331378,0.00278419561287,0.0,0.818855849706,-0.573862420305,-0.0117374130242,0.0,-0.00801406310349,0.00901644076252,-0.999927236647,0.0,0.595982519751,0.174778281796,0.304054459948,1.0,-0.129694285714,-0.170455346939,1.751
0.395356889668,0.236131104848,-0.125701024509,-1.82170946759,0.0453691213851,2.05046201801,0.0778275903196,-0.170856588768,-0.543244589315,-0.000102454484778,-0.718450192177,-0.0633786174135,0.216039567932,-0.165070453871,0.573893345984,0.818913064062,0.00292708808934,0.0,0.818880096534,-0.573828387951,-0.0117096363006,0.0,-0.00790968018812,0.00911719206816,-0.999927154231,0.0,0.594175915444,0.172435571014,0.30413760605,1.0,-0.131742285714,-0.173147004082,1.765
0.391830077984,0.225487146436,-0.125684414174,-1.83654919981,0.0439612830527,2.05472544777,0.0743201084031,-0.181102380898,-0.545619120361,0.000329296576798,-0.738170216255,-0.0650432391802,0.196165190823,-0.182691297161,0.573742560746,0.819018707357,0.00292880337877,0.0,0.818985873892,-0.57367774554,-0.0116931406683,0.0,-0.00789686367472,0.00910767641579,-0.999927342248,0.0,0.591492511842,0.169038810848,0.30413516004,1.0,-0.134668,-0.176992228571,1.785
0.389015493559,0.217377134712,-0.12573280563,-1.84775198528,0.0429233600221,2.05781995262,0.0715898069481,-0.189396194539,-0.55566386706,-0.00412422717483,-0.729804536352,-0.0711565275969,0.223083080035,-0.184307388113,0.573729754826,0.819027743404,0.00291047462451,0.0,0.818994442275,-0.573664740447,-0.0117309842402,0.0,-0.00793851772114,0.00911425273144,-0.999926952499,0.0,0.589449573756,0.166364797904,0.304148366663,1.0,-0.136862285714,-0.179876146939,1.8
0.385935656822,0.208678419044,-0.125810241428,-1.85968672518,0.0418193955304,2.06122712316,0.0686749860303,-0.194931078057,-0.53775032789,-0.00163761810621,-0.761282241094,-0.0748986815732,0.212248708318,-0.193191786637,0.57378721246,0.818987073982,0.0030256187917,0.0,0.818955324937,-0.573721862527,-0.0116682096703,0.0,-0.00782039981493,0.00917309273225,-0.999927345219,0.0,0.5872871405,0.163477265648,0.304187967346,1.0,-0.139202857143,-0.182952326531,1.816
0.382365632648,0.198749806572,-0.125883734748,-1.8733593029,0.0404988452674,2.06482301548,0.0652209023107,-0.204231448491,-0.559051510884,-0.00620254817451,-0.737049288921,-0.0697554130303,0.209343715788,-0.191163093401,0.573741606907,0.819019580445,0.00287093243813,0.0,0.818985452419,-0.573676373046,-0.011789598671,0.0,-0.00800908024837,0.00911561069173,-0.999926377428,0.0,0.58471657242,0.160153393865,0.304158238067,1.0,-0.141836,-0.186413028571,1.834
0.379468938352,0.190946323631,-0.125979683031,-1.88399328704,0.0394864424036,2.06781931543,0.0625360324361,-0.209961902558,-0.55866527838,-0.00305706802977,-0.751368477035,-0.0764006145729,0.20798104899,-0.199171101639,0.573831884862,0.81895595302,0.00297688253771,0.0,0.8189233843,-0.573766476526,-0.0117161411085,0.0,-0.00788711995402,0.00916111043779,-0.999926931028,0.0,0.5827588189,0.157506143735,0.304182738561,1.0,-0.143884,-0.189104685714,1.848
0.375791972261,0.181396810112,-0.1261525856,-1.89705025607,0.0382714916573,2.07120494436,0.0590785256732,-0.219615657489,-0.565611255817,-0.00705023783548,-0.742349413353,-0.0760753106814,0.208172117796,-0.206060853396,0.573949216196,0.818874149096,0.00285868343916,0.0,0.818839244685,-0.57388329879,-0.0118742424596,0.0,-0.00808311513299,0.00915619062575,-0.99992541093,0.0,0.580424404652,0.154361451773,0.304133292831,1.0,-0.146224571429,-0.192180865306,1.864
0.371639484698,0.170569696361,-0.126190516399,-1.9116100643,0.0367661376125,2.07511587062,0.0552557515165,-0.214677038,-0.563367965367,0.000359961805242,-0.768714049927,-0.0775622706027,0.199718121187,-0.202973201418,0.573947273199,0.818875181368,0.00295158062129,0.0,0.818842125434,-0.57388175372,-0.0117496069627,0.0,-0.00792775590323,0.00916070979876,-0.999926613348,0.0,0.577512661848,0.150517192647,0.304188914182,1.0,-0.149150285714,-0.196026089796,1.884
0.368256194896,0.16195787474,-0.126201693745,-1.92327075581,0.0356115199634,2.07805918139,0.0520050857545,-0.239803734877,-0.571574588274,-0.000838482334519,-0.746627043427,-0.0797903255914,0.206596773986,-0.222280657652,0.573827479235,0.818959463216,0.00285807375039,0.0,0.818924613162,-0.573761650925,-0.0118656136244,0.0,-0.00807775897298,0.00914953825307,-0.999925515106,0.0,0.575222072161,0.147593785398,0.304148085004,1.0,-0.151344571429,-0.198910008163,1.899
0.364085771067,0.151445240036,-0.126263997949,-1.93711582378,0.0341508270041,2.08172766305,0.048167920043,-0.240897179629,-0.57453779338,-0.00844678295463,-0.76579472342,-0.0824166489943,0.189531488252,-0.211430976994,0.573816215017,0.818966616559,0.00306255557575,0.0,0.818935221205,-0.573750589632,-0.0116666734248,0.0,-0.00779762312229,0.00920273819558,-0.999927250695,0.0,0.572541729601,0.144033211019,0.304256301198,1.0,-0.153977714286,-0.202370710204,1.917
0.359982190838,0.141452325482,-0.12632295687,-1.950469905,0.0328457133978,2.08492956232,0.0444137711973,-0.246883534193,-0.587508853838,-0.00759836141869,-0.793535276518,-0.0818185111189,0.194365624202,-0.224299723752,0.573850742513,0.818942818609,0.00295500712505,0.0,0.818908939671,-0.573784223209,-0.0118558265938,0.0,-0.00801386187155,0.00922353422709,-0.999925349431,0.0,0.569853205204,0.140580531615,0.304215760621,1.0,-0.156464571429,-0.20563915102,1.934
0.356261800565,0.132533743688,-0.126422703388,-1.9621374539,0.0316345378225,2.08793473956,0.0409509147553,-0.250510731381,-0.587031905564,-0.00646716356485,-0.800286501242,-0.0801557843741,0.197155623494,-0.228397267719,0.573839060116,0.818950351905,0.0031306711536,0.0,0.818919111965,-0.573772337714,-0.0117277207269,0.0,-0.00780827884347,0.00929376961403,-0.9999263256,0.0,0.567548851004,0.137486160993,0.304283994258,1.0,-0.158658857143,-0.208523069388,1.949
0.351625276614,0.121772974127,-0.126588768344,-1.97634022906,0.0301026535852,2.09127986555,0.0367983822976,-0.262318293516,-0.595471919928,-0.0122998650981,-0.746570649579,-0.0856425420707,0.190095414465,-0.226704035095,0.573958176644,0.818867349601,0.00300368469733,0.0,0.81883434723,-0.57389174885,-0.0118033596721,0.0,-0.00794174889045,0.00923433278364,-0.99992582511,0.0,0.56465920057,0.133643535815,0.304253695295,1.0,-0.161292,-0.211983771429,1.967
0.347083421248,0.111450906697,-0.126693815991,-1.98969783137,0.0286519283009,2.09455214774,0.0326416494499,-0.269645602786,-0.603155726871,-0.00578751024769,-0.793509207696,-0.0853359710188,0.189093711415,-0.24926162308,0.573949676352,0.818872762548,0.00314875742812,0.0,0.818842086058,-0.573883270254,-0.011678061685,0.0,-0.00775597674974,0.00928113351606,-0.999926850017,0.0,0.561950050464,0.129996674314,0.304320323505,1.0,-0.163778857143,-0.215252212245,1.984
0.342739082562,0.101684200129,-0.126711130848,-2.0024015074,0.0272349524964,2.09742724679,0.0287032161683,-0.272086745603,-0.622181813169,-0.00356557720582,-0.772450860835,-0.0905776285429,0.183587626921,-0.243992348758,0.573874107586,0.818926057908,0.0030605917716,0.0,0.818894088465,-0.573807834734,-0.011738295306,0.0,-0.0078567556309,0.00924278220445,-0.999926418477,0.0,0.55928047555,0.126576988824,0.304304894229,1.0,-0.166119428571,-0.218328391837,2.0
0.337460735795,0.0899743443872,-0.126723884836,-2.01747045033,0.0256664391223,2.10090578073,0.0238858218063,-0.288202063111,-0.610788163195,-0.00471394716907,-0.785709499808,-0.0828905007678,0.172960461534,-0.247683528189,0.573787799286,0.81898607388,0.00318105036546,0.0,0.818954995878,-0.573720322773,-0.0117665995389,0.0,-0.00781179831816,0.00935684849176,-0.999925709837,0.0,0.556097760971,0.122515214667,0.304326797545,1.0,-0.168898857143,-0.221981355102,2.019
0.332511648998,0.079348052082,-0.126829494444,-2.03098218965,0.0241498934343,2.10384219543,0.0193464802097,-0.290620470407,-0.642519687173,-0.0152679597596,-0.771009818843,-0.0866564770437,0.179311710812,-0.27278471018,0.573718092428,0.81903484111,0.00319786947024,0.0,0.819003870479,-0.573650433968,-0.0117722831688,0.0,-0.00780760118579,0.00937321978006,-0.999925589289,0.0,0.553207970694,0.118719197849,0.304367549627,1.0,-0.171385714286,-0.225249795918,2.036
0.327714997942,0.0693418916957,-0.126961200328,-2.04372102172,0.022705111136,2.10668848179,0.0151098488153,-0.305323512261,-0.620567662748,-0.00873349596688,-0.808089976772,-0.0918298053453,0.167691936599,-0.268236957651,0.573798689096,0.818978156663,0.00325425892748,0.0,0.818948091164,-0.573731035345,-0.011724758468,0.0,-0.00773540066414,0.00939290101817,-0.999925965753,0.0,0.550480966403,0.115087399919,0.304375118151,1.0,-0.173726285714,-0.22832597551,2.052
0.322391167645,0.0585332085575,-0.127139166539,-2.05732864581,0.0211092655455,2.10943834344,0.0103744341724,-0.317972776817,-0.643348579698,-0.00963284237165,-0.766915074898,-0.0998658555616,0.182077685349,-0.286686592631,0.573865363099,0.818931734491,0.00317902185754,0.0,0.818900566316,-0.573797806594,-0.0117765248407,0.0,-0.00782020470829,0.00936162274348,-0.999925599441,0.0,0.547497919029,0.111100776233,0.304391517917,1.0,-0.176213142857,-0.231594416327,2.069
0.317304021738,0.0483604326139,-0.12722197086,-2.07008713329,0.0196610689194,2.11215597097,0.00586480777975,-0.317667780804,-0.649785087733,-0.00140637268597,-0.825222879333,-0.0894443123021,0.165070512674,-0.278168842522,0.573884763581,0.818917753024,0.00327701283661,0.0,0.818887766511,-0.573816757698,-0.0117431403512,0.0,-0.0077364101789,0.00942289646671,-0.999925675728,0.0,0.54469167825,0.107408125442,0.304407992145,1.0,-0.178553714286,-0.234670595918,2.085
0.312096297775,0.0380692193595,-0.127264646769,-2.0829259394,0.0181865075848,2.11466941592,0.00123505645228,-0.330258851336,-0.648602733719,-0.00309331285777,-0.798788995563,-0.092022637631,0.167945393878,-0.294416094506,0.573843431255,0.818946789988,0.00325860018792,0.0,0.818915975146,-0.573774779779,-0.0118268610514,0.0,-0.00781601777101,0.00945546832427,-0.999924749161,0.0,0.541790889509,0.103695381286,0.304403498697,1.0,-0.17998,-0.236545142857,2.101
0.306387806179,0.0271744629552,-0.12733122302,-2.09640756122,0.0165263365276,2.11737456929,-0.00379787127839,-0.33701225406,-0.646370164225,-0.00851889698511,-0.805776124082,-0.0966235264156,0.149843384956,-0.295449176458,0.57380844664,0.818971153727,0.00329588055348,0.0,0.818941287008,-0.573740234412,-0.0117498404677,0.0,-0.00773194998662,0.00944147214694,-0.999925535004,0.0,0.538749192731,0.0996871397757,0.304417901762,1.0,-0.17998,-0.236545142857,2.118
0.300195890546,0.0156092959057,-0.127508066265,-2.11049034234,0.0148200537861,2.11996621483,-0.00924960863882,-0.340897074781,-0.65645856548,-0.0119422665478,-0.753111849869,-0.0965491543797,0.153535545136,-0.301580098866,0.573878520164,0.818921875745,0.00333952427169,0.0,0.818892486567,-0.573810040871,-0.0117422033833,0.0,-0.00769984290707,0.00947349202997,-0.999925479907,0.0,0.535513978527,0.0953668077538,0.304473903783,1.0,-0.17998,-0.236545142857,2.136
0.294911711528,0.00612910128939,-0.127626505117,-2.12211248883,0.0134057424402,2.12205812822,-0.0138355970489,-0.347432582572,-0.627777793455,-0.0017472204804,-0.75345015513,-0.0897126295794,0.135036845964,-0.309199819647,0.573967562006,0.818859651308,0.00329486368674,0.0,0.818829325209,-0.573898787059,-0.0118095423656,0.0,-0.00777958925144,0.00947640769946,-0.999924835019,0.0,0.532809524713,0.0917607742736,0.304450629941,1.0,-0.17998,-0.236545142857,2.151
0.288583262659,-0.00530676144336,-0.127639382877,-2.1357993574,0.0117748316486,2.12449881178,-0.0194678751064,-0.349408634934,-0.640688695685,-0.00107276195402,-0.728943244401,-0.0971800191428,0.141043202979,-0.306812008155,0.573862092603,0.81893284951,0.00346894328502,0.0,0.818904548043,-0.573792441561,-0.0117610417898,0.0,-0.00764119714574,0.00959013412552,-0.999924817891,0.0,0.529581828539,0.0875798461547,0.304530551858,1.0,-0.17998,-0.236545142857,2.169
0.282476020104,-0.0159202685119,-0.127675026841,-2.14864121004,0.0101033222669,2.12672688518,-0.0247815979258,-0.365915622351,-0.627421509401,-0.0057172224358,-0.77668938482,-0.0927141515857,0.123086157096,-0.311950588469,0.573818521872,0.81896359957,0.00341664110345,0.0,0.818934872293,-0.573749370329,-0.0117508251128,0.0,-0.0076633498938,0.00954103133715,-0.999925118091,0.0,0.526515178453,0.0835820927106,0.304501826867,1.0,-0.17998,-0.236545142857,2.186
0.276621565452,-0.0259390659738,-0.1277496746,-2.16052717574,0.00859710188066,2.12854658758,-0.0299329173206,-0.37398276741,-0.631704092275,-0.00539486399327,-0.718557633163,-0.0902710686085,0.131858713261,-0.319107862781,0.573787468112,0.818985486238,0.00338550893649,0.0,0.818955915377,-0.573717883362,-0.0118214162406,0.0,-0.00773939031394,0.00955574704203,-0.99992439191,0.0,0.52361395212,0.0797972868205,0.304525943575,1.0,-0.17998,-0.236545142857,2.202
0.270228550619,-0.0364630367448,-0.12793916341,-2.17300695744,0.00697434131396,2.1306148145,-0.0353765755709,-0.380851376311,-0.620319410695,-0.006517168282,-0.74263043597,-0.0877020420839,0.11383043636,-0.31864785202,0.573985739721,0.818846285814,0.00344640506491,0.0,0.818817791174,-0.5739162721,-0.0117594378164,0.0,-0.00765137134484,0.00957191168545,-0.999924914693,0.0,0.520590078344,0.0756837551263,0.304533507146,1.0,-0.17998,-0.236545142857,2.219
0.263823739792,-0.0469454559678,-0.127989142758,-2.18540566356,0.00547950666372,2.13240814407,-0.0410286337956,-0.381404024895,-0.630508771146,0.000951131102416,-0.71440934675,-0.0934414345043,0.103562328146,-0.334181439961,0.573947945825,0.81887286073,0.00342641854008,0.0,0.818842786638,-0.573876912679,-0.0119384574599,0.0,-0.00780988668412,0.00965793718621,-0.999922861985,0.0,0.517482721817,0.071699149287,0.304498613919,1.0,-0.17998,-0.236545142857,2.236
0.257727848223,-0.0567689390024,-0.128019919792,-2.19671806147,0.0038850051007,2.13416536955,-0.0463889479458,-0.383036246779,-0.615971875527,-0.00538274539502,-0.717216336144,-0.0981178086267,0.095492711485,-0.347073388736,0.573825500752,0.818958133827,0.00355198895923,0.0,0.818930987815,-0.573755675856,-0.0117136040919,0.0,-0.0075551229811,0.00963058397933,-0.999925083178,0.0,0.514665871365,0.0679603878179,0.304580806661,1.0,-0.17998,-0.236545142857,2.252
0.251123720617,-0.0670714087714,-0.128103900537,-2.20891761879,0.0023328340483,2.13570438168,-0.0521663574029,-0.384935695635,-0.606007495979,-0.0118996119377,-0.703661829634,-0.087211532286,0.0906226717518,-0.337540714237,0.573820567655,0.818962504898,0.00333445768451,0.0,0.818930870082,-0.573749451163,-0.012022654383,0.0,-0.0079331126196,0.00962972209758,-0.999922164059,0.0,0.51150999016,0.0639464975328,0.304455749101,1.0,-0.17998,-0.236545142857,2.269
0.244331458021,-0.077435812241,-0.12828666696,-2.22061279893,0.000752226706012,2.13732716451,-0.0580347143082,-0.407260283342,-0.606857181297,-0.0121317604141,-0.701993380136,-0.0894719222426,0.0914782680896,-0.364257034237,0.573951914183,0.81886953065,0.00355512035514,0.0,0.818841397932,-0.57388075471,-0.0118486837428,0.0,-0.00766245846883,0.00971184141917,-0.999923480506,0.0,0.508346609472,0.059609976874,0.304563712204,1.0,-0.17998,-0.236545142857,2.287
0.237917222721,-0.0870379882461,-0.128344089389,-2.23176735694,-0.000696288609949,2.13864761212,-0.0636432543216,-0.40418427339,-0.597421606396,-0.00271861158879,-0.691453530275,-0.0945641390886,0.0781357844545,-0.34457251102,0.57392697295,0.818887648298,0.00340530273849,0.0,0.818856200089,-0.573854670247,-0.0120866832316,0.0,-0.00794363966683,0.00972551402699,-0.999921153374,0.0,0.505394048233,0.0558645701792,0.304463952659,1.0,-0.17998,-0.236545142857,2.303
0.230630622447,-0.0979146787554,-0.128369967098,-2.24384231629,-0.00240889893147,2.14011311822,-0.0700654100997,-0.407826831767,-0.600914180863,-0.00364533257337,-0.668838640778,-0.0998851798731,0.0844516332934,-0.359727428605,0.573791114203,0.818982045022,0.00359361853554,0.0,0.818954149216,-0.573719508165,-0.0118648360054,0.0,-0.00765550598902,0.00975113402131,-0.999923151354,0.0,0.502389522069,0.051906450502,0.304590238067,1.0,-0.17998,-0.236545142857,2.32
0.223585606904,-0.108023691431,-0.128493923026,-2.25528603573,-0.00395667664889,2.14130871463,-0.076146408532,-0.415865780017,-0.588807037107,-0.00769254357197,-0.671095519327,-0.0853071406372,0.0639853604052,-0.359390924589,0.573878371312,0.818921170491,0.00353247254262,0.0,0.818891589373,-0.573805850485,-0.0120065692366,0.0,-0.00780563060377,0.00978321081051,-0.999921677391,0.0,0.499292524283,0.0478753855986,0.30454848791,1.0,-0.17998,-0.236545142857,2.337
0.216758531519,-0.117551948955,-0.128670616231,-2.26579164728,-0.00549109839485,2.14237798393,-0.0820109864459,-0.427574237416,-0.606032696211,-0.00977851947478,-0.635602259564,-0.089165540838,0.0744518793456,-0.363552321899,0.574009100991,0.818829329307,0.0035816681831,0.0,0.818800794195,-0.573936890918,-0.0119353077072,0.0,-0.00771747708903,0.00978383636912,-0.999922355532,0.0,0.496436984471,0.0439989685581,0.304601153931,1.0,-0.17998,-0.236545142857,2.353
0.209567389136,-0.127529375178,-0.128700453968,-2.27684465091,-0.00696608027679,2.14348837263,-0.0883992957063,-0.426499026305,-0.580464994635,-0.00140953053672,-0.648897680035,-0.0935101173855,0.0588584658678,-0.377287791038,0.573897820754,0.818906933829,0.00367041711696,0.0,0.818879028264,-0.573824633677,-0.0119655236299,0.0,-0.00769262261662,0.00987280561953,-0.999921672566,0.0,0.493383907157,0.0400615070408,0.304602284643,1.0,-0.17998,-0.236545142857,2.37
0.201749801388,-0.138045192406,-0.12879531469,-2.28844183297,-0.00868960255758,2.14445142263,-0.0952429251237,-0.444333468454,-0.578565183892,-0.0095202858478,-0.640317948496,-0.0963613092553,0.0607744639917,-0.383272680361,0.573846509162,0.818943350774,0.00356637724068,0.0,0.818913911139,-0.573773488591,-0.0120306622278,0.0,-0.00780628842106,0.00982449860912,-0.999921267445,0.0,0.490114783998,0.0357968432127,0.304574259805,1.0,-0.17998,-0.236545142857,2.388
0.194709553536,-0.147400396592,-0.128930222828,-2.29841770654,-0.0100997198955,2.14544047433,-0.101395461827,-0.436998784027,-0.566690354397,-0.0185241954531,-0.631070879913,-0.0881270229453,0.0604234557849,-0.390971397158,0.57390721294,0.818899480005,0.00385998504475,0.0,0.818874758145,-0.57383429957,-0.0117929644893,0.0,-0.00744240396282,0.0099291028683,-0.999923008806,0.0,0.487323176479,0.0320112380328,0.304685416289,1.0,-0.17998,-0.236545142857,2.404
0.187078974795,-0.157201543284,-0.129058155744,-2.30913004893,-0.0116893846305,2.14608800469,-0.108089091662,-0.442665014073,-0.569555016745,-0.00131715316123,-0.630705224506,-0.094384972058,0.0358607758438,-0.391188913212,0.573898386521,0.818906449897,0.00368987349352,0.0,0.818878577045,-0.573824844519,-0.0119862742543,0.0,-0.00769844443225,0.00990065242901,-0.999921352425,0.0,0.484197585429,0.027956042275,0.304620087816,1.0,-0.17998,-0.236545142857,2.421
0.178967619975,-0.167590368894,-0.129096849459,-2.32006398916,-0.0132689708641,2.14684798657,-0.115207644926,-0.455438144382,-0.58592446673,-0.000234280432021,-0.59860287742,-0.0776224567665,0.0519870932516,-0.404872816882,0.573850725775,0.81893898234,0.00387745172361,0.0,0.818914011436,-0.573777126451,-0.0118489635372,0.0,-0.00747892902558,0.00997502792083,-0.999922279199,0.0,0.481006217891,0.0237713701824,0.304715202426,1.0,-0.17998,-0.236545142857,2.439
0.172080074283,-0.176076113694,-0.129182823654,-2.32920665346,-0.0145918618204,2.14737337136,-0.12125946004,-0.464547809646,-0.561343501844,-0.00534105878569,-0.605485785895,-0.0985285306535,0.0305233448005,-0.402258025446,0.573848319224,0.818940891068,0.00383019081901,0.0,0.818914567601,-0.573773910234,-0.0119656929326,0.0,-0.00760167802517,0.0100032844303,-0.999921071281,0.0,0.478282010182,0.0202405413651,0.304662697167,1.0,-0.17998,-0.236545142857,2.454
0.164066704724,-0.185751935292,-0.129388459167,-2.33941853518,-0.0161536892455,2.14780794218,-0.12826610472,-0.473292337946,-0.565910392614,-0.00538173650134,-0.590803789976,-0.0909724592689,0.0222444447814,-0.412616893793,0.57394379252,0.818874177537,0.00378830980037,0.0,0.818846828024,-0.573868894834,-0.0120461893795,0.0,-0.00769046832755,0.010016073922,-0.999920264301,0.0,0.475187213442,0.0161339877032,0.304655526224,1.0,-0.17998,-0.236545142857,2.471
0.156063211281,-0.195367508677,-0.129443457527,-2.34924729094,-0.0176340434388,2.1483704687,-0.135351353558,-0.470228920044,-0.56492707928,-0.00150806803107,-0.574882097712,-0.0915368471524,0.0277470625386,-0.422336071307,0.573878282851,0.818918842662,0.00404876598751,0.0,0.818896074257,-0.573804067654,-0.0117838199015,0.0,-0.00732693482945,0.0100781909396,-0.999922370033,0.0,0.472214145408,0.012169437169,0.304776216874,1.0,-0.17998,-0.236545142857,2.488
0.148395037869,-0.204240618624,-0.129530991908,-2.35862842425,-0.019054162462,2.14858805103,-0.142149584021,-0.481183692035,-0.557086248022,-0.00881532726017,-0.580644768592,-0.088950984316,0.0084920974195,-0.425531773121,0.57382547635,0.818956596822,0.00389385589856,0.0,0.818930600922,-0.573750175163,-0.0120064264238,0.0,-0.00759878792037,0.0100785851568,-0.999920337099,0.0,0.469268895434,0.00840194838855,0.304693991751,1.0,-0.17998,-0.236545142857,2.504
0.139581176274,-0.214242963149,-0.129736961135,-2.36884118246,-0.0205805081583,2.14887238057,-0.149892940154,-0.495612562736,-0.562948961853,-0.0159489329827,-0.547716344565,-0.0891795864521,0.0181948061053,-0.432044219119,0.573954703912,0.818865393173,0.00402649000182,0.0,0.818840900975,-0.57387859613,-0.0119867716917,0.0,-0.00750498057876,0.010177114639,-0.999920047606,0.0,0.466049051465,0.0040953896898,0.304736871402,1.0,-0.17998,-0.236545142857,2.522
0.131239792119,-0.223566361405,-0.129773662819,-2.37830571993,-0.02210070169,2.14911919588,-0.157277822029,-0.485799326314,-0.539398130143,0.00198444539128,-0.558427538243,-0.0963179849295,0.00716654489898,-0.444217515481,0.573849332878,0.818938973825,0.00408009901329,0.0,0.818915911134,-0.573774050871,-0.011866589252,0.0,-0.00737709951803,0.0101510877667,-0.99992126381,0.0,0.462843940959,-9.40786514829e-05,0.304771447752,1.0,-0.17998,-0.236545142857,2.54
0.12323608797,-0.232230378529,-0.129846795237,-2.3872557786,-0.0234895149375,2.14916247954,-0.164403218779,-0.506078621022,-0.544054166038,-0.00530147390577,-0.549443364397,-0.0909451378147,0.00404351550301,-0.447490030421,0.573800025728,0.818974084841,0.00396556862681,0.0,0.818948521958,-0.573723793936,-0.0120446484006,0.0,-0.00758925994022,0.0101590117203,-0.999919595575,0.0,0.460093444883,-0.00362067716457,0.304695169063,1.0,-0.17998,-0.236545142857,2.555
0.114547172895,-0.241470095142,-0.130041411601,-2.39637461214,-0.0249774341867,2.14920560546,-0.172061781432,-0.520330565264,-0.542439366438,-0.0142179378821,-0.523264209815,-0.0824105004124,0.000483042421105,-0.45048308589,0.573898123794,0.818904694646,0.00409774251364,0.0,0.818881543816,-0.573822335542,-0.0119034168327,0.0,-0.00739653015309,0.0101871104362,-0.999920753921,0.0,0.457079074865,-0.00770091203327,0.304776053434,1.0,-0.17998,-0.236545142857,2.572
0.105828088316,-0.250584485077,-0.130136049307,-2.4054447097,-0.0263372229051,2.14923691333,-0.179864273133,-0.503821896042,-0.527400747255,-0.00252922142126,-0.538689280117,-0.0858768298753,5.80149263199e-05,-0.456960318747,0.57387394681,0.818920925262,0.0042377166224,0.0,0.818899461283,-0.573797489042,-0.0118684784028,0.0,-0.00728789447243,0.010281472353,-0.999920585807,0.0,0.454040858329,-0.0116790153714,0.304795655468,1.0,-0.17998,-0.236545142857,2.589
0.0974668728851,-0.259033877539,-0.13025923592,-2.41399666136,-0.0277131749222,2.1491272632,-0.187312629788,-0.522900982894,-0.528854526266,-0.0114736305075,-0.528317470157,-0.0864446460335,-0.00947329581721,-0.465044338365,0.573867269981,0.818926101565,0.00414047357006,0.0,0.81890253346,-0.573789991549,-0.0120180361495,0.0,-0.00746626494633,0.0102875999601,-0.999919206824,0.0,0.451108551021,-0.0154674375226,0.304712477171,1.0,-0.17998,-0.236545142857,2.605
0.0884194373673,-0.268018517866,-0.130436445354,-2.42261745713,-0.0291507907342,2.14901376787,-0.195315278781,-0.536835030365,-0.525088169215,-0.0127897772104,-0.497520783218,-0.084855433623,-0.000428046796746,-0.475635349242,0.573971483722,0.818852100755,0.00432664574568,0.0,0.818832069494,-0.573895103207,-0.0117982788513,0.0,-0.00717814281746,0.0103148705008,-0.999921035738,0.0,0.448120614097,-0.0195384229031,0.304812047404,1.0,-0.17998,-0.236545142857,2.622
0.0793775765565,-0.276875336409,-0.130530041555,-2.43123434257,-0.0305420980411,2.14880675314,-0.203474575376,-0.519764513407,-0.510209833614,0.00234263576905,-0.512306082504,-0.0839647793646,-0.0127952698525,-0.485031150052,0.573889857322,0.818908943047,0.00439562995724,0.0,0.818889927983,-0.573813436261,-0.0117547060682,0.0,-0.00710389916389,0.0103456428731,-0.999921248044,0.0,0.445077166603,-0.0235080753299,0.304824283855,1.0,-0.17998,-0.236545142857,2.639
0.0706866029747,-0.285083476793,-0.130624728898,-2.43931054946,-0.0319053408924,2.14845233735,-0.211297593723,-0.549586281931,-0.510142083436,-0.00282354275685,-0.502697232786,-0.0812579372566,-0.021640098551,-0.483042163435,0.573817932219,0.818959976369,0.00427605782437,0.0,0.818938730697,-0.573740953998,-0.0118920128871,0.0,-0.00728587337313,0.010325878417,-0.999920142953,0.0,0.442151002728,-0.0272815196216,0.304758063346,1.0,-0.17998,-0.236545142857,2.655
0.0612695811025,-0.29380604546,-0.130819375678,-2.44753879342,-0.0331797963066,2.14813589742,-0.219686675183,-0.556831275972,-0.517286058286,-0.0128556070329,-0.472626848957,-0.0689388896214,-0.0126812149295,-0.49580295884,0.573987841177,0.818839561686,0.00452518505756,0.0,0.818821793141,-0.573910338966,-0.0117703358421,0.0,-0.00704110171461,0.0104615512204,-0.999920486255,0.0,0.438962267502,-0.031584245515,0.304831399066,1.0,-0.17998,-0.236545142857,2.673
0.0513339907456,-0.302933480417,-0.130922505713,-2.45608267521,-0.0346520677875,2.14771388288,-0.228745937115,-0.551998864847,-0.500105144224,-0.0079447776994,-0.478803200286,-0.0831846651944,-0.0257099218405,-0.507915722295,0.573843130274,0.818940421357,0.0046254735985,0.0,0.818924871601,-0.573766717161,-0.0115998212313,0.0,-0.00684575148682,0.0104445941895,-0.999922020029,0.0,0.435950312106,-0.0355474809691,0.304898316338,1.0,-0.17998,-0.236545142857,2.69
0.0422430017698,-0.310843728248,-0.131062589845,-2.46375042905,-0.0359395145424,2.14712722836,-0.236827155177,-0.566838256865,-0.49682346328,-0.00750754391408,-0.47611860589,-0.0811312631257,-0.0377128110522,-0.504030802473,0.573947208231,0.818868294965,0.00447934887077,0.0,0.818849417322,-0.573869108645,-0.0118585326055,0.0,-0.00714015390176,0.0104742855579,-0.999919650544,0.0,0.432997042218,-0.03935257791,0.304798947856,1.0,-0.17998,-0.236545142857,2.706
0.0324466759265,-0.31923880814,-0.131243553447,-2.47154830339,-0.0372684153356,2.14658907005,-0.245659671904,-0.576376730535,-0.496548760341,-0.0103146974941,-0.44082602754,-0.0711893436661,-0.0290928447236,-0.515241741218,0.574014425593,0.81882062715,0.00457893726375,0.0,0.818803292989,-0.57393634794,-0.0117890968369,0.0,-0.00702527239314,0.0105165630354,-0.999920020527,0.0,0.429958033801,-0.0434222411495,0.304831865426,1.0,-0.17998,-0.236545142857,2.723
0.0221867497322,-0.328025617634,-0.131334951018,-2.47950574767,-0.0385915804615,2.14605731738,-0.255147827397,-0.575932068526,-0.476804588648,-0.00918146688617,-0.440337882655,-0.0772327618926,-0.0331111136137,-0.53428538612,0.573844032555,0.818938646703,0.00482349855018,0.0,0.818925731314,-0.57376714377,-0.0115177351827,0.0,-0.00666488179711,0.0105596739873,-0.999922033279,0.0,0.426821573549,-0.0475853130258,0.304939083637,1.0,-0.17998,-0.236545142857,2.741
0.0132903148398,-0.335162949926,-0.131464449422,-2.48629408037,-0.039739433348,2.14533973876,-0.263118337247,-0.591700071573,-0.472707708863,-0.0105264012971,-0.44081942028,-0.068107886736,-0.0501236123661,-0.534673312647,0.573954259345,0.818862188038,0.00468743872431,0.0,0.818845838602,-0.5738751875,-0.0118113791126,0.0,-0.00698202139265,0.0106176854669,-0.999919254806,0.0,0.423857241879,-0.0514029614492,0.30483723812,1.0,-0.17998,-0.236545142857,2.757
0.00318603163528,-0.343297395072,-0.131609348394,-2.49367655299,-0.0410107400897,2.14459879669,-0.272266213504,-0.589683021498,-0.469563106824,-0.00421877297678,-0.432973923093,-0.0775903695697,-0.0525673889353,-0.552886761013,0.573997586887,0.818831385052,0.00476235257287,0.0,0.818816147309,-0.573918470201,-0.0117666210124,0.0,-0.00690180935902,0.0106537083697,-0.999919428517,0.0,0.420978660352,-0.0551907207127,0.304864553196,1.0,-0.17998,-0.236545142857,2.773
-0.00569736576217,-0.350301922191,-0.131710307399,-2.49997150425,-0.0421310380922,2.14392288329,-0.280489664051,-0.600538845142,-0.464994325473,-0.0134416282631,-0.409956177458,-0.0725656282946,-0.0467994157211,-0.55026746338,0.573876591044,0.818915865365,0.00481773863379,0.0,0.818901700193,-0.573797864437,-0.0116945752175,0.0,-0.00681259620846,0.0106567024924,-0.999920008413,0.0,0.418317542033,-0.0586827391218,0.30489783856,1.0,-0.17998,-0.236545142857,2.788
-0.0161557944903,-0.358129796155,-0.131889133524,-2.50695148133,-0.0433820179923,2.1431214171,-0.289954348926,-0.620226825352,-0.447640072005,-0.0185278650484,-0.417020114848,-0.072654503411,-0.0598656497849,-0.560152573127,0.573998844539,0.818829670884,0.00490341189804,0.0,0.81881696353,-0.573920377414,-0.0116158308584,0.0,-0.00669734789638,0.010682676007,-0.999920509823,0.0,0.415284069297,-0.0627801894446,0.304936141498,1.0,-0.17998,-0.236545142857,2.805
-0.0282908064605,-0.36722850158,-0.131965905141,-2.51518957132,-0.0448472053909,2.14203537127,-0.301250554897,-0.604770521523,-0.455344741265,-0.0030571516833,-0.412755787183,-0.0694114429875,-0.0422454228218,-0.581785501346,0.573765100819,0.818993914609,0.00482947376753,0.0,0.81897956389,-0.573685826972,-0.0117385162555,0.0,-0.00684330448243,0.0106905971099,-0.999919436913,0.0,0.411645317271,-0.0673977670727,0.304888972734,1.0,-0.17998,-0.236545142857,2.825
-0.0382934150919,-0.374322179261,-0.132118050552,-2.52154851239,-0.0459466345406,2.14115006924,-0.310377352048,-0.634566662483,-0.438389719285,-0.0158732891495,-0.389251806509,-0.0556252817406,-0.0543134538478,-0.575404107999,0.573851302223,0.818933418067,0.00484629863992,0.0,0.818918526739,-0.573770773697,-0.0118445225994,0.0,-0.00691934407631,0.0107659257376,-0.999918105407,0.0,0.408745738306,-0.071195153228,0.304857708186,1.0,-0.17998,-0.236545142857,2.841
-0.0484540853595,-0.381368606148,-0.132264844984,-2.52753413624,-0.0470913573243,2.14030488272,-0.319595571332,-0.632139910769,-0.440744738657,-0.000358467336383,-0.370297620805,-0.0709794383921,-0.0478173102014,-0.586314991191,0.573976731394,0.818844697374,0.00498199785188,0.0,0.818832948997,-0.573897932462,-0.0115979159763,0.0,-0.00663786153044,0.0107365646081,-0.999920329314,0.0,0.405936626156,-0.0750389781616,0.304963506488,1.0,-0.17998,-0.236545142857,2.857
-0.0597677206028,-0.38907705017,-0.132387645052,-2.53434446446,-0.0483414840275,2.1392781518,-0.33021418333,-0.633552282541,-0.426153131915,-0.00630452155572,-0.384724779466,-0.0734330221966,-0.0564616771272,-0.587153342556,0.573796822517,0.818970874356,0.00496591663241,0.0,0.818958620024,-0.573717624155,-0.0116453133382,0.0,-0.00668826732451,0.0107491309772,-0.99991985842,0.0,0.402701335789,-0.0792248661761,0.304934601345,1.0,-0.17998,-0.236545142857,2.875
-0.0695471560278,-0.395471960235,-0.132568910173,-2.53994632951,-0.0493748582989,2.13828873073,-0.339134149755,-0.653694366447,-0.420833387231,-0.0116247635243,-0.35627207023,-0.0634800980718,-0.060349366442,-0.594310389738,0.573948454968,0.818864726029,0.00494756570183,0.0,0.818851431422,-0.57386800802,-0.0117724054789,0.0,-0.00680088885155,0.0108082832858,-0.999918461137,0.0,0.399758814444,-0.0830685522722,0.304908394961,1.0,-0.17998,-0.236545142857,2.891
-0.0811048519052,-0.402925163401,-0.132645546308,-2.54637772669,-0.0505739256542,2.13718373764,-0.349957451038,-0.64287248457,-0.422839859562,-0.00437664186443,-0.351508395027,-0.0672035331588,-0.0648459921289,-0.603970518057,0.573784765034,0.818979468712,0.00494167421878,0.0,0.818966038996,-0.573704272981,-0.0117805363107,0.0,-0.00681308892699,0.0108067636837,-0.999918394509,0.0,0.396716442932,-0.0870026346329,0.304904399232,1.0,-0.17998,-0.236545142857,2.908
-0.0923278009302,-0.409812774926,-0.132828164232,-2.55218198387,-0.0516763441519,2.13616271347,-0.360370547299,-0.665220949631,-0.397061482799,-0.0135018641639,-0.338381804511,-0.0509436324467,-0.0581310912241,-0.606763513474,0.573838235722,0.818941401772,0.0050404948231,0.0,0.818929771664,-0.573758240893,-0.0116729169609,0.0,-0.00666753790653,0.0108263857906,-0.999919163387,0.0,0.393693887391,-0.091064297248,0.30494930293,1.0,-0.17998,-0.236545142857,2.925
-0.103030049706,-0.416197511127,-0.132962168694,-2.55749498942,-0.0526666127281,2.13519922902,-0.37027615877,-0.662383282795,-0.406348922916,-0.00315566808971,-0.329904600979,-0.0627664542389,-0.0641839967918,-0.613385409919,0.573912099916,0.818888876455,0.00516299232777,0.0,0.818879539029,-0.573832878725,-0.0115271312356,0.0,-0.00647686949578,0.0108436376444,-0.99992022966,0.0,0.390852320808,-0.0948837663948,0.305007515935,1.0,-0.17998,-0.236545142857,2.941
-0.114307366235,-0.42281553106,-0.133086476726,-2.56318150515,-0.0537393264528,2.13396863922,-0.380945406356,-0.676368385269,-0.38503739915,-0.00829899826207,-0.332325739826,-0.0655459050145,-0.0791667158308,-0.632833623701,0.573768011767,0.818990280126,0.00509280209488,0.0,0.818978812604,-0.573687019711,-0.0117326391525,0.0,-0.00668737172299,0.0109029199668,-0.999918199352,0.0,0.387744734191,-0.0988314989337,0.304953441796,1.0,-0.17998,-0.236545142857,2.958
-0.126630979924,-0.429649549883,-0.133286584021,-2.56894760315,-0.0548804924786,2.13277538072,-0.392314454548,-0.675738193328,-0.376372958204,-0.000573574071824,-0.303212735575,-0.0582830995337,-0.0609157929393,-0.631758683199,0.573926179253,0.818879428212,0.00509604940707,0.0,0.818867714482,-0.573844678909,-0.011776993146,0.0,-0.00671972595329,0.0109323254914,-0.999917661381,0.0,0.384471202298,-0.103150611042,0.304936262897,1.0,-0.17998,-0.236545142857,2.976
-0.136735621979,-0.435112984814,-0.133360821917,-2.57353273737,-0.0556979748525,2.13182317664,-0.401966217354,-0.681802809359,-0.358930880504,-0.0124533455094,-0.301456421767,-0.0611369153493,-0.0675980154064,-0.653850412343,0.573774973848,0.818985002999,0.0051566606846,0.0,0.818973791461,-0.573692828364,-0.0117989187958,0.0,-0.00670492738296,0.0109933059309,-0.99991709215,0.0,0.381814711491,-0.106613726726,0.304925340041,1.0,-0.17998,-0.236545142857,2.991
-0.148603333739,-0.441252906595,-0.133566993462,-2.57849846933,-0.0567230369738,2.13067931439,-0.412982313039,-0.709075330148,-0.360224764304,-0.0169510820699,-0.28640257377,-0.0667522015337,-0.0689915092562,-0.657281446766,0.573934633644,0.818872685798,0.0052256731617,0.0,0.818862878055,-0.573853068228,-0.0117042697066,0.0,-0.00658566498703,0.0109968072337,-0.999917846249,0.0,0.37876947704,-0.110719871166,0.304977484912,1.0,-0.17998,-0.236545142857,3.008
-0.16105027714,-0.447642061953,-0.133648708286,-2.58363830525,-0.0577548416183,2.12948838958,-0.424805675315,-0.685895616899,-0.352019898536,-0.00686073636661,-0.286168371871,-0.0500266799248,-0.0667710729262,-0.655988304215,0.57380107384,0.818965907649,0.00528362277002,0.0,0.81895764318,-0.573720683987,-0.0115629729599,0.0,-0.00643848093637,0.0109621206071,-0.999919185672,0.0,0.375569268232,-0.114922781443,0.305034788878,1.0,-0.17998,-0.236545142857,3.026
-0.172324794986,-0.453084037954,-0.133840848752,-2.58822195018,-0.0586408736541,2.12832569468,-0.435415642738,-0.714773929462,-0.341501413101,-0.0174033011981,-0.284778393859,-0.0578948259404,-0.0721063009267,-0.660259501593,0.573872427061,0.81891604288,0.00526299096613,0.0,0.818906048711,-0.573789627254,-0.0117938094602,0.0,-0.00663841795903,0.0110782504863,-0.999916598409,0.0,0.37261919653,-0.118710206216,0.304964741625,1.0,-0.17998,-0.236545142857,3.042
-0.184358809648,-0.458686010024,-0.133919416954,-2.59275202812,-0.0595134482316,2.12717317091,-0.446865336096,-0.706902302298,-0.332148045523,-0.000249377254983,-0.249081212389,-0.0507124439493,-0.064640380271,-0.675030236391,0.573799566896,0.818966804355,0.00530822906023,0.0,0.818957276395,-0.573716420456,-0.0117981032934,0.0,-0.0066169641733,0.0111171734136,-0.999916308618,0.0,0.369577181557,-0.122695930856,0.304975042693,1.0,-0.17998,-0.236545142857,3.059
-0.195063810204,-0.463409257813,-0.134023461853,-2.59660116224,-0.0603035298912,2.12623920342,-0.457044979989,-0.723918227536,-0.314648037903,-0.0151791776306,-0.256613608806,-0.0549225322346,-0.0600808341315,-0.681911319485,0.573765984552,0.818990207427,0.00532747694691,0.0,0.818980991625,-0.573682882255,-0.0117827359437,0.0,-0.00659378997545,0.0111238496109,-0.999916387456,0.0,0.366902842499,-0.126234875682,0.304965056478,1.0,-0.17998,-0.236545142857,3.074
-0.207399062234,-0.468648495659,-0.134164583792,-2.60085202133,-0.0612405172412,2.12509606747,-0.468649780604,-0.717315701395,-0.310312641278,-0.00507243957016,-0.243219524538,-0.0467985531422,-0.0650451677214,-0.690739154656,0.573840807955,0.818938053751,0.00528565464842,0.0,0.818928025282,-0.573757386005,-0.0118363133023,0.0,-0.00666065222313,0.0111209444248,-0.999915976624,0.0,0.363818326877,-0.130288831907,0.304944538523,1.0,-0.17998,-0.236545142857,3.091
-0.221115803354,-0.474411733838,-0.134323966283,-2.60526298658,-0.0621404965729,2.12386547353,-0.481799869799,-0.732884796823,-0.304529998127,-0.0147489970885,-0.230006960401,-0.0506686101136,-0.0590841223354,-0.695915561321,0.573798894656,0.818966470088,0.00543104642256,0.0,0.818959280591,-0.573716605934,-0.0116490218336,0.0,-0.0064244004604,0.0111322160527,-0.999917397011,0.0,0.360451157952,-0.13475943489,0.305034786591,1.0,-0.17998,-0.236545142857,3.11
-0.232915623506,-0.478999262233,-0.134454278043,-2.6088740544,-0.062910276275,2.12284537366,-0.492997094958,-0.722457935274,-0.275190817194,-0.00192176750896,-0.22069359736,-0.0436053299386,-0.0691962937052,-0.699790140431,0.573862709923,0.818921479862,0.0054723744353,0.0,0.818914965113,-0.573780518197,-0.0116165293253,0.0,-0.00637320625067,0.0111479169502,-0.999917549696,0.0,0.357569538809,-0.138574953142,0.305050365307,1.0,-0.17998,-0.236545142857,3.126
-0.245326714748,-0.48363250866,-0.134519800154,-2.61259648643,-0.0637191258553,2.12177441645,-0.504980321487,-0.739476017862,-0.271045131361,-0.00213901395002,-0.211802142792,-0.046811413721,-0.0620382155733,-0.707199047597,0.57371265152,0.819026847664,0.00543720448634,0.0,0.81901956061,-0.573630051197,-0.0116735000184,0.0,-0.00644209006359,0.0111506261615,-0.999917078068,0.0,0.35452512506,-0.142523232814,0.305023399605,1.0,-0.17998,-0.236545142857,3.143
-0.256607495079,-0.487537445261,-0.13467852896,-2.61573848808,-0.0643943722369,2.12079303129,-0.515675489155,-0.753629218734,-0.251914679498,-0.00329959854012,-0.200910660706,-0.0540774254695,-0.0645208121157,-0.717847870904,0.573846756454,0.818932849432,0.00544381568431,0.0,0.818924708016,-0.573762489014,-0.011818447534,0.0,-0.00655518388572,0.0112402693635,-0.999915339371,0.0,0.351777562587,-0.146121269371,0.304984149507,1.0,-0.17998,-0.236545142857,3.158
-0.269187569599,-0.49175355264,-0.134767182247,-2.61909797171,-0.0650551486813,2.11980147005,-0.527879959938,-0.743311447169,-0.244921150242,-0.00784047214403,-0.188749987556,-0.0451223876258,-0.0550784890047,-0.71773659143,0.573751530934,0.818999149965,0.00550636077878,0.0,0.818991323733,-0.573666199558,-0.0118764488087,0.0,-0.00656811487413,0.0113240104115,-0.999914309656,0.0,0.348749452489,-0.150073351702,0.304959391146,1.0,-0.17998,-0.236545142857,3.175
-0.283614484083,-0.496305212545,-0.13495242121,-2.62262596691,-0.0658479127289,2.1186944021,-0.541676463781,-0.753635084816,-0.23237262748,-0.000849950059793,-0.180210552342,-0.0440553973261,-0.0535085977007,-0.729593041225,0.573866308949,0.818918303091,0.00556948987199,0.0,0.818911238585,-0.573780620872,-0.0118713660725,0.0,-0.0065261392512,0.0113737138588,-0.999914020374,0.0,0.345309692618,-0.154621571854,0.304966014857,1.0,-0.179175428571,-0.235487706122,3.194
-0.295515052199,-0.499943678862,-0.134970104375,-2.62539004121,-0.0664054610745,2.1177724108,-0.553232635994,-0.751627163372,-0.217506046968,-0.00538838135824,-0.164815323195,-0.0421445691798,-0.056360009593,-0.717359896762,0.57376818692,0.818986624638,0.00563233910416,0.0,0.818980461091,-0.573682433782,-0.0118413015128,0.0,-0.00646681805838,0.0114071573994,-0.999914024816,0.0,0.3424920305,-0.158293663614,0.304992371463,1.0,-0.176834857143,-0.232411526531,3.21
-0.308456039516,-0.50350191095,-0.135058747908,-2.62809367435,-0.0670351275048,2.11688164007,-0.565544177741,-0.751388248942,-0.202225915114,0.00273341365255,-0.155129899347,-0.0422551956239,-0.0501231045874,-0.715031561922,0.573926039143,0.81887575374,0.00566995868403,0.0,0.818870366212,-0.573840628566,-0.0117899638881,0.0,-0.00640098614902,0.0114097480929,-0.99991441885,0.0,0.339476838296,-0.162315310818,0.305013109591,1.0,-0.174348,-0.229143085714,3.227
-0.319566654136,-0.506407912415,-0.135026982155,-2.630307958,-0.0674575117499,2.11619061374,-0.57634071417,-0.739781389769,-0.195718367297,0.000433050426526,-0.145950965446,-0.0255006271761,-0.0504150009752,-0.719563323434,0.573855417697,0.818924737246,0.00574292666088,0.0,0.818920640942,-0.573770380861,-0.011716688437,0.0,-0.00630008607839,0.0114269063224,-0.99991486374,0.0,0.33691535785,-0.165705417343,0.305030197357,1.0,-0.172153714286,-0.226259167347,3.242
-0.332267193323,-0.509506879035,-0.135061080419,-2.63266432182,-0.0679654199678,2.11540245226,-0.58850073887,-0.748322311817,-0.178184758809,-0.000339995264564,-0.13494923241,-0.0339314753872,-0.0412590007419,-0.716786004899,0.573969783507,0.818844213468,0.00579556654569,0.0,0.818840970287,-0.573884852513,-0.0116785416985,0.0,-0.00623703852161,0.0114489978127,-0.999915006288,0.0,0.333809801371,-0.16981494183,0.305041248919,1.0,-0.169520571429,-0.222798465306,3.26
-0.344623741818,-0.512339222287,-0.134967923898,-2.63484262396,-0.068389450784,2.11461826847,-0.600589806565,-0.723296563431,-0.156686571068,0.00385101093694,-0.123973612031,-0.0201465199653,-0.0528093127297,-0.71924274779,0.573820209656,0.818948834748,0.00582408423096,0.0,0.818945668225,-0.573734669672,-0.0117161517996,0.0,-0.00625357022223,0.0114927945062,-0.999914400603,0.0,0.331134054403,-0.173292582337,0.305036162626,1.0,-0.16718,-0.219722285714,3.276
-0.358579660798,-0.515173462463,-0.134958073225,-2.63708433502,-0.0688643827265,2.11379690686,-0.613956804319,-0.736572970635,-0.142693472579,0.000840060309707,-0.111236218666,-0.0222977978914,-0.0401283044967,-0.699990807165,0.573965699237,0.818846721668,0.00584546101859,0.0,0.818842993725,-0.573878515642,-0.0118468482743,0.0,-0.00634629056472,0.0115864224282,-0.999912735898,0.0,0.327921765284,-0.17749230488,0.304994759556,1.0,-0.164400571429,-0.216069322449,3.295
-0.370706400851,-0.517437822574,-0.134834284942,-2.63885170157,-0.069190906939,2.11317273241,-0.62578660596,-0.712022188457,-0.126766008508,0.00905757612137,-0.100861030889,-0.00930917976464,-0.0374400845867,-0.689341139497,0.573881052261,0.81890583165,0.00587568255688,0.0,0.818902208851,-0.573793244573,-0.0118840953852,0.0,-0.00636065051866,0.0116318905391,-0.999912116762,0.0,0.325174801715,-0.18109512654,0.30497639789,1.0,-0.161913714286,-0.212800881633,3.312
-0.382152252899,-0.519403678159,-0.134785423453,-2.64036802104,-0.0695367710549,2.11260252288,-0.636831441209,-0.716014148008,-0.125372733756,-0.00325004744987,-0.0952747337253,-0.0217029233576,-0.0419324130056,-0.696744805283,0.573940622338,0.818864012239,0.00588543898816,0.0,0.818860274104,-0.573852322026,-0.011921027661,0.0,-0.00638445063146,0.0116615387385,-0.999911619747,0.0,0.322576236252,-0.184510557564,0.304963450798,1.0,-0.159573142857,-0.209724702041,3.328
-0.394050325176,-0.521318647603,-0.134652799538,-2.64178882072,-0.0698350286525,2.11203565255,-0.648445386409,-0.6954431026,-0.104670947367,0.0123514231414,-0.0841677364069,-0.012276576147,-0.0267220186271,-0.682975178743,0.573870402101,0.818913110145,0.00590140034146,0.0,0.818909659312,-0.573782199287,-0.0119039728375,0.0,-0.00636232344711,0.0116642759954,-0.999911728857,0.0,0.319899952307,-0.188025585575,0.304976517645,1.0,-0.157086285714,-0.206456261225,3.345
-0.404446624129,-0.52284119535,-0.134564729247,-2.64288607371,-0.0700789151888,2.1115807551,-0.658601123405,-0.695809479547,-0.103661997731,0.00117061452463,-0.0671579964949,-0.0131798218147,-0.0321780908404,-0.667786886434,0.573837669569,0.818935841076,0.00592993142865,0.0,0.818933006207,-0.573749813883,-0.0118587231833,0.0,-0.00630935786535,0.0116614231656,-0.999912097743,0.0,0.317571433218,-0.191102552341,0.305000051154,1.0,-0.154892,-0.203572342857,3.36
-0.416220169773,-0.524389853028,-0.134507919087,-2.64400774072,-0.070337552868,2.11113497289,-0.670000986021,-0.677772710459,-0.0878233146344,0.0102771000267,-0.0608450790645,-0.00942227928568,-0.0228040351581,-0.668001989304,0.573928471995,0.818871847139,0.0059794563209,0.0,0.81886998196,-0.573841016738,-0.0117977563286,0.0,-0.00622971316346,0.0116676901915,-0.999912524014,0.0,0.314935417826,-0.194591760673,0.305021348861,1.0,-0.152405142857,-0.200303902041,3.377
-0.426966461134,-0.525597485586,-0.134385807866,-2.64492222447,-0.0705328153269,2.11076276722,-0.680582336288,-0.679513045903,-0.0739499526151,0.00715912458704,-0.0617428619014,-0.00884018272749,-0.0270446669896,-0.661505513141,0.573841440234,0.818932695627,0.00599903359157,0.0,0.818931049608,-0.573753863068,-0.0117977753708,0.0,-0.00621973503812,0.0116830722214,-0.999912406523,0.0,0.312541971487,-0.197746125087,0.305019234525,1.0,-0.150064571429,-0.197227722449,3.393
-0.439158328704,-0.526787598189,-0.134338972,-2.6458460306,-0.0707411118493,2.11035473877,-0.692360112425,-0.66585438517,-0.0596278688707,0.00670267734774,-0.0490347957098,-0.0141761275248,-0.02158469069,-0.655668390057,0.574005754379,0.818817140475,0.00605238007226,0.0,0.818815755916,-0.573917126317,-0.0118590423786,0.0,-0.00623694267122,0.0117631692081,-0.99991136027,0.0,0.309803350699,-0.201334622027,0.305001046565,1.0,-0.147431428571,-0.193767020408,3.411
-0.450829992059,-0.527769242318,-0.134180371575,-2.64662282607,-0.0708817205019,2.1100596144,-0.703943210078,-0.648532936985,-0.0511774854389,0.00507167203225,-0.0376804189752,-0.00600474154206,-0.00927925291288,-0.646306119199,0.573861979495,0.818917633573,0.00608973026967,0.0,0.818916639367,-0.573773054583,-0.0118645060598,0.0,-0.00622204988135,0.011795797486,-0.999911068674,0.0,0.307209368341,-0.204730389405,0.304985619111,1.0,-0.144798285714,-0.190306318367,3.429
-0.46201410014,-0.528530820139,-0.134105677323,-2.6472193667,-0.0710393136489,2.1097607538,-0.714731163715,-0.656667708889,-0.0415876496678,0.00133912998995,-0.036236109664,-0.0150072686814,-0.0167577553879,-0.635372878304,0.574032382861,0.818797980322,0.00611863940946,0.0,0.818796985928,-0.573942593607,-0.0119223312062,0.0,-0.006250353279,0.0118539559234,-0.999910204375,0.0,0.304706476395,-0.20800285991,0.304968976457,1.0,-0.142311428571,-0.187037877551,3.446
-0.472749897392,-0.529080164243,-0.133936543175,-2.64764700903,-0.0711254845199,2.10955794131,-0.725364098854,-0.625811588329,-0.0273881201842,0.00944858566684,-0.0218596596819,-0.00134407311184,-0.00974367397937,-0.627643843444,0.573936098261,0.818865304152,0.00614130845628,0.0,0.818864551338,-0.573846135608,-0.0119250203908,0.0,-0.00624093948152,0.0118733280668,-0.999910033331,0.0,0.302342342375,-0.211122245779,0.304962119863,1.0,-0.139824571429,-0.183769436735,3.463
-0.482820699922,-0.529473190072,-0.1338212638,-2.64795627815,-0.0712056996571,2.10936907635,-0.735257624923,-0.628260228767,-0.0258381454731,-5.23174858686e-05,-0.0182826209988,-0.00172246662759,-0.00901822650713,-0.613874837942,0.573939917455,0.818862395894,0.00617208584874,0.0,0.818861742437,-0.573849253592,-0.0119677828214,0.0,-0.00625824094782,0.0119231028139,-0.99990933291,0.0,0.299969037375,-0.214234468999,0.304948405058,1.0,-0.137337714286,-0.180500995918,3.48
-0.492190668904,-0.529756741604,-0.133735709253,-2.64814566275,-0.0712812660193,2.10921323154,-0.744363287992,-0.618578882876,-0.0195964804938,0.00840362756806,-0.00973145449896,-0.00275878944384,-0.00896240800183,-0.612312854137,0.574060995106,0.818777323522,0.0061980066157,0.0,0.818777052095,-0.573970282607,-0.0119582836741,0.0,-0.00623381991214,0.0119397996895,-0.999909286222,0.0,0.29803011132,-0.216787750491,0.304957944905,1.0,-0.135289714286,-0.177809338776,3.494
-0.50418355265,-0.529953326918,-0.133526015106,-2.64831805737,-0.0713135154003,2.10909280115,-0.756361007717,-0.602462321334,-0.00972798660535,0.00870389121396,-0.00964721311056,-0.00161790560638,-0.00698404026472,-0.600150927977,0.573885746969,0.818899944438,0.00622714431809,0.0,0.818899942994,-0.573794739958,-0.0119677341683,0.0,-0.00622739408741,0.0119677506061,-0.999908992113,0.0,0.29538350444,-0.22024915766,0.304946317334,1.0,-0.132364,-0.173964114286,3.514
-0.512672289175,-0.530049578641,-0.133435683863,-2.64839177946,-0.0713339016939,2.10900554775,-0.764577270033,-0.602108349009,-0.00470612167531,0.00348034663816,-0.00459723204073,-0.00495001723804,-0.009928972014,-0.589532746892,0.574032285584,0.818796893171,0.00627134287149,0.0,0.818797385163,-0.573940902001,-0.0119762248578,0.0,-0.00620683502186,0.0120099301008,-0.999908614213,0.0,0.293486413619,-0.22270352236,0.304942741687,1.0,-0.130316,-0.171272457143,3.528
-0.522602855961,-0.530015118288,-0.133276729287,-2.6483590737,-0.0713494233939,2.10893807061,-0.774422971306,-0.559702487386,0.00379478530356,0.0111274117908,0.000976658692158,-0.000404328823313,-0.000583656685474,-0.568892003665,0.573984941825,0.818829931382,0.00629102003853,0.0,0.818830657519,-0.57389344189,-0.0119757489802,0.0,-0.00619584586204,0.0120254111828,-0.999908496304,0.0,0.291284836844,-0.225569616873,0.304943276833,1.0,-0.127829142857,-0.168004016327,3.545
-0.533528559128,-0.529865397685,-0.133126406394,-2.6482630604,-0.0713620948192,2.10892174069,-0.785219175679,-0.577565955427,0.00691673693168,0.00633665859999,0.00866141772168,-0.000319270036689,-0.0116870814033,-0.565528457546,0.573985229339,0.818829520792,0.00631817065492,0.0,0.818830602855,-0.573893618085,-0.0119710421672,0.0,-0.00617640381925,0.0120449447726,-0.999908381474,0.0,0.288848557957,-0.228722424388,0.304934675647,1.0,-0.125049714286,-0.164351053061,3.564
-0.542672392814,-0.529670116567,-0.133006719561,-2.64808513236,-0.0713579573351,2.10893864478,-0.794144158358,-0.566671979836,0.0166035333936,0.0123871253121,0.0126802188425,0.0040396731988,-4.46165591699e-05,-0.549471983504,0.574091734998,0.818754635249,0.00634617727864,0.0,0.818756437842,-0.574000679894,-0.0119105782909,0.0,-0.00610924873349,0.0120339697496,-0.999908926179,0.0,0.286811530065,-0.231366161725,0.304948753642,1.0,-0.122709142857,-0.161274873469,3.58
