nelsonifechukwu/NELSON_IML_WORK/CNN-GradCAM/train2dof/data_sample_2022-07-05-18-45-27/robot_state.csv
position_joint1,position_joint2,position_joint3,position_joint4,position_joint5,position_joint6,position_joint7,velocity_joint1,velocity_joint2,velocity_joint3,velocity_joint4,velocity_joint5,velocity_joint6,velocity_joint7,ee_T_00,ee_T_10,ee_T_20,ee_T_30,ee_T_01,ee_T_11,ee_T_21,ee_T_31,ee_T_02,ee_T_12,ee_T_22,ee_T_32,ee_T_03,ee_T_13,ee_T_23,ee_T_33,v_x,v_y,w_z,time
0.46509462384512285,0.5472868752183818,-0.12399551920832488,-1.3555717037006587,0.07941831355691606,1.8941714364457203,0.15914739449820622,0.0011413280563808146,-0.0006588506861455384,-0.0012129346185357672,0.00041236479802402335,6.340581628373117e-05,2.1556973419945068e-05,0.0015592603894234252,0.5737473376227338,0.8190164544775491,0.002605142425653029,0.0,0.8189829164191413,-0.5736875273781348,-0.011417111962661996,0.0,-0.0078564161037471,0.008684271932512005,-0.9999314277224248,0.0,0.6617649064119919,0.26092947458552845,0.30369520923146825,1.0,5e-324,6.89839611684895e-310,6.89818391726996e-310,0.0
0.4650970943956722,0.5472946619150119,-0.12399485379454835,-1.3555691990266747,0.07941760147942437,1.894171433538618,0.15914924035413366,0.0001443110721912791,0.0018530882360974232,0.0003162953465755393,-0.0020811973328927957,9.60804714447336e-05,0.0003342156800637832,0.001148231812155824,0.5737460525007484,0.8190173707724347,0.0026000988490851584,0.0,0.8189837727376518,-0.573686264168538,-0.011419159249134501,0.0,-0.007861000138069674,0.008681303448975788,-0.9999314174718466,0.0,0.6617645181425441,0.26093157415482965,0.3036908613661028,1.0,-0.00022000000000000006,-0.0002891428571428573,-0.00011000000000000003,0.012000000000000004
0.46509391132635397,0.5472819778635859,-0.12399493369400434,-1.3555727330469267,0.07941764097056761,1.894168182690938,0.1591405578486803,0.00019520770556556274,-0.0033473171759240226,1.7227823919966524e-05,0.001037247402581719,-6.387686794311268e-05,-0.00037966823027362336,-0.00036967038265159466,0.5737413556842855,0.8190206481010271,0.0026041626178194928,0.0,0.8189870926524824,-0.5736815440501666,-0.011418186636209724,0.0,-0.007857921876724794,0.008684028645738834,-0.9999314180033844,0.0,0.6617638000152644,0.26092872883760837,0.3036965187520703,1.0,-0.0005400000000000003,-0.0007097142857142863,-0.00027000000000000017,0.028000000000000018
0.4650963802869014,0.5472425533599155,-0.12400023508751261,-1.3556025496456898,0.07941795689971387,1.8941694378264258,0.15914684731761625,0.0004343495506767005,-0.005296535046808588,-0.002174026702667652,-6.351083459819013e-05,-6.37141750516641e-05,0.00927166098124389,0.0008410305684635829,0.5737502369617106,0.8190143894738908,0.002615783305111489,0.0,0.8189809825893496,-0.5736903856744147,-0.011412205874997809,0.0,-0.00784626215897205,0.008690199919774405,-0.9999314559486,0.0,0.6617592470620901,0.2609246323316072,0.3037119051736921,1.0,-0.0009000000000000006,-0.001182857142857144,-0.0004500000000000003,0.046000000000000034
0.4650956679348485,0.5471436981262473,-0.12399244009322948,-1.3557124436577648,0.07941724894906922,1.8941905406038613,0.1591460291269592,0.00033006244216172043,-0.006480935180548019,-8.690666295612663e-05,-0.009466572534280532,0.00031103961589881767,0.0004753158122787654,0.002482557202340321,0.5737484314613452,0.8190155997520563,0.0026328045186796,0.0,0.8189823139260828,-0.5736884169576408,-0.011415630780779345,0.0,-0.007839321165212909,0.008706088210613638,-0.9999313721809799,0.0,0.6617380941587112,0.2609173071230884,0.3037329850456914,1.0,-0.001240000000000001,-0.0016297142857142875,-0.0006200000000000005,0.06300000000000004
0.46508716805931927,0.5470074968469761,-0.12398996345410318,-1.3558970913808728,0.07940962280696447,1.8942201249296267,0.15914906847092997,-0.0026385774760321183,-0.008861729372306585,0.0007946332522902694,-0.011557899978447058,-0.0004704070662098627,0.0012488255814567311,0.0017870279779228602,0.5737662314130689,0.8190031737342479,0.0026191610263652703,0.0,0.8189696156606336,-0.5737061516801606,-0.01143534215591905,0.0,-0.007863104114488428,0.008706394097901998,-0.9999311827798434,0.0,0.6617085465503313,0.2608946855527269,0.3037422434122154,1.0,-0.001560000000000001,-0.002050285714285716,-0.0007800000000000005,0.07900000000000006
0.46506762517213646,0.5468443628934295,-0.12399601033187532,-1.3561203270743614,0.07940597502345738,1.8943158917522358,0.15913255333116316,-0.0004571980633581441,-0.005431411922179998,-0.0004188961263824481,-0.01247313387852941,0.0002319556529167947,0.007116749125166241,-0.0016232869187173286,0.5737845062470943,0.8189902610184334,0.002653233676975616,0.0,0.81895710546367,-0.5737242740777897,-0.011422068363002387,0.0,-0.007832488984388375,0.008726858447268393,-0.9999312446653272,0.0,0.6616874622485354,0.26085981266877833,0.3037600442079117,1.0,-0.0019200000000000016,-0.002523428571428574,-0.0009600000000000008,0.09700000000000007
0.4650450665436898,0.5466597614722574,-0.12399034631309823,-1.3563312442026276,0.07940063321501438,1.894441637652371,0.1591353834769098,-4.1028195390593923e-05,-0.014175745786359046,0.0010882088568597273,-0.016487470319716695,-0.001971520189829277,0.0060989040582929395,-0.0002913715349768757,0.5738119132325089,0.8189707653931695,0.0027423648520941814,0.0,0.8189387335741044,-0.5737513696733043,-0.011378196309509203,0.0,-0.007745123667990683,0.00877494233729842,-0.9999315043773472,0.0,0.6616739252685838,0.2608332329284294,0.30380113117975,1.0,-0.002240000000000002,-0.002944000000000003,-0.001120000000000001,0.11300000000000009
0.4650187066602176,0.5464593850114544,-0.12399313037751011,-1.3565768229459172,0.07939236341792197,1.8945592359170558,0.15912545014184454,-0.0023505239805878524,-0.012092895993491446,-0.008665177714943075,-0.013720315001069298,-9.255967214546389e-05,0.000932845323213817,-0.002316195931458732,0.5738430368157196,0.8189486942789266,0.0028199535744910294,0.0,0.8189176628572464,-0.573782254456773,-0.011337232119729437,0.0,-0.007666719729866933,0.008815271220546095,-0.9999317538721789,0.0,0.6616564609896132,0.26078886708230764,0.3038438104876257,1.0,-0.002580000000000002,-0.003390857142857146,-0.001290000000000001,0.1300000000000001
0.46498036350370014,0.5462288064853944,-0.12399034631374174,-1.3569233301238595,0.07937117292193055,1.8946815355178663,0.15911345305911606,-0.0012520646761626797,-0.011468219904476142,0.0008236408580307717,-0.02605365998843747,-0.0005691340885542961,0.009334430317019582,-0.0012122146372244389,0.5738722687199905,0.8189282358542199,0.002812581745361761,0.0,0.8188970876582172,-0.5738114798015449,-0.011344266131370014,0.0,-0.007676395951064396,0.008813544429891754,-0.999931694857096,0.0,0.6616158600709364,0.26073731748710455,0.3038452831365889,1.0,-0.002900000000000002,-0.0038114285714285745,-0.001450000000000001,0.1460000000000001
0.46494098432381087,0.5459515420485411,-0.1239981768428225,-1.357349686502488,0.07934462301212875,1.8948339085229786,0.15910208156347486,-0.0004824355079113547,-0.01636846266586817,-0.0016045848743129938,-0.0245502213798232,0.0001113979928450236,0.005513552753068142,0.0006158613076064702,0.5739174428789432,0.8188965776366854,0.0028126136292080167,0.0,0.8188654673043964,-0.5738566913057201,-0.011339806048262228,0.0,-0.007672238927181052,0.008811434311205318,-0.9999317453582636,0.0,0.6615692974912668,0.26066580678800017,0.30385210973684956,1.0,-0.0032400000000000024,-0.004258285714285718,-0.0016200000000000012,0.16300000000000012
0.46489269871297156,0.545621762954417,-0.12399561334044591,-1.3578697279246048,0.07930406793059372,1.8950228119300232,0.15907945682438424,-0.003244166018142407,-0.020825704354179436,0.0005594761285088031,-0.028457999106558406,-0.00017988877610609653,0.004338534247196052,-0.0012606695989211627,0.5739549662778782,0.8188703000312505,0.0028062987899370373,0.0,0.818839167532015,-0.5738942969406327,-0.011335808559705222,0.0,-0.0076721857986774,0.008804320495068532,-0.9999318084278003,0.0,0.6615105915245169,0.2605842050277026,0.3038543078710465,1.0,-0.0036200000000000026,-0.00475771428571429,-0.0018100000000000013,0.18200000000000013
0.46484445037785255,0.5453197244248024,-0.12399846282980172,-1.3583811070666179,0.07927569623461321,1.895185332018563,0.15899498093338713,-0.00772915408150662,-0.01891457058033142,-0.00046010908636480007,-0.03550271321005814,-0.0009185750906473859,0.012543330631290579,-0.010736455337974527,0.573948234634829,0.8188751505771134,0.002767422642331138,0.0,0.8188434718747399,-0.5738876317609477,-0.0113622876719852,0.0,-0.007716253963808317,0.008787620104258195,-0.9999316162406654,0.0,0.6614483880008736,0.2605003414365232,0.30383886923519365,1.0,-0.003940000000000003,-0.0051782857142857195,-0.0019700000000000017,0.19800000000000015
0.4647898100193648,0.5449745581392366,-0.12399187077548283,-1.358950330750102,0.07924213883779861,1.8953717029467327,0.1589446722511885,-0.0017884516577846,-0.023907868657587577,0.001993993928392303,-0.037971557040424764,-0.0020395848091458004,0.01334316092454276,-0.0008803138408869679,0.5739699431405805,0.81886003597877,0.002737288668470181,0.0,0.8188279001771159,-0.5739093521854727,-0.011387373129666705,0.0,-0.007753858489999876,0.008777547235321481,-0.9999314138194924,0.0,0.661378530699859,0.26041220043104035,0.3038281567480762,1.0,-0.004260000000000003,-0.0055988571428571485,-0.0021300000000000017,0.21400000000000016
0.46472900916765614,0.5445816875370448,-0.12400486979465901,-1.3596359630880919,0.07921099428362817,1.895598978065649,0.15893749318974007,-0.00613855246859784,-0.02364618890561463,-0.0003999938025633632,-0.04573366242034841,-0.0005819768857340816,0.007088284199808933,-0.0015264919251885486,0.574052877398242,0.8188020793630059,0.0026824769943076263,0.0,0.818769179765617,-0.5739923838930939,-0.011424552501945007,0.0,-0.007814876440271512,0.008754795282036654,-0.999931138261927,0.0,0.6612972495588154,0.2602986214953732,0.303799972994694,1.0,-0.004600000000000003,-0.006045714285714291,-0.0023000000000000017,0.23100000000000018
0.46466975886659617,0.5441716243404974,-0.12400767147693804,-1.3603180706844191,0.07917240883317893,1.8958198234333774,0.15889822610026466,-0.001269905959356489,-0.025962774694033738,-0.00010065911889533147,-0.04404744870873631,-0.0015524731150976094,0.00996496707452362,-0.0024994517279156216,0.5740988470400769,0.8187699890733526,0.002639265292611273,0.0,0.8187364824129751,-0.5740384309967501,-0.011454213461659347,0.0,-0.007863477919609174,0.00873688173596393,-0.9999309139198266,0.0,0.6612135332125153,0.2601909792293947,0.303784692689677,1.0,-0.004920000000000004,-0.006466285714285721,-0.002460000000000002,0.2470000000000002
0.4646057592697099,0.5437062076645602,-0.12401135299523595,-1.3610673348650137,0.07913928295854737,1.8960813804526837,0.15882436762736793,-0.0037225871150768654,-0.03063810972951279,0.0001571656685982953,-0.04716623886125224,-0.0016097299837234311,0.017229308401740036,-0.010454030610544908,0.5741262314918257,0.8187508308784742,0.002625671344791713,0.0,0.8187170410634573,-0.5740657367871739,-0.011475339668367428,0.0,-0.007888287806964212,0.008738143629444028,-0.9999307074799662,0.0,0.6611249945694372,0.2600760951555268,0.30378015427713867,1.0,-0.005260000000000003,-0.0069131428571428625,-0.0026300000000000017,0.2640000000000002
0.46453451690654235,0.5431700934429405,-0.12401480944108577,-1.3619275729863456,0.07908689101525722,1.8963909269991965,0.15877989441607834,-0.0039740821600748434,-0.03415175031273277,-0.0008045335127890063,-0.05023934237969015,-0.0006491056419130006,0.021680148065914003,0.0004048580011451647,0.5741845034248787,0.8187100133875813,0.002610920688239645,0.0,0.8186760402901052,-0.574124057781469,-0.01148277983167951,0.0,-0.007902226591992578,0.008730900543040349,-0.9999306606913284,0.0,0.6610251575698336,0.2599444534271363,0.30377688597578145,1.0,-0.005620000000000004,-0.007386285714285721,-0.002810000000000002,0.2820000000000002
0.4644669457215165,0.5426859056159126,-0.12401334388973576,-1.362733357917125,0.07904133735244932,1.8966658931011047,0.15872755879684547,-0.0016321456595083813,-0.031771847718043915,-0.0001945062782852142,-0.048477808394647,-0.004856733620030037,0.0189213695962641,-0.005621453682640282,0.574228571635974,0.818679227400313,0.0025723610446609126,0.0,0.8186446902627745,-0.574168175561095,-0.011511914637353562,0.0,-0.007947750552136146,0.008716487829054542,-0.999930425630247,0.0,0.6609270042754751,0.25982263795879046,0.30375959012291526,1.0,-0.005940000000000004,-0.00780685714285715,-0.002970000000000002,0.2980000000000002
0.4643992721459086,0.5421298635488466,-0.12401519848391271,-1.363636683182374,0.07898540184743567,1.8969843118332463,0.15864939154430455,-0.004200456594076554,-0.03297343590129534,0.0018588188724505343,-0.05830553318100021,-0.00041209091831893673,0.01376867138272708,-0.0044171661223288625,0.5742648412799052,0.818653829583354,0.002558569811863619,0.0,0.8186191660063697,-0.5742045435132891,-0.011513042905311084,0.0,-0.007956207435369955,0.008706197663507803,-0.999930448024006,0.0,0.6608294998047373,0.2596930058830539,0.303760662100308,1.0,-0.006260000000000004,-0.008227428571428578,-0.003130000000000002,0.3140000000000002
0.464323246855431,0.5415488793026175,-0.1240211989852129,-1.364512845699418,0.07893278411978685,1.8973001286810283,0.1585898097815561,-0.007568897444953635,-0.03822758982200439,-0.0010721515771360806,-0.05790844691833212,-0.00031198831341780936,0.02222781349680539,-0.0020536639302760605,0.5743087178231085,0.8186230391854775,0.0025618837439889504,0.0,0.8185883752061185,-0.5742483562608683,-0.011517126825136045,0.0,-0.00795718103575277,0.008711682318289268,-0.9999303925079734,0.0,0.6607185520294594,0.2595523006052343,0.3037718138645113,1.0,-0.006600000000000005,-0.008674285714285723,-0.0033000000000000026,0.33100000000000024
0.46422555331292803,0.5408886163322437,-0.12402441149150246,-1.3655476230810193,0.07887190912383518,1.8976757403387565,0.1585109028444122,-0.003337807145797977,-0.03664391526648913,-0.001134230807109901,-0.061194182477230914,-0.0024213147079713304,0.027438422104674884,-0.003338155772354693,0.5743674616520122,0.8185818234635631,0.0025620678562926656,0.0,0.8185471505223882,-0.5743070798250267,-0.011518998903437133,0.0,-0.007957982633815197,0.008713479265629986,-0.9999303704716082,0.0,0.6606016451124289,0.2593873733324654,0.3037786896099348,1.0,-0.006960000000000005,-0.00914742857142858,-0.0034800000000000026,0.34900000000000025
0.4641503610155696,0.5402515131265543,-0.1240275978985488,-1.3665107678986474,0.07881390863415758,1.8980394338342286,0.15844539227629628,-0.005528862721047945,-0.04287808844063533,-0.00034494902337748473,-0.060576653922932565,-0.0027821823911167803,0.020897113843697548,-0.007651830148866543,0.5744256897322004,0.8185408595064413,0.002595225491282875,0.0,0.8185066601903286,-0.5743652401252853,-0.011496306411435592,0.0,-0.007919741698255378,0.008728151133028342,-0.9999305461226955,0.0,0.6604883780192218,0.25923167868988023,0.30380373235993813,1.0,-0.007300000000000005,-0.009594285714285724,-0.0036500000000000026,0.36600000000000027
0.4640441823584749,0.5395921740254874,-0.12402820814539922,-1.3675322198172868,0.07875806118679864,1.8984231774044031,0.15836521700031747,-0.008573340429647407,-0.04351416209846308,-0.00013701061414877122,-0.07583976114803524,-0.006949841472275535,0.02662526399215211,-0.005283536067568985,0.5744846882172119,0.8184994230982002,0.0026046675592926467,0.0,0.818465253953701,-0.5744240988763819,-0.011503460425821975,0.0,-0.007919544382319399,0.00874056005439501,-0.9999304392940102,0.0,0.6603716129207788,0.2590665330256545,0.30380926190354507,1.0,-0.007620000000000006,-0.010014857142857152,-0.003810000000000003,0.3820000000000003
0.4639402507563464,0.5388131040107937,-0.12403964661999907,-1.3687706636552668,0.07868127919080206,1.898877239967842,0.15828413928055068,-0.00969978038621213,-0.044077461598943435,-0.0010429330099565415,-0.0696884635606357,-0.0053296214753799235,0.025348043505098235,0.0007898811089345174,0.5745535111461024,0.8184511191444858,0.0026029410352687663,0.0,0.8184170116435432,-0.5744930116759582,-0.011494411213630372,0.0,-0.007912394625251562,0.008734613713298173,-0.9999305478554869,0.0,0.6602394245138629,0.2588854713473882,0.3038158036192589,1.0,-0.007960000000000005,-0.010461714285714295,-0.003980000000000003,0.3990000000000003
0.4638482741923272,0.5381009982456407,-0.12403965624889463,-1.3698617708718221,0.07862694590118884,1.8993164214842342,0.15819344411701156,-0.00352021745606475,-0.044052776316173915,-0.0019007270323329205,-0.06943819826758772,-0.014615926290610442,0.021371102750383224,-0.0014494883273437694,0.5746210738897687,0.8184034990520251,0.0026610303228163977,0.0,0.8183701229487782,-0.5745603556843656,-0.011466753763161135,0.0,-0.007855660119575225,0.008766914864148781,-0.9999307125035468,0.0,0.6601157528593479,0.25870726234334235,0.30384039084148773,1.0,-0.008300000000000007,-0.01090857142857144,-0.0041500000000000035,0.4160000000000003
0.46373574978016635,0.5373115601575574,-0.12404817473369975,-1.3711243938341846,0.07854669759059638,1.8997920303273395,0.15810952844816575,-0.003441886266362744,-0.0461457058784537,0.0014186933182892816,-0.07590187648272603,-0.00457394572930315,0.0337142239023339,-0.006448199946584573,0.5746780763934575,0.818363496262892,0.0026539401461992164,0.0,0.8183300668622012,-0.5746174167190711,-0.011466166474245046,0.0,-0.007858643156892553,0.008761322192915533,-0.9999307380819756,0.0,0.6599789822550118,0.25852614066930824,0.3038354713863193,1.0,-0.008620000000000006,-0.011329142857142867,-0.004310000000000003,0.43200000000000033
0.4636340761972878,0.5364983795582586,-0.12405552861961276,-1.3723958155758982,0.07847462773787098,1.9002563613191286,0.15798830151014873,-0.007540583893234829,-0.044419498546396055,-0.0005329691442380671,-0.07014060134978592,-0.007857479896862467,0.033692103059975,-0.007673679237921423,0.574717891748547,0.8183355182571854,0.0026592036510109576,0.0,0.8183021340725899,-0.5746571847808415,-0.011466658328010245,0.0,-0.007855594546219258,0.00876629450056493,-0.9999307184575614,0.0,0.6598303177060919,0.25833437760537353,0.3038448548719189,1.0,-0.008960000000000008,-0.011776000000000012,-0.004480000000000004,0.44900000000000034
0.46351753723991856,0.535642519591627,-0.12406273768976635,-1.3737492415692392,0.07839467771954826,1.90075238777043,0.1579301170717965,-0.0033775458843632784,-0.0441889369391253,0.0007121768924311023,-0.0777056756940715,-0.00552513343274895,0.028331812948377784,0.001017761905109879,0.5748236633254106,0.8182612375503286,0.0026552033760329635,0.0,0.8182278089740759,-0.5747629643125964,-0.011468843764248235,0.0,-0.007858549029964468,0.008765292786471895,-0.9999307040237895,0.0,0.6596740315733118,0.2581246084064843,0.3038479144888787,1.0,-0.009300000000000008,-0.012222857142857155,-0.004650000000000004,0.46600000000000036
0.46340081360090574,0.5347438901147855,-0.12406845167759578,-1.3751528933377655,0.07831385328462159,1.9012674810609655,0.15781165686188123,-0.009792234007742406,-0.05396405843885031,-2.2637592850590746e-05,-0.08528445629920751,-0.0025989638671794716,0.029937199699663523,-0.009963797160995979,0.5748815837732428,0.8182205185891395,0.0026635501301511422,0.0,0.8181871757070247,-0.5748208259871482,-0.011467799319104813,0.0,-0.007852275800724229,0.008772078082989035,-0.9999306938037533,0.0,0.659510437559967,0.25791135227429784,0.30385868202433974,1.0,-0.009640000000000008,-0.012669714285714298,-0.004820000000000004,0.4830000000000004
0.4632907301433777,0.533903749964426,-0.1240712637967369,-1.3765176927035212,0.07824171673595386,1.9017592627701871,0.157709148256572,-0.008737221048875426,-0.050346913400360634,0.0008375829579122218,-0.0855654869069164,-0.009280475797259347,0.029165516664870165,-0.002205047952048147,0.5749451823756636,0.8181759105422115,0.00263885820885094,0.0,0.8181421470124249,-0.574884383602325,-0.011494332224310129,0.0,-0.007887499217691996,0.008767740863824203,-0.9999304546198378,0.0,0.6593464951277204,0.2577078478140094,0.3038444127275866,1.0,-0.009960000000000009,-0.013090285714285728,-0.004980000000000004,0.4990000000000004
0.46316323478256766,0.5329802955320138,-0.12407312162580761,-1.3780029062502854,0.07815572227166068,1.902314674875618,0.1576227252551191,-0.0075376506539534885,-0.05546268348722539,-0.0008123504078327397,-0.08593350156281568,0.0007961765606637531,0.03243679293659614,-0.0070733795852929715,0.5750383369504941,0.818110462388261,0.002632350524540074,0.0,0.8180765891566755,-0.574977519508466,-0.011501879623770934,0.0,-0.007896417712770776,0.008767654873764033,-0.9999303849845347,0.0,0.6591741251365376,0.2574823092467275,0.3038368925251651,1.0,-0.010300000000000007,-0.013537142857142869,-0.0051500000000000035,0.5160000000000003
0.4630361418132573,0.5320291953203591,-0.12407231132356016,-1.3795240612399118,0.07807174972978342,1.9029005520529696,0.15750360624582105,-0.006444259786547127,-0.05386840169722093,0.0003212140651036934,-0.08429185715024728,-0.006658650056197921,0.029557561449350688,-0.00827234949642068,0.5751049871719265,0.8180635622021637,0.002647419175923201,0.0,0.8180298296843,-0.5750440519948483,-0.011501430920959958,0.0,-0.007886670742221713,0.00878036718911783,-0.9999303503627782,0.0,0.65899897937508,0.25725708884770193,0.3038341278043761,1.0,-0.010640000000000007,-0.013984000000000012,-0.0053200000000000035,0.5330000000000004
0.4629099720051405,0.5310342533154369,-0.1240754935292124,-1.38110396889002,0.07797030952271808,1.9034702115702598,0.15739729538291755,-0.008719426852070365,-0.062109164641332384,-0.0008276919398303255,-0.09681491986470865,-0.007082472115697339,0.042828931607078395,-0.00818832761115143,0.5751822159622534,0.8180093240418997,0.0026289013815944994,0.0,0.8179753842311307,-0.5751213675908657,-0.011507833573472983,0.0,-0.007901729937566326,0.008769646676304338,-0.9999303255533191,0.0,0.6588092734508361,0.2570198802002585,0.3038327723924871,1.0,-0.010980000000000007,-0.014430857142857155,-0.0054900000000000036,0.5500000000000004
0.462773118327476,0.5300794979286195,-0.12407803414008241,-1.3826459005437957,0.0778721466440198,1.9040156371596306,0.15726801965105355,-0.008210519385300347,-0.05632572495312715,-0.0020647752629190594,-0.09352041972611345,-0.004921215653422361,0.042484870251574644,-0.005454883514518614,0.575247552886869,0.8179635061294754,0.0025889069610246958,0.0,0.8179290538530988,-0.5751868339586561,-0.011528911691931872,0.0,-0.007941276725249635,0.008749688918002402,-0.9999301870969849,0.0,0.6586245259675538,0.2567789049670924,0.3038188476303039,1.0,-0.011300000000000008,-0.014851428571428585,-0.005650000000000004,0.5660000000000004
0.46263524041959464,0.5290547466781473,-0.12408112228289093,-1.3843084518145026,0.07777276287464054,1.9046122612381746,0.15715475435507661,-0.009446869602581329,-0.05664040766493592,0.00010459405767853528,-0.09621274146045247,-0.009683268461625096,0.03337686565337925,-0.0016676317257901766,0.5753333184256572,0.8179032999503218,0.00255177211039535,0.0,0.8178683312588851,-0.575272673958435,-0.011553796853295455,0.0,-0.007982077487712791,0.008734466047242068,-0.9999299953205973,0.0,0.6584236788921919,0.25652683630747586,0.30380107169545545,1.0,-0.011640000000000008,-0.015298285714285728,-0.005820000000000004,0.5830000000000004
0.46248007330924806,0.5279107515045401,-0.12408443397068834,-1.3861111382549658,0.07766139507876614,1.9052956829843941,0.15703776358638002,-0.012780945718641041,-0.06417244185132293,0.0026854086197026965,-0.09897119290400302,-0.01059347363427103,0.03554924598562124,-0.004444591651306221,0.5754346302269042,0.8178319747038021,0.002567954227415589,0.0,0.8177972563602975,-0.575373963627424,-0.011541073192991814,0.0,-0.007961277956654855,0.00874136740528035,-0.9999301008316446,0.0,0.6582151534184968,0.2562521504602338,0.3038078226039759,1.0,-0.012000000000000009,-0.015771428571428586,-0.0060000000000000045,0.6010000000000004
0.4623492276349182,0.5268297448110869,-0.12409253807978013,-1.3877504943023287,0.07755940812136292,1.9059229326648126,0.15691190718909007,-0.0073910018898340575,-0.07183931823581685,-0.002222617494069846,-0.10753171951283687,-0.012508363809004379,0.047404671571866744,-0.0013738591697603937,0.5755055864768562,0.817781873904462,0.0026217453050665675,0.0,0.8177479253946512,-0.5754448145112676,-0.011504036945563529,0.0,-0.007899275235565772,0.00876473306161081,-0.9999303880296426,0.0,0.6580258100239891,0.25600697404961353,0.303842961263389,1.0,-0.01232000000000001,-0.016192000000000015,-0.006160000000000005,0.6170000000000004
0.4622330094819668,0.5259556367118267,-0.12409147973503727,-1.3891309616140715,0.0774718438198919,1.9064476622468216,0.1568153982693882,-0.010176896655763955,-0.06971807977529869,-0.0021403345157938684,-0.1048490542895584,-0.003255372606665359,0.04055136445975517,-0.0006712454433475863,0.5755718982422257,0.8177351666250846,0.0026332716711848694,0.0,0.8177014004160629,-0.5755111173527004,-0.011494366544712207,0.0,-0.007884022411775604,0.008769233139347701,-0.999930468953096,0.0,0.6578642108171505,0.255800177772774,0.3038463510244499,1.0,-0.01258000000000001,-0.0165337142857143,-0.006290000000000005,0.6300000000000004
0.4620856015344275,0.5247958750075461,-0.12410352640564089,-1.3909538432580337,0.07735872717395671,1.9071074158760448,0.15668158232136578,-0.011368265922476528,-0.06515434103299388,-0.0024277965283707155,-0.11081532949010683,-0.006322034903278738,0.036247659069196206,-0.004348027268165243,0.5756590421037855,0.8176738496580618,0.002624829656544354,0.0,0.8176400147188694,-0.5755983228548003,-0.01149451862742867,0.0,-0.007888071617791537,0.008763258061394358,-0.9999304894012894,0.0,0.6576452113982553,0.25552154445444164,0.30385199646437666,1.0,-0.01292000000000001,-0.016980571428571446,-0.006460000000000005,0.6470000000000005
0.4619265496754477,0.5236184725168566,-0.12411208920060166,-1.3928278698335186,0.07723772143711687,1.9077681283778445,0.15652825233875486,-0.01113841240852811,-0.06942772861760638,-0.0015009196910962263,-0.10747590087235064,-0.009866115614603934,0.04653239191227288,-0.010967099124455391,0.5757375599651958,0.8176186851738486,0.002587392725806193,0.0,0.8175844040759995,-0.5756769957518048,-0.011510242181526045,0.0,-0.00792163912337035,0.00874245900746605,-0.9999304061003954,0.0,0.6574168732281929,0.2552302906619612,0.30384536177071475,1.0,-0.01326000000000001,-0.017427428571428587,-0.006630000000000005,0.6640000000000005
0.46177422318089434,0.5224172245626777,-0.12410495071920188,-1.394764036387041,0.0771185500049915,1.908501410291343,0.15639945442541991,-0.010835310298959447,-0.07148769839551182,0.0009190820537022632,-0.11365567853765528,-0.0064490076938206265,0.04945893573404604,-0.008011034045717144,0.5758234632139425,0.8175582022248512,0.0025830385941596175,0.0,0.8175238469735999,-0.5757628830676275,-0.011515598653472903,0.0,-0.007927607015629057,0.008742815872300955,-0.999930355683649,0.0,0.6571830327948945,0.25495075965990033,0.30383141791062007,1.0,-0.01360000000000001,-0.01787428571428573,-0.006800000000000005,0.6810000000000005
0.46162053300116335,0.5212717190554836,-0.1241156224821082,-1.3966153758863626,0.07700723163822493,1.9092332678525374,0.15627449278455857,-0.006096038332171142,-0.07156920928050714,-0.0017555222541450204,-0.11654165993352866,-0.007612042873767051,0.03924919188304371,-0.007644116432507526,0.5759237524739537,0.8174875087577897,0.0025983191703222485,0.0,0.8174534294328627,-0.5758631961666862,-0.011498561229512698,0.0,-0.007903805964487476,0.008746467844503003,-0.9999305121614805,0.0,0.6569707721783415,0.2546704756071633,0.30381883913610863,1.0,-0.01392000000000001,-0.01829485714285716,-0.006960000000000005,0.6970000000000005
0.46144742544973905,0.5199332516389076,-0.12411916508636187,-1.3987439599045108,0.07687197221297705,1.9100221022925608,0.15611285457928395,-0.006432098636483697,-0.0741695894829842,-0.0008709854094558955,-0.11509896110732588,-0.004539500884067491,0.04664113716782152,-0.005794435248545893,0.5760125509770946,0.8174249673822596,0.0025905053908532186,0.0,0.8173908298908847,-0.5759520566962879,-0.011498108488560106,0.0,-0.007906986282462447,0.008740678438318661,-0.9999305376416739,0.0,0.6567135286670891,0.2543512994601266,0.30381416216495505,1.0,-0.014280000000000011,-0.018768000000000017,-0.007140000000000006,0.7150000000000005
0.4612863574259949,0.5186671248958944,-0.12412249978412117,-1.40069556671036,0.07674397869093307,1.9107219213723206,0.15596681167877088,-0.006313735074897936,-0.07654000339920503,0.0033665374402945206,-0.12365025543419422,-0.0036098960606708477,0.045999960898893306,-0.015083000274803832,0.5760960742254004,0.8173660859691945,0.0025964727400134037,0.0,0.8173320707340657,-0.5760356000161428,-0.011490020226914331,0.0,-0.007896044151178894,0.00874170429159181,-0.999930615139291,0.0,0.6564741520852556,0.254055412584768,0.30383477456618224,1.0,-0.01460000000000001,-0.019188571428571447,-0.007300000000000005,0.7310000000000005
0.46110485810704677,0.5172427281720177,-0.12413126055883823,-1.402925801066128,0.07659335511265691,1.9115240529451236,0.15580610163912992,-0.006625732693874885,-0.07983708596881732,-0.002028101590048858,-0.1258106307576472,-0.01210878914861376,0.043614350282684615,-0.013910738633320891,0.5761964980441849,0.8172953422635667,0.0025818708537127333,0.0,0.8172612485369886,-0.5761361810174421,-0.011484749174788405,0.0,-0.007899074875750534,0.00872770328822911,-0.9999307135054009,0.0,0.656200392201292,0.2537153087260605,0.30384248527507257,1.0,-0.014960000000000011,-0.019661714285714303,-0.007480000000000006,0.7490000000000006
0.46092433619063894,0.5159633132452888,-0.12413445631661897,-1.4049270581934148,0.07646543223841806,1.912284615566133,0.15563729518921815,-0.017143032217845782,-0.08177660815361124,-0.0038734510996548113,-0.12127506833510168,-0.00848139452215096,0.04339321326395093,-0.00794941180270195,0.5762795743560546,0.8172366830066773,0.0026082617692299737,0.0,0.817202997112119,-0.5762192355746787,-0.011463026036412572,0.0,-0.007865226202349973,0.008737555325179724,-0.9999308942840628,0.0,0.655965216510716,0.2534052126396106,0.3038533083463298,1.0,-0.015280000000000012,-0.020082285714285733,-0.007640000000000006,0.7650000000000006
0.4607438721514767,0.5145858991538129,-0.12413548468557063,-1.4071083949697378,0.07634219565428797,1.9131061763663886,0.15548074271342832,-0.008865587117353194,-0.08391897117190326,0.0003411620092408336,-0.1284985696526591,-0.00517024164128239,0.044626896644501035,-0.012268818863548947,0.5763816485024049,0.8171646410364164,0.0026251877424911182,0.0,0.8171310913790384,-0.576321150950589,-0.01146548602974573,0.0,-0.007856389814440534,0.008753786801324936,-0.9999308217850474,0.0,0.6557005866957699,0.25308126649363843,0.30385200053193795,1.0,-0.015620000000000012,-0.020529142857142878,-0.007810000000000006,0.7820000000000006
0.46055576415888994,0.5132025484745533,-0.12413552919107267,-1.4093716343726506,0.07621196455087087,1.9139070938848946,0.15529511623367384,-0.008388013670148603,-0.08375239232868509,-0.0006987036938728138,-0.1369865851906972,-0.004312136912703708,0.04417327978888788,-0.015141636270838811,0.5764673411925816,0.8171043979386037,0.002560138464170728,0.0,0.8170698643423382,-0.576406887001429,-0.011518867223955686,0.0,-0.007936588429460822,0.008732230872265392,-0.9999303769303614,0.0,0.6554137770585452,0.2527408401583492,0.3038136519200075,1.0,-0.015960000000000012,-0.02097600000000002,-0.007980000000000006,0.7990000000000006
0.46037355421287945,0.5118603825021296,-0.12414161947294404,-1.4115204120311264,0.07607363089896194,1.9146596050579008,0.1551250056970221,-0.010204323609148597,-0.08305126293223603,-0.0005387690856734724,-0.1328322113643577,-0.009016471613404537,0.047072864594416106,-0.014873780163008561,0.5765563933609367,0.8170417266677409,0.002507799759439138,0.0,0.8170065201895466,-0.5764961078325231,-0.011546883689034382,0.0,-0.00798870279366437,0.008706485995934432,-0.999930186427671,0.0,0.6551428998087152,0.25240929726540107,0.3037964457929226,1.0,-0.016280000000000013,-0.02139657142857145,-0.008140000000000007,0.8150000000000006
0.4601697413164306,0.5104126775578435,-0.12414124116201194,-1.4138506958962906,0.07592548313207935,1.9155399054944358,0.15495180934967595,-0.01711504903879746,-0.08763960800857787,-0.0008478745151654767,-0.1332480938722676,-0.009985220235336895,0.05313127095659067,-0.009118229120462867,0.5766628521359018,0.8169666203245611,0.0024986282555386555,0.0,0.8169313347909357,-0.5766026275937752,-0.011547769908625449,0.0,-0.007993580838213277,0.008700545159716147,-0.9999301991535741,0.0,0.6548607610967658,0.2520543078009497,0.30377722370758553,1.0,-0.016620000000000013,-0.021843428571428593,-0.008310000000000007,0.8320000000000006
0.45998581937203054,0.5090126900307422,-0.12414157800400903,-1.4160806611970498,0.07579030521243028,1.916367229621863,0.15477337278480816,-0.009200675351636467,-0.0928654607155913,-0.005661454188992706,-0.14289441948141282,-0.0060993305366434615,0.053735151272943656,-0.009813799685698255,0.5767471100246985,0.8169071532220028,0.002494192071515501,0.0,0.816871774397521,-0.5766868510548128,-0.01155538464690194,0.0,-0.008001462657588776,0.008702137346581595,-0.9999301222590209,0.0,0.654584256316385,0.2517217788441156,0.3037673103754969,1.0,-0.016940000000000014,-0.022264000000000023,-0.008470000000000007,0.8480000000000006
0.4597858669035847,0.5076241288496881,-0.12414553527527616,-1.4183057492625708,0.0756465572439769,1.917157740430891,0.15460239783322752,-0.01271931260965966,-0.08727036750956066,0.0009253746064487075,-0.13661221897377632,-0.012217213392971082,0.04804107099283575,-0.01222959147832539,0.5768542296348559,0.8168316657279929,0.0024442826386598168,0.0,0.816795653173429,-0.5767941414426451,-0.011581289031966008,0.0,-0.008050270697906259,0.008677362063207017,-0.9999299458108626,0.0,0.6542855138448849,0.2513527738617812,0.30374797031611833,1.0,-0.017280000000000014,-0.022710857142857165,-0.008640000000000007,0.8650000000000007
0.45956332133628913,0.5060696246491171,-0.12415080093712373,-1.420733697514883,0.07549229563616794,1.9180475128092132,0.15440619035115682,-0.012861932209711923,-0.08425409714067529,0.0004734352696921843,-0.144256499728305,-0.0017149442140102647,0.050240020724578,-0.010213367810706891,0.5769588059745123,0.816757766572501,0.002456390273026775,0.0,0.8167219357312028,-0.5768986901857542,-0.011572720451432345,0.0,-0.008035175680016715,0.008683337973396793,-0.9999300153477898,0.0,0.6540084160167258,0.2509925215218692,0.3037566835559557,1.0,-0.017600000000000015,-0.023131428571428594,-0.008800000000000007,0.8810000000000007
0.4593380383333715,0.5044430129562573,-0.12415993125764857,-1.4231967899615987,0.07534129400450343,1.9190181486260054,0.15420931488640055,-0.012354410183143672,-0.09434397004562373,-0.0010477404917965674,-0.14896301280873525,-0.013638710366440597,0.05989035595369388,-0.009771513345007357,0.5770748090707251,0.8166754749393426,0.002565203655391546,0.0,0.8166411413445108,-0.5770144112407947,-0.011504885274607277,0.0,-0.007915750571561853,0.008734198474530774,-0.9999305249215549,0.0,0.6537211119725018,0.2506104245434412,0.30380535433638073,1.0,-0.017940000000000015,-0.02357828571428574,-0.008970000000000007,0.8980000000000007
0.45911741372128856,0.5027844272056416,-0.12416077533328575,-1.4256787265042674,0.07518581608225769,1.9199564474613395,0.15400762003281532,-0.013218405703629204,-0.09210916658591412,0.0009293428395053162,-0.14304665921979412,-0.003615000547650821,0.05270038741866184,-0.013045155462300664,0.5771761083718531,0.8166035822834014,0.0026601180138251523,0.0,0.8165705044985537,-0.5771154240388111,-0.011451874112515645,0.0,-0.00781659678230695,0.008782091124869065,-0.9999308854566987,0.0,0.653419785704345,0.2502316405870973,0.3038636582057302,1.0,-0.018280000000000015,-0.02402514285714288,-0.009140000000000007,0.9150000000000007
0.4588882127200684,0.5010697597696675,-0.12416628519791419,-1.428210907673415,0.07501872626593231,1.9208678523058231,0.15381229800449295,-0.009111364551638948,-0.10534413027305552,0.00031838280598103113,-0.1507309707504343,-0.014631658906821825,0.054420491276114494,-0.011718580951331548,0.5772914442890268,0.816521806749349,0.002733926604053873,0.0,0.8164897440573059,-0.5772305854325462,-0.011405962986229201,0.0,-0.007735260378776809,0.00881695763279916,-0.9999312111365333,0.0,0.6531051823217628,0.2498357881655572,0.30393429166941677,1.0,-0.018620000000000015,-0.024472000000000025,-0.009310000000000008,0.9320000000000007
0.45865596184596424,0.4993754856474799,-0.12416395210156132,-1.4308143880601736,0.07485739676711256,1.9217989027550821,0.15360495467602364,-0.017417328624261767,-0.09531307981459429,0.0005774257426513311,-0.1537295580731611,-0.010965875667713988,0.04984835591976671,-0.01733577782783545,0.577398797032399,0.8164458345738623,0.002752325150928549,0.0,0.8164139379646793,-0.5773377868450802,-0.011406519146438589,0.0,-0.007723932442415982,0.008833317117236575,-0.9999311543183018,0.0,0.652774350574484,0.2494361849765092,0.3039576655335551,1.0,-0.018960000000000015,-0.024918857142857166,-0.009480000000000008,0.9490000000000007
0.4583865670243198,0.49760359376611596,-0.12416026273771583,-1.4335829571187735,0.07467701647073734,1.922839569433041,0.15339306991721352,-0.016399365973780396,-0.09535755331861016,-0.0009078207037917878,-0.15291566869484885,-0.020996659314613666,0.053093400620935406,-0.009598559797608291,0.5775261965777013,0.816355639667703,0.0027764636569292383,0.0,0.816324139530452,-0.577465194495667,-0.011383991705757025,0.0,-0.00769022276588488,0.008841217958221084,-0.9999313443126114,0.0,0.6524555512915337,0.2490206885535908,0.303963123390945,1.0,-0.019300000000000015,-0.02536571428571431,-0.009650000000000008,0.9660000000000007
0.45811109121146576,0.49581798262492416,-0.12416179236989136,-1.4364323509910844,0.07450594566587207,1.9238520394613772,0.15317321263473316,-0.016890732167016205,-0.10477474017146524,0.0003020789979994026,-0.1596237498769346,-0.006203639235650386,0.05098411488123563,-0.006971613950520003,0.5776788091756423,0.8162477813399537,0.002738574122317731,0.0,0.8162156365953855,-0.5776177257725966,-0.01142560071468182,0.0,-0.007744421381552291,0.00883576455143277,-0.999930974218849,0.0,0.6520743991082556,0.24854522531123252,0.30394132598080736,1.0,-0.019680000000000017,-0.025865142857142885,-0.009840000000000008,0.9850000000000008
0.4578561504140587,0.4942424540270383,-0.12417030711921681,-1.4390301304718698,0.07434349208380661,1.9247438436566233,0.15295146136972443,-0.01686922088348301,-0.1023105156969369,-0.001141181852788501,-0.16078660392360475,-0.010319104470936999,0.05593692978729251,-0.010727375229121755,0.5777985224498418,0.8161634238431582,0.0026229633244808604,0.0,0.8161297050362674,-0.5777376997666203,-0.011497900982274184,0.0,-0.007868932936388018,0.00878431760849685,-0.9999304554110731,0.0,0.6517383969586166,0.24812124379765438,0.3038798383801108,1.0,-0.01998000000000006,-0.026259428571428656,-0.009990000000000214,1.0010000000000006
0.4575624340812809,0.4923783476348356,-0.1241755773164344,-1.4419997216662592,0.07414994476981213,1.9258468758824563,0.15273752688803025,-0.0164895228544763,-0.10645108561295687,0.0008321220155073284,-0.17192422991444814,-0.011864550323078378,0.0671289933291036,-0.013489617439316832,0.5779638108432498,0.8160464251478193,0.002610030693477006,0.0,0.8160126092170029,-0.5779030877106671,-0.011497378594447204,0.0,-0.0078742015065692,0.008775055650488278,-0.9999304952590279,0.0,0.6513712084655617,0.24764294788381996,0.30385975210953403,1.0,-0.021224571428571353,-0.02789515102040807,-0.015575623503428171,1.0189999999999986
0.4572911916118849,0.49063301960833766,-0.12419516356666734,-1.4447895571590121,0.07397995792233783,1.9268439020393693,0.15258502640630087,-0.016740259859976656,-0.10625785105754018,-0.0009906592566698493,-0.1787884482598481,-0.008230093225048614,0.05889966822758358,-0.0091108428164392,0.5781679109517048,0.815901979760325,0.002563799939938308,0.0,0.8158675461247247,-0.5781072917941644,-0.011526198681487286,0.0,-0.007922249411207116,0.008755967958158084,-0.9999302830644655,0.0,0.6510183126312685,0.24718745261651956,0.3038331020358694,1.0,-0.022330857142856944,-0.02934912653061199,-0.020540622173141912,1.0349999999999968
0.4569911926246753,0.4887104941193244,-0.12422888350613878,-1.4479155292414831,0.0737831027434604,1.9279482394609273,0.15249367930603824,-0.01826299045593618,-0.1157863872146667,-0.0030336887379135277,-0.18139270173556576,-0.010168837793950003,0.0643672759516188,-0.00014297842073955776,0.5784641983673628,0.8156922450397117,0.0024656622817298916,0.0,0.8156566060584574,-0.5784039425280194,-0.01157269037218007,0.0,-0.008013759295837253,0.008705688398977743,-0.9999299928752254,0.0,0.650619836108594,0.24667062525950123,0.3037787295543304,1.0,-0.023506285714285386,-0.030893975510203658,-0.025815933259712757,1.051999999999995
0.45667949121351326,0.4867323380293253,-0.12425860146203718,-1.4509630547193404,0.07359602360941882,1.9291448726243632,0.1524902746434496,-0.015553995529608575,-0.1313234687075248,-0.0008985220032199311,-0.1921711499096196,-0.008927199895415192,0.07780781565313163,-0.0012129933178512745,0.5788603004045094,0.8154108591756387,0.0025749282040912116,0.0,0.8153768304996101,-0.5787998480306532,-0.01149378550832994,0.0,-0.007881941215102772,0.008753001452354553,-0.9999306275778619,0.0,0.6502378668368576,0.24613438844475527,0.30381481879157196,1.0,-0.024681714285713828,-0.03243882448979533,-0.03109124434628361,1.068999999999993
0.4563210074898107,0.48455217257533295,-0.12429563237268593,-1.4543025982053972,0.0734024504897465,1.9303879405064437,0.1524904106160296,-0.02016417492218329,-0.1361178096009432,-0.0034033968183811466,-0.19815519345243898,-0.011017757231739065,0.07316873629520512,0.0018730476096741275,0.5792687620531953,0.8151205752681501,0.002626020770478058,0.0,0.8150872244249578,-0.5792081141795113,-0.011468389121437756,0.0,-0.007827258098773882,0.008783884667210126,-0.9999307863051363,0.0,0.6498555136779024,0.24559765702762493,0.30384011397910327,1.0,-0.025787999999999422,-0.03389279999999925,-0.036056243015997344,1.0849999999999913
0.45595009909870626,0.4822500361340902,-0.12434560233130923,-1.4578620095922836,0.07318085740332837,1.9315852087552323,0.1525214008764985,-0.019431651380717663,-0.13162265667918058,-0.004539717221710423,-0.20818929924179927,-0.011886875440080779,0.07014879039184353,-0.0016466674447698881,0.5797457887999007,0.8147815646580889,0.002563037905646489,0.0,0.8147474331330204,-0.5796853215982669,-0.011501957567149876,0.0,-0.00788597936012958,0.008756608609009064,-0.9999305641569319,0.0,0.6493961882030608,0.24498194473889254,0.3038482976774386,1.0,-0.026963428571427864,-0.03543764897959091,-0.04133155410256819,1.1019999999999894
0.45553967230935277,0.47972363755764263,-0.12438145445533148,-1.46179209259592,0.07295339867361615,1.9330373210461742,0.15269428897123313,-0.027631785740158486,-0.14261449562962306,-0.0008871137575179635,-0.21492691822879462,-0.010439840028682345,0.07549726933525092,0.0131080702170875,0.5803768828903645,0.8143320422830271,0.0025972329173057284,0.0,0.8142983419641013,-0.580316214394136,-0.011491235224419128,0.0,-0.007850615822867169,0.00878433886410894,-0.9999305992027258,0.0,0.6489071026265006,0.24432422263121784,0.3038559756646536,1.0,-0.028207999999999157,-0.037073371428570326,-0.046917177605996147,1.1199999999999875
0.4551586201889863,0.47737276317909105,-0.12439932801071325,-1.465361644590308,0.07273386322635232,1.9343573335109492,0.1529007182569887,-0.024694909834743227,-0.15320194229824416,0.0003891675795058571,-0.21777990183832407,-0.009552030618773168,0.08872668241152615,0.0170558860427079,0.5809812886720939,0.8139006920603464,0.0026744303711933592,0.0,0.8138680317897645,-0.5809203480382905,-0.011450893717729383,0.0,-0.007766408826967941,0.008829558367295043,-0.9999308585062124,0.0,0.6484616251570556,0.24372915847392884,0.3039000683334354,1.0,-0.02931428571428475,-0.03852734693877425,-0.05188217627570989,1.1359999999999857
0.45472616965904766,0.47480655128635013,-0.12443125916942545,-1.469306053593202,0.07249810513891894,1.9358249300788364,0.15319694394174413,-0.03307134698021538,-0.15665365900149886,-0.00491352030450741,-0.23382264229305735,-0.014153560660365681,0.09096801872635694,0.02212868675230109,0.5817233516391747,0.8133702617067993,0.002739786470981386,0.0,0.8133384974844426,-0.5816621763705525,-0.011417004459570876,0.0,-0.007692769853345216,0.008870082688215444,-0.9999310690868085,0.0,0.6479728266434859,0.24305866145854102,0.3039267159679396,1.0,-0.03048971428571319,-0.040072195918365916,-0.05715748736228074,1.1529999999999838
0.4543021990648172,0.47216859363553276,-0.12443445479745373,-1.4734047310527967,0.07224895701900486,1.937247277597619,0.15354772836422023,-0.027759001632748102,-0.1534504724378483,-4.66865816142819e-05,-0.24775193021134484,-0.018906367838609092,0.08136117131758518,0.01936814551399532,0.5824448480682453,0.8128538792596027,0.0027049644327161015,0.0,0.8128215016736856,-0.582383500664124,-0.011463484302048221,0.0,-0.007742960105230234,0.008875671508993793,-0.9999306321060843,0.0,0.6474597589288945,0.24242856087143305,0.3039257075371342,1.0,-0.03159599999999878,-0.04152617142856984,-0.062122486031994474,1.168999999999982
0.453856904442004,0.4694101868026152,-0.124437702137538,-1.4776103358532062,0.07199153158365522,1.9388327106097931,0.15398658476094162,-0.026414958835290558,-0.16426529316368074,-0.0004349197385913591,-0.24482234882916123,-0.01847314038887843,0.10092848193234628,0.0352375325734346,0.5833344174014834,0.8122153633639786,0.0028120973667997446,0.0,0.8121843724252591,-0.5832726343938908,-0.011416043824671911,0.0,-0.007632213687693734,0.008943484998347934,-0.9999308793063197,0.0,0.6468951732793577,0.24170371374974703,0.30396441142214703,1.0,-0.032840571428570074,-0.04316189387754925,-0.06770810953542243,1.18699999999998
0.45342486394907755,0.4667429726061036,-0.12443985104018701,-1.4816822214948286,0.07172403330184095,1.9403731538330946,0.15445560853439977,-0.027953163677473157,-0.1680164106971852,-0.0012178399195499183,-0.25962441655676266,-0.026349190812728088,0.09398295414315386,0.030888417736975683,0.5841867789971502,0.8116021781286492,0.0029083677510280855,0.0,0.811572586653341,-0.5841247928153376,-0.011353850115827204,0.0,-0.0075161044824537115,0.00899329381579679,-0.9999313120608593,0.0,0.6463782126646889,0.24103832811282397,0.3040005977074882,1.0,-0.03394685714285567,-0.04461586938775317,-0.07267310820513619,1.2029999999999783
0.4529292913503867,0.46384035655410216,-0.1244604199514223,-1.486229484511863,0.07142200571129706,1.9419130636726825,0.15504723976093013,-0.03342193950343642,-0.16723119702808642,-0.001688585877337531,-0.2749392051339865,-0.022525096089442632,0.0920728754837396,0.03916767767027851,0.5852133261584825,0.8108626799182699,0.0027971598980910247,0.0,0.8108316840830142,-0.5851515685898225,-0.011417914222037615,0.0,-0.007621744765398786,0.008950113747913685,-0.9999308998478996,0.0,0.6457665988299819,0.240263492472622,0.30397174816321115,1.0,-0.03512228571428411,-0.04616071836734484,-0.07794841929170702,1.2199999999999764
0.4524219219728465,0.4608472753071708,-0.12448657626296775,-1.4909123369717232,0.0711096791978176,1.9435850898951452,0.15569301150509715,-0.0337930872088935,-0.17109588084578853,0.000503845719631133,-0.27896316731973814,-0.02015833000182638,0.10617654715890508,0.03550985932418043,0.5862987970609573,0.8100783195781943,0.002753836496851709,0.0,0.8100469339892403,-0.5862372288639969,-0.011429047628791003,0.0,-0.007644169394799782,0.008931745651076337,-0.9999308929090491,0.0,0.6451507579825203,0.23947055690378247,0.3039503117765737,1.0,-0.036297714285712546,-0.04770556734693651,-0.08322373037827788,1.2369999999999746
0.4519152582524346,0.45796967673135486,-0.12450208516033888,-1.495386939873561,0.07081417090342795,1.9451911089104013,0.15634278656047945,-0.03266334452138746,-0.1835921685621616,-0.001335203042772232,-0.2804021292544474,-0.022984070622276358,0.09489736031370186,0.042659691343009315,0.5873716889888553,0.8093007771568353,0.002738241941531932,0.0,0.8092693026795902,-0.587310161957974,-0.011433123046517515,0.0,-0.007644785234520335,0.008931639902587343,-0.9999308891455292,0.0,0.6445637976252416,0.23870617410591322,0.30394037304713417,1.0,-0.03740399999999815,-0.04915954285714043,-0.08818872904799162,1.2529999999999728
0.45132914001385743,0.45487951532617527,-0.12454265730822608,-1.5003606129564488,0.07049140819538244,1.946909247757339,0.15708477236526264,-0.03557279197786967,-0.18496402161146816,-0.001196177461978412,-0.30049871408565404,-0.020692737811755246,0.09348779411389353,0.047974722128948245,0.5886142942315491,0.8083980191486911,0.0025694676445152985,0.0,0.8083644345128387,-0.5885532113973385,-0.011524116878377164,0.0,-0.007803955073475088,0.008860496774485221,-0.9999302925114935,0.0,0.6439011782078038,0.2378239134001442,0.30384785754234545,1.0,-0.038579428571426586,-0.050704391836732095,-0.09346404013456247,1.269999999999971
0.45074050943808575,0.45157877217846887,-0.12461822543126651,-1.5053500016449477,0.07015831667120172,1.9487633792103352,0.1579135644566296,-0.037778017546648585,-0.20306107906170015,-0.0028765721120711874,-0.29585850211225556,-0.01700871885593452,0.1089178703768285,0.04920799040981597,0.5899492327874305,0.8074240023218928,0.0026702264372890135,0.0,0.8073921805766531,-0.5898881991435823,-0.011424804419633438,0.0,-0.007649673525767453,0.008896145826319854,-0.9999311681732828,0.0,0.6432717226642409,0.23692809375057877,0.3039021914657669,1.0,-0.03975485714285506,-0.0522492408163238,-0.09873935122113345,1.2869999999999695
0.4501707673596809,0.4483886717584033,-0.12464939731396091,-1.5101397187192538,0.06983342273852584,1.950495737379798,0.15880601269182662,-0.03475844498125261,-0.20481743059554822,-0.004169535060771329,-0.30464892113785086,-0.01776064762996593,0.09976388854796461,0.05778852457858679,0.591277510043251,0.8064515337298572,0.0027525920552053827,0.0,0.8064210329978829,-0.5912163705662317,-0.011360792856481797,0.0,-0.007534696405223307,0.008937301511627152,-0.9999316741616755,0.0,0.6426465458232313,0.2360866974170773,0.30396115138116353,1.0,-0.04086114285714065,-0.05370321632652773,-0.10370434989084719,1.3029999999999677
0.449542478841892,0.4449169605799202,-0.12467168142108219,-1.5154497217058331,0.06947460637843789,1.9523121206659826,0.1597599106343914,-0.03581801263205668,-0.20649930174886028,-0.0008638972317645616,-0.3071110323863597,-0.02075418364822238,0.11341802814444908,0.0555983572130205,0.5927881534083683,0.8053419281220918,0.002707561356046626,0.0,0.8053109598011579,-0.5927270834488653,-0.011384615564363921,0.0,-0.007563808930465821,0.008929265988062027,-0.9999315261573554,0.0,0.6418795937045011,0.23510178154604708,0.30397029694251104,1.0,-0.04210571428571194,-0.055338938775507135,-0.10928997339427515,1.3209999999999658
0.4489064361628847,0.4414236462430514,-0.12467634001550014,-1.5208269771426446,0.06909748643062569,1.954257373585459,0.16078425050582118,-0.03906968952181428,-0.21095577184542336,-0.0007016559163307455,-0.3185687062716255,-0.023361300091059106,0.12017655937265265,0.06165221498731564,0.5941787710259095,0.8043164355083056,0.0027214949130835815,0.0,0.8042858714201336,-0.5941177492304631,-0.011361513301201574,0.0,-0.007521508260440735,0.008939802036929165,-0.9999317510975579,0.0,0.641201553980688,0.2342314064212953,0.3039696573818388,1.0,-0.04321199999999753,-0.05679291428571106,-0.11425497206398888,1.336999999999964
0.4482335367405816,0.4379014394868077,-0.12468857531551374,-1.5263246372339292,0.06874548729756072,1.9562243273593993,0.16189272596540794,-0.04232462549942486,-0.20836743414407682,-0.0020740408952902144,-0.3348806032519517,-0.020801304286765566,0.11614237181464498,0.06222628019768754,0.5957631895697587,0.8031436498897436,0.0026919317705167544,0.0,0.80311269842114,-0.5957020409748067,-0.011393810353570039,0.0,-0.007547422494926903,0.00895010970312747,-0.9999314636263753,0.0,0.6404587240389158,0.23327044154486767,0.30393114075546823,1.0,-0.044387428571425976,-0.058337763265302725,-0.11953028315055973,1.3539999999999621
0.4475198551740237,0.43419335839489687,-0.12472267792297108,-1.5318938107046838,0.06837620670029479,1.958238731490288,0.16307466457842015,-0.04703235280304255,-0.22096998774067178,-0.0011614711015770088,-0.3388486927937964,-0.022722138675710157,0.1289710134801265,0.06644435654213189,0.5974483062395608,0.8018905602603161,0.002792425126079136,0.0,0.8018611014364863,-0.5973868960231887,-0.011332138547226697,0.0,-0.007419119591180134,0.00900967753260093,-0.999931888868062,0.0,0.6397215445280616,0.23226592549929279,0.30398647177581684,1.0,-0.04556285714285442,-0.0598826122448944,-0.12480559423713058,1.3709999999999603
0.44683643819623875,0.4306867883627396,-0.12475843941529598,-1.537300339065085,0.06799405455622197,1.9601394516982382,0.16417641514988973,-0.04329292174446363,-0.2171510325519708,-0.0022119131589145575,-0.3439173341950074,-0.022259733268538102,0.11017056254389848,0.07418245508731908,0.599029971495359,0.8007098558766984,0.002750791412353077,0.0,0.8006801608452457,-0.5989688331634472,-0.011329776205127332,0.0,-0.0074243680918819055,0.008989552704447096,-0.9999320310404152,0.0,0.6389865900403735,0.23128804376960485,0.30396922479861127,1.0,-0.04666914285714002,-0.06133658775509833,-0.1297705929068444,1.3869999999999587
0.44608538453113655,0.4268434042689697,-0.12480466836902909,-1.5432555846404534,0.06756149864113743,1.962107153962136,0.16550609949426573,-0.047068317591788034,-0.22067694227090015,0.0007784254101506906,-0.3492936259642416,-0.019491059613388387,0.11891861643829911,0.08097257664974,0.6008590349452443,0.7993388045267568,0.002577324894818253,0.0,0.7993071746931413,-0.6007985037838802,-0.011399352452109329,0.0,-0.007563637444335303,0.00890964973168508,-0.9999317024328559,0.0,0.6381467186735303,0.23019935624215038,0.3039231438828973,1.0,-0.04784457142856847,-0.06288143673469,-0.13504590399341523,1.4039999999999568
0.44533127546136964,0.42292544709121216,-0.12482547465942535,-1.549154986973527,0.06713871498092841,1.9641955365585193,0.16685233086490756,-0.04650509285700394,-0.22912775863831475,-0.00045905522920876936,-0.3508441084019858,-0.020732713955340404,0.12588304351694582,0.08130678040110934,0.602680623172719,0.7979661165669198,0.0026249122767216995,0.0,0.7979354125621377,-0.6026200939704551,-0.01135106266123265,0.0,-0.007476082445583121,0.008935748019649054,-0.9999321279959936,0.0,0.6373359890652661,0.2291416023073897,0.3039599648113732,1.0,-0.04901999999999691,-0.06442628571428168,-0.14032121507998607,1.420999999999955
0.44452012641599103,0.4189574788830299,-0.12484873652203353,-1.5552391886293828,0.066729857016304,1.9663480703967218,0.16824883526989762,-0.04177778857986948,-0.2306832810915293,-0.008203622849549006,-0.357589117594948,-0.02135545858886012,0.12724242143921083,0.08244714702507952,0.6045962010782457,0.796515724954897,0.002623059766110677,0.0,0.7964851081796891,-0.6045355620106462,-0.011356655038766757,0.0,-0.007460165042667166,0.008955590957844442,-0.9999320693567799,0.0,0.636497849932221,0.22803300690727943,0.3039450983587574,1.0,-0.05019542857142535,-0.06597113469387333,-0.1455965261665569,1.437999999999953
0.44369909436566235,0.41482925361012596,-0.12488296800063585,-1.5613090318415082,0.06630714910834176,1.9686238583479212,0.16978629602667747,-0.050280690788149805,-0.2401656918094128,-0.0021319162163937378,-0.3592797748586646,-0.01802896396243323,0.13829807534130883,0.09294426606186673,0.6066288582794389,0.7949678999825845,0.0028658682929023774,0.0,0.7949407943297305,-0.6065678088920786,-0.011197036549384361,0.0,-0.007163079092162572,0.009070815756582348,-0.9999332030687997,0.0,0.6356910376504092,0.2269223668299826,0.30405183412593395,1.0,-0.05137085714285379,-0.06751598367346501,-0.15087183725312778,1.4549999999999512
0.4428442138611539,0.41068380730307813,-0.12490554934781085,-1.5676566646480288,0.06586751027141181,1.970684740025729,0.1712983708735431,-0.04920133009789143,-0.2409958197830948,-0.0021194181328273724,-0.3654907993214361,-0.02829150842635626,0.11468964763363437,0.09833391153190153,0.6086581471889349,0.7934158119972364,0.002712201044757747,0.0,0.793386720319763,-0.608597199468858,-0.011300784048969085,0.0,-0.00731572364253219,0.009030312434273463,-0.9999324645419438,0.0,0.634767612979418,0.2257512411044451,0.30401571683491535,1.0,-0.05254628571428224,-0.06906083265305667,-0.15614714833969862,1.4719999999999493
0.44202676832005333,0.40669962587587266,-0.12493594653583942,-1.5737105864223866,0.06544447701566311,1.9727824583678455,0.17287062786710702,-0.04984706580169253,-0.24757883051451554,-0.0036029759956610445,-0.37719458178735615,-0.026301501412856747,0.13445542779958014,0.09564903263546765,0.6106977388087528,0.7918470488671174,0.0026962780868945747,0.0,0.7918179385934979,-0.6106367936114645,-0.01130510109028412,0.0,-0.007305604985354264,0.009039135060840878,-0.9999324588056685,0.0,0.6339100839801075,0.22463739564312044,0.30400956929932754,1.0,-0.05365257142856783,-0.0705148081632606,-0.16111214700941237,1.4879999999999476
0.4411158361045803,0.40247614210668015,-0.1249603740111882,-1.5802035581417093,0.06501468712659587,1.9750445157198373,0.1745269229509759,-0.05670525791521508,-0.2505060351878022,-0.00021631855149754182,-0.3908669516966271,-0.027133833494629653,0.13172310634143897,0.107406996195574,0.6128828377435188,0.7901571356162694,0.002659912658716639,0.0,0.7901275548444381,-0.6128216944760646,-0.011347455937019336,0.0,-0.00733636234476287,0.009056505646779414,-0.999932076439703,0.0,0.6329889595171806,0.223431575033883,0.3039663958770525,1.0,-0.05482799999999627,-0.07205965714285226,-0.1663874580959832,1.5049999999999457
0.44016371633651985,0.39806675285629906,-0.12497384378327712,-1.5866542429188812,0.06455844230243586,1.977398765139486,0.17628505730998065,-0.05564850130399105,-0.2579354660027289,-0.001323280141858908,-0.3835836079979667,-0.020202534696206663,0.13592926143541736,0.11046875706087401,0.6151550016325508,0.7883886931374446,0.0028878020529135495,0.0,0.7883623180993052,-0.615093341138568,-0.011215346151193708,0.0,-0.007065920322812336,0.009175987266783397,-0.999932934764963,0.0,0.6321029917471316,0.222216945266077,0.30407042454159505,1.0,-0.05600342857142471,-0.07360450612244393,-0.17166276918255405,1.5219999999999438
0.43925294833199957,0.3938473965775637,-0.1249908194795576,-1.5929888881948135,0.0640702520541824,1.9795269830615474,0.17792265350731418,-0.05623076900016131,-0.2622484768804574,-0.0021636044164806845,-0.3932020475321829,-0.03155042537184735,0.12420241794208717,0.10780427163112889,0.6172784796203622,0.7867273643457404,0.0028424792676395166,0.0,0.7867007736625061,-0.6172171119899119,-0.01121054355751875,0.0,-0.007065350571318796,0.009156384210644422,-0.9999331184881773,0.0,0.6311828711318972,0.2210205869636125,0.3040782458335094,1.0,-0.05710971428571031,-0.07505848163264785,-0.1766277678522678,1.537999999999942
0.43828543923280516,0.38934653912603034,-0.1250067795897346,-1.5998106190180708,0.0635708721496042,1.981787391471463,0.1798793290922505,-0.05730122521979486,-0.27298884735033396,-4.726785251454608e-05,-0.40215871423623645,-0.026888816218345428,0.14367051144426962,0.11478708580599231,0.6197044655498279,0.784818197670705,0.0027420582992101856,0.0,0.7847904900303394,-0.6196432281436702,-0.011265144244047766,0.0,-0.007142129853965062,0.009133177311393334,-0.9999327852677637,0.0,0.6301717169098912,0.21974583308986276,0.30405048984985994,1.0,-0.05828514285713875,-0.07660333061223952,-0.18190307893883864,1.5549999999999402
0.43729000153696695,0.38482506022452145,-0.1250062052248692,-1.6066901301063528,0.06305630593658273,1.9840896379083903,0.18180149156616524,-0.059555603172218564,-0.2634847503949835,-4.185815963313552e-05,-0.40309143908991624,-0.03577843326799177,0.12743252656056472,0.11509728430675085,0.6221014543095013,0.7829198853893945,0.0026420653037789697,0.0,0.7828911053339763,-0.6220404068920357,-0.01131354426091137,0.0,-0.007214266296484362,0.009106797098212147,-0.9999325080266246,0.0,0.6291489517897922,0.21845969485796052,0.3040073783282422,1.0,-0.059460571428567185,-0.07814817959183118,-0.18717839002540948,1.5719999999999383
0.43655196714571215,0.38150403544975253,-0.1250274875393465,-1.61150083039408,0.06271214218330119,1.985854035764395,0.18321549621691632,-0.060819826877664,-0.2673793382000422,0.0004270950955575126,-0.40572318366803817,-0.027030627524171465,0.1360010424228027,0.11294338536059122,0.6245931248518184,0.7809326759958847,0.0028863213534642863,0.0,0.7809073131890234,-0.6245315381196074,-0.011174658968662366,0.0,-0.006924190929484542,0.00923374239567866,-0.9999333945725297,0.0,0.6281838169193236,0.21715427952402808,0.3041058230378191,1.0,-0.060359428571424234,-0.07932953469387187,-0.1912124514445519,1.588999999999937
0.435232957091081,0.37573356086555076,-0.12506506552466806,-1.6202498502580391,0.062059455352908806,1.9887909223019407,0.18571775758089934,-0.06903169646975972,-0.27056170031163124,-0.004485743632772947,-0.42786192807718654,-0.02861623984630923,0.13900606811182983,0.12020174340463856,0.6270211044228133,0.7789850916297254,0.002740169380262279,0.0,0.7789581581560416,-0.6269599071706737,-0.01123430210987644,0.0,-0.007033512935096353,0.009178798530153853,-0.9999331374413666,0.0,0.627177801891453,0.21585154720046362,0.30404188135696597,1.0,-0.06174228571428125,-0.08114700408162681,-0.1974186997816942,1.6049999999999351
0.4340509394997362,0.37066505421685675,-0.1251163596503415,-1.6278738818552108,0.06146848424982458,1.991243512437425,0.1879620485505811,-0.06635591219602276,-0.2668132378079591,5.177823990739532e-05,-0.4142256133713391,-0.035230421278354934,0.13475587272313214,0.12622644063512548,0.6298252192256975,0.7767202041202449,0.00258159638896153,0.0,0.7766916411870075,-0.6297645316765489,-0.011290529379003945,0.0,-0.00714392198564906,0.009116339995324796,-0.9999329261124232,0.0,0.6260255670786713,0.21434638974243037,0.304007524077331,1.0,-0.06298685714285254,-0.08278272653060623,-0.20300432328512216,1.6229999999999332
0.4329726123939736,0.36606668511431406,-0.12515172674973504,-1.63462028469961,0.06095639545875838,1.993559195513641,0.19005749357696364,-0.06446531647357913,-0.2879625263754217,-0.0038928520744922284,-0.4077205835254429,-0.033786699904266346,0.14438928516441582,0.13039082513621789,0.6324027411104685,0.7746227407729349,0.0026700963653669765,0.0,0.7745956721647851,-0.6323419598117697,-0.011222184555753053,0.0,-0.007004680251275541,0.00916536182479867,-0.9999334630850183,0.0,0.6250337473090697,0.21301476412206555,0.3040586153601978,1.0,-0.06409314285713814,-0.08423670204081014,-0.20796932195483592,1.6389999999999314
0.43178512308715417,0.3611312790447705,-0.12516866993829295,-1.6417776745712758,0.06039518159532514,1.9961305233872315,0.19231141212381994,-0.06705180428769729,-0.2834106180990687,-0.0022454359808004054,-0.42712965563296185,-0.029155946847102432,0.14325360575282425,0.13357252538018385,0.6351630967481621,0.7723601149350494,0.0029052173774177263,0.0,0.7723365670878721,-0.6351021438846831,-0.011056259458247307,0.0,-0.00669443292965316,0.009266512020941767,-0.9999346560264405,0.0,0.6240027755000389,0.2115949069286605,0.30415370772784733,1.0,-0.06526857142856658,-0.08578155102040182,-0.21324463304140676,1.6559999999999295
0.43055923017245334,0.3561776438213828,-0.12520922587952535,-1.6492690353556958,0.05984208611625655,1.9984847166449797,0.19464657189417023,-0.07235285771090862,-0.2891850843350934,-0.0009834445959099154,-0.43365325584358366,-0.02622408192198541,0.1465080505000721,0.1385833044665489,0.6380339566351036,0.7699910054704544,0.0026960297404783704,0.0,0.7699648830064036,-0.6379731511051534,-0.011184109580305366,0.0,-0.0068918018805672054,0.009211867267662585,-0.9999338200942509,0.0,0.6228392210855653,0.2100919215152371,0.30407918380362137,1.0,-0.06644399999999502,-0.08732639999999348,-0.2185199441279776,1.6729999999999277
0.4293101236901841,0.3511735298373136,-0.12526918978336357,-1.6568356176518064,0.05927169458221124,2.0009080874120135,0.1969981211361422,-0.07027591101407939,-0.2839403284515309,-0.0022579197274441533,-0.43827706752870943,-0.034886015043283466,0.14287887989184267,0.13292967559416818,0.6409334739005523,0.7675797699792619,0.002515085199704649,0.0,0.767551588100919,-0.6408730009893286,-0.011274001414645093,0.0,-0.007041980792872493,0.009156518822052151,-0.9999332821091487,0.0,0.6216692014127608,0.2085604749693092,0.3040025441769734,1.0,-0.06761942857142346,-0.08887124897958515,-0.22379525521454846,1.6899999999999258
0.42800411058898913,0.34597900332200154,-0.1253043828524701,-1.6642660282890933,0.05873008054186523,2.003479812811494,0.1994242729580514,-0.07980107410298751,-0.3064080618447116,-0.0015456059964834476,-0.4354439761394221,-0.0329373397466681,0.15181151817384334,0.15034550407070513,0.6439073910574655,0.7650858685169869,0.0027626868053062976,0.0,0.7650610022831703,-0.6438461691980267,-0.011158857275958198,0.0,-0.006758868823512398,0.009299073647990597,-0.9999339202774931,0.0,0.6205670234094467,0.20704240641792918,0.3041197875746441,1.0,-0.06879485714285193,-0.09041609795917684,-0.22907056630111938,1.7069999999999241
0.4267633575447308,0.3410701955487809,-0.1253100990681396,-1.6713999022057495,0.058151239231491535,2.0058603356359423,0.20180389438606366,-0.07469860923727041,-0.3138980789029059,-0.0004406835964742224,-0.44623370620675185,-0.041632033668957485,0.1439972261067674,0.15007850461416564,0.6469237302786811,0.7625368699152716,0.00282066009016065,0.0,0.762513160905543,-0.6468625460430412,-0.011102831790134892,0.0,-0.006641867109525523,0.00933365550131074,-0.9999343820852857,0.0,0.619400675454875,0.2055067834019242,0.30416297082341615,1.0,-0.06997028571428036,-0.09196094693876851,-0.23434587738769022,1.7239999999999223
0.42543116547067716,0.3358466978450006,-0.12530732784967988,-1.6791928046081548,0.0575258316237977,2.008326736231361,0.20432765667117272,-0.07914786476260377,-0.30568129624192497,0.0002878221005040951,-0.4590714466146735,-0.04221966916941757,0.14872479599000946,0.1515591486591582,0.6497363607029868,0.760142256703216,0.002675454314438255,0.0,0.7601169477524513,-0.6496754007463786,-0.01117346435704987,0.0,-0.0067553756195637416,0.009293643166566029,-0.9999339943700941,0.0,0.6182301154748993,0.20403652893684643,0.3041085924087942,1.0,-0.07107657142856595,-0.09341492244897243,-0.23931087605740395,1.7399999999999205
0.4240886143854755,0.33054322069126035,-0.12530585251346096,-1.6869401309628864,0.05687961981760757,2.0108239803578978,0.20691961032370462,-0.07735418618510767,-0.313120485234018,-0.00028004444479233135,-0.44764519683585274,-0.03415463210506198,0.15674092157761396,0.14775219769647283,0.6527715938585734,0.7575374522485607,0.0026460524003913176,0.0,0.7575122051286678,-0.6527108573146354,-0.01115987123156472,0.0,-0.006727042805842465,0.00928944277035075,-0.9999342244108382,0.0,0.6170001205076531,0.20247640349623766,0.3041195138064354,1.0,-0.0722519999999944,-0.0949597714285641,-0.24458618714397481,1.7569999999999186
0.4226959410423208,0.32516382930412224,-0.12530635824532732,-1.6946531810503085,0.056273688663958786,2.013524197047705,0.2095817253471096,-0.08427163189780118,-0.3126511392904918,0.0002153857155452949,-0.46067011962123805,-0.03720323619961848,0.1507858326078643,0.1561465998519492,0.6558967579080583,0.7548322682460255,0.0029045966099315304,0.0,0.7548106235124541,-0.6558355526569465,-0.011018049060805474,0.0,-0.006411964691483529,0.009419304386446697,-0.9999350795995061,0.0,0.6158206381571631,0.20091075968196284,0.3042059656342328,1.0,-0.07342742857142284,-0.09650462040815576,-0.24986149823054565,1.7739999999999168
0.42130833324537226,0.32008722656507166,-0.12533284970597183,-1.7022124278757176,0.05565373454391867,2.015828040503735,0.21217055448800815,-0.08541257271510429,-0.3204447163060341,-0.003348726316767996,-0.468676378407866,-0.03681267670588513,0.1392688450426253,0.16287991915848912,0.6589547857907312,0.7521649844409468,0.0026783139566651307,0.0,0.7521407863442673,-0.6588939821654181,-0.011122260778875235,0.0,-0.006601177250412427,0.009343716029983073,-0.9999345575734743,0.0,0.614589936513211,0.19932562498054474,0.30412844279427986,1.0,-0.07453371428570843,-0.09795859591835969,-0.25482649690025944,1.789999999999915
0.4197523086167845,0.31425621513834423,-0.12537184952310232,-1.7107189338459743,0.054978079158572474,2.0185104606583257,0.21513469067581753,-0.08648881549364895,-0.3205119383537328,0.001191335925226636,-0.4660163221264958,-0.034588487195874464,0.15777818512859396,0.16684253626865722,0.6624256988316299,0.7491102021333583,0.0026163884180580065,0.0,0.7490854737199919,-0.6623648627257325,-0.011157445461453672,0.0,-0.006625280026728186,0.009351057201383808,-0.9999343295405874,0.0,0.6132132416209279,0.19755492336218924,0.30411710447903756,1.0,-0.07577828571427972,-0.09959431836733909,-0.26041212040368733,1.807999999999913
0.4183186359240918,0.3089633053418876,-0.12538293469090064,-1.7181624308236247,0.05432733268020577,2.0210440538037586,0.217761352373325,-0.08927197228757978,-0.32893048441077105,0.0002715756300275702,-0.4634845489087746,-0.03928156949454645,0.16137341370691932,0.16283111076305415,0.6656833943231146,0.7462158477221328,0.0028764617160154807,0.0,0.7461950796294672,-0.6656226066972142,-0.010963370448320579,0.0,-0.006266523477501951,0.009444717072563905,-0.9999357619381981,0.0,0.6119787404540401,0.19588682012669237,0.30423998861433976,1.0,-0.07695371428570817,-0.10113916734693076,-0.2656874314902582,1.8249999999999111
0.41672350219551824,0.3033863520866939,-0.1253943073450776,-1.726299591205145,0.05365888983911822,2.0235543477909466,0.22070901861362777,-0.10076371521332762,-0.32898300026749927,-0.00010642278173041536,-0.4789026120265582,-0.04084353563427394,0.1408051818290769,0.17933133361991002,0.6689116517834526,0.743323859465756,0.0027548064313913934,0.0,0.7433017721779445,-0.6688508894407829,-0.011032228814213972,0.0,-0.006358086581686462,0.009427420408485793,-0.9999353471497352,0.0,0.6107169120433814,0.19424414846487817,0.3042044537257147,1.0,-0.07805999999999376,-0.10259314285713468,-0.2706524301599719,1.8409999999999094
0.415100123366584,0.29778324758447794,-0.12546607262586992,-1.7345914289255082,0.052967338269674265,2.0260541657405358,0.22366494714297608,-0.09746956485740758,-0.32603248546398655,-0.006435299982569765,-0.4794106471989264,-0.03960466650654716,0.1404892506136865,0.16704114256944905,0.6723808631259147,0.7401881105367192,0.002506556071507504,0.0,0.7401633207901732,-0.6723206411644591,-0.011133773946056552,0.0,-0.006556003938555488,0.009341577255641845,-0.9999348747527183,0.0,0.6093403140641679,0.19243740933416426,0.3041080031313208,1.0,-0.0792354285714222,-0.10413799183672635,-0.2759277412465428,1.8579999999999075
0.41342970606653623,0.29199382396247225,-0.12552651355284553,-1.7427004797749859,0.05232987566592603,2.0287808869055404,0.22673198582989734,-0.09948107552581206,-0.3410315161648575,-0.0017263257074104624,-0.4743709254928311,-0.038078278660803835,0.15426793343055276,0.17999674690914863,0.6759519853049867,0.7369272653678561,0.0028046427418105657,0.0,0.73690647666501,-0.6758910800163752,-0.010992702336890148,0.0,-0.006205308531722908,0.009497481225603704,-0.9999356439273456,0.0,0.6080592407962748,0.19065660817398472,0.30422646711877604,1.0,-0.08041085714285064,-0.10568284081631801,-0.28120305233311366,1.8749999999999056
0.41180917524718796,0.2865531363906996,-0.12554371223076374,-1.7504923280115852,0.051660404003293144,2.031203756794571,0.2296132836182397,-0.1015549062549469,-0.33938756383927476,0.0014048587352836653,-0.49277586277150065,-0.03503694735985575,0.15184057075911234,0.1826962225022958,0.6792787884980565,0.7338618927188217,0.002792277380447142,0.0,0.7338413313261347,-0.6792179729511375,-0.01098146433050969,0.0,-0.006162431862056894,0.009508747409515683,-0.9999358020174334,0.0,0.6067705635247767,0.18894530303897042,0.3042365069014412,1.0,-0.08151714285713624,-0.10713681632652194,-0.2861680510028274,1.8909999999999039
0.4100881550455252,0.2807038737245248,-0.12558172990239813,-1.7589759293724454,0.050915880506113016,2.0336940569957385,0.23275223247675308,-0.09721463608245677,-0.3450176007049047,-0.0014179830402705025,-0.4940632451308305,-0.041483184753392306,0.14640679291914302,0.1856790787819911,0.6828572173242148,0.7305341389096441,0.002576729901117576,0.0,0.7305113290930084,-0.6827968784233037,-0.01106199725938877,0.0,-0.006321905225751212,0.009436276728941526,-0.9999354930173302,0.0,0.6053181628568005,0.18709230416793565,0.304179090465552,1.0,-0.08269257142856469,-0.10868166530611363,-0.2914433620893983,1.9079999999999022
0.40831592526793353,0.2747916117919224,-0.12558870557292673,-1.76733413302264,0.050183472525669,2.0363489113551965,0.2359926332921184,-0.10550221288090258,-0.3501786716000051,0.0005214150854767147,-0.4920208407369977,-0.04090771937350521,0.15501830325616411,0.18432391969921652,0.6865043274894731,0.7271075519932495,0.0026763919404456634,0.0,0.7270864520947062,-0.6864439623217715,-0.01098747803307306,0.0,-0.006152003612015122,0.009489102232916408,-0.9999360528505667,0.0,0.6039273581021262,0.18525784920238958,0.304224492021111,1.0,-0.08386799999999313,-0.11022651428570529,-0.2967186731759691,1.9249999999999003
0.4064705628314798,0.2688656863243142,-0.12561673404836893,-1.7757116902515342,0.04945786708314026,2.03902277642626,0.2391841285613968,-0.10673741397093812,-0.34879561228926015,-0.0030716032287318087,-0.5064975789876819,-0.037804405038910305,0.14811628161466478,0.18437181378293407,0.6901638005961821,0.7236344962139893,0.0027912608204497397,0.0,0.7236152615258502,-0.6901033709891131,-0.010910432509589707,0.0,-0.0059690217532170076,0.009549968362027483,-0.999936582430903,0.0,0.6025386052514877,0.18337389665794643,0.3042621195513842,1.0,-0.08504342857142157,-0.11177136326529696,-0.30199398426254,1.9419999999998985
0.4045934961241714,0.26282533300549094,-0.12569389223576702,-1.784356655319454,0.048693860403088866,2.0415037628667645,0.24250613558663295,-0.11286502358194236,-0.35193537802821945,-0.009068961609782412,-0.5210155870729137,-0.05232840051503716,0.13855014060354512,0.18986239655342685,0.6939443103121037,0.7200106389014418,0.0025924805504730633,0.0,0.7199893821041052,-0.6938842733472295,-0.010984159501032997,0.0,-0.0061099478526319695,0.009489136154230332,-0.9999363103879588,0.0,0.6010367116098865,0.18140737987842448,0.3042209875247846,1.0,-0.08621885714285002,-0.11331621224488864,-0.30726929534911085,1.9589999999998966
0.4026784326882135,0.2567565113516279,-0.1257231530246497,-1.7929219310696867,0.04793438572168899,2.044070453082135,0.24583886702393337,-0.12195610439042683,-0.36624107796057404,-0.0011131561799080894,-0.4975926859607139,-0.0378705121981415,0.16973627069259323,0.19647153488264804,0.6977016957906692,0.7163703535435804,0.0025704388494037994,0.0,0.7163492252131187,-0.6976417193759272,-0.010980246990532745,0.0,-0.006072794960276462,0.009502451775365989,-0.9999364102639864,0.0,0.599560287875656,0.1794676266396859,0.3042315191710613,1.0,-0.08739428571427846,-0.1148610612244803,-0.31254460643568166,1.9759999999998947
0.40072483203381415,0.2506127046880759,-0.12570242731490905,-1.8014142844095355,0.04716893884075765,2.0468095678281153,0.24924557882959003,-0.11507809861044088,-0.360285169637401,0.000512836411877211,-0.5070848694231762,-0.05084829512105824,0.1592678386565145,0.20084876929603546,0.701476949141578,0.712673008194663,0.0028319807559099427,0.0,0.7126555646255099,-0.7014167302415782,-0.010833450360654761,0.0,-0.005734419381080769,0.0096178277252678,-0.9999373049467695,0.0,0.5981267954154535,0.17755834801062806,0.30432672920051307,1.0,-0.0885697142857069,-0.11640591020407197,-0.3178199175222525,1.9929999999998929
0.39884136428016875,0.24486451459177452,-0.12572077647195054,-1.8096623863190164,0.046444177469734255,2.0491468134635173,0.252528541226974,-0.117290162912453,-0.35959568461725244,-0.0011344224356840907,-0.5221730029685491,-0.0392396720843698,0.13856609380801319,0.19614839697955677,0.7051228214724158,0.7090668018508267,0.00261228884854432,0.0,0.7090468941887077,-0.7050626925070979,-0.01094752836018537,0.0,-0.005920815507412802,0.009571771666532891,-0.9999366605595033,0.0,0.5966529328151181,0.17568047801587194,0.3042465320457223,1.0,-0.0896759999999925,-0.11785988571427589,-0.32278491619196625,2.008999999999891
0.39681761696126205,0.23863449594887362,-0.12571445342769963,-1.8184208423126165,0.04567186593641034,2.0517404156813988,0.25604645461227205,-0.1185201960476471,-0.3731801720827623,-0.0005137691435648142,-0.5015811186836041,-0.05284721249567468,0.16077426085704258,0.2051305778168263,0.708989157078326,0.7052009610382997,0.002593568435882285,0.0,0.705181073065337,-0.708928818768787,-0.01096954924873856,0.0,-0.005897194803995587,0.009606411801271614,-0.9999364679547139,0.0,0.5950993367902525,0.17370254384236805,0.30423866637786096,1.0,-0.09085142857142096,-0.1194047346938676,-0.3280602272785373,2.0259999999998897
0.39475533115002215,0.23228781124422337,-0.12570571796868643,-1.8270774552830855,0.0449082526873684,2.05444108051053,0.25961029253521284,-0.12500108906927965,-0.36326773953797087,0.0011202220250018623,-0.5128336791628634,-0.04850754693928292,0.1571516765534171,0.21276919884170967,0.7128867771787463,0.7012595499960617,0.002869383946032933,0.0,0.7012433258275096,-0.7128258690618994,-0.010854735359710488,0.0,-0.0055667229053397715,0.009750521376855725,-0.9999369674779378,0.0,0.593592549532517,0.17172981403987078,0.3043485660771412,1.0,-0.0920268571428494,-0.12094958367345926,-0.3333355383651081,2.042999999999888
0.3926385207639861,0.22596446009305093,-0.12570849323900127,-1.8359920250151192,0.04403898097483297,2.0569120431888637,0.26324947695357753,-0.12427526524246268,-0.3661999140016472,-0.008433909385857969,-0.528687584875113,-0.05863050683753444,0.14801551988319414,0.20832642882374552,0.7168251432257128,0.6972341250461954,0.0026525104545141107,0.0,0.6972158355935955,-0.7167648417481177,-0.010908122319115017,0.0,-0.0057043987122520345,0.009668774790564272,-0.9999369853292661,0.0,0.5919603785551437,0.16967469514801103,0.3042930944579495,1.0,-0.09320228571427784,-0.12249443265305093,-0.33861084945167896,2.059999999999886
0.39041142844902677,0.21960209351145402,-0.12573607934552317,-1.8448374467660449,0.043225874737498476,2.0594774117985937,0.2669269719456884,-0.13396260121398745,-0.3749572340857836,-0.003281829457109923,-0.509098532160097,-0.051911145230789636,0.15473779977994473,0.2190910000581562,0.7208715644765606,0.693049765638815,0.002637570531241979,0.0,0.6930316897338402,-0.7208112541740626,-0.010906868564401453,0.0,-0.005657921112328934,0.00969055794088848,-0.9999370385256667,0.0,0.5903747333117471,0.1675693371296341,0.30429132658243085,1.0,-0.0943777142857063,-0.12403928163264259,-0.34388616053824983,2.076999999999884
0.3881576446961991,0.21314554513538073,-0.1258072546586012,-1.8536319740990157,0.04243129971876295,2.062111226763021,0.270663738591836,-0.1337915031448792,-0.3753237513689797,-0.0019319447330697467,-0.5287114162942073,-0.05351676399757408,0.13916817936321374,0.21924656540891352,0.7249812736365305,0.6887488269672984,0.002820129204903693,0.0,0.6887333572568134,-0.7249206778161431,-0.010822216850076182,0.0,-0.005409523336015021,0.00978841006795629,-0.9999374600871889,0.0,0.5888163902626073,0.1654446701401516,0.3043658970259761,1.0,-0.09555314285713473,-0.12558413061223425,-0.34916147162482064,2.093999999999882
0.38594406027202266,0.20704157292547926,-0.12585142420019785,-1.8621579992407027,0.04160692521332219,2.064398307886696,0.2742867920273296,-0.14024067653020106,-0.37260926670836564,-0.0033219987142788254,-0.5289621538877936,-0.04766950046812723,0.14693025197302806,0.2243094228665943,0.7291593626623032,0.6843249907832212,0.0025841309286701187,0.0,0.6843071695081115,-0.7290992200942925,-0.01089825302052126,0.0,-0.0055739663692316865,0.00971508959359213,-0.9999372719991506,0.0,0.5871334356912342,0.16324260897089418,0.30430281871734915,1.0,-0.09672857142856317,-0.12712897959182592,-0.3544367827113915,2.1109999999998803
0.3835988811773905,0.2005082943760741,-0.12587955857298488,-1.8711458198929143,0.040716675892103656,2.06696189055132,0.2780371831848395,-0.1362914593651641,-0.38990878360441844,-0.004587939815912685,-0.506571764691291,-0.044770728211677165,0.1610433797252546,0.22046646993375169,0.7329829816405409,0.6802278968080658,0.0025891949764235153,0.0,0.680210733727922,-0.7329231926816259,-0.010848882518611096,0.0,-0.005482137037883028,0.009713431484293183,-0.9999377957764662,0.0,0.585584537259931,0.1612019008749049,0.3043108678966918,1.0,-0.09783485714284877,-0.12858295510202986,-0.35940178138110523,2.1269999999998785
0.38117647923488357,0.19390421106411035,-0.12589728490663188,-1.8800491152827183,0.03987305319588565,2.069604314231508,0.2819535978030312,-0.14110499803431314,-0.381166384746485,-0.002108740122356236,-0.5279771925846244,-0.04739872618296419,0.14349952907338692,0.2244622774412667,0.7371847722957867,0.6756711281252905,0.0028080267653441543,0.0,0.6756570403682569,-0.7371247566521053,-0.010742617585601598,0.0,-0.005188710395758966,0.009816746155033237,-0.9999383524894706,0.0,0.5839715724725132,0.15902500407274248,0.3043891898823426,1.0,-0.09901028571427721,-0.1301278040816215,-0.3646770924676761,2.1439999999998767
0.3788162381662474,0.18767532384799682,-0.1259931500441952,-1.8886925538694734,0.03906006757355377,2.071852349306466,0.28560456417830465,-0.15093690960928402,-0.40087775691406524,-0.005135381731978746,-0.5390245341099179,-0.04996865644198863,0.12801874478877479,0.2390569191125052,0.7411882240630502,0.6712779954235647,0.002572211420305036,0.0,0.6712613872513139,-0.7411283108471319,-0.010850057489565981,0.0,-0.005377169663932646,0.009768749126663062,-0.9999378268607031,0.0,0.5823337714228082,0.15685524534858772,0.30431747443810664,1.0,-0.1001165714285628,-0.13158177959182543,-0.3696420911373898,2.159999999999875
0.3761026899882312,0.18054345854855175,-0.12608165502084714,-1.898249690976132,0.03814100942709584,2.074541731593466,0.2897616871078991,-0.1555628831698517,-0.4030817445662393,-0.0023208117257010694,-0.5213995047678563,-0.04787229538149474,0.1547941202642335,0.228519558703734,0.7457096797369593,0.6662510505109758,0.0027125893222540746,0.0,0.6662366079481152,-0.7456496358892977,-0.010777273734837053,0.0,-0.0051578280111957975,0.009844133184126413,-0.9999382430190678,0.0,0.5805671039424005,0.15442814347686024,0.304388950202405,1.0,-0.10136114285713409,-0.13321750204080485,-0.3752277146408178,2.177999999999873
0.37381857169105925,0.1746208260663757,-0.12607446277992332,-1.9062111655051177,0.03732798950679488,2.0768217162507194,0.2933561567553665,-0.15244088706737532,-0.3900117220637133,0.0027177952857878494,-0.5282429371451024,-0.059694131704651515,0.13926755117058529,0.24424506009096184,0.7494798966883979,0.6620064992422884,0.0028330764420839236,0.0,0.6619940504868668,-0.7494200750854875,-0.010685273981619682,0.0,-0.004950651777455239,0.009884068088004905,-0.9999388962556714,0.0,0.5790812432072937,0.15244461040529253,0.30442884366419565,1.0,-0.10239828571427684,-0.13458060408162104,-0.3798824008936744,2.1929999999998713
0.370922505131681,0.16708444269699466,-0.12606883260275586,-1.9165835017654873,0.03628851691111462,2.079435277840886,0.2978746806118698,-0.14993425888148787,-0.4000964073972935,0.0005418993729365603,-0.5450922151861304,-0.05528752072231186,0.1383550418866726,0.2426942923287547,0.7541956552036181,0.6566302774327761,0.0025178029606752897,0.0,0.6566145084104905,-0.7541360853367776,-0.010811985894310521,0.0,-0.005200811360702273,0.009807767568828021,-0.999938377729601,0.0,0.57703583789019,0.14990251880424563,0.30432835423203214,1.0,-0.103711999999991,-0.13630719999998822,-0.3857783368139596,2.2119999999998696
0.3685658151070282,0.16099929716363795,-0.12606511246083593,-1.9246219357976417,0.03549038437065449,2.081635595862075,0.3015075103199974,-0.15692501043957766,-0.41341303136544283,-0.000824896903903828,-0.5226743385966455,-0.05539303867934147,0.14980609204410983,0.2388608970568788,0.7582347554744607,0.651961322897358,0.0026899698362384244,0.0,0.6519479610663402,-0.7581748831456494,-0.01074474428410755,0.0,-0.004965785738168638,0.009900949528920913,-0.9999386542035608,0.0,0.5753998342215711,0.14775776439621136,0.3044101079975869,1.0,-0.1048182857142766,-0.13776117551019215,-0.39074333548367335,2.227999999999868
0.36569100440353286,0.15371349682557825,-0.12605507324834994,-1.934303228850389,0.03446892125427111,2.0842821285797206,0.3059059799188614,-0.16865135356208774,-0.3963348138129286,0.0002055542127253042,-0.5546948166859813,-0.052423154854170324,0.13450962304709266,0.2444148958296886,0.7625134371945339,0.6469515812411183,0.0027670432960828113,0.0,0.6469398053088968,-0.7624539784081324,-0.010656735790373333,0.0,-0.0047847410220164255,0.009916205605726855,-0.9999393857228231,0.0,0.5736256383559326,0.1454534342600697,0.30444448777167366,1.0,-0.10599371428570505,-0.1393060244897838,-0.3960186465702442,2.244999999999866
0.36286041362327853,0.1468085824747528,-0.12607693666501238,-1.943712450052866,0.03350993062708111,2.086561816777172,0.310083780771859,-0.1670746332606652,-0.39628723416350736,-0.0014404128591169307,-0.5454220206375758,-0.06447759902491072,0.13135620656498465,0.24460890053043466,0.7666017695340425,0.6421030234188579,0.0024861948525014355,0.0,0.64208828617081,-0.7665424682964898,-0.010771441935285373,0.0,-0.005010697965787958,0.009853952759078272,-0.999938894393511,0.0,0.5718476640261115,0.14319221620356287,0.30435669805126425,1.0,-0.10709999999999063,-0.14075999999998773,-0.40098364523995794,2.2609999999998642
0.36013371301949537,0.14018251383235084,-0.12607763013722736,-1.9523206641026958,0.03266352757315822,2.0888865719062686,0.3141119272647802,-0.16942117845206328,-0.4081887198807592,-0.0003428587462023802,-0.5325814052060328,-0.05364296892028691,0.14208731462603838,0.24210132882776617,0.7710325979917565,0.6367748597305538,0.0026940212367705923,0.0,0.6367628900819267,-0.7709727889620139,-0.010711087519677072,0.0,-0.004743625515958805,0.009974242421356541,-0.9999390043923102,0.0,0.5700613794666158,0.14081473541658296,0.3044444115555283,1.0,-0.10827542857141907,-0.1423048489795794,-0.4062589563265288,2.2779999999998624
0.35718481472157576,0.13317930727956354,-0.12609798653014423,-1.961565935405839,0.03169146143552686,2.0913390375244942,0.318313969125114,-0.1747722586369887,-0.4091755926906998,-0.0004575743736815315,-0.5523504753079702,-0.05762880780263265,0.13459850512367555,0.24901483658164464,0.7753895112147391,0.6314619054026109,0.0027775573226101876,0.0,0.6314514816730925,-0.7753298818905692,-0.010646475549246363,0.0,-0.004569408520539442,0.01000925086817972,-0.9999394658692247,0.0,0.5682422914910992,0.13839371798036487,0.3044666663691948,1.0,-0.10945085714284752,-0.14384969795917107,-0.4115342674130996,2.2949999999998605
0.35416497822366183,0.12613277043708795,-0.12615813902826578,-1.9710170746112965,0.03064966111935817,2.0936157488188223,0.322618199083333,-0.1832544145080726,-0.4143631845028241,-0.005997259011413643,-0.5610132131697753,-0.054715733966609274,0.14152225517802536,0.24354174675176232,0.7798164841231814,0.6259876884703326,0.00253216795216736,0.0,0.6259750785903719,-0.7797575711194193,-0.010680738126627537,0.0,-0.004711624152361427,0.009914280567232273,-0.99993975200443,0.0,0.5663209672666473,0.13589117736269762,0.3043897205988784,1.0,-0.11062628571427596,-0.14539454693876272,-0.4168095784996705,2.3119999999998586
0.3510728040599449,0.11891090878917773,-0.1262381641759504,-1.9801987400002685,0.029664145382523873,2.0960417372098226,0.3269553782079194,-0.18122054303480323,-0.4262036089885774,-0.0040920801333730605,-0.5458860633281809,-0.060798163768536896,0.15203576865941285,0.26415549272528405,0.7842903880074574,0.6203718231125209,0.002852239184756926,0.0,0.6203635424942706,-0.784231544435933,-0.010521727842839331,0.0,-0.004290650151504705,0.010021708166003451,-0.9999405760777551,0.0,0.5645136632840246,0.13339030275947555,0.3045368588465512,1.0,-0.1118017142857044,-0.1469393959183544,-0.42208488958624135,2.3289999999998567
0.34804035909697767,0.112233835792697,-0.12626573212206355,-1.989020664666018,0.028734922336877654,2.0981744988463937,0.33106543955642764,-0.19115439305533782,-0.41365777179993696,-0.00264928761955646,-0.5511462284456679,-0.06385104942307146,0.12862731374549022,0.2612356762975993,0.7885230828645959,0.6149833836546591,0.0027445436028803224,0.0,0.6149742548983723,-0.7884642434014938,-0.0105617039681036,0.0,-0.004331381340648477,0.010016163872642272,-0.9999404560257364,0.0,0.5627128341817239,0.13098670692999878,0.304495825747551,1.0,-0.11290799999998999,-0.14839337142855832,-0.4270498882559551,2.344999999999855
0.3448505085065333,0.1050482624437257,-0.12627116054396254,-1.9985137234028765,0.027677828396069134,2.1003695793288144,0.33546978689342677,-0.18852993221087605,-0.42527020409811384,0.00015860301411848893,-0.554957650712092,-0.06491611603165938,0.1283784760070369,0.2574099519269261,0.7929415982723297,0.6092766342947281,0.0025202247955023677,0.0,0.6092654860228027,-0.7928832103029401,-0.010607981066619764,0.0,-0.00446503704018858,0.009947186960499815,-0.9999405566911481,0.0,0.5607243688380241,0.12845971620206134,0.3044284568423871,1.0,-0.11408342857141844,-0.14993822040815,-0.43232519934252595,2.361999999999853
0.3416536624344862,0.0977403109190325,-0.12624923679832648,-2.0077057991504597,0.026695107555354796,2.102729948783538,0.33995725072404587,-0.1874250365414049,-0.4288057529886799,-0.0001249991924736422,-0.5473177053237316,-0.056323198793097044,0.13419527319541302,0.2605439278881748,0.7973704458805392,0.6034674141538283,0.0028633881976427794,0.0,0.6034606675534254,-0.7973117962389948,-0.010481850758803934,0.0,-0.004042520016806994,0.010086054354215751,-0.9999409630270566,0.0,0.5588476675734168,0.12600253724607555,0.3045684890564247,1.0,-0.11525885714284688,-0.15148306938774167,-0.43760051042909676,2.3789999999998512
0.33833535634071477,0.09047634512769487,-0.12625574298768746,-2.017216855100484,0.025713915253205776,2.1048695921796607,0.3444408659786044,-0.2029221509188992,-0.4299300937327726,-0.0010830241091367907,-0.5542727734418401,-0.060299338011958886,0.11873609568278944,0.2609036448883649,0.8018407408162305,0.5975156961662323,0.002676957875971198,0.0,0.5975070234660762,-0.8017816163581669,-0.010599220726236511,0.0,-0.004186945750017879,0.010098582560623556,-0.9999402422722832,0.0,0.5568202825923682,0.12344464431126242,0.3045019668467189,1.0,-0.11643428571427532,-0.15302791836733334,-0.4428758215156676,2.3959999999998494
0.3348728448572044,0.08318832144841523,-0.12628956483516446,-2.0267238381647656,0.024639481832875426,2.107043248351256,0.3489607799881498,-0.2036721569825703,-0.43470085943137415,-0.0037184568406427275,-0.5583949483674329,-0.06360467672989362,0.1349773342803826,0.2654344757661047,0.8063549256603306,0.5914103145684577,0.0025140776776176044,0.0,0.5914003619627306,-0.8062962116724348,-0.01061968993142814,0.0,-0.004253584750339601,0.010050259232371822,-0.9999404478798394,0.0,0.554805771768276,0.12079911678200253,0.30443838057065065,1.0,-0.11760971428570376,-0.154572767346925,-0.4481511326022385,2.4129999999998475
0.3315718995249098,0.07613666731485913,-0.12630491164010105,-2.035399662983228,0.023639041119989494,2.109188749847417,0.3532936008948078,-0.2107359757184373,-0.42779819099479505,0.0018680866058787958,-0.5442180899708368,-0.06935748947636636,0.13698287170706275,0.2675110000311069,0.8106173776424936,0.5855526202683355,0.0028884013054889285,0.0,0.5855475873505365,-0.810558901966186,-0.010442044461937578,0.0,-0.003773219751203871,0.010155994649059655,-0.9999413075702981,0.0,0.5530095274015105,0.11833938955243188,0.3046057416533771,1.0,-0.11871599999998936,-0.15602674285712892,-0.4531161312719522,2.4289999999998457
0.32798676365160095,0.06874430007843763,-0.12634779550905786,-2.0449971066231156,0.022595729330897867,2.11121119296135,0.35779286710562536,-0.20956225084088478,-0.4372197145038917,-0.001610475643302617,-0.5712145980504413,-0.06060887129944836,0.1121411325570879,0.261333743006109,0.815102003737338,0.5792949224260707,0.0026197816622011453,0.0,0.5792871548850898,-0.8150433132879608,-0.010561086635820234,0.0,-0.0039828250191046854,0.010126163704047467,-0.9999407972042675,0.0,0.5509126345972843,0.11565046877522947,0.30451475809096623,1.0,-0.1198914285714178,-0.1575715918367206,-0.4583914423585231,2.445999999999844
0.3242951860112921,0.061298361489414796,-0.12645372557196013,-2.054474374006077,0.021488291638543804,2.1133284073724816,0.3624346220987278,-0.2170948598833656,-0.4508845666881973,-0.0032879419039590014,-0.5481199850792589,-0.06455125249025713,0.12365170052199782,0.26562774102725395,0.8196910128474832,0.572783344838989,0.0025749239475168686,0.0,0.5727757304902226,-0.8196328000140296,-0.010525331527422776,0.0,-0.0039183179126518475,0.010102568111006363,-0.9999412907277596,0.0,0.5488769386029971,0.1128927403025372,0.3045009598779492,1.0,-0.12106685714284623,-0.15911644081631227,-0.4636667534450939,2.462999999999842
0.32053553472475715,0.05375055032372468,-0.12648632659017267,-2.063817648124234,0.020399133174780332,2.1155226099672646,0.3670134185518694,-0.21431164450935455,-0.4379316373636057,0.0018546887413102102,-0.5590110555808896,-0.06428320377398251,0.12728913369359757,0.2636762235430939,0.8241878238005237,0.5662924688883337,0.002831550903802863,0.0,0.5662883890519076,-0.824129891878095,-0.010398492160092745,0.0,-0.0035550905043651992,0.010173980904726113,-0.9999419240356192,0.0,0.5468825549758553,0.1101739523081636,0.3045948636609135,1.0,-0.12224228571427469,-0.1606612897959039,-0.46894206453166476,2.47999999999984
0.31698130491877413,0.046664263041221794,-0.12647891260362276,-2.072846490850025,0.019387774507355404,2.117325627115706,0.3714261754947883,-0.2250585607810968,-0.43875304147255334,0.0002455120233708465,-0.5595257175962575,-0.06543104474318964,0.1051333073656519,0.2752563706791274,0.8284177097592521,0.5600875387113712,0.002606537680999414,0.0,0.5600812409930541,-0.828359533614128,-0.010499212326333166,0.0,-0.003721399300951944,0.010157801857889032,-0.9999414834122338,0.0,0.5448509522796852,0.10762196620471308,0.3045270018953106,1.0,-0.12334857142856027,-0.16211526530610784,-0.4739070632013785,2.4959999999998383
0.312918382299492,0.03858337809573308,-0.1264786409609591,-2.082806710292803,0.018238310516867907,2.119501375813273,0.37638665333760063,-0.22466627851102078,-0.4528473612429808,-0.0009183826718767213,-0.5451199449346332,-0.06501605674636719,0.13380459486766816,0.2687666959398313,0.8331477126239744,0.5530261784409816,0.002771607766446095,0.0,0.5530222760708168,-0.8330895187076715,-0.010438529114862285,0.0,-0.003463849174572431,0.010229794445824933,-0.999941674826333,0.0,0.5426511321144754,0.10475199700622208,0.30459564245448506,1.0,-0.12459314285713156,-0.16375098775508726,-0.47949268670480644,2.5139999999998364
0.3091431197941944,0.03140841076438379,-0.126494831697675,-2.0916910542782476,0.017151169115217923,2.121337101522979,0.38078797505501394,-0.2329673513574238,-0.4517407190768051,-0.00275912663132056,-0.5567627384691229,-0.06703889631978324,0.10433735042909507,0.274319234600068,0.8373713478659416,0.5466098139958915,0.0027719880522110553,0.0,0.5466065301092963,-0.8373136327546631,-0.01038886645753613,0.0,-0.003357697622116629,0.010214722544132068,-0.9999421909840712,0.0,0.5406657504214737,0.10210921504679353,0.30461289057536844,1.0,-0.12569942857141717,-0.1652049632652912,-0.48445768537452016,2.5299999999998346
0.3050669162323605,0.023736247006731225,-0.12654588841712472,-2.1013452995920305,0.016023333606746924,2.12316109754052,0.38555756518898665,-0.23306081203933338,-0.45041480097160214,-0.007563715584705485,-0.5699070897304722,-0.07256287357005535,0.10277331604202075,0.2820265725331078,0.8419108177242679,0.539592995222578,0.002514240797909349,0.0,0.5395872592615284,-0.8418530465773058,-0.010477810474956925,0.0,-0.0035371999640679275,0.010178230248670816,-0.9999419442374738,0.0,0.5384478442873445,0.09925597851497023,0.3045313989362135,1.0,-0.1268748571428456,-0.16674981224488283,-0.48973299646109103,2.5469999999998327
0.30091744641280516,0.01592928231198414,-0.12656947281931366,-2.1106716549527182,0.014891338698843615,2.125155219856117,0.39025782709748386,-0.24830503399473258,-0.4497154843997961,-0.0006302825013149758,-0.5423567645046624,-0.07649481356810792,0.12091460321822727,0.2795047134619905,0.8463707297538617,0.5325685169300309,0.0028477169928593244,0.0,0.5325671260479087,-0.8463132279080583,-0.010340378238841106,0.0,-0.003096958968816954,0.010268591632832946,-0.9999424807812816,0.0,0.53636242580189,0.09642825462150166,0.3046698275246461,1.0,-0.12805028571427404,-0.1682946612244745,-0.4950083075476619,2.563999999999831
0.29741733949680654,0.009604674861901946,-0.12662458150707145,-2.118513644886441,0.013937233513377176,2.126703927362079,0.3941999074046473,-0.25442045151338544,-0.4631195752858486,-0.0023148469754217084,-0.5753932807286328,-0.06178650686250548,0.1016667283220557,0.2736310759141578,0.850089803438332,0.5266121427690178,0.0027792228428193478,0.0,0.5266104636515303,-0.8500325407450413,-0.010336641062655649,0.0,-0.0030810301640391002,0.010250838359417175,-0.9999427121420792,0.0,0.534563946497509,0.09403691111951971,0.30463138112044835,1.0,-0.12901828571427396,-0.16956688979590295,-0.4993526813836614,2.5779999999998293
0.2931003495129946,0.0018369001831492894,-0.12664832368903825,-2.1280951138661455,0.012832275978701266,2.128374541407566,0.39896576271048556,-0.25661096647313486,-0.4495688653433291,0.0004671080573027816,-0.5594990702768786,-0.06546009650938116,0.10146917479320557,0.2837700414761714,0.854308141855423,0.5197420973424596,0.002549099998847347,0.0,0.5197381452090353,-0.85425036549493,-0.010455638079933445,0.0,-0.003256728361132666,0.010257398732045162,-0.9999420880689209,0.0,0.5324302534314167,0.09130372352508703,0.30456832453608895,1.0,-0.12998,-0.1708308571428572,-0.5036688450000001,2.5939999999998276
0.28881507160473363,-0.006033265750343561,-0.1266281694240578,-2.1373922681315403,0.011675569775468625,2.130303179293353,0.4036877987654618,-0.25050462311757066,-0.46877729717883193,0.0005077024177119447,-0.5387053373308437,-0.07552334346959731,0.10796815077367908,0.27051822492812444,0.8588860225652416,0.5121397081200854,0.002909726781221479,0.0,0.5121404278215956,-0.8588286649634265,-0.010307925545891761,0.0,-0.0027801947408357397,0.010343721040271425,-0.9999426373308841,0.0,0.5301612866384139,0.08832728389277683,0.30469735533557074,1.0,-0.12998,-0.1708308571428572,-0.5036688450000001,2.6119999999998256
0.28440383823888105,-0.013764082685001618,-0.12664369398151332,-2.1468006887330406,0.010501812404097985,2.13197917768356,0.40839162621053177,-0.26147366969071556,-0.4526238083734686,-0.004560225609258257,-0.556886654260129,-0.06299238696095742,0.09243964174646808,0.28468336751746626,0.8632142016748777,0.5048110427598026,0.002792854413044063,0.0,0.5048110110030414,-0.8631570567934738,-0.010319175302481385,0.0,-0.0027986155316724326,0.010317720978608946,-0.9999428545596563,0.0,0.5279220394308376,0.0854354393766534,0.3046585977948981,1.0,-0.12998,-0.1708308571428572,-0.5036688450000001,2.6289999999998237
0.28010391468031465,-0.02099171960210092,-0.12666919133920146,-2.155622935582223,0.009405094440508648,2.1334137568386686,0.4128104402484096,-0.27084311141375855,-0.45469928396949383,-0.000988313830946912,-0.5426709287748138,-0.061360596311133664,0.08899685296377999,0.2783584843372014,0.8673025353105389,0.49775558465310893,0.0025371424401045804,0.0,0.4977531847715907,-0.8672453991929756,-0.010389010037678972,0.0,-0.0029709198564074057,0.010273483271215203,-0.9999428129531622,0.0,0.5257880271749293,0.08265134874678827,0.3045821815377075,1.0,-0.12998,-0.1708308571428572,-0.5036688450000001,2.644999999999822
