nelsonifechukwu/NELSON_IML_WORK/CNN-GradCAM/train2dof/data_sample_2022-07-06-09-18-54/robot_state.csv
position_joint1,position_joint2,position_joint3,position_joint4,position_joint5,position_joint6,position_joint7,velocity_joint1,velocity_joint2,velocity_joint3,velocity_joint4,velocity_joint5,velocity_joint6,velocity_joint7,ee_T_00,ee_T_10,ee_T_20,ee_T_30,ee_T_01,ee_T_11,ee_T_21,ee_T_31,ee_T_02,ee_T_12,ee_T_22,ee_T_32,ee_T_03,ee_T_13,ee_T_23,ee_T_33,v_x,v_y,w_z,time
0.4650818389798731,0.5472991112574508,-0.12397006563868375,-1.355563234631714,0.07946424947121154,1.8941769227083272,0.15913922245157414,0.00033073852187331097,-0.006397857095821955,-0.00016037149630245196,-0.00033729469993931693,0.00012602091136139113,0.0002013887382475485,0.0018265553853505784,0.5737450816128963,0.8190179312203054,0.0026375302520700947,0.0,0.8189843228903179,-0.5736846266570039,-0.01146188895907989,0.0,-0.007874533634361136,0.00873646654791313,-0.9999308305439425,0.0,0.6617625319125725,0.2609444086269559,0.30369029296789457,1.0,5e-324,6.9081572974874e-310,6.9079450979084e-310,0.0
0.4650818389758729,0.5472988815095559,-0.12396755998490147,-1.3555636358779795,0.07946531577423742,1.8941787922724798,0.1591378292590688,-0.003762578919879837,-0.006011746725530072,0.0007344580651636626,0.0004288816615525872,-0.00023652760837477668,0.000496779536671819,0.0010852567194991134,0.5737425054278227,0.8190197274946576,0.00264014037305253,0.0,0.8189861340217681,-0.5736820214139102,-0.011462874322622153,0.0,-0.007873870734401378,0.008739144846285615,-0.999930812360042,0.0,0.6617621836556927,0.2609461142352449,0.3036903464940531,1.0,-0.00018,-0.00023657142857142863,-9e-05,0.010000000000000002
0.4650761664089523,0.547292493085269,-0.1239682720377812,-1.3555638710484057,0.07946470105282835,1.8941809203675954,0.1591317860004511,-0.000568609843033934,-0.0008633725647516324,0.0003206969787237808,0.001442226459018803,-0.00034373631089858734,0.00015595152424523862,0.00011588944813416369,0.5737425483668566,0.8190196757667285,0.002646847497760025,0.0,0.8189861799738523,-0.5736820549384676,-0.011457912315163197,0.0,-0.007865958161774433,0.008741791638407576,-0.9999308514998163,0.0,0.6617643999457657,0.2609420495903684,0.3036949683800261,1.0,-0.0005200000000000003,-0.0006834285714285719,-0.00026000000000000014,0.027000000000000017
0.46508112696044057,0.5472780040825865,-0.12397077758708801,-1.3555865613568145,0.07946565928489192,1.8941785332359629,0.1591365029363266,0.0009516459944500431,-0.00898242432382269,0.0017776241980615812,-0.0016749518204033677,0.00011790305755446026,0.00011742179174027611,0.0011180358528583422,0.5737455554285252,0.8190175950737317,0.0026388419547398916,0.0,0.8189839750583793,-0.5736850644021048,-0.011464832346666343,0.0,-0.007876186840741595,0.008739234133614854,-0.9999307933390227,0.0,0.6617583326571685,0.2609413703737568,0.30369430673235454,1.0,-0.0008400000000000006,-0.001104000000000001,-0.0004200000000000003,0.04300000000000003
0.46508067153602695,0.5471870009468142,-0.12397051328449171,-1.3556766713821977,0.07946122972199991,1.8941938314605118,0.1591286323473453,0.0005453275787298983,-0.009429995609079637,-0.00013729713858730402,-0.00902311709061138,-3.0206354807582967e-05,0.0040635860058237045,-0.0010822737179840857,0.5737429791341472,0.8190193480778942,0.0026548577255553754,0.0,0.8189859045207849,-0.5736824028376626,-0.011460182018016404,0.0,-0.007863217037355652,0.008749658486213452,-0.9999308042530736,0.0,0.661743431907572,0.2609320389514477,0.3037171899262112,1.0,-0.001180000000000001,-0.0015508571428571444,-0.0005900000000000005,0.060000000000000046
0.46507443535346615,0.5470591174043278,-0.12396549092041052,-1.355851568259029,0.0794603214809404,1.8942323086949877,0.1591294330259165,-0.0003177844717163624,-0.006178520920205205,-0.0021811908206728174,-0.013236059777862698,-4.555637932454578e-06,-0.0007525754944773724,-0.0007680695806394031,0.5737545823490862,0.8190112180872624,0.0026553308367319676,0.0,0.8189776458382423,-0.5736938531303679,-0.011477168592056348,0.0,-0.007876734501259808,0.008759903324957907,-0.9999306081660536,0.0,0.6617149121408573,0.2609141991490839,0.3037276942766808,1.0,-0.0015200000000000012,-0.0019977142857142876,-0.0007600000000000006,0.07700000000000005
0.46505340704599607,0.5469072780085792,-0.12397076275730089,-1.3560440443166504,0.07945503941670407,1.8942944815169729,0.15912834975398724,-0.0028025844360057717,-0.00420998938506858,0.002505273501271791,-0.010119727398327847,2.5814094041394233e-05,0.0012224829205027745,-0.00035741678268570655,0.5737899556055455,0.8189863750780081,0.0026741697737399242,0.0,0.8189530098986062,-0.5737291204673102,-0.011472175339863569,0.0,-0.007861457581005427,0.008772807267868568,-0.9999306152615505,0.0,0.6616932793811908,0.26087599451859544,0.30374747926189405,1.0,-0.0018600000000000014,-0.002444571428571431,-0.0009300000000000007,0.09400000000000007
0.4650321248471821,0.5467058185706805,-0.12397100049745269,-1.356283643991019,0.07944991587368154,1.8944270328873203,0.15913215115748708,0.00024307252280517382,-0.0067835538868020505,0.00025142111210575777,-0.013557227414805398,-6.720591460979196e-05,0.0010025741666523083,-0.0020362878027448557,0.5738151822396724,0.81896839383872,0.0027664825477288196,0.0,0.8189362184485245,-0.573754047687125,-0.011424087581901896,0.0,-0.007768835672568641,0.00882105748646314,-0.999930914682166,0.0,0.6616781669692974,0.26084396086034806,0.30379041003361834,1.0,-0.002220000000000002,-0.0029177142857142887,-0.001110000000000001,0.11200000000000009
0.465001343831741,0.5465063241713425,-0.12396805859591824,-1.3565151440202705,0.07944654696298,1.8945521190072654,0.15912602502423653,-0.0025256213583131023,-0.012572438159843134,-0.006127518955500655,-0.016405826829477166,0.0003110363927590671,0.006051194120811433,0.000876973663851311,0.5738471024830845,0.8189457536684251,0.0028464752646438505,0.0,0.8189145531864215,-0.5737856513857581,-0.011389808800567697,0.0,-0.007694517031739678,0.008867199518612506,-0.9999310812152733,0.0,0.6616615390428348,0.2608123368646709,0.30383121941225627,1.0,-0.002520000000000002,-0.003312000000000003,-0.001260000000000001,0.12700000000000009
0.4649630346400399,0.5462540287621978,-0.12397108833578555,-1.3568668797240213,0.07943778916301913,1.894686871509377,0.1591141190156663,-0.0004316806425615282,-0.013610535178353648,8.203621370679427e-05,-0.017161445323845427,0.0001474364245751189,0.003303867003287808,-0.0005898318180734783,0.5738881646090404,0.8189168526267209,0.002882690899331585,0.0,0.8188860421612751,-0.5738265093428904,-0.011381301771094199,0.0,-0.007666322969374917,0.00889236093110636,-0.999931074329226,0.0,0.6616255666334684,0.26075452821328937,0.30385425199919885,1.0,-0.002880000000000002,-0.00378514285714286,-0.001440000000000001,0.1450000000000001
0.4649334889869033,0.5460050092616827,-0.123968096960074,-1.3572648977525912,0.07942364127271509,1.894825985113682,0.15910483531648972,-0.002544534275298932,-0.016776877464409954,9.164369598627743e-05,-0.024836098030255233,9.689606423190941e-05,0.01234244133912137,0.0015820449830245378,0.5739211458162977,0.8188937484556664,0.002879935128509631,0.0,0.8188627992116725,-0.5738593751013346,-0.011396515991245412,0.0,-0.007680005790136946,0.008899144592998787,-0.9999309089815038,0.0,0.6615763810470142,0.26069989030939167,0.3038530816077379,1.0,-0.0032000000000000023,-0.004205714285714289,-0.0016000000000000012,0.16100000000000012
0.4648891918676448,0.5456878089769616,-0.12397133057960417,-1.3577576237440703,0.07939515705249671,1.894996153891767,0.15909139754904306,-0.00032386065172824996,-0.013124415843531611,0.0010096178941164304,-0.030242850243432123,-0.001785000377552814,0.0015121612375705406,-0.0011429862841191528,0.5739685965261431,0.8188605080111477,0.0028749822161223716,0.0,0.8188294860607322,-0.5739068247607217,-0.011400708389897278,0.0,-0.007685765923750532,0.008897940117334524,-0.9999308754428148,0.0,0.6615194981599484,0.26062132958173734,0.30385796575533086,1.0,-0.003560000000000003,-0.004678857142857147,-0.0017800000000000014,0.17900000000000013
0.46484860484052626,0.5454119561811922,-0.12397609187402864,-1.3582295749499427,0.07935368298333002,1.8951513061762086,0.15907087990535743,-0.007356740462047257,-0.015613444619024044,-0.0008002824241704068,-0.03605256795728599,-0.0051907788444246344,0.01669486528319652,-0.00192222013264413,0.5739968275146786,0.8188408645825799,0.0028332655974258013,0.0,0.8188094304518948,-0.5739353254257836,-0.01140638999210021,0.0,-0.007714055549694732,0.008867306982145204,-0.9999309297215787,0.0,0.6614605784777088,0.26053653130841237,0.30384543663433766,1.0,-0.003880000000000003,-0.005099428571428576,-0.0019400000000000014,0.19500000000000015
0.464789438860101,0.545037071934221,-0.12397428164241624,-1.3588735557416114,0.07929824774989078,1.8953506578519093,0.1589610997119705,-0.008912566589490335,-0.018328321972407552,9.400423268654992e-05,-0.03673592325238276,-0.00033769242751074274,0.01123454838402312,-0.0068821332136331055,0.5739820799179648,0.8188514405713321,0.0027635318904486545,0.0,0.818819149104615,-0.5739208453792355,-0.011437272401512311,0.0,-0.007779528203411268,0.00882779219502429,-0.9999307721166969,0.0,0.6613832430700167,0.26043809147562114,0.3038181472688833,1.0,-0.004220000000000003,-0.00554628571428572,-0.0021100000000000016,0.21200000000000016
0.46473231293258,0.5446342108434294,-0.12396973575311723,-1.3595422855943269,0.07927847124616322,1.8955791247515141,0.15892195487348634,-0.0035604827786833784,-0.022127103522784634,0.00024763457426237,-0.04363400907772719,-0.0002455583176191345,0.01658098266294565,-0.006243543444655156,0.5740330397985848,0.81881579622362,0.002740068518140679,0.0,0.8187829643019425,-0.5739716049020651,-0.011480463243264252,0.0,-0.007827813836323694,0.008833856716616642,-0.9999303417268895,0.0,0.661295174462544,0.26033424877110284,0.3038030046115466,1.0,-0.004580000000000003,-0.006019428571428577,-0.0022900000000000017,0.23000000000000018
0.4646833124806792,0.5443248365608656,-0.1239746879554744,-1.3600858200330679,0.07925584518715757,1.8957527160597247,0.15891050709304985,-0.001083570460329696,-0.02368470040911815,-0.0001952606339738319,-0.04417606411230336,-0.004511116440917902,0.00833093867285468,-0.0038583025939451093,0.574084079534326,0.8187801610574137,0.002695252349985593,0.0,0.8187466705619544,-0.5740226947065383,-0.011514439055702869,0.0,-0.007880809977674319,0.00881715479207458,-0.999930072862832,0.0,0.6612337473490711,0.2602535557163476,0.30378005986958473,1.0,-0.004820000000000004,-0.006334857142857149,-0.002410000000000002,0.2420000000000002
0.4646097468268485,0.5438048040819553,-0.12397718578152071,-1.3609248687007032,0.07921806637004206,1.8960363595405194,0.15885495968785607,-0.003329903652276352,-0.026770259598793943,0.00037053514261392855,-0.04655571520557185,-0.0018498096827749258,0.014790903645728715,-0.001627501700939255,0.5741456350424017,0.8187370837170257,0.0026691589510297728,0.0,0.8187030935686275,-0.5740841479298872,-0.011549137542817414,0.0,-0.007923537901819766,0.008816305340345082,-0.9999297426855869,0.0,0.6611266120757728,0.26011778667100693,0.30377118884285825,1.0,-0.005220000000000003,-0.006860571428571434,-0.0026100000000000016,0.2620000000000002
0.46453459030810645,0.5432876251010409,-0.12397529914110214,-1.3617689341734551,0.07917195451701774,1.8963425153074887,0.1587622169516057,-0.003948732787599262,-0.03263375700417896,0.0012454756838570784,-0.04681567055193172,-1.1643478133785741e-05,0.017039992461975684,0.0010496046854234643,0.5741562251725743,0.8187297010123652,0.0026556876683354273,0.0,0.8186955009979138,-0.5740947423325461,-0.011560725457817597,0.0,-0.00794064585193538,0.008812031694155634,-0.9999296446454997,0.0,0.6610350895495484,0.2599951607408667,0.30376390299432315,1.0,-0.005560000000000004,-0.007307428571428578,-0.002780000000000002,0.2790000000000002
0.4644609545319218,0.5427699249426275,-0.12398347150820559,-1.3626196432112958,0.0791226261953272,1.8966370355738147,0.15874445312767235,-0.007858561456855514,-0.033018412060237985,-0.0002299842838106142,-0.0488566507511002,-0.0066448183535462585,0.018109308548636523,-0.00017495690242886792,0.5742418318076877,0.8186697733647366,0.002620626316418819,0.0,0.8186351127769497,-0.5741804492661202,-0.011580617877965537,0.0,-0.00797614298332655,0.008795581285990964,-0.9999295069618412,0.0,0.6609353946566637,0.25985957638163887,0.30375095115675593,1.0,-0.005900000000000004,-0.007754285714285721,-0.002950000000000002,0.2960000000000002
0.4643829601931506,0.5422450988693708,-0.12398702926563522,-1.3634587082531209,0.07907068054369364,1.8969336953132525,0.15868920693218858,-0.006613063320926527,-0.032857501743804,-0.0018071703913026906,-0.05218764373369153,-0.0012803135517604227,0.01993397052398029,-0.004445218863065296,0.5742956987998168,0.8186320419732017,0.0026032856210263374,0.0,0.8185971635142161,-0.5742343759483778,-0.011589316928338509,0.0,-0.007992643971278912,0.008786906264336591,-0.9999294514717775,0.0,0.6608390870799783,0.2597249895990656,0.30374855216706953,1.0,-0.006220000000000004,-0.00817485714285715,-0.003110000000000002,0.3120000000000002
0.46430142144431585,0.5416510080808861,-0.123986794860951,-1.3644035278768183,0.07901484069112423,1.8972770864623707,0.15859595732041754,-0.006066423783312809,-0.03781334460550442,3.3904866311581776e-05,-0.054442549810942896,-0.004760733601433307,0.01980552059915337,-0.002476415964851735,0.5743235279186274,0.8186125384324543,0.002596940793219933,0.0,0.8185775523445851,-0.5742621953293152,-0.011596064604511333,0.0,-0.008001513014591455,0.008785859326750661,-0.9999293897397795,0.0,0.6607296846372818,0.2595811640149258,0.3037486594238197,1.0,-0.006560000000000005,-0.008621714285714293,-0.0032800000000000025,0.32900000000000024
0.4642089182969147,0.5410320957618969,-0.1239881087621959,-1.3653727200375854,0.07896175066561115,1.897619640228602,0.15854815616230777,-0.00578198668209258,-0.03683724121987927,-2.4216326094068892e-05,-0.06027024597942383,-0.0006220077476562574,0.01981300476040509,-0.006757900620165587,0.574400556344284,0.8185585059220852,0.002592326211895115,0.0,0.8185233988688694,-0.5743391628143655,-0.011606828294402904,0.0,-0.008012147819552506,0.008789017507457197,-0.9999292768284022,0.0,0.6606180314049437,0.2594270267849455,0.303754616185621,1.0,-0.006900000000000005,-0.009068571428571436,-0.0034500000000000025,0.34600000000000025
0.46412122969897596,0.5403833284424425,-0.12399632191941544,-1.3663350542956216,0.07890307276286923,1.8979830605802979,0.15845022755409682,-0.0032195153588935824,-0.04217585563285084,-0.001229706801404304,-0.06164498028224315,-0.002470144472449807,0.02330432132342494,-0.0022658663831840566,0.574435581507572,0.8185337991320941,0.0026323521129413413,0.0,0.8184992628866911,-0.57437410459373,-0.01157978960527591,0.0,-0.007966647673565419,0.008806590993909152,-0.9999294857538261,0.0,0.6605133820096679,0.2592737962021733,0.30378688182690283,1.0,-0.007220000000000005,-0.009489142857142866,-0.0036100000000000025,0.36200000000000027
0.46402209908239106,0.5396842364449351,-0.12400202717135249,-1.367397404175495,0.07883992038542155,1.898381447047919,0.1583969372988499,-0.009038725053750429,-0.039682194644980316,-0.003991273610138292,-0.0643608805887936,-0.00665432156630969,0.03063434818323725,-0.010779446641456544,0.574519040612619,0.8184751319448172,0.002660312515074443,0.0,0.8184409846623115,-0.5744574889121822,-0.011562653627269905,0.0,-0.007935660792141919,0.008820443284088056,-0.9999296100566599,0.0,0.6603964004702481,0.2591049094761231,0.3038099559758503,1.0,-0.007560000000000006,-0.009936000000000009,-0.003780000000000003,0.3790000000000003
0.463925972586321,0.5389402812987867,-0.1240090720573852,-1.3685729164519567,0.07876468746803413,1.898805438120461,0.1583087673428118,-0.0025249665877559537,-0.040018448648832174,-0.0005422026736910229,-0.06942168531004682,-0.008058972338119811,0.026147895094467664,-0.004100756310126468,0.5745753327190608,0.8184356528370496,0.002648791645476902,0.0,0.8184014042625867,-0.5745138657425319,-0.011563151465146885,0.0,-0.007942080800107887,0.008811846057967684,-0.9999296348851829,0.0,0.6602595434940811,0.25892418521852434,0.3038129981464545,1.0,-0.007900000000000006,-0.010382857142857152,-0.003950000000000003,0.3960000000000003
0.4638249168279068,0.5381791854259039,-0.12401762750796874,-1.3697381309631367,0.07870737576121169,1.899260466659257,0.15820549665403197,-0.0051401325975635,-0.041039498760831926,-0.00044181561193658113,-0.06813937017302839,-0.004256682487621867,0.022266084425132247,-0.008190404909981899,0.5746286689289324,0.8183980529645483,0.002695672459358662,0.0,0.818364369445471,-0.5745669925038912,-0.011544559253534021,0.0,-0.007899352484690703,0.008840047207966259,-0.9999297244285137,0.0,0.6601320953522526,0.25874578237082124,0.3038357054811201,1.0,-0.008240000000000006,-0.010829714285714295,-0.004120000000000003,0.4130000000000003
0.4637364424697962,0.5374401596084929,-0.12403006516062824,-1.3709001035007016,0.0786443490011313,1.8997063324773185,0.15813373372424336,-0.008504729412947979,-0.051124879317095445,-0.001355779673833697,-0.07840382548011639,-0.005607928519192645,0.0283867225865436,-0.004616958268422801,0.574697055366162,0.8183499776376835,0.002712112658724902,0.0,0.8183165160659501,-0.57463532642521,-0.011535512952887345,0.0,-0.007881762772443512,0.008848962278173653,-0.9999297843759822,0.0,0.6599922606579391,0.25856132562224154,0.3038407454111793,1.0,-0.008580000000000006,-0.011276571428571438,-0.004290000000000003,0.4300000000000003
0.463628063803364,0.5365819336862496,-0.12402825121919783,-1.372254593340809,0.07856471458553627,1.9002014570922003,0.15804027049053074,-0.006297633308975568,-0.049466416066675165,-0.0003791227723494654,-0.07652884983587724,-0.0009852806344266233,0.02437113956770032,-0.007557794163186658,0.5747625981524084,0.8183039420094935,0.002713145411721049,0.0,0.8182704568559901,-0.5747008160943694,-0.011540291086611105,0.0,-0.007884370604378244,0.008853184875184411,-0.9999297264396827,0.0,0.6598402227019861,0.2583727230974591,0.30384759434418984,1.0,-0.008920000000000008,-0.011723428571428584,-0.004460000000000004,0.44700000000000034
0.4635225741962729,0.5357780183096977,-0.12403611465898463,-1.373523051744794,0.07847472654808535,1.900670304079822,0.15793256049015375,-0.007425543966897189,-0.04978532137976714,0.00043073818532928855,-0.08103225629374619,-0.007038101158516077,0.02824967258713218,-0.001794261805215732,0.5748119388003163,0.8182693067768275,0.002706196740726108,0.0,0.8182358690603173,-0.5747503275718305,-0.011526944104527028,0.0,-0.007876908753362777,0.008840302534380284,-0.9999298992227365,0.0,0.6596947528159165,0.2581758048971783,0.30385209500149757,1.0,-0.009240000000000007,-0.01214400000000001,-0.0046200000000000034,0.46300000000000036
0.46340541059394036,0.5348958068374393,-0.12403508606185153,-1.3749116662375203,0.07841508543986866,1.9011730374527949,0.15784158322330133,-0.009936630079060036,-0.04726992399657037,0.0002843648343069509,-0.08661424767687598,-0.0044521828216397856,0.02467076579428816,-0.005470647071840508,0.5748928645145126,0.8182124220318557,0.0027154491840464447,0.0,0.8181788767147704,-0.5748309574095375,-0.011551753226212018,0.0,-0.00789101565817496,0.008862914304125655,-0.9999295878320233,0.0,0.659529211757403,0.25797032189366387,0.3038572103509452,1.0,-0.009580000000000007,-0.012590857142857154,-0.0047900000000000035,0.48000000000000037
0.46327252023914245,0.5339487715539137,-0.12404283316927583,-1.3764391548650843,0.0783192585793958,1.901724186307555,0.15772521772407105,-0.00432533020875619,-0.05200066711177427,0.0023777108507069553,-0.08328639409017866,-0.005691944679273413,0.0297691042671608,-0.008214101758246323,0.5749698169416879,0.8181584490289349,0.0026849189593301116,0.0,0.8181245413762643,-0.574908038413871,-0.011564128423739075,0.0,-0.007917860326676074,0.008845793204052307,-0.9999295272320137,0.0,0.6593504798631311,0.257731207468573,0.30384620628942205,1.0,-0.009940000000000008,-0.013064000000000013,-0.004970000000000004,0.4980000000000004
0.46315756300689076,0.5330831956504677,-0.12404319829113307,-1.3778249952017239,0.07824497633868886,1.902242157793836,0.15763001858161504,-0.008106841832314986,-0.05645571132123026,0.0008984721247768739,-0.08678026845473914,-0.005984552071011405,0.035953677297560105,-0.0009564373412338251,0.5750422182693393,0.8181075604246524,0.0026858304320345455,0.0,0.8180735835183488,-0.5749803370265059,-0.011574579194992588,0.0,-0.00792510364395349,0.00885324907455888,-0.999929403864621,0.0,0.6591880474128339,0.2575251896758723,0.303841901266123,1.0,-0.010260000000000007,-0.01348457142857144,-0.0051300000000000035,0.5140000000000003
0.46303293953200225,0.5321959103850524,-0.12404147076293069,-1.379251707428569,0.07817235014974155,1.9027857653838027,0.1575158967282873,-0.006466008697063786,-0.053217946829999495,-0.00029689044777427286,-0.09507137608273734,-0.006846261254926044,0.027327753881749402,-0.007438878355474712,0.575108202072474,0.8180611479501603,0.0026946288502943186,0.0,0.8180271716900178,-0.5750461563443963,-0.011584962303563415,0.0,-0.007927824233059044,0.008867057176968146,-0.9999292599478975,0.0,0.6590233679659243,0.25731146914338915,0.30383544510862875,1.0,-0.010580000000000008,-0.01390514285714287,-0.005290000000000004,0.5300000000000004
0.46290520566804133,0.5312291146321182,-0.12404147965223948,-1.3808125683907186,0.07807163068205761,1.9033622088088133,0.1574136440459108,-0.012366004433784775,-0.05834502225116684,-0.00044832262838261213,-0.09644438488600966,-0.001679322854731066,0.040914648445875314,-0.008159306854517311,0.5751846067064846,0.8180074897545906,0.0026761566674029366,0.0,0.8179733317299701,-0.5751226776926635,-0.01158797149641095,0.0,-0.007940081957827416,0.008854418088142219,-0.9999292746883768,0.0,0.6588278981473564,0.257062954123592,0.30382593675406605,1.0,-0.010940000000000007,-0.014378285714285725,-0.0054700000000000035,0.5480000000000004
0.46277125497506344,0.5302122500354247,-0.1240446009274265,-1.3824457651975968,0.07797707733460307,1.9039411710569483,0.15729338479787375,-0.008343441211034376,-0.054849387609114904,-0.00047667035690864164,-0.0961486295988452,-0.0046217230440968185,0.032292320373964366,-0.00603808260287141,0.5752638816590209,0.8179518524509398,0.0026420506960735937,0.0,0.8179171607714303,-0.5752019565006908,-0.011617842079671085,0.0,-0.007983276423803476,0.00884447381872798,-0.9999290187710381,0.0,0.6586399766058231,0.2568309701908259,0.3038132263018787,1.0,-0.011260000000000008,-0.014798857142857155,-0.005630000000000004,0.5640000000000004
0.462633057413331,0.529180077101508,-0.1240478630145639,-1.384099885456101,0.0778613348896767,1.9045382736365328,0.15718434391371494,-0.006172713031427281,-0.0576015458526486,0.001309691888554674,-0.0965034154917781,-0.005200047482593068,0.03400384392783874,-0.01141777444131737,0.5753486180726335,0.817892355016784,0.002609633732550569,0.0,0.8178573540883551,-0.5752869160401255,-0.01162151013614329,0.0,-0.008004010254108407,0.008820897766006836,-0.9999290612750755,0.0,0.6584424730180208,0.256577085696056,0.3038047323408739,1.0,-0.011600000000000008,-0.015245714285714298,-0.005800000000000004,0.5810000000000004
0.4624739685224503,0.5280400663797175,-0.12405390968764389,-1.3858922206348199,0.07775418821788706,1.9052160404712113,0.15705639374945132,-0.007270533623908545,-0.06752931573200864,0.0013331513803829277,-0.10414617645022076,-0.008809833652958616,0.04079835406852144,-0.013852692921757642,0.5754463889388828,0.8178235111977303,0.002627715856796042,0.0,0.8177887759635747,-0.5753846472132103,-0.011609158476656525,0.0,-0.007982449073071607,0.008829534854027377,-0.9999291574011917,0.0,0.6582497394815128,0.25631548307517676,0.30381419552157,1.0,-0.011940000000000008,-0.01569257142857144,-0.005970000000000004,0.5980000000000004
0.46234632891059185,0.5269774250297243,-0.12405775883433187,-1.3875328933110973,0.07765746738297204,1.9058490505794785,0.15693020793510593,-0.008336923648444223,-0.06618175506196716,-0.002263427955575014,-0.10075184362964285,-0.009994496769891467,0.04237361045980824,-0.00802065486836222,0.575513423258843,0.8177761924134455,0.0026731389532698453,0.0,0.8177420562771267,-0.5754515309258639,-0.011584983899186076,0.0,-0.007935814908239303,0.008853422342395417,-0.9999293173792683,0.0,0.6580456062766787,0.2560599459755694,0.3038352458911021,1.0,-0.01228000000000001,-0.016139428571428586,-0.006140000000000005,0.6150000000000004
0.46220814144561434,0.5258870512909822,-0.12406372802724511,-1.389226915760025,0.0775565455456805,1.906487398335165,0.1568285110966129,-0.006666680637106911,-0.0689928543348099,0.0008519997856114468,-0.10471428008438897,-0.004049637460306656,0.04443841554411246,-0.0037052638853462827,0.5756117356187858,0.8177069074949613,0.0027000285487117385,0.0,0.817673137781834,-0.5755497612311976,-0.011569744937961441,0.0,-0.007906811797826152,0.008867592508566904,-0.9999294215744907,0.0,0.6578468384073018,0.25580576789282944,0.30385163911002144,1.0,-0.012600000000000009,-0.016560000000000016,-0.006300000000000004,0.6310000000000004
0.46205749987013867,0.5247347823983478,-0.12407233219368323,-1.3910484936168783,0.07742801328163831,1.9071445085309207,0.15668323106766383,-0.005801261311098979,-0.0651225185317202,-0.0017268330809480745,-0.1066679269531039,-0.009729555565211583,0.03491842391944804,-0.0043506518001966525,0.5756854380327572,0.8176550986761983,0.002676368258923174,0.0,0.817621170941313,-0.5756236992195256,-0.01156393646615984,0.0,-0.007914883000672501,0.008845615485143954,-0.9999295523754534,0.0,0.6576282819340258,0.25552442044462215,0.3038522532362931,1.0,-0.012940000000000009,-0.017006857142857157,-0.006470000000000004,0.6480000000000005
0.46189490218234275,0.5235436348768416,-0.12407933076473263,-1.3929341820061711,0.0773195252710582,1.9078217408957892,0.15653596114333732,-0.010110526635452055,-0.07189171843800861,0.00046525287802191904,-0.11300939331245426,-0.008001800018662322,0.03260334634857886,-0.008157987807698715,0.5757748442590331,0.8175921901916624,0.002661983714316701,0.0,0.8175580128086155,-0.5757130715651583,-0.01158023413610251,0.0,-0.007935522953049834,0.00884410389820929,-0.9999294021588221,0.0,0.6574006994841602,0.25523366618102544,0.3038511203611799,1.0,-0.01328000000000001,-0.0174537142857143,-0.006640000000000005,0.6650000000000005
0.46173868788682576,0.5223424895981338,-0.12408013458716946,-1.394868148717339,0.07719301884336861,1.908556751466927,0.15639944815929022,-0.006277750730158244,-0.06982320456078715,-0.0012426832660226603,-0.11473851863784894,-0.007106477919779677,0.047122703486668,-0.009577346341291988,0.5758611331536901,0.8175314390237367,0.002654888309236543,0.0,0.8174972531683079,-0.5757994663356314,-0.011574218378875806,0.0,-0.007933756884623222,0.008835676525450253,-0.9999294906752342,0.0,0.6571708859290921,0.25494615687845557,0.30383852391898736,1.0,-0.01362000000000001,-0.017900571428571446,-0.006810000000000005,0.6820000000000005
0.4615779497472604,0.5211904384004876,-0.12407974804678909,-1.396723378139755,0.0770845357846723,1.9092790304499294,0.15626883021370208,-0.012743162936486833,-0.07560916048085285,-1.5385917626827486e-05,-0.11780922317263043,-0.008420504215366347,0.04826113903879396,-0.007984071389303054,0.5759556537437687,0.8174648048081379,0.002669217448906091,0.0,0.8174307952271884,-0.5758939167515595,-0.01156886182830282,0.0,-0.00792010377155411,0.008845222217222226,-0.9999295145159861,0.0,0.6569550595140587,0.25466712761496424,0.30382748566435036,1.0,-0.01394000000000001,-0.018321142857142873,-0.006970000000000005,0.6980000000000005
0.4614079652460687,0.5199226821827353,-0.12408556992513922,-1.3987487156326996,0.07696148028036273,1.9100275269937967,0.1561226556975121,-0.011609762338890134,-0.0725559771678639,-0.0005610540972653706,-0.12424725008935798,-0.007265256171310693,0.04243917814721894,-0.009543510358292095,0.5760540039999305,0.8173955403721549,0.0026574342078624167,0.0,0.8173613805849522,-0.575992296682035,-0.0115756033287037,0.0,-0.007931337608158062,0.0088404269447801,-0.9999294678801999,0.0,0.6567112995268978,0.25435923825475015,0.3038188710515304,1.0,-0.014280000000000011,-0.018768000000000017,-0.007140000000000006,0.7150000000000005
0.46123575036310666,0.5185714775267448,-0.12409719889576283,-1.4008144881553544,0.07682191274798685,1.9107645991351945,0.15595051160907156,-0.014342217699889363,-0.08255798713025131,-0.0009133141820145778,-0.12057497375912375,-0.01494215648129113,0.044610455605539355,-0.006806383492004767,0.5761340553479849,0.8173390893909475,0.0026664814025407777,0.0,0.8173051612142647,-0.5760724355166184,-0.011557222490052952,0.0,-0.007910235566633783,0.008838008633384936,-0.9999296564142284,0.0,0.656459946654884,0.25403943901273046,0.3038483256145057,1.0,-0.014620000000000011,-0.019214857142857162,-0.007310000000000006,0.7320000000000005
0.4610673173402908,0.5172231864809274,-0.12409793340227941,-1.4029258828158293,0.07668706407724395,1.9115374100113067,0.15580184227725874,-0.01226967414929797,-0.07800492555674136,0.0015167554214912716,-0.12510399972317565,-0.008172294822945365,0.04853093860833235,-0.008733352328641522,0.5762260902845834,0.817274197886429,0.0026693155762635475,0.0,0.8172403304558923,-0.5761644763681949,-0.011553585976497223,0.0,-0.007904635089114653,0.008839120200094891,-0.9999296908774117,0.0,0.6562004301125541,0.25372623682871176,0.30385640382865337,1.0,-0.014960000000000011,-0.019661714285714303,-0.007480000000000006,0.7490000000000006
0.46088739178042876,0.515959376575665,-0.12411242616280183,-1.4049290173643423,0.07656158269858604,1.9122879236459849,0.15565223498288147,-0.005926504496256645,-0.07712159825856074,0.0003529605590944272,-0.12469702566699875,-0.011843297247716064,0.04560858008610379,-0.0028034364246550033,0.5763267706451226,0.8172031859994264,0.0026745338583686632,0.0,0.8171694454382495,-0.5762651932094423,-0.011544324953685955,0.0,-0.00789297032586428,0.008839021048230075,-0.9999297838980215,0.0,0.655947756628438,0.25339678179299174,0.30385700672376975,1.0,-0.015300000000000012,-0.020108571428571448,-0.007650000000000006,0.7660000000000006
0.4607036703236847,0.5144893167369259,-0.12411638676365651,-1.4072555163208673,0.07642002862263585,1.9131666602407063,0.15547037466763053,-0.005440978838367394,-0.0812690606717643,-0.0006533357011444356,-0.12712185916952687,-0.0047182359515125435,0.051389041414459095,-0.0041419090586660625,0.5764219884592168,0.817135989645458,0.0026856187497097802,0.0,0.8171024289402522,-0.5763604034191463,-0.011534855511336466,0.0,-0.007877812939971307,0.008843540219583154,-0.9999298634702674,0.0,0.6556819087402889,0.2530663734452511,0.30385446140747685,1.0,-0.01564000000000001,-0.02055542857142859,-0.007820000000000006,0.7830000000000006
0.4605091345632045,0.5131025365210327,-0.12411456414978689,-1.409523243151628,0.0762829666788952,1.913965294624787,0.1552933858586281,-0.00921185978885138,-0.08160890703957287,-0.0007155819038878068,-0.1326054777056354,-0.010368781910621669,0.03934243930917264,-0.012425717807747408,0.5765169856120171,0.8170691990158594,0.002614616917114913,0.0,0.817034612885555,-0.5764555065490855,-0.011586078603079027,0.0,-0.007959570890969991,0.008815973366836191,-0.9999294594344277,0.0,0.6553951785925098,0.2527211026194342,0.3038160788777084,1.0,-0.01598000000000001,-0.021002285714285734,-0.007990000000000006,0.8000000000000006
0.46032564607142434,0.5117738046747765,-0.12412028898676052,-1.411655686175604,0.07615820007383914,1.9147190674775048,0.1551224926608131,-0.009086567953080408,-0.08633803533085878,-0.0015535376625413664,-0.1374986170727064,-0.005011959555354306,0.04865375609818666,-0.011361076380586727,0.5766091810293317,0.8170042727667601,0.0025724569479896337,0.0,0.816969043870688,-0.5765477276906605,-0.01162092737083892,0.0,-0.008011357350996617,0.008802520583096773,-0.9999291643835472,0.0,0.6551275430704854,0.252392950445871,0.30379733694408845,1.0,-0.016300000000000012,-0.021422857142857164,-0.008150000000000006,0.8160000000000006
0.46012568996432335,0.5103021127282106,-0.12412239727254228,-1.4139806824316405,0.07601123171791355,1.9155996306478054,0.1549532957031159,-0.014928532677123392,-0.08946747232533907,-0.0007119245954802376,-0.13447926748766306,-0.0103462370086048,0.04318297722420865,-0.008518005829293513,0.5767175532820675,0.8169277250691218,0.002588947844847044,0.0,0.8168927606788242,-0.5766560856773266,-0.011607036789875702,0.0,-0.00798933144870223,0.008809044211941175,-0.9999292831611017,0.0,0.6548468175320701,0.25204018345426615,0.3037974626407092,1.0,-0.016640000000000012,-0.021869714285714305,-0.008320000000000006,0.8330000000000006
0.45993260520318474,0.5088050511738061,-0.12412319342616131,-1.4163676124672395,0.07586879893943953,1.916479376493188,0.15476255636090597,-0.015615727130335473,-0.08925852365274468,-0.0007519165592518638,-0.1410404008766376,-0.008766048775299901,0.04813698926597113,-0.012118364886050777,0.5768057861195074,0.8168654595441218,0.0025793417835939993,0.0,0.8168303070716635,-0.5767442702708201,-0.011620802906856147,0.0,-0.008005166036275269,0.008810000516975183,-0.9999291480938151,0.0,0.6545485878186132,0.25168643326710066,0.3037852825942871,1.0,-0.016980000000000012,-0.02231657142857145,-0.008490000000000006,0.8500000000000006
0.45973581774183075,0.5073969042711813,-0.12412122446605778,-1.41860327853826,0.07572370749222639,1.917266071554071,0.1545969063738009,-0.01518846744050553,-0.0915462425909696,-0.0008198364255109508,-0.14590134154360246,-0.012648440370954613,0.04561440334661168,-0.011114005946284809,0.5769146747745668,0.8167886835535393,0.002539950755489892,0.0,0.8167529997014276,-0.5768532588384679,-0.011644833505374968,0.0,-0.008046344275523087,0.008792757021017256,-0.9999289693612088,0.0,0.6542470458324708,0.25131838930546035,0.3037767598727632,1.0,-0.017320000000000012,-0.02276342857142859,-0.008660000000000006,0.8670000000000007
0.45952205909039734,0.5058473125612738,-0.12412958589921998,-1.4210265690419641,0.07557390719549327,1.9181601015982825,0.15440370209946822,-0.014365644395577436,-0.09338719776260151,-0.002039306637413683,-0.14638357557846254,-0.008503087756308654,0.054834842656912665,-0.007727844046970275,0.5770136526058257,0.8167187263066312,0.002552196655008109,0.0,0.8166832143508137,-0.5769521959776648,-0.01163777708076583,0.0,-0.00803244965931671,0.008799661850211388,-0.9999290203328398,0.0,0.6539677664859367,0.25096668600705757,0.303781891366516,1.0,-0.017640000000000013,-0.02318400000000002,-0.008820000000000007,0.8830000000000007
0.4593008267776134,0.5042179366348268,-0.12413297089007656,-1.4234883407898355,0.07541468659079699,1.9191285064429737,0.15420074085090804,-0.011249781682235562,-0.09606989193053218,-0.0005373906626770067,-0.1419833520523704,-0.011153123609622279,0.061769420749200714,-0.015114032876319036,0.5771148507029372,0.8166468775611342,0.002659580603131516,0.0,0.8166128982298732,-0.5770531729961608,-0.011565330988701935,0.0,-0.007910224310338554,0.00884654241462901,-0.9999295810399182,0.0,0.653678414145878,0.25058934074430556,0.3038326432957401,1.0,-0.017980000000000013,-0.023630857142857165,-0.008990000000000007,0.9000000000000007
0.4590687381757527,0.5025538942578366,-0.12413601154925741,-1.4259820081969197,0.07525978990644613,1.9200776420598316,0.15400966726014112,-0.011476433477026388,-0.10048691295463143,-0.0006211819240041516,-0.14623792370168195,-0.011816126782396635,0.053394570942237485,-0.005905077616152531,0.5772365591299556,0.8165605272364724,0.002758090700424409,0.0,0.8165278699585029,-0.5771745978161069,-0.011509479486651132,0.0,-0.007806437045183079,0.008895921535077358,-0.9999299586074524,0.0,0.653379792932452,0.2502012845549141,0.30389010400584876,1.0,-0.018320000000000013,-0.024077714285714306,-0.009160000000000007,0.9170000000000007
0.45884786211865586,0.5008467956465034,-0.12413943821861688,-1.4285217620850594,0.0750984031968823,1.920988976558949,0.15381447435883724,-0.010900085258958298,-0.09446510847397542,0.00012087211092012923,-0.14940681409641077,-0.005906748445749252,0.0560598079191256,-0.013782661399179027,0.5773457193370344,0.816483129238798,0.0028225755669342364,0.0,0.8164513100165882,-0.5772835447602047,-0.011476681684972043,0.0,-0.007741239589640847,0.008930680505530697,-0.9999301556385445,0.0,0.6530601713722941,0.24981200973624998,0.30395171954937333,1.0,-0.018660000000000013,-0.02452457142857145,-0.009330000000000007,0.9340000000000007
0.458603186100066,0.4991494536639436,-0.12414003123949763,-1.4311189399199549,0.07492584366027098,1.921929174659375,0.1536021199961357,-0.010854587699861445,-0.08987958924563584,0.0011927182120091188,-0.1542587524844272,-0.005901082193081106,0.05391696826193998,-0.010079332821491626,0.5774577339193568,0.8164038175171253,0.0028494177289159995,0.0,0.8163723989441692,-0.5773955237671744,-0.011456975036219189,0.0,-0.007708425525826956,0.008942276995477408,-0.9999303055003625,0.0,0.6527369943671826,0.24940219905858754,0.3039810018316025,1.0,-0.019000000000000013,-0.024971428571428592,-0.009500000000000007,0.9510000000000007
0.4583759055644653,0.4975801875893366,-0.12414264343660293,-1.4335958878540802,0.07477446470699521,1.9228512832437323,0.1534112807019487,-0.014181243831710343,-0.09350769682412056,-0.002143810518177724,-0.14637609480351157,-0.008548669963158655,0.05594231073652104,-0.012800515887481658,0.5775741818270065,0.8163214066140039,0.002858757038732236,0.0,0.8162900871732582,-0.5775119030209375,-0.011456105490875976,0.0,-0.007701046199920791,0.008950498112994892,-0.9999302888056528,0.0,0.6524297293216876,0.24901737055099532,0.30397619490315586,1.0,-0.019320000000000014,-0.025392000000000022,-0.009660000000000007,0.9670000000000007
0.45810574799333653,0.49590546455209605,-0.12413735469828767,-1.4362790108766266,0.07461341853493413,1.9238052688851097,0.1532020790060979,-0.013678067134564296,-0.09468524029904854,0.0003839306722193183,-0.15974762642119616,-0.007630252810354779,0.04778544567472446,-0.01397300796307395,0.5777121434915855,0.8162239318376349,0.0028141178152736816,0.0,0.8161918882411827,-0.5776498163883425,-0.01149948246729054,0.0,-0.007760727572316439,0.008940422929449646,-0.9999299175169183,0.0,0.6520900203260054,0.24858694357783,0.3039487151534339,1.0,-0.019660000000000014,-0.025838857142857167,-0.009830000000000007,0.9840000000000008
0.4578373721485756,0.49422959763966473,-0.1241451261460325,-1.4390379798398392,0.07444563698071767,1.9247479564841694,0.152993164388069,-0.016863960458855864,-0.09886569033429209,-0.0010393798311242627,-0.1630590323248843,-0.011008637108940709,0.05390236347746695,-0.010637030780481511,0.5778595357597873,0.8161199996675286,0.0026925778289022635,0.0,0.8160862393589274,-0.5777974204088387,-0.011581787388109797,0.0,-0.007896515827943207,0.008890193161698909,-0.9999293022525778,0.0,0.6517312598123013,0.24813944133144797,0.3038847990561623,1.0,-0.019980000000000404,-0.02625942857142911,-0.009990000000001756,1.0010000000000006
0.4575577159392775,0.49216155054905447,-0.12421643395229681,-1.4421960639873632,0.07425863374744487,1.9259051270492762,0.15285142978173274,-0.01683643350768388,-0.1396379251482824,-0.011675344208066244,-0.2151267118688512,-0.009516421848186124,0.07387501191783649,-0.004475075643447219,0.5781309849556124,0.8159275864730384,0.0027358303573437725,0.0,0.8158945844453025,-0.5780689174853164,-0.011536923826998441,0.0,-0.007831946709636661,0.00890217370240809,-0.9999297034862549,0.0,0.6513454203996063,0.24761659875143063,0.3039234908270187,1.0,-0.029927428571427883,-0.0393331918367338,-0.05463395498056827,1.0179999999999987
0.45727683727149776,0.4895318916736479,-0.12433196844994045,-1.4463426013289853,0.07407116483252356,1.9275099774411133,0.15301831837170116,-0.017590933276734794,-0.17108792558841546,-0.00884847261932735,-0.2873216891510365,-0.015014159313077978,0.10961644356251268,0.020493371931171716,0.5787371527506378,0.8154974930501655,0.002809582920772196,0.0,0.8154654450430092,-0.578674771937369,-0.011504919176133496,0.0,-0.0077565473275366115,0.00894961426130196,-0.999929867729797,0.0,0.6508315918856176,0.2469873242381474,0.30392162564648745,1.0,-0.03928971428571257,-0.05163791020407938,-0.09665179496227794,1.033999999999997
0.45692399504803116,0.4866110037526925,-0.12446973788040185,-1.4510222599740867,0.07386475032828996,1.9292624306020913,0.15374647038278275,-0.030023490876249205,-0.21646687972260314,-0.008915877559628246,-0.35299771924670936,-0.01622696210533851,0.1306642633871559,0.06514183029576753,0.5798954409151929,0.8146742822036331,0.002799718374645035,0.0,0.8146420455391394,-0.5798328728281806,-0.011529272693168119,0.0,-0.007769382792050805,0.008966713612513583,-0.9999296148919791,0.0,0.6502454499146556,0.2462459898433692,0.3038802733452948,1.0,-0.047481714285711664,-0.062404538775506765,-0.13341740494627388,1.0479999999999954
0.4563517550492642,0.4822513246216611,-0.1246661251287846,-1.4578858764133282,0.07349688945162906,1.9317938474801257,0.15518032135785248,-0.03445037590004538,-0.2668183316339231,-0.00702347362555772,-0.4332151425510251,-0.02161876609753384,0.15375631964564468,0.09277696337223987,0.5819088110484246,0.8132374430120596,0.0027827699553284197,0.0,0.8132053724480565,-0.5818464838981069,-0.011508183967768395,0.0,-0.0077398902065261566,0.008959849632840883,-0.9999299051404292,0.0,0.6493887273907272,0.24511502112163605,0.3038646308651111,1.0,-0.05742914285713953,-0.07547830204081196,-0.17806135992684213,1.0649999999999942
0.45567508917282085,0.47735999071390134,-0.12485340142556245,-1.4656357949866141,0.07310918225807779,1.934553225426141,0.15704452086362808,-0.04609263897416109,-0.317978437901697,-0.010451006623506584,-0.5065695277286962,-0.026006351529281,0.18081420167342466,0.11990073877221878,0.5843812633245585,0.8114629491705482,0.0026773307300072486,0.0,0.8114294406676638,-0.5843188725511764,-0.01159590011568011,0.0,-0.007845379480418635,0.00894906403293258,-0.999929179629109,0.0,0.6483892422307409,0.24383673066964792,0.3038104212960945,1.0,-0.06679142857142421,-0.08778302040815755,-0.2200791999085518,1.0809999999999924
0.45481580735701754,0.4713738335394764,-0.12506318188325255,-1.4749881826061917,0.07258827280950406,1.9379673888864575,0.15951479149090736,-0.048593246785457504,-0.3628392189045812,-0.01327562969131654,-0.574700771910457,-0.03474185863610623,0.20608777510727366,0.16360699092579062,0.5875394072828924,0.809179267198194,0.00266558201323083,0.0,0.8091459923651717,-0.5874770880282573,-0.011583651515334248,0.0,-0.007807432602895181,0.008962869311825855,-0.999929352989425,0.0,0.6471977617506331,0.24227555203497034,0.30380169298990234,1.0,-0.0767388571428517,-0.10085678367346224,-0.2647231548891183,1.0979999999999905
0.4538132195174224,0.46449626996512206,-0.12523404366050206,-1.4853890892299173,0.07203075030292852,1.9418927551484644,0.16268395721478085,-0.06430642083491532,-0.42213155770750715,-0.002934164910782234,-0.6440381298932444,-0.03646908004727904,0.22788996648790447,0.2015183407215427,0.591374941858738,0.8063793022573305,0.0029742114523398635,0.0,0.8063502200876376,-0.5913114187881101,-0.01144008201977503,0.0,-0.0074665039165514036,0.009163810330230698,-0.9999301355092243,0.0,0.6458827134684604,0.24056219798789077,0.3039425229095368,1.0,-0.08668628571427917,-0.11393054693876693,-0.30936710986968485,1.1149999999999887
0.45262890779225673,0.45693717020866614,-0.12544599726433456,-1.4972215267908744,0.07132694894087357,1.9460022151818728,0.16627800804657314,-0.07886515037335416,-0.45652878449291784,-0.0073029466128069365,-0.7193652901040053,-0.03960530492451403,0.24184146242985993,0.22326617220569286,0.5957305880559634,0.8031675897850914,0.0027633448050193073,0.0,0.8031360596481565,-0.5956674469868546,-0.011554617873554614,0.0,-0.007634407029233126,0.009102956418846286,-0.9999294235163543,0.0,0.6443031202253994,0.2385401773115202,0.3038771481320738,1.0,-0.09663371428570663,-0.1270043102040716,-0.35401106485025136,1.1319999999999868
0.4512584886440047,0.44844530529775867,-0.12568243879950017,-1.5100489935994952,0.07051321698083511,1.9506566289708271,0.1705157675898744,-0.077841267516359,-0.5195099055945822,-0.017165557589916006,-0.748762312520588,-0.050071643361851964,0.2949120165138338,0.2513875122036896,0.6007549734966382,0.7994157942361065,0.0029320037716821174,0.0,0.7993874106530177,-0.6006918562496825,-0.011393350077269014,0.0,-0.007346934664145988,0.009188595535715119,-0.9999307937368076,0.0,0.6426351336168706,0.23630119285979267,0.3040108816075353,1.0,-0.10658114285713412,-0.14007807346937629,-0.39865501983081786,1.148999999999985
0.44976166569158776,0.4393166709643001,-0.12586187361656564,-1.5240500383714346,0.06964277353621245,1.9556442430900487,0.1753214014212013,-0.09136341886263327,-0.5489048664529479,-0.009703056716126805,-0.8475741838647386,-0.05798088934458269,0.28989367511641184,0.2897094986659869,0.6062925279692877,0.7952241523185553,0.0029436370451901587,0.0,0.7951963480432829,-0.6062291720353923,-0.011388851264158156,0.0,-0.0072723109582654155,0.009245922864579106,-0.9999308108082822,0.0,0.6407412076052634,0.23390352384921465,0.30403153968949925,1.0,-0.1165285714285616,-0.153151836734681,-0.44329897481138436,1.165999999999983
0.4480700793063732,0.4294309407742775,-0.12605907494881974,-1.538959040465668,0.06867636549098308,1.961033886524092,0.1806564281906977,-0.10027474495653668,-0.589369011623371,-0.015567178959292872,-0.8965367283443687,-0.05868476736144182,0.3223921296022857,0.32006282083088283,0.6123843936560107,0.7905417060492718,0.0031483812468169467,0.0,0.7905173314021954,-0.6123207346534073,-0.011243378828067679,0.0,-0.006960674777038045,0.009374300152068457,-0.9999318334283129,0.0,0.638732582739814,0.2312918113414019,0.3041500360283602,1.0,-0.12647599999998907,-0.16622559999998568,-0.4879429297919509,1.1829999999999812
0.44615398376888926,0.41894177403830535,-0.1262380033830069,-1.555002492419412,0.06759645325425694,1.9665992002960782,0.18660056474747205,-0.11630375247078285,-0.6182891475708954,-0.011361191343341511,-0.9674466308086083,-0.06439514715476709,0.33095095178877587,0.35751415605155784,0.6190802904894172,0.7853095892411214,0.0030314806098992687,0.0,0.7852843984193464,-0.6190168854083703,-0.011280783647156387,0.0,-0.006982504321796146,0.009364465539274655,-0.9999317733818442,0.0,0.6364927889144715,0.2284259045346177,0.30412940431146185,1.0,-0.13642342857141657,-0.17929936326529036,-0.5325868847725175,1.1999999999999793
0.44402164723076026,0.4077183850850458,-0.12644396257755727,-1.5718886684339328,0.06639614354428706,1.97263887010289,0.1930580103761014,-0.12989964418908143,-0.6747158339368218,-0.007793454821378493,-1.0209814840657285,-0.07353905969199723,0.3488832317850315,0.38902027918151694,0.6263005856006599,0.7795627859593234,0.003191570901123754,0.0,0.7795409494439677,-0.6262376183924253,-0.01109505977399022,0.0,-0.006650741995139486,0.009436984335395887,-0.9999333532578896,0.0,0.6341601068387606,0.22534025105782865,0.30421768022691215,1.0,-0.14637085714284404,-0.19237312653059505,-0.577230839753084,1.2169999999999774
0.44177316916063464,0.3965083168554595,-0.12665643419076353,-1.5887377019883124,0.06529680713239996,1.978474805868651,0.1996750190204736,-0.14029328195256419,-0.7125751649843637,-0.014428995417782284,-1.061044577355914,-0.0710611582677212,0.37389560718893267,0.4170772305897052,0.6336939529506587,0.7735645476122764,0.003257540850214795,0.0,0.7735439148401377,-0.6336303124690278,-0.01109891145132387,0.0,-0.006521773353376503,0.009553347904616552,-0.9999330977701161,0.0,0.6317671570467178,0.22219622385832757,0.30426609467731813,1.0,-0.15573314285712872,-0.20467784489794064,-0.6192486797347937,1.2329999999999757
0.4389949611159076,0.383392931602487,-0.12688254793633919,-1.6086313912006023,0.0638716800563873,1.9852193463676688,0.20765963379917055,-0.15787478011871978,-0.7289983691562526,-0.014408383757743297,-1.1199041990260417,-0.0906533223074224,0.36716469611430635,0.4586445710868607,0.6424932439889108,0.766272715943958,0.0030501032251803815,0.0,0.7662504105884451,-0.6424301083181398,-0.011162934228529311,0.0,-0.006594500748439258,0.0095094357596604,-0.9999330393538418,0.0,0.6288708551364335,0.21840869576613486,0.30418974564825263,1.0,-0.166265714285699,-0.2185206530612044,-0.666518749714217,1.2509999999999737
0.43594460358306003,0.36945798548231346,-0.12711333496454064,-1.6293871834305516,0.06232425263308309,1.992337242026004,0.2162137246652657,-0.1710933299807902,-0.7763449949572873,-0.015151143388281779,-1.1801266773918515,-0.07420865034618832,0.3912651240812504,0.5022864907025871,0.6523628218451764,0.7578878237122811,0.0030890522930647982,0.0,0.7578672805410577,-0.6523000016639203,-0.011074286241542006,0.0,-0.006378200682990942,0.009565728453162628,-0.9999339055133636,0.0,0.6256513784924936,0.21415770992835256,0.3042273145507273,1.0,-0.17738342857141207,-0.2331325061224273,-0.7164149346924973,1.2699999999999716
0.43278296471756966,0.3557193882132727,-0.1273535375576583,-1.6497480152514798,0.060775922244308785,1.9992256887327584,0.22491470103207348,-0.19724838249571192,-0.8021184729519838,-0.011770279117610973,-1.2142989760793603,-0.09372265709937952,0.3965527541063264,0.5098086271541505,0.6611959953094215,0.7501938200509254,0.003136087593054661,0.0,0.7501751598515618,-0.6611337209368894,-0.010962640331383007,0.0,-0.006150850191390722,0.009601253750443253,-0.9999349893709804,0.0,0.6227921016918072,0.21034025922877447,0.30427181520217206,1.0,-0.18674571428569672,-0.24543722448977287,-0.7584327746742069,1.2859999999999698
0.42906546212437446,0.34051340442559597,-0.1276451488267494,-1.6720676266972418,0.0590715228478253,2.0066210376066,0.23469347520662787,-0.2049844280167115,-0.8449806824135605,-0.01725358922700265,-1.2365695951406148,-0.09281414152013893,0.4097012512809594,0.5642753562537398,0.671707643249257,0.7407965526703564,0.0031711911725715632,0.0,0.740779506131493,-0.6716455399235555,-0.010896737933231109,0.0,-0.005942463899831885,0.00966876174052654,-0.9999355990108585,0.0,0.6194045730299458,0.20575411537837004,0.304336741190412,1.0,-0.197278285714267,-0.2592800326530367,-0.8057028446536303,1.3039999999999679
0.42551343587664786,0.32654334129867985,-0.12784696699061235,-1.6925809207079994,0.05748128602630929,2.0134209764560382,0.24385657347986364,-0.22715422241259656,-0.9023016096674187,-0.010783536855495934,-1.2810077602977257,-0.1026322301307387,0.43947051828669736,0.5716259762941617,0.6813941525835592,0.7318964897131142,0.003206878819484591,0.0,0.7318808173629532,-0.6813319738579875,-0.01086082299471069,0.0,-0.005764160127165796,0.009747742046669838,-0.9999358759355622,0.0,0.6162247292089265,0.20152186791535207,0.304339059925926,1.0,-0.2066405714285517,-0.27158475102038226,-0.8477206846353399,1.319999999999966
0.4215534964405169,0.31121312444321697,-0.12802260044913052,-1.714955823701733,0.055587319582932025,2.0206276237527887,0.2540510451237333,-0.23875143756107842,-0.9108133080611871,-0.011993513311023626,-1.2973443389029562,-0.10351191787849258,0.42992498839448784,0.6147692376369485,0.6919145802585086,0.721959421565418,0.003090977163772321,0.0,0.7219438290302768,-0.6918533730637421,-0.010805776540046927,0.0,-0.005662938232707804,0.009708373144400026,-0.9999368373159683,0.0,0.6126412110731125,0.19688099728025785,0.30432330711455424,1.0,-0.21658799999997916,-0.28465851428568695,-0.8923646396159064,1.3369999999999642
0.4175503379493435,0.29620651446962326,-0.12819683444778418,-1.7367299129317022,0.053761568015725104,2.027497637274082,0.26420985127518204,-0.2535265440463834,-0.9360200438133719,-0.006465889345157547,-1.346775838838679,-0.11294244695149251,0.40417584190175165,0.6342623417537115,0.7028997202615044,0.7112693750064769,0.002933655638168362,0.0,0.7112529837818227,-0.7028388018851821,-0.010842441019639097,0.0,-0.00565011801598958,0.009707906992984239,-0.9999369143642117,0.0,0.6088358413011765,0.1920195649036691,0.30429310395285786,1.0,-0.22653542857140666,-0.29773227755099163,-0.937008594596473,1.3539999999999623
0.4128719783143151,0.27970187199980084,-0.1284164268057661,-1.7602622008780526,0.05177475492570457,2.0349093926744186,0.27546613919905877,-0.28225732806143716,-0.9921971154106268,-0.019389655668658093,-1.4038537545549097,-0.1257157694413127,0.4303765421398305,0.6705576438589096,0.7136950281587462,0.7004361700142122,0.0030537548225948005,0.0,0.7004223812523329,-0.7136341025407572,-0.010751857182268908,0.0,-0.00535182912238108,0.009812654163060888,-0.9999375329205925,0.0,0.6051802809776805,0.18717504606549654,0.30437192789145684,1.0,-0.23589771428569134,-0.3100369959183372,-0.9790264345781826,1.3699999999999606
0.40785281784691135,0.2627443535256025,-0.1286119926442269,-1.7842380616831335,0.0496875030041386,2.04231638550566,0.28717913761765707,-0.3053897974668471,-1.0118639743330513,-0.015031187487248864,-1.4380425022980514,-0.12897331208827578,0.43013272380171497,0.6900043070700463,0.7254143532863521,0.6882912438680363,0.0031506446869168005,0.0,0.688279783095891,-0.7253533591625984,-0.010686039220217063,0.0,-0.0050698741305104655,0.009920522272645046,-0.999937937881216,0.0,0.6011300974682483,0.18185081703484388,0.30445299693126215,1.0,-0.2458451428571188,-0.3231107591836419,-1.0236703895587491,1.3869999999999587
0.40237755352115184,0.24540798464181734,-0.12885612467304802,-1.8086859781072218,0.04745628959585814,2.0497336380848474,0.29931144254566944,-0.32508446225117027,-1.053265565199953,-0.010850291811601048,-1.4417760405162663,-0.1277006059381727,0.4275043050764905,0.7263769628009834,0.7374741193849379,0.6753538552161098,0.003136938532420788,0.0,0.6753437254124681,-0.7374137915222017,-0.010606579093564304,0.0,-0.004850065723323194,0.009940780722421313,-0.999938826999486,0.0,0.5969346986547516,0.17622106557740275,0.3044720643333656,1.0,-0.2557925714285463,-0.3361845224489466,-1.0683143445393155,1.4039999999999568
0.3965729258276066,0.22752829715717107,-0.1290533478108252,-1.8336062192376017,0.04515296743492221,2.05716790271365,0.31203041013360394,-0.334831315133863,-1.0501673541088046,-0.00581826191303125,-1.4655854644503477,-0.11398380845458297,0.4383870064146019,0.765388225012673,0.7498228685936947,0.6616162818716503,0.003210638170812642,0.0,0.6616083342234531,-0.7497627346187484,-0.010535690024483905,0.0,-0.00456345506678274,0.010024279287197471,-0.9999393425116474,0.0,0.5925477363008576,0.1704402779594819,0.30452266551113677,1.0,-0.2657399999999737,-0.34925828571425127,-1.1129582995198821,1.420999999999955
0.3907984804637699,0.21024864181290684,-0.12920548265488396,-1.8575286476112363,0.042810323600141344,2.064023429562792,0.32434381872354723,-0.36397846283908775,-1.0849012001030724,-0.011063899798654407,-1.4756454124266354,-0.1404194426396143,0.4169043817944458,0.7594687902339629,0.7615274589731043,0.648110366935484,0.0031029666332896035,0.0,0.6481026158962482,-0.7614681299981028,-0.010489669529617928,0.0,-0.004435738769891895,0.009999404693957728,-0.9999401662736285,0.0,0.5881994076322393,0.16483150096792767,0.30453315471814413,1.0,-0.27510228571425843,-0.36156300408159686,-1.1549761395015916,1.4369999999999532
0.38414671458141614,0.19151016870766707,-0.12942159377624396,-1.8832468558469053,0.04026494347696243,2.071299252490849,0.3377748936935191,-0.40229017489644925,-1.1215254181357324,-0.01694695857827091,-1.526709143624772,-0.153879331989403,0.42607131719193647,0.7957549783819888,0.7742203089816705,0.6328936162496769,0.0030545984910713194,0.0,0.632886814246756,-0.7741616544725355,-0.010428806170751698,0.0,-0.004235653378429849,0.010007601320983328,-0.999940951834786,0.0,0.5834642913339315,0.15858637442469403,0.3045412402248653,1.0,-0.28504971428568604,-0.3746367673469017,-1.199620094482159,1.4539999999999516
0.3769495235298824,0.17224755641351983,-0.12968225933554892,-1.909297514219054,0.037713293178476305,2.07845671051448,0.35178762408543535,-0.43117007715212435,-1.1341683723566656,-0.014900058766694282,-1.52509910094119,-0.14934987974081718,0.41976283748315674,0.817258589756976,0.788065181094959,0.6155684588852588,0.0030805312212614376,0.0,0.6155631777865922,-0.7880061758922174,-0.01043972270723955,0.0,-0.0039989633831391536,0.010123638465103932,-0.9999407583632584,0.0,0.5782799730751812,0.1516682242768747,0.3045842971125306,1.0,-0.29558228571425627,-0.3884795755101655,-1.2468901644615822,1.4719999999999496
0.36928279111908335,0.15263838743300012,-0.12989234812600864,-1.9355853188128878,0.03495326347281605,2.0854912450026557,0.36611806455983403,-0.44648383134345615,-1.1606696344267922,-0.006643175634616247,-1.5588111288117485,-0.16876940004067353,0.43332869213324554,0.8514836657040934,0.8003452635155055,0.5995153535834471,0.0030898037508424996,0.0,0.5995117231278673,-0.8002871093685476,-0.010343273756320832,0.0,-0.00372829309214856,0.010130758779409735,-0.999941732081011,0.0,0.5735168758088918,0.14534368606959447,0.3046313425979624,1.0,-0.304944571428541,-0.4007842938775111,-1.288908004443292,1.4879999999999478
0.3612069574377926,0.13262162841235298,-0.13006644307841697,-1.9621079586869619,0.03209805425181098,2.0923999229071,0.38074199478852144,-0.4819190585112936,-1.187163530154152,-0.009339049350651444,-1.5416533296622623,-0.1640089303113648,0.39701795569284726,0.8725070805776441,0.8133492128743913,0.5817508616800856,0.0031208576216107667,0.0,0.5817491201214271,-0.8132917414969968,-0.010259208153460837,0.0,-0.0034302014953954685,0.01016007066457246,-0.999942501687868,0.0,0.5682828940419604,0.1384923388464461,0.30467080907415317,1.0,-0.3148919999999685,-0.41385805714281576,-1.3335519594238583,1.504999999999946
0.352521005259001,0.11220121790029876,-0.1302857736203167,-1.9888995250922976,0.029116207218063034,2.099167283978995,0.39583368904034116,-0.5243963510658297,-1.1980784418325823,-0.015138024438569684,-1.5798412584691681,-0.18414626239487417,0.38749127135392025,0.8771613422763134,0.8265094898950925,0.5628969788541001,0.0031306886605332166,0.0,0.5628969839587504,-0.8264530091021192,-0.010156579020671751,0.0,-0.0031298008405343247,0.010156959703131185,-0.9999435186630732,0.0,0.5628874183197814,0.13135173577592962,0.304689419930689,1.0,-0.3248394285713959,-0.42693182040812044,-1.378195914404425,1.521999999999944
0.34377919265033047,0.0925986071175633,-0.13048427472819696,-2.0142729238920634,0.026215845971282573,2.1052386000702366,0.41019495713154663,-0.5457044482983097,-1.2201875419388224,-0.005734335008275804,-1.6027694844550262,-0.18861065620622305,0.37606885241764515,0.8944267916487433,0.8395700289370609,0.543225299450789,0.0030310804066737145,0.0,0.5432257633415245,-0.8395143407437015,-0.010108839146752466,0.0,-0.002946798438246079,0.01013383445033976,-0.9999443093384237,0.0,0.5573009448185123,0.12398512491122976,0.30469717785016204,1.0,-0.3347868571428234,-0.4400055836734251,-1.4228398693849913,1.5389999999999422
0.33402653564046875,0.0714551933505725,-0.13065108610150425,-2.041362589750364,0.023152880630371284,2.1115242592222003,0.42586857951170465,-0.5869277822075717,-1.2593918334718315,-0.0025833446834105213,-1.5734757259969474,-0.20274153366598313,0.3661613153262097,0.9110050447562452,0.8518367462090619,0.5237800572933689,0.0030588054730399,0.0,0.5237820802949216,-0.8517809933180533,-0.010110325674425795,0.0,-0.002690206391622152,0.010214691083959684,-0.9999442098815463,0.0,0.5518897333305451,0.11692885835934065,0.3047169473296816,1.0,-0.33998,-0.44683085714285725,-1.44614664,1.5549999999999404
0.32365475708174885,0.05043807566245259,-0.13084168113153147,-2.068117541098253,0.0199440260270293,2.1174146214952416,0.44143637023862176,-0.616015155728388,-1.2332300493516402,-0.008857585178114365,-1.5680966284209306,-0.20003373217077422,0.3337342533742673,0.8936979533797036,0.8645343278832434,0.5025466095013387,0.002836915822928745,0.0,0.5025478050920658,-0.8644794449109194,-0.010086616125546411,0.0,-0.0026165896968303737,0.010146107056760861,-0.9999451034781617,0.0,0.546081014951322,0.10924213290475877,0.3046358244094096,1.0,-0.33998,-0.44683085714285725,-1.44614664,1.5719999999999386
0.3128641502930739,0.029475931468247493,-0.13093791896962598,-2.094226817411126,0.016839259487933918,2.1227674158842453,0.4566751743867936,-0.6326188117054137,-1.2251854901167116,-0.003118363889637138,-1.5108333931489666,-0.18103630622385317,0.29333892734559486,0.882021741960644,0.8766798161918736,0.48104667209304386,0.0027103599757611046,0.0,0.4810477694957309,-0.8766246121365416,-0.010152820339592028,0.0,-0.0025080604621531277,0.010204781763684473,-0.9999447845065613,0.0,0.5402450531903279,0.10158136152344156,0.30464049218757533,1.0,-0.33998,-0.44683085714285725,-1.44614664,1.588999999999937
0.30171843707701645,0.008766484958923085,-0.13099175141456182,-2.119572545676998,0.013554349140808337,2.1279255500494942,0.4717717181016469,-0.6516580682684798,-1.1892422635456985,-0.002601994842536408,-1.4720577428188026,-0.18783083487239877,0.29155464602553705,0.8779258631471624,0.8882838320451047,0.4592651785260614,0.002841904624931203,0.0,0.45926938320352506,-0.8882302944078154,-0.0099661752577177,0.0,-0.0020528910017893476,0.01015818770956553,-0.9999462969884891,0.0,0.5344968653559641,0.09393604249579965,0.304707889692127,1.0,-0.33998,-0.44683085714285725,-1.44614664,1.605999999999935
0.2908655998573354,-0.010614247665426768,-0.13109464346223831,-2.1427958748304836,0.01066942797223674,2.132401915898198,0.4855922488217578,-0.6824090790544212,-1.2152821643965264,0.0006749906048744729,-1.4689444393192312,-0.1764578078661068,0.272965590902292,0.8542581655859718,0.8993679834937429,0.437158927802889,0.0031700173241045065,0.0,0.4371678535775336,-0.8993142046806252,-0.009948666205827584,0.0,-0.001498335490558944,0.010333540486045678,-0.999945484979947,0.0,0.5287691565785589,0.08629548826057461,0.3048489113819928,1.0,-0.33998,-0.44683085714285725,-1.44614664,1.6229999999999332
0.27842418207816205,-0.032080003513316954,-0.13107262951903323,-2.1683614593201854,0.007266900162018442,2.136956886922144,0.5009288009128198,-0.7107687767792054,-1.1955208339696375,-0.0004120123318242561,-1.3959632702031566,-0.19394171814807684,0.25632217813860325,0.8469020633179919,0.909794868265953,0.41502222582824067,0.003255249102354591,0.0,0.41503351128234434,-0.9097426870112856,-0.009806877349218222,0.0,-0.0011086543456615972,0.010273481947444138,-0.999946611801959,0.0,0.5229931175776936,0.0787389473041227,0.3049048666456194,1.0,-0.33998,-0.44683085714285725,-1.44614664,1.6399999999999313
0.26685640244198744,-0.05096375696035545,-0.1311856597011676,-2.1905126712667147,0.004414638569995214,2.1404966362226543,0.5143195425067097,-0.7195450749704556,-1.2004048395069393,0.0003352735282083287,-1.346379998706889,-0.1860386241741802,0.23240186652671288,0.8164572383354367,0.9192778039320042,0.39357145258652254,0.0032523542388611824,0.0,0.3935838717273388,-0.9192252356197679,-0.009871626872419263,0.0,-0.0008955616783716813,0.010355041012701148,-0.9999459840885936,0.0,0.517548538347955,0.07150556705983438,0.3049500416658591,1.0,-0.33998,-0.44683085714285725,-1.44614664,1.6559999999999295
0.2544376271484419,-0.07067304277924503,-0.13113618312465997,-2.213513343310204,0.0012723618563952324,2.1439377787914653,0.5280739298812788,-0.745332452442362,-1.1579045252119822,0.001011355369834505,-1.3252826070972652,-0.17996245402391972,0.19311402322999172,0.7967349517511839,0.9285614265574622,0.3711399522469824,0.0030919018235463906,0.0,0.37115200908596674,-0.9285096172479891,-0.009839905012331012,0.0,-0.0007811363369369384,0.010284719821872602,-0.9999468057672913,0.0,0.5117331046899689,0.06401415684518691,0.30491105085629405,1.0,-0.33998,-0.44683085714285725,-1.44614664,1.6729999999999277
0.24146427059627731,-0.09024172645581295,-0.13123680472463167,-2.2360351061899233,-0.0017761053888841478,2.1470962345402693,0.5416528996607475,-0.7700669398634592,-1.140056882509563,0.00029158882153350676,-1.2995012181622456,-0.16377738335911823,0.15995864369908863,0.7701570082679292,0.9374766610978417,0.34800744719960464,0.0030122237077790247,0.0,0.348019947984607,-0.9374249224098492,-0.00986800642928331,0.0,-0.0006104179032946355,0.010299537955137557,-0.9999467720373392,0.0,0.5059253443239323,0.05636840324174595,0.3048722585128293,1.0,-0.33998,-0.44683085714285725,-1.44614664,1.6899999999999258
0.22831552120550164,-0.10959420841065144,-0.13119385667375694,-2.2579533009534636,-0.0049687138522911565,2.1498996489258473,0.5548241080360026,-0.7919955094688096,-1.108099448763805,-0.0018240831757824353,-1.2828714595571014,-0.1886983599828914,0.15754976272905513,0.763044391591952,0.9456483353376741,0.3251481499589614,0.0029416581309128346,0.0,0.325161230684478,-0.9455983190293209,-0.009733447995765776,0.0,-0.0003831930024476571,0.0101611277055879,-0.9999483009870429,0.0,0.5001152430795632,0.048884191297255165,0.3048494351723282,1.0,-0.33998,-0.44683085714285725,-1.44614664,1.706999999999924
0.21538161906913847,-0.12764047481634347,-0.131318329414086,-2.2780149587123195,-0.007766382367811754,2.1521144269853676,0.5668214198075685,-0.823529382672847,-1.1070350480226354,-0.005547591994441007,-1.235567729129807,-0.17411563550740786,0.1334583226769265,0.7324848731846086,0.9529470627035188,0.3030911356993435,0.002899318269212226,0.0,0.30310493582168907,-0.9528969078389247,-0.009778947425653179,0.0,-0.00020116474065673406,0.01019781324303038,-0.9999479807159009,0.0,0.49466199680278644,0.04168414259731203,0.3048569931161379,1.0,-0.33998,-0.44683085714285725,-1.44614664,1.7229999999999221
0.2013993371162695,-0.14658231794313809,-0.13133102377659966,-2.2987806507784145,-0.010823516370000246,2.1541736301699506,0.5793679078058368,-0.826463917304416,-1.0971628720598636,-0.001128045016202668,-1.1980632644499556,-0.17782564146155133,0.11572931008117576,0.7381173577975602,0.9600890548101978,0.27964539705884156,0.002864548598288986,0.0,0.27966006599163007,-0.9600399621065863,-0.009709044708405095,0.0,3.499213891694497e-05,0.010122842303319259,-0.9999487621069654,0.0,0.48886992553506947,0.03415456077614329,0.30486378319996094,1.0,-0.33998,-0.44683085714285725,-1.44614664,1.7399999999999203
0.18686979362179337,-0.16527469575363163,-0.1314916051932551,-2.318995761267432,-0.013805973782110249,2.1559120603639492,0.5914916398834437,-0.8739077772206669,-1.100809923349209,-0.004505521347444064,-1.153534462004923,-0.16931965868478555,0.1014641748176319,0.696030283456444,0.9667219112932486,0.25577622799454897,0.0028309573675835737,0.0,0.25579176465260645,-0.9666733516952144,-0.009692840628743342,0.0,0.0002574177885460438,0.010094611351739727,-0.9999490149791337,0.0,0.4830887999460157,0.02649296632432036,0.30485724117393204,1.0,-0.33998,-0.44683085714285725,-1.44614664,1.7569999999999184
0.17388210642740765,-0.18158608083923108,-0.13152508245197037,-2.3364586441058175,-0.016354495664638983,2.1571053922146035,0.6018163338384431,-0.866697943220116,-1.0664680311872374,-0.0009906341024948076,-1.1447897528119941,-0.18165640720537582,0.06853352700611202,0.6639497576178716,0.9720105785380924,0.23488091038043596,0.0026720872196246614,0.0,0.2348959026283881,-0.9719619163408078,-0.009731136249595852,0.0,0.0003115148709016413,0.010086623913924866,-0.9999490801918387,0.0,0.4779364993190029,0.019875802337807977,0.3048136446993069,1.0,-0.33998,-0.44683085714285725,-1.44614664,1.7719999999999168
0.16041412012211845,-0.1977977408301958,-0.13170901786905978,-2.3533021476183853,-0.018975919342671083,2.1581934456733123,0.6118197502586794,-0.9006468196273237,-1.0729348882732237,-0.002572744279284696,-1.1191554634612595,-0.16328464989316677,0.05886065621632022,0.6653476634756903,0.9768981187108146,0.2136405938242122,0.002917058607090611,0.0,0.21365905023992404,-0.9768508330137774,-0.009644023645293136,0.0,0.000789191386231014,0.01004467791855096,-0.9999492395229211,0.0,0.47289101977715875,0.013105891651120576,0.3049081663812899,1.0,-0.33998,-0.44683085714285725,-1.44614664,1.786999999999915
0.1449125927843918,-0.21583042234606742,-0.13182368477620268,-2.3719496758307295,-0.02175615319350253,2.1589676004567693,0.6228302191750646,-0.9222598671590828,-1.0616728232881736,-0.013456803037543208,-1.058381897463161,-0.16828583116743695,0.05164434108099093,0.642696902376312,0.9818557583159979,0.18955678519456082,0.0028708795913430646,0.0,0.18957599311939122,-0.9818083120486734,-0.009701965065883502,0.0,0.0009795989980289632,0.010070374002478948,-0.9999488126665551,0.0,0.4671035930070932,0.00557090564421605,0.3049171379258059,1.0,-0.33998,-0.44683085714285725,-1.44614664,1.8039999999999132
0.12987747404234498,-0.2325480677796267,-0.13195560424529712,-2.3891448807073505,-0.024516551870676737,2.159440465404893,0.6327799730534265,-0.9320396947082974,-1.0345944638769144,-0.0033734019679490437,-1.0688135946603572,-0.1709242777952075,0.015662754536781443,0.6077432187869223,0.985970334507621,0.16684172957997329,0.0026615113942028133,0.0,0.1668598544462528,-0.9859238388864293,-0.009629111632442296,0.0,0.001017529482532753,0.009938309164342237,-0.9999500960771522,0.0,0.461609511797662,-0.0015773394634987364,0.3048522041768571,1.0,-0.33998,-0.44683085714285725,-1.44614664,1.8199999999999115
0.11351332668191892,-0.2501634221335567,-0.13219314380433747,-2.406637821295128,-0.027252966204256674,2.159767535881533,0.64284447007117,-0.9852904483085287,-1.0100250777993847,-0.014739863575403883,-1.011485992725726,-0.15282019238089434,0.006244916852553505,0.5847019223111914,0.989983797640034,0.14108347824680567,0.002877408071096164,0.0,0.14110497046845716,-0.9899379618933674,-0.009641878069639696,0.0,0.0014881744385097373,0.009951511246090939,-0.9999493750989392,0.0,0.45553889871487213,-0.009632400068536665,0.3049367926229627,1.0,-0.33998,-0.44683085714285725,-1.44614664,1.8379999999999095
0.09580045350632105,-0.2684067843611141,-0.13229989307096185,-2.4246526065166205,-0.03014106415462961,2.159842603475408,0.6531670819724048,-1.0018640492704194,-1.0001898661476767,-0.003493651468436289,-0.9879997622391747,-0.17487488535910392,0.009445625488627804,0.5565874496115759,0.9933074245858728,0.11537785557055108,0.003009585973263414,0.0,0.115401709746273,-0.9932630823443973,-0.009572958819113794,0.0,0.0018848394693700143,0.009856392203316359,-0.9999496481888022,0.0,0.44945224242471066,-0.01759003310829905,0.30496968189260454,1.0,-0.33998,-0.44683085714285725,-1.44614664,1.8559999999999075
0.07750066399445192,-0.2863102607560412,-0.13250795050862282,-2.442212898440821,-0.0330114397995876,2.159632654191403,0.6629576674058172,-1.0353318513235412,-0.9927129397967941,0.003183568228220278,-0.9752518265544543,-0.14674051223727733,-0.013268861273261205,0.5247743505226574,0.9958446516465462,0.09091389917000431,0.002973150834340745,0.0,0.09093842747040509,-0.995801075788505,-0.009548129077175595,0.0,0.0020926494451199984,0.009779015212589429,-0.9999499945896153,0.0,0.4436394519362064,-0.02517506753409563,0.3049284579673911,1.0,-0.33998,-0.44683085714285725,-1.44614664,1.8729999999999056
0.058724059988024185,-0.30387134860351434,-0.13279383150393007,-2.4588836362033275,-0.03576707317591843,2.1592138418288442,0.6721839483722786,-1.0655643992321038,-0.9508848299746978,-0.015234017456987626,-0.9358233055029589,-0.15511041168829656,-0.039125271916080104,0.4938431695217171,0.9978774644732624,0.0648891460194691,0.0032728468471548994,0.0,0.06491766580481567,-0.9978354900144057,-0.009527771794771656,0.0,0.002647564736067365,0.009720201482499958,-0.9999492527544125,0.0,0.43759375140898205,-0.03323880681339588,0.3050093145697661,1.0,-0.33998,-0.44683085714285725,-1.44614664,1.8909999999999036
0.04172524516257523,-0.3191167188741353,-0.13293898839487553,-2.4733029742390746,-0.03816563314884656,2.158500569296892,0.6799552057871359,-1.0733319493435356,-0.9544263827429801,-0.013749998514968683,-0.8665654861733488,-0.15132095141370047,-0.03790242036498199,0.48156617562984266,0.9991054969591289,0.04193363393330857,0.0032439470414166276,0.0,0.0419627602252472,-0.9990643501596626,-0.009502520483432808,0.0,0.002842491354256127,0.009630330835557768,-0.9999495872147249,0.0,0.4321543966875118,-0.04030797486570119,0.3049945142795848,1.0,-0.33998,-0.44683085714285725,-1.44614664,1.9069999999999019
0.023156379081862022,-0.33498449196398056,-0.13318219570616838,-2.488023751250499,-0.040616920209802725,2.1576197562775716,0.6877373299003385,-1.0986362438160295,-0.9243386733444131,-0.014553349123633152,-0.8469241167969594,-0.1408020576976737,-0.06419803566438001,0.4496752269274066,0.999834097208735,0.017353902795931464,0.0033715008159208282,0.0,0.01738528834917591,-0.9997939692575275,-0.009514078331742677,0.0,0.003205761513385641,0.009571298710605025,-0.9999490553693782,0.0,0.42640609653250694,-0.04788630424572601,0.3050167596265847,1.0,-0.33998,-0.44683085714285725,-1.44614664,1.9239999999999
0.004128865599252965,-0.350541444084374,-0.13347239369327754,-2.502175524206956,-0.043078621164873473,2.156422666921839,0.6950772283418291,-1.126487089038787,-0.925499396192004,-0.012825470077126156,-0.8255962769357034,-0.1437008951300631,-0.0730314619183523,0.42031414660423916,0.9999579068090654,-0.007284410808831909,0.0034451226986293927,0.0,-0.0072514407240078516,-0.9999190715904676,-0.009487559132472465,0.0,0.003514022824451346,0.009462359847547293,-0.9999490563972269,0.0,0.42063027730744945,-0.05549505434209912,0.3050574380003408,1.0,-0.33998,-0.44683085714285725,-1.44614664,1.9409999999998981
-0.01643663408251404,-0.3665327057015102,-0.13375639410484935,-2.5165815296291303,-0.045589642284676386,2.1550727402199503,0.7022955585359503,-1.1664691345104286,-0.8658096421808631,-0.026873183089100833,-0.8081231438995506,-0.1406013062424533,-0.08473209556016315,0.3796676755773442,0.9994308009423476,-0.03325981263023242,0.0035504778196021746,0.0,-0.03322496487679144,-0.9993934955715782,-0.009459895314757326,0.0,0.003863033160111329,0.009336726011314807,-0.9999489499580432,0.0,0.41452474948572476,-0.0635103781317434,0.30507272383566897,1.0,-0.33998,-0.44683085714285725,-1.44614664,1.9589999999998962
-0.03507429886888077,-0.38033256857236497,-0.13396184563122102,-2.528737829534491,-0.04771573097932569,2.1536255389345014,0.708278265347102,-1.1766486182513827,-0.8535086251227203,-0.007646506731268118,-0.7369817585652355,-0.13934627973068478,-0.08561816794083568,0.3625515653536218,0.9983990310453441,-0.05627481681898938,0.003642348269386866,0.0,-0.05623834030263791,-0.9983630733342815,-0.00944297536484195,0.0,0.00416786796563523,0.009223195408061095,-0.9999487794597709,0.0,0.40912046783010214,-0.07059384222071992,0.3051217732685461,1.0,-0.33998,-0.44683085714285725,-1.44614664,1.9749999999998944
-0.055410823415432874,-0.39449618894147226,-0.13428562379546294,-2.5411164284787606,-0.04998833493405441,2.1520456973633437,0.7141132308781221,-1.2053255110054233,-0.8001066970345584,-0.014173125930339906,-0.7340813799980627,-0.13516746303784805,-0.08757147968911622,0.3320851724440274,0.9967134583012409,-0.08080248104329407,0.003740053427018716,0.0,-0.08076451228177067,-0.9966793908723928,-0.009382551216604003,0.0,0.004485853954877994,0.00904982571703751,-0.9999489875832599,0.0,0.4033692856777444,-0.07821540328824013,0.30514329596592826,1.0,-0.33998,-0.44683085714285725,-1.44614664,1.9919999999998925
-0.07490647363774322,-0.40735861218155034,-0.13459244970103457,-2.552243479065181,-0.052023937877391915,2.150349542782259,0.719139906962474,-1.2344479112528153,-0.7681133852589477,-0.010276688444018599,-0.6632940248230288,-0.12756748681185218,-0.10898905189146542,0.3092015649399189,0.9945818633554383,-0.10379815595348824,0.0036887404744926394,0.0,-0.10375998482144932,-0.9945486640162688,-0.00935774302466227,0.0,0.004640037715760548,0.008924469662322382,-0.999949410665981,0.0,0.3979313934682324,-0.08536379620664329,0.3051365887936389,1.0,-0.33998,-0.44683085714285725,-1.44614664,2.0079999999998908
-0.09600470278217546,-0.42060679933440814,-0.13494755036167672,-2.5634392784892284,-0.05395519030552943,2.1486048756428606,0.724062941718513,-1.2729346175001228,-0.7526561581164302,-0.03182840373455855,-0.6545025651483379,-0.12013521042395833,-0.10382168889708972,0.28182629175511453,0.9917174772044934,-0.12830382392466272,0.003914214438744189,0.0,-0.12826236333234897,-0.9916854840781422,-0.009455882947107606,0.0,0.00509499367558619,0.008875688871058302,-0.9999476302219581,0.0,0.39220618195886053,-0.09294847228107626,0.30519537047643464,1.0,-0.33998,-0.44683085714285725,-1.44614664,2.024999999999889
-0.11747115307014382,-0.4331838702235772,-0.13521293202924556,-2.574229747015321,-0.055958619862062374,2.146523187513791,0.7284919023587675,-1.2756722275205237,-0.7387847912988454,-0.01625842662333515,-0.6220943104911909,-0.10920621369091961,-0.12491128055538325,0.2458627935546926,0.9885075025012162,-0.15106600964824984,0.003567229873689817,0.0,-0.15102711310199401,-0.9884751199291115,-0.009407193546128305,0.0,0.004947320419461332,0.00876050163503772,-0.999949387535074,0.0,0.38670881278435615,-0.10002256675543024,0.30509776742962563,1.0,-0.33998,-0.44683085714285725,-1.44614664,2.040999999999887
-0.13804255874525237,-0.44469508264281943,-0.13557148632136412,-2.5835513819104943,-0.05775507515853442,2.1448458472348637,0.7323027425360648,-1.2822056054559186,-0.7003089217768916,-0.02365248219876481,-0.5701699324674858,-0.09932766434341758,-0.09967329463398004,0.23998596589600563,0.9844869502021212,-0.17535773826209677,0.003981885801501281,0.0,-0.17531462609887066,-0.9844579686054451,-0.00938279416070194,0.0,0.0055654519221600696,0.008539319995556599,-0.999948051530136,0.0,0.38102674260528857,-0.10763108609456513,0.3052209526382999,1.0,-0.33998,-0.44683085714285725,-1.44614664,2.0579999999998853
-0.16042922218349986,-0.45620839340987196,-0.13592334665097164,-2.5931401495873336,-0.05951527454817752,2.1426823373192407,0.7357653577726986,-1.3185482388244452,-0.6747833806084744,-0.028081854567130145,-0.5587451852201687,-0.096519205931637,-0.12689859182132932,0.1985114196367523,0.9798706465541023,-0.1995512792666551,0.0036810142482517736,0.0,-0.1995097666187755,-0.9798406775425301,-0.00942584521015491,0.0,0.005487852623075162,0.008501874434232712,-0.9999487994915999,0.0,0.3751730312376691,-0.11522626646063427,0.30514657945260715,1.0,-0.33998,-0.44683085714285725,-1.44614664,2.0749999999998834
-0.18307535356829122,-0.4671774982759088,-0.13628129691312618,-2.6020428690531716,-0.06122711985705559,2.140660371377247,0.7388749295963896,-1.3275697379601987,-0.6377730417747539,-0.015770925148185434,-0.5073042571320666,-0.10150806183808934,-0.12449581337876502,0.16650729408565026,0.9746661657142333,-0.22359151279756057,0.0036671130363542257,0.0,-0.22354941859843275,-0.974637187039612,-0.00942114563221972,0.0,0.005680702309625307,0.008362851913593386,-0.9999488948587028,0.0,0.3693852871912896,-0.12279664572393921,0.3051464434852986,1.0,-0.33998,-0.44683085714285725,-1.44614664,2.0919999999998815
-0.2060276410401409,-0.47737005508168406,-0.13661230028608023,-2.610014093769048,-0.06277486535071775,2.1388839433290308,0.74141324956385,-1.3479896153513333,-0.5667742038694368,-0.007828544159571953,-0.46391222174034025,-0.09295262823041486,-0.10763466081941944,0.15033993427239795,0.9689081895966973,-0.24734826049337816,0.004062642558584096,0.0,-0.24730224737112189,-0.9688826634941023,-0.009419645798811131,0.0,0.006266277591046532,0.008122227700617185,-0.9999473802067445,0.0,0.3637514402286242,-0.1303833575815757,0.30525955812220296,1.0,-0.33164171428578465,-0.4358719673470314,-1.4087245012666016,2.1089999999998796
-0.22752199445450966,-0.4861018051415181,-0.13684001548739005,-2.6170937664490896,-0.06408040986642331,2.136999461713772,0.7433163013900623,-1.3349161538663228,-0.524050115762594,-0.021854377029882636,-0.4249144676575673,-0.07696726116238306,-0.11541709679112298,0.1024909767929992,0.9631161573994966,-0.26902344012892526,0.003795117710216588,0.0,-0.268978876862873,-0.9630898060194775,-0.009441199296735358,0.0,0.0061950623672518135,0.008072320505842306,-0.9999482280817926,0.0,0.3584145401254169,-0.1373041098194131,0.30518584970349594,1.0,-0.3222794285715,-0.4235672489796858,-1.366706661284892,2.124999999999878
-0.250006880250789,-0.49453418236578395,-0.13693004202434889,-2.623787089279049,-0.06518385481206102,2.1351941515240753,0.7448213141171298,-1.3232718159627128,-0.4771729002625569,-0.011105767325649989,-0.3762114727218875,-0.046504689416726225,-0.09721253575408495,0.07738300430592147,0.9566648195326415,-0.2911347399088175,0.0037058316221712665,0.0,-0.2910898142034859,-0.9566383321633762,-0.009516743343285543,0.0,0.006315916781308273,0.008025758235391672,-0.9999478468400032,0.0,0.35296555900980797,-0.14440096565875152,0.305162748105084,1.0,-0.3123320000000725,-0.4104934857143811,-1.3220627063043253,2.141999999999876
-0.2722675270937264,-0.50211830270919,-0.13696415434171214,-2.629571913929474,-0.06619296710579603,2.1336113948242583,0.7458228934485466,-1.305635642713824,-0.42277314335979616,0.005942971267544576,-0.31608692464868743,-0.05368195088179729,-0.08720067690788114,0.04478241699798193,0.9499147138598578,-0.3124540500753947,0.0039051101438873827,0.0,-0.31240693681878917,-0.9498905016594095,-0.009523002989861092,0.0,0.006685056594729788,0.007826207840961302,-0.9999470288416059,0.0,0.3477297121728799,-0.1513719499744963,0.3052356569895882,1.0,-0.302384571428645,-0.3974197224490764,-1.277418751323759,2.158999999999874
-0.29278179469063625,-0.5084572359097832,-0.13695125486097168,-2.634325056872534,-0.06700040064550944,2.1323024722316983,0.7463715568500933,-1.2736627788656965,-0.3803083644855491,0.003500791214649852,-0.292887022412679,-0.03587524987664237,-0.07507719857690949,0.02316319850081785,0.94337659471463,-0.3316684163725497,0.0041724125829617825,0.0,-0.33161874794122154,-0.94335517424268,-0.009527231742111172,0.0,0.0070960854851674915,0.007604263606912409,-0.9999459089099688,0.0,0.34298733651892993,-0.15772841317631603,0.3053230288999394,1.0,-0.29302228571436006,-0.3851150040817305,-1.235400911342048,2.174999999999873
-0.31406668174053326,-0.5143382386753905,-0.13686344275285886,-2.638983039549299,-0.06774692290345603,2.1308420989122734,0.7466637033383968,-1.2156994740480618,-0.3262275415913268,0.015706488186037336,-0.2668626270910387,-0.04227238671765955,-0.08647577954388316,0.0031547086984801253,0.936282094355996,-0.35119955381147666,0.00393193237193064,0.0,-0.3511513066122247,-0.9362600499616556,-0.009519748501608121,0.0,0.007024777873894161,0.007532611901034769,-0.9999469547199846,0.0,0.3380076989593958,-0.16418696753453513,0.305259931361641,1.0,-0.28307485714293257,-0.37204124081642576,-1.1907569563614815,2.191999999999871
-0.33490490271950263,-0.5194431008315323,-0.13679166760508196,-2.6430265082699607,-0.06830450066375526,2.129567755575082,0.7467308372478321,-1.214728355525293,-0.28932381909759625,0.009673954527233967,-0.21903284658574987,-0.03612773664748477,-0.06598831493663963,-0.0002833568922414862,0.9285567320305356,-0.37114589728501257,0.00372360450147221,0.0,-0.37109833715748974,-0.9285338225331716,-0.009576610678689227,0.0,0.007011947486362691,0.007510747482167235,-0.9999472092389217,0.0,0.33291928583083186,-0.17080930374304928,0.30519683955085913,1.0,-0.27254228571436206,-0.35819843265316165,-1.1434868863820569,2.2099999999998694
-0.355083806081308,-0.5238582069551116,-0.13655651048764877,-2.6463987584521727,-0.06875217780365912,2.1285486935346163,0.7466217459651879,-1.1941811192469245,-0.24480000061227247,0.007362704650986913,-0.19020441000033914,-0.02021257553262698,-0.0652338468378657,-0.014255864291133923,0.9216234091406812,-0.3880424717078343,0.0037521695046195476,0.0,-0.3879943016323086,-0.9216015881507873,-0.009575046736808212,0.0,0.007173668292281721,0.007368908704034838,-0.9999471174355893,0.0,0.3286353070834565,-0.17646599282124315,0.3052033514897595,1.0,-0.26318000000007735,-0.34589371428581606,-1.1014690464003474,2.2259999999998676
-0.37355196152175263,-0.5273996557041444,-0.13632873812451463,-2.649112196231401,-0.06908998605163758,2.12768114921777,0.7461751696455051,-1.1487594306582456,-0.20678871208792993,0.015478596728119335,-0.16256401027633544,-0.012792517371028586,-0.05559128758668137,-0.04052830324490311,0.914710893210918,-0.4040678930789153,0.0037237783579884658,0.0,-0.40401965434081855,-0.914689808006026,-0.009561429675184011,0.0,0.007269708819421294,0.007241603656835266,-0.9999473538692716,0.0,0.3244851294657054,-0.18192549041271597,0.3051977368238178,1.0,-0.2538177142857927,-0.33358899591847047,-1.0594512064186377,2.241999999999866
-0.39371337989230043,-0.5306433066642204,-0.13605222703202918,-2.6517385554910278,-0.06939433400604504,2.1268238558779675,0.7454505563014369,-1.1108813906391128,-0.16458791187657917,0.0210889973176397,-0.13230316924788693,-0.011889161173892054,-0.04831970003991031,-0.04610044862116328,0.9073760987732823,-0.4202821450822798,0.003504397412424683,0.0,-0.42023535499339026,-0.9073545202770423,-0.009527216151942606,0.0,0.00718398798804204,0.0071722346212130805,-0.9999484733560654,0.0,0.32020405991998324,-0.18750387815966618,0.3051223465357479,1.0,-0.24387028571436523,-0.32051523265316584,-1.014807251438071,2.258999999999864
-0.41106807955916963,-0.5331126696637966,-0.1358681447136603,-2.6536540992321695,-0.06956088143108607,2.1262383477350326,0.7446249700255634,-1.088810548814883,-0.14469587784283502,0.012300468149527191,-0.10920875619795549,-0.013639304958212136,-0.029339418763570525,-0.051252095977047794,0.9000138560898446,-0.43582527811297384,0.003483203302421148,0.0,-0.43577802448518066,-0.8999926896154458,-0.009561323954231808,0.0,0.007302064767479077,0.007087557044798992,-0.9999482218521459,0.0,0.31608828638845643,-0.19291544739521524,0.3051041463111157,1.0,-0.23392285714293776,-0.3074414693878611,-0.9701632964575047,2.275999999999862
-0.4288097904738967,-0.5352147219696939,-0.13551792202065208,-2.6552669392485626,-0.06966598813845278,2.1257225724598023,0.7435376615381923,-1.0324892257717762,-0.1196550692572444,0.019399691132019867,-0.08623511734080837,-0.00509427514994247,-0.024581502988720694,-0.06808935102694719,0.8928439629652166,-0.4503313286141986,0.00347838559468608,0.0,-0.45028408868639846,-0.8928238253343068,-0.009518576179399649,0.0,0.007392240913564607,0.006932475061825566,-0.9999486464633035,0.0,0.3121813422873671,-0.19805682526240717,0.3051000016102354,1.0,-0.22397542857151026,-0.29436770612255647,-0.9255193414769382,2.2929999999998603
-0.44595663756249804,-0.5369395714120131,-0.1352368147437179,-2.6565389568119566,-0.06969592817151754,2.125306722901167,0.7423613645579612,-0.9911762322897746,-0.09104488519689635,0.03099295063009845,-0.06638469567060441,0.0007309690334294104,-0.02814096130055369,-0.06827951950269705,0.8857002418452217,-0.46422334792979913,0.0035371928661999106,0.0,-0.4641753275417019,-0.885681222767747,-0.00952805538349274,0.0,0.0075561165509452355,0.0067972541684337695,-0.999948349885352,0.0,0.30840696509927606,-0.20302373166882678,0.30511970384570586,1.0,-0.2140280000000828,-0.28129394285725173,-0.8808753864963716,2.3099999999998584
-0.4614374128193385,-0.5381152236128774,-0.13497880245770633,-2.6574449005535397,-0.06969256074456541,2.124979724383609,0.7411664765817185,-0.9655095506413446,-0.06422604320311485,0.010480381058313277,-0.05056719804264393,0.0006533082441222124,-0.02057964833134295,-0.0745540863553666,0.8791144385766956,-0.4765776907620782,0.0035007792096511674,0.0,-0.4765296857485566,-0.8790958446798047,-0.00952372659680556,0.0,0.00761646272581018,0.006704349423160255,-0.9999485192720465,0.0,0.3049989638032189,-0.2074949703041871,0.30511268177063666,1.0,-0.2046657142857981,-0.26898922448990614,-0.8388575465146619,2.3259999999998566
-0.47804759815812925,-0.5390567217184157,-0.1345736239062319,-2.658177026867853,-0.06964208009764701,2.1246998051163004,0.7396756977739762,-0.8946014373581872,-0.04255294320743413,0.01811652731241737,-0.03632325616337766,0.00199323547635062,-0.015379038077047037,-0.08593038435345324,0.8719922668755795,-0.48948777492721973,0.0034571096592611247,0.0,-0.4894402910935285,-0.8719744780394083,-0.009458224114060661,0.0,0.0076443436443170976,0.006555575743013492,-0.9999492929328593,0.0,0.3013646830552357,-0.21224858510497197,0.3051072731431928,1.0,-0.19413314285722785,-0.25514641632664237,-0.7915874765352385,2.3439999999998546
-0.49221896004750154,-0.5395816291058957,-0.13427400986726834,-2.6585730039676467,-0.0695759087218212,2.124539521873372,0.7383880469306223,-0.868640379938464,-0.023161021732896043,0.019546637933860266,-0.015763497208836227,0.000533801780583449,-0.01128246650551616,-0.086441768241519,0.8657394922961918,-0.5004637786591302,0.0034474091961482567,0.0,-0.500416480493757,-0.8657225173432836,-0.009413602724631251,0.0,0.007695815126255723,0.006424710962336794,-0.9999497474966395,0.0,0.2982658924072133,-0.21631876999259317,0.30511127553945044,1.0,-0.18477085714294317,-0.2428416979592968,-0.7495696365535289,2.359999999999853
-0.506322689887039,-0.5398062853303678,-0.13379262645880746,-2.658791136570497,-0.06938355602150521,2.1244470772327495,0.7368343414707541,-0.8131341525971951,-0.009027838531512013,0.031580130180096526,-0.011320078145598558,0.004749406569162795,-0.004521894094879903,-0.08418548066166075,0.8595586164774668,-0.5110070712341804,0.003391885790683348,0.0,-0.5109603772929189,-0.8595421649693743,-0.00935448436031067,0.0,0.0076958246801940855,0.006307729834612308,-0.9999504921879009,0.0,0.29522002045311996,-0.22030995697128145,0.30509778383696584,1.0,-0.17482342857151567,-0.2297679346939921,-0.7049256815729624,2.376999999999851
-0.5199438143153993,-0.5398639809438277,-0.13341811617100283,-2.658853986953325,-0.06918093711964195,2.1244532105127,0.7353064950297502,-0.7779366528989292,-0.000138443162141854,0.03301173068237222,0.0008788097921572191,0.01384746802809359,5.250388610947361e-05,-0.0900411415354793,0.8534304777431457,-0.5211770006750928,0.0034206034012387357,0.0,-0.5211300795310737,-0.8534149191063588,-0.009336110315985578,0.0,0.007785109834909043,0.006185260850140706,-0.999950566084681,0.0,0.2922627386623956,-0.22418641860263394,0.3051003954436865,1.0,-0.1648760000000882,-0.2166941714286874,-0.6602817265923959,2.393999999999849
-0.5325905116193277,-0.5397130403119406,-0.13291784572797957,-2.658817962177328,-0.06887830787785412,2.1244664121282177,0.7337057718255559,-0.7274577267147324,0.011076440307615433,0.027404337187316836,0.005091031790820142,0.007503131925282598,0.0024799867199390684,-0.10017949311341345,0.8477640628374206,-0.5303447961781589,0.003352287181235715,0.0,-0.5302982273764114,-0.8477485545402059,-0.009323369435774671,0.0,0.00778664699248971,0.006126423554978444,-0.9999509163269162,0.0,0.2895291304999716,-0.2277213859160181,0.3050759984126024,1.0,-0.15492857142866073,-0.20362040816338273,-0.6156377716118293,2.4109999999998473
-0.5447213514030017,-0.5394502750392245,-0.13252398096451637,-2.658666684514137,-0.06859904656488111,2.1244928478738023,0.7321565841132534,-0.694229561344212,0.01906196384555946,0.028449244601500303,0.007526366838724138,0.012483402805231301,0.0016341327692662067,-0.0870940364492663,0.8422025878083084,-0.5391332649985376,0.0032970535653526587,0.0,-0.5390868033084057,-0.8421870787819923,-0.009332187984967598,0.0,0.00780817922035365,0.006082311907322779,-0.99995101770993,0.0,0.2868783938624754,-0.2311293790955571,0.30506191851329956,1.0,-0.14498114285723324,-0.19054664489807804,-0.5709938166312628,2.4279999999998454
-0.5551803435160272,-0.5390337070355175,-0.1320497995612157,-2.6584165781506695,-0.06826693422788728,2.124626485289903,0.7306029090383779,-0.6426222310401742,0.027896959540379927,0.029446313750082075,0.017166132140534893,0.01631338927043041,0.0018918275656488834,-0.1000597262418275,0.8374854809229391,-0.5464320171527202,0.0032964791658901993,0.0,-0.546385468514831,-0.8374704043481354,-0.009326764605565111,0.0,0.007857297814241826,0.006009997338714934,-0.9999510702044612,0.0,0.28463791870886757,-0.23404121028603858,0.3050484111176329,1.0,-0.13561885714294858,-0.17824192653073245,-0.5289759766495532,2.4439999999998436
-0.5658697542758008,-0.5384915148387659,-0.13165265303835771,-2.658068998869785,-0.0679411033512502,2.124762255553671,0.7289589682273774,-0.6185634049806151,0.036939176659289315,0.02264331050511836,0.0181549096179679,0.021450454986367308,0.009855886091919161,-0.08910907194070165,0.8325891682709409,-0.5538640065089167,0.003268955949810525,0.0,-0.5538173548762578,-0.8325741876715875,-0.009343787351460995,0.0,0.007896987884383144,0.005969246528615413,-0.9999510016386974,0.0,0.2823191430514765,-0.23703639585820202,0.3050317555055874,1.0,-0.12567142857152108,-0.16516816326542777,-0.4843320216689867,2.4609999999998418
-0.5755866865919786,-0.5378161505176232,-0.1311560688690635,-2.657592996333829,-0.06758034958705209,2.124939782687019,0.7273335947613183,-0.5445058468309207,0.039296413220625576,0.03570665782671516,0.032070691396203124,0.027646960512905605,0.004592303017558958,-0.10614776992364258,0.8281945209583788,-0.5604139758508021,0.003279943113262821,0.0,-0.5603673071694872,-0.8281801181118728,-0.009323085381464069,0.0,0.007941323915858722,0.005883468616310228,-0.9999511588930253,0.0,0.28025986638261075,-0.23974405297719342,0.3050312650640059,1.0,-0.11572400000009361,-0.1520944000001231,-0.4396880666884202,2.47799999999984
-0.5840973694092153,-0.5371396893050252,-0.13075798109143605,-2.657149711858025,-0.06725522792850178,2.125081056149735,0.7258514145480154,-0.5238163131633862,0.0427823138888742,0.028791663959817734,0.028319191375594993,0.016656472734541305,0.007404387454255793,-0.09165523591607003,0.8240807759213122,-0.5664461293910483,0.003225547401022325,0.0,-0.5663996195375445,-0.8240662405689225,-0.00933000769214962,0.0,0.007943164395473046,0.005861844016220974,-0.9999512712748136,0.0,0.2783197193010386,-0.2422537371544839,0.3050121529292401,1.0,-0.10577657142866614,-0.1390206367348184,-0.3950441117078536,2.494999999999838
-0.5930121956419497,-0.5364118065843549,-0.13034431632987592,-2.6566015994174745,-0.06687224038810417,2.125255392945058,0.7241634144761111,-0.4748509758048227,0.03547515422931067,0.021360514141281393,0.02867316507189814,0.023455144771417077,0.01566349441508375,-0.09747344416790062,0.8202688443073362,-0.5719521312371392,0.0032449242225320377,0.0,-0.5719051529734155,-0.8202545871418538,-0.009362434320731045,0.0,0.008016682587751234,0.005824036427043877,-0.9999509054948565,0.0,0.2765195861246654,-0.2445965267997546,0.30502010313030137,1.0,-0.09582914285723865,-0.12594687346951372,-0.3504001567272872,2.511999999999836
-0.6000042391836403,-0.5356783304818125,-0.12987543771778484,-2.6560700278920266,-0.06650622024272451,2.1254270854812716,0.7226232431372877,-0.4233296601980685,0.04141333278490126,0.031664475025849,0.03140064295045774,0.020996227067359544,0.010170055615556173,-0.0971280506450639,0.8172389127232796,-0.5762731713873592,0.0032462857599941113,0.0,-0.5762261611444409,-0.8172249508943799,-0.009356161051827669,0.0,0.0080448052095774,0.005775735304602736,-0.9999509597929446,0.0,0.27506660419997303,-0.2465228603370829,0.30502197725815544,1.0,-0.08646685714295399,-0.11364215510216813,-0.3083823167455775,2.5279999999998344
-0.6067369243411711,-0.5349612294280032,-0.12938734959282797,-2.6555578069710455,-0.06613765108293844,2.12558797944763,0.721035518976664,-0.3806695541789998,0.03503578717442404,0.027167100743449805,0.030379490540380173,0.025082485792900015,0.0060388644526541855,-0.09935726454121785,0.8143741877102966,-0.5803145406689212,0.003234684006593284,0.0,-0.5802676150399984,-0.814360426979545,-0.009345416346725866,0.0,0.008057634777801526,0.005733793865565273,-0.9999510978691384,0.0,0.2736629706974107,-0.24835909298899003,0.30502029837404043,1.0,-0.0765194285715265,-0.10056839183686345,-0.26373836176501086,2.5449999999998325
-0.6128166625667238,-0.5342801592092089,-0.12889016903800654,-2.6550445853636355,-0.06578320825114405,2.1257563440526157,0.7194016964586394,-0.34118563122490564,0.039899585704951675,0.025983441254955938,0.029195241388003296,0.02371362932606713,0.004388096976838343,-0.09796587902284139,0.8119066571999666,-0.5837616396586953,0.003267255511211352,0.0,-0.5837146910025249,-0.811893513331045,-0.009318230519106466,0.0,0.008092444887139782,0.005658497294240783,-0.999951245683568,0.0,0.272413490192799,-0.25001078602221266,0.30503293830267414,1.0,-0.06657200000009877,-0.08749462857155843,-0.21909440678444336,2.561999999999831
-0.61810680003972,-0.5336199737781803,-0.12844816317421048,-2.6545624224890814,-0.06543087504278823,2.125914050194263,0.7178440237764515,-0.30041377574570227,0.038853692820504465,0.025964577975945008,0.02712443593977898,0.01629937280573875,0.0015010958064000783,-0.09060640889616967,0.8098174700427501,-0.5866563443793571,0.0032780656212075448,0.0,-0.5866092573785655,-0.8098045602092458,-0.00932203428906182,0.0,0.008123579450996676,0.005626310907844878,-0.9999511748492881,0.0,0.27133261018809246,-0.25144563037118217,0.30503654574031425,1.0,-0.05662457142867128,-0.07442086530625375,-0.17445045180387675,2.578999999999829
-0.6223593388289462,-0.5330926723634187,-0.12798308399464273,-2.6541871085511475,-0.06511286284422955,2.1260367241327787,0.7163101703612941,-0.2473501815789544,0.030160011339057317,0.031600506050940703,0.024390608893807193,0.022397370650738796,0.011210622707364705,-0.08765722861432329,0.8083420148586955,-0.5886876791796539,0.003278764624945002,0.0,-0.5886407368447453,-0.8083293534399264,-0.009299795453361273,0.0,0.008125153126024187,0.00558750854662976,-0.99995137963549,0.0,0.270480823024942,-0.2525642697565017,0.30503727774297995,1.0,-0.04726228571438662,-0.06211614693890816,-0.13243261182216703,2.5949999999998274
-0.6261071236202784,-0.5326396168063124,-0.12746030477672457,-2.6538624841837417,-0.06477738813315256,2.126125978899129,0.7147474690775611,-0.21118918005876955,0.027277526375758872,0.025487598819308666,0.01438555561276276,0.016534476089330324,0.0014591289881688086,-0.09368987489698194,0.8072027552487508,-0.5902488941589528,0.003271355096395752,0.0,-0.5902021992942033,-0.8071902822876336,-0.009271409272819494,0.0,0.008113201318566077,0.005553253054823293,-0.9999516675044218,0.0,0.2697506493579263,-0.25351329948902296,0.305040396773398,1.0,-0.037314857142959124,-0.049042383673603474,-0.08778865684160064,2.6119999999998256
-0.6291697177922815,-0.5322767101416521,-0.12696978251857796,-2.6535721765147926,-0.06446231152276295,2.1262025267577154,0.7131667675983443,-0.16290667044746887,0.018197865985542367,0.02589921409365421,0.01214066519956509,0.013297324965078983,0.006837381473692862,-0.09335375693538243,0.8064677014999422,-0.5912526215034803,0.0033061917474188824,0.0,-0.5912059149959135,-0.8064557031310411,-0.009247262431180984,0.0,0.008133921947720057,0.005503084312282414,-0.9999517765256485,0.0,0.2691749906721529,-0.25427608189146794,0.30505887993357284,1.0,-0.027367428571531627,-0.03596862040829879,-0.04314470186103403,2.6289999999998237
-0.6315203573347897,-0.5319690539779655,-0.12652929657228398,-2.6533560002995893,-0.0641465500783032,2.12627951610801,0.7116288917185973,-0.12141221610455978,0.01718225274832076,0.01955367937183947,0.008253753067820963,0.019930992198399618,0.0007412791751401043,-0.09034978035114723,0.8061046667567566,-0.5917473896120994,0.0033226527733927116,0.0,-0.5917005026249933,-0.8060927754019601,-0.009257404566283383,0.0,0.008156568421700205,0.005496527532059092,-0.9999516281184161,0.0,0.2687523175255942,-0.2548394624982392,0.3050625025636754,1.0,-0.019892500000003577,-0.026144428571433277,-0.009946250000001789,2.645999999999822
-0.6333950914782328,-0.5317163978614964,-0.126233394857762,-2.6531815641853593,-0.0639045702631269,2.1262915547166075,0.7100443922407736,-0.09802232330262352,0.012444159505445564,0.01672033946320307,0.005980216034449387,0.01285543495461458,-0.00033477633478622913,-0.08963672534628375,0.8060019624186866,-0.5918874882197093,0.0032840169607366216,0.0,-0.5918405659140934,-0.8059895974095596,-0.009287642718686219,0.0,0.008144279830939627,0.00554235050841273,-0.9999514753511178,0.0,0.26839428660445636,-0.2552950583323832,0.3050578888200015,1.0,-0.019552500000003612,-0.02569757142857618,-0.009776250000001806,2.66299999999982
