nelsonifechukwu/NELSON_IML_WORK/CNN-GradCAM/train2dof/data_sample_2022-02-21-09-08-52/robot_state.csv
position_joint1,position_joint2,position_joint3,position_joint4,position_joint5,position_joint6,position_joint7,velocity_joint1,velocity_joint2,velocity_joint3,velocity_joint4,velocity_joint5,velocity_joint6,velocity_joint7,ee_T_00,ee_T_10,ee_T_20,ee_T_30,ee_T_01,ee_T_11,ee_T_21,ee_T_31,ee_T_02,ee_T_12,ee_T_22,ee_T_32,ee_T_03,ee_T_13,ee_T_23,ee_T_33,v_x,v_y,time
0.465084460185,0.547604314825,-0.12399450684,-1.35574476031,0.0794270790153,1.8940883379,0.159160162676,-0.00051038152003,0.00331579505864,0.00262907869289,0.00116280839118,0.000440957246435,0.000441794201406,-0.00153492105631,0.573777361478,0.81899681816,0.00212089607995,0.0,0.818956660328,-0.573718873624,-0.0117213246818,0.0,-0.00838309090942,0.00846251564914,-0.999929052291,0.0,0.661702232809,0.260894336891,0.303380681177,1.0,0.0,0.0,0.0
0.465087524842,0.547598452147,-0.123994559452,-1.35574214245,0.0794269605419,1.89408366848,0.159157818657,-0.000498644127801,-0.00021037263883,0.000616189841603,0.000215978599072,0.000318150031159,5.15560730669e-05,-0.00129521022749,0.573772751183,0.819000039024,0.00212437736573,0.0,0.818959924097,-0.57371424828,-0.011719681945,0.0,-0.00837979574386,0.00846437704423,-0.999929064156,0.0,0.661701275683,0.260896386086,0.303385676294,1.0,-0.00016,-0.000210285714286,0.009
0.465082184544,0.547594900554,-0.123997038801,-1.35574782059,0.0794257565849,1.89408740534,0.159160503918,0.000163421492205,-0.00119341658573,-0.000545259459547,5.61931643399e-05,-0.000141801724206,0.000225449717074,-0.00118941499392,0.573781066917,0.818994212707,0.00212454742164,0.0,0.818954122685,-0.573722585287,-0.0117169522704,0.0,-0.00837737655113,0.00846303518414,-0.999929095785,0.0,0.661702843649,0.260890849167,0.303385894138,1.0,-0.00036,-0.000473142857143,0.019
0.465081600559,0.547587294056,-0.123997757976,-1.35575989448,0.0794270390366,1.89408522561,0.159166653254,-0.000576443137897,-0.00242089634494,-0.00124918462854,-0.00559991757607,0.000183130538843,-0.000440960911306,0.0014695003729,0.573788054796,0.818989328806,0.00211999429651,0.0,0.818949157625,-0.573729567435,-0.0117220978039,0.0,-0.0083841310224,0.00846233016638,-0.99992904514,0.0,0.661700087076,0.260888771714,0.303385372234,1.0,-0.0007,-0.00092,0.036
0.465081134823,0.547543968353,-0.123999997253,-1.35580228925,0.0794228138093,1.89409343036,0.159158113061,-0.00104986229396,-0.00433663815251,-0.00208868869501,-0.0074490048022,0.000264009405988,-0.000367734368639,6.35313511023e-05,0.573784181229,0.818992024243,0.00212708695266,0.0,0.818951961065,-0.573725683355,-0.0117163401926,0.0,-0.00837538600772,0.00846479566919,-0.999929097558,0.0,0.661694022877,0.260882577601,0.303396664204,1.0,-0.00104,-0.00136685714286,0.053
0.46508892131,0.547400717371,-0.123994673499,-1.35594400061,0.0794237049951,1.89412219976,0.159156847993,0.000651039789214,-0.000472623546017,-0.000708019032226,-0.0103961362308,0.000436529975375,0.00459679024084,-0.00157587801283,0.573780960168,0.818994190451,0.00216163332806,0.0,0.818954435129,-0.573722188868,-0.0117145244783,0.0,-0.00835411132962,0.00849201380177,-0.999929044745,0.0,0.661667753706,0.260877971564,0.303433013112,1.0,-0.00136,-0.00178742857143,0.069
0.465071915331,0.547250207469,-0.123994888291,-1.35615080606,0.0794180989989,1.89418271855,0.15915131043,-0.000482040196635,-0.00622998302667,-0.00163561644363,-0.0119417329641,0.000120893862577,0.00847918059907,-0.000789317349693,0.573800456003,0.818980509886,0.0021697967517,0.0,0.818940781047,-0.573741570518,-0.0117198250274,0.0,-0.0083535665127,0.00850193968021,-0.999928964951,0.0,0.661641184231,0.26084722413,0.303446444363,1.0,-0.00172,-0.00226057142857,0.087
0.465055218651,0.547072865549,-0.123992439692,-1.3563629562,0.0794099803388,1.89429929091,0.159149088157,-0.00182754160598,-0.0105238469198,0.000998845948323,-0.0143803772181,-6.53511546603e-05,0.00509336621256,0.000967263697718,0.57382050093,0.818966271497,0.00224182176044,0.0,0.818927473676,-0.57376133902,-0.0116818494208,0.0,-0.0082809294428,0.00853933852588,-0.99992925045,0.0,0.661624723291,0.260821353686,0.303481111811,1.0,-0.00206,-0.00270742857143,0.104
0.465033290831,0.546882246305,-0.123989934078,-1.35657903784,0.0794045962152,1.89441368839,0.15912921566,-0.000948686095708,-0.0160793762821,0.000193455941502,-0.0112753359189,6.54772595376e-05,0.00228010391036,-0.000958224593415,0.573831225836,0.81895853268,0.00232226349156,0.0,0.818920743279,-0.57377173173,-0.0116431523391,0.0,-0.00820296774287,0.00858311937559,-0.999929518207,0.0,0.661608465145,0.260792057719,0.30352312023,1.0,-0.00238,-0.003128,0.12
0.46500917973,0.54667491967,-0.123992439407,-1.35685507969,0.0793935807245,1.89454323147,0.159109897959,-0.0015196438748,-0.0133305743676,-0.000438300855929,-0.0180485628323,0.000174661590244,0.00892170388512,-0.00142667782846,0.573849549431,0.818945539279,0.00237596585983,0.0,0.818908444368,-0.57378985881,-0.0116148426688,0.0,-0.00814877536701,0.00861103652752,-0.999929721285,0.0,0.661583941466,0.260751630734,0.303549882812,1.0,-0.0027,-0.00354857142857,0.136
0.464971726154,0.546415643619,-0.123989934079,-1.35723508865,0.0793784224848,1.89467740309,0.159064753501,0.000489481679054,-0.015502528572,0.000904993912336,-0.0213262549664,-0.000171334975232,0.0123703358627,-0.00568674150083,0.573858666049,0.818939102013,0.00239280098806,0.0,0.818902136542,-0.573798820625,-0.0116168462815,0.0,-0.00814066001002,0.00862606383072,-0.999929657865,0.0,0.661540402432,0.260693254322,0.303564161785,1.0,-0.00304,-0.00399542857143,0.153
0.464927032765,0.54612202238,-0.12399210002,-1.35769402236,0.0793502065434,1.89484084052,0.158932028318,-0.00355219966214,-0.0192914024337,0.000508933100661,-0.0284502911406,-0.00226402321764,0.00854454716433,-0.00546388683451,0.573806231686,0.818975846563,0.0023912603214,0.0,0.818938858408,-0.57374639528,-0.0116175295869,0.0,-0.00814265591018,0.0086246729232,-0.999929653612,0.0,0.661489159237,0.26061833933,0.303567849622,1.0,-0.0034,-0.00446857142857,0.171
0.46488344789,0.545848188846,-0.123997795434,-1.35816652402,0.0793157475785,1.89500117054,0.158925063259,-0.00234248374085,-0.0171584407489,-0.00116132654473,-0.0270302415585,0.000326644884797,0.0122822392074,-0.00328173310728,0.573857438781,0.81894007777,0.00235284478137,0.0,0.818902652723,-0.573797797626,-0.0116309803506,0.0,-0.0081751761966,0.0086014410318,-0.999929588374,0.0,0.661434493408,0.260539020705,0.303550883611,1.0,-0.00372,-0.00488914285714,0.187
0.464831391653,0.545510790971,-0.123995632094,-1.35872213745,0.0792799822272,1.89518729963,0.158858983253,-0.00582660761621,-0.0202528236045,-1.07563833768e-06,-0.0321008503983,-0.00284930454775,0.012730563906,-0.00255601335218,0.573865898982,0.818934229568,0.00232476405493,0.0,0.818896420506,-0.573806337079,-0.011648472496,0.0,-0.00820552648402,0.00858856746032,-0.999929450433,0.0,0.661367995623,0.260451161292,0.303541321198,1.0,-0.00406,-0.005336,0.204
0.464770434658,0.545137395385,-0.123996585616,-1.35936687489,0.0792485194229,1.8954004182,0.158748694112,-0.00287514346452,-0.0182888627603,-0.00435379242235,-0.0412439426564,-0.000618120678293,0.0107956758137,-0.00165470341614,0.573853723532,0.818942889992,0.00227899549079,0.0,0.818904385507,-0.573794224516,-0.0116851277594,0.0,-0.00826193691478,0.00857199851417,-0.999929128109,0.0,0.661290088057,0.260348035158,0.303517249646,1.0,-0.0044,-0.00578285714286,0.221
0.464705736822,0.544745727757,-0.123998009191,-1.36001094198,0.0792156603197,1.89561371318,0.158699760207,-0.0034359398111,-0.0227521838104,0.000256747428596,-0.037033785194,-0.00023816109079,0.0127336674632,-0.00108191161279,0.573894711279,0.81891425188,0.00224840714459,0.0,0.818875269951,-0.573835237739,-0.011711494051,0.0,-0.00830065395417,0.00856249435911,-0.999928888889,0.0,0.661213936089,0.260242275151,0.303506427949,1.0,-0.00472,-0.00620342857143,0.237
0.464637140234,0.54432783288,-0.124007077758,-1.36073882339,0.0791793786703,1.89586573408,0.158587547773,-0.00936735897699,-0.0217495160044,-0.00135367567836,-0.0401410741986,6.44441696743e-05,0.02123523681,-0.0129779345532,0.573896265766,0.818913293268,0.002200261368,0.0,0.818873631023,-0.573836917181,-0.0117437556357,0.0,-0.00835468725615,0.00854159797322,-0.999928617605,0.0,0.661129807672,0.260121983203,0.303477852032,1.0,-0.00506,-0.00665028571429,0.254
0.464572066549,0.543856452216,-0.124001539782,-1.36151541153,0.0791356269898,1.89614662318,0.158493009954,-0.00500047790934,-0.0257331005082,0.00124188467042,-0.0472160303952,-0.000473873364771,0.0193288250841,-0.0109536757577,0.57389990079,0.818910795356,0.00218174793289,0.0,0.818870821346,-0.573840549844,-0.0117621513443,0.0,-0.00838033862655,0.00853703157568,-0.999928441948,0.0,0.66103769716,0.260008160744,0.303465911883,1.0,-0.0054,-0.00709714285714,0.271
0.464498337265,0.543346562343,-0.124005596776,-1.36235525019,0.0790857907288,1.89643251278,0.158400447569,-0.00563141703224,-0.0319562427116,-0.00129517862848,-0.0509217907777,-0.00176657082029,0.0149627352758,-0.00441967287843,0.573920694724,0.818896323691,0.00214338841153,0.0,0.818855823596,-0.573861461537,-0.0117860097713,0.0,-0.00842167420952,0.00851952502621,-0.999928243974,0.0,0.660937717025,0.259875415332,0.303451800459,1.0,-0.00574,-0.007544,0.288
0.464427155108,0.54280595682,-0.124008385663,-1.36322886267,0.0790350120603,1.8967474352,0.158279323438,-0.00392762838749,-0.0364657529874,0.0013781736019,-0.0549721134875,-0.000818766686931,0.0225400694824,-0.00837634684962,0.573916799068,0.818899094293,0.0021279134396,0.0,0.81885836836,-0.573857601822,-0.0117971309832,0.0,-0.0084397030645,0.00851319528461,-0.999928145878,0.0,0.660835534314,0.259743309088,0.303445761004,1.0,-0.00608,-0.00799085714286,0.305
0.464352016826,0.542227897637,-0.124014121879,-1.36413018293,0.0789771400603,1.89707498444,0.15816750442,-0.00584945606027,-0.0303719931811,-0.000853026093396,-0.0507271837432,-0.00553207452252,0.024513408923,-0.00803889846529,0.573925399264,0.818893066433,0.00212808115925,0.0,0.818852386211,-0.573866244222,-0.0117919566367,0.0,-0.00843527999249,0.00851045160869,-0.999928206555,0.0,0.660732436323,0.25960380132,0.303454133968,1.0,-0.00642,-0.00843771428571,0.322
0.46428807353,0.541653207599,-0.12401731542,-1.36502678139,0.078928710121,1.8974003661,0.158037546504,0.00125745256326,-0.0346373496902,-0.000369740027079,-0.0561793784458,-0.00228040483321,0.0191294533755,-0.00462223378744,0.573910758349,0.81890328182,0.00214554813348,0.0,0.818862758856,-0.573851466432,-0.0117908241328,0.0,-0.0084244808324,0.00852395439602,-0.999928182583,0.0,0.660620646089,0.259463768988,0.303470771241,1.0,-0.00676,-0.00888457142857,0.339
0.464191420485,0.540925744727,-0.124015522459,-1.3661555835,0.0788689292442,1.89781822022,0.157895370721,-0.00353517802609,-0.0429840421691,-0.000467313594889,-0.0668322418348,-0.00467883913337,0.0263681776541,-0.00700563383903,0.573918507189,0.818897833657,0.00215221725129,0.0,0.818857319246,-0.573859109214,-0.0117966262478,0.0,-0.00842532441771,0.00853282525816,-0.999928099816,0.0,0.660495767267,0.259306500774,0.303475202404,1.0,-0.00712,-0.00935771428571,0.357
0.464109197208,0.540280794627,-0.124017884677,-1.36715937228,0.0788042171591,1.89818641368,0.157772729873,-0.0026846239388,-0.0376404414419,0.000397467693402,-0.0631918707349,-0.00352427822332,0.0239646184155,-0.00836623993044,0.573925357081,0.818893020202,0.00215705028534,0.0,0.818852603085,-0.573865974361,-0.0117900293511,0.0,-0.00841707703463,0.00853306733442,-0.999928167208,0.0,0.66037985037,0.259154657966,0.303485243977,1.0,-0.00744,-0.00977828571429,0.373
0.464006556035,0.53953973798,-0.124020158549,-1.36827839258,0.0787457215064,1.89861210645,0.157628282348,-0.00423276650074,-0.050908567017,-0.00785692281759,-0.0686508668086,-0.00309518531752,0.0224725831122,-0.00634688115232,0.573939038074,0.818883312249,0.00220190737809,0.0,0.818843415101,-0.573879415985,-0.0117738845101,0.0,-0.00837796952736,0.00856067412685,-0.999928259669,0.0,0.660256043783,0.258981882094,0.303513253875,1.0,-0.00778,-0.0102251428571,0.39
0.463908566204,0.538838270492,-0.124018838685,-1.36938443323,0.0786816088346,1.89902909753,0.157497219056,-0.00685371694209,-0.044189090142,0.00119565506161,-0.0749269777892,-0.00111536781084,0.0230195603537,-0.00513927960556,0.57395507015,0.818872045008,0.00221320011587,0.0,0.818832263947,-0.573895371331,-0.011771711211,0.0,-0.00836954106989,0.00856883797204,-0.999928260326,0.0,0.660130524191,0.258813794982,0.303518475017,1.0,-0.0081,-0.0106457142857,0.406
0.463800982214,0.53806237388,-0.124029345254,-1.37057383288,0.0786168091988,1.89948766957,0.157344590026,-0.00761101863451,-0.0450648253966,-0.000516540155813,-0.0716745340643,-0.00101346423641,0.0260192818377,-0.0127466651015,0.573973971232,0.818858690788,0.0022520591215,0.0,0.818819417726,-0.573914125034,-0.0117509634386,0.0,-0.00833005037588,0.00858894225297,-0.999928417604,0.0,0.660000970417,0.258626316539,0.303540470496,1.0,-0.00844,-0.0110925714286,0.423
0.463694454928,0.537318648926,-0.124030755823,-1.37175162615,0.0785464362791,1.89993101636,0.157200903049,-0.00760826303498,-0.0426836258977,0.000865300774117,-0.0740338457791,-0.00148784509573,0.0248330817693,-0.00983813607616,0.573990678378,0.818846960937,0.00225889376811,0.0,0.818807774259,-0.573930801753,-0.0117477875604,0.0,-0.00832335168048,0.00859288576947,-0.999928439505,0.0,0.659867923969,0.258443849218,0.303543514858,1.0,-0.00876,-0.0115131428571,0.439
0.463577295854,0.536487817089,-0.124035426874,-1.37304405389,0.0784672571513,1.90042780257,0.157041073773,-0.00976160569969,-0.0477621300348,2.24911451477e-05,-0.0749948360706,-0.00349715217992,0.0311456706635,-0.0110916886284,0.574009055185,0.818834004107,0.00228586622456,0.0,0.818795211862,-0.573949120413,-0.0117283890839,0.0,-0.00829179252901,0.00860402351061,-0.999928605929,0.0,0.659724979153,0.258242226433,0.30355809293,1.0,-0.0091,-0.01196,0.456
0.463458786315,0.535625030252,-0.124042834186,-1.37441069438,0.0783863147396,1.9009201288,0.156880481316,-0.00899429285083,-0.0455892454954,0.00160191433102,-0.0826380118003,-0.00480889784604,0.0240241661232,-0.00797654464628,0.574033143869,0.818817148291,0.0022747102143,0.0,0.818778199862,-0.573973236274,-0.0117358583851,0.0,-0.00830405919124,0.00859942038478,-0.999928543732,0.0,0.65956552463,0.258029169289,0.303559447248,1.0,-0.00944,-0.0124068571429,0.473
0.463345730976,0.534775385857,-0.124045814298,-1.37574382051,0.0783049475964,1.9014033305,0.156721211155,-0.00812408798031,-0.0436444811862,-0.000524632915707,-0.0839481542277,-0.00339117050231,0.0320221873311,-0.0101644174981,0.574049710416,0.818805514986,0.00228155653282,0.0,0.818766653429,-0.573989772944,-0.0117326335731,0.0,-0.00829731470779,0.00860334295307,-0.999928565978,0.0,0.659402065577,0.257808685723,0.303569901697,1.0,-0.00978,-0.0128537142857,0.49
0.463233570539,0.533986094489,-0.124054775579,-1.37704624139,0.0782426022068,1.90187618477,0.156560902915,-0.00353170184907,-0.0500367807102,-0.00092737733382,-0.089364249968,-0.00721808423618,0.0317381381256,-0.00420138844278,0.574070219926,0.818791238953,0.00224421675134,0.0,0.81875175568,-0.574010280091,-0.0117689345764,0.0,-0.00834825776679,0.00859381672346,-0.999928223877,0.0,0.659255676001,0.257624013731,0.303544533206,1.0,-0.01006,-0.0132217142857,0.504
0.463082689078,0.532899625016,-0.124052478769,-1.3787769404,0.0781321128073,1.90253074938,0.156339557377,-0.00762505016461,-0.0532868087027,-0.000615107584409,-0.0857607449193,-0.00120781375672,0.0297720762954,-0.0059486098198,0.574075999909,0.818787174586,0.00224854673585,0.0,0.818747783887,-0.574016080247,-0.0117623509232,0.0,-0.00834032067231,0.00859364147867,-0.999928291618,0.0,0.659056499716,0.257361259494,0.303543581252,1.0,-0.01046,-0.0137474285714,0.524
0.462945485261,0.531868315557,-0.124055667245,-1.38042688905,0.0780574670548,1.90315070391,0.156132741642,-0.00307530414297,-0.0595508644873,-0.000136389450898,-0.0894136770841,-0.00858153699323,0.0293986184129,-0.00417255295593,0.574091421379,0.81877632738,0.00226108897291,0.0,0.818736883783,-0.574031229322,-0.011781756957,0.0,-0.00834884874985,0.0086152084069,-0.999928034865,0.0,0.658863025343,0.257116650867,0.303539160345,1.0,-0.01082,-0.0142205714286,0.542
0.462809209622,0.530865686729,-0.124055296079,-1.38203809187,0.0779409433452,1.90371911843,0.155928763051,-0.0101514443443,-0.0647407702398,0.000601551449946,-0.0904123953478,-0.00710383507037,0.0289438749922,-0.0148697080404,0.574091963486,0.818776069703,0.00221631327731,0.0,0.818736148231,-0.57403205058,-0.0117928532152,0.0,-0.00838363256174,0.00858492333973,-0.999928004306,0.0,0.658668330796,0.25686875163,0.303528064988,1.0,-0.01116,-0.0146674285714,0.559
0.462691059524,0.529959258378,-0.124059173658,-1.38349408789,0.0778495509468,1.90423649787,0.155727229215,-0.00724370965147,-0.0579293605015,-0.00183453920534,-0.0966968239824,-0.00512359749451,0.0325867259139,-0.0192627609885,0.574080887667,0.81878391673,0.00218609731871,0.0,0.818743597046,-0.574021087932,-0.0118093101293,0.0,-0.00841456924683,0.00856951741371,-0.999927876597,0.0,0.658491665109,0.256648094873,0.303518601864,1.0,-0.01146,-0.0150617142857,0.574
0.462544326304,0.52885100913,-0.124058854775,-1.38523929983,0.0777340775326,1.90488718772,0.155498300133,-0.00945994588562,-0.0648306262911,-0.00029849182102,-0.0956657403166,-0.0120900179573,0.0396978988966,-0.018025778442,0.574076980813,0.818786641499,0.00219150745798,0.0,0.818746458993,-0.574017228617,-0.0117984760971,0.0,-0.00840263335755,0.00856768746162,-0.99992799265,0.0,0.658286601863,0.256384548718,0.303524815718,1.0,-0.01182,-0.0155348571429,0.592
0.462415192091,0.527825989515,-0.124061240351,-1.38684738375,0.0776448898354,1.90551465891,0.155276133973,-0.0114161784483,-0.0600882305898,-0.000162363471492,-0.100300081689,-0.00681186338295,0.0357922181078,-0.0241255880663,0.574065801688,0.818794371531,0.00223145282038,0.0,0.818754667155,-0.574005854512,-0.0117822281194,0.0,-0.00836651616667,0.00859095204472,-0.99992809589,0.0,0.658100970412,0.256148870498,0.303535549138,1.0,-0.01214,-0.0159554285714,0.608
0.462272427549,0.52666176683,-0.124057049013,-1.38860893444,0.0775332260702,1.9061867899,0.155029873623,-0.0106023285758,-0.0711570494699,0.00187252513432,-0.100801378119,-0.00744468073546,0.0415187824739,-0.0195584161344,0.574043224462,0.818810029439,0.00229325974449,0.0,0.818771156635,-0.573983074406,-0.0117460742125,0.0,-0.00830167092608,0.00862057522197,-0.999928381407,0.0,0.65789470967,0.255891103166,0.30357455656,1.0,-0.01248,-0.0164022857143,0.625
0.462149223258,0.525634478524,-0.124064870583,-1.39022238324,0.0774313363384,1.90677165118,0.154821515299,-0.0118779555629,-0.0674988173595,-0.000517843830896,-0.106781590522,-0.0075267586875,0.0405367356279,-0.0178161245186,0.574038464326,0.818813381487,0.00228794077673,0.0,0.818774471685,-0.573978368199,-0.0117449673585,0.0,-0.00830386779991,0.00861553640253,-0.999928406593,0.0,0.657698844968,0.255650701356,0.303580276571,1.0,-0.01278,-0.0167965714286,0.64
0.461972026025,0.524322702475,-0.124071549801,-1.39230456662,0.0773027519545,1.90751258057,0.154540175884,-0.00857061454483,-0.0710598003612,0.00114787976432,-0.112325841216,-0.00267591518128,0.0374223582933,-0.01699685198,0.574035072419,0.818815836302,0.00226025573224,0.0,0.818776544642,-0.573975058505,-0.011762187659,0.0,-0.00833389556192,0.00860271825208,-0.999928267139,0.0,0.657445991189,0.255329871215,0.303576196149,1.0,-0.01316,-0.017296,0.659
0.461815846065,0.523134075832,-0.12407802208,-1.3942174195,0.0771794405233,1.90821890222,0.154282548017,-0.0106512930249,-0.0722555049903,0.00015339513858,-0.114763892814,-0.0117706074656,0.043369238356,-0.0175805698375,0.574025969323,0.818822278703,0.00223815624123,0.0,0.818782758185,-0.573966100802,-0.0117667722855,0.0,-0.00835043025666,0.00858716193688,-0.999928262909,0.0,0.657216399813,0.255039998057,0.303562775052,1.0,-0.0135,-0.0177428571429,0.676
0.461665656714,0.521963095614,-0.124080835828,-1.39604466192,0.0770695539165,1.90893064904,0.154027128834,-0.00861941379726,-0.0712840988955,-1.4571998632e-05,-0.115375298519,-0.00237396807069,0.0438035694311,-0.0143362599741,0.574010181949,0.818833220816,0.00228350778536,0.0,0.818794312682,-0.573950167455,-0.0117399190807,0.0,-0.0083025759275,0.00860872201978,-0.999928476011,0.0,0.657003888734,0.254768658246,0.303577731468,1.0,-0.01382,-0.0181634285714,0.692
0.461513969513,0.520807295173,-0.124087918192,-1.39793557033,0.0769545089304,1.90965281289,0.153779314799,-0.00992810686824,-0.0701970409151,-0.00114110670896,-0.117778430255,-0.00605693953879,0.042165750273,-0.0177272571621,0.574006657819,0.81883573502,0.00226775990881,0.0,0.818796651908,-0.573946733723,-0.0117446402138,0.0,-0.00831551780894,0.00859850144485,-0.999928456409,0.0,0.656779084973,0.254486012272,0.303552500939,1.0,-0.01414,-0.018584,0.708
0.461326383968,0.519335776175,-0.124093681949,-1.40021361962,0.0768007958782,1.91048259378,0.153467762423,-0.00964356608303,-0.079505109178,-0.0011622064476,-0.118963152348,-0.00807560715623,0.0446253287648,-0.0184493516733,0.573988805002,0.818848220331,0.00227830982921,0.0,0.818809380296,-0.573928953228,-0.0117261369127,0.0,-0.0082944980617,0.00859633827934,-0.99992864959,0.0,0.656502898768,0.254139904908,0.3035735339,1.0,-0.01452,-0.0190834285714,0.727
0.461152181801,0.518080353727,-0.124096181694,-1.40218857523,0.0766741321658,1.91119044873,0.153195396408,-0.0141841670537,-0.0755796620406,-0.000162517014415,-0.127983213178,-0.00641356328089,0.0547695923534,-0.0256120165943,0.573980658259,0.81885396883,0.00226463628454,0.0,0.81881495499,-0.573920862708,-0.0117328485514,0.0,-0.00830792754516,0.00858891155532,-0.99992860192,0.0,0.656261902747,0.253833777692,0.303576069513,1.0,-0.01484,-0.019504,0.743
0.460977823616,0.516732987135,-0.124100088285,-1.40431352698,0.0765427812827,1.91195254715,0.152910242257,-0.00817432307102,-0.0731304596537,0.00130703467547,-0.124416782031,-0.0101710421826,0.0458314263556,-0.0188104840973,0.573969581756,0.818861773945,0.00224973141314,0.0,0.818822531945,-0.573909808113,-0.0117447959629,0.0,-0.00832638184179,0.00858345165656,-0.999928495305,0.0,0.655998541565,0.253513105554,0.303576106409,1.0,-0.01518,-0.0199508571429,0.76
0.460815590502,0.515514541356,-0.124106764324,-1.40623325427,0.0764189740524,1.91269482352,0.152637093333,-0.00690069314013,-0.0809213674827,0.00156724688781,-0.132528997522,-0.0152163504121,0.0494780124712,-0.0180388726977,0.573951597405,0.818874303209,0.00227734098468,0.0,0.818835519356,-0.573891825101,-0.0117180298429,0.0,-0.0082888057337,0.00859051502875,-0.999928746837,0.0,0.655772917162,0.253221309893,0.303581396871,1.0,-0.01548,-0.0203451428571,0.775
0.460632416373,0.514130858477,-0.124115254163,-1.40845465165,0.0762899860385,1.91349788508,0.152342061458,-0.0118063447456,-0.0786640253659,-0.000398172593377,-0.13419780903,-0.0112881648316,0.0431945859268,-0.0101052192335,0.573948169196,0.818876785078,0.00224874148803,0.0,0.818837545066,-0.573888417241,-0.011743349123,0.0,-0.00832598958361,0.00858159291117,-0.999928514525,0.0,0.655497426031,0.252884463047,0.303563943107,1.0,-0.01582,-0.020792,0.792
0.460433122523,0.512718062074,-0.12412069305,-1.41073020024,0.0761550324668,1.91427998795,0.152018341288,-0.0123230574169,-0.0830541881886,-0.0013907404824,-0.133427401657,-0.0103268139231,0.0460718979483,-0.0181006573118,0.573932864722,0.818887691591,0.00218225905765,0.0,0.818847449693,-0.573873228202,-0.0117948711988,0.0,-0.00840649664954,0.0085565662205,-0.999928055406,0.0,0.655208461644,0.252530521085,0.303538758789,1.0,-0.01616,-0.0212388571429,0.809
0.460237595886,0.511299247033,-0.124118833607,-1.41303625584,0.0760175246228,1.91513752678,0.151695106341,-0.0100944230524,-0.0787745278318,0.000990435778974,-0.141610074936,-0.0132638701964,0.0552389077287,-0.0160497229453,0.573910651984,0.818903325669,0.00215723183354,0.0,0.818862676436,-0.573851032756,-0.0118176243881,0.0,-0.00843972468818,0.00854890174321,-0.99992784106,0.0,0.654924101762,0.252184473328,0.303509159242,1.0,-0.0165,-0.0216857142857,0.826
0.460050650461,0.509931480811,-0.124123099354,-1.41521554879,0.0758901042476,1.91596796595,0.15138678539,-0.0119519243553,-0.0807949850054,-0.00654252229866,-0.13960080616,-0.00656651880087,0.0534333348323,-0.0122893629245,0.573893841398,0.818915063831,0.0021734622312,0.0,0.81887458424,-0.573834118605,-0.0118138271382,0.0,-0.00842747647621,0.00855984042232,-0.999927850783,0.0,0.654661022217,0.251854665797,0.303501527814,1.0,-0.01682,-0.0221062857143,0.842
0.459876079694,0.508670882396,-0.124122628859,-1.4171765934,0.0757515727629,1.91666999348,0.151123133283,-0.00776840986793,-0.0837651309309,6.38064783716e-05,-0.140733856497,-0.0144884347608,0.0442267376117,-0.0159694684015,0.573884735033,0.818921466657,0.0021654664714,0.0,0.818880977097,-0.573825140059,-0.0118068152473,0.0,-0.00842641759231,0.00854917493788,-0.999927950952,0.0,0.654417225952,0.251549884159,0.303510997454,1.0,-0.0171,-0.0224742857143,0.856
0.459623999287,0.506886751046,-0.124128751417,-1.41998542041,0.075579478784,1.91767955445,0.150722798907,-0.00877937327391,-0.0899660725033,0.000330809169022,-0.140809282955,-0.00664630883983,0.0547475331442,-0.01286867361,0.573866631666,0.818934188898,0.00215179343788,0.0,0.818893454053,-0.57380702418,-0.0118218785469,0.0,-0.00844678895668,0.00854643572781,-0.99992780249,0.0,0.65406774093,0.251112322692,0.303509588671,1.0,-0.0175,-0.023,0.876
0.459404081657,0.505295818659,-0.124136952624,-1.4224512887,0.0754161878074,1.91860680433,0.150394348222,-0.00748387087304,-0.0950690874058,-0.00111330110528,-0.140844212823,-0.00858713554562,0.0523135049676,-0.0168477678277,0.573866763053,0.818934004121,0.00218679198948,0.0,0.818893847216,-0.573807143639,-0.0117887998381,0.0,-0.00839961390854,0.00855611564042,-0.999928117102,0.0,0.653769586707,0.250728639615,0.303528561989,1.0,-0.01784,-0.0234468571429,0.893
0.459176566367,0.503653625346,-0.124138004339,-1.4249201305,0.0752598376769,1.9195601058,0.150043291732,-0.011016075082,-0.0968138912876,0.0013418376837,-0.140187439824,-0.00122128862305,0.0534807998515,-0.025452966099,0.57385122431,0.818944607394,0.00229113068549,0.0,0.818905870527,-0.57379127582,-0.0117257796895,0.0,-0.0082882928204,0.00860523907679,-0.999928624484,0.0,0.653476142741,0.250347414072,0.303583311293,1.0,-0.01818,-0.0238937142857,0.91
0.458958299861,0.502063097533,-0.124146548818,-1.42727095384,0.0751042920033,1.92043919428,0.149711512788,-0.0145960624279,-0.0955734636621,-0.00134686906087,-0.156420902231,-0.00719909890494,0.0576307778368,-0.0189675754822,0.573842638054,0.818950354298,0.00238554984028,0.0,0.818912958283,-0.573782464458,-0.0116617810914,0.0,-0.00818179061495,0.00864575136026,-0.999929152133,0.0,0.653193170695,0.249976415594,0.303651288263,1.0,-0.0185,-0.0243142857143,0.926
0.458705177609,0.500263686968,-0.124147893999,-1.43001099689,0.0749284842226,1.92139418626,0.14932867619,-0.0129483588104,-0.102070184634,3.88393236371e-05,-0.151379050649,-0.00949621316518,0.0546256430541,-0.0271264221813,0.5738292727,0.818959686293,0.0023968564528,0.0,0.818922379877,-0.573768999591,-0.0116626646367,0.0,-0.00817616765965,0.00865538439972,-0.999929114789,0.0,0.652844193737,0.24954554236,0.303685568078,1.0,-0.01886,-0.0247874285714,0.944
0.458466842683,0.49866350639,-0.124148643439,-1.43247873324,0.0747796020147,1.92230069936,0.148986553604,-0.0191680490311,-0.0971397909575,-0.00187281867724,-0.153821631109,-0.00544185181908,0.0564222852871,-0.0200542503839,0.57383015715,0.818958963323,0.00243187987418,0.0,0.818922037698,-0.573769680073,-0.0116532100128,0.0,-0.00814831873443,0.00867865044583,-0.999929140454,0.0,0.652539510794,0.249155414087,0.303705651527,1.0,-0.01918,-0.025208,0.96
0.458178929005,0.496820274659,-0.124148104716,-1.43543926557,0.0746027329895,1.92339171802,0.148546972267,-0.0166877938246,-0.0934462804206,0.000263961626813,-0.157115224748,-0.010500204342,0.0552920351839,-0.0246213879347,0.573808053901,0.818974510965,0.00241134168126,0.0,0.818937197985,-0.573747524986,-0.0116786228055,0.0,-0.00818115059187,0.00867619226769,-0.999928893703,0.0,0.652171339085,0.248686589117,0.303676070593,1.0,-0.01956,-0.0257074285714,0.979
0.457958807441,0.495420455664,-0.124148345374,-1.43767304338,0.0744584251852,1.92414813156,0.148207810335,-0.0225824094592,-0.094713415131,0.00017183188617,-0.161874464695,-0.00227010684403,0.055699334772,-0.0273720446969,0.573784063236,0.81899151446,0.00234412452037,0.0,0.818953237489,-0.573723687487,-0.0117248506846,0.0,-0.00825783244415,0.00864742732148,-0.999928512547,0.0,0.651880829188,0.248324696959,0.30365373385,1.0,-0.01984,-0.0260754285714,0.993
0.457651753888,0.493558413552,-0.124152093625,-1.44075925064,0.0742632837927,1.92525710185,0.14778730933,-0.0132583044351,-0.098316905071,-9.70706055087e-06,-0.160561827537,-0.00899717601057,0.0566430587816,-0.0242528308734,0.573796336054,0.81898320558,0.0022406718405,0.0,0.818943516557,-0.57373627946,-0.0117875027515,0.0,-0.00836837318109,0.00859877511963,-0.999928013107,0.0,0.651490179685,0.247824909874,0.303577873505,1.0,-0.0208851428571,-0.027449044898,1.012
0.457403743616,0.49193038033,-0.12415625382,-1.4433315861,0.0740982559719,1.92621677372,0.147423553809,-0.0143759434216,-0.106775590795,-0.00120549481535,-0.177392838727,-0.00936057522776,0.0648479424582,-0.0250513660406,0.573788815479,0.818988453938,0.00224821023137,0.0,0.818948891224,-0.573728759989,-0.0117800859763,0.0,-0.00835805245112,0.00860061644329,-0.999928083592,0.0,0.651170776763,0.247415974035,0.3035698819,1.0,-0.0221194285714,-0.0290712489796,1.027
0.457091737206,0.490013066091,-0.124162063169,-1.4464366937,0.073906326982,1.92729801238,0.146985284795,-0.0161901472158,-0.115755434497,-0.0034371272744,-0.181652777692,-0.0147661248205,0.0678270739758,-0.0193465128787,0.573792360764,0.818986214608,0.00215729267351,0.0,0.818945320556,-0.573732507272,-0.0118456295808,0.0,-0.00846386135111,0.00856380138166,-0.999927509551,0.0,0.65076985488,0.24690928594,0.30351955769,1.0,-0.0235182857143,-0.0309097469388,1.044
0.456759515829,0.487929810223,-0.124173044674,-1.44970586883,0.0737003154978,1.92849534394,0.146507419675,-0.0178474198094,-0.125548744153,-0.0011061913929,-0.194572328275,-0.0150094742546,0.0681390902835,-0.0294468352925,0.573787566985,0.818989559082,0.00216263460733,0.0,0.818948726614,-0.573727684908,-0.0118437176899,0.0,-0.00845928064956,0.00856702975703,-0.999927520659,0.0,0.650361648275,0.24637485767,0.30351569136,1.0,-0.0249171428571,-0.032748244898,1.061
0.456418993446,0.485830145402,-0.124188128449,-1.45288426758,0.073512771062,1.92973601373,0.14605261334,-0.0203879541782,-0.129507121034,0.000702345602374,-0.199844051355,-0.00319766528388,0.0742986758565,-0.0313593622625,0.57380667094,0.818975762637,0.00231333049558,0.0,0.818936945669,-0.573746261528,-0.0117581164743,0.0,-0.0083025075322,0.00864152385713,-0.999928193639,0.0,0.649961816917,0.245815405995,0.303576579087,1.0,-0.026316,-0.0345867428571,1.078
0.456016728388,0.483375075796,-0.124228397569,-1.4566573043,0.0732684014948,1.93104886803,0.145465176349,-0.0211403953894,-0.136055402731,-0.004537327477,-0.220781865856,-0.0212503573723,0.0690070253207,-0.0372652956368,0.573807967362,0.818974929461,0.00228657104929,0.0,0.818935803827,-0.573747699647,-0.0117674661809,0.0,-0.00832550519759,0.00862498680824,-0.999928145201,0.0,0.649507943128,0.24519989625,0.303592176337,1.0,-0.0277148571429,-0.0364252408163,1.095
0.455636783781,0.481055932651,-0.124257298187,-1.46025022363,0.0730497593297,1.93231301492,0.144932127602,-0.0215238381697,-0.149613499241,9.5106954497e-05,-0.231173089598,-0.0114141072579,0.0809008192902,-0.031396359442,0.573819814539,0.818966652518,0.00227802704529,0.0,0.818927331354,-0.573759490462,-0.0117821885769,0.0,-0.00834234051727,0.00862655796096,-0.999927991334,0.0,0.649050078928,0.24459207026,0.303600807946,1.0,-0.0290314285714,-0.0381555918367,1.111
0.455145582588,0.478195293631,-0.124272974264,-1.46463241707,0.072781297631,1.93394096676,0.144291258443,-0.0291798752618,-0.153712052145,-0.000668154776506,-0.231451351922,-0.0118002044558,0.0838059869197,-0.0386644093583,0.573849165403,0.818945830788,0.00236822746719,0.0,0.818907639121,-0.573788453008,-0.0117403869484,0.0,-0.00825603832276,0.00867673786998,-0.999928273453,0.0,0.648509147957,0.243850352833,0.303638619296,1.0,-0.0305948571429,-0.0402103836735,1.13
0.454776708506,0.475999489535,-0.12428777711,-1.46798185097,0.0725716973411,1.93517820625,0.143814259983,-0.0296335033312,-0.157353820036,0.000182379108207,-0.239798644019,-0.0188367329275,0.0907623740302,-0.0374937983635,0.57387647787,0.818926491131,0.00243663130151,0.0,0.818889194694,-0.573815517465,-0.0117040860772,0.0,-0.00818676691257,0.00871219847573,-0.999928534669,0.0,0.648091469757,0.24328532288,0.303672128991,1.0,-0.0317468571429,-0.0417244408163,1.144
0.454249176561,0.472908404511,-0.124293527539,-1.47277557994,0.0722646563779,1.93686650367,0.143123343048,-0.0321343355118,-0.167564228124,0.000206626284176,-0.25936190356,-0.0193090235107,0.0855433043704,-0.0298385584845,0.573893307012,0.818914737339,0.00242322864172,0.0,0.818877130295,-0.573832248458,-0.0117278732379,0.0,-0.00821375963247,0.00871504226446,-0.999928288524,0.0,0.647469148621,0.242479357651,0.303674988689,1.0,-0.0333102857143,-0.0437792326531,1.163
0.453820160134,0.470383505545,-0.124288330351,-1.47668105362,0.0720255981712,1.9382496379,0.142526561432,-0.0324301409596,-0.172017807229,0.00163038186759,-0.260281704878,-0.0127094830293,0.102451227287,-0.0324059199776,0.573873513203,0.81892857891,0.00243318530253,0.0,0.818890857853,-0.573812162039,-0.011752128428,0.0,-0.00822812093047,0.00873691664102,-0.999927979563,0.0,0.646957887719,0.241831820399,0.303680583637,1.0,-0.0345445714286,-0.0454014367347,1.178
0.453329873037,0.467383759218,-0.124291181177,-1.48117773049,0.0717275545183,1.93999763425,0.141787439271,-0.0299130155551,-0.176918491243,0.000185661831299,-0.272284339821,-0.0179806931573,0.100789732853,-0.0410714070184,0.573804140884,0.818976559298,0.00263630929574,0.0,0.818941675627,-0.573742289537,-0.0116217046721,0.0,-0.00800549570482,0.00882773577835,-0.999928989038,0.0,0.646401765878,0.241091616948,0.30376253419,1.0,-0.0359434285714,-0.0472399346939,1.195
0.452803319604,0.464299902221,-0.12429743965,-1.48596774345,0.0714028938468,1.94161174582,0.141071452535,-0.0287783708866,-0.182880108592,-0.000722614967159,-0.285662727921,-0.0177944222784,0.101123965232,-0.0415880070271,0.573789332849,0.81898720257,0.00255155566928,0.0,0.818951103224,-0.573727652913,-0.0116797993429,0.0,-0.00810186413101,0.00879151286694,-0.999928531996,0.0,0.645754846714,0.24028049423,0.30374949493,1.0,-0.0373422857143,-0.0490784326531,1.212
0.452276400217,0.46133137116,-0.124300227694,-1.49065264399,0.0710897759949,1.94324904464,0.140378085924,-0.0302344568761,-0.189883838714,-0.000198970239014,-0.297093586524,-0.0169625561611,0.112484547336,-0.0494170832167,0.573787945296,0.818988402556,0.00247733989782,0.0,0.81895124334,-0.573726429655,-0.0117299551388,0.0,-0.00818553944358,0.00875949609446,-0.999928131504,0.0,0.645130589547,0.239485948119,0.303706955239,1.0,-0.0386588571429,-0.0508087836735,1.228
0.451652765558,0.457889379285,-0.124304110206,-1.49599363351,0.0707301494127,1.94514216295,0.139570542574,-0.0363535815645,-0.195635515561,-0.000758353831507,-0.297531641023,-0.0289099532811,0.113276233636,-0.0448039984557,0.57378885467,0.818987807542,0.00246338286362,0.0,0.818950429827,-0.573727350399,-0.0117417116264,0.0,-0.00820316647473,0.0087548202784,-0.999928028001,0.0,0.644426755901,0.238567770673,0.303697769037,1.0,-0.04014,-0.0527554285714,1.246
0.451060588754,0.454778106455,-0.124328184827,-1.5009625454,0.0703933079269,1.94685697215,0.13879287369,-0.0327785917253,-0.197482266966,-0.00216047238356,-0.309072907258,-0.025630566872,0.1038839606,-0.0526827702765,0.573790187452,0.81898726702,0.00232897939075,0.0,0.818948101872,-0.573729146178,-0.0118160977742,0.0,-0.00834119085937,0.00868744146832,-0.999927473818,0.0,0.643763093969,0.237690079792,0.303621176619,1.0,-0.0414565714286,-0.0544857795918,1.262
0.450415500183,0.451221344896,-0.12437715886,-1.50628676529,0.0700317663758,1.94881298568,0.137936103712,-0.0410309646656,-0.217085052031,-0.00297545702152,-0.306386387072,-0.0169721014317,0.125831817048,-0.0588362831491,0.573796155249,0.818982673214,0.00246983768985,0.0,0.818945633643,-0.573734898175,-0.0117073760887,0.0,-0.00817126341212,0.00874047846097,-0.999928414683,0.0,0.643084353455,0.23674037758,0.303699685076,1.0,-0.0428554285714,-0.056324277551,1.279
0.449786559815,0.447800972682,-0.124404602683,-1.51145535688,0.0696782957099,1.95061544892,0.137189833222,-0.0383688158395,-0.217554034476,-0.00120026315272,-0.332560861451,-0.0243983293315,0.106857698143,-0.053337086561,0.573855996974,0.818940640785,0.0025036989804,0.0,0.81890410326,-0.573794677296,-0.0116826739804,0.0,-0.00813096391331,0.00875463044647,-0.999928619388,0.0,0.642396691757,0.235822483514,0.30374194432,1.0,-0.044172,-0.0580546285714,1.295
0.44906228933,0.443902800784,-0.124417802489,-1.51748162394,0.0692683015435,1.95266634474,0.136277885204,-0.039325482254,-0.218889567459,0.000461265693096,-0.336879867887,-0.0243222380563,0.128123506953,-0.0514061556651,0.573868197098,0.81893231168,0.00243066795501,0.0,0.818894684177,-0.573806989984,-0.0117380310964,0.0,-0.00821807690089,0.00872671182638,-0.999928151275,0.0,0.641569961813,0.234766299579,0.303721696446,1.0,-0.0456531428571,-0.0600012734694,1.313
0.448397269313,0.440384313223,-0.124415413346,-1.52291465706,0.0688801396304,1.95460791403,0.135375003202,-0.0416150875607,-0.217965228949,0.00128736934734,-0.343682272582,-0.0197308106527,0.126365217685,-0.0559462474978,0.573804831223,0.818976695225,0.0024362359577,0.0,0.818939239308,-0.573743717031,-0.0117224737374,0.0,-0.00820281565698,0.00872170920629,-0.999928320233,0.0,0.640838396469,0.233818961792,0.303710708574,1.0,-0.0469697142857,-0.0617316244898,1.329
0.447635810283,0.436527360348,-0.124427039633,-1.52886081758,0.0684971980493,1.95670426528,0.134428163113,-0.0505379100067,-0.233590287025,-0.00119398259987,-0.350501367505,-0.0210194039412,0.122453821105,-0.0582147061861,0.573817623189,0.818967705509,0.0024453124503,0.0,0.818930132442,-0.573756223967,-0.0117465117689,0.0,-0.00821715875895,0.00874306384382,-0.999928015977,0.0,0.640034947659,0.23275815087,0.30369747963,1.0,-0.0483685714286,-0.063570122449,1.346
0.446851349082,0.432515522602,-0.124451173106,-1.53485576186,0.068066782122,1.95888384771,0.133451984789,-0.0436618501017,-0.229901761286,-0.00302575923963,-0.351699212087,-0.0309764639965,0.127074891134,-0.0628894410238,0.573819324959,0.818966074912,0.00258792330784,0.0,0.818930666805,-0.57375775228,-0.0116340692047,0.0,-0.00804322178862,0.00879535283551,-0.999928971653,0.0,0.639243715898,0.231670823499,0.303769944558,1.0,-0.0497674285714,-0.0654086204082,1.363
0.446033040483,0.428459944999,-0.124482648961,-1.54117354804,0.0675990872133,1.96092847201,0.132472005461,-0.0486012726181,-0.23873382716,0.00133023594766,-0.37009820579,-0.0290789098067,0.123526779976,-0.0631855345009,0.573849943051,0.818945255993,0.0023785390315,0.0,0.818907139222,-0.573789130066,-0.0117421654782,0.0,-0.00825156974006,0.00868621082126,-0.999928228094,0.0,0.638347511045,0.230508053795,0.303703930151,1.0,-0.0511662857143,-0.0672471183673,1.38
0.445205854129,0.424267765147,-0.124527172911,-1.54752711555,0.0671407668592,1.9631008467,0.131398335892,-0.0495643236461,-0.249974384252,-0.00284105504883,-0.368625566141,-0.0277404694691,0.131196176457,-0.0570929197478,0.573822776611,0.818964330024,0.00236518331634,0.0,0.81892619439,-0.573762179247,-0.0117301623711,0.0,-0.00824969066549,0.00866811180215,-0.999928400658,0.0,0.637468442015,0.229340604601,0.303720660079,1.0,-0.0525651428571,-0.0690856163265,1.397
0.444318779056,0.419992524711,-0.124536352565,-1.55400307115,0.066701764813,1.96532444269,0.130358899179,-0.0561657434152,-0.255148466355,-0.000792775715578,-0.387490516657,-0.021552631218,0.130378170193,-0.0576205489203,0.573854848029,0.818941802655,0.00238414744159,0.0,0.818903700883,-0.573793952624,-0.0117462978814,0.0,-0.00825168384785,0.00869322452051,-0.999928166201,0.0,0.636567786329,0.228150751178,0.303734738624,1.0,-0.053964,-0.0709241142857,1.414
0.44347032243,0.41587644844,-0.12456040123,-1.56010265592,0.0662892067081,1.96758067625,0.129358820048,-0.0545609910404,-0.260372582856,0.000341321172913,-0.385131539259,-0.0266760316031,0.141410149328,-0.0624850771151,0.573888117986,0.818917811668,0.00260627488664,0.0,0.818882722662,-0.573826562041,-0.0116150817482,0.0,-0.0080164019102,0.00880016031024,-0.999929144729,0.0,0.635753634707,0.22702569544,0.30381841838,1.0,-0.0552805714286,-0.0726544653061,1.43
0.44254827671,0.411439885726,-0.124564828113,-1.56685679334,0.0658049387765,1.96986314486,0.128196525977,-0.0553810095684,-0.26636880773,-0.000710677829087,-0.394355249079,-0.0251132436877,0.127646337848,-0.0663559241536,0.57383577668,0.818954616101,0.00256613912469,0.0,0.818918888755,-0.573774238047,-0.0116500770824,0.0,-0.0080686552302,0.00878686000563,-0.999928841415,0.0,0.634790145477,0.22578694776,0.303805556242,1.0,-0.0566794285714,-0.0744929632653,1.447
0.441607249341,0.40689641712,-0.124591664868,-1.57378807541,0.0653220852836,1.97212097742,0.127092577854,-0.0537669749254,-0.264740082057,-0.000938571951388,-0.406359446191,-0.0343744457415,0.138017665032,-0.0628785762897,0.573867577432,0.818932678639,0.0024532284086,0.0,0.818895176337,-0.573806108527,-0.0117467821468,0.0,-0.00821230443469,0.00875020279196,-0.999927993411,0.0,0.633778381039,0.224504786634,0.303774342233,1.0,-0.0580782857143,-0.0763314612245,1.464
0.440618199662,0.402344699081,-0.124592293365,-1.58074158647,0.0648412969652,1.97454189541,0.125909023315,-0.0578094755393,-0.274507766038,0.000258433950898,-0.400554655302,-0.0361928304406,0.144640539339,-0.0768930404444,0.573852707511,0.818943058013,0.00246672186764,0.0,0.818905525402,-0.573790971243,-0.0117647221813,0.0,-0.00821941307279,0.00877139872051,-0.999927749297,0.0,0.632790243658,0.223217922217,0.303746601472,1.0,-0.0594771428571,-0.0781699591837,1.481
0.439645538924,0.397851936408,-0.124609413264,-1.58726702592,0.0643680339619,1.97691292005,0.124778439125,-0.0609032359969,-0.280323815882,-0.000728630836442,-0.407553521052,-0.028412237569,0.14071450948,-0.0740833805434,0.573860786617,0.818936544347,0.00273510840109,0.0,0.818902789324,-0.573798423074,-0.0115904364135,0.0,-0.00792258359073,0.00889125604046,-0.999929086603,0.0,0.631895177757,0.221979950826,0.303872411855,1.0,-0.0607937142857,-0.0799003102041,1.497
0.438587013869,0.393050714306,-0.124619942413,-1.59456786568,0.0638111862395,1.97928376469,0.123571003037,-0.0597720926729,-0.283447937755,0.000719137608837,-0.436905317994,-0.0299007634329,0.131177171525,-0.0755545071269,0.57387176343,0.81892928081,0.00260366477632,0.0,0.818893765549,-0.573809788358,-0.0116650945208,0.0,-0.0080590342936,0.00882656315482,-0.999928569323,0.0,0.630814524768,0.220597132682,0.303832571101,1.0,-0.0621925714286,-0.0817388081633,1.514
0.437455001526,0.38789967368,-0.12463160865,-1.60239807132,0.0632276498136,1.98182816419,0.122221727043,-0.0609165980025,-0.286739694223,-0.0019078289124,-0.434973003518,-0.0314617478691,0.141469885799,-0.0796656120574,0.573845553774,0.818947969774,0.00250002372136,0.0,0.818910974729,-0.57378380802,-0.0117347357691,0.0,-0.00817582231283,0.00878139187729,-0.999928018952,0.0,0.629716250382,0.219202818098,0.303801423445,1.0,-0.0635914285714,-0.0835773061224,1.531
0.436402975847,0.383228492496,-0.124642495042,-1.60930281868,0.0627218766217,1.98417887048,0.120945136929,-0.0670245739592,-0.295220537628,-0.00228947470382,-0.42206695001,-0.0226774941332,0.152761376896,-0.0748116186773,0.573777802374,0.818995240971,0.00256430707544,0.0,0.818958990742,-0.573715734756,-0.0117121337417,0.0,-0.00812115483557,0.00882039451383,-0.999928121159,0.0,0.628638670824,0.21779759325,0.303832034883,1.0,-0.0649902857143,-0.0854158040816,1.548
0.435248153906,0.378198902808,-0.124647909685,-1.6167490782,0.0621791594854,1.98676856894,0.119657162858,-0.0666937307955,-0.29416273322,-0.00299217887744,-0.441265930553,-0.0313278291293,0.147720912945,-0.074874617939,0.573796089213,0.818981995421,0.00269927423416,0.0,0.818947509925,-0.57373355854,-0.0116415932894,0.0,-0.00798574484055,0.00889063578665,-0.999928589688,0.0,0.627558699022,0.216367752714,0.303876156177,1.0,-0.0663891428571,-0.0872543020408,1.565
0.434027062274,0.373096830813,-0.124685348255,-1.62452987227,0.0615515035005,1.98922623474,0.118264600356,-0.0722686506132,-0.30966767215,-0.00608872082748,-0.454807073505,-0.0418634803135,0.144823069968,-0.0706138278348,0.573786518478,0.818989412124,0.00247405369481,0.0,0.818952089582,-0.57372488606,-0.0117463605678,0.0,-0.00820087665419,0.0087662035547,-0.999927947053,0.0,0.626377385708,0.214823310758,0.303793511523,1.0,-0.067788,-0.0890928,1.582
0.432875475282,0.368178374805,-0.124747960543,-1.63188012847,0.0609963151341,1.99158750622,0.117025658675,-0.0748060554195,-0.309678907514,-0.00369115284727,-0.462394338577,-0.0313497637863,0.153453018467,-0.0835288699728,0.573867599915,0.818932836849,0.00239445192025,0.0,0.818894443397,-0.57380621583,-0.0117925463594,0.0,-0.00828351153172,0.00872833169608,-0.99992759721,0.0,0.625265149586,0.213361975078,0.3037785518,1.0,-0.0691045714286,-0.0908231510204,1.598
0.431595969387,0.362827385244,-0.124765456831,-1.63955063155,0.0603919037755,1.99428566117,0.115593621783,-0.0767027688878,-0.317745786768,-0.00330917366196,-0.455722472757,-0.0311376514841,0.158544866614,-0.0864494763293,0.573853256534,0.818942000079,0.00268092754894,0.0,0.818907811442,-0.573791376242,-0.0115844641998,0.0,-0.00794886421396,0.00884338528054,-0.999929302548,0.0,0.624154783135,0.211833129801,0.303918626607,1.0,-0.0705034285714,-0.0926616489796,1.615
0.430263758975,0.357496350813,-0.124773964123,-1.64752459505,0.0598069065579,1.99684164195,0.114106711364,-0.0797716239927,-0.310875853355,-0.0020444283367,-0.474347419903,-0.0385872778094,0.151523560832,-0.0924591852402,0.57384272357,0.818949608106,0.00261053435374,0.0,0.818914070834,-0.573780606199,-0.0116750778159,0.0,-0.00806358166687,0.00883763191824,-0.999928434896,0.0,0.622928899141,0.21024106837,0.303883228138,1.0,-0.0719022857143,-0.0945001469388,1.632
0.428816335058,0.35177172687,-0.124821699458,-1.65615038595,0.0591471969163,1.99955103793,0.11255183027,-0.0776582625098,-0.319210395575,-0.00313481833621,-0.489732681057,-0.0406450499625,0.155310159672,-0.087079694988,0.573894634578,0.818913775923,0.0024337022494,0.0,0.818875657579,-0.573832850153,-0.0118010343313,0.0,-0.00826765046371,0.00876561858033,-0.999927402308,0.0,0.621587319612,0.208489036254,0.303805423957,1.0,-0.0733834285714,-0.0964467918367,1.65
0.427490403398,0.34651412331,-0.124841847496,-1.66371100151,0.0585960569342,2.00211994191,0.111066087953,-0.0852551847609,-0.334933513409,-0.000204631713965,-0.467110781079,-0.032333583559,0.160934764516,-0.097376708546,0.573881242238,0.818922386932,0.00268158371495,0.0,0.818887452537,-0.573818518427,-0.0116788222178,0.0,-0.00802546108778,0.00889834358,-0.999928203151,0.0,0.620385809768,0.206851869316,0.303912330298,1.0,-0.0747822857143,-0.0982852897959,1.667
0.425967038465,0.340556452659,-0.124850970296,-1.67237680052,0.0578955107252,2.00490703519,0.109487566121,-0.0876051007304,-0.330254067272,0.000148149620097,-0.485606679641,-0.0413118854157,0.150341188925,-0.0920172257792,0.573915681203,0.818898194815,0.00269894405551,0.0,0.818863511481,-0.573852921033,-0.0116671113496,0.0,-0.00800553362423,0.00890617643594,-0.999928293155,0.0,0.619104764971,0.20518336574,0.303947275223,1.0,-0.0761811428571,-0.100123787755,1.684
0.424688915201,0.335582702447,-0.124845787722,-1.67981903052,0.0572921288603,2.0071706081,0.108026729741,-0.0860215953734,-0.327245351435,0.00475088215384,-0.497219227047,-0.0439137365578,0.158728672493,-0.0916771087557,0.573823686598,0.818963253349,0.00251262114534,0.0,0.818925831981,-0.573761263367,-0.011800054016,0.0,-0.00822232424918,0.00882897084448,-0.99992721868,0.0,0.617897750875,0.203684666517,0.303874210636,1.0,-0.0774154285714,-0.101745991837,1.699
0.423309386247,0.330147729579,-0.124840735097,-1.68768703066,0.0566341086166,2.00972708205,0.106526195993,-0.0836857516798,-0.344303826848,-0.00120654218918,-0.486803222415,-0.0425173355546,0.161868668301,-0.0916841693811,0.573770328051,0.819000327893,0.00261160111444,0.0,0.818964413391,-0.573707787824,-0.0117222306498,0.0,-0.00810237084351,0.00886484717588,-0.999927880435,0.0,0.616583247909,0.201993645199,0.303930875427,1.0,-0.0788142857143,-0.103584489796,1.716
0.421575012405,0.323680368486,-0.124846025782,-1.69705255436,0.055900854485,2.01285071446,0.104638035962,-0.0929555375935,-0.338426106117,-0.00282825401767,-0.508845158049,-0.0444436924709,0.157158207703,-0.0903725825435,0.573727371266,0.819029936503,0.00275925238243,0.0,0.818995961796,-0.573664344534,-0.0116439371998,0.0,-0.00795400157521,0.00894043417069,-0.999928398685,0.0,0.615195696941,0.200158207151,0.303966869001,1.0,-0.0802954285714,-0.105531134694,1.734
0.420055999943,0.318132238646,-0.124883625502,-1.70521878429,0.0552244927948,2.01532577431,0.103120188551,-0.0951035545762,-0.354232031441,-0.00528890877339,-0.515603699391,-0.0429490317958,0.161169903785,-0.0980452620964,0.573802408096,0.818977844164,0.00261421763114,0.0,0.818941856063,-0.573739736647,-0.0117344740805,0.0,-0.0081105499028,0.0088743325825,-0.999927729989,0.0,0.613866102741,0.198430238249,0.303921002531,1.0,-0.081612,-0.107261485714,1.75
0.418316319606,0.31178797534,-0.124928694048,-1.7143904765,0.0544606353821,2.01817819148,0.101198328586,-0.102672342669,-0.360424765911,-0.00277960315993,-0.509856438947,-0.0434409030313,0.169506021981,-0.104397932622,0.573730563463,0.819028201303,0.00260632311096,0.0,0.818992164582,-0.573667988623,-0.0117311586449,0.0,-0.00811314183046,0.00886525314923,-0.999927789501,0.0,0.612382792319,0.196478518939,0.303938623906,1.0,-0.0830931428571,-0.109208130612,1.768
0.416591829374,0.30572370705,-0.124940525693,-1.72301518112,0.053726023577,2.02098687628,0.0994423714004,-0.104685539752,-0.359431114673,-0.000787258685603,-0.512587368359,-0.0420065920376,0.163725282961,-0.110428144436,0.57374183966,0.819019739219,0.00277760586273,0.0,0.818986304965,-0.573679089745,-0.0115966016917,0.0,-0.00790454347728,0.00892844865085,-0.999928897971,0.0,0.611013768705,0.194619371548,0.304018609313,1.0,-0.084492,-0.111046628571,1.785
0.415043837938,0.30037492673,-0.124983938366,-1.73089121901,0.053083135241,2.0232941983,0.0978427297199,-0.10191333011,-0.356985362276,-0.00191381683912,-0.535485756761,-0.0407796042821,0.15535092096,-0.105029303797,0.573762229525,0.819006085775,0.00258502117051,0.0,0.818969726224,-0.573699677554,-0.0117479531991,0.0,-0.00813877605013,0.00885775643943,-0.99992764762,0.0,0.609693518043,0.192911770519,0.303941316697,1.0,-0.0857262857143,-0.112668832653,1.8
0.413124841765,0.293851622906,-0.125057816428,-1.74029722489,0.0523466983626,2.02616945743,0.0959368984666,-0.106878195233,-0.378142046956,-0.00547450964411,-0.515052498097,-0.0386431180573,0.167184576114,-0.108938242217,0.573870160353,0.81893047888,0.00258006168085,0.0,0.818893640954,-0.573807162885,-0.0118021831737,0.0,-0.00818486722916,0.00888588793499,-0.999927021809,0.0,0.608145445235,0.190836705786,0.303935978022,1.0,-0.0872074285714,-0.114615477551,1.818
0.411272852974,0.287563890119,-0.125083913768,-1.7491249272,0.0515947108741,2.02903547438,0.0940375971558,-0.113454585511,-0.366699323464,-0.000784736229213,-0.527454366247,-0.0443395363294,0.15258112963,-0.111648758172,0.573860392083,0.818936529048,0.00282111495005,0.0,0.818903220323,-0.573796983718,-0.0116311702631,0.0,-0.00790659518146,0.00898506103536,-0.99992837465,0.0,0.606719516634,0.188893494158,0.304038857371,1.0,-0.0886062857143,-0.11645397551,1.835
0.409608453606,0.2820402241,-0.125109334537,-1.75717438786,0.0508880508327,2.03133418997,0.0923501788279,-0.113030886475,-0.374917065154,-0.00302559617083,-0.5374758584,-0.0491523532531,0.150201989639,-0.122065980026,0.573854206472,0.818941568619,0.00260841018185,0.0,0.818905222754,-0.573791240954,-0.0117726314635,0.0,-0.00814457117058,0.00889198600587,-0.99992729663,0.0,0.605333046177,0.187119042966,0.303964021639,1.0,-0.0898405714286,-0.118076179592,1.85
0.407665937417,0.27564154388,-0.12511893983,-1.76628468232,0.0500879914222,2.0340708344,0.0904047398564,-0.118522712389,-0.378343825468,-0.00051553004064,-0.524198678001,-0.0441492347184,0.169628519416,-0.110914211891,0.573844567166,0.818948343557,0.00260196475673,0.0,0.818911904768,-0.57378161654,-0.011776911768,0.0,-0.0081518797893,0.00888906789326,-0.999927263019,0.0,0.603787636659,0.185103092853,0.303973288234,1.0,-0.0912394285714,-0.119914677551,1.867
0.405683181956,0.269179204952,-0.125162682381,-1.77533211988,0.049300041414,2.03693436014,0.0883712937197,-0.11973147308,-0.378298029122,-0.00345867664666,-0.534569565826,-0.0397018011473,0.170586576953,-0.122566574436,0.573818680487,0.81896582552,0.00280097398841,0.0,0.81893234182,-0.573755443443,-0.0116300275997,0.0,-0.00791767352101,0.00896750793134,-0.999928444564,0.0,0.602285330478,0.183066786863,0.304052424506,1.0,-0.0926382857143,-0.12175317551,1.884
0.403636415567,0.262662050349,-0.125247226789,-1.78463120385,0.0484888000093,2.03958091277,0.0863826181977,-0.119561610755,-0.380635645848,-0.00721914678005,-0.553276242822,-0.0560576188748,0.157375005444,-0.119197567565,0.573904161852,0.818906374269,0.00266647555513,0.0,0.818870905853,-0.573841114774,-0.0117286590476,0.0,-0.00807469581353,0.00891479713109,-0.999927660223,0.0,0.600669425009,0.180936434122,0.304019060074,1.0,-0.0940371428571,-0.123591673469,1.901
0.401545705106,0.256071549485,-0.125273467996,-1.79388546286,0.0476564514686,2.04229793415,0.0843218662991,-0.124400937834,-0.395550849292,0.000265554871968,-0.534139466914,-0.0473618289958,0.16160895923,-0.113970607511,0.573904034748,0.818906411488,0.00268235453399,0.0,0.818871180142,-0.573840965168,-0.0117168224697,0.0,-0.00805589122888,0.00892100626962,-0.999927756522,0.0,0.599064560044,0.178829220324,0.304045749158,1.0,-0.095436,-0.125430171429,1.918
0.399545980654,0.249820828822,-0.12524620273,-1.8026038631,0.0468655330839,2.0449318866,0.0823456739518,-0.127167094326,-0.388797754138,0.000805320709973,-0.55594806099,-0.0509350849636,0.156499354897,-0.130168605671,0.573849656552,0.818944142634,0.0027946057474,0.0,0.818910492049,-0.573786341773,-0.0116441791701,0.0,-0.00793257844537,0.0089707128993,-0.999928297684,0.0,0.597550075237,0.176868375208,0.304091577536,1.0,-0.0967525714286,-0.127160522449,1.934
0.397383667469,0.24316858748,-0.125265322798,-1.81209609569,0.0460604325421,2.047612772,0.0801792295021,-0.125447400986,-0.387750358077,-0.00549264329689,-0.558272222353,-0.0447900416738,0.161525684496,-0.124130054507,0.573817562276,0.818967039627,0.00267210200241,0.0,0.818931055868,-0.573753856887,-0.0117976414355,0.0,-0.00812890715779,0.00895813363518,-0.999926833678,0.0,0.595845907785,0.174719714257,0.304019512833,1.0,-0.0981514285714,-0.128999020408,1.951
0.395147123388,0.236323229069,-0.125258673174,-1.82143564989,0.0452526984803,2.05036047613,0.0779788615713,-0.130102620517,-0.412102572769,0.0015360954522,-0.551031741353,-0.0455215576305,0.164209072472,-0.12837867164,0.573784969706,0.8189891477,0.00288641478789,0.0,0.818955765305,-0.573720296888,-0.0117141928352,0.0,-0.00793795488731,0.00908544873574,-0.999927219098,0.0,0.594197667072,0.172572382465,0.304130565203,1.0,-0.0995502857143,-0.130837518367,1.968
0.392596198484,0.228711199591,-0.12525330567,-1.83208028909,0.0442183906271,2.05338771101,0.0754837185281,-0.141766804248,-0.405744299802,-0.000435460777777,-0.568780974566,-0.0538501585764,0.15931002382,-0.133249511459,0.573708194038,0.819043136507,0.00282763780226,0.0,0.819009217294,-0.573643994018,-0.0117139666613,0.0,-0.00797234004493,0.00903643406084,-0.999927389691,0.0,0.59227660913,0.170111426734,0.304115912413,1.0,-0.101113714286,-0.132892310204,1.987
0.390486810463,0.222667808678,-0.12529001006,-1.84063523219,0.0434044256402,2.05569691032,0.073447299812,-0.143804305927,-0.400919157443,-0.00618250736516,-0.563622037802,-0.0551545236605,0.154699578453,-0.132831413223,0.573700769684,0.819048990843,0.00263141867824,0.0,0.819012278392,-0.57363701148,-0.011841190972,0.0,-0.0081891940368,0.00894863687066,-0.999926426793,0.0,0.59070545226,0.168079833703,0.304037223925,1.0,-0.102348,-0.134514514286,2.002
0.387751831672,0.214843742682,-0.125369410553,-1.85120293666,0.0424755622204,2.05888666587,0.0708456654769,-0.144021754602,-0.404977301275,-0.00894614437529,-0.562245356391,-0.0390359112808,0.160799491314,-0.139583473562,0.573775955157,0.818995092067,0.00298987543819,0.0,0.818963293219,-0.573711210516,-0.011632634634,0.0,-0.00781189601935,0.0091232999351,-0.999927867238,0.0,0.588847446519,0.165518649202,0.304174173018,1.0,-0.103911428571,-0.136569306122,2.021
0.385515012366,0.208678809242,-0.12540545093,-1.8597829282,0.041655384064,2.0611704035,0.0687414353148,-0.153123119665,-0.412207970134,0.00116286003574,-0.573570132504,-0.0567192008659,0.147225995354,-0.134246638086,0.573799870808,0.81897880252,0.00285940288754,0.0,0.818945060687,-0.573735280436,-0.011728702408,0.0,-0.00796517168988,0.0090717964579,-0.999927126619,0.0,0.587254794112,0.163430119896,0.304132112426,1.0,-0.105145714286,-0.138191510204,2.036
0.382962863827,0.20164781939,-0.125494410425,-1.86960854716,0.0406817675099,2.06371801161,0.0663065059341,-0.150135023871,-0.427600775975,-0.00449363040118,-0.570887717137,-0.051247766051,0.156687546875,-0.143211882631,0.57381507001,0.818968976462,0.00261302946205,0.0,0.818931856245,-0.573751182633,-0.0118719061259,0.0,-0.00822365239528,0.00895234407295,-0.999926110809,0.0,0.585405172481,0.161019949396,0.304048281625,1.0,-0.106544571429,-0.140030008163,2.053
0.379983609398,0.193615859613,-0.125535750304,-1.88038825128,0.0396766869214,2.06686822225,0.063553680963,-0.154088874501,-0.411349277216,-0.00760818310637,-0.584701533224,-0.0540305985542,0.168791819323,-0.13841717646,0.573882728714,0.818920518891,0.00292306756817,0.0,0.818887776237,-0.573818105331,-0.0116764217703,0.0,-0.00788490409003,0.00909473618968,-0.999927554406,0.0,0.583452157171,0.158348419201,0.3041617839,1.0,-0.108108,-0.1420848,2.072
0.377556616164,0.187290132717,-0.12564653257,-1.88910026719,0.0388739660883,2.06909141241,0.0612641040637,-0.165731383011,-0.421864435643,-0.00849854087926,-0.582010901822,-0.0623374598303,0.145634034998,-0.152554157822,0.573956916893,0.818868977393,0.00279326238473,0.0,0.818833925604,-0.573892033333,-0.0118187671854,0.0,-0.00807514624112,0.00907085582101,-0.999926253075,0.0,0.581800242225,0.156129375461,0.304114098648,1.0,-0.109342285714,-0.143707004082,2.087
0.374784958649,0.180001223532,-0.125721015201,-1.89886185812,0.0379179735498,2.07173356134,0.0586822204483,-0.166063993469,-0.426304858335,-0.00215030288258,-0.56718474164,-0.052335327914,0.163691996182,-0.153924409696,0.57399929048,0.818838888029,0.00290463097896,0.0,0.818805470736,-0.573934214787,-0.0117415965951,0.0,-0.00794756181464,0.00911817140377,-0.99992684493,0.0,0.579969059941,0.153656145735,0.304179516994,1.0,-0.110741142857,-0.145545502041,2.104
0.371986390814,0.17267915607,-0.125694771651,-1.90870436206,0.0368829248803,2.07438856401,0.0560972554755,-0.16820764756,-0.430416019923,0.00196171134543,-0.578142801293,-0.0687395444269,0.150794141616,-0.158431349526,0.573941245113,0.818879382338,0.00295824957344,0.0,0.818847126635,-0.573876530198,-0.0116558222029,0.0,-0.00784719356825,0.00911228671076,-0.999927691278,0.0,0.578087551718,0.151222199592,0.304211875896,1.0,-0.11214,-0.147384,2.121
0.36949087217,0.166225584084,-0.125689198055,-1.9175719386,0.0360133037324,2.07654489679,0.0536971800765,-0.169993351348,-0.433072466855,0.000516459830937,-0.589186124646,-0.0559584235636,0.15114187722,-0.155443243889,0.573840331353,0.818950830374,0.00274926235369,0.0,0.818915070236,-0.573775473503,-0.0118558275997,0.0,-0.00813203711565,0.00905493874736,-0.999925936286,0.0,0.576320056084,0.149042408326,0.304123184544,1.0,-0.113374285714,-0.149006204082,2.136
0.366407826136,0.15828205951,-0.125702052171,-1.92793348079,0.0349775793044,2.07936589324,0.0508024507632,-0.173848894446,-0.437048603398,0.00105889111393,-0.575941003374,-0.0662547084051,0.151416390301,-0.156062003777,0.573784457016,0.818988898586,0.00305414164405,0.0,0.818957547143,-0.573719044495,-0.0116507880774,0.0,-0.00778979684709,0.00918643032746,-0.999927461651,0.0,0.574335538526,0.146418930798,0.304268066209,1.0,-0.114855428571,-0.15095284898,2.154
0.363367766387,0.150819670813,-0.125708100793,-1.9379611583,0.0339456547321,2.08182618887,0.0480261757055,-0.180192311899,-0.441642809633,-0.00459954630287,-0.592801775608,-0.0634113040954,0.133931193447,-0.169254645342,0.57376944088,0.818999809109,0.00294759087241,0.0,0.818966754927,-0.573704020848,-0.0117429846791,0.0,-0.00792661008705,0.00915192088806,-0.999926702912,0.0,0.572340288509,0.143848803028,0.304235446832,1.0,-0.116254285714,-0.152791346939,2.171
0.360620415709,0.144209675175,-0.125744808745,-1.94694212475,0.033051880398,2.08393819501,0.0455280497969,-0.186480124397,-0.444288435332,0.000883084244263,-0.592210884348,-0.0575908478938,0.14911538836,-0.160380948553,0.57379588494,0.818981997278,0.00274179895653,0.0,0.818945418152,-0.573730259452,-0.011947316779,0.0,-0.00821174243257,0.00910088011695,-0.999924867811,0.0,0.570521654719,0.141528459063,0.30414226025,1.0,-0.117488571429,-0.15441355102,2.186
0.357471837211,0.13656800129,-0.125798866467,-1.95678426179,0.0320414261254,2.08660123123,0.0426159397318,-0.184437603284,-0.440983473816,4.70430797087e-06,-0.584164411499,-0.0577117101917,0.151618083922,-0.170574058592,0.573785778351,0.818987847584,0.00308755121759,0.0,0.818956480316,-0.573719722831,-0.0116923002272,0.0,-0.00780461303057,0.00923762351739,-0.99992687449,0.0,0.568613809637,0.138930435328,0.304287371779,1.0,-0.118887428571,-0.15625204898,2.203
0.354211801748,0.128941478941,-0.125879712391,-1.96689739806,0.030929031578,2.0889503924,0.0396010192516,-0.190078944949,-0.452808050604,-0.00737772454823,-0.597016919576,-0.0623489247189,0.13451548363,-0.178207800352,0.573756127934,0.819009200937,0.00292939229332,0.0,0.818975747023,-0.573690585593,-0.0117721999783,0.0,-0.00796112859373,0.00915364935469,-0.99992641286,0.0,0.566554837105,0.136220649468,0.304254695796,1.0,-0.120286285714,-0.158090546939,2.22
0.350858446359,0.121231065829,-0.126007673122,-1.97703094147,0.0298616324162,2.09142185284,0.0366776516402,-0.206883601662,-0.463833904365,-0.00513639136684,-0.58712335506,-0.053309364144,0.153737680253,-0.172079343778,0.573925651821,0.8188903762,0.00294021245738,0.0,0.81885710508,-0.573860097276,-0.0117633802409,0.0,-0.00794580124533,0.00915909587452,-0.9999264849,0.0,0.564512094208,0.133460791024,0.304255117912,1.0,-0.121685142857,-0.159929044898,2.237
0.347628219544,0.113919216038,-0.126057817432,-1.98646590538,0.0288652513692,2.09381742522,0.0337264501342,-0.202004845403,-0.455372492493,-0.000493858905524,-0.597573657724,-0.0608752533917,0.145522346602,-0.180932371701,0.57391842563,0.81889471029,0.00313704999837,0.0,0.818864356663,-0.573852630501,-0.011621994446,0.0,-0.00771713396,0.00923907306465,-0.999927540061,0.0,0.562618102053,0.130891419127,0.304323771026,1.0,-0.123001714286,-0.161659395918,2.253
0.34415509316,0.106150823119,-0.126069520312,-1.9967234856,0.0277210811301,2.09604712425,0.0306148703021,-0.19929435724,-0.459918753899,-0.000343650236919,-0.606077131765,-0.0667870096549,0.127622188208,-0.18041630595,0.573886800088,0.818917754794,0.00289801138318,0.0,0.818883828975,-0.5738212789,-0.0117966701254,0.0,-0.00799771599576,0.00914326396398,-0.999926215909,0.0,0.560445670447,0.128137159262,0.304244349433,1.0,-0.124400571429,-0.163497893878,2.27
0.340660376822,0.0982344578906,-0.126060485378,-2.00673180354,0.0266534284437,2.09848449368,0.0273647415067,-0.200800012649,-0.468649911373,0.00220905962778,-0.585566524046,-0.0569911276485,0.146689891561,-0.191285896535,0.573761612013,0.819004481347,0.00316528276608,0.0,0.818974334254,-0.573695554503,-0.0116274450132,0.0,-0.0077071693077,0.00926384529819,-0.99992738772,0.0,0.558376902798,0.125442318873,0.304363885115,1.0,-0.125799428571,-0.165336391837,2.287
0.337032076128,0.0903431093492,-0.126076256032,-2.01699243123,0.025604901161,2.10074372781,0.0241264028698,-0.215809586346,-0.466003881245,-0.000982756751587,-0.609547131474,-0.0671446366152,0.125080319901,-0.185606836276,0.573776202603,0.818994473906,0.00310933097481,0.0,0.818962638236,-0.573709184415,-0.0117777669081,0.0,-0.00786222564724,0.00930440740861,-0.999925803953,0.0,0.556185351531,0.1226548865,0.304319608934,1.0,-0.127198285714,-0.167174889796,2.304
0.333279907697,0.0824340776002,-0.126180594476,-2.02723631595,0.0244260046951,2.10292441575,0.0207108863619,-0.221986436941,-0.463483484178,-0.0131259703967,-0.590768768081,-0.0638313505505,0.141411096153,-0.201203744457,0.573753939127,0.819010668686,0.00294767983839,0.0,0.818976554637,-0.573687299107,-0.011875718906,0.0,-0.00803544870449,0.00922799884807,-0.999925134998,0.0,0.553989657142,0.11975186153,0.30426811807,1.0,-0.128597142857,-0.169013387755,2.321
0.329711136896,0.0748113722892,-0.126249409999,-2.0367077931,0.0233496070474,2.10515427291,0.0175283748859,-0.221722384463,-0.465053294931,-0.00370423619292,-0.603589549629,-0.0673021656574,0.136244179548,-0.20076062772,0.573769091793,0.818999044616,0.00321576164613,0.0,0.818969196336,-0.573702439191,-0.0116496188614,0.0,-0.00769628459475,0.0093179803648,-0.999926968556,0.0,0.551999060035,0.117061262544,0.30439604493,1.0,-0.129913714286,-0.170743738775,2.337
0.325759542369,0.0667604789886,-0.126341168149,-2.04710394091,0.0221873528066,2.10723361385,0.0140491534384,-0.237671628676,-0.474257026446,-0.0091238962172,-0.618126449718,-0.0765733554734,0.11852216828,-0.207709710206,0.5738354868,0.818953332049,0.00300348401059,0.0,0.818919888095,-0.573768566535,-0.0118573116366,0.0,-0.00798743394142,0.00926393734447,-0.999925187383,0.0,0.549711016959,0.114087983043,0.30430839135,1.0,-0.131312571429,-0.172582236735,2.354
0.321717399795,0.0586062769224,-0.126467578798,-2.05725827636,0.0209837925655,2.10944075854,0.0104624393113,-0.240686808693,-0.490512844666,-0.00230299926644,-0.589268421985,-0.0718074106348,0.143708807681,-0.217310123193,0.573886488975,0.818917154861,0.00312060066583,0.0,0.818885851499,-0.573819874646,-0.0117243583111,0.0,-0.00781076584921,0.00928404530668,-0.999926396511,0.0,0.547522943391,0.111087611801,0.304380584119,1.0,-0.132711428571,-0.174420734694,2.371
0.317172607879,0.0495248547079,-0.126474690693,-2.06867750753,0.0197024152548,2.11183900727,0.00643142000459,-0.235724263932,-0.478962286157,-0.00059649116492,-0.602006044385,-0.0728685903075,0.113625525327,-0.219560864438,0.573853025123,0.818940407422,0.00317199450039,0.0,0.818909461338,-0.57378586975,-0.0117395360879,0.0,-0.00779408490384,0.0093345243238,-0.999926056714,0.0,0.544996839438,0.107822328065,0.304381291285,1.0,-0.134274857143,-0.176475526531,2.39
0.313507489326,0.0422912744203,-0.126478962451,-2.07785475162,0.0186577777338,2.11357439376,0.00318917402869,-0.248755594865,-0.486653697829,-1.01939036661e-05,-0.603777229161,-0.074851249106,0.110703618571,-0.222577611371,0.573816598645,0.818966509922,0.00301888156536,0.0,0.818932716723,-0.57374898674,-0.0119185820202,0.0,-0.00802899386411,0.00931152035291,-0.999924412566,0.0,0.542905161494,0.105204576628,0.304311630871,1.0,-0.135509142857,-0.178097730612,2.405
0.309216329887,0.0339703992187,-0.126531311615,-2.08791527681,0.0174359050316,2.11575964535,-0.000637909547452,-0.250400877495,-0.488737263312,0.000419047710501,-0.602182542617,-0.0782692844936,0.128001890882,-0.225567150104,0.573774035145,0.818995156641,0.00332218199289,0.0,0.818966436746,-0.573706728854,-0.01163235373,0.0,-0.00762102992982,0.00939527897504,-0.99992682164,0.0,0.540694526526,0.102187765552,0.304455330019,1.0,-0.136908,-0.179936228571,2.422
0.304843804115,0.0256692680125,-0.126634829153,-2.09826473535,0.0162035082749,2.11763960174,-0.00448674108961,-0.258390908955,-0.494590363798,-0.00100424515444,-0.607691379196,-0.0775519297734,0.108156484284,-0.233286348736,0.573807530414,0.8189722401,0.00318353376868,0.0,0.81894115308,-0.573739993154,-0.0117709366345,0.0,-0.00781370013889,0.00936155913528,-0.999925650886,0.0,0.538311694834,0.0990948101124,0.304408754126,1.0,-0.138306857143,-0.181774726531,2.439
0.30060303205,0.0177880299573,-0.126746235368,-2.10791511756,0.0150590061642,2.11943270659,-0.0082045625226,-0.272660333627,-0.507360220084,-0.00432915902664,-0.592426528441,-0.0746379752336,0.120444688967,-0.232800839127,0.573871468962,0.818927365912,0.00320208892344,0.0,0.818896298868,-0.5738035932,-0.0117913117057,0.0,-0.00781900824589,0.009389056906,-0.999925351574,0.0,0.536096182977,0.0961432812516,0.304426058474,1.0,-0.139623428571,-0.183505077551,2.455
0.296272805345,0.0098812989684,-0.126841370511,-2.11750211772,0.0138896661083,2.12124277801,-0.0119957454754,-0.279436303858,-0.480346434494,-0.00194522478082,-0.610134443067,-0.0737943461913,0.107054857052,-0.235249805534,0.573914957422,0.818896554896,0.00328647651736,0.0,0.818866788513,-0.573847033955,-0.0117265166557,0.0,-0.00771701786518,0.00942139116946,-0.999925839762,0.0,0.533890956965,0.0931789645138,0.304468382612,1.0,-0.13998,-0.183973714286,2.471
0.291066220736,0.000576493367079,-0.126858132241,-2.12899160412,0.0125360376129,2.1231891032,-0.0165788190706,-0.272289279042,-0.490205985971,-7.9363364644e-06,-0.602644364692,-0.0754208172609,0.101510852401,-0.253512235545,0.573876866564,0.818923857945,0.00313110409074,0.0,0.818890903679,-0.573808099606,-0.0119456937664,0.0,-0.00798611449445,0.00941957132188,-0.999923743918,0.0,0.531158840999,0.089700083842,0.304383122502,1.0,-0.13998,-0.183973714286,2.49
0.286416993801,-0.00782275668272,-0.126847844911,-2.13888549427,0.0112846006918,2.12507462729,-0.0207113997726,-0.27633161854,-0.489602969278,0.00100201751936,-0.59195038523,-0.0745478027783,0.117216980883,-0.238936596684,0.573759205075,0.819005231808,0.00339878857225,0.0,0.818976766644,-0.573690736082,-0.0116936706495,0.0,-0.00762747077559,0.00949306282253,-0.999925848975,0.0,0.528849136183,0.086657609904,0.304512189901,1.0,-0.13998,-0.183973714286,2.507
0.281640135526,-0.0160944416136,-0.126869432863,-2.14892296229,0.0100218049544,2.12668279209,-0.024878174061,-0.283540369916,-0.480554142586,-0.00209503448794,-0.589661742635,-0.0741193537304,0.0816436694881,-0.248780586888,0.57372835911,0.819027364456,0.00327003473881,0.0,0.818996714218,-0.573659702701,-0.0118183965893,0.0,-0.0078038533029,0.00945887910169,-0.999924811913,0.0,0.526418690637,0.0835403493492,0.304462508261,1.0,-0.13998,-0.183973714286,2.524
0.277342533086,-0.0233468475013,-0.12694592727,-2.15765894126,0.00893365695575,2.12801015084,-0.02861709601,-0.284807088959,-0.483075905655,-0.00433612156878,-0.574687992989,-0.0653203979181,0.0923589063114,-0.245926499484,0.573767317326,0.819000499495,0.00316137586983,0.0,0.818967746448,-0.573698224307,-0.0119551079518,0.0,-0.00797771725689,0.00944869700631,-0.999923536153,0.0,0.52428534349,0.0807474900833,0.304423842739,1.0,-0.13998,-0.183973714286,2.539
0.272404758859,-0.0316344160451,-0.127080381021,-2.16721295888,0.00766603697309,2.12976564991,-0.032857353128,-0.292220641308,-0.478923063288,-0.00890229261954,-0.56811762586,-0.077321326868,0.0901216495413,-0.250437318841,0.573879914559,0.818920294123,0.00348460032267,0.0,0.818893246057,-0.573811534309,-0.0116155738816,0.0,-0.00751286996798,0.00951964349882,-0.999926463882,0.0,0.522026965707,0.0775710075895,0.304575470249,1.0,-0.13998,-0.183973714286,2.556
0.267412437719,-0.0398099798152,-0.127133072379,-2.17700834727,0.00648453191643,2.13112852984,-0.0372148257963,-0.295248785544,-0.481782244292,-0.000925530447699,-0.571910995109,-0.07040004298,0.0865742953153,-0.257782634885,0.573900792389,0.818906256959,0.00334211171658,0.0,0.81887599664,-0.573831190507,-0.0118580702473,0.0,-0.00779299001501,0.00954231469303,-0.999924103888,0.0,0.519571993287,0.0744260503207,0.304503731111,1.0,-0.13998,-0.183973714286,2.573
0.262421423683,-0.047920089567,-0.127133168318,-2.18653973419,0.00529408120469,2.13260828501,-0.0415668835765,-0.293507256347,-0.477908004599,-0.000369445106094,-0.53870813742,-0.0747806707557,0.0973857917824,-0.257430420288,0.573869643849,0.818927825258,0.00340525877785,0.0,0.818898162873,-0.573799547655,-0.0118585351509,0.0,-0.00775749781137,0.0095939982151,-0.999923885316,0.0,0.517202598108,0.0713530945863,0.304507681441,1.0,-0.13998,-0.183973714286,2.59
0.257660363058,-0.0555954437318,-0.127137170826,-2.19533635323,0.00408112547622,2.13396881883,-0.0457535706007,-0.29459870874,-0.472812473552,-0.000990207475102,-0.562814778865,-0.0773315864942,0.0788669378061,-0.273036358627,0.573772192651,0.818995541411,0.00353850112657,0.0,0.818968559017,-0.573702850817,-0.011674125535,0.0,-0.00753115357712,0.00959639453453,-0.999925592701,0.0,0.5150121096,0.0684480075913,0.30459072515,1.0,-0.13998,-0.183973714286,2.606
0.252511305716,-0.0636317314851,-0.127181157812,-2.20489668369,0.00287939211803,2.13513635398,-0.0502252342649,-0.303399047933,-0.467987483226,-0.00251062910364,-0.558104392059,-0.0767418028564,0.0687192757874,-0.262193593361,0.5737840984,0.818988134025,0.00331536585655,0.0,0.818956724681,-0.573713634428,-0.0119706170757,0.0,-0.00790187488254,0.00958387540839,-0.999922851877,0.0,0.512533615816,0.0653182055879,0.304476549467,1.0,-0.13998,-0.183973714286,2.623
0.246632854115,-0.0726400009798,-0.127357944258,-2.21511328069,0.00147319959292,2.13661308644,-0.0552868948397,-0.312124675064,-0.476809378425,-0.00852631704067,-0.524284823699,-0.0809369251438,0.0825917103808,-0.271360274004,0.573914280916,0.818896200871,0.00348672637918,0.0,0.818867908598,-0.573844283522,-0.0117827601962,0.0,-0.00764816681048,0.00961764785273,-0.999924500347,0.0,0.509951347352,0.061743918925,0.304565576555,1.0,-0.13998,-0.183973714286,2.642
0.242241272546,-0.0792189451501,-0.127423783857,-2.22266339816,0.000513166803139,2.13758649866,-0.0591525527135,-0.312160084893,-0.468627058793,-0.00383486488548,-0.547381435708,-0.0695908270233,0.0574641442654,-0.269321098528,0.573921706221,0.818890833663,0.00352485065279,0.0,0.818862591886,-0.573851016203,-0.0118242849036,0.0,-0.0076602068758,0.00967276833901,-0.999923876494,0.0,0.507994544702,0.0591429978193,0.304565416946,1.0,-0.13998,-0.183973714286,2.656
0.236651266612,-0.0876111699196,-0.127418005953,-2.23243414694,-0.000762267645674,2.13868518592,-0.0640248077228,-0.310359129967,-0.463085813519,-0.000810862690955,-0.53487447542,-0.0770494283785,0.05602884265,-0.273896498478,0.573852984409,0.818939748411,0.00334479571385,0.0,0.81890787839,-0.573781374539,-0.0120651499827,0.0,-0.00796160269463,0.0096628879271,-0.999921617668,0.0,0.505244799987,0.0557161498073,0.30446817849,1.0,-0.13998,-0.183973714286,2.675
0.231293078236,-0.0956180094459,-0.127424133467,-2.24126213433,-0.00198655860207,2.13983383207,-0.0687565211613,-0.313806574157,-0.462064020934,-0.000403421052378,-0.515387325001,-0.0724177766721,0.0810693263001,-0.275096873906,0.573751572227,0.819009759921,0.00359074127678,0.0,0.818982368393,-0.573680672798,-0.0117946098397,0.0,-0.00760010802731,0.00970811664581,-0.999923992526,0.0,0.502949628015,0.0526409143865,0.304603770221,1.0,-0.13998,-0.183973714286,2.692
0.225170483202,-0.104437508039,-0.127462968746,-2.25118893697,-0.00338469336878,2.14087845825,-0.0740170142074,-0.322739828101,-0.46910547158,-0.000813288717418,-0.52638888567,-0.0789478652078,0.0509411534448,-0.270353462938,0.573781515037,0.818989090775,0.00351981470046,0.0,0.818960449382,-0.573710441551,-0.0118683825811,0.0,-0.00770086967871,0.00969263418051,-0.999923371788,0.0,0.500404422721,0.0493340027027,0.304590043994,1.0,-0.13998,-0.183973714286,2.71
0.2205476345,-0.110882268095,-0.127590880101,-2.25854763676,-0.00438619193442,2.14159031093,-0.0780277556368,-0.331461026901,-0.456323328858,-0.0100519194778,-0.520809802459,-0.0772213227427,0.0567965711114,-0.285065697445,0.573864061929,0.818931758324,0.00340007881861,0.0,0.818900650035,-0.573792288368,-0.0120366973491,0.0,-0.00790644694213,0.00969194138759,-0.999921774125,0.0,0.498394877432,0.0466850287772,0.304520947143,1.0,-0.13998,-0.183973714286,2.724
0.213951044495,-0.120144154048,-0.127678341664,-2.26856553515,-0.00581388884391,2.14276644631,-0.0837522030616,-0.329999178934,-0.460466990964,0.0013342115842,-0.495926709544,-0.066924511125,0.0531501460972,-0.28737689075,0.573899100811,0.818905948669,0.00369001676638,0.0,0.818879974107,-0.573828012091,-0.0117365858256,0.0,-0.00749386924423,0.00975748474785,-0.999924313843,0.0,0.495700316166,0.0430061507589,0.304665124048,1.0,-0.13998,-0.183973714286,2.744
0.209336542758,-0.126496348416,-0.127678232326,-2.27571390494,-0.00675246639445,2.14339253214,-0.0878428672015,-0.33229288757,-0.458456824211,-0.00179001783569,-0.512465586694,-0.0645580246181,0.0476309067521,-0.292496190989,0.573821987322,0.818960310347,0.00361715958003,0.0,0.818932402262,-0.573749887452,-0.0118968094795,0.0,-0.00766781751076,0.00978904851206,-0.999922686563,0.0,0.493699548773,0.0404886274292,0.304607320915,1.0,-0.13998,-0.183973714286,2.758
0.203569902907,-0.134249409676,-0.12772147935,-2.28430358319,-0.00800276285314,2.14407819272,-0.0928704526361,-0.342085778202,-0.451964254455,-0.00356829410445,-0.500501411513,-0.0806488356342,0.0364751328461,-0.304390019546,0.573791593335,0.818982097937,0.00350393750901,0.0,0.818952306945,-0.573719394252,-0.011996770798,0.0,-0.00781501407467,0.00975339172045,-0.999921895402,0.0,0.4912764425,0.0373463165588,0.304573395217,1.0,-0.13998,-0.183973714286,2.775
0.198130176289,-0.141566544159,-0.12779083281,-2.29213899971,-0.00910464056398,2.14485325105,-0.0976432650997,-0.346446374724,-0.461620751022,-0.00515121868449,-0.480931986707,-0.0576646786381,0.0507598551627,-0.30211122493,0.573792671194,0.818980458579,0.00370484159846,0.0,0.818953934263,-0.57372058273,-0.0118276543814,0.0,-0.00756121950527,0.00982090508717,-0.999923185941,0.0,0.489091554576,0.0344153028299,0.30465761676,1.0,-0.13998,-0.183973714286,2.791
0.192562504295,-0.148780746802,-0.127931908053,-2.29992991816,-0.0102239037599,2.14551485287,-0.102444713436,-0.352199301771,-0.4505190157,-0.0133298233426,-0.491642266881,-0.0715851163339,0.0303420919745,-0.312322812444,0.573919203664,0.818891431494,0.00378391238617,0.0,0.818866055643,-0.573846986881,-0.0117798753676,0.0,-0.00747519620188,0.00985940392488,-0.999923453868,0.0,0.486882479175,0.0314122986255,0.304684577571,1.0,-0.13998,-0.183973714286,2.807
0.186313160779,-0.156857673293,-0.127959354386,-2.30878205737,-0.0115412575953,2.14602501213,-0.107961884837,-0.341984396003,-0.457446575514,0.000790863227418,-0.485243248589,-0.0693410238606,0.0225694376719,-0.31305304988,0.573812931959,0.818966753054,0.00359491461076,0.0,0.818938150466,-0.573740398294,-0.0119585943337,0.0,-0.00773129228332,0.00980619759886,-0.999922029764,0.0,0.484288340737,0.0281265233631,0.304617592399,1.0,-0.13998,-0.183973714286,2.825
0.180724944861,-0.164005115834,-0.12795386184,-2.31638316183,-0.0126134075305,2.14655133921,-0.112860578601,-0.355245642874,-0.446357024649,-0.00119408232001,-0.464998763677,-0.0558283883452,0.0298455263846,-0.311841760333,0.573767728798,0.818998054876,0.0036778254341,0.0,0.818970540016,-0.573694912428,-0.011922623107,0.0,-0.00765480277201,0.00985303676477,-0.999922157801,0.0,0.482070338886,0.0252514638004,0.304653024296,1.0,-0.13998,-0.183973714286,2.841
0.17465301885,-0.171587969944,-0.127991824638,-2.32432902072,-0.0137300830423,2.14713459526,-0.118247824715,-0.358021125573,-0.440305143148,0.00144320652289,-0.473240943076,-0.0674886526622,0.0289360439138,-0.310154737731,0.573725756458,0.819026561704,0.00387227346685,0.0,0.819001928253,-0.573652733754,-0.0117953158731,0.0,-0.00743947997666,0.00993886731199,-0.999922933557,0.0,0.479604423652,0.0219691714447,0.304725555995,1.0,-0.13998,-0.183973714286,2.859
0.168480780118,-0.17905908371,-0.12812055117,-2.3324042227,-0.0149510101556,2.14746825931,-0.123566182694,-0.367222016809,-0.443734938347,-0.012268492439,-0.467306820236,-0.074712664059,0.0164369377306,-0.318314428946,0.573830439553,0.818954008114,0.00370218018876,0.0,0.818926283947,-0.573756847524,-0.0119819982657,0.0,-0.00768870230221,0.00990763874878,-0.999921358183,0.0,0.477306795187,0.0189677644761,0.304650517057,1.0,-0.13998,-0.183973714286,2.875
0.162202456027,-0.186553457407,-0.128237557891,-2.34031161375,-0.0161187224041,2.14785817152,-0.129024963378,-0.362284800282,-0.443408958251,0.00187971421707,-0.459119592032,-0.0626144801909,0.0273539197073,-0.322328542034,0.573921725948,0.818889954048,0.0037205570501,0.0,0.818862192918,-0.573847695922,-0.0120115692528,0.0,-0.007701268576,0.00994051544755,-0.999920935182,0.0,0.474916340927,0.0157863647696,0.304647013435,1.0,-0.13998,-0.183973714286,2.892
0.156020165023,-0.19402418715,-0.12824281872,-2.34791585143,-0.0172729442791,2.14830071178,-0.134579726677,-0.366666808311,-0.432478984333,-0.00103814462916,-0.448402931213,-0.0777627982001,0.0191404726933,-0.330929987484,0.57377061075,0.818994855319,0.00393193354869,0.0,0.818971043242,-0.573697444843,-0.0117651609451,0.0,-0.00738000814385,0.00997083527082,-0.999923056002,0.0,0.472618798446,0.0127379607052,0.304757327984,1.0,-0.13998,-0.183973714286,2.909
0.150031568432,-0.200935977183,-0.128295825779,-2.35525357067,-0.018400545995,2.14849907566,-0.139863444057,-0.380270983413,-0.424981036392,-0.00385382918268,-0.461711872202,-0.0730968246501,0.00848775805031,-0.330340092504,0.573732749562,0.819022059179,0.00378755326724,0.0,0.818995632748,-0.573659104972,-0.0119219009638,0.0,-0.00759168162273,0.00994216602212,-0.999921756791,0.0,0.470326504659,0.00978946204897,0.304687869004,1.0,-0.13998,-0.183973714286,2.925
0.143607458009,-0.208273348999,-0.128406401829,-2.36293291384,-0.0195041758563,2.14869071369,-0.145493518659,-0.380914667599,-0.433699797548,-0.00529697812057,-0.454876220928,-0.0722786617461,0.00810297870336,-0.330340823541,0.57381145679,0.818967041389,0.00376086110319,0.0,0.818939218538,-0.573736533065,-0.0120703714684,0.0,-0.00772764178035,0.0100062267401,-0.999920076296,0.0,0.467907609102,0.00664855855829,0.30464501672,1.0,-0.13998,-0.183973714286,2.942
0.137064184207,-0.215642227384,-0.128547932549,-2.37027076151,-0.0206040626171,2.14894906862,-0.151205675631,-0.383323460969,-0.436134974116,-0.00825369433806,-0.425315066539,-0.0700986595238,0.0198880071125,-0.336231932852,0.573947168969,0.818870777989,0.0040053825914,0.0,0.818846933495,-0.573872389943,-0.0118712454177,0.0,-0.00742258039819,0.0100934572824,-0.99992151063,0.0,0.465603621098,0.0034713016051,0.30475910281,1.0,-0.13998,-0.183973714286,2.959
0.130598612504,-0.222875178795,-0.128533890392,-2.37764684815,-0.021771354432,2.14911131809,-0.15700367913,-0.376952712138,-0.425123004582,0.00199112063521,-0.43716217617,-0.0794405230632,0.00652604371911,-0.333570415203,0.573787597906,0.818982582365,0.00400863730078,0.0,0.818959123132,-0.573713299113,-0.0118216734037,0.0,-0.00738207820917,0.0100662334805,-0.999922084897,0.0,0.463240107827,0.000424286912559,0.304769650077,1.0,-0.13998,-0.183973714286,2.976
0.123930882213,-0.230034778903,-0.128589245266,-2.38508190155,-0.0229242340441,2.14913621721,-0.16286200535,-0.393244452455,-0.425600535327,-0.00135280080935,-0.429671199678,-0.0679679103183,0.00252264857672,-0.348067246064,0.573798976178,0.818975277542,0.00386996297533,0.0,0.818949067606,-0.573723895851,-0.0120026204767,0.0,-0.00760970571158,0.0100565875318,-0.999920475551,0.0,0.460803572432,-0.00271124305404,0.304690513322,1.0,-0.13998,-0.183973714286,2.993
0.117632654766,-0.236807020242,-0.128683635413,-2.39192739234,-0.0239528804372,2.14915060152,-0.168437651774,-0.40272180017,-0.42676216992,-0.00591637154242,-0.415320034222,-0.0710483453189,0.00234790356552,-0.355045551968,0.573834446265,0.818950322114,0.00389166921747,0.0,0.818923860414,-0.573758572796,-0.0120647373919,0.0,-0.00764768923904,0.010110337335,-0.999919643736,0.0,0.458543360982,-0.00565411535696,0.304683856734,1.0,-0.13998,-0.183973714286,3.009
0.110782005308,-0.244001407125,-0.128825434141,-2.39886270679,-0.0250938586566,2.1492449191,-0.174480850243,-0.397817424609,-0.423393752623,-0.00334457342341,-0.415869514352,-0.0567546197507,0.00657441317393,-0.350162941953,0.57391792236,0.818890672659,0.00412692723669,0.0,0.818868799095,-0.573843275861,-0.0117699413543,0.0,-0.00727022572242,0.0101345873608,-0.999922213953,0.0,0.45625592325,-0.00885005590473,0.304818988221,1.0,-0.13998,-0.183973714286,3.026
0.104021075601,-0.251051247662,-0.128845708779,-2.40599276098,-0.0261618691241,2.14921911618,-0.180558462225,-0.395116532241,-0.404449098836,-5.05444378086e-05,-0.427697611028,-0.0544449033964,-0.00161817360031,-0.351571210356,0.573826792933,0.818954591936,0.00411521092421,0.0,0.818931956218,-0.573751352681,-0.0118567821125,0.0,-0.00734919981716,0.0101740128678,-0.99992123626,0.0,0.453850519946,-0.0119050659038,0.304775908219,1.0,-0.13998,-0.183973714286,3.043
0.0970800292405,-0.258035205807,-0.128889994735,-2.41305517247,-0.0272729072999,2.1491402086,-0.186740209713,-0.414079400195,-0.407417724507,-0.00228285809239,-0.413835832161,-0.0651160536943,-0.00253099526378,-0.35941596455,0.573793739342,0.818978100138,0.00404513128691,0.0,0.818953957236,-0.573717733798,-0.0119634758469,0.0,-0.00747720512465,0.0101775397658,-0.999920251364,0.0,0.451432629945,-0.0150243232673,0.304712962895,1.0,-0.13998,-0.183973714286,3.06
0.0900827765814,-0.265028721966,-0.129020094053,-2.41981509602,-0.0283677243282,2.1490343074,-0.192932300366,-0.413636449509,-0.404566370255,-0.00941397561709,-0.385519125711,-0.0714053746139,-0.00469435859833,-0.369701250616,0.57387515046,0.818920476693,0.00416070180678,0.0,0.818898328844,-0.573799402652,-0.0118540893343,0.0,-0.00732028921528,0.0102101556338,-0.99992107993,0.0,0.449092768629,-0.0181759469992,0.304771638933,1.0,-0.13998,-0.183973714286,3.077
0.0825768400883,-0.27236147674,-0.129136285002,-2.42679557783,-0.0295010153101,2.14896783979,-0.199638113785,-0.407525139638,-0.398007250606,-0.000969677717791,-0.398761033772,-0.0637421528029,-0.0088136267066,-0.356195169843,0.573912388109,0.81889328044,0.00437183338351,0.0,0.818875024998,-0.57383759789,-0.0116125614685,0.0,-0.00700086097635,0.0102447752993,-0.999923013299,0.0,0.446660488269,-0.0215117668772,0.304868951889,1.0,-0.13998,-0.183973714286,3.095
0.07551542891,-0.279158097765,-0.129144782997,-2.43363217349,-0.0306052030473,2.14867675189,-0.206064741293,-0.426123981777,-0.39972584389,-0.00393169141217,-0.401889277558,-0.0630961087027,-0.0185656035046,-0.388925891181,0.573742239429,0.819013462787,0.00418776436121,0.0,0.818991649108,-0.573666395142,-0.0118445210347,0.0,-0.0072985830232,0.010225642939,-0.999921080342,0.0,0.444206198258,-0.0245670946609,0.304759867731,1.0,-0.13998,-0.183973714286,3.112
0.068258978844,-0.285974927267,-0.129212376392,-2.44021528103,-0.0316899757041,2.14845115218,-0.212516481255,-0.421611877568,-0.399523390896,-0.00581038760883,-0.387158552664,-0.0641621401116,-0.00926189964684,-0.386521113084,0.573768342923,0.818995037816,0.00421468779731,0.0,0.818973745298,-0.573692644082,-0.0118110770313,0.0,-0.00725541778276,0.0102287376819,-0.999921362827,0.0,0.441828718923,-0.0277047819263,0.304764104888,1.0,-0.13998,-0.183973714286,3.129
0.0609055027922,-0.29274333464,-0.129387427038,-2.4465910324,-0.0326549824549,2.1481972582,-0.219095438976,-0.430616667887,-0.394901525893,-0.00959129520533,-0.372425418884,-0.0550612896702,-0.0172614268281,-0.385773347334,0.573909059421,0.818895391218,0.00441323669365,0.0,0.818876704249,-0.573832723391,-0.0117343813511,0.0,-0.00707690742872,0.0103485637248,-0.999921409217,0.0,0.439490176485,-0.0308865553357,0.304821886748,1.0,-0.13998,-0.183973714286,3.146
0.0540036478959,-0.299080505982,-0.129431245811,-2.45247679582,-0.0336003326378,2.14794684254,-0.225346652473,-0.427859600455,-0.39435351814,0.0002363109676,-0.37028087258,-0.0575028952455,-0.023091859925,-0.400528719844,0.573864795815,0.818925500496,0.00457904614027,0.0,0.818909753315,-0.573789132308,-0.0115583074841,0.0,-0.00683811748465,0.0103829312131,-0.999922714458,0.0,0.437310581579,-0.0338002185877,0.304901360667,1.0,-0.13998,-0.183973714286,3.162
0.0465769411218,-0.305676027951,-0.129462195655,-2.45888282718,-0.0347230783803,2.14748302095,-0.231973890029,-0.441226554975,-0.389827017115,-0.00779573579533,-0.383378110654,-0.0637447156971,-0.0339086317478,-0.388617316506,0.573832482528,0.818949130751,0.00439887919756,0.0,0.818930382489,-0.573756387584,-0.0117210598825,0.0,-0.00707520298401,0.0103284995696,-0.999921628729,0.0,0.434871620617,-0.0369030797786,0.304826322478,1.0,-0.13998,-0.183973714286,3.179
0.0390602067441,-0.312264314697,-0.129563782073,-2.46512476213,-0.0357230877679,2.14707165688,-0.238756591825,-0.449100389469,-0.382905197257,-0.0128775571919,-0.35768468163,-0.0578963007091,-0.0194743336875,-0.402237652362,0.573857667482,0.818931305807,0.00443178775842,0.0,0.818912548534,-0.573780824039,-0.0117707569819,0.0,-0.00709670318707,0.0103841856817,-0.999920899617,0.0,0.432474981383,-0.0400300662606,0.30481186563,1.0,-0.13998,-0.183973714286,3.196
0.0314320383389,-0.31878748105,-0.129706856047,-2.47116843029,-0.036722802687,2.1466548781,-0.24563966622,-0.447979543305,-0.387707448948,-0.00206923888117,-0.345826914094,-0.0552068407001,-0.0225215903088,-0.400276951556,0.573926026056,0.818882842621,0.00453360542931,0.0,0.818865566797,-0.573849077581,-0.0117118134515,0.0,-0.00698913236016,0.0104343288248,-0.999921135296,0.0,0.430117137382,-0.0431954785068,0.304843976408,1.0,-0.13998,-0.183973714286,3.213
0.0238557268642,-0.325261436587,-0.129711087966,-2.4769989684,-0.037750210132,2.14626648321,-0.252608781648,-0.453046367998,-0.379356282335,0.0005835208119,-0.347424563037,-0.0664374670869,-0.0198418923592,-0.416375069738,0.573763661135,0.818995849359,0.00466977457205,0.0,0.818981820824,-0.573688591741,-0.0114421923933,0.0,-0.00669224052605,0.0103897747162,-0.999923630333,0.0,0.427824859124,-0.046263322504,0.304942699234,1.0,-0.13998,-0.183973714286,3.23
0.0165477495324,-0.33121775758,-0.129743070165,-2.48264524066,-0.0386733091264,2.1457236745,-0.259181957468,-0.457699434529,-0.363516894413,-0.00574659849903,-0.359120401841,-0.0620060150066,-0.0362720652651,-0.413526655751,0.573778253847,0.818986098187,0.00458620635078,0.0,0.818970047663,-0.573701982132,-0.0116122190356,0.0,-0.00687926273246,0.0104190049933,-0.999922057002,0.0,0.425542437914,-0.0491887394551,0.304877854266,1.0,-0.13998,-0.183973714286,3.246
0.00960720032927,-0.336788005338,-0.129885641636,-2.48785248625,-0.0395249607437,2.14519258705,-0.265463755101,-0.470195431407,-0.367687091264,-0.0128934415751,-0.340689228555,-0.0516258971618,-0.036675639757,-0.418008161103,0.573860118693,0.818928812226,0.00457291819031,0.0,0.818911648497,-0.573782458394,-0.0117536928954,0.0,-0.00700171232553,0.0104899935386,-0.999920464867,0.0,0.423400652102,-0.0519867389787,0.304835907229,1.0,-0.13998,-0.183973714286,3.261
0.0017642570769,-0.343093891559,-0.129971363264,-2.49356785256,-0.040471696067,2.14464675883,-0.272613602237,-0.45577168133,-0.371360555746,-0.00173688730011,-0.335951333764,-0.0557104577928,-0.035479340854,-0.428515580856,0.573861144406,0.818927577962,0.0046643216273,0.0,0.818911749377,-0.573783414184,-0.0116998820644,0.0,-0.00690517863934,0.0105339783061,-0.999920673758,0.0,0.421034393026,-0.0550940762954,0.304863821521,1.0,-0.13998,-0.183973714286,3.278
-0.00712890197245,-0.3499805258,-0.130011612062,-2.49973082496,-0.0415990558103,2.14397205829,-0.280713097157,-0.470859526594,-0.362057916332,-0.00201436852213,-0.318659593396,-0.0592936226153,-0.0317441878765,-0.430267295457,0.573807543648,0.818965039153,0.00468128180327,0.0,0.818950150427,-0.573730873499,-0.0115880460089,0.0,-0.00680453966377,0.010483246488,-0.999921896841,0.0,0.418419279565,-0.0585790834595,0.304909560659,1.0,-0.13998,-0.183973714286,3.297
-0.014683217798,-0.355771996198,-0.130138560454,-2.5048395494,-0.0424789045792,2.14342327222,-0.287645277302,-0.470177695571,-0.360588400012,-0.0125855381903,-0.330714662943,-0.0645846629446,-0.0401417354889,-0.44173181548,0.573826960563,0.818950665248,0.00481395069865,0.0,0.818938058651,-0.573750787512,-0.0114558641794,0.0,-0.00661990704,0.010516213632,-0.99992279006,0.0,0.416219811677,-0.0615397260833,0.304969808929,1.0,-0.13998,-0.183973714286,3.313
-0.0227934795961,-0.361782625496,-0.130266133386,-2.51041639843,-0.0434198432675,2.14266589689,-0.295084021165,-0.468125787357,-0.354521468296,-0.00401905273399,-0.330239444363,-0.0550906651489,-0.0465348077551,-0.438247922352,0.573839850232,0.818942187934,0.0047186870894,0.0,0.818926832665,-0.573761594234,-0.0117142061024,0.0,-0.00688598872491,0.0105865415716,-0.999920250968,0.0,0.413764416783,-0.0646684524414,0.304880650161,1.0,-0.13998,-0.183973714286,3.33
-0.0299542944912,-0.367093152108,-0.130285684018,-2.5151375459,-0.0442829866121,2.14206598202,-0.30170086014,-0.482543298824,-0.357340905791,-0.00205724574584,-0.308198276182,-0.0549711696062,-0.0430557865989,-0.441286194289,0.573744241575,0.819009237063,0.00470762862861,0.0,0.818993985652,-0.57366641685,-0.0116807767709,0.0,-0.00686618781961,0.0105575012076,-0.999920694172,0.0,0.411523829282,-0.0675722481914,0.30488603901,1.0,-0.13998,-0.183973714286,3.346
-0.0382576086986,-0.372932448234,-0.130359640685,-2.52035654572,-0.0451906407411,2.14136132971,-0.309239218145,-0.490359943693,-0.338445319879,-0.00935306009116,-0.303367115626,-0.0478492933699,-0.0454491973077,-0.44568508893,0.573800000405,0.81897012323,0.00471632204326,0.0,0.818954811769,-0.573721873122,-0.0117036525161,0.0,-0.00687921707268,0.0105782141131,-0.99992038571,0.0,0.409292349639,-0.0705291821743,0.304879446624,1.0,-0.13998,-0.183973714286,3.362
-0.046617626923,-0.378754521211,-0.130522828715,-2.52538302524,-0.0460340193191,2.14063713683,-0.316872757062,-0.490679267622,-0.340339504312,-0.00588042509425,-0.287344737015,-0.0490092541086,-0.042558031991,-0.453002837358,0.573939310497,0.818871638996,0.00486349825476,0.0,0.818858335708,-0.57386085167,-0.0116402690074,0.0,-0.00674104469588,0.0106635293607,-0.999920420563,0.0,0.406946739898,-0.0736988121763,0.304931412914,1.0,-0.13998,-0.183973714286,3.379
-0.0549274448219,-0.384476205384,-0.130548481337,-2.53037084966,-0.0469366903601,2.13993262767,-0.324636428602,-0.495146794896,-0.329780527188,0.000151926667274,-0.295371330511,-0.0549867478451,-0.0488872948039,-0.455441125381,0.573798968175,0.818969797603,0.00489506238505,0.0,0.818957375183,-0.573721187439,-0.0115569727121,0.0,-0.0066565387578,0.0106404313209,-0.999921232754,0.0,0.404605294453,-0.0767735305266,0.304953584625,1.0,-0.13998,-0.183973714286,3.396
-0.0634369545295,-0.390165705143,-0.130614867442,-2.5354449391,-0.0479059962662,2.13908943673,-0.332440937283,-0.493587543916,-0.336858584568,-0.00662068567348,-0.290166582108,-0.058906334786,-0.0485717393258,-0.456338992348,0.573784089356,0.818980933231,0.00477458976654,0.0,0.818966357365,-0.573705747824,-0.0116862021056,0.0,-0.00683169864518,0.0106157896091,-0.999920313277,0.0,0.402162842311,-0.0799050559205,0.304900457157,1.0,-0.13998,-0.183973714286,3.413
-0.0719930368992,-0.395798635983,-0.130774905423,-2.54029214423,-0.0487536233893,2.13828790858,-0.340336129379,-0.50118127078,-0.325033757662,-0.00759278772107,-0.279766503719,-0.0528139371933,-0.050087956635,-0.468672857898,0.573864110733,0.818924360374,0.00486017486223,0.0,0.818910723106,-0.573785215681,-0.0116833534582,0.0,-0.00677921679718,0.0106849122712,-0.999919934229,0.0,0.399774075609,-0.0830579376664,0.304918663811,1.0,-0.13998,-0.183973714286,3.43
-0.0804841655475,-0.401225637078,-0.130820789438,-2.54497050044,-0.0495724123143,2.13750407722,-0.348308488221,-0.507018923301,-0.32110548807,-0.00265258646484,-0.276995316524,-0.0538410868184,-0.0488628943644,-0.459737020269,0.573759041307,0.818997737975,0.00490047058478,0.0,0.818984588092,-0.573679980429,-0.0116735352261,0.0,-0.00674942702256,0.0107114124912,-0.999919852227,0.0,0.397432922002,-0.0861203315136,0.304924224206,1.0,-0.13998,-0.183973714286,3.447
-0.0887361836921,-0.406300195451,-0.130855091401,-2.54933361106,-0.0504241971287,2.13669126617,-0.355926226453,-0.515756016321,-0.317722376395,-0.00229823056954,-0.264963686405,-0.0478180763734,-0.0448306469114,-0.471707147494,0.573736433065,0.81901392559,0.00484169018154,0.0,0.819000016426,-0.573657567838,-0.011692512899,0.0,-0.00679898957731,0.0106739704895,-0.999919916841,0.0,0.395182375972,-0.089082160531,0.30491941824,1.0,-0.13998,-0.183973714286,3.463
-0.0985808731923,-0.41226207577,-0.131041655475,-2.55431078067,-0.05136445344,2.13582892575,-0.365003801257,-0.517731821272,-0.315182916105,-0.00930371473679,-0.260278146266,-0.0455022464019,-0.0453153320929,-0.478450457903,0.573868017348,0.818920992944,0.00496516689152,0.0,0.818909419416,-0.573789922973,-0.0115427027622,0.0,-0.00660372602125,0.0106902157052,-0.999921051929,0.0,0.392556973727,-0.092641883589,0.304975760655,1.0,-0.13998,-0.183973714286,3.482
-0.107308354409,-0.417499099268,-0.131090003635,-2.55877292802,-0.052104253527,2.13495157892,-0.373280876098,-0.523816304194,-0.310002069103,-0.0018605652961,-0.255230138371,-0.0479823183277,-0.0579620854957,-0.492234784413,0.573746079072,0.819006105703,0.00501821411688,0.0,0.818994658444,-0.573666936019,-0.0116078792134,0.0,-0.00662826804805,0.010770073099,-0.999920032597,0.0,0.390175756358,-0.0956980265931,0.304967514734,1.0,-0.13998,-0.183973714286,3.499
-0.115744412318,-0.422384183402,-0.131158693531,-2.562909769,-0.0528719805481,2.1340654923,-0.38106922881,-0.523584155957,-0.295154173329,-0.0032916699229,-0.256259573967,-0.0443106297303,-0.0583695272781,-0.491567006447,0.573818094714,0.818955726467,0.00500591318491,0.0,0.818943651578,-0.573738219894,-0.0116832133525,0.0,-0.00669607967922,0.010803808056,-0.999919216861,0.0,0.387754383056,-0.0988382979105,0.304960648604,1.0,-0.13998,-0.183973714286,3.516
-0.124741510992,-0.427351307557,-0.13129396781,-2.56711979438,-0.0536639432611,2.13321776888,-0.38941968355,-0.527833018539,-0.284423343306,-0.0112869921591,-0.246746933296,-0.042638605755,-0.0426250092049,-0.493290311627,0.573888862251,0.818906042315,0.00502140861822,0.0,0.818893871047,-0.573808445212,-0.011723611494,0.0,-0.00671933898626,0.0108402595118,-0.999918666321,0.0,0.385517820888,-0.101804794626,0.304940458259,1.0,-0.13998,-0.183973714286,3.532
-0.132551851585,-0.431658350418,-0.13131588875,-2.57072279123,-0.0543197004337,2.13247840566,-0.396881119778,-0.522585617962,-0.280911835783,0.00115495726722,-0.234993150227,-0.0416645272507,-0.0519176091589,-0.508302178861,0.57373465313,0.819013934948,0.00504668798818,0.0,0.819002131124,-0.573654244127,-0.0117074468497,0.0,-0.00669363700266,0.0108504250791,-0.999918728447,0.0,0.383460115602,-0.104484475616,0.304943030149,1.0,-0.13998,-0.183973714286,3.547
-0.14173371581,-0.436473506617,-0.131372379244,-2.57481049844,-0.0551175743998,2.13153589094,-0.405428775233,-0.538954232548,-0.280024024726,-0.0017891029004,-0.235591050937,-0.043059158405,-0.0561011070961,-0.50345696366,0.573753219672,0.819001371743,0.00497422359784,0.0,0.818987906627,-0.57367189482,-0.0118369250459,0.0,-0.00684101728401,0.0108655120224,-0.999917567168,0.0,0.381042281983,-0.107627330707,0.304901279534,1.0,-0.13998,-0.183973714286,3.564
-0.150439090664,-0.441006963304,-0.131521654837,-2.57841321606,-0.055797639044,2.13072321707,-0.413527902398,-0.535730171468,-0.278418555552,-0.00551759905669,-0.216443326311,-0.0508544059691,-0.044162339549,-0.520276128765,0.573879255723,0.81891223424,0.00510875370927,0.0,0.818901207345,-0.573798573985,-0.0116942721805,0.0,-0.00664531490878,0.0108948745558,-0.999918567433,0.0,0.378688901652,-0.110814758464,0.304972239128,1.0,-0.13998,-0.183973714286,3.581
