nelsonifechukwu/NELSON_IML_WORK/CNN-GradCAM/train2dof/data_sample_2022-02-21-10-39-38/robot_state.csv
position_joint1,position_joint2,position_joint3,position_joint4,position_joint5,position_joint6,position_joint7,velocity_joint1,velocity_joint2,velocity_joint3,velocity_joint4,velocity_joint5,velocity_joint6,velocity_joint7,ee_T_00,ee_T_10,ee_T_20,ee_T_30,ee_T_01,ee_T_11,ee_T_21,ee_T_31,ee_T_02,ee_T_12,ee_T_22,ee_T_32,ee_T_03,ee_T_13,ee_T_23,ee_T_33,v_x,v_y,time
0.465059929938,0.547685770642,-0.123970065638,-1.35575036046,0.0794891654801,1.89409115466,0.15917116397,-0.000125571190999,-0.000448518818667,0.00112248478822,-0.000899680464816,-0.000132867128379,-9.19270324935e-06,-7.87692139286e-05,0.573806306185,0.818976626096,0.00208705356651,0.0,0.818935347401,-0.573747261889,-0.0118204549137,0.0,-0.00848339834667,0.00849197700588,-0.999927956544,0.0,0.661696653255,0.26090075641,0.303319860265,1.0,0.0,0.0,0.0
0.465065077116,0.547684871136,-0.123973283889,-1.35575135049,0.0794895225263,1.89409125512,0.159169291775,0.000716713956982,0.000574257891588,-0.000859076068169,-0.000374586669978,7.73664487471e-05,0.000214389500775,-0.00751315937049,0.573802953869,0.818978976166,0.00208653534967,0.0,0.81893770243,-0.573743923749,-0.0118193231628,0.0,-0.00848280352454,0.00849086848437,-0.999927971004,0.0,0.661695846306,0.260902258788,0.303320142173,1.0,-0.00026,-0.000341714285714,0.014
0.465062597582,0.547675047066,-0.123973548222,-1.35574964737,0.079485853321,1.8940923322,0.159169994529,-0.00216319378283,-0.00375331395508,-0.000860045640958,-0.00080597165948,-0.000588130222645,-1.90554324954e-05,-8.76906396587e-05,0.573804668751,0.818977752137,0.00209535808149,0.0,0.818936631396,-0.573745641849,-0.0118101277584,0.0,-0.00847019239412,0.00849283544856,-0.999928061206,0.0,0.661697625992,0.26090027697,0.303328008034,1.0,-0.0006,-0.000788571428571,0.031
0.465056701335,0.547640353118,-0.123970675509,-1.3557789627,0.0794889929784,1.89409470397,0.159168468704,-0.000991428428977,0.000283216825968,-0.00017695221207,-0.00604111540211,0.000327286440508,0.000515465644379,0.00173082125495,0.573808626999,0.818974951174,0.00210614155669,0.0,0.818933902022,-0.573749488174,-0.0118125289656,0.0,-0.00846593068806,0.0085030854611,-0.999928010186,0.0,0.661692998668,0.26089568501,0.303338749145,1.0,-0.00092,-0.00120914285714,0.047
0.465058487572,0.547513834222,-0.123973269051,-1.3558996651,0.0794877317084,1.89411360108,0.159169991222,0.00183962315055,-0.0071944781986,-0.000157970037451,-0.00651462827704,0.000299624689407,0.00267767744008,0.00163456199189,0.573816381687,0.818969450739,0.00213207991695,0.0,0.818928667043,-0.57375706752,-0.0118073141607,0.0,-0.00844669629707,0.00852141571719,-0.999928016807,0.0,0.661672641846,0.260883782397,0.303372648507,1.0,-0.00126,-0.001656,0.064
0.465038695846,0.547382686524,-0.123972478371,-1.35607673828,0.0794824929751,1.89415961803,0.159165209515,-0.00366665018435,-0.00772831397771,-0.000703615400308,-0.00768862003142,-0.000103945656423,0.000500061412824,0.000306009381789,0.573836486017,0.818955352958,0.00213637046032,0.0,0.818914548466,-0.573777075234,-0.0118142773305,0.0,-0.00844972795024,0.00852913245126,-0.999927925401,0.0,0.661649962552,0.260854123818,0.303385228156,1.0,-0.0016,-0.00210285714286,0.081
0.465015844435,0.547217727141,-0.123973278171,-1.35628723142,0.0794808943499,1.89426124506,0.159152815197,8.61956368136e-06,-0.0119617031818,-0.000252578179268,-0.0175754861927,0.000638274987224,0.00167022503712,-0.00134022644595,0.573857078536,0.818940782764,0.00218966667124,0.0,0.818900610246,-0.573797395193,-0.011793502871,0.0,-0.00840191720333,0.00856106930367,-0.999928055352,0.0,0.661632562374,0.260822374351,0.303410738315,1.0,-0.00192,-0.00252342857143,0.097
0.464998869811,0.547018465162,-0.123973947258,-1.35651123485,0.0794748327404,1.89438771606,0.159142723514,-0.00170049311138,-0.014287003285,0.000217902880581,-0.0169183539526,-0.00259122827904,0.0106551421664,0.00214131333284,0.573874303862,0.81892846649,0.00227970182716,0.0,0.818889463951,-0.573814273891,-0.0117461402415,0.0,-0.00831128318449,0.00860779758816,-0.999928411634,0.0,0.661616606001,0.260794405528,0.303456255629,1.0,-0.00228,-0.00299657142857,0.115
0.464983187576,0.546812233717,-0.123968334385,-1.35677103223,0.079470654495,1.8945236944,0.159122220373,-0.00268233430129,-0.0135623190232,0.00114215053085,-0.0215884951066,0.000481047306218,0.00980426560333,2.42620846573e-05,0.573880055054,0.818924217937,0.00235681723548,0.0,0.8188861442,-0.573819660678,-0.0117143825215,0.0,-0.00824096214276,0.00865278205779,-0.999928605404,0.0,0.661592623504,0.260767717486,0.303490285201,1.0,-0.00262,-0.00344342857143,0.132
0.464965374066,0.546593097637,-0.12396896603,-1.35710810045,0.0794624851316,1.89464066956,0.159092078906,-3.79765576899e-05,-0.0165051686934,0.000184033352334,-0.0236789919158,8.65173031094e-05,0.00154987962221,-0.00620020821218,0.573887042726,0.818919304316,0.00236264924285,0.0,0.818881191865,-0.573826505709,-0.0117252656942,0.0,-0.00824645443578,0.00866387388878,-0.999928464081,0.0,0.661549661626,0.260725052666,0.303495207862,1.0,-0.00294,-0.003864,0.148
0.464935951356,0.546340292885,-0.123973881077,-1.35749964205,0.079452078433,1.89478422559,0.158942434464,-0.001202221864,-0.01375816684,0.000581905152885,-0.0283231089004,2.56452191162e-05,0.0120014640282,-0.0130827572127,0.573811164655,0.818972440772,0.00237391544699,0.0,0.818934370198,-0.573750485501,-0.0117313510304,0.0,-0.00824577680342,0.00867582818579,-0.999928366019,0.0,0.661504506193,0.260667647588,0.303500480275,1.0,-0.00326,-0.00428457142857,0.164
0.464891987638,0.54604387521,-0.123966542377,-1.3580104773,0.0794373521402,1.89495532002,0.158926176102,7.96469817604e-05,-0.0175242848809,-0.000324903667237,-0.0312253941504,-0.00127553860263,0.0108167863357,-0.0045983784913,0.573853333451,0.818942971985,0.0023467475644,0.0,0.818904345223,-0.573792537466,-0.0117704810483,0.0,-0.00829296615688,0.0086764586122,-0.999927970295,0.0,0.661439800144,0.260595295234,0.303481815321,1.0,-0.00362,-0.00475771428571,0.182
0.46483305697,0.545735074395,-0.123970930442,-1.35852075207,0.0794017947789,1.89512090401,0.158877787757,-0.0023057702627,-0.0193861689366,0.000295670638859,-0.0313726384158,-0.00804947628279,0.00847463435148,-0.00815511256472,0.573884005818,0.81892157577,0.00231246774208,0.0,0.818882531809,-0.573823365555,-0.0117852085979,0.0,-0.00832437384326,0.00865714883586,-0.999927876686,0.0,0.661382162307,0.260502738699,0.303472035265,1.0,-0.00394,-0.00517828571429,0.198
0.464769053952,0.54538610263,-0.123971202281,-1.35912660534,0.0792896739875,1.8953302122,0.158770178976,-0.00293205399925,-0.0228710888742,0.000291810654238,-0.0360475430093,-0.0049528978658,0.0153934120314,-0.0128349468289,0.57385252834,0.818943863085,0.00222973870861,0.0,0.818904380377,-0.573792864528,-0.0117520771166,0.0,-0.00834504394032,0.00857006696253,-0.999928454538,0.0,0.661316961883,0.2603889666,0.303448700137,1.0,-0.00428,-0.00562514285714,0.215
0.464696015639,0.544970031687,-0.123976354022,-1.35986362238,0.079276853231,1.89556118509,0.158702045735,-0.00518491496763,-0.0241146745217,-5.78443488979e-05,-0.0390685785378,-0.00049863371321,0.0107950481158,0.000126067612125,0.573897713799,0.818912362399,0.00216880323345,0.0,0.818871769432,-0.573837955206,-0.0118225755859,0.0,-0.00843727413367,0.00856108566874,-0.999927757499,0.0,0.661225540834,0.260269258553,0.303412631216,1.0,-0.00464,-0.00609828571429,0.233
0.464641843961,0.544643803891,-0.123977156212,-1.36040861893,0.0792646772205,1.89574457835,0.158636160277,-0.00114203627992,-0.0182129848047,0.000457382918073,-0.0452680710047,-0.000800258879437,0.0146511962851,-0.00866264098675,0.573927569625,0.818891500782,0.00214515088024,0.0,0.818850367071,-0.573867665133,-0.0118628058912,0.0,-0.00848348152602,0.00856511384474,-0.999927332043,0.0,0.661152270185,0.260166340309,0.303395891012,1.0,-0.00492,-0.00646628571429,0.248
0.464561468013,0.544110617846,-0.123982828067,-1.36128807015,0.0792274484753,1.89607298348,0.158500839129,-0.00544230621878,-0.0242740543118,-0.00081495513003,-0.048032945963,-0.00415637654421,0.0228363252974,-0.0101433386301,0.573913963069,0.818901048422,0.00214074496564,0.0,0.818859757092,-0.573853976721,-0.0118768058869,0.0,-0.00849761738647,0.00856939962521,-0.999927175293,0.0,0.661061944606,0.260045493136,0.303387442248,1.0,-0.0053,-0.00696571428571,0.266
0.464487991676,0.543604299645,-0.123982887314,-1.36211868394,0.0791847912353,1.89636462717,0.158428703152,-0.000639517288529,-0.0321212347017,0.00170388461853,-0.0490255866574,-3.66306130747e-05,0.015490749315,-0.00468056256582,0.573949960045,0.818875883146,0.00211619197255,0.0,0.818834176974,-0.57388997252,-0.0119011327442,0.0,-0.00853125348642,0.00856362985158,-0.99992693831,0.0,0.660963791779,0.259917831666,0.303375608075,1.0,-0.00564,-0.00741257142857,0.283
0.46441872738,0.543110773612,-0.123996653939,-1.36291717881,0.0791378476352,1.89663942911,0.158321477388,-0.0019049409145,-0.0253379207344,-0.00782488312561,-0.0539834195851,-0.00607868725894,0.0187883649199,-0.00221859101059,0.573960350085,0.818868673365,0.00208787274807,0.0,0.818826618202,-0.573900496404,-0.0119137085619,0.0,-0.00855769628059,0.00854776668954,-0.999926848084,0.0,0.660871507065,0.259786826813,0.303368935719,1.0,-0.00596,-0.00783314285714,0.299
0.464344546454,0.542522080883,-0.123993125997,-1.36382393252,0.0790816499487,1.89695689974,0.158181389479,-0.00466608712456,-0.0362942079126,-0.000304420934823,-0.0522418088168,-0.00154603766149,0.0204682113829,-0.00408185481105,0.573939216812,0.818883484578,0.0020882989844,0.0,0.818841395824,-0.573879324923,-0.0119178778749,0.0,-0.00856108657899,0.00855028776839,-0.999926797509,0.0,0.66076300887,0.259652402315,0.303381106099,1.0,-0.0063,-0.00828,0.316
0.464261646216,0.54189883265,-0.123992745834,-1.36479742607,0.0790241232153,1.89732778466,0.158072523092,-0.00264791631664,-0.0341262224925,-0.000555536598286,-0.0538222736358,-0.000673430250168,0.0218618321243,-0.0117211726937,0.573953888701,0.818873158056,0.0021051272477,0.0,0.818831285525,-0.573893923332,-0.0119095553803,0.0,-0.00854445999732,0.00855944446947,-0.999926861382,0.0,0.660659769457,0.259513245465,0.303391790241,1.0,-0.00664,-0.00872685714286,0.333
0.464182961276,0.541332233346,-0.123996088022,-1.36565629546,0.0789821701459,1.89764382541,0.157949061625,-0.00283593236303,-0.0377052495717,-0.000120570093681,-0.0550116607797,-0.000766455693365,0.0285015568669,-0.0059397352932,0.573958612465,0.81886978067,0.00213081753653,0.0,0.818828159298,-0.573898458362,-0.0119059620171,0.0,-0.00852672377216,0.0085784680027,-0.999926849759,0.0,0.660556941128,0.259372575999,0.303409920432,1.0,-0.00696,-0.00914742857143,0.349
0.46410419926,0.54064947763,-0.123999282498,-1.36669940706,0.0789220837483,1.89802913253,0.157824502823,-0.00744243818602,-0.0402570283311,0.000102953202096,-0.0610055500345,-0.00173790074502,0.0174688036742,-0.0085951102212,0.573965109426,0.81886516936,0.00215278237127,0.0,0.81882381594,-0.573904847466,-0.0118966972718,0.0,-0.00850646256364,0.00859120403484,-0.999926912983,0.0,0.660435475429,0.259220274871,0.30342954896,1.0,-0.0073,-0.00959428571429,0.366
0.46400218934,0.539888078042,-0.124004503701,-1.36787499607,0.0788424736035,1.89845906439,0.157672295236,-0.0084478428383,-0.0450422821305,-0.00118332628201,-0.0648422381891,-0.0109927687891,0.0254853186034,-0.0141080445838,0.573971434391,0.818860716596,0.00216014333259,0.0,0.818819545169,-0.573911229123,-0.0118827789825,0.0,-0.0084907738714,0.00858930864905,-0.999927062608,0.0,0.660301747843,0.259036633225,0.303445502325,1.0,-0.00766,-0.0100674285714,0.384
0.463906484492,0.53918938151,-0.123996766197,-1.36895984348,0.0787802534365,1.89887342779,0.157538851192,-0.00844500893773,-0.0428053472891,0.00178724250823,-0.0682463506524,-0.00100709987571,0.025374563415,-0.0100906753858,0.573978541086,0.818855664063,0.0021869398828,0.0,0.818814782697,-0.573918168173,-0.0118758064668,0.0,-0.00846960992541,0.00860732249254,-0.999927087195,0.0,0.660178445602,0.258876383774,0.303458471952,1.0,-0.00798,-0.010488,0.4
0.463791998337,0.538418495323,-0.124010514592,-1.37014523909,0.078720921603,1.8993351307,0.157391147789,-0.0106545993237,-0.0433758134144,-0.0018322090444,-0.0690243598568,-0.00150380852055,0.0296168504869,-0.00681036826537,0.574010743733,0.818832976155,0.00222938160373,0.0,0.818792629981,-0.573950180978,-0.011856042563,0.0,-0.00842872692146,0.00863106321058,-0.999927228007,0.0,0.660052624478,0.258683972741,0.303479286625,1.0,-0.00832,-0.0109348571429,0.417
0.463684230955,0.537644981067,-0.124008421227,-1.37136825398,0.0786468819526,1.8998178252,0.157246609073,-0.0035179661309,-0.0462409814335,0.000377683873828,-0.074674839902,-0.00463459571334,0.0254749586601,-0.0121573676836,0.574027024613,0.818821490213,0.00225589903441,0.0,0.818781510309,-0.573966377554,-0.0118398781931,0.0,-0.00840009823705,0.00864366488681,-0.999927360065,0.0,0.659917547551,0.258499815816,0.303485202494,1.0,-0.00866,-0.0113817142857,0.434
0.463581243329,0.536872300181,-0.124022228951,-1.37257159468,0.0785746153878,1.90027167328,0.157092018226,-0.0067481527516,-0.0533508725089,-0.000221391262966,-0.0776465515271,-0.00630431709442,0.0356497146554,-0.0092553112908,0.57404145428,0.818811330376,0.00227176504943,0.0,0.818771620642,-0.57398080938,-0.0118241530637,0.0,-0.00837796226059,0.00864777726805,-0.999927510221,0.0,0.659783293705,0.258310256133,0.303497773984,1.0,-0.00898,-0.0118022857143,0.45
0.463467878,0.53602730666,-0.124021198967,-1.37390181465,0.078499170471,1.90076398885,0.156924557397,-0.00655093189167,-0.0518253454552,0.00116735466531,-0.0820778276872,-0.00164435589887,0.0340454192095,-0.00874392284344,0.574049400752,0.818805736273,0.0022800535397,0.0,0.818766071346,-0.573988657635,-0.011827435052,0.0,-0.00837580805564,0.00865652914819,-0.99992745254,0.0,0.659628375059,0.258110460212,0.303503714036,1.0,-0.00932,-0.0122491428571,0.467
0.463356429046,0.535135070414,-0.12402759572,-1.37532502645,0.0784181965127,1.90126645468,0.156754329436,-0.00681133336518,-0.0525477736254,-0.0022577877388,-0.0825462458974,-0.000474539881414,0.0261722960744,-0.00457118344993,0.574062094107,0.818796901342,0.00225684789978,0.0,0.818756869398,-0.574001372695,-0.0118473566352,0.0,-0.00840530693778,0.00864909460265,-0.999927269344,0.0,0.65945631537,0.257897015596,0.303499687111,1.0,-0.00966,-0.012696,0.484
0.463219356602,0.534173866154,-0.124030134013,-1.37686638914,0.0783323223286,1.90183136782,0.156566557669,-0.0107884675127,-0.0519898043984,-0.000735919438479,-0.0847013561407,-0.00863883005345,0.0299827689012,-0.016321580674,0.574083850444,0.818781676887,0.002246142181,0.0,0.818741425692,-0.574023086204,-0.0118625993061,0.0,-0.00842370366772,0.0086493028634,-0.999927112732,0.0,0.659276697054,0.257659253539,0.303493191162,1.0,-0.01002,-0.0131691428571,0.502
0.46309689812,0.533301894072,-0.124027973971,-1.37825210743,0.0782510900449,1.90234341455,0.156387691025,-0.00614527657389,-0.0554324491066,0.000358775496472,-0.08796794284,-0.00615542598343,0.0353447210553,-0.0113431102986,0.574090195089,0.818777229347,0.00224577534393,0.0,0.818736921016,-0.574029377743,-0.0118690587203,0.0,-0.00842913627773,0.00865277601938,-0.999927036903,0.0,0.659114909776,0.257448348351,0.303492903833,1.0,-0.01034,-0.0135897142857,0.518
0.462957031096,0.532245860475,-0.124028210626,-1.37996408053,0.0781641420137,1.90299388221,0.156176731057,-0.0120049751482,-0.0588099013664,0.000347253466369,-0.0904236808931,-0.00672945966423,0.0312476660534,-0.0135779810477,0.574102548867,0.81876856199,0.00224770601373,0.0,0.818728130966,-0.574041570587,-0.0118856932618,0.0,-0.00844151781523,0.0086640337497,-0.999926834972,0.0,0.658914559691,0.257196740246,0.303479027971,1.0,-0.01072,-0.0140891428571,0.537
0.46284795891,0.531446523367,-0.124025505612,-1.38125551884,0.0780784586431,1.90346489586,0.15601185313,-0.0060844802886,-0.0532452811851,0.000618170804142,-0.091162570142,-0.0131610916416,0.0310347812835,-0.00936366892294,0.574102316745,0.818768785866,0.00222533153682,0.0,0.818728086826,-0.574041451477,-0.0118944831535,0.0,-0.00846156189596,0.00865075832051,-0.999926780495,0.0,0.658760595204,0.257001759724,0.30346846608,1.0,-0.011,-0.0144571428571,0.551
0.462708163984,0.530421005534,-0.124025476378,-1.38289866571,0.0779827511318,1.90403871064,0.155800344914,-0.0059375581252,-0.064885119963,0.000475138740027,-0.097272666063,-0.00455524390992,0.0378137112937,-0.0171277627986,0.574107099678,0.818765526566,0.00219032136276,0.0,0.818724263313,-0.574046264344,-0.0119253493439,0.0,-0.00850688292287,0.00863986331273,-0.999926490151,0.0,0.658559720378,0.256751589833,0.303458722281,1.0,-0.01134,-0.014904,0.568
0.462559102987,0.529321063193,-0.124031389572,-1.38463863045,0.0778729211726,1.90468082143,0.155560386779,-0.0108264879846,-0.0628423081535,0.00166246317635,-0.0903644716743,-0.00821307242685,0.0381768481818,-0.0114569404148,0.574101799314,0.818769250519,0.00218753987234,0.0,0.81872799139,-0.574041016893,-0.0119219939596,0.0,-0.00850578820894,0.00863560457152,-0.999926536252,0.0,0.658355842147,0.256483721711,0.30346117306,1.0,-0.0117,-0.0153771428571,0.586
0.46243666257,0.52835556464,-0.124042458039,-1.38614109744,0.077768292783,1.90525322753,0.155361595891,-0.0139513442299,-0.0688347901905,-0.00137165286196,-0.101868764191,-0.0124926488192,0.0413978513116,-0.012530485193,0.574100426738,0.818770162011,0.00220651789696,0.0,0.818729329524,-0.574039750728,-0.0118910244796,0.0,-0.0084695501212,0.0086333493652,-0.999926863325,0.0,0.658183654447,0.256252944418,0.303475843797,1.0,-0.012,-0.0157714285714,0.601
0.462279967587,0.52717345958,-0.124041077311,-1.38796972345,0.0776619447402,1.90595770148,0.155095660069,-0.00795581618035,-0.0730814176335,0.000762641764713,-0.105351928425,-0.0101781038423,0.0422909462627,-0.0118023935,0.57408046163,0.818784021485,0.00225757311991,0.0,0.818743823188,-0.574019554219,-0.0118680354951,0.0,-0.00842162885632,0.00866174810845,-0.999927022481,0.0,0.657972730732,0.255979680022,0.303498583492,1.0,-0.01236,-0.0162445714286,0.619
0.462135843653,0.526008154639,-0.124046128406,-1.38978964663,0.0775476717512,1.90663277044,0.15486151285,-0.0100740225474,-0.0737614042982,-0.00174784877213,-0.108357422447,-0.00163381388615,0.0354346612242,-0.0151947871484,0.574077738619,0.818785893588,0.00227098769763,0.0,0.818745906589,-0.574016816598,-0.0118567114918,0.0,-0.00840468480132,0.00866620285328,-0.999927126445,0.0,0.657755632312,0.255708538661,0.303510977412,1.0,-0.0127,-0.0166914285714,0.636
0.462015657773,0.525101673384,-0.124047454937,-1.39119250492,0.0774488731483,1.90713626376,0.154665555105,-0.0120032112626,-0.0693745411469,0.000800204210935,-0.105933376135,-0.00572014247696,0.0493938535621,-0.0166004461016,0.574065360474,0.818794575373,0.00226983390827,0.0,0.818754659068,-0.574004532902,-0.0118469980955,0.0,-0.00839752450117,0.00865955504322,-0.999927244198,0.0,0.657587063479,0.255492328682,0.30352453127,1.0,-0.01296,-0.0170331428571,0.649
0.461841669956,0.523725048381,-0.124053449859,-1.3934321646,0.0773224790332,1.90793495147,0.154364851958,-0.0088730480176,-0.0665835926613,-0.000411585456282,-0.109948471607,-0.0062075816568,0.0444830083533,-0.0133120905739,0.574052066272,0.818804037606,0.00221813206986,0.0,0.818763305823,-0.57399129839,-0.0118905555529,0.0,-0.00846300932851,0.00864208951756,-0.999926843205,0.0,0.657308944501,0.255160458198,0.303495970967,1.0,-0.01336,-0.0175588571429,0.669
0.461682144441,0.522505551818,-0.124053497465,-1.39536126603,0.0772117668737,1.90866642894,0.154109842425,-0.0102864310412,-0.0739895656826,0.000445406054788,-0.112912049787,-0.00193519854409,0.0405732556705,-0.00924470292444,0.574047616831,0.818807101258,0.0022386249793,0.0,0.818766574344,-0.573986704468,-0.0118872507949,0.0,-0.00844858705235,0.00865692596766,-0.999926836828,0.0,0.65707969404,0.254874343898,0.303498341619,1.0,-0.0137,-0.0180057142857,0.686
0.461531416575,0.521346983047,-0.124059100674,-1.39722586451,0.0770916355057,1.90939456247,0.153840326619,-0.0101759427449,-0.0714803608752,-0.00060901288576,-0.120154378366,-0.00856170385423,0.0432224428112,-0.0164144643863,0.574021868736,0.818825122268,0.00224950148048,0.0,0.818784843105,-0.5739610254,-0.0118688215207,0.0,-0.00842752531246,0.00865498746109,-0.999927031342,0.0,0.656862283269,0.254595918649,0.303488168319,1.0,-0.01402,-0.0184262857143,0.702
0.461358636349,0.520064645251,-0.124064843273,-1.39925458608,0.0769634488667,1.91013457753,0.15357344608,-0.00856963615354,-0.075901463544,-0.00106013910228,-0.121288470072,-0.00789397724767,0.043341602234,-0.0140041768732,0.57402238827,0.818824785317,0.00223955725415,0.0,0.818784398054,-0.573961606073,-0.0118714429554,0.0,-0.00843537425794,0.00864835508333,-0.999927022545,0.0,0.656617206477,0.254284658601,0.303487494401,1.0,-0.01436,-0.0188731428571,0.719
0.461187534209,0.518711551505,-0.124062671507,-1.40133923084,0.0768257301508,1.91087704196,0.153297956685,-0.0111221156051,-0.0870502128741,0.000827971999944,-0.126842020653,-0.00446688991187,0.045649613316,-0.017985451729,0.574008715886,0.818834356036,0.00224463006902,0.0,0.818794049864,-0.573947930801,-0.0118669093831,0.0,-0.00842889460162,0.00864976569596,-0.999927064985,0.0,0.65635882964,0.2539721114,0.303509400391,1.0,-0.0147,-0.01932,0.736
0.461023541052,0.517456327011,-0.12406844262,-1.40332131038,0.0766935774544,1.91160416026,0.153030682195,-0.0107399234427,-0.0830334134858,-0.000526503535364,-0.129561080537,-0.0097747069464,0.0410091876889,-0.0121596562909,0.57400027264,0.818840294872,0.00223727617577,0.0,0.818799979336,-0.573939606198,-0.0118604037743,0.0,-0.00842787737934,0.00863992303186,-0.999927158654,0.0,0.656102547477,0.253650848428,0.303512576904,1.0,-0.01504,-0.0197668571429,0.753
0.460823092364,0.516020159477,-0.124075135998,-1.40559028916,0.0765540893115,1.91244614131,0.152707347807,-0.0119774085339,-0.0822875480746,-0.000839551646196,-0.125238545797,-0.00496143973009,0.0474476177633,-0.0271293469134,0.573984022042,0.818851675,0.0022413595188,0.0,0.81881141739,-0.57392334645,-0.0118575736463,0.0,-0.00842338766237,0.00864147495279,-0.999927183074,0.0,0.655846093214,0.253319152916,0.303510609248,1.0,-0.01538,-0.0202137142857,0.77
0.460640842896,0.514643217417,-0.124079087965,-1.40779450647,0.0764184037164,1.91327052484,0.152407403786,-0.00873961621281,-0.0818110922239,-0.000626479356928,-0.13188684187,-0.0106492952577,0.0476992688654,-0.0137262101429,0.573970116991,0.818861437706,0.00223551780926,0.0,0.818821104043,-0.573909466134,-0.011860487178,0.0,-0.00842927303962,0.0086382206863,-0.999927161597,0.0,0.655578114667,0.252987849999,0.303498463994,1.0,-0.01572,-0.0206605714286,0.787
0.460458786317,0.51334179994,-0.124081329922,-1.40991642963,0.0762936146653,1.91401315889,0.152116897273,-0.00953043081713,-0.0806514010684,-0.000418341702259,-0.13185517729,-0.00407491987737,0.0524745362399,-0.0149787404409,0.573960591554,0.818868287135,0.00217130604011,0.0,0.818826977579,-0.573900055789,-0.0119102332048,0.0,-0.00850696339168,0.00861409430603,-0.999926711791,0.0,0.655309515389,0.252662768457,0.303465036316,1.0,-0.01604,-0.0210811428571,0.803
0.460257904032,0.51191431428,-0.124082582311,-1.41220803335,0.0761559221387,1.91482686998,0.15179068048,-0.009148762244,-0.0774152469918,0.000919439614524,-0.136165405768,-0.00538640174858,0.0489051522039,-0.0206502143248,0.573941599041,0.818881708578,0.00212958874728,0.0,0.81883974238,-0.573881121495,-0.011944939999,0.0,-0.00855952689402,0.00859965543468,-0.999926387503,0.0,0.655022449141,0.252310252159,0.30344486244,1.0,-0.01638,-0.021528,0.82
0.460062740035,0.510455248325,-0.124084979479,-1.41453537119,0.0760171770939,1.91571584599,0.151462735523,-0.0123606117411,-0.0896500049959,0.000730111364932,-0.140677658901,-0.00200391515068,0.0562083278745,-0.0164304089891,0.573918949845,0.81889753921,0.00214620272127,0.0,0.81885576343,-0.573858380796,-0.011939195455,0.0,-0.0085455258876,0.00860972674925,-0.999926420589,0.0,0.654740704416,0.251961917652,0.303435890325,1.0,-0.01672,-0.0219748571429,0.837
0.459863324742,0.508959353085,-0.124093186649,-1.4169049632,0.0758611806278,1.91657562906,0.151134609295,-0.018138476448,-0.0893105373857,0.00037185512774,-0.139440714042,-0.0151016886733,0.0532282793445,-0.0259928655667,0.573900427489,0.818910572418,0.00212617309492,0.0,0.818868600912,-0.573840008505,-0.0119417745897,0.0,-0.00855932707161,0.00859461140242,-0.999926432581,0.0,0.654446361035,0.251598271079,0.303429697928,1.0,-0.01706,-0.0224217142857,0.854
0.459634350626,0.507340555167,-0.124096837266,-1.4194454522,0.0757010488351,1.9174834078,0.150788682301,-0.011521996287,-0.0955393702564,0.000541061062825,-0.14267331015,-0.0119858318246,0.0495354940778,-0.0205406555235,0.573895544452,0.818914031788,0.00211175282611,0.0,0.818871835831,-0.573835148809,-0.0119534671318,0.0,-0.00857722910376,0.00858946181499,-0.999926323429,0.0,0.654129569308,0.251201967301,0.303431606352,1.0,-0.01742,-0.0228948571429,0.872
0.459429783308,0.50587082732,-0.124108515673,-1.42173107016,0.0755626657291,1.91834006866,0.150470450802,-0.0144084417315,-0.0961739042446,-0.000605434210233,-0.147259329038,-0.00469626207883,0.053301109307,-0.019198605326,0.573891703428,0.818916639771,0.00214400208768,0.0,0.818874880622,-0.573831192436,-0.0119347967676,0.0,-0.00854347287905,0.00860511597578,-0.999926477822,0.0,0.65385317718,0.250845271177,0.303445857121,1.0,-0.01774,-0.0233154285714,0.888
0.459198226629,0.504132541673,-0.124110447723,-1.42435286256,0.0753974193007,1.91934994108,0.150111400649,-0.0133837633335,-0.0967109554467,0.000496522439445,-0.141743644776,-0.0120349926885,0.0532146770107,-0.0214454776814,0.573879226083,0.81892510501,0.0022479226731,0.0,0.81888477277,-0.573818373497,-0.0118722392192,0.0,-0.00843273777359,0.00865418772229,-0.999926994319,0.0,0.653538829612,0.250446390415,0.30350009184,1.0,-0.0181,-0.0237885714286,0.906
0.458999541616,0.502670199159,-0.124118510545,-1.4265219592,0.0752526489578,1.92017796383,0.149800253652,-0.010342472589,-0.0973738752039,-0.00160855166396,-0.147908978612,-0.00421561135667,0.0545153370602,-0.0146994902258,0.573865032868,0.818934783491,0.00234336100776,0.0,0.818895845092,-0.573803968521,-0.01180455426,0.0,-0.00832269047879,0.00869335688528,-0.999927576562,0.0,0.653280663878,0.250106570874,0.303560829946,1.0,-0.0184,-0.0241828571429,0.921
0.458727447466,0.500646171107,-0.124114946655,-1.42954978695,0.0750588996079,1.92124666301,0.149368797491,-0.0132295852785,-0.102513715876,0.000760244275517,-0.158773026134,-0.0117893186314,0.057436036556,-0.031541651219,0.573833876312,0.818956453096,0.00239942277994,0.0,0.818918180842,-0.573772537354,-0.0117828420581,0.0,-0.00827307092488,0.0087264928822,-0.999927699696,0.0,0.65289591933,0.249639777146,0.303624758602,1.0,-0.0188,-0.0247085714286,0.941
0.458537073082,0.499354511683,-0.124117073039,-1.43153555454,0.0749339238063,1.92197408705,0.149101595072,-0.0118098247879,-0.0997043637711,-0.000613431170902,-0.156226275651,-0.00558667599635,0.0614069002225,-0.0249510134454,0.573839800184,0.818952223534,0.00242614811552,0.0,0.818914292087,-0.573778353275,-0.0117698950608,0.0,-0.0082470692419,0.0087410098879,-0.99992778769,0.0,0.65265095816,0.249324945908,0.303643733287,1.0,-0.01906,-0.0250502857143,0.954
0.45828076552,0.497680591084,-0.124119577726,-1.43419354037,0.0747699535236,1.92294425042,0.148698820563,-0.0106965045217,-0.100754184043,0.000773486718499,-0.155267779221,-0.0112832407351,0.0485912265955,-0.0275219682287,0.57381234572,0.818971497872,0.00241339487964,0.0,0.818933338251,-0.573750884024,-0.0117837805562,0.0,-0.00826605211417,0.00873825652625,-0.999927655011,0.0,0.652319957776,0.248902459848,0.303629996289,1.0,-0.0194,-0.0254971428571,0.971
0.458013130169,0.496006105443,-0.124120614414,-1.43687048902,0.0746120179283,1.92388828089,0.148309577458,-0.0156857832536,-0.0958349241473,-0.000449956034834,-0.1562830038,-0.0134789379657,0.060112811845,-0.0269386080257,0.573806195779,0.8189759386,0.00236824423305,0.0,0.818937007214,-0.573744712242,-0.011829213464,0.0,-0.00832923395714,0.00872728684874,-0.999927226515,0.0,0.651980067933,0.248470584268,0.303604707594,1.0,-0.01974,-0.025944,0.988
0.457752482007,0.494442886568,-0.124117751981,-1.43945210627,0.0744501454624,1.92477578145,0.147947415167,-0.0140992318258,-0.0972309747016,0.00368562395282,-0.158937549781,-0.0138828206531,0.0573617363724,-0.0176486283313,0.573807093568,0.818975624911,0.00225656221384,0.0,0.818935075823,-0.573745877687,-0.0119061465206,0.0,-0.0084563133293,0.00867997639472,-0.999926571691,0.0,0.651645400034,0.248051139103,0.303541745119,1.0,-0.0204188571429,-0.0268362122449,1.004
0.457481793654,0.492616037794,-0.124152718685,-1.44235994582,0.0742634431889,1.92585605918,0.147543052504,-0.0124737600662,-0.112286813887,-0.000822142435895,-0.1772750853,-0.00766827296286,0.0619542615622,-0.0229111929207,0.573825163945,0.818962985592,0.00224863376806,0.0,0.818922461054,-0.573764108558,-0.011895268526,0.0,-0.00845176199969,0.00866742798632,-0.999926719021,0.0,0.651266912617,0.247544235781,0.303528667852,1.0,-0.023052,-0.0302969142857,1.022
0.457148140075,0.4904737141,-0.124164596592,-1.44579623104,0.0740513762617,1.92708969624,0.147031744171,-0.0205673056911,-0.123621910676,-0.00255885506435,-0.196372469372,-0.00762286685685,0.0689563147588,-0.0301935823021,0.57379576293,0.818983747284,0.00218884214945,0.0,0.818942387017,-0.57373489388,-0.0119325266448,0.0,-0.00851689424441,0.00863953518235,-0.999926407764,0.0,0.650851165581,0.247023190884,0.3034864148,1.0,-0.0255388571429,-0.033565355102,1.039
0.456812770905,0.488364053482,-0.124181813107,-1.44918038598,0.0738501881137,1.92829939022,0.146548235997,-0.0198312250152,-0.135415628115,-0.000370859749235,-0.21339093556,-0.0113632567081,0.0771520581642,-0.0365393397157,0.573800829333,0.818980340682,0.00213465059041,0.0,0.81893812886,-0.573740035603,-0.0119774599357,0.0,-0.00858473499569,0.00862098918547,-0.999925987696,0.0,0.650420327253,0.24647137168,0.30344779413,1.0,-0.0278794285714,-0.0366415346939,1.055
0.456413434894,0.485845230482,-0.124204651864,-1.45302196208,0.0736096297503,1.92979173458,0.145993810356,-0.0278816419667,-0.152874981435,-0.00093787072386,-0.233338849737,-0.0162471056811,0.0838456184968,-0.0341839060879,0.573815712938,0.818969548108,0.00227018914738,0.0,0.81892927485,-0.573754542829,-0.0118875682095,0.0,-0.00843318739324,0.00868056490724,-0.99992676189,0.0,0.649961934194,0.245838699151,0.303498936719,1.0,-0.0303662857143,-0.0399099755102,1.072
0.456026157484,0.483483828931,-0.124234109998,-1.45667196878,0.073376343286,1.93107842893,0.145423826344,-0.0261464754151,-0.160759915698,-0.00229845136117,-0.251681980659,-0.0189457479284,0.0826197071002,-0.0348019021087,0.573803333473,0.818978243995,0.00226213607956,0.0,0.818937884359,-0.573742215896,-0.0118894138465,0.0,-0.00843945079278,0.00867490125202,-0.999926758197,0.0,0.649500728577,0.245218459062,0.303512998593,1.0,-0.0325605714286,-0.0427938938775,1.087
0.455561095864,0.480575406655,-0.124275658605,-1.46120147976,0.0731085166427,1.93266489651,0.144751687262,-0.025560219996,-0.175239118207,-0.00298038607843,-0.273090791557,-0.012789818932,0.103414262024,-0.0426166485547,0.573812735162,0.818971729961,0.00223548476905,0.0,0.818930851507,-0.573751547017,-0.0119234913988,0.0,-0.0084825528489,0.00867272563452,-0.999926412356,0.0,0.648918626474,0.244458797466,0.303512768174,1.0,-0.0350474285714,-0.0460623346939,1.104
0.454982898335,0.477090087193,-0.124303043058,-1.46651527664,0.0727820495298,1.93461268881,0.143978809268,-0.0346574089142,-0.187637265579,0.00178380925495,-0.284380205631,-0.0154981772459,0.102972098651,-0.039345246674,0.573837889482,0.818953832284,0.00233325603617,0.0,0.818914248269,-0.573776331632,-0.011871063239,0.0,-0.00838324704717,0.00872297043208,-0.9999268128,0.0,0.648291847684,0.24360768612,0.303567919981,1.0,-0.0376805714286,-0.0495230367347,1.122
0.454454811418,0.473959768842,-0.124325859355,-1.47129506701,0.0724790864,1.93638790635,0.143287398961,-0.0327233491629,-0.198195371895,3.01067331854e-05,-0.30671222211,-0.0242054144498,0.116018446923,-0.0443054424198,0.573873815074,0.818928357722,0.00243643007448,0.0,0.818890126228,-0.573811865395,-0.0118174108492,0.0,-0.00827971978358,0.00877704016478,-0.999927202253,0.0,0.647658864091,0.242756090093,0.303612732529,1.0,-0.0401674285714,-0.052791477551,1.139
0.453868367197,0.470449568976,-0.124339363493,-1.476709896,0.0721558643919,1.93825509666,0.142481523955,-0.0319105965467,-0.216800549138,0.000588790824165,-0.328030836309,-0.0221149627248,0.11129827533,-0.0478309659286,0.573874881537,0.81892766525,0.0024179185832,0.0,0.818888796228,-0.57381258335,-0.0118745738046,0.0,-0.00833714540894,0.0087946953985,-0.999926569974,0.0,0.646943023581,0.241849485021,0.303623740736,1.0,-0.0426542857143,-0.0560599183673,1.156
0.453251313471,0.466723798112,-0.124344685754,-1.48228749008,0.0717921447155,1.94039838685,0.141562617971,-0.0379444170564,-0.220614088664,0.000261567997967,-0.329968048253,-0.0188254612673,0.114118656698,-0.0517680716235,0.573797364601,0.818981238871,0.00265737749556,0.0,0.818945676717,-0.573734390742,-0.0117292100386,0.0,-0.0080815297045,0.00890660910022,-0.999927677981,0.0,0.646250089791,0.240923923809,0.303726424071,1.0,-0.0451411428571,-0.0593283591837,1.173
0.452632195104,0.463052533495,-0.12434611892,-1.48795978586,0.0714111087362,1.94234368835,0.140709026273,-0.0408680663081,-0.236808791849,-0.000254083914029,-0.360752373806,-0.0271061298947,0.120132353404,-0.054761397361,0.573767955354,0.819002012539,0.00260456656069,0.0,0.818965619194,-0.57370501769,-0.0117734513082,0.0,-0.00814838429279,0.00888845068086,-0.999927296996,0.0,0.645487256098,0.239972911316,0.303726240299,1.0,-0.0474817142857,-0.0624045387755,1.189
0.45189092537,0.458771659356,-0.124356042236,-1.49461650137,0.0709643945647,1.94465162535,0.139725700049,-0.0427630568988,-0.237521066069,0.000838441192,-0.372333806204,-0.0201421697306,0.132252513102,-0.0529840999116,0.573763810676,0.81900512685,0.00253744996847,0.0,0.818967738005,-0.573700989679,-0.0118222438485,0.0,-0.00822689915789,0.00886143595231,-0.999926893869,0.0,0.644594377477,0.238845035159,0.303705573079,1.0,-0.0501148571429,-0.0658652408163,1.207
0.451268212396,0.455351873979,-0.124360609377,-1.50001958933,0.0706059924553,1.94659192443,0.138880781316,-0.0433033569975,-0.244158965507,0.000459592193115,-0.393132762429,-0.0241461501764,0.141771817188,-0.0595967547923,0.573736161231,0.819024633787,0.00249267867883,0.0,0.81898658729,-0.573673432964,-0.0118536513817,0.0,-0.00827860833585,0.00884250909039,-0.999926634647,0.0,0.643879913694,0.237923292256,0.303653864225,1.0,-0.0521628571429,-0.0685568979592,1.221
0.450422345332,0.450620136046,-0.124415538362,-1.50712342561,0.0701025964189,1.94920698631,0.137730750978,-0.0457215822632,-0.271144740668,-0.00151094413999,-0.400223044559,-0.0238970995906,0.150924412768,-0.0521538412018,0.573712619774,0.819040587215,0.00266332640257,0.0,0.819005304317,-0.573649858398,-0.0117003573368,0.0,-0.00805540582159,0.00889409234966,-0.999928000187,0.0,0.642970460019,0.236668558364,0.303749234256,1.0,-0.054796,-0.0720176,1.239
0.449627904564,0.446259411677,-0.124462094175,-1.51377113875,0.0696629148099,1.95148719683,0.136770719846,-0.0520948890279,-0.275781714366,-0.00310819075953,-0.429706547918,-0.0337439713458,0.137573878525,-0.0615474661004,0.573789820266,0.818986551425,0.00264908405577,0.0,0.818951010208,-0.573727018749,-0.0117174117464,0.0,-0.00807670704173,0.00889297286083,-0.999927838315,0.0,0.642073891841,0.235490228848,0.303773277662,1.0,-0.0571365714286,-0.0750937795918,1.255
0.448743872903,0.441515871559,-0.124479808217,-1.52118814501,0.0691473298576,1.95398685065,0.135607647746,-0.0507164875106,-0.281950902929,-1.12750261573e-05,-0.444380871706,-0.0314874794214,0.148672799326,-0.0724953312361,0.573761789147,0.819006698222,0.00248686210743,0.0,0.818968889924,-0.573699415015,-0.0118188599186,0.0,-0.00825317300158,0.00881804268674,-0.999927060969,0.0,0.641045299431,0.234190806001,0.303707106962,1.0,-0.0596234285714,-0.0783622204082,1.272
0.447691256778,0.436003797765,-0.124490389487,-1.52966635843,0.0685910506591,1.95697605171,0.134221843492,-0.0571774095786,-0.300747094368,-0.000297905093822,-0.445506811643,-0.0281723917295,0.16204876545,-0.0744271276566,0.573716714503,0.819038212095,0.00250709556766,0.0,0.819000393715,-0.573653977108,-0.011841306647,0.0,-0.00826043632061,0.00884703813481,-0.999926744871,0.0,0.639892482992,0.232701213282,0.303697076468,1.0,-0.0624028571429,-0.0820151836735,1.291
0.4467211972,0.431135958082,-0.124522506047,-1.53691291815,0.0680780673054,1.95966349563,0.133033423026,-0.0630059546757,-0.306930195938,-0.000977124710958,-0.465012205369,-0.0382038153658,0.161233100536,-0.0742729272899,0.573734085649,0.819025293215,0.00274133907522,0.0,0.818990959841,-0.573670978115,-0.0116689103585,0.0,-0.00798465978872,0.00894015566125,-0.999928156832,0.0,0.63895082032,0.231376046398,0.303800691977,1.0,-0.0647434285714,-0.0850913632653,1.307
0.445665648692,0.425872327225,-0.124594788691,-1.54511398383,0.0674787432825,1.96232011514,0.131721080616,-0.0651064786835,-0.309389060972,-0.00444238860302,-0.485711080612,-0.0368980176362,0.157821917374,-0.0842250268961,0.573759853811,0.819008105551,0.0024698375157,0.0,0.818970274393,-0.573697756027,-0.0118034440741,0.0,-0.00825033497408,0.00879523518987,-0.999927285262,0.0,0.637788508298,0.229854443366,0.303712979154,1.0,-0.0672302857143,-0.0883598040816,1.324
0.444557141275,0.420358148101,-0.124672727258,-1.55350642596,0.0668713113974,1.96510571136,0.130358572628,-0.0680133041593,-0.329104055865,-0.00593267797724,-0.492555426663,-0.035807050529,0.166890323813,-0.0777300527507,0.573793041256,0.818985176573,0.00236077559472,0.0,0.818946058093,-0.573731494029,-0.0118437154262,0.0,-0.00834553673803,0.00872935742869,-0.999927072509,0.0,0.636610272823,0.228286540597,0.303708243387,1.0,-0.0697171428571,-0.091628244898,1.341
0.443459473734,0.415011180201,-0.124685100833,-1.56139176735,0.0663266823994,1.96805742766,0.129080742363,-0.0720330899066,-0.326397220022,-0.00365016684726,-0.49714313425,-0.0375312158989,0.179260126427,-0.0757481105788,0.573831837881,0.818956959711,0.00269571438246,0.0,0.818922466942,-0.573769358218,-0.0116388834742,0.0,-0.00798518005276,0.00888651406007,-0.999928630837,0.0,0.635561822689,0.226843323153,0.30383593369,1.0,-0.0720577142857,-0.0947044244898,1.357
0.442014959229,0.408223335981,-0.124718884504,-1.57173466759,0.065602077365,1.97153650869,0.127318479803,-0.0697685659765,-0.344768990186,-0.00668709145119,-0.525313070474,-0.0407524550186,0.164869783117,-0.0872324291967,0.573816541814,0.818967919564,0.00262106221283,0.0,0.81893219245,-0.57375403249,-0.0117098792258,0.0,-0.00808632610069,0.0088659653242,-0.999928000403,0.0,0.634089643531,0.224912359322,0.303808111014,1.0,-0.0749834285714,-0.0985496489796,1.377
0.440875658505,0.403027944494,-0.124788548991,-1.57980985425,0.065028858783,1.97418539984,0.125999579787,-0.0752968061757,-0.344435133543,-0.00453965824834,-0.536286894725,-0.0434667964876,0.188931541295,-0.0908779175355,0.573884836015,0.818920720892,0.0024072364425,0.0,0.818882039552,-0.573822922347,-0.0118408610131,0.0,-0.00831555908688,0.00876670205467,-0.999926995541,0.0,0.63292235221,0.223368750935,0.303704300201,1.0,-0.0771777142857,-0.101433567347,1.392
0.4396934657,0.397535552138,-0.124821046058,-1.58780157323,0.0644582309698,1.97707437455,0.124622482638,-0.0819001728854,-0.36737273929,-0.00131744458443,-0.527688889799,-0.0343162969953,0.185604720037,-0.0941272330472,0.573891151191,0.818915262588,0.00273608954885,0.0,0.818881160866,-0.573828377405,-0.0116354873192,0.0,-0.00795858555449,0.00891820710138,-0.999928560697,0.0,0.631744580414,0.22175355337,0.303859876786,1.0,-0.0795182857143,-0.104509746939,1.408
0.438205590543,0.390902244741,-0.124840340328,-1.59781047268,0.0637023107241,1.98038654804,0.122928233588,-0.0851307722505,-0.367720330207,-0.00183573679165,-0.551858234856,-0.0460977074769,0.177471503743,-0.104037661197,0.573924675096,0.818892094642,0.00263657925194,0.0,0.818856681756,-0.573862220761,-0.0116890216558,0.0,-0.00805916936727,0.00886776922544,-0.999928203652,0.0,0.630360885518,0.219936024223,0.303833896007,1.0,-0.0820051428571,-0.107778187755,1.425
0.436782242723,0.384510660662,-0.124871084708,-1.60754100172,0.0629760855027,1.98351582018,0.121187999728,-0.0876125037298,-0.383237352871,-0.00266413659459,-0.562307932713,-0.0396126782732,0.184735225378,-0.108135416881,0.573851523555,0.818943964281,0.00244114348064,0.0,0.818905733885,-0.573789494958,-0.0118220720593,0.0,-0.00828107150965,0.00878334956302,-0.999927135658,0.0,0.628898750145,0.218081501955,0.303761397496,1.0,-0.084492,-0.111046628571,1.442
0.43557900937,0.379013543769,-0.124872470526,-1.6154883144,0.0624258245335,1.98632800429,0.11979397104,-0.0837294552017,-0.383594124874,-0.000940156471116,-0.572789081901,-0.0447930905862,0.198719224191,-0.0967605727988,0.573839147747,0.818951648487,0.00275260872766,0.0,0.818917372738,-0.573775888333,-0.0116753370903,0.0,-0.00798230972301,0.00895409698712,-0.999928050851,0.0,0.627752868088,0.216584459624,0.30389932589,1.0,-0.08654,-0.113738285714,1.456
0.4337150478,0.371184285511,-0.124903434465,-1.62733610963,0.0614985481537,1.99018659,0.117690299644,-0.0980403912407,-0.390653773991,-0.0027391185251,-0.603411470171,-0.0522247060008,0.191628458734,-0.0999166418458,0.573832672755,0.818956764003,0.00257473757313,0.0,0.818920197141,-0.573770069229,-0.0117628768406,0.0,-0.00815613722804,0.00885859821315,-0.999927498703,0.0,0.625971886679,0.214257522052,0.303821590186,1.0,-0.0894657142857,-0.117583510204,1.476
0.432006933733,0.36384246922,-0.12497581475,-1.63810524568,0.0606663359597,1.99373350508,0.115792097591,-0.0972635672805,-0.417630883883,-0.00149339068283,-0.600319382113,-0.0477258698939,0.198852967043,-0.117187597469,0.573876655221,0.818925738441,0.00263939620793,0.0,0.818890232468,-0.573814054366,-0.0117032081684,0.0,-0.00806969111887,0.00887774465744,-0.999928030278,0.0,0.624355931655,0.212121595383,0.303890041414,1.0,-0.0920988571428,-0.121044212245,1.494
0.430508041819,0.357661008113,-0.124980876582,-1.64724008993,0.0599742350448,1.9967882584,0.114062589853,-0.104915266223,-0.412636553934,-0.00495736152961,-0.621388108995,-0.040932400596,0.191888303338,-0.12072382783,0.573811761872,0.818970974435,0.00271143340952,0.0,0.818936314469,-0.573748817058,-0.011677100275,0.0,-0.00800767865219,0.0089211205249,-0.999928142764,0.0,0.622975030892,0.210321870549,0.303909844189,1.0,-0.0942931428571,-0.123928130612,1.509
0.428718262364,0.350607521663,-0.125024834168,-1.65791256873,0.0591708912315,2.00014792321,0.112109048315,-0.104608575325,-0.410385383967,-0.00410227864961,-0.632875118228,-0.0460675074807,0.204422864897,-0.117895362894,0.573843906847,0.818949172345,0.00248406755884,0.0,0.818911021753,-0.573781206232,-0.0118580237234,0.0,-0.0082859669642,0.00883905514285,-0.999926604234,0.0,0.621310726798,0.208165899695,0.303793674671,1.0,-0.09678,-0.127196571429,1.526
0.426872805455,0.343229531166,-0.125078526228,-1.66845291467,0.0583790373036,2.00373869215,0.110114859197,-0.110879992979,-0.427303097108,0.00252271153501,-0.631665994257,-0.0538473376007,0.208447314554,-0.11987267648,0.573886465012,0.818918227621,0.00282995527934,0.0,0.818884774061,-0.57382272828,-0.0116597693877,0.0,-0.00792465759638,0.00900896457679,-0.999928016589,0.0,0.61973037314,0.206010967593,0.30395804218,1.0,-0.0992668571428,-0.130465012245,1.543
0.425072465164,0.336288677582,-0.125091013838,-1.67876769725,0.0575435239509,2.00696066139,0.108131506496,-0.111679848252,-0.430369739743,-0.00172178803507,-0.646106716823,-0.050903443133,0.204121619024,-0.121924499367,0.573835414157,0.818954521201,0.0026751758238,0.0,0.818918856312,-0.5737720029,-0.0117619031577,0.0,-0.00809767868377,0.00894032062469,-0.999927246487,0.0,0.6180905934,0.203907625797,0.303898129088,1.0,-0.101607428571,-0.133541191837,1.559
0.423111341716,0.328677468128,-0.12509554339,-1.68982442836,0.0566135241641,2.01044995779,0.105996380688,-0.116802028654,-0.461638053745,0.00046966335927,-0.643879840131,-0.0510561260586,0.213521916434,-0.124164517149,0.573769606923,0.819000648186,0.00266895935585,0.0,0.818965065527,-0.573706406506,-0.0117442531213,0.0,-0.00808750754721,0.00892445179409,-0.999927470561,0.0,0.616328605001,0.201646629832,0.303933429993,1.0,-0.104094285714,-0.136809632653,1.576
0.421068971871,0.321011569797,-0.125101355308,-1.70096578826,0.0557534464389,2.0140934741,0.103816454511,-0.124533516696,-0.453421565192,-0.0016505774721,-0.657587845555,-0.0563752878372,0.20671385672,-0.126793201877,0.57375269749,0.81901204083,0.00280463905535,0.0,0.81897798371,-0.573688753932,-0.0117056700437,0.0,-0.00797824843291,0.0090132709355,-0.999927551625,0.0,0.614566087875,0.199354703796,0.303962802915,1.0,-0.106581142857,-0.140078073469,1.593
0.419063521154,0.31367500091,-0.125155475953,-1.71172303366,0.054878425097,2.01735239461,0.10168929336,-0.128296647342,-0.452270693284,-0.00564296157058,-0.682434073922,-0.0536486336667,0.20241626714,-0.137020694083,0.573755972258,0.819010266238,0.00264858402647,0.0,0.818973849381,-0.573692221901,-0.011824358777,0.0,-0.0081649563757,0.00895358990633,-0.999926580662,0.0,0.612805711526,0.197079749419,0.303913547338,1.0,-0.108921714286,-0.143154253061,1.609
0.416737409948,0.305194218418,-0.125203628423,-1.72376358228,0.0538290876956,2.02125023627,0.099195758768,-0.135941918526,-0.463178061786,0.00540371982998,-0.679774445315,-0.0635811607487,0.218070737388,-0.135487214372,0.57368851034,0.8190567933,0.00286519704794,0.0,0.819023959328,-0.573624865324,-0.0116195881516,0.0,-0.00787370593342,0.00901286277346,-0.999928383965,0.0,0.61088368763,0.194509312259,0.304034614615,1.0,-0.111554857143,-0.146614955102,1.627
0.41468734813,0.298117505022,-0.125225106253,-1.73414985166,0.0529923436892,2.02431325702,0.0971149492144,-0.142096414655,-0.464920457608,-0.00186592197398,-0.699860008817,-0.0540822434848,0.205397016549,-0.133433550648,0.573721201562,0.819034588171,0.00265954111181,0.0,0.81899835893,-0.57365746458,-0.0118130564592,0.0,-0.00814979312975,0.0089557331776,-0.99992668517,0.0,0.609138199029,0.192277668184,0.303945791309,1.0,-0.113749142857,-0.149498873469,1.642
0.412289417124,0.289860851124,-0.125336061798,-1.74575598246,0.052049460686,2.02800835595,0.0946828367111,-0.13583817904,-0.487397892417,-0.0067485733389,-0.684220400206,-0.0576839786014,0.226756679699,-0.148165171837,0.573813201535,0.81896923096,0.00292495923172,0.0,0.818936689314,-0.573748784488,-0.0116523857885,0.0,-0.00786490504799,0.00908182407769,-0.999927829266,0.0,0.607264844007,0.189696959975,0.3040770201,1.0,-0.116236,-0.152767314286,1.659
0.409976794399,0.282098746338,-0.125365513153,-1.75697062219,0.0510969307531,2.03137700457,0.0922942475698,-0.144922078232,-0.490728590751,0.000198409264724,-0.700790721862,-0.0590487057214,0.208309537303,-0.151211488712,0.573779246549,0.818993344216,0.00283288908327,0.0,0.818959329242,-0.573714832961,-0.0117326207031,0.0,-0.00798382149218,0.00905212949208,-0.99992715612,0.0,0.605369454176,0.187244111807,0.304031273069,1.0,-0.118576571429,-0.155843493878,1.675
0.407389812939,0.273649210518,-0.125431583097,-1.76898322403,0.0500315096103,2.03496136591,0.0897111549274,-0.15517265965,-0.506105813213,-0.00520558381375,-0.706853720068,-0.061112792163,0.21528566153,-0.153977281915,0.57381057174,0.818971495772,0.00280424210626,0.0,0.818937252392,-0.573746417537,-0.0117291051776,0.0,-0.00799703291669,0.00902695667042,-0.999927278115,0.0,0.603339435475,0.1845372514,0.304047810288,1.0,-0.121063428571,-0.159111934694,1.692
0.404741846953,0.265144989858,-0.125558548306,-1.78104004534,0.0489637137805,2.03866943423,0.0870594117015,-0.156557803543,-0.504086968238,-0.00419348643615,-0.713744762547,-0.0581755835667,0.209654112714,-0.156024799232,0.573872132934,0.818928107138,0.00287702671974,0.0,0.818895272962,-0.573808248485,-0.0116349813649,0.0,-0.0078775032692,0.00903314906961,-0.999928171,0.0,0.601316866876,0.181774904083,0.304070589316,1.0,-0.123550285714,-0.16238037551,1.709
0.401951631239,0.256490042881,-0.125681257991,-1.79333417139,0.0478623115146,2.04215735455,0.0843472589664,-0.157356769269,-0.525464523212,-0.00457787710068,-0.715172491314,-0.0659108115712,0.211129946701,-0.163153250643,0.573977272517,0.818854986608,0.0027108009314,0.0,0.818819863542,-0.573913802371,-0.0117356473684,0.0,-0.00805418236667,0.00895582494387,-0.999927459042,0.0,0.599180076097,0.178906187254,0.304037728901,1.0,-0.126037142857,-0.165648816327,1.726
0.399289228417,0.248211682415,-0.125697641276,-1.80490831503,0.046790293792,2.04563692198,0.0817364448323,-0.173563133473,-0.519357322256,0.000211587409028,-0.743464389686,-0.0709907607787,0.21447741331,-0.169195243861,0.573955217526,0.818870103842,0.00281215397183,0.0,0.818836670713,-0.573891818002,-0.0116376469958,0.0,-0.00791600145608,0.00898235594697,-0.999928324533,0.0,0.597174711351,0.176264280598,0.304084108171,1.0,-0.128377714286,-0.168724995918,1.742
0.396385728158,0.239365873731,-0.125704949396,-1.81742640578,0.0457291671227,2.04916159103,0.0788265315088,-0.177155105969,-0.526433612761,-0.000427662473657,-0.730016100055,-0.0650600509664,0.210473768215,-0.174617008444,0.573894810103,0.818912783292,0.00271057156806,0.0,0.818876996738,-0.573830618247,-0.0118166271613,0.0,-0.00812153444376,0.00900129900877,-0.999926505947,0.0,0.594923419589,0.173415757859,0.304026210189,1.0,-0.130864571429,-0.171993436735,1.759
0.393420288197,0.230317655734,-0.125698370182,-1.82980100759,0.0446139705165,2.0528724894,0.0759559756896,-0.173633269876,-0.530959451985,0.00187421833766,-0.737405183002,-0.0739990103311,0.220958807222,-0.176169707395,0.573868626351,0.818930098983,0.00300658784116,0.0,0.818898355057,-0.573803624688,-0.0116460843749,0.0,-0.00781228843946,0.00914558836097,-0.999927660565,0.0,0.592738823795,0.170574726654,0.30415363874,1.0,-0.133351428571,-0.175261877551,1.776
0.390327525311,0.221223733704,-0.125701108398,-1.84260972929,0.0433930686892,2.05630279012,0.0728741560691,-0.188818611015,-0.53597811855,-0.00213867018311,-0.766121047116,-0.0786466241059,0.201773302513,-0.176508929609,0.573735610013,0.81902423734,0.00273776463188,0.0,0.818988489659,-0.573670988996,-0.0118404853028,0.0,-0.00812722477507,0.00903567974376,-0.999926149628,0.0,0.590362633414,0.167600411249,0.304060418401,1.0,-0.135838285714,-0.178530318367,1.793
0.387276803513,0.212478916145,-0.125786167901,-1.8544373254,0.0423190999834,2.05975566548,0.0699920341961,-0.195768255822,-0.541547623491,-0.00780751603255,-0.736344537893,-0.069688821093,0.209043460045,-0.178973414554,0.573816800777,0.818966352802,0.00302308218036,0.0,0.818934557993,-0.57375144039,-0.0116713870901,0.0,-0.00782412620056,0.0091731210808,-0.999927315808,0.0,0.588251442899,0.164734919414,0.304191190693,1.0,-0.138178857143,-0.181606497959,1.809
0.383766084714,0.202679551028,-0.125857141735,-1.86813556252,0.0410065791662,2.06336238583,0.0665686575463,-0.198811660516,-0.541464866729,-0.00555605807002,-0.771955524933,-0.079255964818,0.189994890186,-0.193914073335,0.57375645345,0.819009591679,0.00275095681072,0.0,0.818973678277,-0.573691405191,-0.0118757231756,0.0,-0.00814828779041,0.00906690859554,-0.999925695527,0.0,0.585675953733,0.161435508198,0.304083001768,1.0,-0.140812,-0.1850672,1.827
0.380502142478,0.19370690374,-0.12594284705,-1.88018319451,0.0398563256713,2.06677050123,0.0635105836837,-0.203084124032,-0.548881910967,-0.00965267693817,-0.769167392865,-0.0642973364003,0.211215918994,-0.180107002288,0.573815726246,0.818967223612,0.00299096362463,0.0,0.81893481936,-0.57375025025,-0.0117114849221,0.0,-0.00787540778887,0.00916981502898,-0.999926943554,0.0,0.583469098366,0.158454084003,0.304199297317,1.0,-0.143152571429,-0.188143379592,1.843
0.376865163236,0.18422460912,-0.126112735598,-1.8932673078,0.0386528141962,2.07018549019,0.0601137602195,-0.216894049882,-0.555355791237,-0.0152264836181,-0.787552428045,-0.0689366353584,0.195030347497,-0.193470296621,0.573957693242,0.818868267622,0.00284139959959,0.0,0.818833080655,-0.57389177399,-0.011889687701,0.0,-0.00810558817116,0.00915098589858,-0.999925276657,0.0,0.580997450515,0.155131109664,0.304119289317,1.0,-0.145639428571,-0.191411820408,1.86
0.373375278258,0.175084090231,-0.126217456977,-1.90542996064,0.0374256822462,2.07350819483,0.0568963984977,-0.221427511213,-0.568042665043,-0.00410455979028,-0.771315110839,-0.0826443633983,0.211476978329,-0.201814324511,0.574030310734,0.818816673156,0.00303397791295,0.0,0.818784611981,-0.573964406761,-0.0117203181034,0.0,-0.00785554778844,0.00921216963382,-0.999926710464,0.0,0.578718936921,0.152027895828,0.304227967528,1.0,-0.14798,-0.194488,1.876
0.369622850109,0.165416418065,-0.126208544175,-1.91868540798,0.0360646810437,2.07686413349,0.0533233547851,-0.224431832586,-0.566845032884,-0.000550145691284,-0.802878823597,-0.0749895461526,0.189035963315,-0.212803447581,0.573872799761,0.818927932804,0.00279239503001,0.0,0.818892257121,-0.573807243521,-0.011893923259,0.0,-0.00813812617661,0.00911244515251,-0.999925364338,0.0,0.575959727048,0.148555303872,0.304117770307,1.0,-0.150613142857,-0.197948702041,1.894
0.365718997571,0.155468159821,-0.126241343604,-1.93167296299,0.0347347611313,2.08036874855,0.0496780527747,-0.225616437602,-0.579291238635,-0.00311455083247,-0.784989351018,-0.0869853067399,0.201560633877,-0.208337585063,0.573834891438,0.818953237409,0.00313993754782,0.0,0.818922818457,-0.573768975004,-0.0116330406233,0.0,-0.00772546627016,0.00924698914282,-0.999927402546,0.0,0.573621227695,0.145430900918,0.304289391702,1.0,-0.152953714286,-0.201024881633,1.91
0.361691252706,0.145605291577,-0.126270140072,-1.94506049634,0.0333564314604,2.08357470605,0.0459620876021,-0.241482235994,-0.574804226758,0.00128853196383,-0.802650214017,-0.0786648133336,0.180525239965,-0.220422734006,0.573792233577,0.818984151805,0.00285983922601,0.0,0.818949291275,-0.573726365547,-0.0118685592104,0.0,-0.00807955228933,0.00915232661664,-0.999925475099,0.0,0.570921838487,0.142012535564,0.304168912214,1.0,-0.155440571429,-0.204293322449,1.927
0.357022809101,0.134297446642,-0.126392264601,-1.95978131845,0.0318813815914,2.08735271743,0.0416450262968,-0.246780906357,-0.583912471644,-0.0045323982463,-0.781939986508,-0.0751376599744,0.192179148198,-0.232036390341,0.573822865213,0.818961640304,0.00314610397939,0.0,0.818930619069,-0.573756114281,-0.0117179084538,0.0,-0.0077915711458,0.00930062374858,-0.999926392199,0.0,0.568019853462,0.13812224518,0.304295803761,1.0,-0.15822,-0.207946285714,1.946
0.352671353118,0.124187416586,-0.126542121283,-1.97322860915,0.0304241634375,2.09049971993,0.037722649279,-0.26126589806,-0.594839682152,-0.00801040136205,-0.771140341693,-0.0844003037273,0.181969272318,-0.230808267917,0.573906550263,0.818903757823,0.00294174959314,0.0,0.818869866356,-0.57384025576,-0.0118427085462,0.0,-0.00801009841158,0.00920569534185,-0.999925543977,0.0,0.565279732501,0.134500581333,0.304226177528,1.0,-0.160706857143,-0.211214726531,1.963
0.348423747816,0.114443037757,-0.126671507193,-1.98572984671,0.029074900648,2.09363390825,0.0338809250389,-0.268762056547,-0.59297893116,-0.00758653521518,-0.808369097269,-0.0834099844022,0.188970292112,-0.250588054296,0.57396895504,0.818859051428,0.00319991341769,0.0,0.818829225583,-0.573902603033,-0.011629637337,0.0,-0.007686743152,0.00929541238107,-0.999927251998,0.0,0.56277462063,0.131068403585,0.304351056977,1.0,-0.163047428571,-0.214290906122,1.979
0.344368159711,0.10536339829,-0.126716801116,-1.99768681523,0.0277701207346,2.09631048625,0.0302067013686,-0.268889318698,-0.596019126069,-0.000305801229346,-0.771063718342,-0.0886767733304,0.173037318153,-0.242131049465,0.573938096798,0.818881377252,0.00301627830893,0.0,0.818848628288,-0.573871731466,-0.0117858676666,0.0,-0.00792042318386,0.0092344116045,-0.999925993531,0.0,0.560262699821,0.127843742463,0.304278577607,1.0,-0.165241714286,-0.21717482449,1.994
0.339706397336,0.094871859882,-0.126729657526,-2.01107495284,0.0263165483103,2.09949135277,0.0259013993373,-0.279549256882,-0.608504688774,0.000371934042981,-0.813675658984,-0.0797602261528,0.178999635344,-0.255296020422,0.573801615843,0.818976227573,0.00322354276695,0.0,0.818946384468,-0.573734817336,-0.0116587154194,0.0,-0.00769890027964,0.00932987806955,-0.999926837478,0.0,0.557470453475,0.124231521855,0.304368878847,1.0,-0.167728571429,-0.220443265306,2.011
0.334858973542,0.0843949046533,-0.12676962853,-2.02474297302,0.0248784875627,2.10238185069,0.0214986289341,-0.291545913951,-0.625202560377,-0.00474746663635,-0.778533787941,-0.086261119444,0.161173064271,-0.267195630981,0.573750248383,0.819013001716,0.00301701854591,0.0,0.818978999755,-0.573682438736,-0.0119417062262,0.0,-0.00804975708754,0.00932261123351,-0.999924142288,0.0,0.55451250936,0.120506065933,0.304264955625,1.0,-0.170215428571,-0.223711706122,2.028
0.329834754366,0.0736915332584,-0.126901913661,-2.03809156142,0.0232955792143,2.10550185155,0.0169782885378,-0.301480104351,-0.621868009159,-0.00452011730239,-0.810793452161,-0.0896897433318,0.176217847845,-0.269331726235,0.573740924574,0.819018401983,0.00330992191748,0.0,0.818989632389,-0.573673796782,-0.0116234171653,0.0,-0.00762112380907,0.0093798024358,-0.999926966222,0.0,0.551708467613,0.116685600764,0.304421993864,1.0,-0.172702285714,-0.226980146939,2.045
0.323974379719,0.0617639236102,-0.127097600461,-2.05339754997,0.0215741207806,2.10856111523,0.0117839933075,-0.318796201498,-0.630696326503,-0.0115576461436,-0.771526505689,-0.0954911043156,0.159835969047,-0.272117378215,0.573854509172,0.818939811846,0.00305512321513,0.0,0.818906629022,-0.573786919388,-0.0118849056948,0.0,-0.00798018633888,0.00932224685954,-0.999924703335,0.0,0.548339992506,0.112263779686,0.304323149352,1.0,-0.175481714286,-0.230633110204,2.064
0.318886607914,0.0515117031538,-0.127213196708,-2.06608161112,0.0201200354883,2.11133408297,0.0072647320003,-0.318837310463,-0.634617624172,-0.00690415918854,-0.809949782263,-0.0845623395644,0.171751288548,-0.285808704316,0.573895255521,0.818910290567,0.00330432956652,0.0,0.818880835277,-0.573827371943,-0.011707763501,0.0,-0.00769164134722,0.00942506354312,-0.999926000677,0.0,0.545587753614,0.108548094674,0.304432410143,1.0,-0.177822285714,-0.233709289796,2.08
0.313407022351,0.040700187845,-0.127256456313,-2.0797836659,0.0185439162694,2.11399289875,0.0024033689517,-0.322049003457,-0.638655696349,-0.000303615246062,-0.821956222098,-0.0875989054376,0.155493491505,-0.292566124165,0.57385462666,0.818939458212,0.00312700267618,0.0,0.818906709979,-0.573786184118,-0.0119147877442,0.0,-0.00796341220701,0.00939826049197,-0.999924125504,0.0,0.542485084713,0.104615094659,0.304340707407,1.0,-0.17998,-0.236545142857,2.097
0.308402281172,0.0309819259205,-0.127314087492,-2.09162221905,0.0170889113486,2.11647511343,-0.00203280063723,-0.341915331858,-0.631277465437,-0.00595447563212,-0.7742546164,-0.0979354928372,0.166007036029,-0.299962949174,0.573809090083,0.818970456403,0.00335657226351,0.0,0.818941691168,-0.573741060345,-0.0116811404338,0.0,-0.00764085269289,0.0094517635052,-0.999926138041,0.0,0.539850513383,0.101093873603,0.304454680906,1.0,-0.17998,-0.236545142857,2.112
0.302613364875,0.0201630702803,-0.127433673181,-2.10513131703,0.0154933207027,2.11891402217,-0.00716648818687,-0.340953733118,-0.633187302375,-0.0159007728192,-0.798602338159,-0.0858556310522,0.143231556377,-0.310677766888,0.573815701129,0.818966570823,0.00316921329915,0.0,0.81893433989,-0.573747070813,-0.0118992681511,0.0,-0.00792692860378,0.00942354593062,-0.999924177418,0.0,0.536725810401,0.0970408343643,0.304369032372,1.0,-0.17998,-0.236545142857,2.129
0.295944003639,0.00803890929975,-0.127627434535,-2.11978807758,0.0136520714641,2.12166075333,-0.0129259834437,-0.355840069703,-0.62862877758,-0.00948375481968,-0.783149015489,-0.0928301328819,0.143277273616,-0.312116236344,0.57396921877,0.818858529289,0.00328509008421,0.0,0.818828439516,-0.573900920054,-0.0117672215296,0.0,-0.00775052271532,0.00944412996452,-0.999925366118,0.0,0.533362437423,0.092448512199,0.304451868485,1.0,-0.17998,-0.236545142857,2.148
0.290685419854,-0.00145071109655,-0.127661061568,-2.13135934123,0.0123150856528,2.12365398837,-0.0175793803759,-0.356034248003,-0.624866068551,-0.00203214242395,-0.77506388696,-0.0933840631335,0.139255476865,-0.312919369941,0.573934564261,0.818882892974,0.00326656434245,0.0,0.818851489543,-0.573865035013,-0.0119124541148,0.0,-0.007880489551,0.0095119833743,-0.999923707118,0.0,0.530616516866,0.0889413503533,0.304426362494,1.0,-0.17998,-0.236545142857,2.163
0.283911582333,-0.013403459968,-0.127678367178,-2.14559672703,0.0104917967997,2.12625336408,-0.0235014017358,-0.363558444343,-0.617252174361,-0.00411257933419,-0.751605598041,-0.0970130830725,0.122671400123,-0.315790453193,0.573854996722,0.818937812064,0.0034712548626,0.0,0.818910007853,-0.573785926377,-0.0116985738802,0.0,-0.00758879341846,0.00955611440727,-0.999925542674,0.0,0.527440788965,0.0847525372602,0.304519044673,1.0,-0.17998,-0.236545142857,2.181
0.278091955867,-0.0233807885587,-0.127729431447,-2.15765882023,0.00895444715871,2.12803635285,-0.0286520372685,-0.365547229175,-0.613072336273,-0.0053079089063,-0.74262303377,-0.0935261274468,0.109608922229,-0.325812647359,0.573775599979,0.818994427316,0.00323044798685,0.0,0.818962442884,-0.573706092671,-0.0119408240484,0.0,-0.00792629326679,0.00949715190714,-0.999923486063,0.0,0.52429398291,0.0807340028216,0.304442851219,1.0,-0.17998,-0.236545142857,2.198
0.272098381072,-0.0333837165777,-0.127902210751,-2.16931617155,0.00742702558448,2.1300755945,-0.0337775939691,-0.382516274406,-0.607089632974,-0.011534995044,-0.72929317651,-0.095756000442,0.127054061523,-0.327440112123,0.57394083873,0.818877587547,0.00348671090586,0.0,0.818850017649,-0.573871748364,-0.0116881104758,0.0,-0.00757035257859,0.00956356134466,-0.999925611261,0.0,0.521508337853,0.0768730199187,0.304558353421,1.0,-0.17998,-0.236545142857,2.214
0.265698338291,-0.0438230832203,-0.127979929479,-2.18184074232,0.00591078506832,2.13185911701,-0.0394060691211,-0.372891967527,-0.6049978226,-0.00248368221354,-0.723921987011,-0.0870241724645,0.099111411144,-0.33745642779,0.573936301557,0.818881433476,0.00332664449096,0.0,0.818850058347,-0.573865636904,-0.0119816370424,0.0,-0.00790264530749,0.00960090433337,-0.999922682428,0.0,0.518368186352,0.0728526257948,0.304452929497,1.0,-0.17998,-0.236545142857,2.231
0.259244464753,-0.0543410704714,-0.127996912447,-2.19385223019,0.0042820089489,2.13377378511,-0.0450089336761,-0.387974855743,-0.611098278395,-0.00127708992486,-0.704725658424,-0.0999703991895,0.108254840213,-0.33765935013,0.573883098286,0.818917574109,0.00359766848685,0.0,0.818891071312,-0.573813180799,-0.0116873336431,0.0,-0.00750671784446,0.00965344770199,-0.999925227272,0.0,0.515396586506,0.0688979498471,0.304598872135,1.0,-0.17998,-0.236545142857,2.248
0.25305577873,-0.0640254972689,-0.128079644796,-2.20537599344,0.00279062254619,2.13525064202,-0.0504349234682,-0.391759261077,-0.606363549789,-0.00433613314946,-0.70962228319,-0.096965262358,0.0917529355546,-0.335797379416,0.573859258442,0.818935313823,0.00335412797238,0.0,0.818904228176,-0.573788418741,-0.0119775830242,0.0,-0.00788445772752,0.00962034171204,-0.999922639183,0.0,0.512426182588,0.0651142976908,0.304466674927,1.0,-0.17998,-0.236545142857,2.264
0.246336225991,-0.0744180620261,-0.128228935393,-2.21716005003,0.00117159279835,2.13686903063,-0.0562915779158,-0.397449371602,-0.598022815088,-0.0112507403558,-0.692468874413,-0.0909424508012,0.0932638013144,-0.345225608304,0.573920422204,0.818891668882,0.00353984662311,0.0,0.818863753855,-0.573849847556,-0.0118005077467,0.0,-0.00763214397973,0.00967139068633,-0.99992410441,0.0,0.509247479424,0.0608095065096,0.304580976609,1.0,-0.17998,-0.236545142857,2.282
0.240293223676,-0.0834457600466,-0.128321635453,-2.22757203063,-0.000169519834683,2.13816405506,-0.0615519040702,-0.400769973483,-0.600765070435,-0.00265512523612,-0.684950443678,-0.0900198453982,0.0865618163536,-0.35006936367,0.573945477486,0.818874343157,0.00348509590861,0.0,0.818844767122,-0.573873899976,-0.0119474342245,0.0,-0.00778359163036,0.00971111535743,-0.999922551971,0.0,0.506697922903,0.0574841814439,0.30452302859,1.0,-0.17998,-0.236545142857,2.296
0.233079022188,-0.0942914133363,-0.128347732664,-2.23983233912,-0.00181235404294,2.13959057659,-0.0679101655755,-0.406255413931,-0.615795429774,-0.00202254106763,-0.659310747214,-0.0971130702778,0.0823619239076,-0.360524060291,0.573835052392,0.818951567409,0.00352275251144,0.0,0.818922099801,-0.573762874976,-0.0119793429757,0.0,-0.00778942706831,0.00975921468295,-0.999922038238,0.0,0.50344307882,0.0533150455413,0.304547526988,1.0,-0.17998,-0.236545142857,2.314
0.225668476251,-0.105036901862,-0.128435635532,-2.25190231657,-0.00354534234416,2.14098510002,-0.0743355849223,-0.415239980329,-0.596806860643,-0.00759232841971,-0.675527921681,-0.0917170519717,0.0726802012109,-0.352325970958,0.573826469389,0.818957505765,0.00354029389381,0.0,0.818928722773,-0.573754802547,-0.0119130379277,0.0,-0.00772515993663,0.00973545228807,-0.999922768454,0.0,0.500218145144,0.049066977684,0.304568007952,1.0,-0.17998,-0.236545142857,2.332
0.218885769234,-0.114521048377,-0.128626505468,-2.26261655546,-0.00504597601648,2.14200213104,-0.0801989769602,-0.427837981144,-0.594197736591,-0.0121938650149,-0.651283910667,-0.0902530924333,0.0622279693556,-0.362742197803,0.573950389038,0.818871220134,0.00340920237527,0.0,0.818839789213,-0.573878026636,-0.0120895428831,0.0,-0.00794346533635,0.00973057573913,-0.999921105515,0.0,0.497286148613,0.0451883767145,0.304508757883,1.0,-0.17998,-0.236545142857,2.348
0.211238704495,-0.125184108833,-0.128709771347,-2.2742454398,-0.00662809986092,2.143275205,-0.0868897030277,-0.428630764695,-0.590319330579,-0.00424951666241,-0.64909108144,-0.0780766279341,0.0575791337627,-0.369081583706,0.573956823479,0.81886555336,0.00367657494527,0.0,0.818838079717,-0.573884057618,-0.0119178235637,0.0,-0.00764931471266,0.00985102538631,-0.999922219617,0.0,0.494116778606,0.0409647341336,0.304609363407,1.0,-0.17998,-0.236545142857,2.366
0.204348941478,-0.134556171237,-0.128756773363,-2.28463012235,-0.00812840101564,2.14413092799,-0.0929420611166,-0.442270771265,-0.588567607415,-0.00241253921246,-0.647990644743,-0.0913733698025,0.0551397219738,-0.387969329476,0.573874592308,0.8189236598,0.00356912098196,0.0,0.81889424616,-0.573801544944,-0.0120311066382,0.0,-0.00780474101154,0.00982726825838,-0.999921252308,0.0,0.491190814491,0.0372090361695,0.304571073635,1.0,-0.17998,-0.236545142857,2.382
0.196920294193,-0.144512518991,-0.128884221824,-2.29527290076,-0.00969241983534,2.14515147815,-0.0994691782654,-0.44366241924,-0.57953812313,-0.0143414794522,-0.618604693882,-0.0891247231989,0.06712186069,-0.390839783904,0.573865785182,0.818928782987,0.00380209066998,0.0,0.818903521457,-0.573793354478,-0.0117879515946,0.0,-0.00747202235328,0.0098784377266,-0.999923289733,0.0,0.488213765267,0.033192896076,0.304685081206,1.0,-0.17998,-0.236545142857,2.399
0.189286173413,-0.15430950717,-0.1290544849,-2.30596854073,-0.0112443914235,2.14591425869,-0.106107390324,-0.44791492375,-0.583108681585,-0.00725994031176,-0.623522701246,-0.0914401392492,0.037803226006,-0.399191030587,0.573960844555,0.818862453259,0.00373877807032,0.0,0.818835684358,-0.573887720962,-0.0119059922883,0.0,-0.0076038776259,0.00989520880233,-0.999922129912,0.0,0.485130055829,0.0291062204375,0.304643962829,1.0,-0.17998,-0.236545142857,2.416
0.181680349766,-0.164072094346,-0.1290834053,-2.31647859431,-0.0127897396048,2.1465512686,-0.112791781077,-0.453482481471,-0.573006808151,-0.00217275740491,-0.596331408727,-0.0882613560857,0.0485848310239,-0.388218966077,0.573873346198,0.818924039076,0.00368071312066,0.0,0.818896046289,-0.573799840894,-0.0119897816234,0.0,-0.00770687617289,0.00989492803045,-0.999921344136,0.0,0.482042910449,0.0251567573256,0.304630222573,1.0,-0.17998,-0.236545142857,2.433
0.174366367187,-0.173236529272,-0.129140241806,-2.32614944267,-0.0141302258872,2.14725231132,-0.119257790855,-0.456579619896,-0.573293646288,-0.00445850596385,-0.616074623891,-0.0883507000166,0.0402669625558,-0.40037102229,0.573843688736,0.818943857925,0.00388913446458,0.0,0.818918670598,-0.573769558668,-0.0118933340115,0.0,-0.00750865043841,0.0100099922094,-0.999921707047,0.0,0.479207478955,0.0214178441002,0.304686743826,1.0,-0.17998,-0.236545142857,2.449
0.166424124901,-0.182870129338,-0.129343076513,-2.33645647547,-0.0157517200303,2.14768146071,-0.12619014273,-0.472551910336,-0.565641307543,-0.0159592813214,-0.609594904183,-0.0918617963892,0.0249411961292,-0.404406085244,0.573914627664,0.818894954967,0.00371480602021,0.0,0.818866821841,-0.573840237397,-0.01205225842,0.0,-0.00773797742765,0.00995909054653,-0.999920466948,0.0,0.476086542087,0.0173214435364,0.304624898761,1.0,-0.17998,-0.236545142857,2.466
0.158398614305,-0.192529981126,-0.129430042315,-2.34635674799,-0.0172150692152,2.14822607877,-0.133246036315,-0.46803595106,-0.566082056012,-0.00672963856634,-0.577187979868,-0.0913172040569,0.0413446452737,-0.41415185649,0.573914387251,0.818893865968,0.00398237196474,0.0,0.818870089311,-0.573840190906,-0.0118304283048,0.0,-0.00740276260822,0.0100508918087,-0.999922086305,0.0,0.472919914502,0.0130928704504,0.304746800861,1.0,-0.17998,-0.236545142857,2.484
0.15078588478,-0.201441332105,-0.129483182071,-2.35570346247,-0.0186456106523,2.14854074343,-0.14002882068,-0.483716433537,-0.55149670052,-0.00508373418845,-0.585840599057,-0.0856730383956,0.0103105824682,-0.421047355111,0.573812178408,0.818965857411,0.00390579152161,0.0,0.818940604179,-0.573737617278,-0.0119239359451,0.0,-0.00752454177458,0.0100409042469,-0.999921277658,0.0,0.470193976391,0.00957611750712,0.304709054419,1.0,-0.17998,-0.236545142857,2.499
0.142054401823,-0.211448248659,-0.129666296883,-2.36610483678,-0.0201595081964,2.14876175822,-0.147735232576,-0.491272522307,-0.556223665922,-0.0150585371573,-0.568314810243,-0.0840969066747,0.0117395793025,-0.435873546509,0.573891063003,0.818910625624,0.0038964017541,0.0,0.818883888038,-0.573814716675,-0.0121076728023,0.0,-0.00767943709374,0.0101393810473,-0.999919106327,0.0,0.466904596712,0.00530302994807,0.304672655563,1.0,-0.17998,-0.236545142857,2.517
0.133674789265,-0.220867975876,-0.129774334651,-2.37549756451,-0.0216441268676,2.1490675547,-0.155059376782,-0.487904883825,-0.559358095714,-0.00563875388859,-0.563256102405,-0.0958733357186,0.00854597583028,-0.433785311984,0.573958339689,0.818862322334,0.00413137563658,0.0,0.818839997199,-0.573882963065,-0.0118385215211,0.0,-0.0073233341308,0.0101779497284,-0.999921385968,0.0,0.463933984016,0.00128286520888,0.304798177858,1.0,-0.17998,-0.236545142857,2.534
0.125765295579,-0.229526798903,-0.129818641247,-2.3844789904,-0.0230888335241,2.14915087228,-0.162148886393,-0.505914414561,-0.541369823082,-0.00393897640414,-0.56231860874,-0.0829600566856,0.00174667458323,-0.438722240443,0.57380079768,0.818973518014,0.0039709287113,0.0,0.818948473484,-0.573725147561,-0.0119833107019,0.0,-0.00753593755226,0.0101282142455,-0.999920311286,0.0,0.461007144659,-0.0024406870533,0.304714999007,1.0,-0.17998,-0.236545142857,2.55
0.116602465882,-0.239290957421,-0.129988417532,-2.39428599213,-0.0246530282858,2.14918258819,-0.170241463111,-0.513646751922,-0.5450078359,-0.0124749179152,-0.529643472905,-0.0890279005413,0.00444707916538,-0.450381289411,0.573863389796,0.818929495537,0.00400475865483,0.0,0.818904790598,-0.573787470571,-0.0119845505697,0.0,-0.00751676633455,0.0101572064205,-0.999920161504,0.0,0.457768696144,-0.00674022208957,0.304730400393,1.0,-0.17998,-0.236545142857,2.568
0.10886066741,-0.247407383712,-0.130117331092,-2.40220700963,-0.0258946164249,2.14925431128,-0.177092949028,-0.507182750682,-0.536690157591,-0.00711797602676,-0.53056733947,-0.0737167357527,0.00366359769964,-0.456937957943,0.573929982552,0.818881702904,0.0042283186172,0.0,0.818860773553,-0.573854475923,-0.0117822282107,0.0,-0.00722195058204,0.0102247751437,-0.999921645632,0.0,0.45513654863,-0.0103136574721,0.304828396997,1.0,-0.17998,-0.236545142857,2.583
0.100101086758,-0.256394320478,-0.130217551317,-2.4113446756,-0.0272870456935,2.1491666121,-0.184990603801,-0.525021272957,-0.530557612552,-0.00771946520902,-0.535384835076,-0.0829203292081,-0.00971184769765,-0.466395009004,0.573843449641,0.818942696988,0.00415947775136,0.0,0.818919597778,-0.573766411174,-0.0119810135107,0.0,-0.00742533785608,0.0102817019249,-0.999919572247,0.0,0.452022454244,-0.0142781782461,0.304732548613,1.0,-0.17998,-0.236545142857,2.6
0.0916236480472,-0.264851194126,-0.130369753069,-2.41964994903,-0.0286685465673,2.14904159339,-0.192430017762,-0.528474636215,-0.53065938651,-0.0125228816827,-0.498990683125,-0.077353965601,-0.0103482387979,-0.465969057948,0.573959933388,0.818860871526,0.00419700493649,0.0,0.818838515641,-0.573883095988,-0.0119341670253,0.0,-0.00736397400379,0.0102866010522,-0.999919975661,0.0,0.449150472847,-0.0181025343137,0.304746572144,1.0,-0.17998,-0.236545142857,2.616
0.0825240258444,-0.273774447195,-0.130523530473,-2.42814013877,-0.0300541492776,2.14890881271,-0.200563344916,-0.531600037338,-0.521735538902,-0.006514325553,-0.506530416123,-0.0782005075268,-0.0167775835684,-0.479160351236,0.574002844921,0.818829538281,0.00443488009213,0.0,0.818811427911,-0.573926858893,-0.0116855922221,0.0,-0.00702334650413,0.0103390927405,-0.999921884832,0.0,0.44617921766,-0.0221469199183,0.304859926351,1.0,-0.17998,-0.236545142857,2.633
0.0723316115969,-0.283531959941,-0.130612637595,-2.43779269091,-0.0316706973823,2.14851415595,-0.209827318959,-0.544732222025,-0.510695146893,-0.00946202545338,-0.495762935702,-0.0856271338085,-0.0294091803807,-0.486758647204,0.573817229959,0.818960466711,0.00427638498099,0.0,0.818939398057,-0.573740495737,-0.0118681406508,0.0,-0.00726614266314,0.0103124422816,-0.999920425186,0.0,0.442702126569,-0.0265763138729,0.304767724216,1.0,-0.17998,-0.236545142857,2.652
0.062927233579,-0.292252392889,-0.130775354752,-2.44612239814,-0.0329704719338,2.14817149717,-0.218219345465,-0.560218921103,-0.514339047335,-0.0046699469042,-0.473632953275,-0.0714615424988,-0.020103828813,-0.507032663188,0.573931039714,0.818879954605,0.00441910620205,0.0,0.818860499578,-0.573853449721,-0.0118510495635,0.0,-0.00716880561158,0.0104205173372,-0.999920007323,0.0,0.439655022561,-0.0306301077289,0.304793298546,1.0,-0.17998,-0.236545142857,2.669
0.0540815492601,-0.300406815998,-0.130897908418,-2.45367102497,-0.0342552157005,2.14786604144,-0.226232892895,-0.544024350642,-0.511323506925,-0.00474133739641,-0.472435259562,-0.0838820014004,-0.0176164456805,-0.508406653844,0.57388871874,0.818908446811,0.00463045860417,0.0,0.818893112273,-0.573812513463,-0.0115765697373,0.0,-0.00682326702186,0.0104357143514,-0.999922266425,0.0,0.436860087313,-0.0343970497796,0.304905459864,1.0,-0.17998,-0.236545142857,2.685
0.0451003359049,-0.308344144295,-0.131028713938,-2.4613806532,-0.0355881367258,2.1473126978,-0.23427505015,-0.567644838627,-0.494778003968,-0.0125067038961,-0.481578041836,-0.082395472963,-0.0395906878483,-0.505311187121,0.573907960796,0.818895900036,0.00446142808754,0.0,0.818877250062,-0.573830604084,-0.0117997477998,0.0,-0.007102797871,0.0104255318852,-0.999920426108,0.0,0.433913614024,-0.0381715512852,0.304808242623,1.0,-0.17998,-0.236545142857,2.701
0.0358933476497,-0.31627908468,-0.131195282473,-2.4688673187,-0.0368178420077,2.14677185273,-0.242522097821,-0.576946301966,-0.496119592617,-0.0135745158795,-0.461989614231,-0.07974718007,-0.0273910023726,-0.522962203417,0.574018656406,0.818818114494,0.00449715181163,0.0,0.818799319782,-0.573940265644,-0.0118740177548,0.0,-0.00714170182397,0.0104983746883,-0.999919386863,0.0,0.431007141494,-0.0420023059939,0.304791131574,1.0,-0.17998,-0.236545142857,2.717
0.0267780590871,-0.324148158381,-0.131277938027,-2.47597628505,-0.0380474292959,2.14630667843,-0.250898547677,-0.564696908005,-0.493858464769,-0.000595315649102,-0.445966915097,-0.0662474133646,-0.0248389496123,-0.520180906153,0.573888605348,0.818908134298,0.00469926942437,0.0,0.818893428738,-0.573811791125,-0.0115899800461,0.0,-0.00679476355095,0.0104997604891,-0.999921790051,0.0,0.42822301254,-0.0457283228137,0.304904450979,1.0,-0.17998,-0.236545142857,2.733
0.0168674794302,-0.332301677246,-0.131395916451,-2.48360257201,-0.0393308540702,2.14565165443,-0.259894824281,-0.586319179672,-0.474721692604,-0.00889796843902,-0.446636994401,-0.0770664152661,-0.0431704663652,-0.531062921511,0.573882259981,0.818912603023,0.00469544346774,0.0,0.818897317407,-0.573804641204,-0.0116689407221,0.0,-0.00686170747608,0.0105418870969,-0.999920889664,0.0,0.425154168167,-0.0497304187006,0.304867857167,1.0,-0.17998,-0.236545142857,2.75
0.00551761243367,-0.341388211186,-0.131590534836,-2.49194460578,-0.0407439788431,2.14477440004,-0.270076532946,-0.598681821487,-0.483497536945,-0.0108981778182,-0.438740689203,-0.0828624118273,-0.0404123270804,-0.538992687557,0.574050756663,0.818794325013,0.00472535742315,0.0,0.818778712668,-0.573971915978,-0.0117646186278,0.0,-0.00692071375969,0.0106227148131,-0.999919627596,0.0,0.421697258991,-0.054278143778,0.304859122672,1.0,-0.17998,-0.236545142857,2.769
-0.00389114826712,-0.348889195956,-0.131669303258,-2.49874374994,-0.0419353979409,2.14405327733,-0.278845466815,-0.595820360227,-0.474957151829,-0.0115017747738,-0.417906942318,-0.0696202044443,-0.0435915351301,-0.548419103977,0.573846799495,0.818937098525,0.00475670781718,0.0,0.818922004677,-0.573768061908,-0.0117349176219,0.0,-0.00688104484481,0.0106296222741,-0.999919827962,0.0,0.418842206414,-0.0579690537312,0.304873309277,1.0,-0.17998,-0.236545142857,2.785
-0.0142831107952,-0.356776667525,-0.131850215048,-2.50569077666,-0.0431830281621,2.14329949072,-0.288284823341,-0.618686950602,-0.462611446626,-0.0139029048301,-0.415936225156,-0.0680157278169,-0.0514457549564,-0.560052859532,0.573940431015,0.818870534772,0.00491689233676,0.0,0.818858481933,-0.573862701537,-0.0115383383945,0.0,-0.0066269118005,0.0106487629277,-0.99992134085,0.0,0.415842422767,-0.0620531064287,0.304958938773,1.0,-0.17998,-0.236545142857,2.802
-0.0252687466355,-0.36493504522,-0.131948149356,-2.51316185655,-0.0445393682031,2.14229491777,-0.298400498084,-0.596300346529,-0.449951985986,-0.00373439763269,-0.414971262054,-0.0693542473901,-0.0582827556778,-0.56443106045,0.573855799481,0.818930631751,0.0047842118324,0.0,0.818915932398,-0.573777029403,-0.0117202003492,0.0,-0.00685309216626,0.0106437771607,-0.999919869357,0.0,0.412728863529,-0.0660364043516,0.304887489558,1.0,-0.17998,-0.236545142857,2.819
-0.0351181798238,-0.372116367452,-0.132054576213,-2.51958284421,-0.0456415615266,2.14144080239,-0.307529162762,-0.624337235458,-0.444612738914,-0.0119278673166,-0.402231659431,-0.0692141405094,-0.0654477203451,-0.573587068323,0.573751031787,0.819003882015,0.00481057886109,0.0,0.818988967802,-0.573671327466,-0.0117909101448,0.0,-0.00689724281323,0.0107050639829,-0.999918911536,0.0,0.409655044052,-0.0699917327362,0.304865474168,1.0,-0.17998,-0.236545142857,2.836
-0.0459516803376,-0.379586978841,-0.132248168442,-2.52605571164,-0.0468301778602,2.14050655058,-0.31726250791,-0.637976541611,-0.441951646515,-0.00247600881603,-0.375443209678,-0.0720092122391,-0.0479664524164,-0.568033186047,0.57400351044,0.818826341918,0.00491311358236,0.0,0.818813198711,-0.573924117988,-0.0116961236729,0.0,-0.00675746988459,0.0107367450104,-0.999919526216,0.0,0.406628713009,-0.0741069801727,0.304920919843,1.0,-0.17998,-0.236545142857,2.853
-0.0553270796565,-0.386084861799,-0.132314430064,-2.53166061944,-0.0478802945959,2.13972487779,-0.326081929311,-0.631782689543,-0.427957771241,-0.00674788392234,-0.376410717501,-0.0721951968808,-0.049539020896,-0.592034535472,0.573807105313,0.818963559406,0.00498409048665,0.0,0.818952245276,-0.573728988854,-0.0115331784916,0.0,-0.00658586251176,0.0106997578635,-0.999921067683,0.0,0.403990929546,-0.0775867629485,0.304970926387,1.0,-0.17998,-0.236545142857,2.868
-0.0662658491854,-0.393329589282,-0.132507971686,-2.53809864146,-0.0490697631534,2.13861312161,-0.336168240579,-0.644429503998,-0.420687383195,-0.0122687276654,-0.376073327336,-0.0704512309751,-0.0731231543657,-0.599271961777,0.573849372034,0.818934423258,0.00490464282635,0.0,0.818920786472,-0.573769425575,-0.011753240394,0.0,-0.00681113018167,0.0107613107687,-0.999918898059,0.0,0.400854274152,-0.0816296795064,0.304902281655,1.0,-0.17998,-0.236545142857,2.885
-0.077277197126,-0.40044020046,-0.132633136253,-2.54425479764,-0.0502182140619,2.13757104238,-0.346340859673,-0.638745044176,-0.41464177476,-0.00110732627167,-0.36250291954,-0.0641478974557,-0.0654018604278,-0.592294354518,0.573853708003,0.818931336465,0.0049127251506,0.0,0.818917672364,-0.573773525012,-0.0117700801425,0.0,-0.00682022714482,0.0107776290813,-0.999918660298,0.0,0.397786972255,-0.085638781131,0.304898020676,1.0,-0.17998,-0.236545142857,2.902
-0.087655211323,-0.406989955102,-0.1327378753,-2.54984633985,-0.051287071195,2.13657104925,-0.356098874254,-0.655358326871,-0.40883651,-0.00483885375551,-0.347372977933,-0.0656231161694,-0.0536667177144,-0.603764691596,0.573719210877,0.819025485242,0.00492630662939,0.0,0.819012152357,-0.5736392512,-0.0117409827062,0.0,-0.00679037194782,0.0107709397028,-0.999918935568,0.0,0.394926960956,-0.089375949063,0.304912547839,1.0,-0.17998,-0.236545142857,2.918
-0.099074212691,-0.413797625778,-0.13294826898,-2.55549200451,-0.0523102913529,2.13558317471,-0.366550899611,-0.667461187037,-0.392751679348,-0.00719038816207,-0.333208787817,-0.0590588902368,-0.0621795557583,-0.60694857578,0.573961673073,0.818854344335,0.00512908449239,0.0,0.818844440092,-0.573882331325,-0.0115585304209,0.0,-0.00652138744017,0.0108342843716,-0.999920041697,0.0,0.391921254419,-0.0934965744847,0.304990884157,1.0,-0.17998,-0.236545142857,2.935
-0.110288958896,-0.420506754033,-0.133052964564,-2.56118753036,-0.0533279089082,2.13442354321,-0.377180600629,-0.661604701721,-0.397328762074,-0.0125736807983,-0.341631862092,-0.0634350103929,-0.0699640118921,-0.620934393573,0.573809007983,0.818961121377,0.00516245403005,0.0,0.818951014563,-0.573728535593,-0.0116425982494,0.0,-0.00657311468017,0.0109086347424,-0.999918894637,0.0,0.388850072329,-0.0974290403613,0.304980498951,1.0,-0.17998,-0.236545142857,2.952
-0.121852624711,-0.426990738507,-0.133263550587,-2.56675573837,-0.0544474253252,2.13321396389,-0.387899383342,-0.69488147953,-0.374448148113,-0.0159204546282,-0.32028376475,-0.0613702090811,-0.0632149264782,-0.635817284619,0.57390562613,0.818893945165,0.0050779689969,0.0,0.818881617416,-0.573823576831,-0.0118383373884,0.0,-0.00678061502322,0.0109525547672,-0.99991702896,0.0,0.385720750525,-0.101497711943,0.304917933132,1.0,-0.17998,-0.236545142857,2.969
-0.132673242297,-0.432942684719,-0.133316087483,-2.57171751538,-0.05538041908,2.13221466767,-0.39807698116,-0.668807749817,-0.361475651276,-0.0037179057959,-0.310089544831,-0.0517178813765,-0.061900296365,-0.642442997166,0.573826127092,0.818949370755,0.00512356393708,0.0,0.818937935377,-0.573744422577,-0.011778899113,0.0,-0.0067068349115,0.010955131852,-0.999917498323,0.0,0.382880455549,-0.105220457223,0.304929466826,1.0,-0.17998,-0.236545142857,2.985
-0.145788328577,-0.439794549648,-0.133519178791,-2.57735731706,-0.0564994059561,2.13094121007,-0.410389396266,-0.704630056732,-0.361354863764,-0.017364451801,-0.28522131449,-0.0557485897712,-0.0614358559839,-0.649924515461,0.573871262842,0.818917399418,0.00517817677677,0.0,0.818906655183,-0.573789335879,-0.0117658416405,0.0,-0.00666419813089,0.0109927334691,-0.999917370723,0.0,0.379480759579,-0.109749256349,0.304947912144,1.0,-0.17998,-0.236545142857,3.004
-0.156916478476,-0.445513327731,-0.133600203004,-2.58190425555,-0.0574647480562,2.12989655732,-0.42085086528,-0.682283172048,-0.360747376135,-0.00112477455891,-0.282473702178,-0.0533489287321,-0.0653619926138,-0.648910152403,0.573831048204,0.81894527941,0.00522535646992,0.0,0.818936406765,-0.573751078439,-0.0115589171771,0.0,-0.00646819128019,0.0109123103072,-0.999919538756,0.0,0.376648689855,-0.113537498892,0.30502827539,1.0,-0.17998,-0.236545142857,3.02
-0.169467228809,-0.451731887261,-0.133763068165,-2.58708999178,-0.0584218872744,2.12861836869,-0.432775411517,-0.703219386479,-0.340169187881,-0.0108805853286,-0.285031368373,-0.0502242741249,-0.0770362306669,-0.660163471763,0.573789257634,0.818974377371,0.00525394463437,0.0,0.818964674323,-0.573707186292,-0.0117334355191,0.0,-0.00659528423524,0.0110355267805,-0.999917356272,0.0,0.373363744196,-0.11774284717,0.304980887716,1.0,-0.17998,-0.236545142857,3.038
-0.181571218653,-0.457385055373,-0.133904201525,-2.59172453454,-0.0593403475466,2.12742740384,-0.44416017953,-0.698886997604,-0.325281015855,-0.00305113305526,-0.266511933189,-0.0555380891934,-0.0746417553863,-0.669849202677,0.573848489176,0.818932816746,0.00526308168173,0.0,0.818922610594,-0.573765338076,-0.0118254633166,0.0,-0.00666461445722,0.0110962944866,-0.999916224072,0.0,0.370274308335,-0.121778751351,0.304961131996,1.0,-0.17998,-0.236545142857,3.055
-0.193621997806,-0.462769873572,-0.133995267922,-2.5960917613,-0.0602109531481,2.12637075716,-0.455675832514,-0.722137526073,-0.310169256599,-0.00769255191821,-0.259104188248,-0.0483030160505,-0.0644031781612,-0.683715801846,0.573752235586,0.818999978612,0.00530604320632,0.0,0.818990511581,-0.57366925543,-0.0117844904889,0.0,-0.00660771082181,0.0111071906511,-0.999916480749,0.0,0.367264130019,-0.125757157835,0.304962283035,1.0,-0.17998,-0.236545142857,3.072
-0.205258693012,-0.467717189509,-0.134158871531,-2.60012351076,-0.0610919428354,2.12529268288,-0.466601399195,-0.721294381974,-0.31008048871,-0.00050426956615,-0.250637154251,-0.055695684507,-0.0668435637418,-0.678777938035,0.573863733088,0.818922044394,0.00527711598615,0.0,0.81891178259,-0.573780133251,-0.0118573994814,0.0,-0.00668251016979,0.0111262382048,-0.999915771893,0.0,0.364350056857,-0.129595674592,0.304935466017,1.0,-0.17998,-0.236545142857,3.088
-0.218180759836,-0.473195729485,-0.134267545594,-2.60434255037,-0.0619407502806,2.12412636019,-0.479002312137,-0.719002564999,-0.301494152161,-0.00945535508629,-0.224339250179,-0.055793147246,-0.0635461415196,-0.696393930902,0.573780477969,0.818979601585,0.00539649796625,0.0,0.81897172154,-0.573697887867,-0.0116961393578,0.0,-0.00648306488532,0.0111308099634,-0.999917034028,0.0,0.361171473229,-0.133797404291,0.305012605467,1.0,-0.17998,-0.236545142857,3.106
-0.230020489631,-0.477861234039,-0.134449581542,-2.60798086878,-0.0627257302443,2.12310592674,-0.490181524028,-0.742394201803,-0.281949184711,-0.000599844409862,-0.230409071863,-0.0533834280741,-0.065649719599,-0.704986125821,0.573921456232,0.818880326662,0.00546987971178,0.0,0.818873747016,-0.573839204793,-0.0116232694347,0.0,-0.00637935806984,0.0111501992913,-0.999917485019,0.0,0.358280685152,-0.137653896934,0.305045890476,1.0,-0.17998,-0.236545142857,3.122
-0.242379798407,-0.482551678899,-0.134498269007,-2.61175435532,-0.0635303862866,2.122032487,-0.502158151081,-0.73416971851,-0.272855167393,-0.00133520236324,-0.223335629012,-0.0470250146613,-0.0647112100947,-0.71127579495,0.5737216552,0.819020534019,0.00543820845446,0.0,0.819013238959,-0.57363901352,-0.0116766210806,0.0,-0.00644394796583,0.0111533098297,-0.999917036166,0.0,0.355240548219,-0.141583423583,0.305019234683,1.0,-0.17998,-0.236545142857,3.139
-0.253602228519,-0.486523111826,-0.134667458889,-2.61493081141,-0.0642064180259,2.12105047299,-0.512831495249,-0.749340504647,-0.264162648269,-0.0108558102442,-0.207556928337,-0.0414146083666,-0.0693333213174,-0.709241747824,0.573831410519,0.818943474017,0.00546310972341,0.0,0.818935703126,-0.57374728381,-0.0117947178081,0.0,-0.00652488843621,0.0112423316088,-0.999915514337,0.0,0.352500160193,-0.145170768747,0.304990442913,1.0,-0.17998,-0.236545142857,3.154
-0.265461450799,-0.490539471934,-0.134730267164,-2.61815544424,-0.0648571441029,2.12008271107,-0.524305669087,-0.745648134116,-0.249841257695,-0.00575019047548,-0.199955316649,-0.0378596935533,-0.05533401261,-0.715762323527,0.573746866014,0.819002559866,0.0054852140745,0.0,0.818994406621,-0.573661523891,-0.0118896943162,0.0,-0.00659116071637,0.0113142523323,-0.999914268472,0.0,0.349455433463,-0.149130763711,0.304955595122,1.0,-0.17998,-0.236545142857,3.171
-0.278293560428,-0.494681020421,-0.134920011049,-2.62137887442,-0.0655475756678,2.1191086132,-0.536586923354,-0.761563434362,-0.245025674904,-0.0194438485981,-0.183415586271,-0.0446321805832,-0.053215243352,-0.727467635126,0.573851533307,0.818928608718,0.0055765980566,0.0,0.818921593384,-0.573765746382,-0.0118759870813,0.0,-0.00652605027811,0.0113820691024,-0.999913925881,0.0,0.346566722286,-0.152953708394,0.304959847625,1.0,-0.17998,-0.236545142857,3.187
-0.29104911849,-0.498649060818,-0.134952485012,-2.62440290068,-0.0661896282841,2.11810624992,-0.548906340137,-0.745566563566,-0.234809667932,-0.00236532091507,-0.171921987304,-0.0297547793615,-0.0609096573596,-0.720767052705,0.57378874457,0.818972314408,0.00561887345982,0.0,0.818965969702,-0.57370302601,-0.0118458987915,0.0,-0.00647802316486,0.0113989290122,-0.999914046123,0.0,0.343539891852,-0.156908277866,0.304985902852,1.0,-0.177712571429,-0.233565093878,3.204
-0.303895026865,-0.502281778234,-0.135038425363,-2.62716846865,-0.0668018876136,2.11718739139,-0.561223224401,-0.7624753171,-0.209613528641,-0.00628890663324,-0.158566212485,-0.033634085781,-0.0529208467647,-0.72523185014,0.573866755162,0.818917268277,0.00567467529301,0.0,0.818911771567,-0.573781035349,-0.0118144303073,0.0,-0.006419143517,0.0114271871906,-0.999914103306,0.0,0.340534810013,-0.160900427255,0.30500537105,1.0,-0.175225714286,-0.230296653061,3.221
-0.316600146416,-0.505631260439,-0.135031155672,-2.62972850121,-0.0673454140028,2.11637948442,-0.573477503694,-0.742988007541,-0.196824251058,0.00245807418018,-0.146007618882,-0.0282080024221,-0.0495433017091,-0.706196497866,0.57385445621,0.818925571897,0.00571993725188,0.0,0.818921043655,-0.573769258689,-0.0117434638997,0.0,-0.00633522070597,0.0114234360107,-0.999914681405,0.0,0.337600377869,-0.164801039264,0.30502074539,1.0,-0.172738857143,-0.227028212245,3.238
-0.330762914284,-0.509132327574,-0.135060633678,-2.632396353,-0.0679074096613,2.11550275119,-0.587067306665,-0.751643824375,-0.180364439442,-0.0054597961489,-0.136594930908,-0.0293423227515,-0.0478608437871,-0.714178066989,0.573953882,0.818855387271,0.00579162976562,0.0,0.818851995733,-0.573868789303,-0.0116948129539,0.0,-0.00625284541541,0.0114549914304,-0.999914838922,0.0,0.334328870858,-0.169129968011,0.305033157743,1.0,-0.169959428571,-0.22337524898,3.257
-0.34245700541,-0.511854608912,-0.134983159843,-2.6344876351,-0.0683280162462,2.11477092731,-0.598459028782,-0.724379963449,-0.162817338956,0.0050983631984,-0.126809497701,-0.0156800678588,-0.0443052041333,-0.711637934816,0.573858790501,0.81892193112,0.00580570381444,0.0,0.818918707396,-0.573773640339,-0.0116921867113,0.0,-0.00624394852365,0.0114642843107,-0.999914788015,0.0,0.331797641823,-0.172428997843,0.30503513359,1.0,-0.167765142857,-0.220491330612,3.272
-0.354160722063,-0.514287720167,-0.134943270709,-2.63641030681,-0.068713663921,2.11404873668,-0.609735916866,-0.735887076584,-0.152661120368,-0.00101391607732,-0.121225492003,-0.0226212296583,-0.0446917351926,-0.706507893973,0.573895746128,0.818895883766,0.00582675113991,0.0,0.818892005476,-0.573808815964,-0.011835243597,0.0,-0.00634851332103,0.011563898522,-0.999912982529,0.0,0.328935522517,-0.176156393732,0.304995932995,1.0,-0.165278285714,-0.217222889796,3.289
-0.367183671648,-0.516786996976,-0.134858819841,-2.63837289766,-0.0691199774644,2.11334274204,-0.622339601275,-0.705361510885,-0.132964535593,0.00343554998073,-0.104068856337,-0.0206784250783,-0.0439763709941,-0.703143506944,0.573884757519,0.818903461309,0.00584406061743,0.0,0.818899329061,-0.573796892348,-0.0119063889052,0.0,-0.00639700242734,0.0116188161266,-0.999912036867,0.0,0.325807382804,-0.180252995414,0.304968566343,1.0,-0.162498857143,-0.213569926531,3.308
-0.378571636071,-0.518790711692,-0.134773534658,-2.6399159202,-0.0694403492769,2.11279747805,-0.633371181934,-0.723998342309,-0.133052189895,0.000380217320056,-0.0873464496468,-0.012282963845,-0.0339568389363,-0.689563425049,0.573900736056,0.818892152118,0.00585962929642,0.0,0.81888818956,-0.57381274757,-0.0119084266879,0.0,-0.00638951019034,0.0116328600361,-0.999911921485,0.0,0.323393245188,-0.183437407175,0.304960348491,1.0,-0.160304571429,-0.210686008163,3.323
-0.391286829511,-0.520885209007,-0.134707102117,-2.64146923151,-0.0697735995058,2.11217528053,-0.645723459679,-0.688067884918,-0.109375090898,0.00923320129837,-0.0836382644872,-0.0211832948548,-0.0356876535982,-0.67794575832,0.573919445647,0.818878715474,0.00590475673295,0.0,0.818875328273,-0.573831256492,-0.0119009546077,0.0,-0.00635722684308,0.0116656734796,-0.99991174497,0.0,0.320519601612,-0.187218523788,0.304973096752,1.0,-0.157671428571,-0.207225306122,3.341
-0.402341294258,-0.522543975086,-0.134580611834,-2.64268694258,-0.0700393778416,2.11169402444,-0.656590622997,-0.694240396254,-0.107901392054,0.00158504965982,-0.0728536673585,-0.0184076221736,-0.0281263727765,-0.68697925868,0.573799749749,0.818962494028,0.0059184005225,0.0,0.818959529445,-0.573711983172,-0.0118573351772,0.0,-0.00631537707884,0.0116508907801,-0.999912182522,0.0,0.318042770014,-0.190480025346,0.304990783105,1.0,-0.155330857143,-0.204149126531,3.357
-0.413521409572,-0.524056537455,-0.134539174481,-2.64375609979,-0.0702999530569,2.11122557142,-0.667338101308,-0.689802707996,-0.0861513277473,0.00357885083562,-0.0593925439389,-0.0235264874491,-0.0204955758343,-0.674544799075,0.573951676447,0.818855720132,0.00596067212339,0.0,0.818853579235,-0.573864227829,-0.0118072305521,0.0,-0.00624792206291,0.0116579219236,-0.999912524337,0.0,0.315535550439,-0.193800383617,0.305020515926,1.0,-0.152990285714,-0.201072946939,3.373
-0.424950301925,-0.525382334628,-0.134403400357,-2.64475728072,-0.0704998922195,2.11082982409,-0.678615547174,-0.676299159036,-0.0797591855365,0.010579736711,-0.0628304371709,-0.015188009712,-0.0192330355439,-0.667152562,0.573821322997,0.818946858785,0.00598987996798,0.0,0.818945078227,-0.573733755062,-0.0118018664266,0.0,-0.00622862503176,0.0116777701589,-0.999912413121,0.0,0.312841758755,-0.197350575413,0.305017978655,1.0,-0.150357142857,-0.197612244898,3.391
-0.435800727172,-0.526492274428,-0.134365053214,-2.64560508447,-0.0706841322018,2.11047527525,-0.689108428661,-0.677376431698,-0.0638891682745,0.00168930492953,-0.0483423003714,-0.0124634723758,-0.0230145093028,-0.661743849413,0.573975461167,0.818838398943,0.00604923923517,0.0,0.818837237858,-0.573887350668,-0.0118166637618,0.0,-0.00620447561275,0.0117360433338,-0.999911881002,0.0,0.310558046428,-0.200351943099,0.305012210963,1.0,-0.148162857143,-0.194728326531,3.406
-0.446942378997,-0.5274615899,-0.134213761981,-2.64638937222,-0.0708242161783,2.11013652845,-0.70011481543,-0.649933970907,-0.0538770589594,0.00629121923283,-0.0406040350344,-0.00235606918114,-0.0232727333677,-0.644815730219,0.573874958468,0.818908632096,0.0060771064996,0.0,0.818907337057,-0.573785822206,-0.0118890895898,0.0,-0.00624924086056,0.0117996650753,-0.999910853473,0.0,0.30807121763,-0.203589462384,0.304985032298,1.0,-0.145676,-0.191459885714,3.423
-0.45937658595,-0.528365349893,-0.134103780477,-2.64711459877,-0.0709964138443,2.10983664397,-0.712196120154,-0.658397763337,-0.0405345541969,-0.000683341398466,-0.0436946747736,-0.00755621764159,-0.0194269395426,-0.641484078082,0.573971583843,0.81884067936,0.00610816393524,0.0,0.818839544323,-0.573881841548,-0.0119239043518,0.0,-0.00625853406858,0.0118458165084,-0.999910249664,0.0,0.305295260389,-0.207221424229,0.304962716647,1.0,-0.142896571429,-0.187806922449,3.442
-0.468397087301,-0.528880201819,-0.13401116598,-2.6475001504,-0.0711156357607,2.10962718094,-0.721008977408,-0.626052737329,-0.0285678046065,0.00964778508436,-0.0263111551627,-0.0103599973454,-0.00618325805496,-0.633556174314,0.574003302842,0.818818394513,0.00611490263333,0.0,0.81881724233,-0.573913328078,-0.0119399505804,0.0,-0.00626734770951,0.0118607871372,-0.999910016992,0.0,0.303293016282,-0.209858269313,0.304959879011,1.0,-0.140848571429,-0.185115265306,3.456
-0.481556433865,-0.529431999286,-0.133827989972,-2.64794743478,-0.0712079226723,2.10938576105,-0.734032790711,-0.632599159701,-0.0261630573494,0.00568015509226,-0.0191889622392,-0.00274466628927,-0.00363095889892,-0.612502469597,0.573920302442,0.818876291577,0.00615243366416,0.0,0.818875305484,-0.573829578941,-0.0119831257153,0.0,-0.0062823700834,0.0119156645444,-0.999909270266,0.0,0.30038290656,-0.213678984244,0.304941979258,1.0,-0.137776571429,-0.181077779592,3.477
-0.489745653301,-0.529699234326,-0.133766699825,-2.64812426097,-0.0712659533362,2.10924833387,-0.741929497548,-0.629339659918,-0.0195598718123,0.00678074918058,-0.0126128269844,-0.00460628058176,-0.0039024930407,-0.608232870908,0.574081560822,0.818762948503,0.00619213886916,0.0,0.81876249546,-0.573990667211,-0.0119765138684,0.0,-0.00625181625357,0.0119456168377,-0.999909104385,0.0,0.29856528364,-0.216072220995,0.304948909439,1.0,-0.135874857143,-0.178578383674,3.49
-0.502370934241,-0.529926504778,-0.133560431167,-2.64829505862,-0.0713021308645,2.10911869789,-0.754571097298,-0.599176877721,-0.00665600460729,0.00362156170552,-0.0102282323741,0.000190616617772,-0.00526905502475,-0.599544720609,0.573897559537,0.818891640991,0.00623043925533,0.0,0.818891735126,-0.573806637471,-0.0119589229194,0.0,-0.00621811433282,0.0119654822631,-0.999909077011,0.0,0.295786720329,-0.219728229578,0.304948335474,1.0,-0.132802857143,-0.174540897959,3.511
-0.510851012688,-0.53003421183,-0.133454133605,-2.64837132366,-0.0713287688891,2.10903338641,-0.762845140124,-0.600997336391,-0.00813215437012,0.0068330182214,-0.00445207864396,-0.00164225148756,0.00100119970286,-0.57925502133,0.57397558973,0.818836701538,0.00626302729339,0.0,0.818837217965,-0.573884510315,-0.0119551744923,0.0,-0.00619520057302,0.0119906090309,-0.999908918245,0.0,0.293898322816,-0.222180185628,0.304948350751,1.0,-0.130754857143,-0.171849240816,3.525
-0.522599974728,-0.529999991369,-0.133275279119,-2.64835317433,-0.071348086466,2.10893527995,-0.77443324081,-0.566001663841,0.00361401132596,0.0133455393824,-0.00100379648371,-0.000684498827082,0.00133225995333,-0.574832993564,0.573974096551,0.818837541256,0.00629002542757,0.0,0.818838180663,-0.573882460102,-0.0119876092692,0.0,-0.0062062887233,0.0120313218177,-0.999908360439,0.0,0.291286521602,-0.225569081911,0.304940237042,1.0,-0.127829142857,-0.168004016327,3.545
-0.529477585571,-0.529916605103,-0.133180285162,-2.64830491593,-0.0713585928023,2.10894103,-0.781285455863,-0.578392313891,0.006505388541,0.00710623620941,0.00994188835753,0.00028648779399,-0.00163066313631,-0.55130195974,0.573926321794,0.818870898377,0.00630680931273,0.0,0.818871846806,-0.573834799666,-0.0119694654087,0.0,-0.0061824992661,0.0120342915426,-0.999908472076,0.0,0.289756715837,-0.227556287796,0.304934627273,1.0,-0.126073714286,-0.165696881633,3.557
-0.540407344885,-0.52971727895,-0.133033252878,-2.6481490073,-0.0713641605228,2.10893690603,-0.791934291682,-0.573328263992,0.0129391401765,0.00576841728393,0.00684352875986,-0.000875448581868,0.00153728726853,-0.561465483798,0.574059185153,0.818777551136,0.00633408226411,0.0,0.81877900031,-0.573967802888,-0.0119439021927,0.0,-0.00614395799812,0.0120429521685,-0.999908605365,0.0,0.287313968189,-0.230708468223,0.304936107328,1.0,-0.123294285714,-0.162043918367,3.576
-0.549185798732,-0.529384704058,-0.132829808284,-2.64788326871,-0.0713610850346,2.10895838045,-0.800727732313,-0.541127058532,0.0212913859691,0.014708455182,0.0156695868476,0.000852483237463,0.00374628313521,-0.539239338683,0.573919816689,0.81887547961,0.00630395163709,0.0,0.818876654716,-0.573828822479,-0.0119270178635,0.0,-0.00614947172482,0.0120075419163,-0.999908997327,0.0,0.285379675775,-0.233233976112,0.304942467535,1.0,-0.120953714286,-0.158967738776,3.592
