nelsonifechukwu/NELSON_IML_WORK/CNN-GradCAM/train2dof/data_sample_2022-02-22-10-10-02/robot_state.csv
position_joint1,position_joint2,position_joint3,position_joint4,position_joint5,position_joint6,position_joint7,velocity_joint1,velocity_joint2,velocity_joint3,velocity_joint4,velocity_joint5,velocity_joint6,velocity_joint7,ee_T_00,ee_T_10,ee_T_20,ee_T_30,ee_T_01,ee_T_11,ee_T_21,ee_T_31,ee_T_02,ee_T_12,ee_T_22,ee_T_32,ee_T_03,ee_T_13,ee_T_23,ee_T_33,v_x,v_y,time
0.465066952915,0.547825707259,-0.123985626396,-1.35583520398,0.0795335057924,1.8940979142,0.159161707869,2.39782718114e-05,0.00238974457204,0.00118667241841,-0.00060370146027,0.000148615547834,-7.82707349266e-05,-0.00171672647553,0.573820361571,0.818967186272,0.00192024928783,0.0,0.818923318279,-0.573761587416,-0.0119576957051,0.0,-0.00869136246193,0.00843426857755,-0.999926658977,0.0,0.661674072368,0.260892090036,0.303181529353,1.0,0.0,0.0,0.0
0.465066952915,0.547817911893,-0.123991441143,-1.35583770963,0.079534116144,1.89409543153,0.159168876985,-0.000122332597135,2.97513196561e-05,-0.00113133061875,-0.00074353147296,0.000278572225359,7.47448809835e-06,0.00140800682748,0.573830562632,0.818960034912,0.00192184994692,0.0,0.818916207346,-0.573771799446,-0.0119546813974,0.0,-0.00868787026071,0.00843395800182,-0.999926691944,0.0,0.661674511015,0.260888460961,0.303185837138,1.0,-0.00012,-0.000157714285714,0.007
0.465067086629,0.547816466933,-0.123985967423,-1.35583842119,0.0795348282028,1.89409779034,0.159169995231,-0.00039500708003,-0.001280969106,-0.00302176244685,0.00139553109667,-8.61560800206e-05,-0.000144707859062,-7.45717311794e-05,0.573829940966,0.81896045563,0.00192817694533,0.0,0.818916712577,-0.573771153156,-0.0119510906946,0.0,-0.00868130551313,0.00843707243287,-0.999926722687,0.0,0.661676201081,0.260887472568,0.303188885986,1.0,-0.0005,-0.000657142857143,0.026
0.465065482354,0.547798412633,-0.123988526542,-1.35585570864,0.0795335014113,1.89410041467,0.159169979452,-0.000459069706757,-0.00304090035813,-7.9696061077e-05,-0.00152819581059,-0.000184438961267,2.66604903869e-06,0.00139850395933,0.573831453879,0.818959394565,0.00192859921307,0.0,0.818915634079,-0.573772641811,-0.0119535213271,0.0,-0.00868303829886,0.00843882904315,-0.999926692818,0.0,0.661671644339,0.260887534625,0.303191419276,1.0,-0.0008,-0.00105142857143,0.041
0.465063080873,0.547708844645,-0.123988552784,-1.35594936215,0.0795346689624,1.89411586301,0.159166822519,-0.00153512142144,-0.00968777866624,-0.000501058300185,-0.010079386938,6.92157001085e-05,0.000962468057533,0.000200236311312,0.573836225818,0.818956015649,0.00194352047629,0.0,0.81891236307,-0.573777266026,-0.0119556474065,0.0,-0.00867616854229,0.0084523192642,-0.999926638508,0.0,0.661656193014,0.260877231439,0.303211640254,1.0,-0.00116,-0.00152457142857,0.059
0.465062686241,0.547610152813,-0.123983778244,-1.35609033724,0.0795317124552,1.89414765168,0.15916208181,-0.0009361486871,-0.00307853622962,0.000672440193627,-0.0139249585979,-8.52292113223e-05,-0.000230993903303,-0.000737327731149,0.573836289593,0.818955980067,0.00193968013095,0.0,0.818912174057,-0.573777245357,-0.0119695777853,0.0,-0.00868978028891,0.008457168604,-0.999926479306,0.0,0.661631991417,0.260865973198,0.303217053002,1.0,-0.00146,-0.00191885714286,0.074
0.465047043514,0.547459991336,-0.123994552826,-1.35631389831,0.0795266032746,1.89421150074,0.159162385259,-0.000830668501359,-0.00670857970069,-0.00127535725899,-0.0216146096368,0.000111964183685,0.00558878371799,-0.00172327614643,0.573867905,0.818933839836,0.00193403302969,0.0,0.81888991431,-0.573808836155,-0.011978092229,0.0,-0.00869966731673,0.00845776567352,-0.999926388285,0.0,0.661604272736,0.260828328425,0.303222910654,1.0,-0.0018,-0.00236571428571,0.091
0.465026824843,0.547245991372,-0.123985702888,-1.35654701166,0.0795264510605,1.89435686078,0.159150061401,0.00116779478611,-0.0120813287591,0.000815852978816,-0.0180587146705,0.000284175484737,0.00498560865996,0.00119235752746,0.573881504028,0.818924026849,0.00205048400288,0.0,0.818881535363,-0.573821864072,-0.0119267034938,0.0,-0.00859061689541,0.00852378213686,-0.999926770538,0.0,0.661588726561,0.260805084202,0.303275872408,1.0,-0.00218,-0.00286514285714,0.11
0.464999509851,0.547054494308,-0.123993556703,-1.3567795947,0.0795212037784,1.8944656926,0.159139187573,-0.0010087168244,-0.0110020172205,-0.00238268032656,-0.0189902795675,0.000196948369954,0.00694803364652,0.00137162587358,0.573912171469,0.818902381209,0.00211101671909,0.0,0.818860675688,-0.573852277896,-0.0118955397748,0.0,-0.0085300383241,0.00855578836538,-0.999927015802,0.0,0.661571374858,0.260763925586,0.303310510367,1.0,-0.0025,-0.00328571428571,0.126
0.464963615948,0.546833644372,-0.123991128443,-1.35711062092,0.0795147132962,1.89459832512,0.159113710866,-0.00550431281357,-0.0157233565389,7.99135216038e-05,-0.0193162474231,-0.000533611566122,0.0064609992983,-0.00143987314917,0.573935873773,0.818885700306,0.00213764635351,0.0,0.818844223015,-0.573875750396,-0.0118957321453,0.0,-0.00851466547691,0.00857795194253,-0.999926956938,0.0,0.661536888742,0.260713149097,0.303320798562,1.0,-0.00284,-0.00373257142857,0.143
0.464928517282,0.546560484503,-0.123992402328,-1.3575042299,0.0795072949192,1.89474355404,0.159030327499,-0.00341656288087,-0.0154923129334,-0.00244606584076,-0.0277749683036,-0.000656660312811,0.00856843063765,-0.00182582732754,0.573917250064,0.818898672373,0.00216826356505,0.0,0.818857450398,-0.573856860786,-0.011896476709,0.0,-0.00849789967102,0.00860325761231,-0.999926882157,0.0,0.66149260926,0.260654719861,0.303339547243,1.0,-0.00318,-0.00417942857143,0.16
0.46489591305,0.54629693843,-0.123992163844,-1.35793433759,0.0794964150597,1.89490186479,0.158946403251,-0.00259106070924,-0.0177657448916,0.000398766645106,-0.0315071552394,0.000138588284383,0.0135915210005,-0.00164722130177,0.573896259685,0.818913379758,0.00216944084976,0.0,0.818872028111,-0.573835721505,-0.0119127328397,0.0,-0.00851075751506,0.00861333308117,-0.999926686062,0.0,0.661441472431,0.260594679837,0.30333518016,1.0,-0.0035,-0.0046,0.176
0.464860122639,0.546027932045,-0.123991465058,-1.35838375621,0.0794829103197,1.89505729708,0.158925450728,-0.00216706264218,-0.0188581228502,-0.000777680400637,-0.0261095197504,0.000348798659805,0.0135127350991,-0.000338194886433,0.57392943913,0.818890164363,0.00215511255414,0.0,0.818848482204,-0.573868809673,-0.0119373103155,0.0,-0.00853875852774,0.00861605034371,-0.999926423933,0.0,0.661386309029,0.260529955904,0.303325202643,1.0,-0.0038,-0.00499428571429,0.191
0.464794429862,0.545654077337,-0.123991649183,-1.35903434116,0.0794352706154,1.89527361044,0.158822721205,-0.0043834450563,-0.0224887029686,-0.000326780782739,-0.0353241469829,-0.00593871792897,0.0131674545315,-0.00744351292696,0.573922871769,0.818894913648,0.00209870500472,0.0,0.818852524985,-0.573862504029,-0.0119630973201,0.0,-0.00859231686638,0.00858459034147,-0.999926235729,0.0,0.661309706376,0.260421042734,0.303298946481,1.0,-0.00418,-0.00549371428571,0.21
0.464735773749,0.545273618507,-0.12399430748,-1.35971060389,0.079334534882,1.89548429884,0.15875087716,-0.00467114788212,-0.0181110987717,-0.00276891548035,-0.0377455400141,-0.00262681726547,0.0126462060533,-0.00533250216468,0.573924747919,0.818893864914,0.00199214323648,0.0,0.818850578337,-0.573865310842,-0.0119617001413,0.0,-0.00865230754573,0.00849654696446,-0.999926470429,0.0,0.661227879864,0.260303411572,0.303264609905,1.0,-0.00452,-0.00594057142857,0.227
0.464666306719,0.544802416518,-0.123990653149,-1.36050485284,0.079322921886,1.89574382338,0.158673388227,-0.00191671591663,-0.017101020273,-7.45011274275e-05,-0.0400231268392,-0.00272246627964,0.0196290766621,-0.00371159535057,0.573956697749,0.818871552502,0.00195870181811,0.0,0.818827420787,-0.573896998463,-0.0120265133485,0.0,-0.00872424453131,0.0085067004251,-0.999925759047,0.0,0.661127353139,0.26018723021,0.303242511425,1.0,-0.0049,-0.00644,0.246
0.464600180466,0.544391034122,-0.12399531986,-1.36116320949,0.079300602803,1.89599405048,0.158546283977,-0.00335498477465,-0.0306904956338,-0.000895081539813,-0.0467556657223,-0.00228919318343,0.0194469098337,-0.00677473607255,0.573940888259,0.818882607231,0.00196958405311,0.0,0.818838480739,-0.57388101069,-0.0120364002806,0.0,-0.00872625996396,0.00852111754015,-0.999925618705,0.0,0.661056201941,0.260081433422,0.303242153992,1.0,-0.0052,-0.00683428571429,0.261
0.464538453594,0.543917179751,-0.123990346281,-1.3619249999,0.0792732417691,1.89625789882,0.158487387907,-0.00496230752008,-0.0303016934306,0.00136877278059,-0.0519470497756,8.98694257285e-05,0.0241649206901,-0.00475632214369,0.573974807328,0.818858855595,0.00196011925547,0.0,0.818814377529,-0.573914744035,-0.0120676689241,0.0,-0.00875694482247,0.00853167603489,-0.999925260418,0.0,0.660962451148,0.259972781224,0.30323758989,1.0,-0.00552,-0.00725485714286,0.277
0.464452240603,0.543384610272,-0.123998150475,-1.36276564331,0.0792323721449,1.89654292185,0.158369231172,-0.00593293705253,-0.0261012479538,-0.000827186870779,-0.0555813169653,-0.00214710148337,0.0188829088829,-0.00271000182107,0.573989882523,0.818848325264,0.00194470437524,0.0,0.818803548605,-0.57392978996,-0.0120868477739,0.0,-0.00878134035178,0.00853022341049,-0.999925058867,0.0,0.66086625883,0.259831211328,0.303239217984,1.0,-0.00586,-0.00770171428571,0.294
0.464379081691,0.542825071895,-0.124002319435,-1.36364996888,0.0791759961269,1.89686720783,0.158249215742,-0.00129341709831,-0.0291354408561,-0.000302659001955,-0.0491946394645,-0.0027358203837,0.016431712786,-0.00304390775045,0.573988610846,0.818849224906,0.00194123421681,0.0,0.818804438189,-0.573928567889,-0.0120846127056,0.0,-0.00878151504466,0.00852608540536,-0.999925092625,0.0,0.660765059863,0.259695707562,0.303242329321,1.0,-0.0062,-0.00814857142857,0.311
0.464279600669,0.542168239604,-0.124002371955,-1.36467710283,0.0791173814189,1.89724222986,0.158116541463,-0.00877731373421,-0.0352087016259,-0.000218800433005,-0.0536343412803,-0.00454729564513,0.0187001148942,-0.000388987434096,0.574002902677,0.818839193174,0.00194688027667,0.0,0.818794433203,-0.573942787545,-0.0120871701327,0.0,-0.00878021979263,0.00853232974775,-0.999925050736,0.0,0.660649489138,0.259532613067,0.303250471752,1.0,-0.00658,-0.008648,0.33
0.46421674034,0.541639707161,-0.12401051464,-1.36547060521,0.0790694494498,1.89753862308,0.158016643447,-0.00407648908594,-0.0376392156836,-0.00101757847286,-0.0576483644395,-0.00053805223862,0.0242509584151,-0.00484419368055,0.574009544633,0.818834477661,0.00197174153972,0.0,0.818790085181,-0.573949361925,-0.012069517674,0.0,-0.00875142589369,0.00854262523927,-0.999925215253,0.0,0.660560344765,0.259411475968,0.303272452916,1.0,-0.00686,-0.009016,0.344
0.464116339229,0.540927625451,-0.124003780701,-1.36655166293,0.0790125390472,1.89794331352,0.157873103164,-0.00704267231195,-0.0449787435206,-5.5706187783e-05,-0.0631734908076,-0.00612414034983,0.0216181254609,-0.00506505041982,0.574014283449,0.818831066587,0.0020084045377,0.0,0.818787042704,-0.57395383353,-0.0120632739108,0.0,-0.00872521994675,0.0085691121239,-0.999925217631,0.0,0.660437958337,0.259248343951,0.303296163341,1.0,-0.00722,-0.00948914285714,0.362
0.464046951876,0.540310794642,-0.124013794343,-1.36750904535,0.078950223844,1.89828725999,0.157741859268,-0.00559940128432,-0.0404361194635,-0.00305337343098,-0.0650103607198,-0.00523635412753,0.0219524370474,-0.00300590314254,0.574006981262,0.818836189866,0.00200662142974,0.0,0.81879220998,-0.573946606027,-0.0120564176689,0.0,-0.00872070544884,0.00856363878257,-0.999925303904,0.0,0.660325412419,0.259104426917,0.303306573998,1.0,-0.00752,-0.00988342857143,0.377
0.463935980452,0.539525075766,-0.124012061192,-1.36872862547,0.0788782775727,1.89875812815,0.157595422207,-0.00699075628862,-0.0418257097452,0.00016443003316,-0.0632851077113,-0.00490415531227,0.0294352325578,-0.00957967465399,0.574025123138,0.818823394027,0.00203821064023,0.0,0.818779821982,-0.573964605578,-0.0120408289067,0.0,-0.00868961892816,0.00858074924703,-0.999925427852,0.0,0.660190463243,0.258918016741,0.303322062348,1.0,-0.00788,-0.0103565714286,0.395
0.463853072769,0.538855418299,-0.124022220669,-1.36976441388,0.0788158969917,1.89914955659,0.157475752088,-0.00929080551442,-0.0430326457135,-0.00122746767932,-0.0710294396701,-0.0057455489111,0.0315605752581,-0.00918083946918,0.574042769446,0.818810976924,0.0020566519318,0.0,0.818767699593,-0.573982224564,-0.0120252604626,0.0,-0.00866610046547,0.0085870993186,-0.999925577445,0.0,0.660073812474,0.258759698789,0.303336408176,1.0,-0.00818,-0.0107508571429,0.41
0.463742644843,0.538067947415,-0.124025686323,-1.37097138492,0.0787596584065,1.89961021426,0.157322243315,-0.00763386383602,-0.0458757922072,-0.00183130886126,-0.0729886829208,-0.00542577107239,0.0248056305356,-0.00897854173663,0.574061606847,0.81879766178,0.0020994067604,0.0,0.818754821143,-0.574000758239,-0.0120174580303,0.0,-0.00863497171341,0.00861782659359,-0.999925582395,0.0,0.659939485923,0.258574020989,0.303358188905,1.0,-0.00852,-0.0111977142857,0.427
0.463638709029,0.537324250635,-0.124021198961,-1.3721527655,0.078681288279,1.90005457776,0.157169733117,-0.0058454875773,-0.0442581169911,0.000947384848354,-0.07879873569,-0.00699956556697,0.0201425928197,-0.00856733743884,0.574062889578,0.818796757761,0.00210123540805,0.0,0.818753978051,-0.574002070112,-0.0120122368561,0.0,-0.0086296332644,0.00861634014032,-0.999925641292,0.0,0.659804155731,0.258395039965,0.303359395348,1.0,-0.00884,-0.0116182857143,0.443
0.46353453999,0.536479189912,-0.124024393917,-1.37346209825,0.0786140567788,1.90054995665,0.157012254054,-0.00820909164512,-0.0489024596406,0.000287064280248,-0.0761244040802,-0.00602654546465,0.0345671044473,-0.00462314666425,0.574075637134,0.81878773905,0.00213263509915,0.0,0.818745282541,-0.574014597799,-0.0120062788328,0.0,-0.00860659592487,0.00863876342033,-0.999925646372,0.0,0.659652943996,0.258202859884,0.303375829446,1.0,-0.00918,-0.0120651428571,0.46
0.463413954049,0.535620121713,-0.124032887274,-1.37483087908,0.078532091593,1.90104180659,0.156837033165,-0.0123018367824,-0.0483187437204,-0.000601955621006,-0.0833186022883,-0.0059666266557,0.0280810125604,-0.0190924132053,0.574090073955,0.818777661416,0.0021154320894,0.0,0.818734976244,-0.574029100702,-0.0120157031675,0.0,-0.00862403579928,0.00863024032037,-0.999925569709,0.0,0.659493546807,0.25798730254,0.303373543564,1.0,-0.00952,-0.012512,0.477
0.463297899084,0.534721284018,-0.124028998264,-1.37627973921,0.07845112739,1.90156535997,0.1566629629,-0.00866413827605,-0.0475938269333,0.000887268140212,-0.0855200355065,-0.00492272476104,0.0294994151133,-0.0122190480792,0.574097606119,0.818772428627,0.0020965853611,0.0,0.818729377881,-0.574036592023,-0.0120392572132,0.0,-0.00865406176927,0.00862841089758,-0.999925326082,0.0,0.65931851987,0.257775267294,0.30336339443,1.0,-0.00986,-0.0129588571429,0.494
0.46314734067,0.533708010765,-0.124033983035,-1.37793394094,0.0783571129897,1.90216613046,0.156463760038,-0.008130784029,-0.0517667659259,0.00128817676722,-0.0869331058178,0.000621454305939,0.0265106446455,-0.00795028969807,0.574126684699,0.818752124182,0.00206299905487,0.0,0.818708561066,-0.574065736802,-0.012065188321,0.0,-0.00869426888562,0.00861610744544,-0.999925083384,0.0,0.659125391658,0.257515608106,0.303343026425,1.0,-0.01024,-0.0134582857143,0.513
0.463037262883,0.532884151775,-0.1240368604,-1.3792698273,0.0782820302228,1.90267987753,0.156295261877,-0.00640509341021,-0.0524569328815,-0.000125266855419,-0.0923409519162,-0.0046523939886,0.0417822015028,-0.00915066571383,0.5741339722,0.81874700958,0.00206474466841,0.0,0.818703438733,-0.574072985628,-0.012067869775,0.0,-0.00869538556704,0.00861915351545,-0.999925047422,0.0,0.65897166159,0.257316325808,0.303332782158,1.0,-0.01054,-0.0138525714286,0.528
0.462895726884,0.531846053226,-0.124037180469,-1.38091792567,0.0781906718907,1.90328213518,0.156083302857,-0.0100634506117,-0.0612511701187,0.00206495136228,-0.0923374733199,-0.00945142766833,0.0357211067318,-0.00760670163477,0.574141952513,0.818741420305,0.00206202415518,0.0,0.818697704549,-0.574080868262,-0.0120818940156,0.0,-0.00870834611157,0.00862506272192,-0.999924883679,0.0,0.658776512278,0.257066955991,0.303332371313,1.0,-0.0109,-0.0143257142857,0.546
0.462758480698,0.530843774063,-0.12403993169,-1.38254577081,0.0780909565343,1.90385789727,0.15587683728,-0.010770923306,-0.0622253209796,-0.000552390391537,-0.0965576518356,-0.00154228042819,0.0313830264726,-0.0110485574954,0.574148968751,0.818736610311,0.00201780097115,0.0,0.81869227108,-0.574088030557,-0.0121097211289,0.0,-0.00875644523202,0.00860490762883,-0.999924637276,0.0,0.658579289934,0.256817826115,0.303313897915,1.0,-0.01124,-0.0147725714286,0.563
0.462625077093,0.529870789802,-0.124042794587,-1.38407785306,0.077999569269,1.90441051961,0.15567882549,-0.0091143787042,-0.0592499348078,-0.00059223681009,-0.095947194979,-0.0022221340936,0.0305647106309,-0.0121810385416,0.574156726611,0.818731183471,0.00201231215166,0.0,0.818686731207,-0.574095770888,-0.0121172973637,0.0,-0.00876571808233,0.0086048467173,-0.999924556554,0.0,0.658397191471,0.256581946235,0.30331813087,1.0,-0.01156,-0.0151931428571,0.579
0.462478943858,0.52874621464,-0.124046040272,-1.38585642918,0.0778822270107,1.90508669684,0.155430236912,-0.00565257619273,-0.0645563561096,-0.000948124155068,-0.102865698008,-0.00292976503431,0.0414002785,-0.0106612519749,0.574140170729,0.818742765527,0.00202364874293,0.0,0.81869856508,-0.574079269469,-0.0120995372823,0.0,-0.00874484218938,0.00860375437197,-0.999924748742,0.0,0.658190433458,0.256314400466,0.303322281302,1.0,-0.01192,-0.0156662857143,0.597
0.462339480645,0.527694945181,-0.124041067413,-1.38746569744,0.0777835562842,1.90570762216,0.155199833605,-0.00762963029015,-0.0700807533867,0.00107127714857,-0.102673948962,-0.00200128166376,0.0377456401287,-0.0110725980393,0.574122896031,0.818754745285,0.00207707183149,0.0,0.818711250039,-0.57406177322,-0.0120713085018,0.0,-0.00869124091231,0.00863110284702,-0.999924980384,0.0,0.658005240869,0.256074453376,0.303350070327,1.0,-0.01224,-0.0160868571429,0.613
0.462202720829,0.526594538231,-0.124046895682,-1.3891561606,0.0776842095234,1.90634762047,0.154961888376,-0.00520789383277,-0.0743927724442,-2.73439616647e-06,-0.105274281902,-0.00547355691174,0.0394182722291,-0.0204206945982,0.574121116514,0.81875590821,0.0021102715894,0.0,0.818712887897,-0.574059893379,-0.012049601927,0.0,-0.00865442711025,0.0086458039176,-0.999925172683,0.0,0.657796229287,0.255800114409,0.303369990403,1.0,-0.01258,-0.0165337142857,0.63
0.462028542068,0.525349498917,-0.124049286739,-1.39109462121,0.0775536164381,1.90705110249,0.154719825094,-0.0139012255042,-0.0706176491216,-7.20569891981e-05,-0.107693490153,-0.00794251662521,0.0499855103149,-0.0115339546868,0.574124064314,0.818753814933,0.00212042673074,0.0,0.818710973271,-0.574062843827,-0.0120391230664,0.0,-0.00863998608638,0.0086481334015,-0.999925277423,0.0,0.657577889375,0.255519165997,0.30338981632,1.0,-0.01292,-0.0169805714286,0.647
0.461895367466,0.524310489693,-0.124057778202,-1.39275065321,0.0774603370575,1.90764069931,0.154485171017,-0.00857835535019,-0.0723606841229,-0.00342120995982,-0.107016582375,-0.0118271476507,0.0379895865843,-0.0187348084346,0.574110824549,0.818763153248,0.00209926662478,0.0,0.818719945846,-0.57404960628,-0.0120601287103,0.0,-0.00866947274617,0.00864272829467,-0.999925068938,0.0,0.657374795361,0.255268666686,0.303383682499,1.0,-0.01322,-0.0173748571429,0.662
0.461739125007,0.523119751879,-0.124055639055,-1.39467202384,0.0773413781991,1.90836499811,0.154212748643,-0.0093671010451,-0.0700787925146,0.000240060307543,-0.115211739551,-0.00347814969164,0.0467619277432,-0.0205038383972,0.574085355702,0.818781031815,0.00209122195943,0.0,0.818737710734,-0.574024166458,-0.0120650008484,0.0,-0.00867834898647,0.00863866890444,-0.999925027019,0.0,0.657144517445,0.254984696245,0.30336899942,1.0,-0.01356,-0.0178217142857,0.679
0.461568009545,0.521798506108,-0.124065554546,-1.39674084208,0.0772161769339,1.9091764742,0.153942848725,-0.00672954860213,-0.0719249893537,-0.00112981999295,-0.109319652668,-0.00378425894129,0.05384854043,-0.0212922150157,0.574088782137,0.818778501005,0.00214089167826,0.0,0.818735913155,-0.57402746643,-0.0120299291478,0.0,-0.00862108271141,0.008659238994,-0.99992534447,0.0,0.65690656502,0.254673061623,0.303383432028,1.0,-0.01392,-0.0182948571429,0.697
0.461405456922,0.520619431066,-0.12406806652,-1.39863333646,0.0770951222897,1.90988435549,0.153695490113,-0.0114397147745,-0.0737466601531,-0.00137608249043,-0.116964229013,-0.0024639300881,0.0453277272795,-0.0126942945577,0.57408955838,0.818777983682,0.00213056282929,0.0,0.818735303354,-0.574028328563,-0.0120302929982,0.0,-0.00862730172667,0.00865099915742,-0.999925362154,0.0,0.656680970425,0.254384152308,0.30337234493,1.0,-0.01424,-0.0187154285714,0.713
0.461225837877,0.519218147813,-0.124068531539,-1.40081425212,0.0769620612452,1.91066580416,0.153398870232,-0.00756080111874,-0.080862940234,0.000302569501047,-0.123495221596,-0.00580959335124,0.0453531418679,-0.0116726429816,0.574074091175,0.818788822914,0.00213265417611,0.0,0.818746103802,-0.574012788237,-0.0120367499864,0.0,-0.00863155176722,0.00865625526633,-0.999925279988,0.0,0.656411625534,0.254057040049,0.303385933775,1.0,-0.0146,-0.0191885714286,0.731
0.461060917359,0.517865625871,-0.124076828103,-1.40293428638,0.0768168921691,1.91142264834,0.153117781771,-0.00844141918859,-0.0793093535914,-0.0010237050244,-0.123545323313,-0.00495773599426,0.0446767783719,-0.0237800798273,0.574057903821,0.818800222149,0.00211333140242,0.0,0.818757358645,-0.573996792548,-0.0120339815147,0.0,-0.00864054764831,0.00863867416118,-0.999925354337,0.0,0.656148378621,0.253738051012,0.303391941158,1.0,-0.01494,-0.0196354285714,0.748
0.460884792932,0.516597384116,-0.124074834701,-1.40494415824,0.0766865112658,1.91216240177,0.152830481983,-0.0122773759781,-0.0779258159993,0.000121526322965,-0.123032996494,-0.00930040469033,0.0507819072274,-0.0101342764739,0.57403658017,0.818815187228,0.00210729534523,0.0,0.818772262938,-0.573975515122,-0.0120347989576,0.0,-0.00864490667163,0.00863397604592,-0.999925357237,0.0,0.655904553128,0.253430927155,0.303389081466,1.0,-0.01526,-0.020056,0.764
0.460704752868,0.515220195248,-0.124078271558,-1.40712353812,0.0765607736172,1.91298367591,0.152537416063,-0.0105472473776,-0.0813252389747,0.000456106825063,-0.128500258195,-0.00736043123298,0.0438344669113,-0.0186573480075,0.574027762556,0.818821322846,0.00212508094321,0.0,0.818778566606,-0.573966559345,-0.0120330595467,0.0,-0.00863336655768,0.00864744746706,-0.99992534053,0.0,0.655640902458,0.253105672005,0.303388831066,1.0,-0.0156,-0.0205028571429,0.781
0.460513484538,0.51381632738,-0.124076227677,-1.40938813004,0.0764160295528,1.91377922307,0.152232052662,-0.0166762463387,-0.0813321245592,0.000350640661957,-0.137663926639,-0.00887773479755,0.046721046739,-0.0198380629236,0.574012688205,0.818832039874,0.00206667764332,0.0,0.818788455335,-0.573951670147,-0.0120703208773,0.0,-0.00869755983584,0.00862085510771,-0.999925013844,0.0,0.655354331352,0.252761827821,0.30336388761,1.0,-0.01594,-0.0209497142857,0.798
0.460332989552,0.512503601764,-0.124083719782,-1.41151343187,0.0762925274682,1.91451720162,0.151926156739,-0.00936922069059,-0.0851357487684,-0.00123088665904,-0.132117914439,-0.00983328868386,0.0450501243731,-0.0117599195288,0.573993308961,0.818845776478,0.00200562068042,0.0,0.818801247138,-0.573932413577,-0.012118136494,0.0,-0.00877196305651,0.00859809951909,-0.999924559829,0.0,0.65508443725,0.252434386686,0.303336299826,1.0,-0.01626,-0.0213702857143,0.814
0.460120112521,0.510968654771,-0.12408762314,-1.41394358072,0.0761482273941,1.91543830056,0.151572420977,-0.0107504767408,-0.0875409941521,-0.00063023923031,-0.135369930604,-0.00441346628626,0.050289748647,-0.0235732851713,0.573969122747,0.818862676368,0.00202738373452,0.0,0.818818397881,-0.573908102173,-0.0121106751798,0.0,-0.00875361647314,0.00861137850593,-0.999924606337,0.0,0.654791979334,0.252063626454,0.303334540313,1.0,-0.01662,-0.0218434285714,0.832
0.459915491193,0.509478918559,-0.124090681391,-1.41631079293,0.0760010542599,1.91633176987,0.151253349545,-0.0156653819828,-0.0906899919602,0.00116761616998,-0.135718610149,-0.00302766499336,0.0528051794879,-0.0199856465429,0.573961381697,0.818868078362,0.00203702270174,0.0,0.818823942756,-0.573900336721,-0.0121037672806,0.0,-0.00874250895998,0.00861522382201,-0.999924670391,0.0,0.654504706012,0.251703398841,0.303328139567,1.0,-0.01696,-0.0222902857143,0.849
0.459714623643,0.508064508222,-0.124097448763,-1.41854582004,0.0758550580377,1.91711684668,0.150938361955,-0.0134319499729,-0.0935886892049,-0.000255831646398,-0.148698945174,-0.0100762532031,0.055585865576,-0.0257415506914,0.573949091228,0.818876780864,0.00200133500033,0.0,0.818832183854,-0.573888208876,-0.0121212746783,0.0,-0.00877745682311,0.00859591759315,-0.999924530378,0.0,0.654224265889,0.251351166234,0.303322152042,1.0,-0.01728,-0.0227108571429,0.865
0.459487706538,0.506433430711,-0.124108860305,-1.42111811671,0.0756911248517,1.91806503993,0.150581757823,-0.011860902741,-0.0960413510392,-0.00238827648023,-0.142638649724,-0.011019049776,0.0562405450096,-0.0206493208014,0.573939906768,0.818883220211,0.00200049414415,0.0,0.818838668612,-0.573879084511,-0.0121151990505,0.0,-0.00877306037257,0.00859164359085,-0.999924605694,0.0,0.653908976343,0.250950207401,0.30332095032,1.0,-0.01764,-0.023184,0.883
0.459267149472,0.504814114894,-0.124110637604,-1.42357948149,0.0755374541693,1.91901743561,0.150248941694,-0.0123631509308,-0.0986446760561,-0.000789717813259,-0.143491628565,-0.0156590668558,0.0561316057601,-0.0223030535072,0.573934930507,0.818886481189,0.0020912606636,0.0,0.818843183405,-0.573873782922,-0.0120610599582,0.0,-0.00867668633355,0.00863484439556,-0.999925074481,0.0,0.65361541379,0.250574008024,0.303363694849,1.0,-0.01798,-0.0236308571429,0.9
0.459059763985,0.503350764071,-0.12411068777,-1.42576159084,0.0754053042738,1.91983576513,0.149940402085,-0.0146039849568,-0.0941206890276,0.00110366995209,-0.15291656844,-0.0030440022355,0.0508696952956,-0.0143257018961,0.573928640675,0.818890663516,0.00217796263756,0.0,0.818848479137,-0.573867108947,-0.012019000984,0.0,-0.00859255200166,0.00868163743885,-0.999925395828,0.0,0.653352208513,0.250233003949,0.30341812081,1.0,-0.01828,-0.0240251428571,0.915
0.458832155348,0.501647235081,-0.124122734559,-1.42828628649,0.0752408014492,1.92075579554,0.1495946102,-0.0152644304441,-0.0947322637559,0.000194501587731,-0.148450229364,-0.0117402972121,0.0547588420347,-0.0164286279357,0.573925065467,0.818892956282,0.00225660851159,0.0,0.818851895796,-0.573863309309,-0.0119675344595,0.0,-0.00850530859826,0.0087164639749,-0.999925838741,0.0,0.653041788929,0.24983612196,0.303485767018,1.0,-0.01862,-0.024472,0.932
0.458573695956,0.4998258322,-0.124125997602,-1.43103684375,0.0750661368533,1.92173326558,0.149207739153,-0.0117766938995,-0.099871921474,-5.95347260908e-05,-0.160776419725,-0.00175596908843,0.052113643016,-0.0188975914166,0.573915040327,0.818899870053,0.00229700109395,0.0,0.818859305189,-0.573853089774,-0.0119505883981,0.0,-0.00846835715342,0.00873971140878,-0.999925949444,0.0,0.652696588183,0.249401405638,0.303532217073,1.0,-0.01898,-0.0249451428571,0.95
0.45835858494,0.498359433215,-0.124127608272,-1.43334680541,0.0749154412888,1.92260265477,0.148878102822,-0.0171970157538,-0.0939334541903,0.000336204791614,-0.158734394784,-0.0110817991135,0.0659222962663,-0.0182380183498,0.573899214061,0.818910917496,0.00231261888279,0.0,0.818870615459,-0.573837263972,-0.0119355149312,0.0,-0.00844721922593,0.00874368662936,-0.999926093485,0.0,0.652413171807,0.249040103837,0.303530833078,1.0,-0.01928,-0.0253394285714,0.965
0.458097739255,0.496688111831,-0.124127452992,-1.4360127332,0.0747583354772,1.92355647011,0.148474690669,-0.014785073192,-0.0963672007423,4.62024879516e-05,-0.150428708663,-0.00696996230236,0.0597568334081,-0.0244218255587,0.573876705447,0.818926768717,0.00228502201503,0.0,0.81888595046,-0.573814708091,-0.0119677825364,0.0,-0.00848972169419,0.00873937229811,-0.999925771244,0.0,0.652057853425,0.248586922354,0.303512411023,1.0,-0.01964,-0.0258125714286,0.983
0.45781329566,0.494903155133,-0.124127356778,-1.43891006545,0.0745757552149,1.92455486509,0.148065746865,-0.018782970675,-0.0965091583299,0.000831697016281,-0.162308588568,-0.00602321982898,0.0601881376871,-0.0157585432458,0.573869537312,0.818932065792,0.00218464295669,0.0,0.818889758326,-0.573807772633,-0.0120395463523,0.0,-0.00860617115198,0.00869827810629,-0.999925134086,0.0,0.651701015827,0.248148388234,0.303460772904,1.0,-0.01998,-0.0262594285714,1.0
0.457530051785,0.493029603024,-0.124177057821,-1.44180044356,0.0743980821488,1.92561281983,0.147648968028,-0.0156151658311,-0.138800478715,0.00225040427062,-0.194559917051,-0.00592830384113,0.0808236314772,-0.0334652067573,0.573893223784,0.818915399869,0.00220962753866,0.0,0.81887357402,-0.573831509296,-0.0120089804765,0.0,-0.00856655007608,0.00870144564966,-0.999925446753,0.0,0.651350910166,0.247659872182,0.303482655911,1.0,-0.0298885714286,-0.039282122449,1.016
0.457187591113,0.4901650394,-0.124235367702,-1.44626243274,0.0741681161976,1.92731088016,0.146992117967,-0.0290218126258,-0.180027407774,-0.000945145875359,-0.294753539546,-0.0141246968389,0.106045274921,-0.0475120752287,0.57384015483,0.818952324398,0.00230520465219,0.0,0.818911591879,-0.573777897157,-0.0119781601724,0.0,-0.008487030039,0.00876147678484,-0.999925600655,0.0,0.650789917852,0.246989406302,0.30350077565,1.0,-0.0411182857143,-0.0540411755102,1.033
0.456585114462,0.486119306398,-0.124278187424,-1.45268365505,0.0738127754729,1.92972326656,0.146039695626,-0.0365046937422,-0.247574656168,-0.00896780081161,-0.386606282389,-0.0204143114828,0.151301073606,-0.0575168305808,0.57380864092,0.818974286925,0.00234688340036,0.0,0.818933825807,-0.573745935899,-0.0119890320508,0.0,-0.00847235728085,0.00880152184535,-0.999925373403,0.0,0.649987441833,0.245970908326,0.30346646131,1.0,-0.0530085714286,-0.0696684081633,1.051
0.455947878691,0.481921841129,-0.1243984249,-1.45931682563,0.0734019260304,1.93207073994,0.145015043979,-0.0433559652416,-0.28983336974,-0.00507083370247,-0.470914952496,-0.0183875573637,0.160349520452,-0.0605349078541,0.573793182462,0.818985389902,0.00224984160856,0.0,0.818943852448,-0.573731073192,-0.0120153690161,0.0,-0.00854977224748,0.00873699899482,-0.99992528033,0.0,0.649145326483,0.244849170337,0.30342931654,1.0,-0.0629171428571,-0.0826911020408,1.066
0.455008863929,0.475848306339,-0.1245478337,-1.4688370133,0.0728440690986,1.93535834454,0.143618663118,-0.0558781549104,-0.355586295975,-0.00724913280905,-0.562984252622,-0.0400648616361,0.200994261071,-0.0810545725873,0.573838715269,0.818953854178,0.00211198659441,0.0,0.818910256501,-0.573776922385,-0.0121153636879,0.0,-0.0087102823186,0.00868195937203,-0.999924374422,0.0,0.647907183977,0.243238836692,0.303394998599,1.0,-0.0748074285714,-0.0983183346939,1.084
0.454006532588,0.469596810359,-0.124664462897,-1.47847112428,0.0722915087634,1.93882660005,0.142197648927,-0.0651921548494,-0.411671685854,-0.00752699135913,-0.619218305566,-0.0344733115613,0.229227080007,-0.0896672629642,0.573894120942,0.818914812595,0.00219421089023,0.0,0.818872001181,-0.573831676947,-0.0121078121836,0.0,-0.00865632569166,0.00874554847125,-0.999924288838,0.0,0.64667340509,0.241610294337,0.303435094107,1.0,-0.0853765714286,-0.112209208163,1.1
0.452856227851,0.4625452767,-0.124720517618,-1.48926522575,0.0716074245866,1.94281979595,0.140435845598,-0.079539371759,-0.459141421856,-0.00177471286838,-0.714834962186,-0.0404118335989,0.25161882669,-0.115229203504,0.573758639299,0.819009170715,0.00239771033838,0.0,0.81896909281,-0.573695442591,-0.0119962941644,0.0,-0.00844968212406,0.00884679840535,-0.999925165715,0.0,0.645287786667,0.239812021228,0.303508488335,1.0,-0.0959457142857,-0.126100081633,1.116
0.451217357533,0.453243801083,-0.12484879026,-1.50381749597,0.0706455400551,1.94777770809,0.138226578625,-0.0900233291645,-0.514321349354,-0.00989668337698,-0.791591339732,-0.0517139018308,0.271778229676,-0.126821323271,0.573794758202,0.818984630913,0.00212053984544,0.0,0.818940727253,-0.573732517199,-0.0121585712943,0.0,-0.00874122865628,0.0087132886769,-0.99992383186,0.0,0.643330731861,0.237268733204,0.303413312063,1.0,-0.108496571429,-0.142595493878,1.135
0.449796265537,0.444953928472,-0.124968628143,-1.51616519506,0.0697883658291,1.9523220706,0.136299749174,-0.0971377617569,-0.557966577457,-0.0093891808086,-0.86187139932,-0.0571847917988,0.306375730049,-0.132984458853,0.573792452252,0.818985235768,0.00248036959552,0.0,0.818946941699,-0.573729670798,-0.0118709068687,0.0,-0.00829919561441,0.00884289811038,-0.999926460549,0.0,0.641730506408,0.235110013423,0.303616465854,1.0,-0.118405142857,-0.155618187755,1.15
0.448083785669,0.435567546699,-0.125061560212,-1.53057603152,0.0688479327782,1.95722862266,0.133990758687,-0.11290405828,-0.614789164969,-0.00718084937097,-0.898499471457,-0.0603139595366,0.319634330012,-0.144921138742,0.573751050876,0.81901441466,0.00242220935764,0.0,0.818974867913,-0.573687978743,-0.0119589161188,0.0,-0.00840509411864,0.00884533957943,-0.999925554409,0.0,0.639621160139,0.23241275524,0.303627783377,1.0,-0.129634857143,-0.170377240816,1.167
0.44593059476,0.424071947497,-0.125193475338,-1.54778891181,0.0676354558963,1.96334686651,0.131120751956,-0.123076778076,-0.637659481177,-0.00713186919826,-0.975733121503,-0.0711188371973,0.332708535474,-0.170216108435,0.573668897946,0.819071210306,0.00266362135537,0.0,0.819035432404,-0.57360559099,-0.0117615200171,0.0,-0.00810581039567,0.00892899040566,-0.99992728184,0.0,0.637407657825,0.229471784995,0.30376982661,1.0,-0.140864571429,-0.185136293878,1.184
0.443769458418,0.413148493807,-0.125336209257,-1.56413845048,0.066443897139,1.96912133526,0.128424324887,-0.138680921479,-0.696621413951,-0.00470777736744,-1.0375846793,-0.0758745966756,0.381811469605,-0.171519712997,0.573688011523,0.819057067591,0.00288658377212,0.0,0.819025019857,-0.573624880872,-0.0115438205732,0.0,-0.00779938171732,0.00898690882712,-0.999929200051,0.0,0.635167154045,0.226446923187,0.303900201189,1.0,-0.151433714286,-0.199027167347,1.2
0.440919669694,0.399415549817,-0.125481398599,-1.58489114053,0.0650730510172,1.97612886413,0.124931771736,-0.158112626064,-0.764932478961,-0.00401079069449,-1.10484475513,-0.0767440001879,0.379008966642,-0.194979038366,0.573730187904,0.819027498663,0.00289392879558,0.0,0.818994614178,-0.57366595545,-0.0116593484597,0.0,-0.00788933047155,0.00905960670554,-0.999927838392,0.0,0.632194508736,0.222578070874,0.303906442855,1.0,-0.163984571429,-0.215522579592,1.219
0.438264941977,0.387162245887,-0.125623045025,-1.60333064799,0.0637029291191,1.98240924964,0.121748077983,-0.170084350351,-0.77769379061,-0.00910683170829,-1.17316398429,-0.0885166475826,0.381125371272,-0.204972565492,0.573734522238,0.819024411173,0.00290840101555,0.0,0.818992107902,-0.573670693698,-0.0116021242727,0.0,-0.00783410940354,0.00903867072731,-0.999928462022,0.0,0.62953646668,0.219053909556,0.30391163684,1.0,-0.174553714286,-0.229413453061,1.235
0.435203296993,0.373370896691,-0.125774714093,-1.62379724229,0.0621720380556,1.98923025378,0.118037698667,-0.184927361278,-0.830603344371,-0.00714205213224,-1.21886389663,-0.0908448113829,0.401215971772,-0.22650351566,0.573648434759,0.819084460472,0.00297771936501,0.0,0.819053223631,-0.573584587287,-0.011544911725,0.0,-0.00774843303976,0.00906180565329,-0.999928920206,0.0,0.626512287995,0.215086196849,0.303986352627,1.0,-0.185783428571,-0.244172506122,1.252
0.43157032693,0.358099861946,-0.125968426483,-1.64642106142,0.0604304605863,1.99667422438,0.114026316231,-0.206203760103,-0.862118952349,-0.0124627295164,-1.27709548171,-0.0981876939889,0.41148327187,-0.23262848149,0.573794410595,0.81898220305,0.0029786504385,0.0,0.818951304777,-0.573730923641,-0.0115036761104,0.0,-0.00771251062652,0.00904028877011,-0.999929392687,0.0,0.623121124719,0.210545003297,0.30402243062,1.0,-0.197673714286,-0.259799738775,1.27
0.428219572037,0.34482815206,-0.126161414216,-1.66602346115,0.0589651820099,2.00298561286,0.110287742029,-0.227091026449,-0.908910829079,-0.0148912269541,-1.30284168083,-0.0924005210968,0.438923200654,-0.244155239714,0.573872199256,0.818927841418,0.00293877060221,0.0,0.818896046185,-0.573808385774,-0.0115736277335,0.0,-0.00779182477849,0.00904850503933,-0.99992870347,0.0,0.620123860098,0.206494692521,0.304020490192,1.0,-0.207582285714,-0.272822432653,1.285
0.424254534631,0.329271755083,-0.126286321868,-1.68886345201,0.0572242288854,2.01033834296,0.105907119733,-0.233942164227,-0.930587990987,-0.00565306296074,-1.33773503052,-0.103890686386,0.438221234291,-0.270969464544,0.573864716761,0.8189329305,0.00298145964288,0.0,0.818901062058,-0.573800034603,-0.0116326158648,0.0,-0.00781572103013,0.00911724381166,-0.999927892585,0.0,0.616536659954,0.201827077514,0.304018634606,1.0,-0.218812,-0.287581485714,1.302
0.420025867809,0.313073624529,-0.126427609855,-1.71246192358,0.055230691116,2.01780638002,0.101246772671,-0.251782271281,-0.945264467262,-0.00972457717519,-1.39422673044,-0.103965851682,0.425026516032,-0.281032488325,0.573748994484,0.819014177079,0.00293529785944,0.0,0.818982213189,-0.573685064804,-0.0115899871296,0.0,-0.00780857756788,0.0090538745141,-0.999928524182,0.0,0.61274191947,0.19692247812,0.304019902332,1.0,-0.230041714286,-0.302340538775,1.319
0.415695373444,0.297214992719,-0.126563014906,-1.73532773792,0.0532807691531,2.0249541255,0.0965247630502,-0.283540375367,-0.980421453419,-0.0168181170004,-1.45931207435,-0.131111740124,0.435780432727,-0.301576786784,0.573604560244,0.819115225741,0.0029668716746,0.0,0.819084019283,-0.573540952737,-0.0115278701354,0.0,-0.00774118058312,0.00904273015609,-0.999929149067,0.0,0.608997415419,0.192065700756,0.304051778097,1.0,-0.240610857143,-0.316231412245,1.335
0.410718753008,0.279819423642,-0.126735049144,-1.76012306548,0.0512470648954,2.0325661098,0.0912959039733,-0.303004714592,-1.04185306404,-0.013835058329,-1.49337653349,-0.128674758895,0.456284877084,-0.322204578281,0.573586471739,0.819127318751,0.00312122014328,0.0,0.819097600698,-0.573521777916,-0.0115168436745,0.0,-0.00764382072098,0.00916266606915,-0.999928806243,0.0,0.604856553962,0.186671904249,0.304124841919,1.0,-0.251840571429,-0.330990465306,1.352
0.405285342469,0.261869275139,-0.126948044787,-1.78552552284,0.0490342614838,2.04016092099,0.085747904808,-0.339064065043,-1.07577238223,-0.0162858923975,-1.51149343822,-0.143234893177,0.454771756962,-0.328802851921,0.573610843633,0.819110054884,0.00317253133344,0.0,0.819080984452,-0.573545968483,-0.0114939047492,0.0,-0.00759532662732,0.00919176545758,-0.999928908704,0.0,0.600527062999,0.180955331632,0.304178667708,1.0,-0.263070285714,-0.345749518367,1.369
0.399751171282,0.24457647021,-0.127155701272,-1.80989800452,0.0468550428608,2.04727676354,0.0802792157494,-0.353154022713,-1.09186655156,-0.0138854984054,-1.52393209427,-0.139008128758,0.428539467425,-0.349892496641,0.573705428785,0.819043947474,0.00313687572717,0.0,0.819014286053,-0.573640495295,-0.0115294535919,0.0,-0.00764383740387,0.00918383296797,-0.999928611933,0.0,0.596281506306,0.175323749573,0.304176963229,1.0,-0.273639428571,-0.359640391837,1.385
0.393200692096,0.224444012025,-0.127347733464,-1.83787245054,0.0443642158436,2.05530614243,0.0736757757495,-0.371208781588,-1.11805554262,-0.0122180681032,-1.55289935739,-0.142835107051,0.443110764071,-0.381017324418,0.573610113156,0.819110193102,0.00326749788029,0.0,0.819081560409,-0.573543980612,-0.011551909079,0.0,-0.00758837883531,0.00930281824448,-0.999927934443,0.0,0.591269444412,0.168849645684,0.30423510617,1.0,-0.285529714286,-0.37526762449,1.403
0.386500034342,0.204943744027,-0.127565245922,-1.86474373744,0.0417884126649,2.06275851289,0.0671029279396,-0.408664781159,-1.15641796958,-0.0167080098767,-1.59324265903,-0.15006148013,0.429923141421,-0.394528281999,0.573552495983,0.819150620271,0.00324693132861,0.0,0.81912177646,-0.573486502944,-0.0115539245013,0.0,-0.00760247950017,0.00928659318977,-0.999927978153,0.0,0.586340444098,0.162423362394,0.304260761121,1.0,-0.296759428571,-0.390026677551,1.42
0.379719826775,0.186087516423,-0.127818762731,-1.89038975856,0.0393211608927,2.06966280345,0.060514584198,-0.429469198049,-1.18856892797,-0.0213152736454,-1.6100819028,-0.15133263449,0.419487423742,-0.412628899786,0.573524784765,0.819169849463,0.00329027232917,0.0,0.819141273793,-0.573458300326,-0.0115714414434,0.0,-0.00759228814284,0.00933188599781,-0.999927633914,0.0,0.581533703499,0.156119121257,0.304315184351,1.0,-0.307328571429,-0.40391755102,1.436
0.371932320749,0.165680587921,-0.128189662885,-1.91797454873,0.0365909803694,2.07692748587,0.0531727584758,-0.463931896958,-1.20462341365,-0.018657189376,-1.61798379979,-0.161987487433,0.415130679364,-0.44324471173,0.573671307376,0.819067230448,0.00329393409782,0.0,0.819038539055,-0.57360459107,-0.0115927368226,0.0,-0.00760596155976,0.00934845944714,-0.99992737519,0.0,0.57627618458,0.149084472444,0.304322308684,1.0,-0.318558285714,-0.418676604082,1.453
0.36374269948,0.144766978379,-0.128439711736,-1.94583678388,0.0336553903624,2.08401740072,0.0454008289363,-0.502491057975,-1.22225393534,-0.0128800425893,-1.62945744093,-0.18375032504,0.40405304431,-0.462485700196,0.573545953828,0.81915498039,0.00330209807005,0.0,0.819126724729,-0.57347963508,-0.0115439977623,0.0,-0.00756278287142,0.00932602953941,-0.999927912146,0.0,0.570796001412,0.141952725001,0.304361366746,1.0,-0.329788,-0.433435657143,1.47
0.355488304575,0.124665292956,-0.128750454788,-1.97231639111,0.0308816881099,2.09051169471,0.0376325423904,-0.534234182644,-1.25647216616,-0.0252912817507,-1.67206066788,-0.190206067791,0.394005940777,-0.494120351664,0.57349505922,0.819190425402,0.00334826539291,0.0,0.819162452952,-0.57342821473,-0.011563093261,0.0,-0.00755253085035,0.00937433063179,-0.999927537976,0.0,0.565468011734,0.134979611101,0.304391193821,1.0,-0.340357142857,-0.447326530612,1.486
0.345452147983,0.101564508774,-0.129218671715,-2.00222604931,0.0275611537028,2.09755496117,0.0284305726073,-0.574138068488,-1.28742908132,-0.0220935612166,-1.64494442446,-0.18848883474,0.378819605668,-0.525068038418,0.573605312132,0.819112897818,0.00342832669634,0.0,0.81908645855,-0.573538833338,-0.0114597981902,0.0,-0.00742073288236,0.00938167771667,-0.999928455864,0.0,0.559332959089,0.126756418692,0.304482889336,1.0,-0.352247428571,-0.462953763265,1.504
0.337253532069,0.083229525878,-0.129492555958,-2.02585283096,0.0249833631404,2.10285870915,0.020866401275,-0.605431667735,-1.31853634665,-0.022973046064,-1.70447759732,-0.190471648823,0.367291170333,-0.551048593503,0.573549712639,0.819151812765,0.00343244463439,0.0,0.819124606806,-0.573482194768,-0.0115670959968,0.0,-0.00750690630306,0.00944608631299,-0.999927206256,0.0,0.554316069344,0.120284707272,0.304469226493,1.0,-0.35998,-0.473116571429,1.518
0.326711277571,0.0610973276888,-0.129908004223,-2.05408098167,0.0216825268641,2.10895709001,0.0112876141405,-0.642497617297,-1.27709026155,-0.0317458610584,-1.6317718175,-0.202036201387,0.337558887005,-0.564780860448,0.573556385756,0.819147485485,0.00334907205182,0.0,0.819119159568,-0.57348907914,-0.0116114356343,0.0,-0.00759096820538,0.00940328318259,-0.999926975067,0.0,0.548220024905,0.11220954576,0.304426725171,1.0,-0.35998,-0.473116571429,1.535
0.315613739836,0.0390038604806,-0.13033115299,-2.08168936687,0.0184113428905,2.11444311993,0.00153687846923,-0.656319301252,-1.28340796415,-0.0134638436135,-1.54604267395,-0.180551277418,0.302229109727,-0.567873263057,0.573808307089,0.818971252442,0.00329564719438,0.0,0.818941555114,-0.573740306316,-0.0117276219697,0.0,-0.0077138881381,0.0094285308755,-0.999925796615,0.0,0.542081307724,0.104031603833,0.304446001174,1.0,-0.35998,-0.473116571429,1.552
0.304187271366,0.0171510354037,-0.130669525919,-2.10848729291,0.015109521264,2.11965729132,-0.00857426190296,-0.684539787167,-1.27377786508,-0.016957918684,-1.51861075192,-0.192331064374,0.287239850457,-0.601075173983,0.573869747958,0.81892755516,0.00345234409583,0.0,0.81890015378,-0.573801552943,-0.0116216556343,0.0,-0.00753647873256,0.00949662454011,-0.999926505105,0.0,0.535999032683,0.0959451676173,0.304533184861,1.0,-0.35998,-0.473116571429,1.569
0.292311260525,-0.00442426923469,-0.131079811093,-2.1345872241,0.011837278397,2.12434650101,-0.0190060198097,-0.700768342079,-1.24293990221,-0.0143176018075,-1.48436627592,-0.189298406636,0.265037538547,-0.619644914829,0.574030547583,0.818814389608,0.00355987542795,0.0,0.818788176868,-0.573961731705,-0.0116016749343,0.0,-0.00745652967578,0.00957468406928,-0.999926360084,0.0,0.529912013281,0.0877955478153,0.304598925464,1.0,-0.35998,-0.473116571429,1.586
0.280946368151,-0.0245208317182,-0.131316219099,-2.15859522292,0.0086980218829,2.1283791656,-0.0291155079366,-0.721105103747,-1.24298559855,-0.0162072448536,-1.45720726293,-0.189294692803,0.226481529162,-0.626141671505,0.573881625322,0.818918556403,0.0036090161582,0.0,0.818893052868,-0.573812772501,-0.0115679289942,0.0,-0.00740243466454,0.00959420487059,-0.999926574901,0.0,0.524139013291,0.0802914211376,0.304639767412,1.0,-0.35998,-0.473116571429,1.602
0.266812232646,-0.0480726796575,-0.131725735182,-2.18630778326,0.00504967210602,2.13265327705,-0.0414104849268,-0.747292908595,-1.23761629806,-0.0177662276857,-1.4055492059,-0.18003454619,0.203753036651,-0.649956385937,0.574051093418,0.818799368617,0.00369905374268,0.0,0.8187746079,-0.573981388842,-0.0115867865214,0.0,-0.00736420726722,0.00968028512506,-0.99992602753,0.0,0.517312865925,0.0712383228614,0.304681107053,1.0,-0.35998,-0.473116571429,1.621
0.2546924043,-0.0676941351116,-0.131928590239,-2.20914768711,0.00192336980394,2.13586292239,-0.0521524676235,-0.761614344853,-1.19651340619,-0.0103980902168,-1.41077464815,-0.196139165525,0.182490905002,-0.678151638344,0.573851069292,0.818939685563,0.00367268061187,0.0,0.818914296327,-0.57378109942,-0.0116349525593,0.0,-0.0074211525513,0.00968452708335,-0.999925565445,0.0,0.511500968367,0.0637734011609,0.304665723006,1.0,-0.35998,-0.473116571429,1.637
0.24044996325,-0.0894886187064,-0.132345819241,-2.23403103284,-0.00153692702543,2.13904415539,-0.064630366965,-0.797999156817,-1.19775057536,-0.0157263950024,-1.3694151635,-0.18405175998,0.16765802532,-0.701917607547,0.573917934137,0.818892454759,0.00375490544922,0.0,0.818867833872,-0.573847305698,-0.0116399009816,0.0,-0.0073772267473,0.00975530703643,-0.999925202458,0.0,0.505031207088,0.0552119940184,0.304693337437,1.0,-0.35998,-0.473116571429,1.655
0.226740110581,-0.109769933298,-0.132578062981,-2.25682995183,-0.00485978814671,2.1415917705,-0.076725334426,-0.815352579369,-1.17067825622,-0.0139588500612,-1.34143161508,-0.199306122674,0.149153196997,-0.712092511719,0.573725168494,0.81902757096,0.00374378758487,0.0,0.819002925124,-0.57365476,-0.0116263437313,0.0,-0.00737479648461,0.00973668646066,-0.999925401874,0.0,0.498910935052,0.0472941588902,0.304711067025,1.0,-0.35998,-0.473116571429,1.672
0.213272797836,-0.128632365367,-0.133002818351,-2.2777413224,-0.00790382005292,2.14360011266,-0.0884888915213,-0.839957462631,-1.16256275303,-0.0167530973156,-1.30081176718,-0.182435719083,0.106072222571,-0.739565918629,0.57385176128,0.818938829353,0.0037545645137,0.0,0.81891365017,-0.573780412586,-0.0117140343236,0.0,-0.0074389252026,0.00979697198109,-0.999924338004,0.0,0.493152119527,0.0396684921126,0.304710218543,1.0,-0.35998,-0.473116571429,1.688
0.198608405478,-0.148434658953,-0.13333451635,-2.29940932184,-0.0111977990013,2.14547484843,-0.101438638127,-0.881198012985,-1.15967686765,-0.0191635873714,-1.25910301249,-0.191619800426,0.104394746576,-0.760548647707,0.573737196225,0.819019121295,0.00374906961387,0.0,0.818993923447,-0.573665951325,-0.0117079694156,0.0,-0.00743848045011,0.00978795122674,-0.999924429654,0.0,0.487030591279,0.0316568684405,0.3046970895,1.0,-0.35998,-0.473116571429,1.705
0.183438908195,-0.168002133382,-0.133801090556,-2.32047082789,-0.0143649134074,2.1468425745,-0.114725696701,-0.897251773044,-1.16902847044,-0.0192638429245,-1.21713156476,-0.175788426699,0.0930373601586,-0.793812139708,0.573881001205,0.818918360786,0.00374989663431,0.0,0.818891947768,-0.57380812566,-0.011872645371,0.0,-0.00757115189441,0.0098844360773,-0.999922484787,0.0,0.480880952048,0.0235710415348,0.304675974076,1.0,-0.35998,-0.473116571429,1.722
0.168778771489,-0.186133845353,-0.134215898994,-2.33982126578,-0.0174064456905,2.1477725538,-0.127685352927,-0.935783752968,-1.13691373012,-0.0351037298195,-1.2028654283,-0.189154877128,0.044184335642,-0.822047244412,0.573872084672,0.818925292037,0.00359769337426,0.0,0.818895563994,-0.573798063026,-0.012107230911,0.0,-0.00785071927073,0.00989432748377,-0.999920231064,0.0,0.475051499438,0.0159837400914,0.304592595301,1.0,-0.35998,-0.473116571429,1.738
0.152734117205,-0.205219452469,-0.134656041328,-2.35957962568,-0.0205574721844,2.1486090797,-0.141881561075,-0.946805651471,-1.12071616146,-0.0191509455524,-1.15888291106,-0.17636813464,0.0365482512872,-0.845653753826,0.573900655273,0.818904480335,0.00377317703027,0.0,0.818877254715,-0.573826238686,-0.0120098462725,0.0,-0.00766991660714,0.00998241968612,-0.999920758699,0.0,0.468970767432,0.00792868858447,0.304654244978,1.0,-0.35998,-0.473116571429,1.755
0.135247148481,-0.225175701956,-0.135194289129,-2.3798049227,-0.0238847059654,2.1490406399,-0.157343212435,-0.975960055707,-1.09411972179,-0.0299203053438,-1.11238782466,-0.185231608605,0.0170741580035,-0.86465346926,0.574012600597,0.818825161462,0.00395426533934,0.0,0.81880056443,-0.573937871464,-0.0119038771192,0.0,-0.00747783544359,0.0100709240506,-0.999921326138,0.0,0.462523125882,-0.000625547622901,0.304750212189,1.0,-0.35998,-0.473116571429,1.773
0.119361222766,-0.242591060715,-0.135555414724,-2.39716725339,-0.0267906613045,2.14916034717,-0.171548868149,-1.01401596725,-1.08022029433,-0.0279336422638,-1.05611286861,-0.176420452544,0.010151361567,-0.901206518391,0.573917435724,0.818891040294,0.00412165010586,0.0,0.818869176049,-0.573842915151,-0.0117612987942,0.0,-0.00726618238933,0.0101253016143,-0.999922337415,0.0,0.456811872684,-0.00812406668388,0.304838533838,1.0,-0.35998,-0.473116571429,1.789
0.101951388658,-0.260774883036,-0.136035340831,-2.41511258655,-0.0298535630178,2.14910473231,-0.187164418203,-1.02393934148,-1.06475500927,-0.0197630125336,-1.043804136,-0.183400943776,-0.00387689883363,-0.926052297858,0.573885403774,0.818912537986,0.00430643305412,0.0,0.818893672436,-0.573811161066,-0.0116039468094,0.0,-0.00703167356302,0.0101860425918,-0.999923397118,0.0,0.450732400637,-0.0161611768672,0.304892125755,1.0,-0.35998,-0.473116571429,1.806
0.0840478578757,-0.278677942223,-0.136543510023,-2.43224675067,-0.0328889000294,2.14876893235,-0.203205616474,-1.06597195365,-1.01284489232,-0.025249651902,-1.00356880522,-0.181443978558,-0.0425144345912,-0.952656651217,0.573926788923,0.818881804844,0.00462358663787,0.0,0.818868767983,-0.573854286992,-0.0112225230716,0.0,-0.00653678078762,0.0102272142295,-0.99992633458,0.0,0.444722800254,-0.0242197160178,0.30505728637,1.0,-0.35998,-0.473116571429,1.823
0.0668423448775,-0.295147592002,-0.13694498862,-2.44779983224,-0.0356484465858,2.14814699038,-0.218802576463,-1.09310339186,-1.01309368735,-0.0311672425058,-0.942584119634,-0.17258311777,-0.0315910342509,-0.994525110764,0.573815474387,0.818958392641,0.00486820060289,0.0,0.818949601152,-0.573744238848,-0.0109474226551,0.0,-0.00617250045152,0.0102688091726,-0.999928223322,0.0,0.439059074622,-0.0317254375688,0.305186881514,1.0,-0.35998,-0.473116571429,1.839
0.0468829230937,-0.313465972977,-0.137490870364,-2.46455297402,-0.0386807373796,2.14725258744,-0.236818085694,-1.12132576453,-1.01020125625,-0.0352656604835,-0.921173738398,-0.158803320993,-0.0651238999012,-1.01480552457,0.573893886893,0.818900375004,0.00535997266696,0.0,0.818900035668,-0.573825812303,-0.0103641506132,0.0,-0.00541162034465,0.0103374035149,-0.99993192391,0.0,0.432731388408,-0.040248656728,0.305456283983,1.0,-0.35998,-0.473116571429,1.857
0.0298368162499,-0.328472758599,-0.137969707906,-2.47788367293,-0.041143891127,2.14628352933,-0.252312898571,-1.14616046499,-1.00210415172,-0.0275707256163,-0.873600590945,-0.155837101815,-0.0567809586613,-1.03692322392,0.573943737455,0.818862061214,0.00585301988582,0.0,0.818869947268,-0.573879619803,-0.00974363063114,0.0,-0.00461984958197,0.0103853578164,-0.99993539858,0.0,0.42748568291,-0.0473618028605,0.305754042512,1.0,-0.35998,-0.473116571429,1.872
0.0112838268188,-0.344013937036,-0.138394499156,-2.49171555406,-0.0438448259125,2.14497102157,-0.269305663719,-1.17608477735,-0.972617933198,-0.0400728130285,-0.837865039579,-0.168196872585,-0.0907043141692,-1.06129912583,0.573810087525,0.818954205724,0.00606129375167,0.0,0.818966205919,-0.57374971249,-0.00929343212923,0.0,-0.00413330935952,0.0102968580967,-0.999938443339,0.0,0.421816942167,-0.0549014236162,0.305949076305,1.0,-0.35998,-0.473116571429,1.888
-0.00891790261833,-0.360020086924,-0.138860041635,-2.50574473275,-0.046589127219,2.14334067984,-0.287860065531,-1.19938801581,-0.930409307963,-0.025493056982,-0.837565585659,-0.149683684674,-0.0965261115272,-1.08801638085,0.573726241358,0.819011370609,0.00627070107139,0.0,0.81902710561,-0.573669227163,-0.00888622439865,0.0,-0.00368068145141,0.0102343313153,-0.999940853774,0.0,0.415797269906,-0.0629196756288,0.306142940578,1.0,-0.35998,-0.473116571429,1.905
-0.0296268423234,-0.375455679747,-0.139397407707,-2.51939698295,-0.0493273793617,2.14152659368,-0.307000880588,-1.22160563596,-0.907787183768,-0.0287733465262,-0.786333381916,-0.16309435555,-0.109107245716,-1.13994199972,0.573627399121,0.819080657941,0.00626335897817,0.0,0.819096686679,-0.573571461663,-0.00878311664135,0.0,-0.00360166633658,0.0101687287212,-0.999941810785,0.0,0.409672943866,-0.0709619236827,0.306174010547,1.0,-0.35998,-0.473116571429,1.922
-0.0520564684895,-0.391122354248,-0.140031709228,-2.53303464956,-0.0521573089835,2.13949360122,-0.327734497028,-1.24552996103,-0.859687579062,-0.0400389513531,-0.755746233171,-0.156123027871,-0.112098499916,-1.18528242125,0.573641193523,0.819071000683,0.0062628934946,0.0,0.819087527217,-0.573586691501,-0.00864158502438,0.0,-0.00348582644757,0.0100872213033,-0.999943046868,0.0,0.403227721459,-0.0795002256825,0.306208817879,1.0,-0.35998,-0.473116571429,1.94
-0.0725771436001,-0.404418859109,-0.140617444836,-2.54478670261,-0.0544165935802,2.13741972475,-0.346724537007,-1.29867559333,-0.818294155645,-0.0544255215651,-0.725090968709,-0.144356748083,-0.135057531448,-1.16159206113,0.573799813632,0.818960527538,0.00617860116728,0.0,0.818974698794,-0.573741451061,-0.00905190426552,0.0,-0.00386830717016,0.0102542964375,-0.999939940999,0.0,0.397368730541,-0.0870967359381,0.306065693987,1.0,-0.35998,-0.473116571429,1.956
-0.0960473456555,-0.418938495882,-0.141235242673,-2.55702833022,-0.0570019625098,2.1350999339,-0.368658212401,-1.33034754007,-0.801409035815,-0.0490204968333,-0.65146813166,-0.143998921124,-0.129440639564,-1.20772053677,0.573796523817,0.81896250101,0.00622238672363,0.0,0.818977489986,-0.573738985683,-0.00895511610987,0.0,-0.00376395090655,0.0102346062027,-0.999940540987,0.0,0.390907013238,-0.0956257139628,0.306109469189,1.0,-0.35998,-0.473116571429,1.974
-0.118726464531,-0.431749137229,-0.141770698821,-2.56805824825,-0.0593301939091,2.13277140755,-0.389941425548,-1.35151688275,-0.770356923485,-0.0369016124869,-0.637659391743,-0.134460290766,-0.143294802179,-1.2587809916,0.573771873454,0.818981084865,0.00604704623651,0.0,0.81899285529,-0.573711357624,-0.00931278794947,0.0,-0.0041578181229,0.010296101684,-0.999938349519,0.0,0.38472950288,-0.103653970506,0.305964869472,1.0,-0.35998,-0.473116571429,1.991
-0.1389886663,-0.442602166645,-0.142268672535,-2.57717283733,-0.0612719346929,2.1307377537,-0.409099561085,-1.35721150006,-0.716089163858,-0.0194828637464,-0.579576374631,-0.133913035921,-0.129113559306,-1.29276080686,0.573730280147,0.819010428417,0.00601919334995,0.0,0.819021223721,-0.573668211378,-0.00947445248068,0.0,-0.00430673842027,0.0103658269536,-0.999936998833,0.0,0.379321964623,-0.110701972964,0.30590011655,1.0,-0.35998,-0.473116571429,2.006
-0.163891491601,-0.454946754573,-0.142854693983,-2.58725857338,-0.0635743863898,2.12835176736,-0.432668852526,-1.38592136726,-0.68253999877,-0.0376058722901,-0.566842364893,-0.121023203642,-0.141903871377,-1.32960312208,0.573718838516,0.819018500719,0.00601138191543,0.0,0.819029414454,-0.573657285933,-0.00942780228848,0.0,-0.00427315373253,0.0103326053236,-0.999937486758,0.0,0.372878629657,-0.119239967385,0.305902642898,1.0,-0.35998,-0.473116571429,2.024
-0.187737325162,-0.46587243352,-0.143281620938,-2.59626023896,-0.0655852901819,2.12598535772,-0.455404655029,-1.40346309553,-0.615223484924,-0.0250454702998,-0.515669730842,-0.0978346594406,-0.136343935729,-1.33792359508,0.573580348228,0.819116289955,0.00590208079935,0.0,0.819124945696,-0.573516655914,-0.00968068329381,0.0,-0.00454475124143,0.0103873912985,-0.999935721603,0.0,0.366734556578,-0.127186262768,0.305811554897,1.0,-0.352985714286,-0.463924081633,2.041
-0.211685532962,-0.475868217499,-0.143510474046,-2.60420221474,-0.0673307354862,2.1238282604,-0.478068490292,-1.40063765924,-0.570643412003,-0.00623966859369,-0.451577798151,-0.10025075755,-0.12591393146,-1.32309508716,0.573602106808,0.819100923185,0.00592010169883,0.0,0.819110072682,-0.573539035023,-0.00961306594915,0.0,-0.00447874800778,0.0103634893434,-0.999936267422,0.0,0.360806422956,-0.135006283276,0.305834194544,1.0,-0.341756,-0.449165028572,2.058
-0.233970519169,-0.484424108303,-0.143699329592,-2.61080754291,-0.0687095704257,2.12193115109,-0.499221663799,-1.37892830671,-0.509387086138,0.00116713860219,-0.399969437553,-0.0911901781522,-0.123697830546,-1.33237849708,0.573695812336,0.819034183807,0.00607186665079,0.0,0.819045693461,-0.573633931424,-0.0094345981749,0.0,-0.0042443113939,0.0103859256569,-0.999937057204,0.0,0.355410515333,-0.142175692243,0.305912724686,1.0,-0.331186857143,-0.435274155102,2.074
-0.257463741171,-0.492545837287,-0.143751431039,-2.617186552,-0.0699876459635,2.11995550485,-0.521439895466,-1.3764492539,-0.448636484305,-0.00199838847813,-0.348801787398,-0.0763895074184,-0.109511456582,-1.30568927871,0.573843136388,0.818930628769,0.00611775983152,0.0,0.818942288158,-0.573780230002,-0.00951436946259,0.0,-0.00428144135413,0.0104700494289,-0.999936021616,0.0,0.349443072273,-0.149981488089,0.30590711373,1.0,-0.319296571429,-0.419646922449,2.092
-0.280456328352,-0.499706591707,-0.143665566515,-2.62264399741,-0.0710351641599,2.11831301822,-0.543271943477,-1.34169969873,-0.392908867366,-0.00118440730797,-0.299856264529,-0.057015010584,-0.0881603787526,-1.27181984326,0.573979888655,0.818833714235,0.00625961288039,0.0,0.818847776788,-0.573918685743,-0.0092955637326,0.0,-0.00401908955943,0.0104613381401,-0.99993720169,0.0,0.344401106915,-0.156703542592,0.305970395038,1.0,-0.308727428572,-0.40575604898,2.108
-0.302815940599,-0.505879668641,-0.143444359151,-2.6273858144,-0.0718569873259,2.11669653487,-0.564624638052,-1.31276864764,-0.345983302862,0.0115435929948,-0.26377911114,-0.0440079706072,-0.0896809999602,-1.2538537471,0.574013808169,0.818809344444,0.00633659088967,0.0,0.818824124008,-0.573952051586,-0.00931897650659,0.0,-0.00399364259305,0.0105379775659,-0.999936498908,0.0,0.33922565488,-0.16350900889,0.3059838253,1.0,-0.297497714286,-0.390996995918,2.125
-0.324710065278,-0.511189347973,-0.143151139114,-2.63137115215,-0.0725482972118,2.11542138256,-0.585528981323,-1.27651273507,-0.292673360475,0.0302568624013,-0.226101068278,-0.0421890618473,-0.078171763129,-1.24409084617,0.574081463743,0.818761203098,0.00642745586745,0.0,0.818777770775,-0.574021598902,-0.00910565643759,0.0,-0.0037659322318,0.0104902485327,-0.999937884291,0.0,0.334284037421,-0.170127925288,0.306041414203,1.0,-0.286268,-0.376237942857,2.142
-0.345925292158,-0.515716348576,-0.142762131609,-2.63490858636,-0.0731405776816,2.11412181732,-0.605944409414,-1.22785676758,-0.249163745351,0.0323187695185,-0.20038456702,-0.0263000159997,-0.07388375584,-1.1937787119,0.573995305161,0.818821877224,0.0063929596727,0.0,0.81883758334,-0.573934218451,-0.00923427861452,0.0,-0.00389216597287,0.0105354310598,-0.999936925879,0.0,0.329462164428,-0.176421928795,0.306005733467,1.0,-0.275038285714,-0.361478889796,2.159
-0.365322493522,-0.519255207548,-0.142317804917,-2.63782601623,-0.0736043400613,2.11304019825,-0.624609786389,-1.20239965687,-0.210133611561,0.0339101190443,-0.168682336137,-0.0261684529477,-0.0624225733643,-1.17051580004,0.573907550872,0.818884135542,0.00629622989599,0.0,0.818897663436,-0.57384384429,-0.0095187231747,0.0,-0.00418175914215,0.0106190395043,-0.999934872324,0.0,0.325066379406,-0.182097159939,0.305902431354,1.0,-0.264469142857,-0.347588016327,2.175
-0.38295613067,-0.522050018799,-0.141886521181,-2.64009579791,-0.0738836843654,2.11225033788,-0.641545305566,-1.17134338824,-0.170406117994,0.0190045793024,-0.13442210162,-0.0163435597594,-0.0459884873834,-1.10987076984,0.573941601726,0.818860249929,0.00629887259846,0.0,0.81887329864,-0.573876599897,-0.00963928242739,0.0,-0.00427853200264,0.0106905696049,-0.999933700745,0.0,0.320874854207,-0.187577827119,0.305842435106,1.0,-0.2539,-0.333697142857,2.191
-0.402246365495,-0.524720993631,-0.141283849149,-2.64216826165,-0.0741159207217,2.11142365199,-0.66020789157,-1.11332399058,-0.157160212464,0.0343465907473,-0.11461758543,-0.0188492603055,-0.0396500787027,-1.08250470083,0.573782672179,0.818971952284,0.00625566794261,0.0,0.818984273769,-0.573717228447,-0.0096978349813,0.0,-0.00435335418901,0.010687949113,-0.999933405808,0.0,0.316878979734,-0.19279440899,0.305824291697,1.0,-0.243330857143,-0.319806269388,2.207
-0.423073398432,-0.527037986476,-0.140703267997,-2.64396044211,-0.0742854917746,2.11069910017,-0.68023417453,-1.0688909696,-0.106893979253,0.0320084469647,-0.0834664665825,-0.000754955388703,-0.0324467027738,-1.04413534692,0.573839147432,0.818932331187,0.00626232473696,0.0,0.818944623756,-0.573773418791,-0.00972183163888,0.0,-0.00436845087975,0.0107074709067,-0.999933131116,0.0,0.312079242332,-0.199114067847,0.305814105464,1.0,-0.230119428572,-0.302442677551,2.227
-0.440935769463,-0.52863840479,-0.140194638383,-2.64512932004,-0.0743383487324,2.11021468127,-0.697404813536,-1.03122494014,-0.0793532390822,0.0404352575395,-0.0627681312129,-0.00459114894301,-0.0271684497035,-1.00138858232,0.573962154321,0.818845843849,0.00629891418739,0.0,0.818858883332,-0.573897124398,-0.00964192391898,0.0,-0.00428040299981,0.0106922271205,-0.999933675015,0.0,0.30842676968,-0.203952468679,0.305836709472,1.0,-0.219550285714,-0.288551804082,2.243
-0.456888630311,-0.529752591783,-0.139577688635,-2.64595532672,-0.0743596530539,2.10986075724,-0.712832012941,-0.987939756414,-0.0628109419529,0.0409672497746,-0.0452915544094,-0.00248448378797,-0.013603989355,-0.953102027257,0.573898442817,0.818890954816,0.00623925909936,0.0,0.81890366189,-0.573834434253,-0.0095698228645,0.0,-0.00425642161679,0.0106016626788,-0.999934741682,0.0,0.304981412944,-0.208492774644,0.305854107715,1.0,-0.208981142857,-0.274660930612,2.259
-0.474160511627,-0.53059450446,-0.138919229912,-2.64657241376,-0.0743009667186,2.10955078814,-0.729444737867,-0.935297612346,-0.0322594361553,0.0409763342048,-0.0244998767586,0.0154157152828,-0.014758503461,-0.908526395759,0.573961589576,0.818846956417,0.00620504306654,0.0,0.818859546819,-0.573898325557,-0.00951322279761,0.0,-0.0042288911269,0.0105414861886,-0.999935494694,0.0,0.301257878103,-0.21340058331,0.305871705814,1.0,-0.197090857143,-0.259033697959,2.277
-0.486906358207,-0.530953898404,-0.13837855295,-2.6468320569,-0.07426460221,2.10937646137,-0.741724976456,-0.904968907808,-0.0272445390023,0.0222810728533,-0.00758731570692,0.00833817466214,-0.00557631072274,-0.870068306546,0.573961512584,0.818847675403,0.0061166544031,0.0,0.818859477602,-0.573898968808,-0.00948031876948,0.0,-0.00425267720919,0.010450219729,-0.999936351797,0.0,0.298523516203,-0.217013505416,0.30588410959,1.0,-0.187842857143,-0.246879183674,2.291
-0.502316898226,-0.531159076391,-0.137564763794,-2.64701916763,-0.0741446013506,2.10920079896,-0.756795096018,-0.830501169571,-0.00330758185361,0.0463470002731,-0.00842711568493,0.00447328040763,-0.00765945059429,-0.809418516904,0.573706630307,0.819027349769,0.00597072628706,0.0,0.819037514148,-0.573644467105,-0.0095038244537,0.0,-0.00435890197819,0.0103428550502,-0.999937010678,0.0,0.295228394385,-0.221317230879,0.305880267814,1.0,-0.175952571429,-0.231251951021,2.309
-0.517050757964,-0.531146942097,-0.136865255424,-2.64706641636,-0.0739483767757,2.10910953771,-0.770932066296,-0.79882019988,0.00945596461714,0.03623434803,-0.000890299857873,0.011184277205,-0.00440190306608,-0.766801306676,0.573783145288,0.818974131135,0.00591790636486,0.0,0.818983603007,-0.573720855476,-0.00953860046743,0.0,-0.00441672576345,0.0103199551459,-0.999936993545,0.0,0.292053551007,-0.225431348199,0.3058649554,1.0,-0.164062285714,-0.215624718367,2.327
-0.529158138515,-0.530925633785,-0.136127860888,-2.64698356947,-0.0736369339474,2.10910368319,-0.782702652914,-0.742060473649,0.0140846397907,0.0432451756892,0.00156608197372,0.0179727531835,-0.000194392094792,-0.713956991061,0.573676593513,0.819048884607,0.00590233679305,0.0,0.819057989638,-0.573613911308,-0.00958317614837,0.0,-0.00446351317806,0.0103321988826,-0.999936659352,0.0,0.289482135414,-0.228756229118,0.305840798785,1.0,-0.153493142857,-0.201733844898,2.343
-0.540728837575,-0.53061560452,-0.135518532837,-2.64679694774,-0.0733153104838,2.10910918648,-0.79372927962,-0.713891641066,0.021681181736,0.0383031700977,0.0187979524058,0.0182750666457,1.04237315999e-05,-0.66421629717,0.573840095586,0.818934039881,0.00594389802379,0.0,0.818943458405,-0.573776928992,-0.00961221065529,0.0,-0.0044613808452,0.0103837882053,-0.999936134472,0.0,0.286999406398,-0.231951186279,0.305829023194,1.0,-0.142924,-0.187842971429,2.359
-0.552641705919,-0.530087540606,-0.134659465723,-2.64650280791,-0.0728908878064,2.10916437952,-0.805285405288,-0.641905495223,0.0307322704412,0.0518470805483,0.0168718595397,0.0258505266601,0.00306814242125,-0.608373044154,0.573724155735,0.819015340983,0.00593390775709,0.0,0.81902429454,-0.573660218468,-0.00969049023657,0.0,-0.00453270061363,0.0104198835593,-0.999935438242,0.0,0.284488206478,-0.235175350823,0.305797165213,1.0,-0.131033714286,-0.172215738776,2.377
-0.56313402907,-0.529485446089,-0.133934457057,-2.64611864951,-0.0725045434701,2.10926722847,-0.815316172033,-0.605146327209,0.0387306153741,0.0394403485496,0.0212670590604,0.0240524475151,0.00720260605583,-0.571857350956,0.573777139878,0.818978204838,0.00593638393831,0.0,0.818987052848,-0.573712880871,-0.00972031336155,0.0,-0.00455503255459,0.0104393161747,-0.999935134074,0.0,0.282278104558,-0.238033145864,0.305779615706,1.0,-0.119804,-0.157456685714,2.394
-0.572254922531,-0.528877557693,-0.133254988142,-2.6456653148,-0.0721182076192,2.1093789711,-0.824009087836,-0.543393876134,0.0444648987045,0.0471576978212,0.0290493282921,0.0218455975049,0.0059362350972,-0.532367074546,0.573837991571,0.818935507781,0.00594478152279,0.0,0.818944594375,-0.573774031173,-0.00968810597219,0.0,-0.00452305980791,0.0104280507383,-0.999935396757,0.0,0.280378636556,-0.240514008821,0.30579082026,1.0,-0.109234857143,-0.143565812245,2.41
-0.580918098602,-0.528163975627,-0.132442222599,-2.64514401567,-0.0716899522506,2.10952004817,-0.832400478144,-0.504272820284,0.0420766758161,0.0437207519218,0.029317788744,0.0278626975015,0.00552249846057,-0.473815813751,0.573698254247,0.819033663935,0.00590908768715,0.0,0.819042479209,-0.57363470913,-0.00966357252096,0.0,-0.00452522053642,0.0103839684378,-0.999935845731,0.0,0.278618105447,-0.242835834992,0.305799966412,1.0,-0.0980051428572,-0.128806759184,2.427
-0.589388880038,-0.527419266438,-0.131657650989,-2.64462648699,-0.0712357319803,2.10962675841,-0.840311845132,-0.450793564003,0.0427739401563,0.0400959869306,0.0301175251847,0.0319505855169,0.0140560915852,-0.419388334715,0.573824566552,0.818945184265,0.00590752844523,0.0,0.818953774774,-0.573760530207,-0.0097116251152,0.0,-0.00456386983517,0.0104109622353,-0.999935389391,0.0,0.276874811448,-0.2450892227,0.305792045869,1.0,-0.086114857143,-0.113179526531,2.445
-0.596458428687,-0.526713594293,-0.130924859035,-2.64411402862,-0.070793856152,2.10977472953,-0.847009477138,-0.390476381188,0.0437186902662,0.0436319918718,0.0274347944468,0.033457793523,0.00845614335401,-0.372920340648,0.573827826785,0.818942880793,0.0059101697202,0.0,0.81895158202,-0.573763967988,-0.00969341257698,0.0,-0.00454739634183,0.0104026929996,-0.999935550506,0.0,0.27545455495,-0.246962151245,0.305798063309,1.0,-0.0748851428572,-0.0984204734695,2.462
-0.602480653305,-0.526027514911,-0.130087425113,-2.64367031988,-0.0703234597133,2.10989924024,-0.852763461814,-0.343693893331,0.0342805463175,0.0513955890889,0.0247218202778,0.0276581782932,0.0135918671197,-0.319572488927,0.573680539621,0.819046244725,0.00588509673057,0.0,0.819054408288,-0.573616191438,-0.00975131200257,0.0,-0.00461107748155,0.0104145528644,-0.999935135423,0.0,0.274286563918,-0.248493284587,0.305780292018,1.0,-0.0636554285715,-0.0836614204083,2.479
-0.607303674696,-0.52554908587,-0.129410003209,-2.6433208976,-0.0699399433976,2.10997701384,-0.857191181676,-0.311426534093,0.0271150747615,0.0401265627062,0.018539316086,0.024373118656,0.00530913442571,-0.274950680463,0.573707626981,0.819027384326,0.00586935852349,0.0,0.819035366306,-0.573643306918,-0.009755617312,0.0,-0.00462328850925,0.0104042845808,-0.999935185932,0.0,0.273343713823,-0.249709975874,0.305787496828,1.0,-0.053746857143,-0.0706387265308,2.494
-0.611913979201,-0.525033672497,-0.128631784799,-2.6429289411,-0.0694592750244,2.11011183765,-0.861347034801,-0.247578344559,0.0260141022216,0.049515527105,0.0217030283152,0.0280140438953,0.0106256050772,-0.230951833333,0.573755130806,0.818994068961,0.0058746728077,0.0,0.819002393662,-0.573691428263,-0.00969387511521,0.0,-0.00456906475964,0.0103734813979,-0.999935755202,0.0,0.272496925599,-0.250849945553,0.305807746693,1.0,-0.0425171428573,-0.0558796734695,2.511
-0.615868731893,-0.524569027527,-0.127840123883,-2.64260709337,-0.0689603108809,2.11021745709,-0.864857606855,-0.196843875178,0.0198114202284,0.0410857622033,0.00674886099641,0.0245781920783,0.000351850298356,-0.167850649126,0.573788615922,0.818970478279,0.00589294896294,0.0,0.818979045499,-0.573724944763,-0.00968285549899,0.0,-0.00454912856568,0.0103823138635,-0.99993575443,0.0,0.271794883427,-0.251783376679,0.305812345972,1.0,-0.030626857143,-0.0402524408165,2.529
-0.618764606923,-0.524295024237,-0.127089336409,-2.64242671275,-0.0685203215747,2.11022676894,-0.867278829898,-0.149143076344,0.0117065107698,0.0479602008135,0.0100328608473,0.029276156102,-0.000129801168984,-0.137294167455,0.573843093565,0.818932295618,0.00589457910116,0.0,0.818940679008,-0.573778948778,-0.00972774929292,0.0,-0.00458427092092,0.0104097127785,-0.999935309078,0.0,0.271298745783,-0.252397621893,0.30581309447,1.0,-0.0199623529412,-0.0262362352941,2.546
-0.620799210725,-0.524115688889,-0.126508153074,-2.64228098042,-0.0681816521936,2.11026853812,-0.868991109557,-0.11517279824,0.0140715473124,0.0296945772704,0.00793126430478,0.0199139168928,0.00551700849922,-0.0965834871134,0.573847544446,0.818929216274,0.00588908889335,0.0,0.81893771334,-0.573783812439,-0.00969046715676,0.0,-0.0045568305301,0.0103838476957,-0.999935703434,0.0,0.270973729881,-0.252823233742,0.305831362562,1.0,-0.0196423529412,-0.0258156638656,2.562
-0.622665088363,-0.523937575588,-0.126000358842,-2.64209217294,-0.0679592223868,2.11032757126,-0.870767380951,-0.101857911448,0.00622068922338,0.0217315229916,0.00610531198835,0.0141989255427,0.00487296878514,-0.0975656654016,0.573665901732,0.819056994128,0.0058155361914,0.0,0.81906513048,-0.573603440794,-0.00959956463108,0.0,-0.00452686613842,0.0102704435476,-0.999937010752,0.0,0.270678157899,-0.253244323149,0.305869258794,1.0,-0.0192823529412,-0.0253425210084,2.58
-0.624192321232,-0.523741789514,-0.125764745535,-2.64190228338,-0.0678108818981,2.11043391117,-0.872145921643,-0.0923191285674,0.0116994399568,0.0107971712151,0.00912978193293,0.00907656553327,0.00709471964571,-0.0884545856332,0.573693798428,0.819037513674,0.00580721450961,0.0,0.819046083843,-0.573632555331,-0.00948424525328,0.0,-0.00443683077556,0.0101976253226,-0.999938159573,0.0,0.270411310957,-0.253648325948,0.305898607173,1.0,-0.0189623529412,-0.0249219495798,2.596
-0.625740280461,-0.523506789416,-0.125647092188,-2.64173033889,-0.0677240826438,2.11044243039,-0.873667069314,-0.0931469135513,0.0110951397047,0.00175473485141,0.00939186399331,0.00293767659644,-0.000750558999941,-0.0821051274116,0.573678545948,0.819048119871,0.00581808870453,0.0,0.819056613408,-0.573616826174,-0.00952615680157,0.0,-0.0044651132081,0.0102304927819,-0.99993769795,0.0,0.270087383466,-0.254071875939,0.305894083899,1.0,-0.0186223529412,-0.024475092437,2.613
-0.627169871728,-0.523307412095,-0.125616973447,-2.64159224918,-0.0677062074745,2.11044748112,-0.874991436737,-0.0933361183268,0.009262381072,0.00326833180041,0.00776533200594,0.00147134346384,0.000409304916024,-0.0706656509898,0.573758418883,0.818992181389,0.00581639806753,0.0,0.819000444826,-0.573696207711,-0.00957494303947,0.0,-0.00450504470876,0.0102575342731,-0.999937241812,0.0,0.269760614783,-0.254481309181,0.305884797245,1.0,-0.0183023529412,-0.0240545210084,2.629
-0.628513055366,-0.52309243321,-0.125579945683,-2.64142066711,-0.0676758506198,2.1104801269,-0.876338868723,-0.0803490298433,0.00924930662034,0.00301161435419,0.00776640015954,0.000542585499132,0.00277098568907,-0.0827274998543,0.573750671834,0.818997613047,0.00581577977915,0.0,0.81900585712,-0.573688435066,-0.00957770203891,0.0,-0.00450775629643,0.0102585681915,-0.999937218985,0.0,0.269469749986,-0.254876147598,0.305887550725,1.0,-0.0179823529412,-0.0236339495798,2.645
-0.629881146738,-0.522843788142,-0.125525837799,-2.64126038868,-0.0676472232013,2.11055623831,-0.877689104528,-0.0809250842239,0.0133501399343,0.00325581675259,0.0112763595586,0.000630365246431,0.000175224747128,-0.0803428196134,0.573747803775,0.818999710909,0.0058032831258,0.0,0.819007805744,-0.573685575976,-0.00958232479159,0.0,-0.00451874841148,0.0102509693461,-0.999937247301,0.0,0.2691790649,-0.255276321862,0.305876896708,1.0,-0.0176423529412,-0.023187092437,2.662
-0.631304970027,-0.522632156018,-0.125514373698,-2.64110335014,-0.0676262405592,2.11056006076,-0.879095268313,-0.078658246713,0.0139067570016,-0.000793315426171,0.0112894371195,0.00350043877941,-0.000250376086456,-0.0806583769927,0.573771410138,0.818983107074,0.00581258431994,0.0,0.818991105716,-0.573708702188,-0.00962500351263,0.0,-0.00454807264031,0.0102832046808,-0.99993678337,0.0,0.268852211592,-0.255691271605,0.305871139232,1.0,-0.0172823529412,-0.0227139495798,2.68
-0.632547281936,-0.522458140829,-0.125510787143,-2.64095690493,-0.0676059838879,2.11057817842,-0.880389988277,-0.0779611147596,0.0136776518244,-0.000718795861634,0.00852665496498,0.00186168368033,0.00221150876398,-0.0757556258997,0.573742218757,0.819003480197,0.00582346479022,0.0,0.819011579734,-0.573679441111,-0.00962694185147,0.0,-0.00454378433576,0.0102930662485,-0.999936701402,0.0,0.26857010916,-0.256058784215,0.305875428294,1.0,-0.0169623529412,-0.0222933781513,2.696
-0.633853274177,-0.522284717792,-0.12551262031,-2.64079352834,-0.0675851852891,2.11063214336,-0.881621700601,-0.0777004312838,0.0108612087706,-0.000711652997437,0.013138473092,-0.000533204917687,9.78618239774e-05,-0.0705775655942,0.573821623154,0.818947793413,0.00583124045007,0.0,0.818956208755,-0.57375933385,-0.0095761089133,0.0,-0.00449669120312,0.0102707066744,-0.999937144201,0.0,0.268279765434,-0.256453434033,0.305890583026,1.0,-0.0166223529412,-0.0218465210084,2.713
-0.635129023756,-0.522108626103,-0.125497753832,-2.64063634364,-0.0675646339595,2.1106808893,-0.882935528396,-0.0677894721777,0.00952063121952,0.000680139180163,0.00468776175407,-0.00044402048364,0.00344695013826,-0.0788474896785,0.573796800419,0.818965176469,0.00583253466202,0.0,0.818973769523,-0.573734885857,-0.00953899816181,0.0,-0.00446586468609,0.0102503368732,-0.99993749137,0.0,0.26799784832,-0.256833660897,0.305901877105,1.0,-0.0162823529412,-0.0213996638656,2.73
-0.636272476449,-0.521938436057,-0.125473528097,-2.64049173974,-0.0675471852195,2.11070597478,-0.884045741742,-0.0694565784634,0.0108107904485,0.000389194665211,0.0110870393821,-0.000625126401295,0.00567519577421,-0.0665060317504,0.573821828354,0.818947670062,0.00582837080262,0.0,0.818956246686,-0.573759988529,-0.00953354490368,0.0,-0.00446347435716,0.0102439340716,-0.999937567657,0.0,0.267744590677,-0.257170062063,0.305907796016,1.0,-0.0159623529412,-0.020979092437,2.746
-0.637458342851,-0.521756347273,-0.12542239186,-2.64035507115,-0.0675272482799,2.11073609235,-0.885240426117,-0.0679047237621,0.0120780187924,0.003853935383,0.0103940201065,-0.000365528195879,0.00014642010533,-0.0740635213846,0.573794086578,0.81896720545,0.00581459424078,0.0,0.818975598838,-0.573732216329,-0.00954250255359,0.0,-0.00447906284434,0.010237639443,-0.999937562418,0.0,0.267484714184,-0.257509855269,0.305906786318,1.0,-0.0156223529412,-0.0205322352941,2.763
-0.63870281229,-0.521541298348,-0.125377345781,-2.64020089696,-0.0675039936935,2.11075934723,-0.886535218152,-0.0717054480866,0.0126701693192,0.00174170221351,0.0089707797244,0.00014225306979,-0.00025049145659,-0.0642750701417,0.573739041548,0.819005823621,0.00580689075595,0.0,0.819013996733,-0.573676892662,-0.0095730288798,0.0,-0.00450917417292,0.010248542537,-0.999937315397,0.0,0.267210523739,-0.257869006003,0.305900864813,1.0,-0.0152623529412,-0.020059092437,2.781
-0.639792393712,-0.521354871998,-0.125352094716,-2.64006421752,-0.0674842055597,2.11080518548,-0.887623357262,-0.0738580309595,0.0124061571252,0.00170865192421,0.0103901105381,0.000787973671072,0.00204104175949,-0.0639646812422,0.573737973041,0.819006596276,0.0058034858731,0.0,0.819014743478,-0.573675860088,-0.0095710197405,0.0,-0.00450949537256,0.0102445951997,-0.999937354398,0.0,0.266971454458,-0.258190398922,0.305898973665,1.0,-0.0149423529412,-0.0196385210084,2.797
-0.640846031615,-0.521156309615,-0.125345008107,-2.63994050586,-0.0674639689808,2.1108563412,-0.888671595595,-0.0705980968965,0.0107863644851,-0.000216441901227,0.0077134543917,0.000835834512243,0.00389090098787,-0.069590597255,0.573752649301,0.818996263585,0.00581072760588,0.0,0.819004406729,-0.573690323427,-0.00958861121944,0.0,-0.00451956557777,0.0102607001561,-0.999937143804,0.0,0.266735000784,-0.258503196645,0.305886723435,1.0,-0.0146223529412,-0.0192179495798,2.813
-0.642010724405,-0.520966665025,-0.125334635059,-2.63980325565,-0.0674470762028,2.11087604376,-0.889890156568,-0.063278651491,0.0089258371841,0.000526941423718,0.00641130969897,0.00242337189335,8.75391416773e-05,-0.0569140514898,0.573715636991,0.819022151987,0.00581629850982,0.0,0.819030232121,-0.573653019276,-0.00961453316433,0.0,-0.00453806581325,0.0102799302578,-0.999936862503,0.0,0.266468166366,-0.258844209854,0.305881285219,1.0,-0.0142623529412,-0.0187448067227,2.831
-0.64303511154,-0.52081634849,-0.125326538893,-2.63968491909,-0.0674239811546,2.11089436326,-0.890851096825,-0.0635865489293,0.00944777594929,0.00108379341189,0.00915813934108,0.00014418449438,0.00521559085332,-0.0537317229142,0.573777889112,0.81897846273,0.00582738812217,0.0,0.818986627208,-0.573715143477,-0.00962213596761,0.0,-0.0045371486645,0.0102937199939,-0.999936724803,0.0,0.266233596988,-0.259143105426,0.305881549024,1.0,-0.0139423529412,-0.0183242352941,2.847
-0.644115051236,-0.520646670915,-0.125303880711,-2.63955710413,-0.0674079575586,2.1109324834,-0.891905669253,-0.0687712443912,0.00613839286115,0.00248475019513,0.00734232748689,0.000467337955859,0.00357992545141,-0.0602788242351,0.573796147508,0.818965699206,0.00582336079293,0.0,0.818973831784,-0.573733438816,-0.00962033977763,0.0,-0.00453775884531,0.0102894921092,-0.999936765549,0.0,0.265991723292,-0.259458940929,0.305881027046,1.0,-0.0136023529412,-0.0178773781513,2.864
-0.645161475106,-0.520472980261,-0.125284557183,-2.63941414191,-0.0673851668525,2.11097957256,-0.892993581308,-0.0625038787961,0.0118695811901,0.000677803075314,0.0149337220136,0.000289136257799,0.00720941629333,-0.0631330925128,0.573765609032,0.818987089605,0.00582407535335,0.0,0.818995329096,-0.573703128187,-0.00959783978765,0.0,-0.00451930363577,0.0102769987659,-0.99993697761,0.0,0.265762886228,-0.259770737011,0.305886606973,1.0,-0.0132623529412,-0.0174305210084,2.881
-0.646183030542,-0.520286358918,-0.125253476004,-2.63927976574,-0.0673663012236,2.1110050875,-0.893962286709,-0.0584903629232,0.00916582629809,0.00310307244989,0.00459003965915,-5.12969971277e-05,0.000814336992048,-0.0573630265973,0.573801994941,0.818961637091,0.00581846000513,0.0,0.818969723742,-0.573739317714,-0.00961944929914,0.0,-0.00453976807705,0.0102849997992,-0.999936802646,0.0,0.265536693502,-0.260068137728,0.305881927472,1.0,-0.0129223529412,-0.0169836638656,2.898
-0.647106893763,-0.520115310697,-0.125218851031,-2.63915181553,-0.0673485410619,2.11102396701,-0.894880792274,-0.0597223805562,0.0127038015169,0.00328683475497,0.0134242425478,0.00374530619935,0.00274313162802,-0.0585480761403,0.573796129534,0.818965800957,0.00581080853708,0.0,0.818973719879,-0.573733286826,-0.00963891261964,0.0,-0.00456017331027,0.010289868349,-0.999936659708,0.0,0.265334093418,-0.260336446387,0.305879567179,1.0,-0.0126023529412,-0.016563092437,2.914
-0.648116422839,-0.519938630871,-0.125182860841,-2.63902901974,-0.0673263662886,2.11106275313,-0.895901495081,-0.0571789458243,0.0115176933791,0.000155513915221,0.00599593960745,0.00386402438982,0.000198364153094,-0.0604320943281,0.573777403283,0.818978954898,0.00580601566179,0.0,0.818986779931,-0.573714485069,-0.00964835849129,0.0,-0.00457089527187,0.0102912582908,-0.99993659645,0.0,0.265111443764,-0.260627939539,0.305874519396,1.0,-0.0122423529412,-0.0160899495798,2.932
-0.648975632821,-0.519784996748,-0.125163523888,-2.63892452264,-0.0673054609448,2.11108937602,-0.896764540211,-0.0527924182105,0.0113699221508,0.00160158897536,0.00708830984106,-0.000148091180689,0.00217836203364,-0.0547586219189,0.573774998351,0.818980611032,0.00581007085387,0.0,0.818988398417,-0.573711883298,-0.00966566722507,0.0,-0.00458277559097,0.0103044972129,-0.99993640573,0.0,0.264918331599,-0.260877199725,0.305868191417,1.0,-0.0119223529412,-0.0156693781513,2.948
-0.649861395841,-0.519636444923,-0.125142224267,-2.63882696784,-0.0672820639095,2.11112349114,-0.897639732356,-0.0567232592341,0.00694564844369,0.00310132099854,0.0105735014868,0.000695424009343,0.00272477005965,-0.0440713396963,0.573783705891,0.818974472666,0.00581539983988,0.0,0.818982263502,-0.573720449205,-0.00967704158139,0.0,-0.00458892456867,0.0103154367088,-0.999936264737,0.0,0.264718412686,-0.261132023181,0.305861262042,1.0,-0.0115823529412,-0.0152225210084,2.965
-0.650735017215,-0.519494013291,-0.125102217078,-2.63873253522,-0.0672654557728,2.1111516856,-0.898538329784,-0.0467561688197,0.0122827199062,0.000125420648189,0.00534936525918,0.00190701568062,0.000420626720256,-0.0623237250636,0.573746973466,0.81900026737,0.00580683974409,0.0,0.81900789767,-0.573683600111,-0.00969213184548,0.0,-0.00460665853563,0.0103168775556,-0.99993616833,0.0,0.264523392991,-0.261378546666,0.305855092903,1.0,-0.0112423529412,-0.0147756638656,2.982
-0.651593538004,-0.519356190348,-0.125084791296,-2.63862658966,-0.0672476077907,2.11117037051,-0.899427013873,-0.0498578033184,0.00777417589026,0.0018151207466,0.0112197558516,0.000985095712381,-7.28758865161e-05,-0.0486237996929,0.573723049465,0.819017006717,0.00580965766872,0.0,0.819024627008,-0.573659579518,-0.00970021044129,0.0,-0.0046119603393,0.0103236857829,-0.999936073624,0.0,0.264328494598,-0.261627439751,0.305854506673,1.0,-0.0109023529412,-0.0143288067227,2.999
-0.652396423152,-0.519222687829,-0.125082866163,-2.63853110587,-0.0672298057103,2.11119444151,-0.900192579706,-0.048223203684,0.0152067702936,0.000117984293252,0.00330343388436,0.000968879404432,0.0044699721238,-0.0494604765956,0.573764858319,0.81898764655,0.00581971283362,0.0,0.818995331802,-0.573701247954,-0.00970935031125,0.0,-0.00461315026299,0.0103374006759,-0.999935926443,0.0,0.264143088508,-0.261863032907,0.305850842196,1.0,-0.0105823529412,-0.0139082352941,3.015
-0.653212930298,-0.519088003029,-0.125084674536,-2.63843195345,-0.0672102278989,2.11122189215,-0.900998447438,-0.0467941508858,0.00989645528262,-0.000531249183155,0.000460275995602,-0.000275630367529,0.000799156863119,-0.0475401147105,0.573788392303,0.81897106669,0.00583263956693,0.0,0.818978874336,-0.573724693063,-0.00971220168161,0.0,-0.00460777153969,0.0103497564404,-0.999935823432,0.0,0.263954589675,-0.262104126974,0.305848608626,1.0,-0.0102423529412,-0.0134613781513,3.032
-0.65399487226,-0.518942100542,-0.125087042854,-2.63831556479,-0.0671907060742,2.11125549939,-0.901778039689,-0.0465624005282,0.0101860541755,-0.000850275710524,0.00840901848893,0.000196543646588,0.000958591026308,-0.0465724351509,0.573806359489,0.818958406388,0.00584271495166,0.0,0.818966360813,-0.57374270649,-0.00970327301413,0.0,-0.00459445037219,0.0103529860917,-0.999935851295,0.0,0.263779470543,-0.262341208113,0.305850590172,1.0,-0.00990235294118,-0.0130145210084,3.049
-0.654708395508,-0.518819978805,-0.125078938844,-2.63820784384,-0.0671696484236,2.1112846105,-0.902497292316,-0.0397099133093,0.00687176325275,-0.000336606682615,0.00819441706044,0.00275872859417,0.00547347802289,-0.0398642890768,0.573810422994,0.818955513628,0.00584910779472,0.0,0.818963622798,-0.573746939973,-0.00968402331809,0.0,-0.00457496467392,0.0103471992418,-0.999936000535,0.0,0.263622377978,-0.262555231778,0.305857258468,1.0,-0.00958235294118,-0.0125939495798,3.065
-0.655473684078,-0.518673897331,-0.125051437264,-2.63808863541,-0.0671505680805,2.11132379766,-0.903231455108,-0.0416384344333,0.00745947303283,0.000901551098955,0.00589131509679,0.00286998199178,0.00396828718632,-0.0412739521778,0.573830703113,0.818941351151,0.00584246867011,0.0,0.818949466931,-0.573767417361,-0.00966789994029,0.0,-0.00456531277645,0.0103326233583,-0.999936195371,0.0,0.263459287023,-0.262782749973,0.305861630894,1.0,-0.00922235294118,-0.0121208067227,3.083
-0.656128552346,-0.518555013759,-0.124992878778,-2.63799855743,-0.067126734548,2.11133682836,-0.90386579861,-0.045729819247,0.00588425351739,0.00313796392249,0.00718171127472,0.00703741024095,5.68744349904e-06,-0.046323574014,0.573820820448,0.818948365992,0.00582981656083,0.0,0.818956294346,-0.573757466108,-0.00968013102741,0.0,-0.00458271494113,0.0103292245651,-0.999936150883,0.0,0.263322160074,-0.262963107213,0.305861269961,1.0,-0.00890235294118,-0.0117002352941,3.099
-0.65682908648,-0.518408788823,-0.124937572801,-2.63791577141,-0.0671104364506,2.11135898368,-0.904563385462,-0.0365492568332,0.00903867841048,0.000267982365774,0.00570037601273,0.000231503629176,0.000972140862726,-0.0393374868123,0.573795421317,0.818966272228,0.00581432115617,0.0,0.818973863572,-0.573731745381,-0.00971812890534,0.0,-0.0046230481855,0.0103381939732,-0.999935872529,0.0,0.263170689959,-0.263155837026,0.305848195227,1.0,-0.00854235294118,-0.011227092437,3.117
-0.657410817879,-0.518296900842,-0.124897714101,-2.63787735478,-0.0670923363992,2.11137328831,-0.905210941836,-0.0346352577271,0.00659226932161,0.00308132807447,0.00134753204452,-7.39129550476e-05,0.00071184859411,-0.0385594817723,0.573719429575,0.819019496015,0.005816199479,0.0,0.819026812639,-0.573655102029,-0.00978013268861,0.0,-0.00467371682357,0.0103748752167,-0.999935257072,0.0,0.26302863122,-0.263318065736,0.305824775944,1.0,-0.00820235294118,-0.0107802352941,3.134
-0.658008445295,-0.518172011763,-0.124870933577,-2.63784273214,-0.0670730615456,2.11139029929,-0.905849114185,-0.0392029588821,0.00561489418005,0.00355945192821,0.000695626658033,0.000233324759219,-1.81096681202e-05,-0.0341267533752,0.573681362521,0.819046122716,0.00582151704392,0.0,0.819053201614,-0.573616367984,-0.0098418599734,0.0,-0.0047217106962,0.0104144243223,-0.99993462047,0.0,0.262894634787,-0.263467080646,0.30579831994,1.0,-0.00788235294118,-0.0103596638656,3.15
-0.658592003086,-0.518071345222,-0.124860242317,-2.63779553638,-0.067058067206,2.11140301763,-0.906409440909,-0.0385673137041,0.0107429804531,0.000404997501632,-0.000309023537725,0.000716018649743,0.000289317675507,-0.0336170161651,0.573701821477,0.81903172951,0.00583035080942,0.0,0.819038727584,-0.573636400716,-0.00987873434581,0.0,-0.0047465868099,0.0104429320552,-0.999934205377,0.0,0.262755096092,-0.263628911679,0.305783988711,1.0,-0.00756235294118,-0.00993909243698,3.166
-0.659227656866,-0.51800024434,-0.124856291972,-2.63771723791,-0.0670418871692,2.11141725695,-0.907011351498,-0.0344332450692,0.00792719589137,0.000360671929771,0.00473194420102,-0.000468559038307,0.000416250958686,-0.034651146264,0.573737481277,0.819006698874,0.00583752328263,0.0,0.819013894706,-0.573672291569,-0.00985337837654,0.0,-0.00472124843696,0.0104344660668,-0.999934413715,0.0,0.262608261692,-0.263814430919,0.305794693868,1.0,-0.00720235294118,-0.00946594957984,3.184
-0.65978804822,-0.517923442527,-0.124864165844,-2.63763100221,-0.0670245083137,2.11143655501,-0.907531526482,-0.0343906665965,0.00349710470359,-0.000494035939461,0.00201678427756,0.000740003728924,0.000141360594437,-0.02260558632,0.573787734752,0.818971409664,0.00584914541992,0.0,0.818978883332,-0.573722829197,-0.00982093761759,0.0,-0.00468736911258,0.0104256608595,-0.999934664949,0.0,0.262481129946,-0.263985237123,0.305807060065,1.0,-0.00688235294118,-0.00904537815127,3.2
-0.660329377012,-0.517884300158,-0.12485886999,-2.6375302469,-0.0670071459782,2.11146765038,-0.90803805963,-0.0306039976352,0.00324711171121,-7.11557684257e-05,0.00770909268321,0.00232884851136,0.00467823620619,-0.0244114571325,0.573824683089,0.818945526247,0.00584850571786,0.0,0.818953440924,-0.57376077579,-0.00972525913464,0.0,-0.00460890301768,0.010370447286,-0.999935603845,0.0,0.262367781602,-0.264154173088,0.305841260325,1.0,-0.00654235294118,-0.00859852100841,3.217
-0.660842956714,-0.517832947076,-0.124849235356,-2.63741572946,-0.0669871322979,2.11150928702,-0.908556019268,-0.0280362874406,-0.000365424277852,0.00092299688437,0.00512178609199,0.000410687868369,0.000494252496747,-0.0319006529012,0.573828282593,0.818943028238,0.00584512604215,0.0,0.818951400178,-0.573765504626,-0.00961752300885,0.0,-0.00452255879711,0.0103058792875,-0.999936665651,0.0,0.262267365103,-0.264319423689,0.305878225148,1.0,-0.00620235294118,-0.00815166386555,3.234
-0.661285216846,-0.517773281467,-0.124824777945,-2.63730590086,-0.0669724757174,2.11153433828,-0.909006870193,-0.0286171492367,0.00606310577187,-0.000153787414521,0.00327614012326,0.000216272116154,-0.000101428665551,-0.0219389758603,0.573822190237,0.818947373108,0.0058344642019,0.0,0.818955983898,-0.573760258221,-0.00953988600356,0.0,-0.00446516686359,0.0102525650458,-0.999937471643,0.0,0.262178633958,-0.264466221026,0.305908594669,1.0,-0.00586235294118,-0.0077048067227,3.251
-0.661706448563,-0.517674366859,-0.124783688763,-2.63721501741,-0.0669538064947,2.11154905709,-0.909439370247,-0.0272658943927,0.00296976161186,0.00355987840989,0.00470324623414,0.00012471322441,0.00203080638817,-0.0264133631963,0.573789657061,0.818970265146,0.00582075240532,0.0,0.818978769641,-0.573727869991,-0.00953168261035,0.0,-0.00446672275368,0.0102364506229,-0.999937629788,0.0,0.262104789392,-0.264583114071,0.30591598459,1.0,-0.00554235294118,-0.00728423529412,3.267
-0.662091162098,-0.517590438621,-0.124737195849,-2.63716688728,-0.066934632023,2.11155794691,-0.90983173705,-0.0235541685262,0.00450201334575,0.00773627791814,0.00187097341291,0.00147823873539,0.00144349841139,-0.0253104954378,0.57376114353,0.818990294762,0.00581327458862,0.0,0.818998610898,-0.573699139025,-0.00955615672693,0.0,-0.00449141546184,0.0102442124571,-0.999937439692,0.0,0.262025505531,-0.264684225786,0.305908760566,1.0,-0.00522235294118,-0.00686366386555,3.283
-0.662476487227,-0.517505713562,-0.124702275163,-2.63716199737,-0.0669161873961,2.11156503571,-0.910214604809,-0.0225480435422,0.00819129734051,0.00147876262561,-0.000226466483989,8.68212543269e-06,0.000176367170398,-0.0231123429086,0.573746818618,0.819000296871,0.00581796795806,0.0,0.81900834601,-0.573684079169,-0.0096256623455,0.0,-0.00454583224925,0.0102878555354,-0.999936745718,0.0,0.261933318873,-0.264776604724,0.305881133485,1.0,-0.00488235294118,-0.0064168067227,3.3
-0.662875024153,-0.517400052833,-0.124669134807,-2.63716530297,-0.06689920704,2.1115674632,-0.910600778148,-0.0181697982111,0.00125089098852,0.00135485697443,-0.00113405221167,0.00179574876604,7.09159020615e-05,-0.019730957687,0.573740967781,0.819004343047,0.00582536351876,0.0,0.819011994771,-0.573677129253,-0.0097288587793,0.0,-0.00462618884131,0.0103530867762,-0.999935703919,0.0,0.261834042622,-0.264869808959,0.305841600028,1.0,-0.00452235294118,-0.00594366386555,3.318
-0.663231147263,-0.51733977746,-0.124657910332,-2.63715671288,-0.0668847800581,2.11157399728,-0.910951340181,-0.0272735677573,0.00205216479175,8.29111906661e-05,0.000901838223834,0.000434646415058,0.00517392917846,-0.0167023886586,0.573744359599,0.819001888523,0.00583637951781,0.0,0.81900945991,-0.573680034571,-0.00977084505805,0.0,-0.00465421575954,0.0103862172441,-0.999935230286,0.0,0.261745171519,-0.264961304236,0.305824078245,1.0,-0.00418235294118,-0.0054968067227,3.335
-0.663550755859,-0.517272155644,-0.124651683279,-2.63714041756,-0.0668686111034,2.11158020463,-0.911248118185,-0.0150354085161,0.0016971518054,-0.00107780818527,0.00163843863674,0.000238681202172,-5.51411501808e-05,-0.0297219297117,0.573766575572,0.818986227464,0.00585003259772,0.0,0.81899374637,-0.57370174949,-0.00981289666663,0.0,-0.00468054340058,0.0104216528796,-0.999934738703,0.0,0.26166652558,-0.265045949923,0.305807203661,1.0,-0.00386235294118,-0.00507623529412,3.351
-0.663861890287,-0.517226505447,-0.124638986279,-2.63709758927,-0.066854224834,2.11159225095,-0.911570547489,-0.0174152619856,0.00584385413769,0.00162368216784,0.00104789865302,0.000605755019876,0.000246805757833,-0.0190049834821,0.573756610384,0.818993186759,0.00585311753176,0.0,0.819000791346,-0.573691890865,-0.00980127704584,0.0,-0.00466938295792,0.0104174559539,-0.999934834614,0.0,0.261598745757,-0.265135202985,0.305811169746,1.0,-0.00350235294118,-0.00460309243698,3.369
-0.664122310313,-0.517186380567,-0.124620909561,-2.63703779108,-0.0668400858971,2.1116010676,-0.911832974076,-0.0132860963304,0.00378573287927,0.0036705192301,0.00323149713466,3.77936931605e-05,0.000146307077886,-0.021516967251,0.573751086249,0.818997078047,0.00585013495234,0.0,0.819004791519,-0.573686694195,-0.00977114493337,0.0,-0.00464648402742,0.0103976937642,-0.999935146972,0.0,0.261549003088,-0.26521406313,0.30582474756,1.0,-0.00318235294118,-0.00418252100841,3.385
-0.664360905237,-0.517169482657,-0.124603256553,-2.63698028427,-0.0668262554406,2.11161567962,-0.912065987645,-0.0136624481863,-0.00162323935096,0.00188811326969,0.00785677815154,0.00116226587711,0.000380382359832,-0.0141558544499,0.573751729295,0.818996662795,0.00584519995119,0.0,0.819004586965,-0.573687947802,-0.00971452410923,0.0,-0.00460293068229,0.0103611700633,-0.999935727527,0.0,0.261505789947,-0.265287950272,0.305846350705,1.0,-0.00286235294118,-0.00376194957984,3.401
-0.664612510838,-0.517152146021,-0.12457272605,-2.63693234547,-0.0668086815248,2.11163650824,-0.912293994207,-0.0174024497737,-0.000627672024395,0.00417413447221,0.00208937994462,-1.86282852433e-05,0.00147042801901,-0.00533125652112,0.573759133401,0.818991528724,0.00583777514081,0.0,0.818999619358,-0.573695933674,-0.00966157741127,0.0,-0.00456373005989,0.0103247526845,-0.999936283895,0.0,0.261461111015,-0.265360466328,0.305864277502,1.0,-0.00250235294118,-0.0032888067227,3.419
-0.664817366152,-0.517151349588,-0.124548637909,-2.63690010359,-0.0667971364899,2.11164099336,-0.912485183643,-0.013345395348,-0.000638188903014,0.00113485968539,0.00277089466368,0.00301589973864,-0.000376151405124,-0.0131022216238,0.573759620271,0.81899123042,0.00583177015881,0.0,0.818999428023,-0.573696830528,-0.00962447098923,0.0,-0.00453677662814,0.0102985475235,-0.999936676783,0.0,0.261421104439,-0.265416631669,0.305879614715,1.0,-0.00218235294118,-0.00286823529412,3.435
-0.665013105679,-0.517145485292,-0.124524130354,-2.63688937683,-0.0667795570567,2.11164624606,-0.91266942086,-0.0141735815216,0.0016544023245,0.00243858741664,0.00114003111232,0.000191260047235,0.00279169426114,-0.0188315285375,0.573759635088,0.818991202561,0.00583422426892,0.0,0.818999480719,-0.573696959851,-0.00961227035108,0.0,-0.0045253752555,0.0102935575585,-0.999936779827,0.0,0.261379309646,-0.265464162462,0.305883368007,1.0,-0.00184235294118,-0.00242137815127,3.452
-0.665192528609,-0.517146340697,-0.124504094371,-2.63689115034,-0.0667645513015,2.11164995328,-0.912821471364,-0.0156311812674,0.00064951941997,-0.000674811812726,-0.00139209738821,-0.000448013938245,7.54111311883e-05,-0.0100618509753,0.573774121086,0.818981025258,0.00583824815995,0.0,0.818989367316,-0.573711476441,-0.00960754515854,0.0,-0.0045190142175,0.0102942221416,-0.999936801753,0.0,0.261337694548,-0.265505299942,0.305883675991,1.0,-0.00150235294118,-0.00197452100841,3.469
-0.665356970448,-0.517131582937,-0.124487883787,-2.636883047,-0.0667443291219,2.11165399346,-0.912959224609,-0.00731668408616,0.00100833143187,0.00084944183401,-0.000788980700881,0.00300555959633,-0.00022794759181,-0.00723642501832,0.57379350993,0.818967374183,0.00584763947443,0.0,0.818975813388,-0.573730820665,-0.00960777835056,0.0,-0.00451357291313,0.0103021545058,-0.999936744635,0.0,0.261301618697,-0.265545170791,0.305882651462,1.0,-0.00116235294118,-0.00152766386555,3.486
-0.665491978232,-0.517118067,-0.124470614229,-2.63687926087,-0.0667326923579,2.11165519412,-0.913023892968,-0.00480610399134,0.000747824169118,0.00370319925184,-0.000175624434815,0.000194803620652,0.000788304203732,-0.00143413863519,0.57384403846,0.818931956452,0.00584954079096,0.0,0.818940385584,-0.573781264593,-0.00961520475498,0.0,-0.00451792851347,0.0103082515838,-0.99993666213,0.0,0.261271419771,-0.265576470958,0.30587989689,1.0,-0.000842352941182,-0.00110709243698,3.502
-0.66559026375,-0.517078727174,-0.124464053258,-2.63686785234,-0.0667222095749,2.11166360215,-0.913088153345,-0.00370057455391,0.0040805541643,0.00117017061685,0.00312566168862,0.000311759720699,0.000216505736352,-0.00505334125591,0.573872405464,0.818912039287,0.00585500282016,0.0,0.818920443738,-0.573809417435,-0.00963359699909,0.0,-0.00452950001379,0.0103234357488,-0.999936453133,0.0,0.261250772176,-0.265603179971,0.305871434967,1.0,-0.000482352941182,-0.000633949579839,3.52
-0.665613528804,-0.51704838079,-0.124453998381,-2.63686997558,-0.0667071456917,2.11166468077,-0.913134469614,-0.000253822757786,0.00474165866726,-0.000537602973666,-0.000872253658614,-7.42062274439e-05,0.000337704785416,-0.0039910451925,0.573852839514,0.818925678182,0.00586507442358,0.0,0.818934050318,-0.573789498352,-0.00966331786237,0.0,-0.00454830859166,0.0103486307908,-0.999936107324,0.0,0.261247243463,-0.265604671457,0.305859594058,1.0,-0.000162352941182,-0.000213378151268,3.536
-0.665610889366,-0.517031021551,-0.124414736938,-2.63686987233,-0.0666939827987,2.11166896943,-0.913144715149,0.00145020840383,0.00093560683883,0.00321899348455,0.000876340403202,0.0022608129206,0.000139456216108,-0.000499686342229,0.573820091384,0.81894868071,0.00585730221726,0.0,0.818956912575,-0.573756655143,-0.00967589402724,0.0,-0.00456348238113,0.0103492997909,-0.999936031265,0.0,0.261258202636,-0.265594513109,0.305854526137,1.0,0.0,0.0,3.553
