nelsonifechukwu/NELSON_IML_WORK/CNN-GradCAM/train2dof/data_sample_2022-02-22-16-20-45/robot_state.csv
position_joint1,position_joint2,position_joint3,position_joint4,position_joint5,position_joint6,position_joint7,velocity_joint1,velocity_joint2,velocity_joint3,velocity_joint4,velocity_joint5,velocity_joint6,velocity_joint7,ee_T_00,ee_T_10,ee_T_20,ee_T_30,ee_T_01,ee_T_11,ee_T_21,ee_T_31,ee_T_02,ee_T_12,ee_T_22,ee_T_32,ee_T_03,ee_T_13,ee_T_23,ee_T_33,v_x,v_y,time
0.465057764912,0.547728174257,-0.123988147011,-1.35583449098,0.0795640864521,1.89410931562,0.159166942879,-0.00267236241372,-0.000802449784254,0.000701555502878,-0.00122199023176,0.000396141589222,-0.000149378236319,-0.00040676090999,0.573841906176,0.818951820404,0.00203211092109,0.0,0.818909169711,-0.573782426357,-0.0119266872108,0.0,-0.00860155827443,0.00850831100194,-0.999926808241,0.0,0.661680367214,0.260891672679,0.303252092369,1.0,0.0,0.0,0.0
0.465057799905,0.547730959298,-0.123988147999,-1.35583198532,0.0795634761006,1.89410486514,0.159171622187,0.000439628385675,-0.00032529125159,-0.000194538314239,-0.00062224846119,3.11364816856e-05,-0.000123828760898,0.000881050206192,0.57384538554,0.818949393266,0.00202772394323,0.0,0.818906687808,-0.573785925785,-0.0119287440744,0.0,-0.00860572394897,0.0085059352061,-0.999926792611,0.0,0.661680005113,0.260891554,0.303250924293,1.0,-0.00016,-0.000210285714286,0.009
0.465058437222,0.547729944041,-0.123985364911,-1.35583516424,0.0795634761006,1.89410931714,0.159169282506,-0.000169476453275,0.00108536293815,0.000534680568234,-0.000828013222075,-0.000139084703944,6.12900043095e-05,0.000726276085093,0.573841206045,0.818952315421,0.00203032299906,0.0,0.818909632007,-0.573781724378,-0.0119287164817,0.0,-0.00860425340981,0.00850800391789,-0.999926787666,0.0,0.661679385902,0.260893525121,0.303250425101,1.0,-0.00042,-0.000552,0.022
0.465057145008,0.547718254592,-0.123988159988,-1.35584286054,0.0795633576488,1.89411203595,0.159166942879,-0.000666867417335,-0.0001701799582,-0.000337562395948,-0.00197463890509,-0.000732150693804,0.00010313969246,-0.000747661707598,0.57384268806,0.818951263498,0.00203574975815,0.0,0.818908662308,-0.573783195194,-0.011924538199,0.0,-0.00859770215627,0.00851006601038,-0.99992682647,0.0,0.661679459572,0.260890459287,0.303255371376,1.0,-0.00078,-0.00102514285714,0.04
0.465059457436,0.547649579756,-0.123983529451,-1.35590381959,0.0795608400634,1.89412499625,0.159168572252,-4.75765873673e-05,-0.00464462888403,0.00231391144107,-0.00693741746282,-4.09190630105e-05,0.000538657904823,0.000365173763431,0.573841522177,0.818952029237,0.00205624321862,0.0,0.818909650823,-0.573781901252,-0.0119189129583,0.0,-0.00858134802763,0.00852360867674,-0.999926851605,0.0,0.661668362452,0.260888811471,0.303275974631,1.0,-0.00112,-0.001472,0.057
0.465058499627,0.547518773732,-0.123980696867,-1.35606764242,0.0795606183255,1.89415068817,0.159166010213,-0.000935852980169,-0.0104435659197,0.00141042702425,-0.0103412604315,-2.69881766587e-05,0.00183590514439,-3.7769373519e-05,0.573847061469,0.818948143598,0.00205792186134,0.0,0.818905639387,-0.573787286281,-0.0119352747757,0.0,-0.00859372717656,0.00853443048975,-0.999926652985,0.0,0.661638995735,0.260873796016,0.303292799434,1.0,-0.00144,-0.00189257142857,0.073
0.465044259088,0.547374897766,-0.123991256706,-1.35626883811,0.0795573043978,1.89419949928,0.159154957735,-0.00109133363781,-0.0107990810708,-0.000892524118112,-0.0134262738235,0.0002447709829,0.00210796300737,-0.00103964621369,0.573867241876,0.81893401203,0.00205415245973,0.0,0.818891398393,-0.5738074199,-0.0119444299727,0.0,-0.00860317767379,0.00853680922451,-0.999926551414,0.0,0.661612725074,0.260839045157,0.303303535934,1.0,-0.00178,-0.00233942857143,0.09
0.465024644763,0.547191893118,-0.123983541444,-1.35649602643,0.0795550983256,1.89433549039,0.159149088176,-0.000763447235268,-0.0116544537672,0.000858218991685,-0.0125182171559,5.165236114e-05,0.00772345750201,-0.000326693922476,0.573885540532,0.818920971427,0.00213911812388,0.0,0.818879400128,-0.573825303476,-0.0119078141541,0.0,-0.00852424274617,0.00858556742727,-0.99992680998,0.0,0.661596061895,0.260814862303,0.303336582463,1.0,-0.00214,-0.00281257142857,0.108
0.465007024694,0.547009811529,-0.123986757423,-1.35670800293,0.0795536587157,1.89445623313,0.159131605849,0.000366916866841,-0.0171439214037,-0.0047827525331,-0.0146442053509,0.000281052682718,0.00831607689988,-0.000189267043578,0.573899594665,0.818910903553,0.00222130307444,0.0,0.81887038232,-0.573839006203,-0.0118675532497,0.0,-0.00844396097835,0.00862990944996,-0.999927109436,0.0,0.661581758948,0.260786552753,0.303375247754,1.0,-0.00244,-0.00320685714286,0.123
0.464975085833,0.546793246642,-0.123983777275,-1.35702941284,0.079545773137,1.89457908897,0.159116922854,-0.00223466373888,-0.0133186772737,-0.00172962344192,-0.0215249948878,-1.11372192144e-06,0.0140127039334,0.00150242442723,0.573927557649,0.818891245926,0.00224339430268,0.0,0.818850902995,-0.573866766415,-0.0118692868165,0.0,-0.00843240798512,0.00864928276965,-0.99992703954,0.0,0.66154633967,0.260738905607,0.303386205705,1.0,-0.00278,-0.00365371428571,0.14
0.464943489978,0.546533817713,-0.123989263114,-1.3574201872,0.0795359744235,1.89472502319,0.159023650198,0.000373027984562,-0.0123705832907,-0.000199554271472,-0.0227558440344,0.000138264838023,0.0176314463088,-0.0145001317251,0.573900158894,0.818910395097,0.00226259264774,0.0,0.818870204021,-0.573839194554,-0.0118707481267,0.0,-0.0084228768624,0.00866556077805,-0.999926978935,0.0,0.661502680786,0.260680170664,0.303396773453,1.0,-0.00312,-0.00410057142857,0.157
0.464904377043,0.546266086273,-0.123984596731,-1.35783187718,0.0795256537969,1.89486981848,0.158929339271,-0.00268922880921,-0.0131527232307,-0.000329249522854,-0.0275477573525,-1.69364506295e-05,0.011580292956,-0.0012510834515,0.573876673189,0.818926863794,0.00225889984079,0.0,0.81888647143,-0.573815568903,-0.0118906137504,0.0,-0.00844151365523,0.00867369537668,-0.999926751245,0.0,0.661449960311,0.260611989671,0.303396128635,1.0,-0.00346,-0.00454742857143,0.174
0.464857281762,0.545954894054,-0.123987007013,-1.35837172263,0.0795073586127,1.89504874946,0.1589095749,-0.00268491632129,-0.0257112897559,-0.000101773335889,-0.0326172440188,-0.00141196001871,0.00942239260306,-0.000880108524824,0.573921282033,0.818895661272,0.00223715895915,0.0,0.818854821034,-0.573860090212,-0.0119216539086,0.0,-0.00847893766462,0.00867416629886,-0.999926430521,0.0,0.661387650346,0.260536437671,0.303381796849,1.0,-0.0038,-0.00499428571429,0.191
0.464791617999,0.545623207348,-0.123988532707,-1.35895694728,0.079470194178,1.8952461426,0.158807797661,-0.00710217383305,-0.0196633712518,-0.00046174800963,-0.0338753842658,-0.0033983154822,0.0152665975054,-0.0111155481324,0.573915584941,0.818899788052,0.00218755363529,0.0,0.818858284195,-0.573854577437,-0.0119491112591,0.0,-0.00852995123845,0.0086492441189,-0.999926212532,0.0,0.661320894205,0.260434385174,0.303355209284,1.0,-0.00414,-0.00544114285714,0.208
0.464730822377,0.545256834466,-0.12398395372,-1.35958488231,0.0794210170331,1.89544511712,0.158756179979,-0.00616354084755,-0.0272740267515,0.00143411816622,-0.0410627913288,-0.000272497626062,0.00423573969537,-0.00850654145787,0.573941754586,0.818881601398,0.00212888126349,0.0,0.818839354662,-0.573881007494,-0.0119769526682,0.0,-0.00858614696642,0.00861745090157,-0.999926006073,0.0,0.66124349161,0.260332639809,0.303332736608,1.0,-0.00446,-0.00586171428571,0.224
0.464657680154,0.544814837182,-0.123983965416,-1.36032713187,0.0793854235069,1.89569515513,0.158649325434,-0.00695170836182,-0.0258298190751,0.00196236911278,-0.0435136924258,-0.00376648225677,0.0124583663752,-0.00912093101178,0.573946034088,0.818878699383,0.0020910646979,0.0,0.818835828202,-0.573885313313,-0.0120116825063,0.0,-0.00863624590336,0.00860646193202,-0.999925669272,0.0,0.661155420806,0.260213169274,0.303313964538,1.0,-0.00482,-0.00633485714286,0.242
0.464597274087,0.544401733651,-0.123994093697,-1.36101828401,0.0793521408314,1.89593823985,0.158562062683,-0.00482150078908,-0.026509233984,0.000973399784921,-0.0449163165931,-0.00430745691914,0.0222984741432,-0.00957958601238,0.573967799359,0.818863491724,0.00207222638765,0.0,0.818820278446,-0.573907059738,-0.0120326759327,0.0,-0.00866402048506,0.00860331515373,-0.99992545608,0.0,0.661071461398,0.260093671283,0.303304055586,1.0,-0.00516,-0.00678171428571,0.259
0.464534392147,0.543928560771,-0.123998141199,-1.36176525437,0.0793209608732,1.89621025951,0.158471435173,-0.00394607417814,-0.0342653871692,-0.000211804397962,-0.0504096621697,-0.00324821368134,0.0149847195095,-0.00969245665284,0.57397426416,0.818858971965,0.00206761099356,0.0,0.818815621951,-0.573913467445,-0.0120439211107,0.0,-0.00867581010068,0.00860605863203,-0.999925330249,0.0,0.660989615979,0.25998890132,0.303301762344,1.0,-0.00546,-0.007176,0.274
0.464454632867,0.543419083958,-0.123999118739,-1.3625979661,0.0792740243618,1.89649889563,0.15837044469,-0.0045924113695,-0.0293089993916,-0.00109653635571,-0.0489267986289,-0.0031785202694,0.020968961027,-0.0079842740034,0.573991368423,0.818847053202,0.00203944596421,0.0,0.818803270776,-0.573930626225,-0.0120659416714,0.0,-0.00870982797351,0.00859581689345,-0.999925122611,0.0,0.660892478855,0.259855448931,0.30329090812,1.0,-0.0058,-0.00762285714286,0.291
0.464383689861,0.542856723285,-0.124004443407,-1.36347493795,0.0792202121922,1.89681300133,0.158260481461,-0.00430270713372,-0.0416842881026,-0.000587698582332,-0.0496172762067,-0.0039061706606,0.0206785886826,-0.00880119527607,0.573997550868,0.818842724834,0.00203727390431,0.0,0.818798926864,-0.573936829889,-0.0120656356866,0.0,-0.00871075918531,0.0085939284801,-0.999925130731,0.0,0.660790590138,0.259721372642,0.3032986756,1.0,-0.00614,-0.00806971428571,0.308
0.4643050585,0.542271659469,-0.12400213494,-1.36439195842,0.0791688048071,1.89714458481,0.158131600291,-0.00452749828292,-0.0370147478143,-0.00122444532149,-0.0551488673905,-0.00270811202028,0.0209145036956,-0.00716840872218,0.573992030016,0.818846588773,0.0020397142463,0.0,0.818802754166,-0.573931231625,-0.0120722009697,0.0,-0.00871479266025,0.00859963635361,-0.999925046513,0.0,0.660683529093,0.259583765154,0.303304638861,1.0,-0.00648,-0.00851657142857,0.325
0.464222846119,0.541639281287,-0.124005223794,-1.36534687933,0.0791096170917,1.89749881057,0.158003749529,-0.00568372522611,-0.0384201487305,0.000546959974236,-0.058179469633,-0.00548937775287,0.0173387179698,-0.000760803009642,0.573987759478,0.818849546005,0.00205423419204,0.0,0.818805942162,-0.573926939822,-0.0120600053253,0.0,-0.0086965169768,0.0086044802619,-0.999925163956,0.0,0.660581444684,0.259446685797,0.303319751341,1.0,-0.0068,-0.00893714285714,0.341
0.464138591186,0.540993195539,-0.124003432811,-1.36635457458,0.079053617492,1.89787091065,0.157882285089,-0.00111662102112,-0.0401560600579,0.000413135901181,-0.0646446564873,-0.00116360306602,0.0195229723275,-0.00814944449576,0.574003297047,0.818838597251,0.00207690468114,0.0,0.818795213314,-0.573942302865,-0.0120573022408,0.0,-0.00868112813657,0.00862165684474,-0.999925149722,0.0,0.660459171707,0.259287514365,0.303337377147,1.0,-0.00716,-0.00941028571429,0.359
0.464053152899,0.540323001202,-0.124002420245,-1.36735182451,0.0789918151619,1.89823392668,0.157752393443,-0.00543881158798,-0.0416371364075,0.00103801260562,-0.0600165442888,-0.00656434777026,0.0172739641111,-0.0108558466597,0.574004855761,0.81883742599,0.00210766754438,0.0,0.818794442181,-0.573943728876,-0.0120417788745,0.0,-0.00865074320188,0.00863795232462,-0.999925272419,0.0,0.66034426956,0.259136736614,0.303367823678,1.0,-0.00748,-0.00983085714286,0.375
0.463954417983,0.539587264552,-0.124010561187,-1.3685055017,0.0789298522673,1.89866841008,0.157612657817,-0.00884111367359,-0.0420071919722,0.000165608487685,-0.0758184220585,-0.00369649854434,0.026524633107,-0.0137879599957,0.574024376618,0.818823701762,0.00212305995393,0.0,0.818780891507,-0.573963154702,-0.012037260853,0.0,-0.00863800261026,0.00864816858317,-0.999925294255,0.0,0.660214551972,0.258958987538,0.303376546813,1.0,-0.00782,-0.0102777142857,0.392
0.463851878751,0.53883553279,-0.124011242401,-1.36967006711,0.0788560290364,1.89911330283,0.157467584271,-0.00563067551106,-0.0381395530454,0.00100847685053,-0.0639847143717,-0.00118151777289,0.0255301985016,-0.0096057561691,0.574034758291,0.818816360417,0.00214734426027,0.0,0.818773914407,-0.573973480265,-0.0120194816706,0.0,-0.00860939533477,0.00865795641362,-0.999925456273,0.0,0.660084517308,0.258780773242,0.303391900661,1.0,-0.00816,-0.0107245714286,0.409
0.463753293444,0.538091939824,-0.124017292036,-1.3708014095,0.0787969910504,1.89955405856,0.157320367236,-0.00667349417617,-0.0476771263429,-0.000930079305665,-0.0713141041579,-0.00633464584293,0.0354600718793,-0.0151557146568,0.574045992769,0.818808357052,0.0021953379992,0.0,0.818766511127,-0.57398448691,-0.0119981642222,0.0,-0.00856427206816,0.00868513454247,-0.999925608074,0.0,0.659960286839,0.25860801021,0.303417032725,1.0,-0.00848,-0.0111451428571,0.425
0.463632473757,0.537242844972,-0.124023652149,-1.37214555423,0.0787103461363,1.90005020131,0.157158499802,-0.00771061743897,-0.0489510854648,0.000942025560716,-0.0739870208909,-0.00658532072863,0.0309827544269,-0.00101624299228,0.574067778661,0.81879309519,0.00219081570446,0.0,0.818751254584,-0.574006353957,-0.0119931495345,0.0,-0.00856253074893,0.00867878091241,-0.999925678153,0.0,0.659807671255,0.25839582915,0.303420028938,1.0,-0.00884,-0.0116182857143,0.443
0.463527220321,0.536452544003,-0.124029363708,-1.37337716548,0.0786477345486,1.90052132304,0.157009124805,-0.00942624456244,-0.051138602689,-0.00036022267982,-0.0761565168271,-0.00817557089459,0.0351586011993,-0.00606521671471,0.574091229425,0.818776576471,0.00221923896775,0.0,0.818735080306,-0.574029657811,-0.0119819502194,0.0,-0.00853679555457,0.00869586874924,-0.999925749738,0.0,0.65966184457,0.258191875055,0.303433060659,1.0,-0.00918,-0.0120651428571,0.46
0.46340688962,0.535589822382,-0.124035741698,-1.3747325304,0.0785659683038,1.90101077158,0.15684693107,-0.00620377833348,-0.0535216771076,-0.00157731442396,-0.0788885697352,-0.000554358136824,0.0306196842581,-0.0137332012973,0.57410956787,0.818763727515,0.00221573630595,0.0,0.818722145631,-0.574047967569,-0.0119885814268,0.0,-0.00854404119276,0.00869699912903,-0.999925678021,0.0,0.659511607429,0.257996426214,0.303439155757,1.0,-0.0095,-0.0124857142857,0.476
0.463287303182,0.534689550524,-0.124031811347,-1.37617814051,0.0784835056094,1.90153190473,0.156666805522,-0.00746746720357,-0.0477654956492,0.00235193460315,-0.0881825701921,-0.00443872241462,0.0286323062294,-0.00765845300977,0.574114429834,0.818760365826,0.00219811515647,0.0,0.818718448817,-0.574052794886,-0.0120098772794,0.0,-0.00857154239449,0.00869484868064,-0.999925461356,0.0,0.659337898713,0.257782085239,0.30343133896,1.0,-0.00984,-0.0129325714286,0.493
0.463155971372,0.533780073718,-0.124045012307,-1.37765898572,0.0784004388315,1.9020669738,0.156483285195,-0.0081810831461,-0.0547456945496,-0.00340825137611,-0.0850591319116,-0.00291050377071,0.0363623356002,-0.00683892741578,0.574139848279,0.818742626158,0.00216647893371,0.0,0.818700259413,-0.574078304917,-0.012030459719,0.0,-0.00860628732801,0.00868103031957,-0.999925282974,0.0,0.65916562093,0.257546855659,0.303414839657,1.0,-0.01018,-0.0133794285714,0.51
0.463024864673,0.532853442003,-0.124043569661,-1.3791509888,0.0783252544342,1.90264253763,0.15629962387,-0.00960350394778,-0.0543868517106,-0.000197541124341,-0.0917734955232,-0.00533086957589,0.0319215404088,-0.00569508498919,0.574157489177,0.818730215559,0.00218143386359,0.0,0.818687914992,-0.574095750474,-0.0120380245594,0.0,-0.00860370817947,0.00869780295684,-0.999925159414,0.0,0.658995061611,0.257323208304,0.303407992611,1.0,-0.01052,-0.0138262857143,0.527
0.46289161467,0.531816460561,-0.124041066397,-1.38079601864,0.0782221948044,1.90324707619,0.156084356769,-0.00306620862389,-0.0639940876718,-0.00137887269445,-0.090780646566,-0.010892600885,0.0352077177202,-0.00718922156831,0.574150691967,0.818734995784,0.0021763486505,0.0,0.818692618158,-0.574088964724,-0.0120417796765,0.0,-0.00860977445385,0.00869572412811,-0.99992512528,0.0,0.65879895566,0.257079555629,0.303408326533,1.0,-0.01088,-0.0142994285714,0.545
0.462767740316,0.530872678274,-0.124044362313,-1.38231710584,0.0781371737235,1.90378698968,0.155882503085,-0.00796663097832,-0.0625933387399,-0.000243797176942,-0.0946713002954,-0.0060442848245,0.0276822324771,-0.0153968650054,0.574149128013,0.818736169071,0.00214736096288,0.0,0.818693303783,-0.574087413704,-0.0120690790266,0.0,-0.00864878514087,0.0086876485043,-0.999924858816,0.0,0.658613881361,0.256850755591,0.303396357734,1.0,-0.0112,-0.01472,0.561
0.462637326099,0.529902384365,-0.124043543199,-1.38386276327,0.0780421958579,1.90433185771,0.155680225348,-0.0088660619959,-0.0623107602462,0.000711742009447,-0.0959956748977,-0.00449312819954,0.0311674010305,-0.0159548129945,0.574148081235,0.818736971768,0.0021210317669,0.0,0.818693704764,-0.574086421723,-0.0120890477314,0.0,-0.00868026191569,0.00867754598375,-0.999924673787,0.0,0.658425637574,0.256616233692,0.303391443653,1.0,-0.01152,-0.0151405714286,0.577
0.462499659857,0.528847433364,-0.124046742333,-1.38552201407,0.077924861652,1.90496606073,0.155458089843,-0.00901436922453,-0.0605384260625,0.000948860254058,-0.0995913273528,-0.0113200198186,0.0404762026846,-0.0146703766585,0.574139764613,0.818742767646,0.00213495189768,0.0,0.818699858571,-0.574078222992,-0.0120616070117,0.0,-0.00864989065261,0.00867310001127,-0.99992497555,0.0,0.658234476443,0.256364692,0.303399709917,1.0,-0.01186,-0.0155874285714,0.594
0.462359110652,0.527740853329,-0.124051890861,-1.38724510753,0.0778270702768,1.90563255712,0.155219357465,-0.00850350192226,-0.0634755923928,-0.00348277902692,-0.102799800211,0.000382713633816,0.0378935812708,-0.0185890276778,0.574130247794,0.818749326571,0.00217846487493,0.0,0.818706973944,-0.57406851161,-0.0120408344846,0.0,-0.00860800276802,0.00869669911031,-0.999925132054,0.0,0.6580357987,0.256108570551,0.303416581442,1.0,-0.0122,-0.0160342857143,0.611
0.462221194456,0.526652777633,-0.124047860549,-1.3889184374,0.0777212986597,1.90626459625,0.154981766862,-0.00639541602529,-0.0691804530866,0.000748957797854,-0.106069457608,-0.000306484574843,0.0273547550491,-0.00435299088453,0.574107783896,0.818764976209,0.00221655241318,0.0,0.818723140931,-0.57404591178,-0.0120190088419,0.0,-0.00856850560778,0.00871511707764,-0.999925310934,0.0,0.657838582856,0.255861608274,0.303440525349,1.0,-0.01252,-0.0164548571429,0.627
0.462071029655,0.525481772475,-0.124051471791,-1.39075896349,0.0776002711549,1.90693185159,0.154746690339,-0.00950079517048,-0.0714011375733,0.000504345852147,-0.107466783458,-0.00941342122111,0.0380845615128,-0.0135625771222,0.57410733523,0.818765312804,0.00220841228653,0.0,0.818723425681,-0.574045552312,-0.0120167804739,0.0,-0.00857135879809,0.00870716832843,-0.999925355728,0.0,0.657616531393,0.255583361947,0.303446257727,1.0,-0.01286,-0.0169017142857,0.644
0.46190528109,0.524229364348,-0.124068058757,-1.39273150329,0.0774743511624,1.90764046144,0.154465264847,-0.00724542419222,-0.0712510533388,-0.00439363037588,-0.114499290083,-0.00871124819672,0.0441931329988,-0.0127622629307,0.574096384129,0.818773036579,0.00219162099644,0.0,0.818731002213,-0.574034745449,-0.012016818773,0.0,-0.00858114580962,0.0086933276347,-0.999925392212,0.0,0.657380446203,0.255274768544,0.303450093202,1.0,-0.01322,-0.0173748571429,0.662
0.461750359016,0.523105461936,-0.124068451665,-1.39453472473,0.0773660505105,1.90831313939,0.154225958513,-0.00588990553674,-0.073510100391,-0.000300542035067,-0.114083720137,-0.00937094524729,0.0501253207987,-0.0177362292212,0.574095249526,0.818773849717,0.00218503840475,0.0,0.818731696048,-0.574033604656,-0.0120240389622,0.0,-0.00859084859885,0.00869207119665,-0.999925319821,0.0,0.657165586478,0.255001554699,0.303440247139,1.0,-0.01354,-0.0177954285714,0.678
0.461592422253,0.521863846336,-0.124066630031,-1.39648709915,0.0772478492032,1.90908329753,0.153953573148,-0.00507846875542,-0.0753287391585,0.000910090413427,-0.119737811404,-0.0104341287699,0.057615919106,-0.0165872002746,0.574073242576,0.818789148615,0.00223364474713,0.0,0.818747659213,-0.574011429278,-0.0119956864327,0.0,-0.00853996468831,0.00871536181331,-0.999925552965,0.0,0.65693838108,0.254716511051,0.30345019481,1.0,-0.01388,-0.0182422857143,0.695
0.46142386543,0.520632102705,-0.124075173462,-1.39849544739,0.0771124975136,1.90983992406,0.153697578862,-0.00954688062628,-0.0718208155934,0.00102896899303,-0.115352187105,-0.0121245868796,0.0459542197545,-0.00846185855284,0.574078542061,0.818785511671,0.00220461427351,0.0,0.818743781303,-0.57401698814,-0.0119943656024,0.0,-0.0085554914514,0.00869088947116,-0.999925633238,0.0,0.65670031947,0.254408076697,0.303425394312,1.0,-0.01422,-0.0186891428571,0.712
0.46126680908,0.519383181616,-0.124083033584,-1.40043378937,0.0770061195205,1.91053258108,0.153434361602,-0.00464498089117,-0.0777810942571,-0.000313478832554,-0.120480357835,-0.00527987274638,0.0444580251736,-0.0204122398784,0.574071628867,0.818790336563,0.00221282219549,0.0,0.818748583308,-0.574009909773,-0.0120053202186,0.0,-0.00855982311667,0.00870382634627,-0.999925483641,0.0,0.656461127439,0.2541165144,0.303440041883,1.0,-0.01454,-0.0191097142857,0.728
0.461085161296,0.518041601144,-0.124086952214,-1.4025281263,0.0768586153485,1.91128387882,0.153139559302,-0.00815711591869,-0.0759103611239,-0.00126935930678,-0.126561219619,-0.00366374657413,0.0470135263579,-0.0220083105604,0.574052869649,0.818803522235,0.00220039199576,0.0,0.818761734892,-0.573991334534,-0.0119965102805,0.0,-0.00855994373953,0.00868839519874,-0.99992561681,0.0,0.656206090071,0.253791239665,0.303450013945,1.0,-0.01488,-0.0195565714286,0.745
0.460909151414,0.516696014552,-0.124087623009,-1.40465802366,0.0767247281845,1.91206019294,0.152846349451,-0.00899128846925,-0.0714473515159,-0.00235928876236,-0.130590385022,-0.00727342452137,0.047381799999,-0.0204115976869,0.574033963566,0.818816802373,0.00219082758411,0.0,0.818774873667,-0.573972453678,-0.0120031483826,0.0,-0.00857106991266,0.00868417661704,-0.999925558148,0.0,0.655944053205,0.253471310539,0.30344758095,1.0,-0.01522,-0.0200034285714,0.762
0.460733436359,0.515394195348,-0.124096756115,-1.40670258486,0.0765955077417,1.91283822247,0.152567588597,-0.00933009438189,-0.0865635409162,-0.00220950389449,-0.128977971519,-0.00276504884575,0.0455292550795,-0.0177348640965,0.574039505126,0.818812873885,0.00220703771265,0.0,0.818771267145,-0.573978039682,-0.0119820265789,0.0,-0.00854441094462,0.00868538289293,-0.999925775828,0.0,0.655688959014,0.253131825737,0.303449471309,1.0,-0.01556,-0.0204502857143,0.779
0.460535764859,0.513926016471,-0.124092200731,-1.40908292719,0.076451739809,1.91368350306,0.152242512701,-0.0112733196674,-0.078760249801,0.00106143776548,-0.130430066755,-0.0135942950217,0.0448824392865,-0.0201572378182,0.574008127418,0.818834998089,0.00215927379328,0.0,0.818792598026,-0.573946692291,-0.0120259189481,0.0,-0.00860810100006,0.00867113956121,-0.999925353182,0.0,0.655400979801,0.252801108059,0.303424420041,1.0,-0.0159,-0.0208971428571,0.796
0.460344004336,0.512517613632,-0.124105618697,-1.41136878041,0.0763159238367,1.91447622134,0.151924568175,-0.00705079165354,-0.078249123592,-0.00155990526369,-0.136582461607,-0.00281949857943,0.0353652135728,-0.0127240994528,0.573997446928,0.818842673293,0.00208667585807,0.0,0.818799219178,-0.573936215085,-0.0120750399058,0.0,-0.00869010642397,0.00863977698323,-0.999924915333,0.0,0.655111269027,0.252446753336,0.303392396704,1.0,-0.01624,-0.021344,0.813
0.460172931206,0.511247721458,-0.124101091171,-1.41339895866,0.0761851515342,1.91524540844,0.151634122877,-0.008711938074,-0.0874476391991,0.00132953322247,-0.139349602608,-0.0138869814281,0.0445532513154,-0.0187382980448,0.573967506776,0.818863652142,0.00208980072496,0.0,0.818820262096,-0.573906288466,-0.0120705153717,0.0,-0.00868492373447,0.00863942112634,-0.999924963436,0.0,0.654863755231,0.252144166793,0.30338198888,1.0,-0.01654,-0.0217382857143,0.828
0.459949954157,0.509586155129,-0.124106764692,-1.41602364354,0.0760174859692,1.91622977232,0.151272578388,-0.00731415517986,-0.0870871829899,0.000222147818803,-0.14299595549,-0.0137653238275,0.0447083200196,-0.0143318296884,0.57394976223,0.818876060682,0.00210109023008,0.0,0.818832880138,-0.573888559716,-0.012057459605,0.0,-0.00866794026193,0.00864098420365,-0.999925097297,0.0,0.654544204538,0.251744952522,0.303381319509,1.0,-0.01692,-0.0222377142857,0.847
0.459752511288,0.508188333694,-0.124109724276,-1.41824299357,0.0758831088918,1.91701667975,0.150963062853,-0.0135862951984,-0.0829336274118,-0.000395505363242,-0.139112390329,-0.0102148322183,0.054346152217,-0.0190880899476,0.573939008536,0.818883670942,0.00207240089339,0.0,0.818840017156,-0.573877832455,-0.0120833200109,0.0,-0.00870569612667,0.00863221968697,-0.999924844995,0.0,0.654265213326,0.251400778471,0.303371287617,1.0,-0.01724,-0.0226582857143,0.863
0.459545918832,0.506747144002,-0.12411095634,-1.42050718152,0.0757415741093,1.917845446,0.150641740967,-0.0169277683272,-0.0908608415304,-0.000739249073549,-0.144393692366,-0.0046399913381,0.0555338233118,-0.0196918449351,0.573924966544,0.818893504884,0.00207541252874,0.0,0.818849864834,-0.57386375387,-0.0120846082109,0.0,-0.00870517074991,0.0086352758876,-0.999924823181,0.0,0.653986429054,0.251048616006,0.303373339041,1.0,-0.01756,-0.0230788571429,0.879
0.459325523163,0.505161899114,-0.12411638579,-1.42296236452,0.0755829826598,1.91878591494,0.150316038723,-0.0150152224197,-0.0910182377885,0.000882631845393,-0.141428600979,-0.0107860409125,0.052580680104,-0.0123227177872,0.573926681978,0.818892167481,0.00212806339292,0.0,0.818849326045,-0.573865354688,-0.0120450332158,0.0,-0.00864252789913,0.0086556958719,-0.999925190022,0.0,0.65369236835,0.250669068179,0.303394451903,1.0,-0.0179,-0.0235257142857,0.896
0.459098969296,0.503495753215,-0.124123309808,-1.42544293637,0.0754243981321,1.91972419478,0.149962839037,-0.0163400906798,-0.0941294554761,-0.0010277743582,-0.13952018518,-0.0116873374643,0.0510301266201,-0.0291754515076,0.573912668103,0.818901719974,0.00222919618251,0.0,0.81886029727,-0.573851020827,-0.011981917732,0.0,-0.00853295082011,0.00870214216645,-0.999925727978,0.0,0.653394731998,0.250282628599,0.303459152358,1.0,-0.01824,-0.0239725714286,0.913
0.458885898537,0.501886279471,-0.124125941577,-1.42781631741,0.0752734045762,1.92059609556,0.149631180387,-0.0145421230186,-0.106455083087,0.000793871394003,-0.145927270515,-0.0127580470264,0.0497520118541,-0.0162167493194,0.573898083353,0.81891168925,0.00231992120242,0.0,0.818871481491,-0.573836103251,-0.0119319029777,0.0,-0.00844008277857,0.00874758197971,-0.999926119677,0.0,0.653102317575,0.249916332313,0.303528757076,1.0,-0.01856,-0.0243931428571,0.929
0.458647123242,0.50018649284,-0.124123465643,-1.43039881887,0.0751128118671,1.92151012791,0.149274492438,-0.0152137641505,-0.0999301486682,0.00126158117034,-0.148275837464,-0.0086087946152,0.0554257649485,-0.0244882458144,0.573887941889,0.818918713888,0.00234885077077,0.0,0.818878791458,-0.573825752392,-0.0119280213423,0.0,-0.00842041095511,0.00876894052872,-0.99992609845,0.0,0.652775044426,0.249514087884,0.303564803253,1.0,-0.0189,-0.02484,0.946
0.458386550557,0.498407058363,-0.124123892731,-1.43317256088,0.0749353273493,1.92254064911,0.148871566105,-0.00873295159773,-0.0935764930895,0.00148275230102,-0.15205172573,-0.00506053893926,0.0556038696499,-0.0210438797539,0.573864845769,0.818934822087,0.00237547174591,0.0,0.818895265091,-0.573802573046,-0.0119121315834,0.0,-0.00839236913799,0.00878138518782,-0.999926224986,0.0,0.652432777183,0.249079525674,0.303574963871,1.0,-0.01926,-0.0253131428571,0.964
0.458138062538,0.496822435422,-0.124124531074,-1.43569313769,0.074781991779,1.92344394442,0.148510377029,-0.0150307807329,-0.0959316007656,0.000591047387764,-0.162196326568,-0.00724693295008,0.0498470279343,-0.0195414954991,0.573859312513,0.818938775963,0.00234895012653,0.0,0.818898759062,-0.573797026572,-0.0119390789122,0.0,-0.00842971637049,0.00877507290767,-0.999925966248,0.0,0.652115630172,0.248675621054,0.30355819562,1.0,-0.01958,-0.0257337142857,0.98
0.457867862898,0.495147960672,-0.12412903509,-1.4384179222,0.0746105763126,1.92437825591,0.148112458074,-0.0152150940123,-0.0973380133091,0.00107285966067,-0.160067427171,-0.0117141567962,0.052486207602,-0.0193832013866,0.573848894122,0.818946357523,0.00224880337483,0.0,0.818904893822,-0.573786871232,-0.0120061724389,0.0,-0.00854224179882,0.00873145297314,-0.999925393134,0.0,0.65176361385,0.248231694391,0.303509119247,1.0,-0.01992,-0.0261805714286,0.997
0.457560497878,0.493178929338,-0.1241770316,-1.44146817337,0.0744345404017,1.92547659973,0.147672927316,-0.0201403719342,-0.146721820157,-0.00185625769153,-0.209694579229,-0.00960717316857,0.0823123792348,-0.0299387736586,0.573881149561,0.818923721651,0.00226079572975,0.0,0.818882425818,-0.573819084765,-0.0119990644532,0.0,-0.00852919499533,0.00873753101809,-0.999925451413,0.0,0.651391010285,0.247713747615,0.303524947384,1.0,-0.0324674285714,-0.042671477551,1.014
0.457220406479,0.490141191506,-0.124256097,-1.44606239733,0.0741929867898,1.92726438387,0.146985399987,-0.0293545921426,-0.204398747512,-0.000211239506795,-0.326721821544,-0.0101554895786,0.127823881772,-0.047897877105,0.573819601275,0.818966271449,0.00246136611483,0.0,0.818927654363,-0.573756809431,-0.0118898045415,0.0,-0.00832528361219,0.00883845384779,-0.999926282976,0.0,0.650825251237,0.247023355225,0.303608852512,1.0,-0.0478365714286,-0.062870922449,1.03
0.456607609552,0.485666567992,-0.124301278142,-1.4531270686,0.0738217012917,1.92999746114,0.145906353316,-0.0449683603786,-0.290286500528,-0.00150842270804,-0.461781161955,-0.0263406685311,0.185219417842,-0.0698274656614,0.573723221355,0.819033355519,0.00260283053593,0.0,0.818996244718,-0.573659539252,-0.0118587969185,0.0,-0.00821976992262,0.00893554764102,-0.999926292969,0.0,0.649944905293,0.245945013151,0.303593915579,1.0,-0.0641662857143,-0.0843328326531,1.047
0.455729593925,0.479812489056,-0.124471623141,-1.46249722461,0.0732531256166,1.93327749049,0.144469177173,-0.0549566269726,-0.376501019467,-0.0137923875028,-0.598013741163,-0.0308766086973,0.200061075004,-0.0897060906944,0.573694460992,0.81905418626,0.00237745623214,0.0,0.819014203827,-0.57363173042,-0.0119632222384,0.0,-0.00843490532117,0.00881057438776,-0.999925610309,0.0,0.648737295342,0.244373225347,0.303484471334,1.0,-0.080496,-0.105794742857,1.064
0.454581896503,0.472519744034,-0.124644496956,-1.47400830418,0.0725598810824,1.93723740458,0.142805621953,-0.0726308499531,-0.453483924636,-0.00943871599313,-0.714731458687,-0.0403832564509,0.241547229428,-0.0958045260672,0.573765784606,0.819004862802,0.00214616468369,0.0,0.81896161088,-0.573703752393,-0.0121091410293,0.0,-0.00868634989419,0.00870560490001,-0.999924377025,0.0,0.647229745245,0.242418977135,0.303401620435,1.0,-0.0968257142857,-0.127256653061,1.081
0.453223763057,0.46386488528,-0.124784415388,-1.48719283158,0.0717966171343,1.94212225168,0.140706406599,-0.08900447964,-0.524653101399,-0.00704050334851,-0.798963490763,-0.0537948702422,0.300370749153,-0.131834620919,0.573682240222,0.819062500874,0.00246045064884,0.0,0.819023168914,-0.57361872469,-0.0119730684492,0.0,-0.008395492463,0.00888407386357,-0.999925291678,0.0,0.645548491041,0.240221672154,0.303527116084,1.0,-0.113155428571,-0.148718563265,1.098
0.451770285648,0.455318989342,-0.124898759111,-1.50060489497,0.0709462173087,1.9468113626,0.138641939422,-0.10324080451,-0.587558351902,-0.00145369232413,-0.9245683107,-0.0555561838468,0.309424015187,-0.144194293109,0.573657775269,0.819080108253,0.00229783334938,0.0,0.81903833615,-0.573594600338,-0.0120907105607,0.0,-0.00858540100881,0.00881811350091,-0.999924263014,0.0,0.64375847725,0.237928160282,0.303434799081,1.0,-0.127564,-0.167655542857,1.113
0.449722813017,0.443552560528,-0.125099509442,-1.51842158834,0.069718542342,1.95318741787,0.13584471188,-0.117049582001,-0.661983089336,-0.00502127599367,-1.03835832742,-0.0679059946825,0.356861797769,-0.157737362791,0.573661952638,0.819076584884,0.00250181750676,0.0,0.819038425638,-0.573598951292,-0.0118763338707,0.0,-0.00829274675067,0.00886225617634,-0.999926342671,0.0,0.641414835112,0.234785308502,0.303580987872,1.0,-0.144854285714,-0.190379918367,1.131
0.447469793443,0.431200553883,-0.125250288968,-1.53719463709,0.0684783161499,1.95967475979,0.132796856093,-0.140961727088,-0.751983104982,-0.0109496904698,-1.1358459467,-0.0739792053701,0.402772198322,-0.184488587272,0.573607438167,0.819114636925,0.00254270640843,0.0,0.819076742802,-0.573543999944,-0.0118876587009,0.0,-0.00827916063601,0.00890169252132,-0.999926104954,0.0,0.638842687759,0.231452740283,0.30364612777,1.0,-0.161184,-0.211841828571,1.148
0.444881917381,0.41775341031,-0.125439531772,-1.55751179791,0.0670680552578,1.96661467279,0.129436643028,-0.160051350054,-0.820765490768,-0.0183235521057,-1.20659160359,-0.0870683067847,0.424190345361,-0.199725182574,0.573588221182,0.819128049221,0.00255702998495,0.0,0.819090460325,-0.573524858422,-0.011865979822,0.0,-0.00825339554701,0.00890079649403,-0.999926325928,0.0,0.636016699656,0.227735607581,0.303721818811,1.0,-0.177513714286,-0.233303738775,1.165
0.442121639599,0.404070454724,-0.125594724678,-1.57801079605,0.0656191118356,1.97384389481,0.125995293608,-0.185887050197,-0.849901909454,-0.00413453645092,-1.31161737653,-0.0855092006834,0.449970648713,-0.224583032244,0.573583663679,0.819130262864,0.00285309003132,0.0,0.819097012052,-0.573519776282,-0.0116575281653,0.0,-0.00791288290139,0.0090236989684,-0.999927976977,0.0,0.633165926052,0.223940677029,0.303849272863,1.0,-0.192882857143,-0.253503183673,1.181
0.439035880001,0.389380986056,-0.125792680464,-1.59966747363,0.064137303159,1.98128742634,0.122269712483,-0.200544148993,-0.92160750367,-0.0131183617299,-1.3814494022,-0.100955357872,0.477739572945,-0.239269120114,0.573649157309,0.819082936209,0.00324574039117,0.0,0.819054651287,-0.573583857821,-0.0114796843591,0.0,-0.00754125446906,0.00924392799729,-0.999928837106,0.0,0.63008066278,0.219823603898,0.304072996069,1.0,-0.208252,-0.273702628571,1.197
0.434709748479,0.369860351267,-0.126025001825,-1.62874480968,0.0619430990206,1.99096488726,0.117034072804,-0.229016415349,-1.01282616012,-0.0117117795401,-1.50517771887,-0.117053208544,0.50148994486,-0.26636804587,0.57354409661,0.819156459016,0.00325757538158,0.0,0.819128679289,-0.573479208348,-0.0114259029864,0.0,-0.00749159471686,0.00922181017471,-0.999929414622,0.0,0.62577609938,0.214186602224,0.304126476661,1.0,-0.227463428571,-0.298951934694,1.217
0.431324320489,0.355489324734,-0.126191366867,-1.64999677741,0.0602857146347,1.99794956499,0.113184008324,-0.246324151504,-1.02455824629,-0.00543817074931,-1.55317138814,-0.116761176394,0.484058526457,-0.274182093879,0.573566761932,0.819140542853,0.00326918388716,0.0,0.81911326798,-0.573502274947,-0.011372851513,0.0,-0.0074412226322,0.00920109866332,-0.999929981543,0.0,0.622565605787,0.209948124808,0.304164853209,1.0,-0.240911428571,-0.31662644898,1.231
0.426469443039,0.336010350212,-0.126470434561,-1.67863078735,0.0581455657644,2.00719644518,0.10773728473,-0.271978078728,-1.08509561395,-0.0151417409853,-1.6485147498,-0.113409551708,0.507526986336,-0.305838256126,0.573641029445,0.819088334271,0.00331917142936,0.0,0.819061157591,-0.573575709587,-0.011422451556,0.0,-0.0074523441912,0.00927116976131,-0.999929251486,0.0,0.61814448121,0.204074867006,0.304195613287,1.0,-0.258201714286,-0.33935082449,1.249
0.421505088196,0.316677270684,-0.126649249853,-1.70678584056,0.0558664873502,2.01617431704,0.102236363004,-0.296739420429,-1.15740539995,-0.00925869300636,-1.693647841,-0.127484780513,0.517644290758,-0.329278649205,0.573549882072,0.819151942962,0.00337253898817,0.0,0.819125528909,-0.573484512385,-0.0113854664139,0.0,-0.00739247038532,0.00929284461754,-0.999929494725,0.0,0.613656266703,0.198266215273,0.304233432265,1.0,-0.274531428571,-0.360812734694,1.266
0.416379478865,0.297743352395,-0.12686326846,-1.73427233128,0.0535490901141,2.024707582,0.0965697919261,-0.328121196542,-1.19570160171,-0.0148606934074,-1.75324323984,-0.145277118856,0.532434460287,-0.351510415251,0.573378540935,0.819272340065,0.00326013817046,0.0,0.819244626837,-0.573313708007,-0.0114184286186,0.0,-0.00748586495718,0.00921811009718,-0.99992949165,0.0,0.609151836229,0.192435865051,0.304194914185,1.0,-0.289900571429,-0.381012179592,1.282
0.410359297463,0.276773622351,-0.127122826602,-1.764267572,0.0510558260014,2.03377954134,0.0902541443986,-0.368404331494,-1.24460345746,-0.0158614309443,-1.77755381537,-0.158819514275,0.532609058079,-0.383783970846,0.573391067596,0.819263588884,0.00325613734174,0.0,0.819235220085,-0.57332550307,-0.0115008087909,0.0,-0.0075555127726,0.00926218174831,-0.999928560556,0.0,0.604116332146,0.185869818818,0.304217986041,1.0,-0.306230285714,-0.402474089796,1.299
0.402892166813,0.25234751343,-0.1275181141,-1.79856353694,0.0480305762291,2.04407903357,0.0826705753758,-0.416563969526,-1.31367406199,-0.0215963901056,-1.79514233351,-0.161655474975,0.539993235627,-0.393454277178,0.57350373177,0.819183720068,0.00349990328603,0.0,0.819159063861,-0.573438161508,-0.0113070739559,0.0,-0.00725573249583,0.00935180665976,-0.999929946575,0.0,0.598273834069,0.178037034745,0.304374008129,1.0,-0.324481142857,-0.426460930612,1.318
0.396483448455,0.232436407032,-0.127819448376,-1.82633727664,0.0455160405285,2.05221005612,0.076207482656,-0.430327497104,-1.34557548609,-0.0159359892543,-1.8493999471,-0.165972185424,0.555437105712,-0.443693165707,0.573504853993,0.819182120491,0.0036854871749,0.0,0.819160129866,-0.573439168706,-0.011178029029,0.0,-0.0070435744317,0.00942983961267,-0.999930730693,0.0,0.593061841029,0.171132907987,0.304458213019,1.0,-0.339850285714,-0.44666037551,1.334
0.388736846702,0.209130687032,-0.128103287914,-1.85852014028,0.0425465278332,2.06129837047,0.0684004999316,-0.465382043657,-1.37275637602,-0.0199365561686,-1.91160946005,-0.180450406167,0.52265472163,-0.462254650442,0.573361279911,0.819282294735,0.00375647888715,0.0,0.819260795113,-0.573294871137,-0.0112021078136,0.0,-0.00702425375448,0.00950057366907,-0.999930197043,0.0,0.587535919858,0.164003850937,0.304495888167,1.0,-0.355219428571,-0.466859820408,1.35
0.380195740076,0.185131774079,-0.128486437048,-1.89139924569,0.0393443362371,2.07012470082,0.0600533374695,-0.519466932676,-1.43124521577,-0.026479412364,-1.96743314787,-0.188095807139,0.500105609913,-0.504564043058,0.573326026137,0.819307586302,0.00361851949029,0.0,0.819284033302,-0.573259607707,-0.0113067170045,0.0,-0.00718946637398,0.00944721225954,-0.999929528394,0.0,0.581368727741,0.155953759287,0.304468181577,1.0,-0.371549142857,-0.488321730612,1.367
0.371351289327,0.161904769671,-0.128979099115,-1.92272804367,0.0362257903514,2.07826601183,0.0516372284549,-0.569016433872,-1.47335393237,-0.0293913894858,-1.96340632841,-0.198243268478,0.496836979735,-0.54579922627,0.573473106552,0.819204829797,0.00357628298323,0.0,0.819180446999,-0.573406410188,-0.0113679774344,0.0,-0.00726217825149,0.00944903235046,-0.999928985756,0.0,0.575370068923,0.147927989069,0.304480387386,1.0,-0.386918285714,-0.50852117551,1.383
0.36132264788,0.136538872336,-0.129422034852,-1.95631555199,0.032684382836,2.08684553587,0.0421621706557,-0.611854237958,-1.52471522838,-0.0301405325324,-1.97529618118,-0.214892914903,0.516892142537,-0.57116303349,0.573455074147,0.819216708695,0.00374286416636,0.0,0.819195076778,-0.573388744262,-0.0112036171939,0.0,-0.00703220961063,0.00949108975968,-0.999930231188,0.0,0.568764082805,0.139204086254,0.304576987754,1.0,-0.403248,-0.529983085714,1.4
0.350387561119,0.110494977559,-0.130018507205,-1.99044596669,0.0290381790844,2.0950725521,0.0319490115126,-0.666316822628,-1.55076008781,-0.0484681529161,-2.02799545936,-0.230380997717,0.483409083733,-0.622281450104,0.573552940798,0.819148015796,0.00378143101269,0.0,0.819126657013,-0.57348619975,-0.0112180822305,0.0,-0.00702080647132,0.00953181851459,-0.999929923901,0.0,0.561833486522,0.130010823789,0.304594961627,1.0,-0.419577714286,-0.551444995918,1.417
0.339340788453,0.0854421954695,-0.130507979932,-2.02284546454,0.0253913963831,2.10237406927,0.0216876238007,-0.699219713896,-1.57136604484,-0.0308207751039,-2.05363653565,-0.220585946207,0.436419170548,-0.648324782884,0.573480118335,0.819199536282,0.00366340425832,0.0,0.819176278164,-0.573413184746,-0.011326594992,0.0,-0.00717823526561,0.00949673374364,-0.999929139983,0.0,0.555003174884,0.121117706486,0.304567752538,1.0,-0.42998,-0.565116571429,1.433
0.326018863439,0.0573538727318,-0.131081589298,-2.05848800524,0.0212335968403,2.10999725536,0.00957464984312,-0.769707558475,-1.56542093423,-0.0420266205568,-1.93969651054,-0.237009277282,0.398384798766,-0.684440233019,0.573525404462,0.819167944648,0.00363810391485,0.0,0.819144082202,-0.573458167153,-0.0113776105011,0.0,-0.00723401268341,0.00950566297019,-0.999928653171,0.0,0.547293903667,0.110894096795,0.304578639778,1.0,-0.42998,-0.565116571429,1.451
0.311946481815,0.0293449580873,-0.13163230341,-2.09326178462,0.0170542348673,2.1168801231,-0.0028534954944,-0.786908134354,-1.58266819871,-0.0291938317794,-1.91089129439,-0.237632052833,0.386885988205,-0.702422971879,0.573802952738,0.81897328443,0.00369834015342,0.0,0.818949661075,-0.573734798087,-0.0114272039349,0.0,-0.00723684762898,0.00958590233289,-0.999927866655,0.0,0.539072835485,0.100019269586,0.304655155164,1.0,-0.42998,-0.565116571429,1.47
0.302248484904,0.0110198607215,-0.13194797696,-2.11559229952,0.0142096022911,2.12109947752,-0.0114354356419,-0.826545139237,-1.54794188292,-0.0271164644328,-1.86950127915,-0.239841061532,0.356760284872,-0.723133992104,0.573794612398,0.818978728945,0.00378565983648,0.0,0.818956695828,-0.573726839979,-0.011322117657,0.0,-0.00710077558438,0.00959704635659,-0.999928735304,0.0,0.534388928889,0.0937817386111,0.304719339957,1.0,-0.42998,-0.565116571429,1.481
0.28550148986,-0.0192234379908,-0.132476203496,-2.15184987447,0.00956884373766,2.12745067591,-0.0262596416124,-0.84031392372,-1.48089335098,-0.0172399259157,-1.81053734687,-0.232952726906,0.290793642423,-0.755971571817,0.573825925576,0.818955700703,0.00401426508451,0.0,0.818936583019,-0.573757526113,-0.0112214581367,0.0,-0.00688679489933,0.00972677940389,-0.999928978387,0.0,0.525816531234,0.0824619653287,0.304841248446,1.0,-0.42998,-0.565116571429,1.501
0.270612529138,-0.0444513014099,-0.133008009459,-2.18164546038,0.00559833810439,2.13211738662,-0.0393163447989,-0.900580252901,-1.47458763104,-0.0507235727517,-1.73821816187,-0.222853036254,0.252123730761,-0.787460841742,0.573960903732,0.818860847563,0.00406696656358,0.0,0.818842130667,-0.573891961951,-0.0112395709251,0.0,-0.00686977741813,0.00978146617555,-0.999928561987,0.0,0.518518460955,0.072782148044,0.304875010822,1.0,-0.42998,-0.565116571429,1.518
0.256111484468,-0.0679000631162,-0.133424811955,-2.20885404784,0.00183737512286,2.13594014362,-0.0520735447483,-0.917204444901,-1.44841142171,-0.0254173913188,-1.71039572021,-0.233957514265,0.21449109926,-0.80279693957,0.573938678867,0.818876313656,0.00408934412033,0.0,0.818857707448,-0.573869431826,-0.0112550908411,0.0,-0.00686990997802,0.00980851176347,-0.999928296146,0.0,0.511629973486,0.0637420907897,0.304904135058,1.0,-0.42998,-0.565116571429,1.534
0.240096875584,-0.092445649541,-0.133977523466,-2.23689321791,-0.00211413829822,2.13941923098,-0.0661505549679,-0.95045961471,-1.43575217174,-0.029385028346,-1.62723069912,-0.230140194854,0.184684191914,-0.840580113734,0.574009375633,0.818826730829,0.0040949317785,0.0,0.818807550554,-0.573939183685,-0.0113470475794,0.0,-0.0069411577106,0.00986646271555,-0.999927233974,0.0,0.504307485678,0.0540791553254,0.304903970282,1.0,-0.42998,-0.565116571429,1.551
0.222615078578,-0.11792427032,-0.134394874743,-2.26549063026,-0.00636700766004,2.14250285859,-0.0815149956075,-0.984378918752,-1.40416646529,-0.0213095779932,-1.5378256361,-0.221192536837,0.154418478807,-0.865498510842,0.573884719215,0.818914460095,0.0040228099031,0.0,0.818894335417,-0.573814717737,-0.0113791050369,0.0,-0.0070103010986,0.00982473989779,-0.99992716243,0.0,0.496577866245,0.044001998025,0.304887337226,1.0,-0.42998,-0.565116571429,1.569
0.20745763652,-0.138794611642,-0.13487562984,-2.28872918907,-0.00985853460646,2.14458785572,-0.0948664837055,-1.01258120911,-1.3502742643,-0.0235668247962,-1.5238361719,-0.244113963796,0.121580312048,-0.906966039408,0.573882273086,0.818917060125,0.00383825151997,0.0,0.818893403421,-0.573811235755,-0.0116192278036,0.0,-0.00731289282186,0.00981137661319,-0.999925126441,0.0,0.490081339817,0.035517139678,0.304765189209,1.0,-0.42998,-0.565116571429,1.584
0.188662985343,-0.163517760167,-0.135458960886,-2.31563484619,-0.0139923798933,2.14656277069,-0.11150147566,-1.06542918808,-1.33578466584,-0.0233267470931,-1.45296501262,-0.226106448526,0.0928118340778,-0.934892639851,0.573835232395,0.818950461631,0.00374357559417,0.0,0.81892436785,-0.573762909922,-0.0118215836359,0.0,-0.00753351159286,0.00984953610404,-0.999923113465,0.0,0.482314818495,0.0253706167306,0.304679566589,1.0,-0.42998,-0.565116571429,1.602
0.169204002992,-0.187915628368,-0.136010939203,-2.34164687882,-0.0181347383316,2.14787370889,-0.12877676693,-1.09885227147,-1.32125628081,-0.0412395187559,-1.40583482009,-0.233018339809,0.0545736873718,-0.97661148185,0.573708795016,0.819039754437,0.00358414197159,0.0,0.819010146537,-0.573635224066,-0.0120729648787,0.0,-0.00783239890454,0.00986200464832,-0.999920694051,0.0,0.474499477934,0.0152709049587,0.304592202117,1.0,-0.42998,-0.565116571429,1.62
0.153461760276,-0.206722313478,-0.136549828502,-2.36122048437,-0.021289200236,2.14861276414,-0.14276245021,-1.12757002705,-1.33716255796,-0.032722623105,-1.39488034584,-0.223547744759,0.0501245580633,-1.01828988504,0.573734060708,0.819021757902,0.00365165279355,0.0,0.818992283127,-0.573659279339,-0.0121415941619,0.0,-0.0078495764129,0.00995691328197,-0.999919618783,0.0,0.468441656306,0.00733320263069,0.304585308081,1.0,-0.42998,-0.565116571429,1.634
0.132583065228,-0.230409046474,-0.137283296257,-2.38535748906,-0.0254121136353,2.14901932756,-0.161254516353,-1.17324429493,-1.30911139281,-0.0405302493718,-1.32396795805,-0.24495893706,0.015588294482,-1.03837246506,0.573828373718,0.818955611372,0.00366756309971,0.0,0.818926093509,-0.573753196918,-0.0121683728436,0.0,-0.00786123252124,0.00998621298711,-0.999919235025,0.0,0.460688871346,-0.00288264415186,0.304601182946,1.0,-0.42998,-0.565116571429,1.652
0.112150583026,-0.252372052437,-0.138021568782,-2.40715349069,-0.029053200238,2.14903936126,-0.1794668532,-1.22493736084,-1.25613722329,-0.046981289764,-1.2663231638,-0.215046921608,-0.0192411555491,-1.08595417329,0.573999740876,0.818834090794,0.00397191756264,0.0,0.818808182913,-0.573922881581,-0.0121009294477,0.0,-0.00762922607537,0.0101983653196,-0.999918890838,0.0,0.453419980482,-0.0125241190256,0.304686714353,1.0,-0.42998,-0.565116571429,1.669
0.0923501470821,-0.272685140967,-0.138624933997,-2.42689496365,-0.0326693902818,2.1488680157,-0.197246904183,-1.24738919337,-1.2698327975,-0.0532524139816,-1.22046838922,-0.220595361256,-0.01007282852,-1.12260170504,0.573931317274,0.818880658008,0.00424945801233,0.0,0.818860653062,-0.573856666637,-0.011683489401,0.0,-0.00712894093274,0.0101854305265,-0.999922714617,0.0,0.44618804569,-0.0221302657216,0.304818355283,1.0,-0.42998,-0.565116571429,1.686
0.0706889272173,-0.293596216416,-0.139331501757,-2.44696572936,-0.0362143211801,2.1479715531,-0.216828018621,-1.27875093221,-1.2241504884,-0.0377413609971,-1.1446057248,-0.202807215272,-0.0499226545987,-1.17795160646,0.573927331312,0.818882912601,0.0043520942665,0.0,0.818863283394,-0.573850976386,-0.0117782388763,0.0,-0.00714768262722,0.0103238221721,-0.999921161557,0.0,0.439317275507,-0.0311272913797,0.304828843186,1.0,-0.42998,-0.565116571429,1.702
0.0482729885142,-0.314019862755,-0.140070971862,-2.4661894108,-0.0398417966804,2.14686705884,-0.237110465661,-1.33080690251,-1.19494891847,-0.0444864792957,-1.12021695151,-0.19669187795,-0.0828656498813,-1.22223740059,0.573949651538,0.818866550541,0.00448517633966,0.0,0.81884924816,-0.573873747791,-0.0116437659394,0.0,-0.00696089951341,0.0103558180587,-0.999922148425,0.0,0.432037975014,-0.0407489422437,0.304871366737,1.0,-0.42998,-0.565116571429,1.719
0.0266061779487,-0.332621746212,-0.140737438438,-2.48334378884,-0.0431385568167,2.14548210656,-0.256865247158,-1.35598473994,-1.13036281653,-0.0281333536235,-1.06961947592,-0.209313479506,-0.0944604620785,-1.27601601908,0.57391144602,0.818892638136,0.0046093638847,0.0,0.818877392203,-0.573835852188,-0.0115316166852,0.0,-0.00679826864421,0.0103928307786,-0.999922883332,0.0,0.42522002221,-0.0497584413209,0.304921220026,1.0,-0.42998,-0.565116571429,1.735
0.00143511802379,-0.352952831668,-0.141576499294,-2.50180311499,-0.0467773252306,2.1434590005,-0.279910388017,-1.40325606892,-1.13353683391,-0.0416988847309,-0.987609872579,-0.195864397079,-0.126012108559,-1.29501070852,0.573933600508,0.818876841723,0.00465695171514,0.0,0.818861669907,-0.573857032301,-0.0115939181108,0.0,-0.00682169789375,0.0104677399599,-0.999921942382,0.0,0.417468974284,-0.0599405924352,0.30493369331,1.0,-0.42998,-0.565116571429,1.753
-0.0230524114143,-0.371411575129,-0.142396734952,-2.51841249977,-0.0501648434694,2.14137163612,-0.302473293712,-1.44932897898,-1.06975801662,-0.0419683386036,-0.967761018546,-0.211742569225,-0.129912793524,-1.34537931915,0.573921911898,0.818885153887,0.00463580498504,0.0,0.818868967576,-0.573844281354,-0.0117090392033,0.0,-0.00692826158025,0.0105163934812,-0.999920699186,0.0,0.41012015555,-0.0695588770754,0.304875536278,1.0,-0.42998,-0.565116571429,1.77
-0.0467310421575,-0.388228206891,-0.1431845589,-2.53306844508,-0.0531500378474,2.13918918171,-0.324310966843,-1.49581029134,-1.04333016187,-0.0526831835863,-0.913959374111,-0.182652954734,-0.132305490259,-1.37285517712,0.574044196967,0.818798451187,0.00480657497182,0.0,0.818784300358,-0.573965726663,-0.0116773714836,0.0,-0.00680273536196,0.0106390802967,-0.999920263202,0.0,0.403245993913,-0.078606700329,0.304918309089,1.0,-0.42998,-0.565116571429,1.786
-0.0740646529707,-0.40627501158,-0.144054024118,-2.5487052391,-0.0564544008812,2.13647239549,-0.349755476746,-1.51664553501,-0.999234940513,-0.0510534426103,-0.861508670916,-0.189577611234,-0.154497741113,-1.41505669981,0.574047217401,0.818796204083,0.00482858939121,0.0,0.818781087645,-0.573966724382,-0.011852287464,0.0,-0.00693329183628,0.010757537428,-0.999918099073,0.0,0.395447318722,-0.088755292001,0.304872827342,1.0,-0.42998,-0.565116571429,1.804
-0.100561982229,-0.422458996739,-0.144851139505,-2.56212077002,-0.0594166600333,2.13394759417,-0.374615718144,-1.56823956361,-0.919636891249,-0.0412869414125,-0.763831981375,-0.168636654558,-0.152689442434,-1.48604619808,0.57401377115,0.81881811409,0.00508266359942,0.0,0.818807947144,-0.573935119027,-0.0115226621064,0.0,-0.00651797080852,0.0107760995506,-0.999920692723,0.0,0.388246611784,-0.0983656301586,0.305011402268,1.0,-0.42998,-0.565116571429,1.821
-0.124508504568,-0.435889694986,-0.145560831682,-2.57348342311,-0.0619029486022,2.13141659785,-0.397101229844,-1.59985105365,-0.880056330238,-0.0568379340367,-0.732606784107,-0.159083673425,-0.172414574498,-1.50409200485,0.574062394794,0.818784183905,0.00505707135574,0.0,0.818771559654,-0.573980350536,-0.0118506203326,0.0,-0.00680057184041,0.0109437923911,-0.99991698937,0.0,0.381730060524,-0.106808803549,0.304921369462,1.0,-0.42998,-0.565116571429,1.836
-0.153819915018,-0.451161261737,-0.146355334702,-2.58576168027,-0.0648487476493,2.12862148788,-0.424872574007,-1.62996631309,-0.799102844398,-0.0382906028826,-0.674623594024,-0.160408985616,-0.142630333822,-1.56327161165,0.573964791957,0.81885161895,0.00521446433469,0.0,0.818843053619,-0.573885588778,-0.0114948438291,0.0,-0.00642018915266,0.0108676727821,-0.999920334256,0.0,0.374099284146,-0.116962436112,0.305048466802,1.0,-0.42998,-0.565116571429,1.854
-0.181900991152,-0.464211671178,-0.146893380058,-2.59652485858,-0.0672532660955,2.12581886811,-0.451663712359,-1.64843224613,-0.725555262366,-0.0158283659686,-0.610141528599,-0.144439268788,-0.155038943483,-1.58233800951,0.573775062224,0.818984742169,0.00518815622056,0.0,0.818973693887,-0.57369240389,-0.0118262987231,0.0,-0.00670928157108,0.0110348112044,-0.999916605764,0.0,0.366848833082,-0.126343911906,0.304945093011,1.0,-0.414282857143,-0.544486040816,1.871
-0.208359834822,-0.47525860121,-0.14719575892,-2.60531786181,-0.0692051760391,2.12342568789,-0.476637263679,-1.63171204891,-0.667232639159,-0.00213542546621,-0.517982663117,-0.114223690708,-0.131105289933,-1.54403856929,0.573865290423,0.818920870296,0.00528994732899,0.0,0.818911082751,-0.573782158525,-0.0118076249788,0.0,-0.00663436085886,0.0111081964997,-0.99991629311,0.0,0.360298132346,-0.134991163103,0.30496290385,1.0,-0.398913714286,-0.524286595918,1.887
-0.237707363963,-0.486247404231,-0.147287800482,-2.61396058258,-0.0710072038817,2.12088553434,-0.504374372071,-1.61544997125,-0.568837330653,0.0174381530005,-0.458572324577,-0.102484044684,-0.14875867966,-1.53350213644,0.573969246233,0.818847125508,0.0054255254026,0.0,0.818838768588,-0.573885058837,-0.0118218950333,0.0,-0.00656682323288,0.0112282508995,-0.999915398028,0.0,0.353190294825,-0.144330226826,0.304982751111,1.0,-0.381623428572,-0.501562220408,1.905
-0.263273965165,-0.494726354482,-0.147167924474,-2.62066553751,-0.0722543325795,2.11877615886,-0.528576378155,-1.58720375882,-0.502653520668,0.0295832985603,-0.389993432824,-0.0779905243388,-0.13664480945,-1.50620172202,0.574066541976,0.818778106729,0.00554655089529,0.0,0.818769986448,-0.573979590773,-0.0119952311568,0.0,-0.00663795344447,0.0114276302891,-0.999912669607,0.0,0.347097110282,-0.152255942659,0.304949020908,1.0,-0.366254285714,-0.48136277551,1.921
-0.288094959132,-0.502064770717,-0.146927207157,-2.62635757107,-0.0732788823714,2.11701884746,-0.552235187671,-1.52299766538,-0.432713350574,0.0332423468496,-0.335521304607,-0.0729024869176,-0.118615681994,-1.46129017202,0.574063786004,0.818778937566,0.0057068290996,0.0,0.818773002254,-0.57397638524,-0.0119426491156,0.0,-0.00650292961835,0.0115286619239,-0.999912397093,0.0,0.341326091301,-0.159840092917,0.304962344624,1.0,-0.350885142857,-0.461163330612,1.937
-0.313753312585,-0.508674860952,-0.146576665628,-2.63134652367,-0.0741612611542,2.11540687635,-0.576700463448,-1.49613726211,-0.363684565581,0.0413954630073,-0.270784707637,-0.0468255103396,-0.0926894622155,-1.43041160585,0.574108403066,0.818746543141,0.00586400240113,0.0,0.818743667458,-0.574022245384,-0.0117480084857,0.0,-0.00625269389493,0.0115459675184,-0.999913793511,0.0,0.335160840407,-0.16803892541,0.305027220633,1.0,-0.333594857143,-0.438438955102,1.955
-0.340051796513,-0.514474087655,-0.145994183135,-2.63580164223,-0.0748412971661,2.11379635183,-0.601772069849,-1.42895578148,-0.296177667426,0.0583799400302,-0.231704191715,-0.0364101964957,-0.105529032779,-1.38326563862,0.574135134297,0.818727203029,0.00594655251468,0.0,0.818724877951,-0.574047700402,-0.0118135002826,0.0,-0.0062585497445,0.0116513603779,-0.999912534353,0.0,0.329565177472,-0.17537583246,0.30502348915,1.0,-0.317265142857,-0.416977044898,1.972
-0.362510891645,-0.518662172719,-0.145392281118,-2.63914051544,-0.0752395537361,2.112622598,-0.623286524461,-1.37747183884,-0.239348830171,0.0489413510773,-0.198260140927,-0.0317862501611,-0.0678247773621,-1.33230335087,0.574107160285,0.81874632277,0.00601451261217,0.0,0.818743879087,-0.574017601024,-0.0119583056016,0.0,-0.00633850467277,0.0117899212502,-0.999910406544,0.0,0.324539133037,-0.181916700273,0.304965528199,1.0,-0.301896,-0.3967776,1.988
-0.385395529178,-0.522179479865,-0.144649602497,-2.64191520394,-0.0755212329281,2.11159469239,-0.645168176392,-1.3272340971,-0.186093862205,0.0377765687893,-0.148019467133,-0.0192612508508,-0.0579311237635,-1.2525085293,0.574111977378,0.818742710569,0.00604633955221,0.0,0.818740059035,-0.574021128768,-0.0120501601888,0.0,-0.00639537729193,0.0118687502059,-0.999909111829,0.0,0.319504799011,-0.188525500531,0.304929102783,1.0,-0.285566285714,-0.375315689796,2.005
-0.408452272528,-0.525082224211,-0.143728548256,-2.64416746301,-0.0756541479598,2.11071425014,-0.667338783706,-1.26908372575,-0.147438269952,0.0435811694112,-0.114157395824,-0.000350494153053,-0.0490231806305,-1.21073468764,0.573991222956,0.818827303761,0.00605553345235,0.0,0.818824574758,-0.573899994464,-0.0120772111259,0.0,-0.00641400309781,0.011890861724,-0.999908729821,0.0,0.31449984453,-0.195105687773,0.30491908846,1.0,-0.268276,-0.352591314286,2.023
-0.426775901606,-0.526868654867,-0.142953816389,-2.64559154462,-0.0757048451439,2.11016164503,-0.684951251902,-1.20249361874,-0.10670119787,0.0556724125138,-0.0905887305209,-0.000128310014862,-0.0405709829572,-1.15894881276,0.573917779004,0.818878979331,0.00602885187375,0.0,0.818875750788,-0.573826400623,-0.0121042810676,0.0,-0.00645255118719,0.0118839715146,-0.999908563722,0.0,0.310551449429,-0.200311450464,0.304899138995,1.0,-0.253867428572,-0.333654334694,2.038
-0.447650471055,-0.528458450748,-0.142037435079,-2.64688195984,-0.0756938280887,2.10961986242,-0.704968122319,-1.12868233996,-0.0698926083492,0.0502648445006,-0.0591499178523,0.00878722065718,-0.0206985780007,-1.07301008122,0.573899749565,0.818891916462,0.00598777950134,0.0,0.81888780868,-0.573807925205,-0.0121642373014,0.0,-0.00652548589962,0.011884601191,-0.99990808292,0.0,0.306053983398,-0.20620483097,0.304871947133,1.0,-0.236577142857,-0.310929959184,2.056
-0.467289686756,-0.529511683828,-0.141084836799,-2.64773673636,-0.0756478976674,2.10922653882,-0.723708094701,-1.06257092573,-0.0523270515578,0.0627540603859,-0.0394507641585,0.000562559305374,-0.0184731517144,-1.01399297678,0.573932181777,0.818869919795,0.0058866015428,0.0,0.818864473948,-0.573840763615,-0.0121859846348,0.0,-0.00660089142368,0.0118144850897,-0.999908418894,0.0,0.301844920728,-0.211717754738,0.30485988747,1.0,-0.219286857143,-0.288205583674,2.074
-0.47858262357,-0.529908835317,-0.140447146575,-2.64805931925,-0.0754886893003,2.10906526115,-0.734570710541,-1.00891127836,-0.0356721321992,0.0625881356633,-0.025771451001,0.0149984348635,-0.00954433245153,-0.964957602507,0.57388330465,0.818904253856,0.00587559035316,0.0,0.818898743508,-0.573792086434,-0.012175234183,0.0,-0.00659911086973,0.0117989043509,-0.99990861462,0.0,0.299456285948,-0.21485386793,0.304861562177,1.0,-0.208720571429,-0.274318465306,2.085
-0.499750025807,-0.530265288998,-0.139147630369,-2.6483175985,-0.0751180551193,2.10884803378,-0.754823308811,-0.91071556346,-0.00933668590595,0.0640125269191,-0.00623152499758,0.0245842192184,-0.00550373524418,-0.885761279922,0.573858323641,0.818922162,0.00581926746859,0.0,0.818916404849,-0.573768222956,-0.0121117750975,0.0,-0.00657981697604,0.0117161621205,-0.999909714701,0.0,0.295011457599,-0.220708889238,0.304890469291,1.0,-0.187588,-0.246544228572,2.107
-0.514737877964,-0.530296124465,-0.138123226548,-2.64834509271,-0.0746743792497,2.1087969206,-0.769113068288,-0.872721658588,-0.00033426866046,0.0577899950951,-0.00112378886656,0.0168085968334,-0.00297034760299,-0.823050797877,0.573872386574,0.818912091696,0.00584952169242,0.0,0.818907231466,-0.573783057121,-0.0120289864719,0.0,-0.00649445107161,0.0116935439262,-0.999910537566,0.0,0.292063870972,-0.224561000664,0.304914740697,1.0,-0.172218857143,-0.226344783674,2.123
-0.526826522427,-0.530130077269,-0.137095588362,-2.64827020794,-0.0742398572446,2.10879765412,-0.780727479874,-0.778609996985,0.0120928340438,0.0711341476961,0.00712963496062,0.035576348924,-0.00175233813757,-0.748440797411,0.573748343714,0.818999125907,0.00583238799688,0.0,0.818994155149,-0.5736593118,-0.0120131061192,0.0,-0.00649304473785,0.0116694160912,-0.999910828573,0.0,0.28938551856,-0.228033363423,0.304913045299,1.0,-0.156849714286,-0.206145338776,2.139
-0.539494035474,-0.529812490079,-0.136041411388,-2.64807443386,-0.0737016860621,2.10880648026,-0.792736092692,-0.72401837564,0.0184039985514,0.056414933267,0.0119811206864,0.0314692827038,0.00233839492891,-0.691210672122,0.573785267379,0.818972977554,0.00587161616571,0.0,0.818968456936,-0.573695958729,-0.0120150065841,0.0,-0.00647156784981,0.011702927514,-0.99991057615,0.0,0.286762141437,-0.231415774427,0.304914749058,1.0,-0.14052,-0.184683428572,2.156
-0.551478876074,-0.529281896909,-0.134826707747,-2.64776821274,-0.0730754907841,2.10887613511,-0.804106322383,-0.63239676405,0.0305880000336,0.0684151564541,0.0201086767552,0.0380348644434,0.00405677430268,-0.610795782025,0.573716624281,0.819021015862,0.00587856282743,0.0,0.819016292803,-0.573626771833,-0.0120575976542,0.0,-0.00650345007342,0.0117325088442,-0.999910022639,0.0,0.284330685715,-0.234557398583,0.304898026931,1.0,-0.123229714286,-0.161959053061,2.174
-0.560481176245,-0.528788387575,-0.133883117241,-2.64749638942,-0.0725701649384,2.10896641106,-0.812569824978,-0.582445352742,0.0362741136093,0.0616749402553,0.0198634028453,0.0348581821222,0.0056741581396,-0.547581415903,0.573723461701,0.819016143055,0.00589014516549,0.0,0.81901124783,-0.573632976702,-0.0121049935877,0.0,-0.00653552948464,0.0117692405613,-0.99990938181,0.0,0.28250526228,-0.236902643142,0.304873591914,1.0,-0.108821142857,-0.14302207347,2.189
-0.570179920348,-0.528192166092,-0.132827759334,-2.6470934773,-0.0719519698196,2.10907167189,-0.821402604486,-0.504519734495,0.0320670473908,0.0612948087432,0.026884152902,0.0365735342398,0.00506742280458,-0.4793950733,0.573974199766,0.818840129542,0.00593356177909,0.0,0.818835787728,-0.573883455332,-0.0121028646691,0.0,-0.00650526358375,0.0118055720906,-0.99990915088,0.0,0.280557719613,-0.23942292053,0.304875132466,1.0,-0.091530857143,-0.120297697959,2.207
-0.5777650587,-0.52757270729,-0.131711346244,-2.64674230846,-0.0713211870033,2.1091861527,-0.828511280922,-0.425481224976,0.0331503302362,0.0660413746659,0.0222866474137,0.0370720067584,0.00309094257443,-0.378204743642,0.573871762222,0.8189118649,0.00594179696258,0.0,0.818907096381,-0.573780036393,-0.0121813068096,0.0,-0.00656625861979,0.0118565159776,-0.99990814942,0.0,0.279016401951,-0.241414006199,0.304844111885,1.0,-0.0742405714287,-0.0975733224491,2.225
-0.584008988492,-0.527125145155,-0.130718372759,-2.64644341655,-0.07076357218,2.10925814358,-0.83409677444,-0.367306864685,0.0257305035547,0.0615071224914,0.0216937720769,0.0273490828657,0.00530796002262,-0.326858084142,0.573957787478,0.818851572282,0.00594202542381,0.0,0.818846791108,-0.5738660145,-0.0121851136777,0.0,-0.00656799949973,0.0118595776712,-0.999908101677,0.0,0.277909308143,-0.242837458631,0.304850125356,1.0,-0.0598320000001,-0.0786363428573,2.24
-0.589360312347,-0.526658917483,-0.129602441166,-2.64611384307,-0.0701031818829,2.1093964855,-0.838790243469,-0.286903395812,0.0270617469458,0.0631727617533,0.0162142590762,0.041408669146,0.00994501459566,-0.254964103182,0.574007913371,0.818816358128,0.00595264235878,0.0,0.818812154846,-0.573916879857,-0.0121168061881,0.0,-0.00650524243168,0.0118294663074,-0.999908868621,0.0,0.276979770804,-0.244088083409,0.304869225706,1.0,-0.0435022857144,-0.0571744326532,2.257
-0.593625025544,-0.526245045931,-0.128437116617,-2.64588907792,-0.0694034294004,2.10945426439,-0.842437381143,-0.208970765312,0.0237028201373,0.0698337326449,0.0123293349804,0.0398495436112,0.00119857473589,-0.182324416604,0.574001300329,0.81882083185,0.00597490172136,0.0,0.818816445528,-0.573909310773,-0.0121851730391,0.0,-0.00654854787508,0.0118868818183,-0.99990790504,0.0,0.276287070922,-0.244984227073,0.304853882067,1.0,-0.0262120000001,-0.034450057143,2.275
-0.596160769746,-0.526033205517,-0.127449571881,-2.64577154796,-0.0688424319489,2.10946822758,-0.844469411798,-0.153173336402,0.00927056873018,0.0566264948685,0.00862883830787,0.0361545083056,0.000985414277737,-0.112600028086,0.573961637539,0.818848701697,0.00596567370275,0.0,0.818843973915,-0.573869297168,-0.0122197812283,0.0,-0.00658276175747,0.0118988706962,-0.999907537787,0.0,0.275939825538,-0.24542777446,0.304855310484,1.0,-0.0198097560976,-0.0260356794425,2.29
-0.598408737305,-0.525876413966,-0.126634841205,-2.64560950526,-0.0684244189169,2.10950387846,-0.846331370137,-0.111339752831,0.0139292763454,0.044122634956,0.01266826934,0.0117392024132,0.00539119720475,-0.112324564773,0.57388853533,0.818900304027,0.00591506398719,0.0,0.818895472253,-0.573797438148,-0.0121429979578,0.0,-0.00654998226457,0.0118127738622,-0.999908773892,0.0,0.275630856326,-0.245860448715,0.304894522169,1.0,-0.0194497560976,-0.0255625365854,2.308
-0.600187236815,-0.525681548656,-0.126103462195,-2.64541011611,-0.0682170003798,2.10961246228,-0.847999757082,-0.0998226603671,0.0140370504926,0.0249909041664,0.0112908245977,0.00474307086524,0.00955844339658,-0.0939598355313,0.573701858607,0.819031801713,0.00581653807375,0.0,0.81902667327,-0.573612987752,-0.0120081495666,0.0,-0.00649873971277,0.0116532219139,-0.999910980438,0.0,0.275381135792,-0.246268109664,0.304935934849,1.0,-0.0191097560976,-0.0251156794425,2.325
-0.601584198908,-0.52547250679,-0.125915345021,-2.64525705987,-0.0680686280674,2.10967984607,-0.849330669777,-0.0888135788695,0.0177078566794,0.0103120334782,0.00819642448092,0.00592565674974,0.00129419592163,-0.0863208530467,0.57369438189,0.819036851777,0.00584281784618,0.0,0.819032200831,-0.573605650092,-0.0119816144971,0.0,-0.00646203490209,0.0116594653634,-0.999911145539,0.0,0.275131174588,-0.246637444342,0.304939275913,1.0,-0.0188097560976,-0.0247213937282,2.34
-0.603272789895,-0.525268694679,-0.125797460272,-2.64513752364,-0.0679800958155,2.1096692499,-0.850943100979,-0.0935694810441,0.010299542092,0.00377528895529,0.00397609189315,0.00262494544117,-0.000548433809707,-0.0822504143852,0.573717757126,0.819020317204,0.00586532743348,0.0,0.819015405855,-0.573627931053,-0.0120626941215,0.0,-0.00651520136291,0.0117246010796,-0.999910038894,0.0,0.274768379393,-0.247090383279,0.304920899724,1.0,-0.0184497560976,-0.0242482508711,2.358
-0.60479259305,-0.525129109897,-0.125741024153,-2.64502473905,-0.0679411076308,2.10968065682,-0.852317762116,-0.0922888908693,0.00580478284019,3.22956043401e-05,0.00575859091306,0.00305655778019,0.00172402623991,-0.0838688430986,0.573819318732,0.81894910556,0.00587357249437,0.0,0.818944263914,-0.573729369623,-0.0120685515003,0.0,-0.00651381382307,0.0117355224481,-0.999909919814,0.0,0.274433226898,-0.247517863267,0.304923358627,1.0,-0.0181097560976,-0.0238013937282,2.375
-0.606090706203,-0.52497849922,-0.125691252492,-2.64487640447,-0.0679035153502,2.10971177606,-0.853691746991,-0.0781723672653,0.00695703484759,0.00221557376105,0.00430387988488,1.95402068609e-05,0.00172917515136,-0.0849817232896,0.573745701389,0.819000644274,0.00587892145182,0.0,0.818996104007,-0.573656163234,-0.0120305821366,0.0,-0.00648069977043,0.0117175341497,-0.999910345943,0.0,0.274162394142,-0.247896973843,0.304939451573,1.0,-0.0177897560976,-0.0233808222997,2.391
-0.607446991671,-0.524840656744,-0.125684481203,-2.64474241039,-0.0678691227012,2.10975241362,-0.855010232912,-0.0843027609062,0.00537117632124,-0.0024024713794,0.00578839826081,-0.000113563318142,0.000360545236663,-0.0785198915763,0.57379347099,0.818967002597,0.00590323702858,0.0,0.818963045508,-0.573704307581,-0.0119851765192,0.0,-0.00642887535334,0.0117117744986,-0.999910747967,0.0,0.273865854685,-0.248299695717,0.304953485085,1.0,-0.0174497560976,-0.0229339651568,2.408
-0.608826696376,-0.524732079252,-0.125684714012,-2.64462169965,-0.0678485617878,2.10975094056,-0.856348154317,-0.0775977885669,0.00203956672076,-0.000343715745928,0.00533218614221,0.000578341843488,-0.000679178890322,-0.0760688188852,0.573842813434,0.818932280385,0.0059238934609,0.0,0.818928691517,-0.573753737985,-0.0119663385714,0.0,-0.00640088815449,0.011718269326,-0.999910851424,0.0,0.273550866093,-0.248703068521,0.304968432157,1.0,-0.0171097560976,-0.0224871080139,2.425
-0.610070022846,-0.524614705831,-0.125687498036,-2.64451259239,-0.0678329987775,2.10975939672,-0.85755074839,-0.0800947808635,0.00797882642019,-0.000376481332157,0.00779452473385,-0.000383221691994,0.000726148131736,-0.0771459457746,0.573890460157,0.818898771393,0.00594044213966,0.0,0.818895428816,-0.573801365076,-0.011958971576,0.0,-0.00638467624661,0.0117279664138,-0.999910841382,0.0,0.273266950617,-0.249068198062,0.3049756596,1.0,-0.0167897560976,-0.0220665365854,2.441
-0.61140590357,-0.524454638304,-0.125681540988,-2.64440954532,-0.0678035098614,2.10979289766,-0.858863530296,-0.0741576874785,0.0078568472085,-1.3137960318e-05,0.00393646398043,0.00152150840834,0.000447317696132,-0.0721218634595,0.573923325086,0.81887556298,0.00596457685735,0.0,0.818872412599,-0.573833901434,-0.0119738193896,0.0,-0.00638251456843,0.0117565080286,-0.99991052001,0.0,0.272964142729,-0.249456017529,0.304966828342,1.0,-0.0164297560976,-0.0215933937282,2.459
-0.612703794083,-0.524283119711,-0.125633306451,-2.64432053724,-0.0677767784123,2.10981990913,-0.860236978951,-0.0727480128725,0.0122374758987,0.00943584475541,0.00419453743963,0.00265015306394,0.00597967774411,-0.0742211396502,0.573843727965,0.818931319123,0.00596802612802,0.0,0.81892790302,-0.573753735291,-0.0120203076514,0.0,-0.00641975271811,0.0117853881814,-0.999909941645,0.0,0.272674174987,-0.249819373494,0.30494785972,1.0,-0.0160697560976,-0.0211202508711,2.477
-0.613749019362,-0.52412536498,-0.125543813212,-2.6442186275,-0.0677522479646,2.10983895397,-0.861311891019,-0.0698896339934,0.012285008663,0.00494669495396,0.00783749540661,0.000346558785824,0.00335129535119,-0.0718123565731,0.573772107738,0.818981670443,0.00594464141683,0.0,0.818977778591,-0.573681914067,-0.0120501679261,0.0,-0.00645865774,0.0117828063272,-0.999909721533,0.0,0.272457430021,-0.250106886424,0.304940095042,1.0,-0.0157697560976,-0.0207259651568,2.492
-0.614938063879,-0.523928105595,-0.125441973093,-2.6440992032,-0.0677288411268,2.10988187438,-0.862574068976,-0.0614727474433,0.00893937690669,0.00689674734909,0.00684978601077,0.000593461623014,0.0017255549933,-0.0690513775055,0.573656673536,0.819062760876,0.00591282970063,0.0,0.819058305093,-0.57356636572,-0.0120774117812,0.0,-0.00650088315738,0.0117714667774,-0.999909581456,0.0,0.272214010086,-0.250437634235,0.304928121501,1.0,-0.0154097560976,-0.0202528222997,2.51
-0.615995924042,-0.523752741609,-0.125375653862,-2.64399243159,-0.0677054792385,2.10989703391,-0.863700907564,-0.0658785865069,0.0131565103346,0.00437096533455,0.00250317963058,8.78046732901e-06,-0.000132362845047,-0.0600940288994,0.573569046952,0.819124213368,0.00590070792259,0.0,0.81911930252,-0.573478272387,-0.0121237881972,0.0,-0.00654708673645,0.0117874403444,-0.999909091821,0.0,0.271988634185,-0.250733896399,0.304915203189,1.0,-0.0150897560976,-0.0198322508711,2.526
-0.617066773483,-0.523603938681,-0.125350254356,-2.64390491136,-0.0676812524296,2.10991998387,-0.864706439004,-0.0666632332846,0.00651912899746,0.00129295780151,0.00206786878565,0.00318033923477,0.00681049892127,-0.0594649875636,0.573619705843,0.819088672618,0.00590985266653,0.0,0.819083667354,-0.57352849675,-0.0121555004204,0.0,-0.00656709022532,0.0118135258181,-0.999908652795,0.0,0.271748496204,-0.251039250608,0.304902964969,1.0,-0.0147697560976,-0.0194116794425,2.542
-0.618273093535,-0.523455190555,-0.125352720349,-2.64380631975,-0.0676537041363,2.10994342904,-0.865917455302,-0.0751881198302,0.00770887391928,-0.000678439727988,0.0088874134381,0.000456290845185,0.000541118637222,-0.0694261359482,0.573634667121,0.819077998459,0.00593700428749,0.0,0.819073193634,-0.57354305904,-0.0121741446437,0.0,-0.00656657285398,0.0118465805559,-0.999908265117,0.0,0.271471120797,-0.251389867347,0.304895154868,1.0,-0.0144097560976,-0.0189385365854,2.56
-0.619424322824,-0.523343100943,-0.125360910262,-2.64371713407,-0.0676264849093,2.10995858723,-0.867038529681,-0.0658080907877,0.00476049231883,0.00116907413051,0.00907084976001,0.00210716343428,0.00569719600837,-0.0590353906537,0.573681470335,0.819044999102,0.00596715518106,0.0,0.819040556717,-0.573589663578,-0.0121742018466,0.0,-0.00654864668943,0.0118716846837,-0.99990808494,0.0,0.271203197624,-0.251723684404,0.304895672848,1.0,-0.0140697560976,-0.0184916794425,2.577
-0.620465089629,-0.523276848907,-0.125365384741,-2.64361580132,-0.0676040922871,2.10996665156,-0.868037298062,-0.0666085451898,0.00694969916368,-0.000733012092785,0.010919314731,0.00292109119206,0.000748487637502,-0.0605664148073,0.573733632859,0.819008304087,0.00598859458138,0.0,0.819004446225,-0.573642276024,-0.0121244844292,0.0,-0.00649486745075,0.0118611384506,-0.999908560865,0.0,0.27096584117,-0.252029781209,0.304918009057,1.0,-0.0137497560976,-0.0180711080139,2.593
-0.621523362787,-0.523153115344,-0.125343991661,-2.64348714652,-0.0675774632234,2.11001252605,-0.869076596197,-0.0595988734902,0.0115703667197,0.00104035595466,0.0102403081164,0.000603508310241,0.000115802141232,-0.0582783242554,0.573751970028,0.818995409123,0.00599530034885,0.0,0.818992004251,-0.573661250074,-0.0120670641509,0.0,-0.00644372271012,0.0118338327158,-0.9999092153,0.0,0.270740813798,-0.25234520301,0.304935508405,1.0,-0.0134097560976,-0.0176242508711,2.61
-0.622397180461,-0.523013924469,-0.125306784184,-2.64335719107,-0.0675575785517,2.11006827701,-0.870010314517,-0.060512204308,0.0070212787939,-0.000288567896394,0.00700498691475,6.75467784065e-05,0.00507270916071,-0.0594346479745,0.573691766565,0.819037648333,0.00598619159619,0.0,0.819034462729,-0.573601718677,-0.0120151610203,0.0,-0.00640730279897,0.011796123281,-0.999909894914,0.0,0.270566327548,-0.252609114755,0.304949134124,1.0,-0.0131097560976,-0.0172299651568,2.625
-0.623342593474,-0.522849613397,-0.125250631725,-2.64320855907,-0.0675313830663,2.11008264764,-0.870976336024,-0.0537785088284,0.0053420442517,0.00270911758258,0.011366277683,0.00379656588996,-0.000603369337637,-0.0606430376584,0.573654030979,0.819064161389,0.00597487827873,0.0,0.819060867454,-0.573564109475,-0.0120106048975,0.0,-0.00641060371293,0.0117839477773,-0.999910017319,0.0,0.270375164823,-0.252886025433,0.304958940402,1.0,-0.0127697560976,-0.0167831080139,2.642
-0.624290746667,-0.522697328516,-0.125194191703,-2.64312426105,-0.0675099980337,2.11009690228,-0.871910925177,-0.0550686445433,0.00691921864958,0.00899284083772,0.00540365603343,0.000630048617083,-0.00040459611408,-0.055830728012,0.573638963148,0.819074774458,0.00596663275431,0.0,0.819071073938,-0.573548530637,-0.0120584303559,0.0,-0.0064547269485,0.0118045090578,-0.999909490937,0.0,0.270167762026,-0.2531480383,0.304943908292,1.0,-0.0124297560976,-0.0163362508711,2.659
-0.625160953741,-0.522571488058,-0.125153234013,-2.64307992895,-0.0674884818816,2.11011012255,-0.872842087,-0.0536248524472,0.00678293194129,0.00385272999682,0.00416984344728,-0.000188610467622,0.000905496862844,-0.0655975036005,0.573574396189,0.819119950069,0.00597212996998,0.0,0.819115861878,-0.57348311548,-0.0121271588017,0.0,-0.00650880732558,0.011847922284,-0.999908626908,0.0,0.269954975988,-0.253397621688,0.304917385218,1.0,-0.0120897560976,-0.0158893937282,2.676
-0.626180367767,-0.5224239866,-0.125138265976,-2.64303133786,-0.0674644678388,2.11012337443,-0.873843199912,-0.0529915840203,0.0114295119018,0.000257921323781,-0.000396508618563,-2.72812186114e-05,0.000303165951828,-0.0522021757413,0.573589482106,0.819109248283,0.0059910180184,0.0,0.819104917443,-0.573497225893,-0.0121988939897,0.0,-0.00655652090532,0.0119046588068,-0.999907641301,0.0,0.269724655532,-0.253663379124,0.304889381839,1.0,-0.0117297560976,-0.0154162508711,2.694
-0.627081754846,-0.522315846459,-0.125137607653,-2.64296712543,-0.0674442058114,2.11013613913,-0.874729842262,-0.0594203328502,0.00971223198853,0.00134179460815,0.00231440279983,0.000161350280361,-9.88851969199e-05,-0.0555162521281,0.573613242493,0.819092460532,0.00601132573242,0.0,0.819088210285,-0.573520554629,-0.012223914713,0.0,-0.00656502390859,0.0119358351919,-0.999907213845,0.0,0.269512505502,-0.253920245389,0.304879967774,1.0,-0.0113897560976,-0.0149693937282,2.711
-0.628004762569,-0.522187237545,-0.1251334207,-2.6428695709,-0.0674304302689,2.11014824045,-0.875667767355,-0.0514731844378,0.00823762226318,0.00108151676167,0.0115744973594,0.000246791715592,0.00110060309697,-0.0535641533681,0.573609094939,0.819095291903,0.00602128611641,0.0,0.819091072734,-0.573516182694,-0.012237224232,0.0,-0.00657027422413,0.0119515949258,-0.999906991112,0.0,0.269302060476,-0.254190597247,0.304878206536,1.0,-0.0110297560976,-0.0144962508711,2.729
-0.628814754076,-0.522063370043,-0.125117724628,-2.64276470326,-0.0674188946695,2.11016715577,-0.876473452405,-0.0490681792503,0.00680078536379,-0.000169053266946,0.0052194584821,0.0024207713167,0.000253789132297,-0.0533225964027,0.573611899009,0.81909333478,0.00602039322634,0.0,0.819089134134,-0.573519045147,-0.0122328287088,0.0,-0.00656714472419,0.0119483648239,-0.999907050274,0.0,0.269125274801,-0.254430891885,0.304882357224,1.0,-0.0107097560976,-0.0140756794425,2.745
-0.629558140424,-0.52194907406,-0.125102075996,-2.64266037395,-0.0674113566622,2.11020309148,-0.877163924788,-0.0474870095856,0.00857531136698,0.000965991138632,0.00873094162405,7.8582093994e-05,6.06405776681e-05,-0.0478472768721,0.57365276096,0.819064771503,0.00601305473551,0.0,0.819060680501,-0.573560305694,-0.0122034540141,0.0,-0.00654669580554,0.0119258314012,-0.999907453377,0.0,0.268967714521,-0.254655930394,0.304891222861,1.0,-0.0104097560976,-0.0136813937282,2.76
-0.630436958146,-0.521819428068,-0.125091114151,-2.64253955668,-0.0674029717402,2.11024385592,-0.877969507845,-0.0469697205888,0.0050367410985,0.00316731239458,0.00517869174375,0.000585849889869,0.00113723067346,-0.0427188258439,0.57371478131,0.819021368402,0.00600788714773,0.0,0.819017457649,-0.573622787745,-0.0121675119397,0.0,-0.00651931682183,0.0119014750494,-0.999907922461,0.0,0.268778820308,-0.254922790496,0.304902239198,1.0,-0.0100497560976,-0.0132082508711,2.778
-0.631226636519,-0.52169972685,-0.125092217558,-2.64242805221,-0.0673919629886,2.11029715162,-0.87874480251,-0.0463635127704,0.0100179043086,-0.000249303306228,0.00514613358078,0.000660113803332,0.00300916444692,-0.0430162403164,0.573737772276,0.819005244875,0.00601036050756,0.0,0.819001686287,-0.573646348305,-0.0121182439758,0.0,-0.006477208724,0.011875418332,-0.999908505918,0.0,0.268610134373,-0.255167511944,0.304913458235,1.0,-0.00970975609756,-0.0127613937282,2.795
-0.631923844138,-0.521581818676,-0.125088572238,-2.64233516506,-0.0673889323599,2.11031699747,-0.87949043659,-0.0420807965743,0.0105903742912,-0.000198376364526,0.00690769566173,0.000333344791894,0.000688783924906,-0.0408774582006,0.57370170082,0.819030524453,0.0060087762382,0.0,0.819026933229,-0.573610269317,-0.0121197557736,0.0,-0.00647987892899,0.0118747027005,-0.999908497116,0.0,0.268455465044,-0.255377810359,0.304914124546,1.0,-0.00938975609756,-0.0123408222997,2.811
-0.632650192532,-0.521490227471,-0.125071527419,-2.6422691938,-0.0673789750401,2.11033200901,-0.880185458815,-0.0425796598997,0.00584648236254,9.68164672176e-06,0.00706831258841,0.000964574089887,0.00341207148142,-0.0470914557552,0.573723032059,0.819015579454,0.00600915948571,0.0,0.819011952599,-0.573631519988,-0.0121263216938,0.0,-0.0064847279502,0.0118789522004,-0.999908415205,0.0,0.268290177119,-0.255585134098,0.304912135995,1.0,-0.00904975609756,-0.0118939651568,2.828
-0.633281822522,-0.521432124511,-0.125052153557,-2.64223538599,-0.0673713583894,2.11034578285,-0.880787425315,-0.0391935559487,0.00244567970514,0.00314504569452,0.00259744660208,0.000521168806794,0.000810165348144,-0.040266513618,0.573733136453,0.819008496815,0.00600975726894,0.0,0.819004777506,-0.573641436113,-0.012141832573,0.0,-0.00649694334005,0.0118884204882,-0.999908223381,0.0,0.268132386199,-0.255768757909,0.304903917949,1.0,-0.00872975609756,-0.0114733937282,2.844
-0.634102296696,-0.521331659862,-0.125034669304,-2.64219100413,-0.0673590270873,2.11035329446,-0.881610252995,-0.0355394138119,0.00112980616644,-0.00155558492461,0.00676116245527,0.000479610844934,-0.00116626066416,-0.0406674691541,0.573732186137,0.819009114117,0.00601635144922,0.0,0.819005247111,-0.573640029544,-0.0121765598475,0.0,-0.00652161903198,0.0119137370827,-0.999907761423,0.0,0.267946473907,-0.255984307523,0.304892092407,1.0,-0.00832975609757,-0.0109476794425,2.864
-0.634598067847,-0.521271105927,-0.125010818343,-2.64216686228,-0.0673553740535,2.11036600626,-0.882099251201,-0.0399790208739,0.00287228470747,0.00101638109295,0.00665388353917,0.000794220664707,-0.000289754914951,-0.0357565585532,0.573723801949,0.819015029933,0.00601055085369,0.0,0.819010955387,-0.573631432486,-0.0121976031115,0.0,-0.00654230534086,0.0119209917449,-0.999907539824,0.0,0.267831256022,-0.256118318239,0.304882458039,1.0,-0.00806975609757,-0.0106059651568,2.877
-0.635226562037,-0.521198180252,-0.125002610164,-2.64211839445,-0.0673472763917,2.110380965,-0.882738066317,-0.0381632279658,0.0108985359773,0.000847665504755,0.00810117544023,-0.000406135135279,0.00326329833455,-0.0218544795354,0.573715582803,0.819020754565,0.006015026282,0.0,0.819016695328,-0.573623116427,-0.0122032772988,0.0,-0.00654450526214,0.0119278469434,-0.999907443676,0.0,0.267684758394,-0.256297064,0.304879153544,1.0,-0.00772975609757,-0.0101591080139,2.894
-0.635825303764,-0.521103463787,-0.124995174182,-2.64203285553,-0.0673401635462,2.11039374551,-0.88330487185,-0.0372010486862,0.00324948968523,-0.00114844328427,0.00589363659036,-0.000110978685933,-0.000149744074783,-0.0250300897941,0.573743926648,0.81900090667,0.00601401775473,0.0,0.8189968814,-0.573651544748,-0.0121967358817,0.0,-0.0065393130724,0.0119234944871,-0.999907529556,0.0,0.2675533222,-0.256476759436,0.304884477377,1.0,-0.00738975609757,-0.00971225087109,2.911
-0.636395706712,-0.52100327685,-0.124973583436,-2.64194146034,-0.0673263162331,2.11041866208,-0.883845877947,-0.0389780244899,0.00488101594664,0.000530524614104,-0.000223856218401,0.00376787474174,0.00244213740697,-0.0320615752991,0.573763321299,0.818987352595,0.00600951927469,0.0,0.818983401014,-0.573671196908,-0.0121775860788,0.0,-0.00652592651287,0.0119089780528,-0.999907790011,0.0,0.267435852873,-0.256648063619,0.304891822663,1.0,-0.00704975609757,-0.00926539372823,2.928
-0.63701364385,-0.520913730713,-0.124953635761,-2.64183374978,-0.067319298365,2.11044993159,-0.884426900494,-0.0304365931331,0.00550468228807,0.00293079437529,0.00270809548721,0.000348499559694,0.00066230818371,-0.0270182967906,0.573787823955,0.818970274634,0.00599743674056,0.0,0.818966520184,-0.57369639565,-0.0121256479305,0.0,-0.00648996232645,0.0118694775618,-0.999908493759,0.0,0.267310171469,-0.256838276064,0.304910989236,1.0,-0.00666975609757,-0.0087659651568,2.947
-0.637505030163,-0.520830620272,-0.124932403217,-2.6417594174,-0.0673119931878,2.11047076591,-0.884913211589,-0.0244203678444,0.00289149742202,0.00544046396393,0.00360914744806,-0.000178171376011,0.00127362070023,-0.0308623669343,0.573783887275,0.818973093707,0.00598910581698,0.0,0.818969333422,-0.573692683884,-0.0121112457343,0.0,-0.00648300301533,0.011854359889,-0.999908718246,0.0,0.267207891952,-0.256984504133,0.304916492998,1.0,-0.00634975609757,-0.00834539372823,2.963
-0.637994352739,-0.52075682501,-0.124918170689,-2.64169065427,-0.0673037247712,2.11048273712,-0.885405804345,-0.0235412292705,0.00569950935242,-0.00146694200921,0.00159919241251,-0.000251169599364,0.00188859241019,-0.0314032673486,0.57377818775,0.818977105727,0.00598652305702,0.0,0.818973376335,-0.573687114758,-0.0121016575657,0.0,-0.00647671404446,0.011846698233,-0.999908849804,0.0,0.267102144265,-0.257129102888,0.304921968097,1.0,-0.00600975609757,-0.00789853658537,2.98
-0.638417058455,-0.520690627059,-0.124900011347,-2.64165111436,-0.0672920490982,2.11049072205,-0.885831164051,-0.0312253322127,0.00711852486634,0.000703998888189,0.00161922063415,-0.000335173229344,-0.00149626307594,-0.0300075574724,0.573770272187,0.818982639117,0.00598819521177,0.0,0.818978825848,-0.573679000422,-0.0121175157848,0.0,-0.0064888581442,0.0118571036995,-0.999908647733,0.0,0.267007341345,-0.257246817672,0.304916710937,1.0,-0.00570975609757,-0.00750425087109,2.995
-0.638885500396,-0.520638169649,-0.124888283586,-2.64162744644,-0.0672812032998,2.11050990265,-0.886265833861,-0.022041595364,0.00526966711609,-0.000333124024455,0.00134392170316,0.000702401981314,0.00246896910565,-0.0365106766049,0.573795582881,0.81896487001,0.00599313410619,0.0,0.818961075277,-0.573704200595,-0.0121241206815,0.0,-0.00649106767963,0.0118651388859,-0.999908538077,0.0,0.266897670513,-0.257375958418,0.304910096138,1.0,-0.00536975609757,-0.00705739372823,3.012
-0.639371976823,-0.520565005024,-0.124874056262,-2.64160139168,-0.0672713804546,2.11051529817,-0.886708692044,-0.0268720255445,0.00288373082859,0.00295743740033,0.00161646189991,0.00035516393231,0.00102013369065,-0.0254321635371,0.573826967984,0.818942846008,0.0059977235181,0.0,0.818938857359,-0.573735095664,-0.0121628455455,0.0,-0.00651969639454,0.0118913665718,-0.999908040252,0.0,0.266781625456,-0.257507766944,0.304895832416,1.0,-0.00498975609757,-0.0065579651568,3.031
-0.639703417999,-0.520536887232,-0.124874542738,-2.64157983778,-0.0672616718666,2.11051883599,-0.887031197315,-0.0236782750113,0.000930453717094,-0.000628049995817,1.94912803974e-05,0.000120022960887,-0.000763035796732,-0.0252456592411,0.573839903654,0.818933709416,0.00600761664535,0.0,0.818929836525,-0.57374796062,-0.0121633644926,0.0,-0.00651425682412,0.0118998695352,-0.999907974547,0.0,0.266701953387,-0.257600783316,0.304895582471,1.0,-0.00470975609757,-0.0061899651568,3.045
-0.640137401751,-0.520505963387,-0.124871250286,-2.64155516692,-0.0672507878001,2.11053036402,-0.887436230295,-0.0208961676593,-0.000685626033073,0.000330028250984,2.41077971126e-05,-0.000554196229846,0.000562109912032,-0.0243242495754,0.573867205817,0.818914512659,0.00601647287753,0.0,0.818910801946,-0.573775303231,-0.0121551124727,0.0,-0.00650201964122,0.0119026042221,-0.999908021647,0.0,0.266598676641,-0.257722015353,0.304896488271,1.0,-0.00432975609757,-0.00569053658537,3.064
-0.640475264618,-0.520490612857,-0.124862669981,-2.64152011235,-0.0672391439264,2.11052700023,-0.887754319247,-0.0170923574505,0.00132091068879,0.000633075863502,0.00524286617813,0.000363016617903,-0.000904836931616,-0.0206356054829,0.573883984131,0.818902714648,0.00602192668158,0.0,0.818899192388,-0.573792269057,-0.0121363741463,0.0,-0.00648329958326,0.0118964506877,-0.999908216432,0.0,0.266521717106,-0.257817183231,0.304906693917,1.0,-0.00398975609757,-0.00524367944251,3.081
-0.640766514707,-0.520486695893,-0.124848614038,-2.64146710537,-0.0672247690096,2.11053339618,-0.888048612789,-0.0168684822624,-0.00249132116118,0.00292157423417,0.00140312467041,0.00423372603505,3.18267308754e-06,-0.0183518683142,0.573880130127,0.818905408559,0.00602287129396,0.0,0.818902269381,-0.573789093681,-0.0120787448526,0.0,-0.00643561553284,0.0118641230597,-0.99990890857,0.0,0.266464146247,-0.257904535721,0.304930225851,1.0,-0.00366975609757,-0.00482310801394,3.097
-0.641051724944,-0.520453072179,-0.124817729176,-2.64140173943,-0.0672065946137,2.11054767677,-0.888332537582,-0.0131421344141,0.00191847489289,0.00306897562757,-0.000241309316057,0.00128109514065,0.0039581832562,-0.0224050239963,0.573870223898,0.818912394636,0.00601688762334,0.0,0.818909491589,-0.573779794727,-0.0120307377097,0.0,-0.00639987489908,0.0118315963226,-0.999909523372,0.0,0.266415524057,-0.257989915534,0.304949520886,1.0,-0.00332975609757,-0.00437625087109,3.114
-0.64128390038,-0.520417369814,-0.124770087091,-2.64133902601,-0.0671906555223,2.11055517564,-0.888559613405,-0.0166476241067,0.003923000443,0.00541731545102,0.00335786522697,0.000555185798922,-0.000101856671137,-0.0180503058082,0.573850501774,0.818926330802,0.00600110271113,0.0,0.818923467703,-0.573760596261,-0.0119949624264,0.0,-0.00637991713139,0.0117979861972,-0.999910048044,0.0,0.266382233043,-0.258056050824,0.304966660995,1.0,-0.00302975609757,-0.0039819651568,3.129
-0.641513245534,-0.520362183717,-0.124715532485,-2.64129227428,-0.0671706353202,2.11058033513,-0.88880028068,-0.0153954196027,0.00125513642271,0.00509232481148,0.000530382842581,0.00078805526511,0.00236157408963,-0.0154167698806,0.573813512281,0.818952356566,0.00598645980173,0.0,0.818949434211,-0.573723917263,-0.0119765548943,0.0,-0.00637377540118,0.0117751436045,-0.999910356472,0.0,0.266350189241,-0.258117556357,0.304971052942,1.0,-0.00268975609757,-0.00353510801394,3.146
-0.641728933598,-0.520327028988,-0.124663043709,-2.64128271109,-0.0671454443716,2.11059772503,-0.88903994657,-0.0093058238682,0.000205260392658,0.00514177791414,-0.000899740354386,-0.000214194228162,0.000615676248561,-0.0121843627907,0.57376801196,0.818984263951,0.00598253736832,0.0,0.818981254741,-0.573678376232,-0.0119821504014,0.0,-0.00638126316294,0.0117747872764,-0.999910312911,0.0,0.266312263062,-0.258165142694,0.304965204168,1.0,-0.00230975609757,-0.00303567944251,3.165
-0.641905404745,-0.520286478705,-0.124618223877,-2.64128796191,-0.0671206682793,2.11059580367,-0.889218791757,-0.0115779839117,0.00215254938041,0.00187225389399,-0.0010691835795,0.002441188042,0.000204327857455,-0.0039180495648,0.573744815605,0.819000492336,0.00598556766366,0.0,0.818997227556,-0.573654628615,-0.012027270072,0.0,-0.00641681505886,0.0118029744154,-0.999909753067,0.0,0.266276130093,-0.258197466255,0.304948808762,1.0,-0.00198975609757,-0.00261510801394,3.181
-0.642064595567,-0.520268114662,-0.124583750518,-2.64128796232,-0.06709777642,2.11060183741,-0.88939911814,-0.00851810105509,0.00128130139002,0.00694986942067,0.000360034583718,0.000833482181231,-0.000318907788686,-0.0131262573663,0.573712914762,0.819022807362,0.0059899379402,0.0,0.819019527503,-0.573622583662,-0.0120371086014,0.0,-0.0064228264613,0.0118119482192,-0.999909608504,0.0,0.266245039725,-0.25823046507,0.304943394436,1.0,-0.00164975609757,-0.00216825087109,3.198
-0.642240931089,-0.520264790297,-0.124568752289,-2.64128722061,-0.0670779562732,2.11060489874,-0.889541346337,-0.00839314046403,-0.00115744912846,0.00113144004824,-0.000657649493541,0.00247341530167,0.000874223591499,-0.00203842265922,0.573738717871,0.819004653543,0.00600066589445,0.0,0.819001521139,-0.573648350663,-0.0120343281361,0.0,-0.00641402214233,0.0118193420496,-0.999909577649,0.0,0.266205079332,-0.258272647345,0.304943135567,1.0,-0.00130975609757,-0.00172139372823,3.215
-0.642368590082,-0.520261922639,-0.124555974852,-2.64127150635,-0.067059177177,2.1106081894,-0.889618871073,-0.00999217931282,0.000891158077356,0.00451612147278,0.000967388734355,-0.00015499565891,0.000801068642098,-0.00418248579818,0.57377946542,0.818976048021,0.00600872123114,0.0,0.818973129447,-0.573689257094,-0.0120165069819,0.0,-0.00639421568836,0.0118160336782,-0.999909743604,0.0,0.266180629934,-0.258306312127,0.304949815003,1.0,-0.00102975609757,-0.00135339372823,3.229
-0.642499008957,-0.520256573302,-0.12455129188,-2.64127254224,-0.067036125546,2.11061377373,-0.889706138025,-0.00573009099528,0.00114403352204,-0.000966399467806,-0.000173749079036,0.000429041886129,0.000126194123094,-0.00305674008068,0.573821288949,0.818946612544,0.00602669503306,0.0,0.818943921454,-0.57373098483,-0.0120148849285,0.0,-0.00638197050841,0.0118301497871,-0.999909654923,0.0,0.266150525275,-0.258338065354,0.304947977982,1.0,-0.000649756097566,-0.000853965156801,3.248
-0.642563141867,-0.520253043705,-0.124547020864,-2.64127253194,-0.0670211944218,2.11060884072,-0.889742839628,-0.000911723541714,-0.000104200320035,0.000363877784362,0.00190903890408,0.000429241936993,0.000472315194721,-0.00116881448497,0.573847113127,0.818928432044,0.00603828172639,0.0,0.818925836409,-0.573756652339,-0.0120218659104,0.0,-0.00638066633865,0.0118438459911,-0.99990950111,0.0,0.266135340355,-0.258351928448,0.304946373315,1.0,-0.000349756097566,-0.000459679442515,3.263
-0.642571513911,-0.520232842277,-0.124538887822,-2.64127309788,-0.0670010454975,2.11061280717,-0.889769522629,0.00108813266113,0.00150642505552,0.000786461521338,5.91479732859e-05,0.000373516243481,0.000315712013331,-0.0015533922418,0.57383669113,0.818935630406,0.00605244288222,0.0,0.818933123388,-0.573745994955,-0.012034101273,0.0,-0.006382712336,0.0118623831965,-0.999909268308,0.0,0.266135933217,-0.25835196635,0.304940290677,1.0,1.0243902434e-05,1.34634146276e-05,3.281
-0.642560855067,-0.52023189711,-0.124515140665,-2.64126670928,-0.0669863099602,2.11061296431,-0.889774920095,0.000532210587948,-0.000672645155998,0.000568641219412,-0.000110332193723,-9.11140096005e-05,-0.000184410163227,0.000725929939486,0.57381161361,0.818953206691,0.00605179631242,0.0,0.818950712588,-0.573720965058,-0.0120304407428,0.0,-0.00638044844689,0.0118595578508,-0.999909316271,0.0,0.266147437387,-0.258342452863,0.3049423644,1.0,0.0,0.0,3.297
-0.642558349413,-0.520234561986,-0.124468001211,-2.64127978674,-0.0669753924308,2.11060296953,-0.889783507815,0.00107735217737,-0.00141057929247,7.4770008457e-05,-0.00128633307045,-0.000427129661173,8.73425519232e-05,0.000326152907212,0.573773160608,0.818980231411,0.0060404987396,0.0,0.818977471551,-0.57368234783,-0.0120503850868,0.0,-0.00640382296141,0.0118614482921,-0.999909144421,0.0,0.266154663567,-0.258325637578,0.304937665234,1.0,0.0,0.0,3.314
-0.642557728141,-0.520228138923,-0.12444523122,-2.64128841157,-0.066962808041,2.11060108825,-0.889790612513,-0.000762199255836,-0.00144329372627,-0.000524713300931,0.000620758250552,6.21348044098e-06,0.00177380455766,-0.000806494516564,0.5737556934,0.818992461,0.00604152445653,0.0,0.81898960853,-0.573664683727,-0.0120664272365,0.0,-0.00641662726124,0.0118713556359,-0.999908944759,0.0,0.266158411733,-0.258316618205,0.304931766254,1.0,0.0,0.0,3.333
-0.642555143521,-0.520218971621,-0.124436675655,-2.64127254212,-0.0669521027691,2.11060609775,-0.889793965807,0.000302255125891,0.00410682527181,0.00127803221883,0.0012566521777,0.0015354445064,-0.00177045504213,-0.000670431316465,0.573750103385,0.818996359283,0.00604394303511,0.0,0.818993613846,-0.573659224381,-0.0120541139798,0.0,-0.00640523511077,0.011866228352,-0.999909078661,0.0,0.266166144452,-0.258317538888,0.304936240455,1.0,0.0,0.0,3.349
-0.642560766382,-0.520230212956,-0.124433718062,-2.64127198832,-0.0669487709463,2.1106108085,-0.889789680867,4.24267234557e-05,0.000402146085926,8.15428725297e-07,-0.00312975437006,-0.00060844581479,-0.000273444772324,0.00113070444429,0.573757510013,0.818991167701,0.00604432235491,0.0,0.818988534329,-0.57366682645,-0.0120374320018,0.0,-0.0063912463192,0.0118570260033,-0.999909277337,0.0,0.266166757342,-0.258319030326,0.304941101256,1.0,0.0,0.0,3.366
-0.642552625151,-0.520227468884,-0.124425274655,-2.64127978368,-0.0669402807046,2.11059863377,-0.889794868558,-0.000252639327794,-0.000967800030648,0.0012518145392,0.00098538029437,0.000145487137267,-0.000796497187088,0.000737827543782,0.573743890785,0.819000668131,0.00604981723121,0.0,0.818997958162,-0.57365291196,-0.0120593543569,0.0,-0.0064062473441,0.0118739974599,-0.999908979947,0.0,0.266167627613,-0.258310417765,0.304935714534,1.0,0.0,0.0,3.383
-0.642552599108,-0.520214783422,-0.124424216516,-2.64128537993,-0.0669355870783,2.11060538824,-0.889801073903,0.000154170760502,0.00164678480914,-0.000963733409186,0.000203145685327,3.39591498628e-05,0.00176117839889,-0.00179090927281,0.573739837548,0.819003478048,0.00605381349007,0.0,0.819000744164,-0.573648701657,-0.012070420305,0.0,-0.00641307743426,0.0118835875342,-0.999908822236,0.0,0.26616777385,-0.258309000465,0.304929109228,1.0,0.0,0.0,3.399
-0.642557636415,-0.520216434997,-0.124415061746,-2.64125887578,-0.0669349568687,2.11060773535,-0.889798048037,-0.00660855218049,-0.00338955349261,0.000443886227835,-0.00103030935266,0.000266372631675,0.00103003642473,0.00039318414343,0.573746798158,0.818998640814,0.00604854113445,0.0,0.818996073854,-0.573656120285,-0.012034682104,0.0,-0.00638672860953,0.0118588200847,-0.999909284927,0.0,0.266172982654,-0.258314925661,0.304942627563,1.0,0.0,0.0,3.417
-0.642547335723,-0.520216514458,-0.124406128489,-2.64127663016,-0.0669293075133,2.1106026403,-0.889795599226,0.00134508389819,0.000338839795733,0.00135890241096,-0.00228864647215,0.000110953124614,-0.00049813196492,0.00174182293943,0.573730263241,0.819010219949,0.00604909602554,0.0,0.819007479418,-0.573639251127,-0.0120625505015,0.0,-0.00640947662761,0.0118751337964,-0.999908945758,0.0,0.266175221807,-0.258304857021,0.304933916672,1.0,0.0,0.0,3.432
-0.64254425435,-0.520215799215,-0.124404752891,-2.64128757905,-0.066924637781,2.11060422866,-0.889805842248,-0.000525595863582,0.000984416711022,-0.000860270053037,0.000368455377952,0.00126347664688,0.000792075786431,-0.00133441052624,0.573719864221,0.819017469278,0.00605386796619,0.0,0.81901472328,-0.573628708521,-0.0120720632661,0.0,-0.00641468174462,0.0118844183069,-0.999908802071,0.0,0.266174428987,-0.258300679768,0.304928849276,1.0,0.0,0.0,3.448
-0.642551971607,-0.520218307139,-0.124402158271,-2.64126928771,-0.0669227274779,2.11060738214,-0.889802688714,-0.000758234820423,-0.000359652687924,0.000876541237142,0.000975952004785,-0.000237105870664,0.000326700898649,0.000116941618021,0.573728571817,0.819011389189,0.00605121142826,0.0,0.819008765235,-0.57363771609,-0.0120482384338,0.0,-0.00639656454739,0.0118686423377,-0.999909105515,0.0,0.266177962021,-0.258307104918,0.304938414803,1.0,0.0,0.0,3.465
-0.64254452698,-0.520215802781,-0.124401175714,-2.64126586645,-0.0669171310723,2.11061073564,-0.889806654599,0.001713355648,0.000858346281509,0.000476756014691,-0.00167737540965,0.0001641738695,-0.000545409143168,-0.00145852932548,0.573721083909,0.819016608258,0.00605476476541,0.0,0.819014055731,-0.573630261328,-0.0120435337603,0.0,-0.00639078091951,0.0118687952012,-0.999909140682,0.0,0.266181864426,-0.258305630981,0.304939361014,1.0,0.0,0.0,3.486
-0.642541153882,-0.520218307131,-0.124398961976,-2.64127115611,-0.0669214006118,2.11060884804,-0.88980350257,0.00507061146224,0.000159477777464,-0.000234241600308,-0.000345909353095,8.91450807926e-05,0.000195374673952,-0.000625268034483,0.573717258313,0.819019316906,0.00605086360955,0.0,0.819016685524,-0.573626401054,-0.0120485579297,0.0,-0.00639718973542,0.0118684523846,-0.99990910377,0.0,0.266181364398,-0.258303115725,0.304937766871,1.0,0.0,0.0,3.501
-0.64255447737,-0.520215801473,-0.124403972923,-2.64126865046,-0.0669177001362,2.11060695147,-0.889801976691,-0.00135625954386,0.00146540670613,-0.000760777976757,0.000771806016429,0.000118006853551,-0.000401491612399,0.000246307183293,0.573734679032,0.819007072638,0.00605639708072,0.0,0.819004499124,-0.573643768213,-0.0120500832551,0.0,-0.00639501209239,0.0118739957175,-0.999909051887,0.0,0.26617739196,-0.258307717717,0.304937706415,1.0,0.0,0.0,3.517
-0.642562926006,-0.520218307127,-0.124412104152,-2.64126336075,-0.0669180492516,2.11060897153,-0.889798823214,-0.000746959791649,-0.000292630088509,-0.00131018648383,0.000127979611415,-9.65060750092e-05,-0.000255977329385,0.00134178613955,0.573750026487,0.818996301313,0.00605907936105,0.0,0.818993824098,-0.573659215066,-0.0120402641246,0.0,-0.00638520800962,0.0118706789842,-0.999909153923,0.0,0.266175027866,-0.2583134588,0.304941012904,1.0,0.0,0.0,3.533
-0.642555089096,-0.520218298296,-0.12440678365,-2.64127366176,-0.0669207880454,2.11060611423,-0.889803870504,0.00174799424014,-0.000678036838776,-0.000443934749918,-0.00162541792187,-0.000296506879103,-0.00019002032226,0.000382352620423,0.573734062165,0.819007508402,0.00605590572859,0.0,0.819004906589,-0.573643112917,-0.012053584026,0.0,-0.00639817039138,0.0118755968745,-0.999909012668,0.0,0.266175115041,-0.25830746362,0.304936208291,1.0,0.0,0.0,3.551
-0.642560685495,-0.520215801472,-0.124401458862,-2.64127644582,-0.0669191505998,2.11060423512,-0.889802047344,-0.00162628027381,0.00729245726223,2.52659219665e-05,-0.00126156712107,3.27135190328e-05,0.000111021770109,0.00143633011531,0.573736947557,0.819005491692,0.00605528596067,0.0,0.819002837585,-0.5736459183,-0.0120606528308,0.0,-0.00640427412847,0.0118791672356,-0.999908931183,0.0,0.266173963063,-0.258306603829,0.304933990541,1.0,0.0,0.0,3.567
