nelsonifechukwu/NELSON_IML_WORK/CNN-GradCAM/train2dof/data_sample_2022-07-06-09-01-51/robot_state.csv
position_joint1,position_joint2,position_joint3,position_joint4,position_joint5,position_joint6,position_joint7,velocity_joint1,velocity_joint2,velocity_joint3,velocity_joint4,velocity_joint5,velocity_joint6,velocity_joint7,ee_T_00,ee_T_10,ee_T_20,ee_T_30,ee_T_01,ee_T_11,ee_T_21,ee_T_31,ee_T_02,ee_T_12,ee_T_22,ee_T_32,ee_T_03,ee_T_13,ee_T_23,ee_T_33,v_x,v_y,w_z,time
0.46509116930991506,0.5472772162818446,-0.12399313034142374,-1.3555717046765714,0.07943672196669967,1.8941789502869009,0.1591295904999162,-0.0013859002672310505,0.0012384851582442269,0.0017536748125452056,-0.0016026621647127607,-5.092157470589727e-05,0.00022144764069842286,-0.0003137346438773216,0.5737388128096146,0.8190223446687466,0.0026306862851743643,0.0,0.8189889793243448,-0.5736787482901562,-0.011423327304933773,0.0,-0.007846942575943094,0.008708676990904302,-0.9999312898580972,0.0,0.661765977463594,0.2609321931002351,0.3037026610964064,1.0,5e-324,6.9457166229875e-310,6.9455044234085e-310,0.0
0.46509319379353825,0.547272273012405,-0.123995636031293,-1.3555664149552533,0.07943813149601493,1.8941783318447925,0.15912897009654156,0.0008150956588829076,-0.00029807897758693085,-0.0006815931462969329,0.0003647884287815302,0.0003354796946684397,-0.00035108099795741525,-0.0007944608977490006,0.5737384631167145,0.8190225627050067,0.002639056991027386,0.0,0.8189893097211053,-0.5736783768036926,-0.011418294602796438,0.0,-0.007838021882607626,0.008712642005575769,-0.9999313252830168,0.0,0.6617671632884997,0.26093296226216584,0.303708713856776,1.0,-0.0002600000000000001,-0.0003417142857142859,-0.00013000000000000004,0.014000000000000005
0.46509284822744074,0.5472638166967501,-0.12400028630756751,-1.355570666722666,0.07943774800711155,1.8941801417587407,0.15912755062301354,-0.00036233431232539755,0.00045584016057018025,-0.00019509854381218175,0.00023120698732856536,0.00016941133127679287,-0.0002332345385991471,-0.00936852048311752,0.5737409578182046,0.8190208020138346,0.002643121577374015,0.0,0.8189876246276605,-0.573680884041741,-0.011413189433158144,0.0,-0.007831482020240255,0.008713065852914079,-0.9999313728315606,0.0,0.6617679514705318,0.2609297094849891,0.30371299136612095,1.0,-0.0006000000000000004,-0.0007885714285714292,-0.0003000000000000002,0.03100000000000002
0.4650871639184572,0.547242548931086,-0.12400095309019707,-1.3555930253011759,0.07943809206625897,1.894182664468562,0.15912850040240017,-0.0010100465540052827,0.0012747832657551113,-0.0010562279450083074,-0.0003650349332447415,0.0002834795461789841,-0.0005535798109866984,-0.0013533039093649995,0.5737481477104905,0.8190157576463785,0.0026454918102756927,0.0,0.8189825936280516,-0.5736880463845216,-0.011414187268014048,0.0,-0.007830862973245256,0.008715648350083788,-0.9999313551734097,0.0,0.6617655068663455,0.260923413232582,0.30371765560493547,1.0,-0.0008800000000000007,-0.0011565714285714298,-0.00044000000000000034,0.04500000000000003
0.4650895587645923,0.5471292604276541,-0.12399670292949432,-1.3557100432365004,0.07943870241776926,1.8942028320829416,0.15912861922383298,0.0008271680591853025,-0.014902164965840453,0.0011178313324999166,-0.007245623423025621,0.00014480524868650785,0.0027272619171207157,0.0010907296653198167,0.5737536830457453,0.8190117736373386,0.002678196421405956,0.0,0.8189789131395371,-0.5736933454246125,-0.011411930139430091,0.0,-0.007810192049818532,0.008741191637562068,-0.9999312938741844,0.0,0.6617427922023507,0.2609168123651176,0.3037526427783611,1.0,-0.001280000000000001,-0.0016822857142857158,-0.0006400000000000005,0.06500000000000004
0.4650759386208984,0.5469842309926719,-0.12400126632978627,-1.355894655697197,0.0794325897529345,1.8942482068615607,0.159132985595074,-0.0013181267997016918,-0.010614515064260997,-0.0008659703129080697,-0.014575155349712687,-0.000358002575578499,0.00951707349906839,0.00046477691140729314,0.5737762235185732,0.8189959947730767,0.0026744666068193165,0.0,0.8189630487722904,-0.5737158531008639,-0.011418911837430667,0.0,-0.007817809685663646,0.008742357754410512,-0.9999312241512477,0.0,0.6617195511864399,0.2608869422140531,0.30376274620180493,1.0,-0.0016000000000000012,-0.0021028571428571446,-0.0008000000000000006,0.08100000000000006
0.4650616823342552,0.5468457990550227,-0.12400137168039739,-1.3560894324496586,0.0794266268418221,1.894347297788491,0.15912462485024859,-0.0016440560189956012,-0.015020674654812423,-0.0002557063219800408,-0.013077152037037371,-0.0018325462966327908,0.006711231103986573,0.000720155960934354,0.5737998847461216,0.8189792665195841,0.002720326743216709,0.0,0.818946896107184,-0.5737393494232299,-0.011396805737845106,0.0,-0.007773138764983312,0.00876745776233459,-0.9999313526428332,0.0,0.6617018887850917,0.26085737390678404,0.30378219726366545,1.0,-0.0019400000000000014,-0.002549714285714288,-0.0009700000000000007,0.09800000000000007
0.4650410409393925,0.5466300948997922,-0.12399657067863261,-1.356325450335405,0.07942359580689409,1.8944586878758949,0.15912136863239965,-0.003194705366658325,-0.011238367880902935,0.004184895915769043,-0.011316030754008392,0.0001665170692945672,0.004891195650643081,-0.001371197895397763,0.5738138758226118,0.8189692008878643,0.0027983587571980724,0.0,0.8189377587452137,-0.5737530102431762,-0.011365625344370802,0.0,-0.007702678645620353,0.008813604867991195,-0.9999314922087977,0.0,0.6616806189220222,0.2608329244304756,0.3038266383188877,1.0,-0.0022800000000000016,-0.0029965714285714313,-0.0011400000000000008,0.11500000000000009
0.46500872211040234,0.546421245841062,-0.12399633445163369,-1.3565892018706,0.07941666935985299,1.8945882479452554,0.15912007955691912,-0.0070507706412606735,-0.01558201360736045,0.0006815235590087475,-0.020540796163182086,0.0005140531730546321,0.0074466330444988805,0.0009506787099772533,0.5738422877796023,0.8189490835592086,0.002859054846049076,0.0,0.8189184173643667,-0.573781229210268,-0.011334619914355165,0.0,-0.007642151722509816,0.008845787201265026,-0.999931672448593,0.0,0.6616594031449972,0.2607971811074105,0.303857309676746,1.0,-0.0026000000000000016,-0.00341714285714286,-0.0013000000000000008,0.1310000000000001
0.46497821108689824,0.5461950324900374,-0.12400237031314688,-1.356932712243315,0.07940095420963593,1.8947140819036574,0.1590998563321913,-0.005052275939575796,-0.015377756043179957,-0.0011703110036742207,-0.029571566411865317,-0.0012652299435261683,0.010153667783986445,-0.002369002999644641,0.5738798261698685,0.8189227245601376,0.002874580917385486,0.0,0.818892220013834,-0.573818672458392,-0.011331815393459618,0.0,-0.007630539841873452,0.008857242726604098,-0.999931659721305,0.0,0.661622733804834,0.2607353002963566,0.30386802418136144,1.0,-0.002940000000000002,-0.0038640000000000033,-0.001470000000000001,0.1480000000000001
0.46494871410932587,0.5459132339214816,-0.12400429758664995,-1.3573692154855448,0.07937909195293597,1.8948693780544879,0.1590937151593334,-0.004048897848887602,-0.01775415644396599,-0.0010450230900120603,-0.024388751351462918,0.00012081070134827478,0.010623290259356722,-0.002815830106241563,0.5739188769719114,0.8188953502830877,0.00287660237908531,0.0,0.8188648382048275,-0.5738576734571254,-0.011335531190251366,0.0,-0.007632000375620007,0.008861394481621779,-0.9999316117905803,0.0,0.6615703515733926,0.2606735563772692,0.3038732958968274,1.0,-0.0032800000000000025,-0.004310857142857147,-0.0016400000000000013,0.16500000000000012
0.4649022793478587,0.5456122097552264,-0.12399960222140292,-1.3578482763447752,0.07934254751040383,1.8950314023411314,0.15908173123317437,-0.001206563790061324,-0.019176553917223768,-0.00014478060177277653,-0.03055274676421915,-1.8734512957299413e-05,0.011602777901037023,0.0012343946525949882,0.5739608194764291,0.8188660131787184,0.0028595572989118436,0.0,0.8188353045546347,-0.5738996881280136,-0.011341908247565795,0.0,-0.007646551366302157,0.008851487842515174,-0.9999315883675125,0.0,0.6615137363846263,0.26059772153207905,0.30387223891212184,1.0,-0.0036200000000000026,-0.00475771428571429,-0.0018100000000000013,0.18200000000000013
0.46485361737565056,0.5453050578450289,-0.12400476910427216,-1.3583599141524645,0.07930898863534248,1.8951956919430493,0.15904068739305086,-0.0010941315139460614,-0.017540728167169287,-0.002122573547997662,-0.03563754972868281,-0.0003306389695510031,0.016804294183768616,-0.0038590427003760697,0.573990255515495,0.8188455086959359,0.002822474616249377,0.0,0.8188143346417924,-0.5739292460684786,-0.011360140562288935,0.0,-0.007682447259949321,0.008831862699712839,-0.9999314867556435,0.0,0.6614528936881389,0.2605115572860033,0.3038605171575394,1.0,-0.003940000000000003,-0.0051782857142857195,-0.0019700000000000017,0.19800000000000015
0.464792916087021,0.5449129575165214,-0.12399993509466743,-1.359007298694899,0.07927673150262993,1.8954057847096022,0.15891606901655522,-0.0024382513569220594,-0.02611020836602912,0.0016168384329396145,-0.0369309143623431,-0.001194016915077813,0.019940240228379355,-0.004299366926380385,0.573962002237152,0.8188654252766197,0.0027896551164064316,0.0,0.8188337052569102,-0.5739009556253445,-0.01139311936055593,0.0,-0.007728594592633253,0.008823651117894224,-0.9999312036368164,0.0,0.6613729637864824,0.2604115466322276,0.3038479391365879,1.0,-0.0043000000000000035,-0.005651428571428577,-0.0021500000000000017,0.21600000000000016
0.46473541691626136,0.5445408466165836,-0.12400759266617122,-1.3596614737659187,0.0792437118822401,1.8956174072526593,0.15891528717760592,-0.001956655444713703,-0.02456835261647191,-0.0004514343814863919,-0.043719277818390065,-0.00809486333969635,0.008414235634848888,0.0012793574973747638,0.574041465820615,0.8188099227243713,0.0027299941094093205,0.0,0.8187773765261044,-0.5739805312996134,-0.011432597222490955,0.0,-0.007794310643556068,0.008798211675407841,-0.9999309177102718,0.0,0.6612932586012218,0.26030533782977144,0.3038184899253991,1.0,-0.0046200000000000034,-0.006072000000000005,-0.0023100000000000017,0.23200000000000018
0.46466910769346664,0.5441301001069533,-0.1240031578208762,-1.3603587296077897,0.07920847633528777,1.895841189775006,0.15889176441896896,-0.00521915442919224,-0.02746876788998025,0.0011934015267436998,-0.042568599522456396,-9.194592688577984e-05,0.012260818304704199,-0.0013001955048575428,0.5741027882982506,0.8187670908136958,0.0026807405430945034,0.0,0.8187337869591507,-0.5740418668834643,-0.011474670264690793,0.0,-0.007856376344268945,0.00878262214315649,-0.9999305690391844,0.0,0.6612066534604909,0.2601961707267049,0.3037964999006595,1.0,-0.004940000000000004,-0.006492571428571435,-0.002470000000000002,0.2480000000000002
0.46460866989728217,0.543659725634315,-0.12401135431222245,-1.3611178305591767,0.07917480658042943,1.8961055761494159,0.1588277687389288,-0.0034338174719902824,-0.026207384311999222,-0.0039452382742798265,-0.04690525555583417,-0.005078534093262759,0.017118877624482404,-0.004978265568483569,0.5741379101600381,0.8187425186765148,0.002663668430807848,0.0,0.8187089365425217,-0.574076975451877,-0.01149131770714095,0.0,-0.007879431389562652,0.008778539295735896,-0.9999304234839594,0.0,0.6611121835055072,0.2600725240686998,0.3037923302414819,1.0,-0.0053000000000000035,-0.006965714285714291,-0.0026500000000000017,0.2660000000000002
0.4645398204331841,0.5431606222979373,-0.12401481274253658,-1.361924453729971,0.0791259679173346,1.8963953255413741,0.15877780631604285,-0.004556065916067483,-0.03002830204412151,-0.0011392452089559085,-0.0505159350833477,-0.008224603263901856,0.01813852000933486,-4.572764406230377e-05,0.5741886938860996,0.8187069587070231,0.0026469754966106903,0.0,0.8186731341341,-0.5741277778505943,-0.011503957953529886,0.0,-0.007898820346102342,0.008772619217748828,-0.9999303224671209,0.0,0.6610234387509071,0.2599550732309264,0.30378552661393987,1.0,-0.005620000000000004,-0.007386285714285721,-0.002810000000000002,0.2820000000000002
0.4644755875789323,0.5426448383653257,-0.12401188625820676,-1.3627859559728508,0.07907288995283938,1.896690887826458,0.1587139916481256,-0.0002106183192138566,-0.0339246474845934,0.001379291210596402,-0.04975317713836508,-0.004611417660888048,0.018986821937241327,-0.003025658333685949,0.5742207215406133,0.8186846354075713,0.0026033828296431515,0.0,0.8186502065968694,-0.574159901119187,-0.011532306227141832,0.0,-0.007946716889858096,0.008753517626454446,-0.9999301103676375,0.0,0.6609166148892245,0.2598302902998032,0.30376578384087893,1.0,-0.005960000000000004,-0.007833142857142865,-0.002980000000000002,0.2990000000000002
0.4643917006883598,0.5420774741779287,-0.124018002626038,-1.3636856128391373,0.07901811663953828,1.8970078935578905,0.1586391942083426,-0.005864523330290121,-0.027084399283593692,-0.0009961740974901805,-0.05235094891978381,-0.00641356972738699,0.02068009877680089,-0.003757464521881164,0.5742608980724918,0.8186564629455815,0.0026006775296865594,0.0,0.8186220119290196,-0.5742000957967601,-0.011532496411612319,0.0,-0.007947996458141593,0.00875180211739171,-0.9999301152140581,0.0,0.660819835249418,0.25969735748563727,0.3037747004796306,1.0,-0.006280000000000004,-0.008253714285714293,-0.003140000000000002,0.3150000000000002
0.46430979648239984,0.5414657458904945,-0.12401868406877127,-1.3646238010433787,0.0789668103543751,1.8973473548693367,0.158583858661594,-0.004426102619231662,-0.040717489897485845,0.00042936440276172654,-0.052797619045358304,-0.008528586451580522,0.0206751265943411,-0.004420973723238319,0.5743283501934126,0.8186091409126407,0.002601437984981467,0.0,0.8185746432106219,-0.5742674747729658,-0.01153983586072969,0.0,-0.00795284701476029,0.008757294666845786,-0.9999300285592376,0.0,0.6607055901899923,0.25954149761812534,0.303781863017663,1.0,-0.006640000000000005,-0.00872685714285715,-0.0033200000000000026,0.33300000000000024
0.4642245300903827,0.5408437491420985,-0.1240268951926056,-1.365602998853543,0.07889917645667968,1.8976966235371944,0.15850817137687626,-0.0036577421351018397,-0.03769432558776826,-0.0006583074248179029,-0.05179009844674858,-0.007432226568306453,0.017364818905946638,-0.002087705151826879,0.5743781439702975,0.8185742484212013,0.0025873639307521365,0.0,0.8185396577478046,-0.5743174075532134,-0.011536506259331513,0.0,-0.00795767200537778,0.008744345395229211,-0.9999301034971715,0.0,0.6605935262592256,0.2593850971953981,0.3037859938833696,1.0,-0.006980000000000005,-0.009173714285714294,-0.0034900000000000026,0.35000000000000026
0.4641286476422077,0.5401542681138585,-0.12402724499772698,-1.3666352691194734,0.07885114642365988,1.8980843507924228,0.15841786352753665,-0.002532403341237769,-0.04168259702890055,-0.0010312762551208529,-0.06055502362066669,-0.0010662080186604086,0.017369623886855354,-0.005515382453980961,0.574427303028914,0.8185396064848305,0.0026330688930170116,0.0,0.8185054942456333,-0.5743662836768648,-0.011527140414996738,0.0,-0.007923227531122068,0.008776854517530921,-0.9999300922015841,0.0,0.6604783389499326,0.2592266129404832,0.3038155896868192,1.0,-0.007320000000000005,-0.009620571428571437,-0.0036600000000000027,0.36700000000000027
0.46403947941713014,0.5394942556500312,-0.12403256291773337,-1.3676807333254295,0.07879090029814946,1.8984722484091112,0.15836506649706816,-0.006271283130978765,-0.039906177587502395,0.0007576173071324129,-0.06862760253520074,-0.004754613119650763,0.027551755133459713,0.0018835449286541397,0.5745026000468206,0.8184867578810795,0.0026337452363839374,0.0,0.8184526534131901,-0.5744415680113,-0.011527617396312959,0.0,-0.007922421976644056,0.008778410955272861,-0.9999300849215033,0.0,0.6603592581903762,0.2590657786728147,0.30381813472421426,1.0,-0.007640000000000006,-0.010041142857142867,-0.003820000000000003,0.3830000000000003
0.4639433233712216,0.5387610973650016,-0.1240286944180756,-1.3688377456401215,0.07871816620354202,1.8989028558474212,0.158271080025911,-0.0011965289382811625,-0.0392448385411558,0.0019640396911482965,-0.06941780862613883,-0.004424422607030289,0.027464131047999853,-0.005922348348989137,0.5745462031306818,0.8184561389452859,0.0026374214870358154,0.0,0.8184220845789272,-0.5744851563161179,-0.011525777506852105,0.0,-0.007918336313860685,0.00878078475334032,-0.9999300964413144,0.0,0.660225033182303,0.2588942668608604,0.3038225462952898,1.0,-0.007980000000000006,-0.01048800000000001,-0.003990000000000003,0.4000000000000003
0.4638410556488037,0.53799869830995,-0.1240425390770024,-1.3700124953816237,0.07865656172399008,1.8993611406559279,0.1581757678331785,-0.00038889982708910473,-0.039427392323095146,-0.001172644788214187,-0.07949016659100802,-0.0036123666783125933,0.02620875551032715,-0.0025012128414657747,0.5746101184443906,0.8184111405782826,0.0026765014265869866,0.0,0.8183776033289891,-0.5745489482050878,-0.0115044072917998,0.0,-0.007877705684089742,0.008801107107955092,-0.9999302387000952,0.0,0.660097775415105,0.2587104051183251,0.3038420530044824,1.0,-0.008320000000000006,-0.010934857142857152,-0.004160000000000003,0.4170000000000003
0.4637412177052947,0.5372007187153367,-0.12404902411094519,-1.3712690671585785,0.07857997884222721,1.8998450970517167,0.15808959173780238,-0.006464174924674668,-0.04535544576052435,-0.0008309620328132254,-0.073561161521849,-0.0038389689826363693,0.02913669372124433,-0.0010651275420369042,0.5746747601884978,0.8183656947737649,0.0026937930421186427,0.0,0.8183324343643166,-0.5746135853401032,-0.011489182354356517,0.0,-0.007854613847365854,0.008807130896643534,-0.9999303673189839,0.0,0.6599558997671523,0.2585225052535008,0.3038495694099667,1.0,-0.008660000000000006,-0.011381714285714295,-0.004330000000000003,0.43400000000000033
0.4636312394978949,0.5364221321028391,-0.12404973530847953,-1.3724895860168536,0.07851973592883545,1.9002834110004714,0.15801332369085283,-0.008583587777781428,-0.04803492529979647,0.00023359409865354508,-0.07521245678356017,-0.0013983001278050715,0.018866997440871235,-0.0019370907986475197,0.5747538337147806,0.8183101511191726,0.0026970551880404776,0.0,0.818276802638652,-0.574692492374117,-0.01150479784691671,0.0,-0.007864666915829488,0.008819534167801277,-0.9999301789781956,0.0,0.6598128800790642,0.25833484920225563,0.30385628496576433,1.0,-0.008980000000000007,-0.011802285714285725,-0.0044900000000000035,0.45000000000000034
0.4635342484617168,0.5356682445626821,-0.1240555294296606,-1.373688038831722,0.07843257946478045,1.9007087761500638,0.157906219367051,-0.0036346713943671604,-0.048862081533839044,0.0009954640485224093,-0.07768098775540398,-0.0049258498411245254,0.026531068635341593,-0.010591785939943067,0.5747920484219466,0.8182833959879958,0.002670547221731286,0.0,0.8182498206193294,-0.5747309183935394,-0.011504320934430604,0.0,-0.007879100442501896,0.008797936368279982,-0.9999302556137986,0.0,0.6596707882028444,0.25814990413227357,0.3038549302981115,1.0,-0.009280000000000007,-0.01219657142857144,-0.0046400000000000035,0.46500000000000036
0.4634192626489962,0.534818373500258,-0.12405487856927594,-1.3750007196960932,0.07837392664961362,1.9011932616196925,0.1578348845673925,-0.007662758658399127,-0.05121629285644354,0.00046054762255532175,-0.08309147336271712,-0.0013696424304717556,0.03204166839326263,-0.003346428426258168,0.5748836279688249,0.8182189652469438,0.0026992785758913566,0.0,0.8181855818246527,-0.5748221917273244,-0.011512970653042326,0.0,-0.007868677203993923,0.008827299102703717,-0.9999300789103261,0.0,0.6595178223263899,0.25795314468747416,0.3038717745968182,1.0,-0.009600000000000008,-0.01261714285714287,-0.004800000000000004,0.48100000000000037
0.4633079303278569,0.5339793014998319,-0.12406567044830734,-1.3763560081153037,0.07829768888007958,1.9016828227986649,0.157719326965018,-0.010371242676046532,-0.05171819609661324,0.0008713785954398883,-0.08329576632467348,-0.00024285106437863267,0.030027049572882353,-0.011222076803940226,0.5749437718283119,0.8181768073657063,0.0026679628749116183,0.0,0.818143002326279,-0.5748824123565219,-0.011531982002086903,0.0,-0.007901587413502553,0.008813186066653309,-0.9999299438799206,0.0,0.6593468271838989,0.25773369028899396,0.30385641967907173,1.0,-0.009940000000000008,-0.013064000000000013,-0.004970000000000004,0.4980000000000004
0.46316921473199774,0.5329059703368144,-0.12406914472788001,-1.3780828574301685,0.07819704496313036,1.9023289492342697,0.1575914600035388,-0.004135576130353801,-0.05100508349262256,-0.0002561547002107605,-0.08438759363342754,-0.0055962257578309055,0.03613816688496586,-0.010314017258592899,0.5750204774982193,0.8181229009052056,0.002667653159513941,0.0,0.8180890613975573,-0.5749590754857539,-0.01153672568102072,0.0,-0.007904820279079183,0.008816401122309345,-0.9999298899860959,0.0,0.6591555807554595,0.257487671487448,0.3038524218985311,1.0,-0.010320000000000008,-0.013563428571428584,-0.005160000000000004,0.5170000000000003
0.4630404159001069,0.5318850175053152,-0.12407233219368417,-1.3796904475319778,0.07810805125401969,1.902949047812264,0.15748294673729377,-0.016101894153032727,-0.054294445691485685,-0.00010293678027405674,-0.0878615842252864,-0.0064352244577930515,0.0401075473021616,-0.008861496051602687,0.5751033712673619,0.8180645364690791,0.002696929690232364,0.0,0.8180310443539895,-0.5750418273694535,-0.011526237457611308,0.0,-0.00787851041137455,0.008835120334395055,-0.9999299324064536,0.0,0.6589705708863027,0.25725116386023145,0.3038608260912596,1.0,-0.010680000000000007,-0.01403657142857144,-0.005340000000000004,0.5350000000000004
0.4629090515530593,0.5309650202598726,-0.1240670426104545,-1.3811850548183409,0.07801768096971223,1.90348889390048,0.15736854030775088,-0.0033161155640043416,-0.05476442358347655,5.357864659075394e-05,-0.09036132999151601,-0.004376779408909351,0.038234269216534854,-0.001256924360173832,0.575170667615842,0.818017321652556,0.002666738069887927,0.0,0.8179833822192212,-0.5751091516047563,-0.011549764277634482,0.0,-0.007914394147795933,0.008824602957224856,-0.9999297419058604,0.0,0.6587915999294878,0.2570243605485316,0.30384439119476064,1.0,-0.011000000000000008,-0.01445714285714287,-0.005500000000000004,0.5510000000000004
0.4627843189976631,0.5300093735746613,-0.12406775292319568,-1.3827324229441627,0.07791427058606637,1.9040357583512422,0.1572702923854561,-0.002177234199348662,-0.062232651613441686,0.0010282876201947518,-0.09530850888303265,-0.007222958435127595,0.028081018916900114,-0.006929043273407516,0.57524906106318,0.8179623419678015,0.0026214060516043525,0.0,0.8179278522282658,-0.5751877274544113,-0.01156951322633507,0.0,-0.00795577871787656,0.008799642062392213,-0.9999296334665584,0.0,0.6586026362467586,0.2567910512388529,0.30382854833639605,1.0,-0.011320000000000009,-0.0148777142857143,-0.0056600000000000044,0.5670000000000004
0.4626399121073641,0.5289737257434759,-0.12407655693496601,-1.3843852853897998,0.07780311266646892,1.9046330997728471,0.1571650275653699,-0.017379382398483974,-0.06059037239155189,0.0003711169260587214,-0.09842573302449566,-0.0032343594649968696,0.03771867811983804,-0.003953579707709482,0.5753470042582954,0.8178935385705962,0.0025944472786541637,0.0,0.8178588011512581,-0.5752858612852837,-0.011571779719834552,0.0,-0.007972088512762765,0.00877984937602136,-0.999929677552216,0.0,0.6584080911996554,0.2565308011451171,0.30382325855864045,1.0,-0.011660000000000009,-0.015324571428571443,-0.0058300000000000044,0.5840000000000004
0.4624959894016946,0.5278944506202012,-0.12408546662638968,-1.3860940175169203,0.07770267144552688,1.9052827207203051,0.15701543924316314,-0.010891327859726555,-0.0637529292621738,-0.0012906795026134872,-0.09901667214563624,-0.01346762838014219,0.03957570482094224,-0.015159192461584436,0.5754143139848287,0.817846140206506,0.0026086609394864796,0.0,0.8178116079916988,-0.5753531380439341,-0.01156232148998309,0.0,-0.007955451911884848,0.008786687656822736,-0.9999297499849171,0.0,0.6582108857407778,0.25627002832436524,0.303826414047876,1.0,-0.012000000000000009,-0.015771428571428586,-0.0060000000000000045,0.6010000000000004
0.46235733235839704,0.5267590524858958,-0.1240881954218742,-1.3878265841872905,0.07759644948953134,1.905947541862716,0.15689903247740072,-0.009991573614160814,-0.06325115924466143,0.00014482360356194855,-0.10515016083244455,-0.0076752102579878325,0.04550333123680541,-0.006462147001781827,0.5754995383280775,0.8177859972369678,0.002662894762477783,0.0,0.8177522109312733,-0.5754382201652669,-0.011529232032203055,0.0,-0.007896265119796408,0.008812825465503049,-0.9999299891014732,0.0,0.6580096495666693,0.2560143444255322,0.3038585446821901,1.0,-0.012340000000000009,-0.01621828571428573,-0.0061700000000000045,0.6180000000000004
0.46221454382957605,0.5256699983901403,-0.12409889234019998,-1.3895309004549428,0.07748621239668317,1.9065794070452997,0.15678859648943125,-0.008469629534811812,-0.06435416557796218,-0.000455838614081815,-0.10193455362199373,-0.0009864207106447397,0.03597738852882122,-0.007836832774140165,0.5755957263999057,0.8177182792921867,0.0026687755241655946,0.0,0.8176846637124143,-0.5755344826560418,-0.011515072929266078,0.0,-0.007880265000538289,0.008810413212026011,-0.9999301365808285,0.0,0.6578098177694283,0.25575121725006206,0.3038686299068427,1.0,-0.01266000000000001,-0.01663885714285716,-0.006330000000000005,0.6340000000000005
0.4620540038156018,0.5244384926135022,-0.12409766447555916,-1.3914802917834235,0.07736567799375779,1.907287628890068,0.1566319452344543,-0.009637487461670995,-0.06483145630277443,0.001141086979960938,-0.11423915783180268,-0.008421313014098951,0.036356677678068,-0.006487528660146015,0.5756703502622739,0.8176657812455713,0.0026579898775287185,0.0,0.817632003054311,-0.5756091067614505,-0.011524352298003228,0.0,-0.007893257315573499,0.008807655086252836,-0.9999300584045026,0.0,0.6575732821591661,0.2554596921584114,0.30386820964458006,1.0,-0.013020000000000009,-0.017112000000000016,-0.0065100000000000045,0.6520000000000005
0.46191008126566,0.5233236652110228,-0.12410133750327283,-1.39326849711187,0.07725346200778006,1.9079266166429765,0.1565119264679442,-0.009275880002897497,-0.0654911682034947,-0.0013541042626104222,-0.10973993454655398,-0.004879663897234204,0.03357034859099271,-0.01089947873168203,0.5757580908259544,0.8176041106577019,0.002624116096671316,0.0,0.8175698935019816,-0.5756969475963687,-0.01154299218533542,0.0,-0.007927054853397952,0.0087915387251037,-0.9999299328693967,0.0,0.6573535333579588,0.2551905402326597,0.3038563197000215,1.0,-0.01334000000000001,-0.017532571428571446,-0.006670000000000005,0.6680000000000005
0.4617471843863577,0.5220956013883159,-0.12410666259808727,-1.3952107131828626,0.0771292174792105,1.9086726961229823,0.15636121358457142,-0.011378494336168317,-0.07136582692781014,-0.0009501528113869951,-0.1166230315496848,-0.005371545010393727,0.04505804147872269,-0.002688231102210634,0.5758424413425536,0.8175446428050737,0.0026432310873142646,0.0,0.8175107653891531,-0.575781327101011,-0.011522097719085009,0.0,-0.007898058222921334,0.008795952098570745,-0.9999301235101318,0.0,0.6571271946422278,0.2548964818286979,0.3038597463306195,1.0,-0.01368000000000001,-0.017979428571428587,-0.006840000000000005,0.6850000000000005
0.4615877837559855,0.5208670750939225,-0.1241074084046189,-1.397188752990044,0.07702055740482004,1.9094466724331245,0.15622365346348432,-0.007713692842448863,-0.07275036290147571,0.0016547295863524004,-0.11957001582829356,-0.004373645155312933,0.045972953134457914,-0.0071906984639868434,0.5759375296063693,0.8174775864754532,0.002665427243248605,0.0,0.8174439368171844,-0.5758762644437011,-0.011518902395621072,0.0,-0.007881639991223488,0.008813175209464744,-0.9999301014039812,0.0,0.656894561233518,0.2546075608356649,0.30384843369853287,1.0,-0.01402000000000001,-0.018426285714285732,-0.007010000000000005,0.7020000000000005
0.4614032909702757,0.5194939852229566,-0.12411638546517369,-1.399355827743417,0.07687904142245928,1.9102431539701414,0.15605828354194445,-0.009884906272571903,-0.07706341308823825,3.8730680505257264e-05,-0.1206944963395592,-0.004836896391735954,0.04112057791635763,-0.012085589453837541,0.5760366381217916,0.8174077769437887,0.0026579379913428177,0.0,0.817374122042446,-0.5759754874843542,-0.01151213853763583,0.0,-0.007879356141673233,0.00880411281938305,-0.9999301992360546,0.0,0.6566349295766369,0.2542731517746317,0.3038504374452725,1.0,-0.01438000000000001,-0.018899428571428588,-0.007190000000000005,0.7200000000000005
0.46124656672849385,0.5182329639294666,-0.1241227482011463,-1.4013119107890932,0.07675114997934036,1.9109459951907042,0.15591965196052834,-0.014379979540533,-0.07790839220602146,-0.0008845659507590005,-0.11994908396203725,-0.006638574437365721,0.04782979508698328,-0.007950122285760402,0.5761250442942935,0.8173454705412297,0.002657446865420605,0.0,0.8173118660300122,-0.5760639476457201,-0.01150603192141392,0.0,-0.00787369533595167,0.008801045454226303,-0.999930270829256,0.0,0.6563943420428783,0.2539779823218512,0.3038655755284217,1.0,-0.014700000000000012,-0.019320000000000018,-0.007350000000000006,0.7360000000000005
0.46106588457292036,0.51687345477549,-0.12412875238078964,-1.4034246256695595,0.07661240484080095,1.911705757826056,0.15575820967074727,-0.01045266739729477,-0.07568471243677376,-0.0012813881573457346,-0.12118551101189493,-0.011687382820591619,0.04627513121929664,-0.0030697099041350944,0.5762191842025647,0.8172791126656638,0.002655307621453642,0.0,0.8172455417757184,-0.5761581512864786,-0.011500263260813728,0.0,-0.007869199329417875,0.00879687999713652,-0.9999303428760574,0.0,0.6561365395569518,0.2536521618297612,0.3038798044693497,1.0,-0.015040000000000012,-0.019766857142857162,-0.007520000000000006,0.7530000000000006
0.4608891308206995,0.5156125518927571,-0.1241351246416178,-1.405442138578082,0.07649072495702668,1.912461363326925,0.15561084548861764,-0.013563334115728399,-0.07899343197268525,-0.00045251257763716143,-0.12524754582129916,-0.00525771028771848,0.0456057365960745,-0.00839724517960503,0.576321511762234,0.8172069730394933,0.002650508805944954,0.0,0.8171733466399058,-0.5762604890117922,-0.011502923386465911,0.0,-0.007873037281479756,0.008795476687207274,-0.9999303250096024,0.0,0.6558952939527132,0.2533411959895795,0.30386951177698973,1.0,-0.015360000000000013,-0.020187428571428592,-0.007680000000000006,0.7690000000000006
0.46071571932548455,0.5143101570245948,-0.12413297868493968,-1.4074991217019792,0.07636663201157433,1.9132394631398322,0.15544479049574259,-0.013695682380139648,-0.0840408822626926,0.0011522174003791115,-0.12648036224965412,-0.0033325956363632605,0.0407753214431442,-0.006475638938133323,0.5764009186509585,0.8171509070717854,0.002668885778281364,0.0,0.817117495790635,-0.5763398011936424,-0.011496892368048664,0.0,-0.007856662193287789,0.008807782163375091,-0.999930345490396,0.0,0.6556469010905405,0.25303443083499166,0.30387081795954424,1.0,-0.015680000000000013,-0.020608000000000022,-0.007840000000000007,0.7850000000000006
0.46051940962615195,0.5129123419516345,-0.12413651670045169,-1.4097867405010245,0.07623394360322738,1.9140476754781608,0.15526112739293357,-0.01223725968717903,-0.0797270341655339,-0.0002509260932203981,-0.13617333983527447,-0.0044600994801146055,0.05186118124519886,-0.014507301085182802,0.5764979651434172,0.8170826652379624,0.002600241207095493,0.0,0.817048241573209,-0.5764369226223693,-0.01154954895170467,0.0,-0.007938214035480229,0.008782983074546391,-0.9999299195274832,0.0,0.6553589803880068,0.2526839955823309,0.30383165308599336,1.0,-0.016020000000000013,-0.021054857142857163,-0.008010000000000007,0.8020000000000006
0.4603291012489037,0.5115219868539844,-0.12413883541209819,-1.412078663106014,0.07609033319364014,1.9148642757173255,0.15508560731366672,-0.00979724047351416,-0.07748130325199877,0.00020224464002346928,-0.14112918332419916,-0.016672171825169044,0.05502546225048775,-0.010864876467461303,0.5765927486011453,0.8170160255664525,0.0025225244067485298,0.0,0.8169805599050155,-0.5765319180222199,-0.011595651776234419,0.0,-0.008019671897126324,0.00874699053835322,-0.9999295850304583,0.0,0.6550694046957631,0.2523364874602996,0.30378546587601224,1.0,-0.016360000000000013,-0.021501714285714308,-0.008180000000000007,0.8190000000000006
0.46014582621952116,0.5101387197484623,-0.12414184106982634,-1.4142605809171038,0.07595161676339526,1.9156889874799483,0.15492221097450376,-0.008860753406955253,-0.08682749252329663,0.00048314663620874476,-0.13715466199939386,-0.008808430259507673,0.04424888370923224,-0.01104920037939967,0.5766875333599635,0.8169490771258624,0.0025379423970924523,0.0,0.8169138661532349,-0.576626698349553,-0.01158157753833751,0.0,-0.007998267728008435,0.008752400229510307,-0.9999297091313837,0.0,0.6548047245846469,0.2520074875480981,0.3037869021485673,1.0,-0.016680000000000014,-0.021922285714285738,-0.008340000000000007,0.8350000000000006
0.4599447432721754,0.508630886993439,-0.12414266708605066,-1.4166342854683125,0.07580210457576839,1.9165600465476407,0.1547416196237353,-0.007306094242943442,-0.09014027545288955,-0.0005366966545454217,-0.13636053220158556,-0.012433959975005768,0.047628620233613354,-0.010336646531300045,0.5767877918729275,0.8168782959275358,0.0025376544457045933,0.0,0.8168430823397207,-0.5767269465689442,-0.011582522877806025,0.0,-0.007998131839868083,0.00875369181004304,-0.9999296989122621,0.0,0.6545104930540758,0.25164848026955744,0.3037877029454815,1.0,-0.017020000000000014,-0.02236914285714288,-0.008510000000000007,0.8520000000000006
0.45972979324459673,0.5071110398481953,-0.12415043847957863,-1.4190192591413369,0.0756460008831747,1.9174078077331982,0.15455169634253593,-0.017667283263628257,-0.09752586851569771,-0.0019413013026080724,-0.1394483629669315,-0.012813909584965968,0.051925189045705755,-0.01408954736187698,0.5768948307632646,0.8168027772276286,0.002514806765052352,0.0,0.8167673114906604,-0.5768340979469576,-0.011590048630031581,0.0,-0.008016311956229205,0.008740419383528306,-0.9999296694326159,0.0,0.6542136506977261,0.2512726486517741,0.3037891987992562,1.0,-0.017360000000000014,-0.022816000000000024,-0.008680000000000007,0.8690000000000007
0.4595213538726099,0.5056385567554043,-0.1241542073538579,-1.421314424544912,0.07551187061860035,1.9182714077069547,0.15436734386593862,-0.013487959536686134,-0.0995736990519941,-0.0017251376242206774,-0.14323573277380028,-0.009248191690670232,0.05967423379559816,-0.01312761306786819,0.5770030922725565,0.8167261382463493,0.0025677839318762608,0.0,0.8166913554356733,-0.576942162783727,-0.011563635253938326,0.0,-0.007963013662509177,0.008769509079448956,-0.9999298406007875,0.0,0.6539226880676219,0.25089294174843446,0.303812927983841,1.0,-0.017700000000000014,-0.023262857142857165,-0.008850000000000007,0.8860000000000007
0.4592976379824236,0.5040042830295366,-0.12415965005632001,-1.423773778330855,0.07535342115851658,1.9192299209930495,0.15416883805431375,-0.016301350955761656,-0.09040151303240544,-0.0041181205903162215,-0.14256131507907163,-0.014145681306006313,0.06041304700965548,-0.007368929536942361,0.5771079077089127,0.8166517973724439,0.002655486660925796,0.0,0.816618234590597,-0.5770467698218658,-0.011507878757429958,0.0,-0.007865741311101515,0.008809976280236012,-0.9999302547835867,0.0,0.6536458578264621,0.2505376943300781,0.30385552870084664,1.0,-0.018020000000000015,-0.023683428571428595,-0.009010000000000008,0.9020000000000007
0.45906804381651717,0.5023330138392748,-0.1241639018130308,-1.4262555060077673,0.07519397022195437,1.9201699930031404,0.15397376748141336,-0.014380782217197385,-0.09771831974457791,0.0007545923114745454,-0.13556909421759036,-0.010036209382950396,0.047655650157617684,-0.00947654473101856,0.5772231361009708,0.8165700091093031,0.002760122135150051,0.0,0.8165378841782536,-0.5771617476282325,-0.011443237200803895,0.0,-0.0077513166269745915,0.008859216119867466,-0.9999307132898207,0.0,0.6533482483025232,0.2501507416743922,0.3039228502673272,1.0,-0.018360000000000015,-0.02413028571428574,-0.009180000000000008,0.9190000000000007
0.45883921159565877,0.5006140271759199,-0.12416492545590165,-1.4288223479533744,0.07502288449685529,1.9210801887454803,0.15377435920092397,-0.017592745543131776,-0.10786785012800904,0.0009105272013807103,-0.1520741502014081,-0.006303691009143042,0.05725661902905432,-0.013831482133220085,0.5773321550793132,0.8164927735628394,0.002807192965551336,0.0,0.8164612960130312,-0.5772706531879715,-0.011414551321118536,0.0,-0.007699536790249428,0.00888212292868773,-0.9999309101260423,0.0,0.653024023440785,0.24975302371513314,0.30397959180381234,1.0,-0.018700000000000015,-0.02457714285714288,-0.009350000000000008,0.9360000000000007
0.45861556786862384,0.4990250616548949,-0.12416501751855254,-1.431255215776234,0.07486783762953497,1.921974251418063,0.15358486022371348,-0.011735496690919339,-0.09798892800864047,4.917296818163354e-06,-0.15436926596992703,-0.017451296988010973,0.05940517716764588,-0.017765832788614627,0.5774389171090877,0.8164171438571927,0.00284449031579676,0.0,0.816386166226992,-0.5773773102119796,-0.01139368890140247,0.0,-0.007659806258428381,0.008901533306986925,-0.9999310426588766,0.0,0.6527000921100694,0.24935394805452257,0.3040077592495232,1.0,-0.019040000000000015,-0.025024000000000025,-0.009520000000000008,0.9530000000000007
0.45836321891084086,0.4973547252598354,-0.12417030724412514,-1.4338975043430433,0.0747082012401839,1.9229521284116644,0.15337680988654015,-0.014321173588231338,-0.0973084230314094,0.00011573097951213757,-0.1539671767820765,-0.015138854268295764,0.05528022067470153,-0.015337496347326772,0.5775729828518266,0.81632229666961,0.002846812411298549,0.0,0.816291298335269,-0.5775112932058803,-0.01140041152769274,0.0,-0.007662491330803989,0.008908569408690559,-0.9999309594255475,0.0,0.652373602657429,0.24893354745890062,0.3039991968451148,1.0,-0.019380000000000015,-0.025470857142857167,-0.009690000000000008,0.9700000000000008
0.45809834475911887,0.4956696270460437,-0.12416180257217951,-1.436591985009613,0.07454041304524392,1.92389652751875,0.1531553590952105,-0.012488998333341593,-0.10250800716386597,0.0005226949244625172,-0.16376247253842707,-0.01634829035951045,0.05739506790238969,-0.013639024614774455,0.5776925241158196,0.8162378900373826,0.00279308954797672,0.0,0.8162060759190074,-0.5776308423914485,-0.011445455528254307,0.0,-0.007728988609407683,0.008891861949313642,-0.9999305963546419,0.0,0.6520498696124074,0.2485283931889731,0.3039725361757863,1.0,-0.019700000000000016,-0.025891428571428596,-0.009850000000000008,0.9860000000000008
0.4578822171235753,0.49441938873617863,-0.12416251191235798,-1.4386804356092964,0.07441114264620974,1.9246221424960894,0.15299505091698032,-0.019854939546681678,-0.09549285217237391,0.0013188108652538927,-0.15891953862407546,-0.004799010530460172,0.04792416836360784,-0.016327222992253542,0.5778086627521343,0.8161560114948212,0.0026946336790390282,0.0,0.816122831411996,-0.5777471713114195,-0.011509864939629633,0.0,-0.007837179366175506,0.00884982212348015,-0.9999301271928779,0.0,0.6517824182124147,0.24818441732222193,0.3039122877892827,1.0,-0.019960000000000016,-0.026233142857142882,-0.009980000000000008,0.9990000000000008
0.45755367003897984,0.4920483780638706,-0.12423490568826127,-1.442387524046084,0.07419119059006529,1.925968212184519,0.15278503067169052,-0.014558569299269911,-0.12436953337070769,-0.007033015096168091,-0.19401863574804015,-0.01195579940245826,0.06788207477406245,-0.0022405451240767532,0.5780837124085942,0.8159612365658759,0.0026886373858550066,0.0,0.8159281350242247,-0.5780223819791162,-0.011495708255155387,0.0,-0.007826110413904075,0.008839386778490263,-0.9999303061899713,0.0,0.6513231727337808,0.24757552450451165,0.3039170602512049,1.0,-0.02623371428571398,-0.034478595918366946,-0.03805660405028427,1.019999999999999
0.4572633495084288,0.48966963662661905,-0.12433356774925469,-1.44620104688473,0.07399454272524175,1.927407628696934,0.15282452070223532,-0.019902976822124458,-0.1425777377507268,-0.004664551057167719,-0.24049107899154626,-0.018238185593039323,0.08567344829787145,0.006650278503703689,0.5785617064530069,0.8156224045202611,0.002681785222690949,0.0,0.81558931260164,-0.5785004489491612,-0.0114913287661545,0.0,-0.007821321828753669,0.008835848264138135,-0.9999303749313271,0.0,0.6508497046843037,0.24697368383185053,0.30388435017264065,1.0,-0.03182914285714193,-0.041832587755100833,-0.06316882872685294,1.036999999999997
0.4568972365643558,0.4869546968982524,-0.12444016875440302,-1.4505611738474553,0.07377541320515485,1.9290015466170558,0.1531947076078167,-0.024311815609106308,-0.18015023106776423,-0.010352037624107344,-0.2818640692462634,-0.010971643981962353,0.10525993355269235,0.03269844423243276,0.5793966614947014,0.815029657689816,0.0026291892332672767,0.0,0.8149958777304166,-0.5793354602621188,-0.011527821412356452,0.0,-0.007872485354789405,0.008822129480843002,-0.9999300945594956,0.0,0.6503015500719111,0.2462646077868414,0.3038373712047985,1.0,-0.037095428571427065,-0.04875399183673272,-0.08680386371656464,1.0529999999999953
0.45642454924603687,0.4835588999628009,-0.12459257205635267,-1.4558067124573064,0.07348519145913489,1.930975030412411,0.15398274341720347,-0.030712286755431296,-0.2052153579708689,-0.012516263717536185,-0.3212580125938853,-0.01715913950666736,0.10625984375709195,0.05793703751400104,0.5807139124755707,0.8140913951250174,0.0027016924189046413,0.0,0.814058968326596,-0.5806527852905318,-0.011449276072928893,0.0,-0.0077521611564714266,0.008848261203039873,-0.9999308037414824,0.0,0.6496669957109861,0.24537787267080766,0.30387370323662344,1.0,-0.04269085714285502,-0.05610798367346661,-0.1119160883931333,1.0699999999999934
0.4558598569818621,0.47971576465006277,-0.12473842579613349,-1.4618820085240518,0.07315736302439094,1.9331317875515777,0.15508649197384713,-0.03622645922157946,-0.23604405308485052,-0.0086336240374432,-0.37258075607880736,-0.019071284402788952,0.12903037508018986,0.07050331676985447,0.5823847816827055,0.8128972180574676,0.0026126308629369436,0.0,0.8128637489915895,-0.5823238485921471,-0.011498166696334779,0.0,-0.007825581127842152,0.008820240036127122,-0.9999304794063019,0.0,0.6488947790786594,0.2443499463409609,0.3038382530092604,1.0,-0.04828628571428298,-0.0634619755102005,-0.13702831306970195,1.0869999999999915
0.4552107303801307,0.47535522929790613,-0.12487620377897317,-1.4686069822147516,0.07277964201396919,1.93561886358953,0.1565257028385744,-0.035802886553322914,-0.26636943051993694,-0.005874022831965892,-0.39814768180781723,-0.026218211346520744,0.16181177015837372,0.09018961698018749,0.584403892773139,0.8114466301929155,0.0026839078545095587,0.0,0.811414362275017,-0.5843428009176099,-0.01144423919699655,0.0,-0.007718215697985031,0.008865990014505123,-0.9999309092969884,0.0,0.6480565406691073,0.24321670659333441,0.30387624507364625,1.0,-0.053881714285710924,-0.07081596734693438,-0.1621405377462706,1.1039999999999897
0.4544671189959081,0.4705968625737021,-0.12500118915509334,-1.476015693693371,0.0723800041305828,1.9382873150688038,0.15820769703327564,-0.04353018261358775,-0.2915121112697532,-0.013358308456009873,-0.44316837964588757,-0.026380440992610922,0.16307234092920478,0.1117148999012666,0.586707321175219,0.8097827407309531,0.0026793646397618347,0.0,0.8097503733968736,-0.5866459042686921,-0.011474436352193751,0.0,-0.007720110861720864,0.008901923721321495,-0.9999305754112845,0.0,0.6471084366219765,0.24196395472948232,0.30387460788302423,1.0,-0.059477142857138884,-0.07816995918366826,-0.18725276242283928,1.1209999999999878
0.4536996173024602,0.4656119655478232,-0.12510505987376058,-1.483495389151134,0.07193716688456424,1.9411509782837195,0.16021078374518571,-0.05096595677185146,-0.31581194882692937,-0.0014499739141691826,-0.4790397596284584,-0.023561186420172228,0.18044687144231075,0.12240419751857357,0.5894241309585013,0.8078064540540779,0.0029450863485957334,0.0,0.8077779457016774,-0.5893621074322255,-0.011306797169498381,0.0,-0.00739812386803268,0.009043649014406241,-0.9999317377580018,0.0,0.6461164160548903,0.24063094281195904,0.30400035221253324,1.0,-0.06507257142856684,-0.08552395102040214,-0.21236498709940793,1.137999999999986
0.4527285026425767,0.4596062651060008,-0.12519473066735207,-1.492833801630278,0.07136182702582775,1.9444000721244652,0.16275732345213867,-0.05622054249848561,-0.33911201531065693,-0.008246128774266167,-0.5278577625211525,-0.036810313852289306,0.18109134051940098,0.1564991921823178,0.5924380154851763,0.8055990973891939,0.002835312136362695,0.0,0.8055692449770204,-0.5923759916848191,-0.011385206356897229,0.0,-0.007492485379753389,0.0090292431578438,-0.9999311653463105,0.0,0.6449342139407653,0.23913385197182305,0.3039823244025337,1.0,-0.07066799999999479,-0.09287794285713603,-0.2374772117759766,1.154999999999984
0.45178737349628956,0.4538974642816793,-0.12530745823491987,-1.5017142190031019,0.07080697813161593,1.9475115268462528,0.16524427497635977,-0.06235591650722342,-0.36019511513057056,-0.009658586243190201,-0.5587246091803839,-0.035308038093464694,0.20499034396205235,0.1624585903142075,0.595532820862636,0.8033143571674857,0.0027294221346309067,0.0,0.8032833921023046,-0.5954710027832324,-0.011437819641655012,0.0,-0.007563018608850669,0.009004269826594871,-0.9999308595470047,0.0,0.6437489220053849,0.23760994709513047,0.30395322534681857,1.0,-0.07593428571427993,-0.09979934693876792,-0.2611122467656883,1.1709999999999823
0.4507154846067768,0.4472572662190977,-0.12541710062228134,-1.5115187295884542,0.07015331458010475,1.9512911991893036,0.16823514478051488,-0.06239636724193708,-0.39750846018391156,-0.006206005794237863,-0.5907623417459642,-0.029767027599583083,0.21878010035835788,0.17980454772498267,0.5991339168569915,0.8006305206886405,0.0031726825627962363,0.0,0.8006061846955711,-0.5990716400789212,-0.011119981185274876,0.0,-0.007002466999259271,0.009202604343410858,-0.9999331365292496,0.0,0.642508654045313,0.23593749487833035,0.30417137858132176,1.0,-0.08152971428570789,-0.1071533387755018,-0.286224471442257,1.1879999999999804
0.44953310925589657,0.4404002526425282,-0.12550599364955775,-1.5222027899417472,0.06948181654344214,1.9549889032228758,0.1715498347791055,-0.06544937677638013,-0.40405465706881905,-0.0035905491311692943,-0.638433413217266,-0.040882949026090944,0.21947967439526753,0.1955058800257676,0.6030811775673972,0.7976620870717883,0.0030058299034419088,0.0,0.7976356780738811,-0.6030188561568415,-0.011239710144054265,0.0,-0.007153056259911472,0.009176191472520093,-0.9999323133573603,0.0,0.6410379868177606,0.2341018632703673,0.3041021471372951,1.0,-0.08712514285713584,-0.1145073306122357,-0.31133669611882564,1.2049999999999785
0.44833778819729087,0.43347488143185275,-0.1255883565523484,-1.5327449338609802,0.06878802454080042,1.9587242807101022,0.17501460817303777,-0.07557336224524866,-0.44106565018152083,-0.004756546961761261,-0.6618794114905506,-0.042482167795427586,0.2456532700791003,0.21673065068057226,0.6073695739616398,0.794401414552762,0.003056155008345186,0.0,0.7943760305920533,-0.60730704800527,-0.011207959901146859,0.0,-0.007047730414007025,0.009235287922452762,-0.9999325171995364,0.0,0.6395045925459646,0.23216872578684813,0.30414398905837525,1.0,-0.0927205714285638,-0.12186132244896958,-0.3364489207953943,1.2219999999999767
0.44692532139401614,0.4258260209779904,-0.1256625716190674,-1.5444653285905776,0.06800318894998887,1.9629350001629642,0.1788906684029047,-0.08574193248849708,-0.4555876663405611,-0.008367240612531301,-0.6910453089972444,-0.04940713911034334,0.2484686962385391,0.23340794178967886,0.611646412275005,0.7911131152340052,0.0030744360572982302,0.0,0.7910883983845544,-0.6115838349568792,-0.011185064237877117,0.0,-0.0069685097844746635,0.00927363365485169,-0.9999327175316444,0.0,0.6379958117056098,0.23022042192373388,0.30413506065047174,1.0,-0.09798685714284892,-0.12878272653060147,-0.360083955785106,1.237999999999975
0.4453949243811299,0.4177784658388637,-0.125813627527478,-1.5567911695537417,0.06712697422781953,1.967147046533469,0.1832215503794564,-0.09004362155430923,-0.48825551823318386,-0.009867812243900266,-0.7057814550417159,-0.054228045449729145,0.26936276554503263,0.2629967558276305,0.6166484788873832,0.7872210620549318,0.0028982484693454843,0.0,0.787194917615091,-0.6165867179164994,-0.011212844025380763,0.0,-0.0070401010146565746,0.0091960467297032,-0.9999329326021064,0.0,0.6362717095576879,0.22796512708045114,0.3041020369463436,1.0,-0.10358228571427688,-0.13613671836733535,-0.38519618046167464,1.254999999999973
0.4437259182002396,0.4092786662857813,-0.1259369697258623,-1.5695644818519974,0.06623624480009041,1.9717433088386618,0.1877398347247544,-0.10318675311078734,-0.5053624803757721,-0.006685223868776437,-0.7622640163142259,-0.0556666332199204,0.25586577190004495,0.26940815491553805,0.6218656251341033,0.7831056623899344,0.0030680141136638093,0.0,0.7830824712030973,-0.621803832523087,-0.011071768388992802,0.0,-0.006762791788677558,0.00928783906405789,-0.9999339981682508,0.0,0.6345177986174436,0.2256203467251182,0.3041777090838857,1.0,-0.10917771428570483,-0.14349071020406923,-0.4103084051382433,1.2719999999999712
0.44211184876179543,0.4015437536000178,-0.12607531784430637,-1.5814530842006886,0.06545963662401902,1.9757341612746544,0.19204439063050066,-0.11391581129141475,-0.5226107208046836,-0.01839173057323815,-0.7703752897865772,-0.05693279167302019,0.27308432565585977,0.29661356532852146,0.6268428337118693,0.7791281391497331,0.002855084999734597,0.0,0.779102368262553,-0.6267809937700131,-0.011217509418942256,0.0,-0.006950498044669073,0.00925619708672043,-0.9999330044520096,0.0,0.6328124947400388,0.22338003225963432,0.30409024613775,1.0,-0.11411485714284715,-0.14997952653059912,-0.432466250441098,1.2869999999999695
0.440048192579348,0.3917850147777494,-0.1262458626641821,-1.5959406818100659,0.06443143423584542,1.9809133517205124,0.19753745783812957,-0.11467632016295304,-0.5403200551927403,-0.004248549785804096,-0.8079710084489755,-0.06233832916036684,0.2866949436957422,0.3024547466191432,0.6334523893928604,0.7737629717698212,0.003111397052625692,0.0,0.7737414787827886,-0.6333904979016031,-0.011015810464555636,0.0,-0.006553023079176268,0.00938558911812519,-0.9999344821564208,0.0,0.6306818384789767,0.22044836537515164,0.3042121896628358,1.0,-0.12036857142856082,-0.1581986938775371,-0.460532854491381,1.3059999999999676
0.43785013963040953,0.38169807495380687,-0.12638682718842686,-1.6111334101861472,0.06330494292357362,1.9859586733660943,0.2033038488613576,-0.12103378147192846,-0.5699685337258261,-0.007983704978171283,-0.8551190431127469,-0.06542163904717237,0.28663431703465286,0.3369327162083366,0.6395962165373934,0.7686929660524745,0.0029241466633788734,0.0,0.7686698118243098,-0.6395348156927053,-0.011076407724793323,0.0,-0.006644391034872521,0.009332311415003111,-0.999934377862582,0.0,0.6285632587323154,0.21768043158859113,0.30418337632152337,1.0,-0.12596399999998878,-0.16555268571427098,-0.48564507916794963,1.3229999999999658
0.4357742865373606,0.372428991903539,-0.1265312488701358,-1.6249666860027745,0.06228601888564639,1.9907505274350692,0.20869437423964662,-0.13399405993498822,-0.5748729625843514,-0.005500335133468444,-0.8855382659649984,-0.06511376840638922,0.3015421426567818,0.33868364422246283,0.6456318839109908,0.763630309776357,0.002994556664734944,0.0,0.7636088539014271,-0.6455706405537232,-0.010991505793692107,0.0,-0.006460373492127414,0.009383317233234836,-0.9999351063604291,0.0,0.6265533130835187,0.21498363112020297,0.3042082427304169,1.0,-0.13123028571427392,-0.17247408979590287,-0.5092801141576614,1.338999999999964
0.43340970433151393,0.36217665266702787,-0.12668040535751826,-1.6401496200527996,0.061124381411712184,1.9958630185211652,0.21476894632054563,-0.1396800582212587,-0.6092530123436962,-0.004102789596436671,-0.8833112928516887,-0.06997444962728808,0.3133105469790834,0.3628887626974394,0.6523582909464926,0.7578920654929638,0.0030040301910178955,0.0,0.7578716567031963,-0.652297416729721,-0.010926069507984373,0.0,-0.00632138195993831,0.009404562435614022,-0.9999357951066215,0.0,0.6242974205859662,0.21197369550031195,0.3042492281034192,1.0,-0.13682571428570187,-0.17982808163263675,-0.5343923388342301,1.3559999999999621
0.43089127718742926,0.3517189141974192,-0.1268344567161854,-1.6558481904050868,0.05990427757987546,2.001034687148807,0.22112921023735688,-0.15150643622069473,-0.6186565429216957,-0.007280424988272298,-0.9395353672289344,-0.07909080532742746,0.31340719898692954,0.37924970745536973,0.6593503690378959,0.7518178608405048,0.0027824219676427404,0.0,0.7517956276112334,-0.6592902541024164,-0.01097460939675088,0.0,-0.006416607213730607,0.009328105020165192,-0.9999359047501982,0.0,0.6219093348840286,0.20881944757206966,0.30416036881878045,1.0,-0.1424211428571298,-0.18718207346937066,-0.5595045635107987,1.3729999999999603
0.42834797881805514,0.34142607424043947,-0.1269839046413218,-1.6707709765824381,0.05878470145628346,2.0060281611741475,0.22742170495253364,-0.15934869034094098,-0.6393020213932856,-0.01353147820200681,-0.9535444571342918,-0.07043943079307022,0.32245520514958803,0.39768456116558265,0.6662373525136881,0.7457208987383824,0.002979631114631182,0.0,0.7457016874415513,-0.6661767288585202,-0.010876864226090886,0.0,-0.006126262006513394,0.009468671477042875,-0.9999364045649539,0.0,0.6196513235031994,0.2057562957927903,0.30428550316071923,1.0,-0.14768742857141504,-0.19410347755100263,-0.5831395985005107,1.3889999999999587
0.4255386620681965,0.330399059611427,-0.12707161381120302,-1.6871520911774986,0.05749190538557368,2.0113227995539105,0.23437608048643369,-0.17136856744051238,-0.6626696699905422,-0.0008411680125031087,-0.9729405429893596,-0.07180432245912861,0.30452012517833044,0.41439785008860236,0.6736877868176974,0.7389978500132421,0.0027731696101383338,0.0,0.7389767624679424,-0.6736274233022783,-0.010962937961124197,0.0,-0.006233624500830093,0.009435086966985529,-0.9999360584854953,0.0,0.6170708411439787,0.20242273092293042,0.30419771554818964,1.0,-0.15328285714284298,-0.2014574693877365,-0.6082518231770794,1.4059999999999568
0.4225905261422316,0.31889651366648775,-0.12711464267786268,-1.703811885459515,0.05608102638543059,2.016811196051196,0.24161531085350219,-0.17560878521352352,-0.6740502278249001,-0.00204158286309607,-0.979422671197293,-0.07362742066808539,0.31413249055387127,0.42940818884795967,0.6813005634052333,0.7319849679318263,0.0028802650508673103,0.0,0.7319663108707043,-0.6812405726979925,-0.010832763343252528,0.0,-0.005967381406232819,0.009488807441553712,-0.9999371744727215,0.0,0.6144371539078479,0.19901922260203816,0.3042691618559521,1.0,-0.15887828571427096,-0.2088114612244704,-0.6333640478536481,1.422999999999955
0.4194933446507621,0.30708804348642893,-0.1272034225288467,-1.7208446505969561,0.054712322584363725,2.0223119281492714,0.24907231527296433,-0.18423428512021192,-0.7010462976008273,-0.008667697475820193,-1.010260004789878,-0.0794467244699471,0.3285698581320031,0.43700535206251695,0.6891405004679745,0.7246083577431489,0.0029741225151191904,0.0,0.7245914642678573,-0.6890801251787403,-0.01079527188275578,0.0,-0.005773046664376946,0.009594667583195271,-0.999937305177769,0.0,0.6116918287245563,0.19548933802687157,0.3043289104102467,1.0,-0.1644737142856989,-0.2161654530612043,-0.6584762725302167,1.439999999999953
0.4161570074074446,0.2951314933894725,-0.12727509514396043,-1.7383455961517031,0.05321771379565851,2.0276795802185816,0.25688907121028814,-0.20040581572227867,-0.7137826297707152,-0.004832115192472681,-1.0293473716416417,-0.08728451011129301,0.3110221731206546,0.4631756763303452,0.6972693104609261,0.7167910073613062,0.002628185023368146,0.0,0.7167707723982756,-0.6972095979326156,-0.0109171098477703,0.0,-0.005993005725753675,0.009496154695390613,-0.9999369514766281,0.0,0.6087818132281735,0.19177405116535445,0.30421478802175644,1.0,-0.17006914285712685,-0.22351944489793818,-0.6835884972067854,1.4569999999999512
0.41260344574688995,0.28274440777709625,-0.12740826589611132,-1.7559034298829166,0.05177107921118499,2.0332868551863736,0.2650119614199791,-0.21553313857469994,-0.714970274284361,-0.0008877653739991428,-1.0448213279258523,-0.08715693026345106,0.32110758625489294,0.47583603612416414,0.7057160548738373,0.7084754346814012,0.0028557393989487173,0.0,0.7084586656699512,-0.7056557443773234,-0.010818334698383074,0.0,-0.005649464236346102,0.00965803175476744,-0.9999374010289175,0.0,0.6059079099691849,0.18793683272825987,0.30433025554849297,1.0,-0.17566457142855482,-0.23087343673467206,-0.7087007218833541,1.4739999999999494
0.4091239290892347,0.27084237739721984,-0.1275291864700198,-1.7728159596599145,0.05030402769791923,2.0385426527951362,0.27288116396573686,-0.22200438780313608,-0.7505168936460981,-0.005207149941690005,-1.0454139112473129,-0.0986870184450163,0.3303651879851413,0.4961085575590541,0.7137794936607961,0.7003507664173105,0.0028957398418319657,0.0,0.7003353644261395,-0.7137192811873185,-0.010766238747692884,0.0,-0.0054735035818658795,0.009712896462727313,-0.9999378482690029,0.0,0.6030653048549371,0.1842192565030803,0.30437098010989355,1.0,-0.18093085714284002,-0.23779484081630403,-0.7323357568730661,1.4899999999999478
0.4051536448009063,0.25804853445576953,-0.12767901423405473,-1.7910859254684262,0.04868434208256412,2.0440150587714703,0.28149429746913207,-0.23195568651131468,-0.7327824767030304,-0.008741824988324801,-1.0725586077206473,-0.0904523498499642,0.3119289909774029,0.5124224352961121,0.7225862192612756,0.6912616521299492,0.002689038764545763,0.0,0.6912447382669152,-0.7225264687497589,-0.010814835898704309,0.0,-0.005533086177028912,0.009673621528154847,-0.9999379010738054,0.0,0.5999324116200512,0.18007998037636083,0.30431500585830934,1.0,-0.18652628571426796,-0.2451488326530379,-0.7574479815496348,1.506999999999946
0.4011900053205006,0.24569247531977853,-0.12782899277649937,-1.8084100455236463,0.047083672649028,2.04934700907077,0.2898054011297962,-0.2478212457723067,-0.7536284123223684,-0.011293590731926956,-1.0890285264689363,-0.10193389795735461,0.31478743452604563,0.5245082714199588,0.7315584125572032,0.6817589276207069,0.0027929424371187046,0.0,0.6817445198196923,-0.7314991959381144,-0.010680961516533947,0.0,-0.005238906587602565,0.009718007554057134,-0.9999390552363407,0.0,0.5967798133213278,0.175812857306842,0.30437131708615617,1.0,-0.19212171428569594,-0.2525028244897718,-0.7825602062262034,1.523999999999944
0.39660439284678295,0.23144728573466788,-0.1279389217153412,-1.8281527577520182,0.04530079772935562,2.0553254429353567,0.2994962533191201,-0.2505576559943277,-0.7804795230361836,-0.0032174913958509257,-1.1123255315302694,-0.10192526753989911,0.3368850813202833,0.5542017279360864,0.7406490185769458,0.6718709409979972,0.0030359223772704978,0.0,0.6718602601898772,-0.740589473030565,-0.010572138625110344,0.0,-0.004854834043469036,0.009870149726224395,-0.999939503535485,0.0,0.5935178310095732,0.17152797425635677,0.30447830685484795,1.0,-0.19771714285712388,-0.2598568163265057,-0.8076724309027721,1.5409999999999422
0.39203099001038233,0.21788817113894804,-0.12797181587137574,-1.8471621174136785,0.043483906769922906,2.0608080764001735,0.30891618266547005,-0.27121217392309765,-0.800235070272155,-0.0031537852306910627,-1.0987846922902804,-0.11327924301783594,0.32429135100052464,0.5518207716587925,0.7498305491461617,0.6616092779548863,0.0028386250876531673,0.0,0.6615973044841477,-0.749771473376774,-0.010606192103679893,0.0,-0.004888929112267459,0.009831062834308346,-0.9999397224711513,0.0,0.5900745426556365,0.16712165563369807,0.3044065040519385,1.0,-0.20331257142855183,-0.26721080816323955,-0.8327846555793407,1.5579999999999403
0.38688403155153317,0.20316203559029639,-0.12809538069605522,-1.8675397210760158,0.041539164390468404,2.0665558539134414,0.3191279379221819,-0.28910838356123036,-0.8060313538963054,-0.008171605549036927,-1.135640303789412,-0.1020695901550324,0.31039081570280397,0.5740598551553503,0.7597744128744619,0.6501663905737325,0.0026931414370529516,0.0,0.6501537271969631,-0.7597155510468363,-0.010637641219155843,0.0,-0.004870309133322037,0.009833352877336277,-0.9999397908174951,0.0,0.5863375811734619,0.16224903835408783,0.30437876259823815,1.0,-0.2092371428571226,-0.27499738775507543,-0.8593740699427663,1.5759999999999383
0.3826859178911166,0.19144398132774654,-0.12820753881084065,-1.883392339704742,0.03998841622257914,2.0711267320546645,0.3272118871806016,-0.3017531372745599,-0.8230848209808628,-0.010061440029000368,-1.1450702048979753,-0.11416583934408252,0.32436165156060315,0.5831213488765313,0.7675810281885803,0.6409303125971102,0.0029062794670572088,0.0,0.6409210399701394,-0.767522240634938,-0.010515586314022713,0.0,-0.004509210711200695,0.009934451482369308,-0.99994048507524,0.0,0.5834350766155373,0.15837607998786382,0.3044815031750946,1.0,-0.2138451428571221,-0.2810536163265034,-0.8800547255587641,1.5899999999999368
0.3769396612484765,0.17618234261988872,-0.12841233100306118,-1.9040122726864228,0.03798881694557599,2.0768312655161574,0.33787431098346266,-0.3224877280300045,-0.883481379676599,-0.009697059633035897,-1.1438188413317791,-0.11067244404056462,0.31376694637330516,0.5895769248512938,0.7778533979640222,0.6284233098814032,0.002996960916390569,0.0,0.628416044264087,-0.7777944170751985,-0.010481745052104547,0.0,-0.004256035391885349,0.010036792568623235,-0.9999405727130375,0.0,0.5795869862198736,0.15318226211284275,0.3045484047321327,1.0,-0.2197697142856929,-0.28884019591833926,-0.9066441399221897,1.6079999999999348
0.37127775516050987,0.1616290998477855,-0.1285350855554012,-1.9237968130764256,0.035945126888631794,2.0820338662058933,0.34823884561689605,-0.33281100701295047,-0.8699251977341633,-0.011640198441458015,-1.1450156496939996,-0.12391874458907755,0.3017280659596834,0.598424067247683,0.7875809907436492,0.6161895373947828,0.0027173379738640096,0.0,0.616180211658404,-0.7875226621222817,-0.010523797111675476,0.0,-0.00434477208914269,0.009962904260261446,-0.9999409300024646,0.0,0.5757691159278491,0.14818452078992542,0.3044722963269601,1.0,-0.22536514285712084,-0.2961941877550731,-0.9317563645987584,1.624999999999933
0.36543911126068485,0.14676145066262897,-0.12856957001743774,-1.9436102644567943,0.033845855924676246,2.0873641887893557,0.35877793733280117,-0.3461441345736595,-0.8801013979082905,-0.0019186461575918198,-1.1731532965786475,-0.13129726430585317,0.29975485211916514,0.6117867676757726,0.7972314645260594,0.6036512224932898,0.0028178809768263503,0.0,0.6036442668486763,-0.7971736504189769,-0.01041715314350032,0.0,-0.004042064587499783,0.01000607260101248,-0.9999417684170283,0.0,0.5719104912428823,0.14319611431178073,0.3045167317044656,1.0,-0.23096057142854878,-0.303548179591807,-0.956868589275327,1.641999999999931
0.3596033676122514,0.13249121055297416,-0.12862422433219195,-1.96236067672529,0.03189484199615475,2.092237018071484,0.36883487576763274,-0.3593969543783338,-0.8882242604807664,-0.006276792910672233,-1.1712741158912159,-0.12467705159525265,0.2953260599813303,0.6336883137229526,0.8064101558450623,0.5913329008876472,0.0029677902470391184,0.0,0.5913285163769615,-0.806352117332,-0.010372824824051526,0.0,-0.0037407806657282494,0.010119885125764672,-0.9999417955486469,0.0,0.5682001633950301,0.13834393285336005,0.30460177845229425,1.0,-0.23622685714283392,-0.3104695836734389,-0.9805036242650388,1.6579999999999293
0.35309084276261704,0.11716403603405996,-0.12877152035330966,-1.9824023240919373,0.02966960672792869,2.0973534406909673,0.3797531553709325,-0.3920711975632104,-0.9202706484940183,-0.011508887319095076,-1.1761370021281654,-0.1407645499430673,0.30069005738359844,0.6464847012593505,0.8162500962449036,0.5776738658215353,0.003071160724645097,0.0,0.5776719740209862,-0.8161929854800022,-0.010239520747875343,0.0,-0.0034085093182145143,0.010132328353015183,-0.9999428573605464,0.0,0.5641887812975878,0.1329971960655418,0.30466248162110005,1.0,-0.24182228571426187,-0.31782357551017276,-1.0056158489416074,1.6749999999999274
0.34619651144233327,0.1016981303705711,-0.12893305742792185,-2.002612404964877,0.027423387777236092,2.102180494817573,0.3908780744208599,-0.40362024653508605,-0.9149417379390483,-0.008072012711678086,-1.1672074750097658,-0.1349175638919208,0.284131632762475,0.6555567327630838,0.8261656495498672,0.5634028173803879,0.002886481057543009,0.0,0.563400016927965,-0.8261090388954159,-0.010248106267448133,0.0,-0.0033893291067452758,0.0100930711706807,-0.9999433195749396,0.0,0.5600318209846561,0.1274755951103381,0.3046305979138767,1.0,-0.24741771428568984,-0.32517756734690667,-1.030728073618176,1.6919999999999256
0.3387151705483152,0.0850524330460025,-0.12895968802020394,-2.0242202916108094,0.025103073338275012,2.1072907430358345,0.40277390262062274,-0.41792080072304283,-0.9224517361559751,0.0007426063214698306,-1.2077048941775772,-0.12464475883048146,0.2706920244113423,0.6657482018781914,0.8364650456247253,0.5479956329255335,0.002785793204539026,0.0,0.5479925494137659,-0.8364077611292497,-0.01034262108778811,0.0,-0.0033377163933172582,0.010178030899005222,-0.999942632022606,0.0,0.5554747156004157,0.12169057860222046,0.30457556737838687,1.0,-0.25334228571426065,-0.33296414693874266,-1.0573174879816019,1.7099999999999238
0.33163497699585054,0.06994643956011623,-0.1290565727133612,-2.043266737390041,0.022841834515341386,2.111747462792053,0.41348224903618436,-0.44399253140127254,-0.9413602295848497,-0.007183507354111039,-1.2066118102424943,-0.1349721750052794,0.26832249061858693,0.6663158930592628,0.845637153688784,0.5337316711244797,0.0030090598216698456,0.0,0.5337323418767698,-0.8455808384080672,-0.01017741878164926,0.0,-0.00288766300369675,0.010212632620704584,-0.9999436801827049,0.0,0.551448421997426,0.11633373872348017,0.3046975963866029,1.0,-0.2586085714285458,-0.33988555102037454,-1.0809525229713137,1.725999999999922
0.3237213507920382,0.053787658841881955,-0.12919983969867038,-2.0636234251572674,0.020451626399094074,2.1162535253280526,0.42507137411923174,-0.4660304609375357,-0.9608554450807189,-0.012799757017460249,-1.182061073978939,-0.1371364186302347,0.2714138776362526,0.6691995649855468,0.8548496906068982,0.5188481704733534,0.0030544012428870546,0.0,0.5188504519859224,-0.8547938896666245,-0.010117389179775204,0.0,-0.002638556147265436,0.010233821508275245,-0.999944151899892,0.0,0.5473095960276139,0.11082334620981293,0.30474576516899093,1.0,-0.25998,-0.34168800000000005,-1.08710748,1.7419999999999203
0.3155772636173056,0.03788294452060791,-0.1292674960090659,-2.0836766189151796,0.018119019100914204,2.1204628317437964,0.43647195346828077,-0.47410841558128497,-0.9308437989393133,-0.0008498358736449593,-1.156890903879083,-0.132411623911557,0.24905028023981834,0.6513376769983604,0.8648908881784175,0.5019326337633475,0.0028512471913361525,0.0,0.501933716278015,-0.8648348123652837,-0.010199935571090142,0.0,-0.002653873790981809,0.010253165839432213,-0.9999439131992205,0.0,0.5425954143260107,0.10464800714085849,0.3046726312708966,1.0,-0.25998,-0.34168800000000005,-1.08710748,1.7599999999999183
0.3072047088442115,0.022009407927433066,-0.12929058421572423,-2.1033988597893853,0.01564466466637947,2.1244197351511227,0.4476804053062455,-0.49520700614485874,-0.9338802200944786,-0.0005298747802390718,-1.1435853850117204,-0.14615893304443886,0.22208297234824906,0.6597259804206965,0.8739909227689084,0.4859150573361098,0.002677848540433067,0.0,0.48591552563923807,-0.8739358326328903,-0.010149348954885696,0.0,-0.0025915035799637387,0.010171842879186849,-0.9999449073432176,0.0,0.538133422756222,0.09880946005987983,0.30464353824014895,1.0,-0.25998,-0.34168800000000005,-1.08710748,1.7769999999999164
0.2985923531049098,0.00621061362784112,-0.12934742347839542,-2.122604200718585,0.013241449375947898,2.1282828508435303,0.45878388196640796,-0.5138348148858749,-0.936990228995384,-0.008283965594585822,-1.1157550021138802,-0.13753330943264588,0.21417827498779007,0.6374878319296502,0.8828665924431809,0.4695946612257212,0.002860244268314016,0.0,0.4695982555614892,-0.8828121666052027,-0.010045086791205823,0.0,-0.0021921028939423937,0.010211833874474344,-0.999945455079337,0.0,0.5337586224611534,0.09295980651709297,0.3047261058221593,1.0,-0.25998,-0.34168800000000005,-1.08710748,1.7939999999999146
0.29081477822832313,-0.007646630699534519,-0.12939650418294968,-2.1391948807195367,0.011179166381848519,2.131485094981633,0.46847123100729093,-0.5105812117420467,-0.9230215234845563,0.0022277967604132295,-1.0930905067743135,-0.14714480662100501,0.2146155609671005,0.6414812704807124,0.8909443508066983,0.4540807093327891,0.003101625166000476,0.0,0.45408785145956854,-0.8908901693164771,-0.009983800543872729,0.0,-0.0017702779468404817,0.010303619378408159,-0.9999453492784973,0.0,0.5296506024504197,0.08747847061301703,0.3048319196142735,1.0,-0.25998,-0.34168800000000005,-1.08710748,1.8099999999999128
0.2813806657141839,-0.024002688319606058,-0.12938811030096556,-2.158952575505291,0.00862151236513542,2.1349132923826013,0.4798529315798401,-0.5278523577983877,-0.9297647721477851,-0.0037021184075597107,-1.059339799354141,-0.14371044700773544,0.1896519933519792,0.6218696827852395,0.8991476299000097,0.4376140619255666,0.0028669411242962938,0.0,0.43761979159387343,-0.8990940148949849,-0.009980845984187681,0.0,-0.00179014341249073,0.010229081129915378,-0.9999460791891733,0.0,0.5251758265188781,0.08169186489168054,0.30477776591374317,1.0,-0.25998,-0.34168800000000005,-1.08710748,1.826999999999911
0.2721371419014451,-0.039387461856643914,-0.12944180004773534,-2.1771786319425077,0.006262288752787881,2.138046494648909,0.49037042357977334,-0.5426976475473976,-0.8910112762220982,-0.007211420668979455,-1.0586330748019646,-0.13651189969334263,0.1579143602414059,0.6196874049390958,0.9070920376204279,0.42089935605923023,0.0029179197648040553,0.0,0.4209066559410568,-0.9070388249511481,-0.009945044844837561,0.0,-0.0015392260912747702,0.01024944017652249,-0.999946288437088,0.0,0.5207679883133506,0.07584075398462861,0.3048035129125144,1.0,-0.25998,-0.34168800000000005,-1.08710748,1.843999999999909
0.2632818361329127,-0.05380526476494892,-0.1294761623640449,-2.1939394743981047,0.004134761871695488,2.1407612792469157,0.5002440687415256,-0.5389825409699384,-0.9110511006371333,0.0011206110303548485,-1.0283884696276895,-0.1465637034008675,0.16263625495591352,0.6133796967313804,0.9143361669735328,0.4049204948971782,0.0030843925789182957,0.0,0.40493042581449123,-0.9142827272750279,-0.009959505883334583,0.0,-0.0012128245428017492,0.0103555002101475,-0.9999456448587724,0.0,0.5166357714402583,0.07037972584154391,0.3048873563389774,1.0,-0.25998,-0.34168800000000005,-1.08710748,1.8599999999999073
0.2542812707229421,-0.06787052434786212,-0.12947830969603139,-2.2105967351316793,0.001899011015939504,2.143173855113628,0.5098899265867566,-0.5620909298841924,-0.8574475004655809,0.00027985848328946576,-1.0152751475132435,-0.13404576757791434,0.14286039129205047,0.5887691682021624,0.921218335157928,0.3890119228306763,0.0026925388843244023,0.0,0.38901869023779684,-0.9211651663538705,-0.009997091733271162,0.0,-0.0014087419712298654,0.010257149635054606,-0.9999464017273239,0.0,0.5124031902423859,0.0649336319230244,0.3047463313446277,1.0,-0.25998,-0.34168800000000005,-1.08710748,1.8759999999999055
0.24440280987168828,-0.0828890636087863,-0.12955115288218946,-2.2278047967290906,-0.00042706200871672604,2.1457067371622447,0.5199262875993942,-0.5907916949609197,-0.8830767627777228,-0.005315362090669258,-0.9931006925716364,-0.13245724579702303,0.14165187438653198,0.5959458365405148,0.9282876841728973,0.37182633416028765,0.0028106118638544083,0.0,0.37183535816086527,-0.9282350115434959,-0.009948701796481465,0.0,-0.0010903019744420983,0.010280540152485196,-0.9999465594399423,0.0,0.5080161183605476,0.059079302559148186,0.3047867828805092,1.0,-0.25998,-0.34168800000000005,-1.08710748,1.8929999999999039
0.23504413254285786,-0.09692748135447006,-0.1295222541673401,-2.243753269237054,-0.002609445051114523,2.1477972034055695,0.529141101149274,-0.5782838347495195,-0.8974046831748139,0.002255467901777268,-0.9800806917659274,-0.14359904005476531,0.13291993124009718,0.5709923599044612,0.934542859355692,0.35581261125098157,0.0027886561734229466,0.0,0.3558223309791927,-0.9344905637334151,-0.009929852513803157,0.0,-0.0009272117244117362,0.01027233667546961,-0.9999468082741422,0.0,0.5038335494160097,0.053687738897391105,0.30479883542908365,1.0,-0.25998,-0.34168800000000005,-1.08710748,1.908999999999902
0.22483178935427567,-0.1115823939664679,-0.12953365193307914,-2.260488663987969,-0.004989892183878508,2.149812837849711,0.538866077241686,-0.6037482953614873,-0.8498499337565983,0.006921444107419828,-0.9738562447511497,-0.1430499935541085,0.1142265077894825,0.5697059114278441,0.9409466717573718,0.3385171193313162,0.0025035434010406816,0.0,0.33852491702113885,-0.9408951644637014,-0.009895299180093933,0.0,-0.0009941754342606135,0.01015865623726108,-0.9999479053024007,0.0,0.499353698118294,0.04790116311008782,0.3046908914667842,1.0,-0.25998,-0.34168800000000005,-1.08710748,1.9259999999999002
0.21489315222675068,-0.12541196758756215,-0.12962896076989208,-2.275761601669541,-0.007107935465908174,2.1515786847234484,0.5477587476540652,-0.6192344993490042,-0.8482952821755562,-0.0023877168022190644,-0.951280622211682,-0.12625211010969012,0.10368279141012923,0.5426882059186053,0.9467420754546292,0.3219522032117305,0.002639756083899195,0.0,0.32196230126138964,-0.9466907413492911,-0.009882495191401414,0.0,-0.0006826715995969512,0.01020627245409056,-0.9999476816124331,0.0,0.49522393240090123,0.042377723078310545,0.30475069282448186,1.0,-0.25998,-0.34168800000000005,-1.08710748,1.9419999999998985
0.20428073939299038,-0.1399399344331098,-0.12963554931434754,-2.2916960893256157,-0.009366805910491206,2.153169498482807,0.5570075029350513,-0.636604814283895,-0.8507614765388696,-0.004950514015404186,-0.9134147774678579,-0.13159938730725884,0.09175595530492688,0.5413222986405681,0.952496490012795,0.30450659891328635,0.002629568933652835,0.0,0.30451754108748347,-0.9524454954387315,-0.009868753199396018,0.0,-0.0005005890243493516,0.010200899047940387,-0.9999478441745062,0.0,0.4907973252348187,0.03663678837065951,0.30477548140502403,1.0,-0.25998,-0.34168800000000005,-1.08710748,1.9589999999998966
0.1932955572233557,-0.15434503856311416,-0.12972916227669895,-2.307325502636129,-0.01161959065161756,2.1546538568357203,0.5660041431035708,-0.6495411393961912,-0.8821673122480573,-0.004380027820538307,-0.9212301297429588,-0.13271411598856744,0.07534665803644268,0.5207687209688417,0.9579815951808104,0.28678341139666746,0.0026991005405085275,0.0,0.28679601524861215,-0.9579310905870397,-0.009839625269849935,0.0,-0.00023629352676157733,0.010200467582375562,-0.9999479459584235,0.0,0.48639206078428676,0.0307874298582551,0.30480219719453094,1.0,-0.25998,-0.34168800000000005,-1.08710748,1.9759999999998947
0.18287279318187377,-0.16784292964452105,-0.1297493127178547,-2.3216790243819325,-0.013706480936840518,2.155883124359418,0.5743143420576736,-0.644247245438001,-0.837319122765867,0.0071881200979901985,-0.8773163740566062,-0.12639110076405174,0.07994297610392614,0.5103005034706376,0.9628033117555479,0.27015204388706543,0.0028987855041511276,0.0,0.2701675568233521,-0.962753507745348,-0.009793950445909166,0.0,0.00014496297261817892,0.010213002353845806,-0.9999478354237571,0.0,0.4822653880165277,0.02538370844638801,0.3048860463896272,1.0,-0.25998,-0.34168800000000005,-1.08710748,1.991999999999893
0.17151945202342328,-0.1819349008863809,-0.1297953398059911,-2.3367804726842136,-0.015962873480016133,2.1568725951197907,0.5829377329010749,-0.6799987044376824,-0.8153794662672545,-0.0044879232667468195,-0.8810729272992242,-0.14485474885399968,0.06296071249350182,0.5057696724460773,0.9676229836800792,0.2523474379754362,0.0026979441251380296,0.0,0.25236181870558044,-0.9675736396534584,-0.009772983606818319,0.0,0.00014427501992614333,0.010137616823810133,-0.9999486026340814,0.0,0.47779530591730235,0.019598269439821115,0.30483261981355547,1.0,-0.25998,-0.34168800000000005,-1.08710748,2.0089999999998915
0.1598087477515643,-0.19595584395921942,-0.12991559507123454,-2.3513122068012677,-0.01818622060168122,2.157821267668175,0.5913078384301155,-0.6886367774129845,-0.8078504352202334,-0.00120711631815436,-0.8400874582137203,-0.13641767142897251,0.05210361682561715,0.47624073032653397,0.9721542509873864,0.234282136062893,0.0029563339071957194,0.0,0.23430000819923597,-0.972106177079747,-0.009686771518198816,0.0,0.0006044445672892529,0.01010989981535607,-0.9999487109709619,0.0,0.47344851808756433,0.013729813059883961,0.30493642369363505,1.0,-0.25998,-0.34168800000000005,-1.08710748,2.0259999999998897
0.148039753844683,-0.2097399945446599,-0.1299511619929411,-2.3657966811371023,-0.02027469879551767,2.158439324358862,0.5994116587201537,-0.6961313251157019,-0.7863514461448993,-0.005354080450311919,-0.8225138688350979,-0.127009161854206,0.028927759472041632,0.4761343330742778,0.9762965515733926,0.21637550647487624,0.002725891569920873,0.0,0.2163919818517368,-0.976247865090927,-0.009765397938291582,0.0,0.0005481634546233294,0.01012398032901755,-0.9999486009486309,0.0,0.4689666705481706,0.008002705616509473,0.30486066707810855,1.0,-0.25998,-0.34168800000000005,-1.08710748,2.042999999999888
0.13510101561274943,-0.2242272458757955,-0.13011332204765497,-2.380544480539912,-0.022597060879475675,2.1590376220245764,0.6076785807059016,-0.7112476163406096,-0.7834007228536356,-0.0012013665122958513,-0.7924390525715131,-0.12627352027122343,0.019889250259227383,0.45810181534543915,0.9803633909495411,0.19712947013960946,0.0028880078951120684,0.0,0.19714846687539378,-0.9803160000062895,-0.009683441617450626,0.0,0.0009222863894179367,0.010062851730069667,-0.9999489428980235,0.0,0.46433878389887706,0.0017695664943828304,0.3049247928551314,1.0,-0.25998,-0.34168800000000005,-1.08710748,2.060999999999886
0.12213571079640287,-0.23855440637749717,-0.13014834954515195,-2.3950717753081574,-0.024845369004825507,2.1593529987158218,0.6157423348049305,-0.7194225263049276,-0.7848447331017963,-0.004703757020791401,-0.7681167886805589,-0.12320796639881587,0.017665891355595,0.43153401805363023,0.9841901915827882,0.17703702648106046,0.0028818307006340865,0.0,0.17705687750168603,-0.9841436282145363,-0.009639920917201762,0.0,0.0011295341339603304,0.00999795605132207,-0.999949381232588,0.0,0.45939515507752005,-0.00461471208582313,0.30493600568565343,1.0,-0.25998,-0.34168800000000005,-1.08710748,2.0799999999998837
0.10938714810139379,-0.25188196544245284,-0.13033268151985714,-2.4083577060455488,-0.026869412633045105,2.159591237717794,0.623078325639588,-0.7436463935077933,-0.7762653387099181,-0.0025532200612565174,-0.7568648121162942,-0.1203402721323288,0.007019183383669409,0.4244861045330322,0.9871624881844543,0.1596309805207346,0.0029864495097283936,0.0,0.15965274730479023,-0.987116053982275,-0.00967693906685753,0.0,0.0014032600008819784,0.010029699218953527,-0.9999487166824842,0.0,0.4552627034514201,-0.010165616101703504,0.30496345694945337,1.0,-0.25998,-0.34168800000000005,-1.08710748,2.095999999999882
0.09812988469333193,-0.2635336707533381,-0.1304051985578161,-2.4199707317767873,-0.028666322948125048,2.15959724668915,0.6293484153707367,-0.7653808821458691,-0.7722153675853914,-0.00862235094383336,-0.7484632594371123,-0.11768368704981465,3.273536900144213e-05,0.4092953632680186,0.9896214693540881,0.14360225584678327,0.002913144414387048,0.0,0.14362405323886973,-0.9895751911493926,-0.009686036035931015,0.0,0.0014918675388130853,0.01000409943247383,-0.9999488448544714,0.0,0.45133119076292827,-0.015226077079186025,0.30493440675175776,1.0,-0.25998,-0.34168800000000005,-1.08710748,2.1109999999998803
0.08418666809827544,-0.2773280768244104,-0.13059999899786345,-2.433369397247936,-0.03084100828130054,2.1595822028777922,0.6365347949296172,-0.789876126429575,-0.7594311056642609,0.00024734100984384177,-0.7484610525602234,-0.11768291645335213,-0.0037651201758666635,0.39730228694828307,0.9922508026778241,0.12413367963805055,0.003149772363205965,0.0,0.12415863271249683,-0.9922059716200764,-0.009627601239746703,0.0,0.0019301505414182074,0.00994425794575259,-0.9999486918101328,0.0,0.44670947019852936,-0.02143300422582325,0.30499867716360507,1.0,-0.25998,-0.34168800000000005,-1.08710748,2.1289999999998783
0.07090860694889597,-0.2901779401736246,-0.13068033041983762,-2.4458389286258955,-0.032809968872765084,2.1593832184853063,0.6430293636487237,-0.7833716164795433,-0.7405800962499369,-0.01074674601686489,-0.7132791571069187,-0.11138351111892825,-0.013805738523356374,0.37600845051169546,0.9943562292405419,0.10595346495443092,0.0032092890006185505,0.0,0.10597979866003887,-0.9943121061118709,-0.009615862757007767,0.0,0.0021722427500995845,0.009901903476406102,-0.9999486155143066,0.0,0.44229052740204405,-0.027169968534696453,0.30499436723494766,1.0,-0.25998,-0.34168800000000005,-1.08710748,2.1459999999998765
0.05798907579646232,-0.3021242480889362,-0.13086338770133385,-2.4570667288715122,-0.03462893593682634,2.1591206907596385,0.6490014363754567,-0.8173388910896999,-0.724722141650776,-0.001556073643344355,-0.6947615570173586,-0.12430068893696805,-0.027245270607448156,0.3686883148854836,0.9960683927698111,0.08840745831520902,0.003553187360435668,0.0,0.08843791175636445,-0.9960257932836509,-0.00959696718009619,0.0,0.0026906745872602444,0.009873662243373695,-0.9999476341609942,0.0,0.4382094395131262,-0.03270395806072737,0.30509977636610053,1.0,-0.25998,-0.34168800000000005,-1.08710748,2.1619999999998747
0.04425143663124703,-0.3145654137975311,-0.13094973729637724,-2.4689731654294698,-0.03656445292290932,2.1585514937876966,0.655049164333879,-0.8166520134426809,-0.7144452924487731,-0.0037118176069242965,-0.6795918191221669,-0.10783633558740588,-0.037315007682395526,0.3542178436296656,0.9975212767477393,0.07014590184842301,0.0034061401380024794,0.0,0.07017564705514778,-0.9974789742368659,-0.00958234924063432,0.0,0.0027254431148765468,0.009797813975185508,-0.9999482860634019,0.0,0.4337451424299177,-0.03842403208360882,0.30503979183543856,1.0,-0.25998,-0.34168800000000005,-1.08710748,2.178999999999873
0.030034681588690163,-0.3268044411381785,-0.1311582985319235,-2.4802302658752744,-0.03846992255093917,2.157999303502863,0.6607960194020547,-0.8356687990450545,-0.7097919757366353,-0.0004627203770338241,-0.6583863377217467,-0.1081845021983513,-0.03898409747145745,0.3389728366205645,0.9987091041360298,0.05046710640334462,0.0037340846657084935,0.0,0.050500729363073815,-0.9986688508630772,-0.009536747392414545,0.0,0.00324788452857544,0.009713197452921853,-0.9999475511452235,0.0,0.4291524909242069,-0.044641570351126564,0.3051409745323931,1.0,-0.25998,-0.34168800000000005,-1.08710748,2.196999999999871
0.015777636735520295,-0.3387747810843003,-0.131253178026869,-2.4914033159284563,-0.04028750447873377,2.1571806939471156,0.6662517075838688,-0.8455796530710468,-0.7082652187940027,-0.00633537238727325,-0.6626032033387022,-0.10468046008455263,-0.05146197083201612,0.32075038149674395,0.9994311068845807,0.03324457417979465,0.0036066300439952757,0.0,0.03327766717630337,-0.9993909780209251,-0.009540273522827374,0.0,0.0032873344875784527,0.00965505225080799,-0.9999479853462383,0.0,0.4249713257466365,-0.050026399779339745,0.30509090039813236,1.0,-0.25998,-0.34168800000000005,-1.08710748,2.212999999999869
0.0010674339771090222,-0.350558948906701,-0.13145973172283018,-2.5021139550399814,-0.042112570349725036,2.1562741121051707,0.6714083587305747,-0.847168636382254,-0.6998395967895176,-0.004678252492921376,-0.6126721490543307,-0.10728112596357618,-0.04744303570064735,0.29386886138280616,0.9998758852561868,0.014677866095766545,0.0036771226848907527,0.0,0.014712311400968292,-0.9998367967193782,-0.009522327466657633,0.0,0.0035368232137363287,0.009575428936102574,-0.9999478996638996,0.0,0.42056797543730845,-0.05588582864883341,0.30512004073052873,1.0,-0.25998,-0.34168800000000005,-1.08710748,2.229999999999867
-0.01380003956164149,-0.3620900015323468,-0.13164961674339432,-2.5125744834472536,-0.04385067903115736,2.1553139843868108,0.6763381875674753,-0.8942463485425973,-0.6672256182060434,-0.019840743814909058,-0.6198299922720516,-0.11056668486950746,-0.07026082507973766,0.28375073450730304,0.9999761057721175,-0.0038522693062537083,0.0037006495688082946,0.0,-0.00381680781962479,-0.9999375611722734,-0.009542150497782583,0.0,0.0037372493916974503,0.009527981270416853,-0.9999476238983194,0.0,0.41615094286510945,-0.0616844981362334,0.3051087331792611,1.0,-0.25998,-0.34168800000000005,-1.08710748,2.2469999999998653
-0.028031071155348954,-0.3726947521818459,-0.13178151161579701,-2.522182995461465,-0.04552174450904547,2.1541975625468006,0.6806401447614805,-0.8979946004901834,-0.6546242317757653,-0.010326627414669188,-0.5805249572835108,-0.09023978778816458,-0.06591726938741103,0.26385782841863953,0.99976110586617,-0.021124201900219075,0.0034994560348539094,0.0,-0.021090128232964245,-0.9997227829848534,-0.009503187536020242,0.0,0.0036993044013768905,0.009427294808382794,-0.9999487193149166,0.0,0.4119434626669561,-0.0671250673566981,0.30504649065530026,1.0,-0.25998,-0.34168800000000005,-1.08710748,2.2629999999998636
-0.04344044027356074,-0.38379271566487777,-0.13202517625296875,-2.5317828271831884,-0.047109761541297146,2.1530845240429577,0.6849837753527966,-0.9144547986861811,-0.6395368699345606,-0.01994027054614382,-0.5655738326693485,-0.09296513261829717,-0.06291150828273742,0.25321354881926883,0.9991928833317179,-0.03974669935713354,0.003811651960750669,0.0,-0.03970873592743146,-0.9991558724802796,-0.009565860150805891,0.0,0.004188726453905667,0.009406964617694108,-0.9999469803881482,0.0,0.4075967536815878,-0.07296681128217145,0.30515308039234657,1.0,-0.25998,-0.34168800000000005,-1.08710748,2.2799999999998617
-0.05994413028510935,-0.39521731007934224,-0.13215889820567794,-2.541813631855879,-0.04889329493491431,2.151721702037961,0.6892754443599682,-0.914541825861709,-0.6283405187595246,-0.009880991152882483,-0.548348288598858,-0.09275877457595434,-0.06799405986454521,0.22908717435406,0.9982323606105548,-0.059150239658269765,0.0037616857201191755,0.0,-0.059112320699984566,-0.9981965018864969,-0.00949863486147223,0.0,0.004316831167878787,0.00925966100485301,-0.9999478104614976,0.0,0.4029021396408797,-0.07906677802673903,0.3051377782927187,1.0,-0.25998,-0.34168800000000005,-1.08710748,2.2979999999998597
-0.0740237649744096,-0.40443948900504656,-0.13237736544362497,-2.549883119670187,-0.05030621150050436,2.150453638095915,0.6926126578052711,-0.9375536149308631,-0.6191982129708775,-0.010096006512152537,-0.5198954800047271,-0.09542286837626449,-0.08474012693881151,0.22429168563420837,0.9971272390939816,-0.07553247414061115,0.0035862666131251776,0.0,-0.07549550516964959,-0.9970910694571309,-0.009517079868477416,0.0,0.004294765689247304,0.009219170061452828,-0.9999482796080268,0.0,0.3989548783426154,-0.08422434871613035,0.30509077973709436,1.0,-0.25998,-0.34168800000000005,-1.08710748,2.312999999999858
-0.09003205606719773,-0.4146552145596257,-0.13250764014029717,-2.5584735921464588,-0.05185018771801559,2.149178914462324,0.6960926463541437,-0.9645932225346815,-0.5828695103792212,-0.009112621440807782,-0.5110512208789849,-0.09358797994408387,-0.07944470469781348,0.20224770598842726,0.9955768621524652,-0.09376815523802368,0.003871887281039539,0.0,-0.09372822843132539,-0.9955432730506963,-0.009452913828023178,0.0,0.004741104908888516,0.00904837136075104,-0.9999478230887654,0.0,0.39462907027395505,-0.08998208372289096,0.30517984110879137,1.0,-0.25998,-0.34168800000000005,-1.08710748,2.329999999999856
-0.10644411917378738,-0.4245517792669162,-0.13270292059628722,-2.5669623735748117,-0.05326314975025794,2.147644113966792,0.6993519909452559,-0.9544475111465074,-0.5678981860772782,-0.00798078773746768,-0.5005983280230806,-0.08578817754967813,-0.08594263692610625,0.1753930904828716,0.9936602613107571,-0.11227821153521617,0.0036925881843263863,0.0,-0.11223891257467267,-0.993625867276914,-0.009529390508514498,0.0,0.004739085302542079,0.009054698911440576,-0.9999477753853541,0.0,0.3901580861519692,-0.09578247141629544,0.3051311643805376,1.0,-0.25998,-0.34168800000000005,-1.08710748,2.3469999999998543
-0.12303363003149503,-0.43408041310583173,-0.1329763939239774,-2.575063291429528,-0.05473536449246227,2.1461126088303875,0.7022459862115863,-0.9850880767726666,-0.5617519349710008,-0.025935058882831583,-0.46375966043291417,-0.09042203287363478,-0.08215542331566775,0.17159002454559422,0.991417435241498,-0.13061289523467362,0.0035337796754104896,0.0,-0.1305743616273341,-0.9913829467154203,-0.009536034221433707,0.0,0.004748949378361456,0.008992942706954915,-0.9999482858934612,0.0,0.38570231219972,-0.10160109904364932,0.30508138956120573,1.0,-0.25998,-0.34168800000000005,-1.08710748,2.3639999999998524
-0.13882093834844098,-0.4428163069609959,-0.13312222840416885,-2.5821444405377254,-0.05599238108847111,2.144844130856085,0.7047914899281508,-0.9952225033813814,-0.5355047448197591,-0.012207836372566205,-0.43266237434696164,-0.08057356845942057,-0.07872954273423208,0.1604258411508246,0.9889975091787517,-0.1478163025599808,0.0038748466974885118,0.0,-0.14777421663051588,-0.9889655455387747,-0.009522475394543883,0.0,0.005239767863869094,0.008845272310036748,-0.9999471515987703,0.0,0.3816404159868751,-0.10704645716478221,0.30518275968572584,1.0,-0.25998,-0.34168800000000005,-1.08710748,2.3799999999998507
-0.1559522412362283,-0.45172148874897167,-0.13332070865176962,-2.5895709945501544,-0.05741956619150882,2.143192847202541,0.7072113578653513,-1.0061155646611228,-0.5068203429711453,-0.005561023978458812,-0.43507955740118404,-0.09034199860042333,-0.09547918853306823,0.13900071867207803,0.986091893681144,-0.16610293003574123,0.003652499292969905,0.0,-0.16606255616410598,-0.986060125539741,-0.009455324531792498,0.0,0.005172240602188571,0.008717443341744721,-0.9999486257347108,0.0,0.3771592976085739,-0.1128726151828664,0.30513384601111737,1.0,-0.25998,-0.34168800000000005,-1.08710748,2.396999999999849
-0.17319178585014833,-0.4602895444552947,-0.1335601963891926,-2.5965675860342485,-0.05862450704787508,2.1416745971512783,0.7092882923322353,-1.0279097328362161,-0.496154856227841,-0.022604087331716788,-0.4116590470371609,-0.07162309854160188,-0.08035725262771333,0.11919572618370655,0.982858094478313,-0.18427491640253074,0.0036699052450825005,0.0,-0.18423342844329632,-0.9828265485712646,-0.009527128042206455,0.0,0.0053625942756992395,0.008687862956334128,-0.9999478804517192,0.0,0.37274423631786197,-0.11866079389554343,0.3051366672850387,1.0,-0.25998,-0.34168800000000005,-1.08710748,2.4139999999998474
-0.19064429228999277,-0.46841999342037827,-0.13373712437670904,-2.6031885224903926,-0.05978144751530349,2.140126030997047,0.7111568530869692,-1.0306343416433852,-0.4737567718365046,-0.010438858896046581,-0.36749390619340705,-0.06498175833905598,-0.08887793204903717,0.10643247152376727,0.9792919045173707,-0.2023738260710592,0.0035982175184267923,0.0,-0.20233217544407145,-0.9792604136665313,-0.009564512895694693,0.0,0.005459304153286659,0.008638581190638622,-0.9999477840933368,0.0,0.3683322240584259,-0.12442675788162359,0.305118284647399,1.0,-0.25998,-0.34168800000000005,-1.08710748,2.4309999999998455
-0.2084446376892574,-0.47625592831779917,-0.13392319710685321,-2.6092885188192496,-0.06099782651631608,2.138769351088018,0.7128189631987356,-1.0318696933136131,-0.4385494901065196,-0.0021291645729968525,-0.3539553973538969,-0.07331506670270545,-0.08388406191174232,0.0846494867668771,0.9753590110063916,-0.22054483475326403,0.003939849425792481,0.0,-0.22050020971151063,-0.9753309947449161,-0.009479193440397552,0.0,0.005933358646050102,0.008377040398531793,-0.9999473088364899,0.0,0.36398575961734675,-0.1302927230076359,0.3052209913095331,1.0,-0.25998,-0.34168800000000005,-1.08710748,2.4479999999998436
-0.22632062563157168,-0.483653453948904,-0.1341542977237626,-2.615278280413924,-0.06208142896976753,2.137176817187541,0.7140849366453984,-1.0697469740076255,-0.4113352351255357,-0.021812637200738463,-0.34668884066587624,-0.06266762144496908,-0.09156863576231053,0.06841154739665031,0.9711410331126232,-0.23843643741296494,0.003729077629681658,0.0,-0.23839280031319576,-0.971112223285275,-0.009522050512941905,0.0,0.005891870105692976,0.008358429639435505,-0.9999477098931824,0.0,0.35951739935470883,-0.13606481468397377,0.30516638204157176,1.0,-0.25811485714290916,-0.33923666938782354,-1.0787367384413764,2.4649999999998418
-0.24311137242385739,-0.4900538537252188,-0.13424597722388973,-2.620483115903056,-0.06298303126588695,2.135816228096411,0.7151028065477741,-1.0448470685011086,-0.3864072554371808,-0.009726507498125196,-0.3131264970593161,-0.05406114482964537,-0.08048758250936536,0.061846129413673144,0.9669303924452817,-0.25497802139413595,0.0035456554758808464,0.0,-0.2549353278299816,-0.9669011137632968,-0.009537385843333092,0.0,0.00586023482793574,0.008318235547091102,-0.9999482309625558,0.0,0.35540651933550693,-0.14139448445124247,0.30509952088424663,1.0,-0.25284857142862405,-0.33231526530619165,-1.0551017034516648,2.48099999999984
-0.2610041385641689,-0.49640929301995096,-0.13436444200663367,-2.625490972438018,-0.06393313638980486,2.1344726237768583,0.7158647082029624,-1.0278992622444183,-0.35967164828615905,-0.0002256710170970462,-0.2763738416461736,-0.05613091447678441,-0.07936305561428095,0.04557501076755544,0.9622055818228414,-0.27226587187985063,0.0035299036361956604,0.0,-0.2722230229567016,-0.9621772975811597,-0.009498457397912195,0.0,0.005982614110213336,0.00817870515380481,-0.9999486572371681,0.0,0.351117273125376,-0.14705673197121974,0.30509384966542885,1.0,-0.24725314285719607,-0.32496127346945775,-1.029989478775096,2.497999999999838
-0.2786987772285215,-0.5023041785457668,-0.13443279421640122,-2.6299173255302106,-0.06467361151461835,2.133245180873626,0.7163002609754259,-1.0473305315089032,-0.3296833029978935,-0.006860602630090466,-0.24943347798012608,-0.039830734157978345,-0.06361638536547927,0.01906474177123541,0.9572927503077308,-0.2890625975406905,0.003761889485012492,0.0,-0.28901716711206527,-0.9572663788119998,-0.009534359542493816,0.0,0.006357279457378517,0.008040077423314612,-0.9999474696967474,0.0,0.34697759548737483,-0.15260023008882237,0.30518026611990307,1.0,-0.2416577142857681,-0.31760728163272384,-1.0048772540985274,2.5149999999998363
-0.2960385615612632,-0.5076344411060272,-0.13440963678650367,-2.6339577553925713,-0.0653171239896216,2.1321443252091896,0.7165436828856556,-1.0224008997797867,-0.3067208981363652,-0.0046494314190237505,-0.23290888704191304,-0.03266160937477263,-0.06322246886660295,0.0101239796639035,0.9522554444252216,-0.30524537617400405,0.003946617301228006,0.0,-0.3051979529034063,-0.9522309530217316,-0.009548222457773843,0.0,0.0066727703813840855,0.007887999167197568,-0.9999466253778628,0.0,0.34295392400409164,-0.15795308021858567,0.30523493912666366,1.0,-0.23606228571434015,-0.31025328979599,-0.9797650294219586,2.5319999999998344
-0.31228995173684854,-0.5122038180775005,-0.134414423884344,-2.6375165093660473,-0.06592211923461434,2.1310071425400574,0.7166054473213493,-0.9931816544050405,-0.27338525060547725,0.006568932064893011,-0.22339149145500128,-0.04085573652663186,-0.06357489535614406,0.0009379300279065228,0.947329340391721,-0.32020821995988263,0.003816229070506277,0.0,-0.32016144037589356,-0.947304728250822,-0.009547294448061546,0.0,0.0066723824672641485,0.007822773368618613,-0.9999471403674465,0.0,0.3391438121479639,-0.16291984868909432,0.3052137044099548,1.0,-0.230796000000055,-0.3033318857143581,-0.956129994432247,2.5479999999998326
-0.3291411406178243,-0.5165233834010067,-0.1343869131365211,-2.6409261570040146,-0.06638427654516718,2.1299549475282835,0.7165555576017018,-0.9969226248451151,-0.24653888575460714,-0.007402102969320387,-0.1845726669793503,-0.028311427095743653,-0.05336618023542947,-0.0021728984154511335,0.9419853638782667,-0.3356051163022248,0.00367791409743812,0.0,-0.3355584954651887,-0.9419599835155129,-0.009624576759606762,0.0,0.006694633997811672,0.007832205914320128,-0.9999469178042157,0.0,0.3352298971651331,-0.16801092241444823,0.30517002260595777,1.0,-0.22520057142862707,-0.2959778938776242,-0.9310177697556783,2.5649999999998307
-0.345705834252048,-0.5203484721437198,-0.13429380122606277,-2.643903562042525,-0.06680563503351901,2.129063721246375,0.716282662176782,-0.9653291227241213,-0.2158492792151249,0.005386794868960196,-0.165151605427198,-0.021237752346492302,-0.045720225455096866,-0.02143132252262404,0.9365717768321979,-0.35042946062478697,0.0036396248170513386,0.0,-0.35038264282521353,-0.9365467628121692,-0.00963906499996707,0.0,0.006786621852626906,0.007752564132612633,-0.9999469183477687,0.0,0.33144808772172757,-0.1729865025738805,0.305151102606535,1.0,-0.21960514285719912,-0.28862390204089033,-0.9059055450791096,2.581999999999829
-0.3620481751185618,-0.5238477771506762,-0.134201684025652,-2.6465221223466395,-0.06720463336287132,2.128245014086904,0.7157887903647144,-0.9479193603796434,-0.19319985046301055,0.006622781306632772,-0.1467904673916851,-0.028174151772419182,-0.05095517313785016,-0.030676586216508293,0.9310730096864601,-0.3647876812696057,0.0037074423191188663,0.0,-0.36474007129251634,-0.9310493033015786,-0.009624038465387995,0.0,0.006962676317579852,0.007608576172187409,-0.9999468139391858,0.0,0.32774448985763466,-0.1778780844132296,0.30517792266147725,1.0,-0.21400971428577115,-0.2812699102041564,-0.880793320402541,2.598999999999827
-0.3769382402619193,-0.5267300733333218,-0.13401705489502888,-2.648707043198395,-0.06747050339281181,2.1275111371838946,0.7151799744222068,-0.9180349702504473,-0.16737911561335644,0.008990127056474477,-0.1372498439214422,-0.022711269602467186,-0.04533697192146621,-0.03729932635422862,0.9259399949570135,-0.37762721712455927,0.003682054721845014,0.0,-0.3775795361344172,-0.9259168355944744,-0.009615318842435168,0.0,0.0070404181026357815,0.007513084416735261,-0.9999469916328,0.0,0.32438164963678556,-0.18226786215300084,0.305181974715086,1.0,-0.20874342857148603,-0.27434850612252454,-0.8571582854128292,2.6149999999998252
-0.3934771636331188,-0.5294901116930965,-0.13389457434727334,-2.6508953113223472,-0.06773225418284143,2.126801125739742,0.7143592654072042,-0.8993647182380212,-0.14407062597980666,0.013286196321574475,-0.11472812988995204,-0.0063012810802741,-0.030044448820353453,-0.050594366231976044,0.9200464557135934,-0.39176857294714895,0.0035568920446237694,0.0,-0.3917213222897126,-0.9200229820160186,-0.009636655392834679,0.0,0.00704789685069257,0.007473004062634514,-0.9999472392882846,0.0,0.3206439865871784,-0.18714283609991114,0.305137597432827,1.0,-0.20281885714291525,-0.26656192653068866,-0.8305688710494037,2.6329999999998233
-0.4078395152322721,-0.531588164504488,-0.13379921287453533,-2.652535408985928,-0.06791014886263276,2.1263006818040853,0.7135145266800242,-0.9062778774890423,-0.12241193282068961,0.0015676726904325696,-0.09263502944859868,-0.012215288275831758,-0.02277321130629768,-0.05346254226904738,0.9147845449556984,-0.4039028849449903,0.003527427464579105,0.0,-0.40385535888505886,-0.914761294116218,-0.009662856091764961,0.0,0.007129746834391826,0.007415003690027511,-0.9999470908154864,0.0,0.31742797613366586,-0.19137364983937943,0.30511656775224977,1.0,-0.1975525714286301,-0.2596405224490568,-0.806933836059692,2.6489999999998215
-0.42361356377092324,-0.5336141549156692,-0.13363167499883716,-2.6540818138924855,-0.06805903084111069,2.1258228168377804,0.7124840650069915,-0.8583144421429092,-0.10466836799090587,0.004135116301951926,-0.07859122771982643,0.0013455792577065288,-0.024183186979863384,-0.053781559797386365,0.9088687336881149,-0.41704412722321443,0.003545105639922004,0.0,-0.4169961377467517,-0.9088462941162134,-0.009663419515156818,0.0,0.007252168107493073,0.007304625134755216,-0.9999470228514016,0.0,0.3139224314119536,-0.19599278297702125,0.30511451258152056,1.0,-0.19162800000005933,-0.2518539428572209,-0.7803444216962663,2.6669999999998195
