nelsonifechukwu/NELSON_IML_WORK/CNN-GradCAM/train2dof/data_sample_2022-02-21-10-52-01/robot_state.csv
position_joint1,position_joint2,position_joint3,position_joint4,position_joint5,position_joint6,position_joint7,velocity_joint1,velocity_joint2,velocity_joint3,velocity_joint4,velocity_joint5,velocity_joint6,velocity_joint7,ee_T_00,ee_T_10,ee_T_20,ee_T_30,ee_T_01,ee_T_11,ee_T_21,ee_T_31,ee_T_02,ee_T_12,ee_T_22,ee_T_32,ee_T_03,ee_T_13,ee_T_23,ee_T_33,v_x,v_y,time
0.465075133823,0.547677355497,-0.123960485167,-1.35573823202,0.0794910810635,1.89409238617,0.159175488234,-0.000344415622817,-0.000911170019001,-0.0002999919426,-0.000667348344661,-0.000130907763676,0.000138789026044,0.00181542932193,0.573790538663,0.818987617447,0.00210881730091,0.0,0.818946570754,-0.573731359014,-0.011814771925,0.0,-0.00846642029837,0.00850637681805,-0.999927978047,0.0,0.661693628818,0.260918309427,0.303331388307,1.0,0.0,0.0,0.0
0.465070172043,0.547673172424,-0.123957978538,-1.35573900309,0.0794949067062,1.89409233673,0.159171794832,0.000282444105224,-0.00159969567656,0.00334343142734,-0.000134364981523,-4.45333463699e-05,9.10356992283e-06,-8.52619672662e-05,0.573790873475,0.818987367967,0.00211459883092,0.0,0.818946348816,-0.573731623072,-0.0118173325478,0.0,-0.0084651968416,0.00851258445019,-0.999927935578,0.0,0.661694057166,0.260917057591,0.303333904556,1.0,-0.0002,-0.000262857142857,0.011
0.465062046026,0.547669314759,-0.123963068804,-1.35573489335,0.0794949812069,1.89409554872,0.159167694941,-0.000700364667271,-0.00220751471612,-0.00103021775373,-0.00265115336507,-0.000175539612336,-0.000126973481618,-0.00122350493997,0.573797537187,0.818982678016,0.00212281142079,0.0,0.818941799612,-0.573738287772,-0.0118090175067,0.0,-0.00845360535064,0.00851460809971,-0.999928016412,0.0,0.661699027987,0.260909505545,0.303339041384,1.0,-0.00054,-0.000709714285714,0.028
0.465062848711,0.547645282919,-0.123961174837,-1.35576580192,0.0794913623469,1.89410016792,0.159169836618,-0.00113930895337,-0.00195369812425,0.00043765786165,-0.00787854208573,0.000233852543991,-0.000547097691546,-0.0038451120013,0.573798028875,0.818982338988,0.00212070412069,0.0,0.81894143079,-0.573738785281,-0.011810423426,0.0,-0.00845596079917,0.00851369406389,-0.999928004278,0.0,0.661693057533,0.260907506154,0.303341685966,1.0,-0.00088,-0.00115657142857,0.045
0.465062685159,0.547545226748,-0.123958390782,-1.35587169087,0.0794925224346,1.89412526498,0.159175235125,-0.000520463671234,-0.0120526265021,0.00125406155054,-0.00663377923264,0.000643716316955,0.00535404345402,0.00111828726212,0.573806720375,0.81897619092,0.00214318889804,0.0,0.818935477592,-0.573747288991,-0.0118101150688,0.0,-0.00844271678181,0.00853202108652,-0.99992795998,0.0,0.661675772091,0.260899649497,0.303364255783,1.0,-0.00122,-0.00160342857143,0.062
0.465062002665,0.547424148286,-0.123963275437,-1.35605469049,0.07948845765,1.89415864857,0.159168764389,-0.000505284637231,-0.00449449440179,5.43994729563e-05,-0.0113405260865,-0.000214332444969,-0.000329834524803,0.000230628965397,0.573814325285,0.818970915758,0.00212276720024,0.0,0.818929852994,-0.573754888924,-0.0118309007406,0.0,-0.00847137865486,0.00852730193419,-0.999927757823,0.0,0.661645199673,0.260877841558,0.303365974851,1.0,-0.00156,-0.00205028571429,0.079
0.465049230506,0.547263714352,-0.123955911371,-1.35626264083,0.0794856897577,1.89424994313,0.159154300195,-0.00273780111496,-0.0104949607551,0.00139734484584,-0.0103353837892,0.000421579393496,0.0108578855104,-0.00142476367384,0.573818753552,0.818967696694,0.00216719747793,0.0,0.818927108237,-0.573759036781,-0.0118197296349,0.0,-0.00843669004961,0.00855732404499,-0.999927794626,0.0,0.661621764872,0.26085683478,0.303388321106,1.0,-0.0019,-0.00249714285714,0.096
0.465031555725,0.547077914833,-0.123961256851,-1.35649215973,0.0794841490706,1.89437455639,0.159147158255,0.000220764890402,-0.00738237162853,-0.00119168819115,-0.0164973785126,0.000402200156256,0.00899246506293,0.00100104747064,0.573843753528,0.818949981966,0.00224064184381,0.0,0.818910323005,-0.573783722474,-0.0117842947079,0.0,-0.00836526517791,0.00859739417039,-0.999928050988,0.0,0.661604822975,0.260825468726,0.303421680472,1.0,-0.00224,-0.002944,0.113
0.464995643829,0.546856399246,-0.123953730492,-1.35677571897,0.0794807782148,1.89450866615,0.159120951277,-0.00202960943393,-0.0171270625287,0.00139286460942,-0.0167822986547,-7.42407364388e-05,0.00982989835417,-0.00407874888593,0.573861539382,0.818937323154,0.00231111754431,0.0,0.818898465005,-0.573801118579,-0.0117612598153,0.0,-0.00830577270987,0.00864207165885,-0.999928161788,0.0,0.661580214181,0.260783887174,0.303455002134,1.0,-0.0026,-0.00341714285714,0.131
0.464971517902,0.546644605353,-0.123958260243,-1.3570899888,0.0794731416315,1.89462155686,0.159097828547,-0.00331919505934,-0.00884238913549,0.000567875799073,-0.0248380617098,-0.000591189155265,0.00400243166863,-0.00627636422303,0.573881048475,0.818923612167,0.00232519641943,0.0,0.81888485609,-0.573820487839,-0.0117638048409,0.0,-0.00829957200191,0.00865525943204,-0.99992809921,0.0,0.661543986709,0.260737210345,0.303465354842,1.0,-0.0029,-0.00381142857143,0.146
0.464931341343,0.546373330273,-0.123956620331,-1.35748851002,0.0794610520106,1.89476564407,0.158966340004,-0.00336157276348,-0.0123168515328,0.000565323536054,-0.0255604528195,0.00017222515946,0.0132898808015,-0.0136631150272,0.573824164069,0.81896340766,0.00234788110489,0.0,0.818924821614,-0.573763394641,-0.0117664954897,0.0,-0.00828936060538,0.00867480457026,-0.999928014542,0.0,0.661499217318,0.260675665234,0.303480214528,1.0,-0.00324,-0.00425828571429,0.163
0.464885643499,0.54610313694,-0.123956565401,-1.35792775112,0.0794504824118,1.89492207188,0.158934171615,-0.0102715817691,-0.0160235834813,0.00136808361922,-0.0296936791113,-0.000254862449626,0.0139214211074,-0.000246128730778,0.573856953869,0.818940439002,0.00234537102348,0.0,0.818901670816,-0.573796033445,-0.0117861121308,0.0,-0.00830651917854,0.00868433785557,-0.9999277894,0.0,0.661449222344,0.260605785248,0.303476036493,1.0,-0.00356,-0.00467885714286,0.179
0.464826073177,0.545763466309,-0.123958129115,-1.35848907342,0.0794194545419,1.89511816423,0.158882761863,-0.0052444699907,-0.0137523465072,-0.00120678030054,-0.0373157571211,-0.00343602652436,0.00346757000953,0.000789900154065,0.573887841451,0.81891885466,0.00232418111318,0.0,0.818879773869,-0.573826959182,-0.0118018543517,0.0,-0.00833124367007,0.00867633266971,-0.999927653198,0.0,0.661386034187,0.260511593884,0.30346638528,1.0,-0.00392,-0.005152,0.197
0.46476359226,0.545436435278,-0.123959100279,-1.35905781201,0.0793262770521,1.89530550608,0.158777642134,-0.0043318716981,-0.0217286424477,0.000533872762971,-0.0415917593133,-0.0113303421471,0.0215875946008,-0.0106430949347,0.573860549438,0.818938200341,0.00224515512553,0.0,0.818898572883,-0.573800471038,-0.0117853157775,0.0,-0.00836333524481,0.00860184772779,-0.99992802883,0.0,0.661323106037,0.260404116835,0.303443335357,1.0,-0.00424,-0.00557257142857,0.213
0.464702041044,0.545036350165,-0.123964774909,-1.3597407987,0.0792954433569,1.89552430972,0.158718449876,-0.00182783547265,-0.0257201202536,0.000485485332675,-0.0388954477227,-0.000119022551058,0.0136203291913,0.000405856968516,0.573896233383,0.818913331192,0.00219458566944,0.0,0.818872930375,-0.573836228232,-0.0118259869988,0.0,-0.00842528785763,0.00858414146407,-0.999927660903,0.0,0.661239404463,0.260294165991,0.303420598987,1.0,-0.00458,-0.00601942857143,0.23
0.464631859552,0.544604073566,-0.123970069993,-1.36044732649,0.0792774722453,1.89576850172,0.158635232114,-0.00480610812139,-0.0259489390396,-0.00197022243748,-0.0425277962048,-0.001599237075,0.0157958835437,-0.00691442144325,0.573923832029,0.818894025551,0.00218101961266,0.0,0.81885322486,-0.57386364974,-0.011859786883,0.0,-0.00846046363783,0.00859271471461,-0.999927290261,0.0,0.661157561163,0.260180171365,0.303411623117,1.0,-0.00492,-0.00646628571429,0.247
0.464574194204,0.544153026202,-0.123973929306,-1.36120054536,0.0792490093618,1.89603661207,0.158523083383,-0.00547833771968,-0.0280773052935,2.10261420253e-05,-0.0412894349881,-0.00519745539001,0.0142101264878,-0.00232475254281,0.573916336877,0.818899334657,0.00215982985816,0.0,0.818858099025,-0.57385607893,-0.0118895431728,0.0,-0.00849707109497,0.00859236266636,-0.999926982878,0.0,0.661067154197,0.260069915758,0.303395677885,1.0,-0.00526,-0.00691314285714,0.264
0.464504415959,0.54365574344,-0.123974044847,-1.36201783944,0.0792036431364,1.89632580189,0.158436537548,-0.00231017846429,-0.0235292811177,6.11713806419e-05,-0.0498072743292,-0.00164931314952,0.0164495605676,-0.0075602201986,0.573936106602,0.818885544132,0.00213495963195,0.0,0.818843922742,-0.573875884198,-0.0119099381276,0.0,-0.00852783850497,0.00858390750554,-0.999926793572,0.0,0.660970557787,0.259945522675,0.303383579042,1.0,-0.0056,-0.00736,0.281
0.464433424541,0.543157654689,-0.123977213428,-1.36281263109,0.0791581105518,1.89660526128,0.158326788818,-0.00972200960284,-0.0266753438391,0.00035875898909,-0.0524643164652,-0.00402934016977,0.0213552833128,-0.0137393759637,0.573938626497,0.818883814576,0.00212088209345,0.0,0.818841974613,-0.573878425674,-0.0119214118276,0.0,-0.00854528723895,0.00857899118373,-0.999926686801,0.0,0.660878133357,0.25982056151,0.303381959574,1.0,-0.00592,-0.00778057142857,0.297
0.464366608211,0.542589919637,-0.12398285683,-1.36371444195,0.0791064027929,1.89692004431,0.158209853415,-0.00282028199502,-0.0433898083516,-0.00102844896517,-0.0522209310384,-0.00127402552108,0.0213814498666,-0.00430563644457,0.573937805249,0.818884431907,0.00210470599859,0.0,0.81884234856,-0.573877638,-0.0119336377391,0.0,-0.00856459134832,0.00857275330757,-0.999926575142,0.0,0.660769641555,0.259686540584,0.303381745754,1.0,-0.00626,-0.00822742857143,0.314
0.464286022707,0.541995902449,-0.12397746328,-1.36464618572,0.0790589621226,1.8972651496,0.158069377093,-0.0063811510436,-0.0371017618625,0.000486804652326,-0.0577025569666,-8.9813835543e-05,0.0252086363764,-0.0126016793554,0.573924115461,0.818893995092,0.00211693052008,0.0,0.818851954725,-0.573863783216,-0.0119407477741,0.0,-0.00856354176678,0.00858670111919,-0.999926464454,0.0,0.660661657499,0.259549365856,0.303388076462,1.0,-0.0066,-0.00867428571429,0.331
0.464212884562,0.541361149764,-0.123980757384,-1.36561411272,0.0789948158581,1.89761452621,0.157948735803,-0.00356394128165,-0.0417930616653,0.000372076524561,-0.0570207936707,-0.00666222161181,0.0251712379938,-0.00421298928395,0.573924042313,0.818894019997,0.00212710375602,0.0,0.81885216127,-0.573863717655,-0.0119297293983,0.0,-0.00854868098374,0.00858870738704,-0.999926574384,0.0,0.660548087632,0.259405913669,0.30340652873,1.0,-0.00694,-0.00912114285714,0.348
0.464122179708,0.540687234921,-0.123983204981,-1.36664892902,0.0789382544209,1.89800417183,0.157813781127,-0.00415174970243,-0.0400390076074,-0.00142719192643,-0.0613822370408,-0.00276406484332,0.0261736378108,-0.00706372980964,0.573931826901,0.818888494113,0.00215387599314,0.0,0.818846945403,-0.573871353119,-0.0119204435459,0.0,-0.00852563047866,0.00860538239983,-0.999926627818,0.0,0.66043191273,0.259247888208,0.303424221011,1.0,-0.00728,-0.009568,0.365
0.464031836679,0.540009434158,-0.123983242455,-1.36768216426,0.0788754057681,1.8983867749,0.157684236326,-0.00437210194863,-0.0426324542128,-9.41080324264e-05,-0.0612212686353,-0.00480075850153,0.0216845306794,-0.00772473600912,0.573940152663,0.818882598363,0.00217673153501,0.0,0.818841345732,-0.573879583627,-0.0119088588027,0.0,-0.00850293916084,0.00861753593296,-0.999926716365,0.0,0.6603143155,0.259090254461,0.303444606198,1.0,-0.0076,-0.00998857142857,0.381
0.463927685082,0.539273860848,-0.123986843116,-1.36883197836,0.0788068559381,1.89882811395,0.157542150597,-0.0092758926408,-0.0399839412331,-0.00079881131208,-0.0650449934564,-0.00356092421996,0.0195725869783,-0.0104315807731,0.573957002133,0.818870731275,0.00219819565315,0.0,0.818829780861,-0.573896367682,-0.0118952106897,0.0,-0.00847926662748,0.00862745363736,-0.999926831864,0.0,0.660187516324,0.258911428117,0.30345543304,1.0,-0.00794,-0.0104354285714,0.398
0.46382269665,0.538522551202,-0.123989994421,-1.3700011432,0.07874110449,1.89928129504,0.157406022199,-0.00849904988829,-0.048390232615,0.000168503460703,-0.0704953332955,-0.00471324660396,0.0256016642137,-0.00894960565256,0.573980853298,0.81885393053,0.00222876732703,0.0,0.818813370775,-0.573920086293,-0.0118804583268,0.0,-0.00844938833769,0.00864426652465,-0.999926939578,0.0,0.660058740024,0.258731486769,0.303469062834,1.0,-0.00828,-0.0108822857143,0.415
0.463703969308,0.537747851081,-0.123997770529,-1.37123384804,0.0786699029133,1.89975535619,0.157248087443,-0.00628454003975,-0.0424782014382,-0.00147586050448,-0.0699797591314,-0.0022339137606,0.0239824321862,-0.00248431001473,0.574003312675,0.81883815449,0.00224068986835,0.0,0.818797771227,-0.573942517374,-0.0118719621589,0.0,-0.00843535080734,0.00864938400484,-0.999927013843,0.0,0.659924694917,0.258533106702,0.303470802447,1.0,-0.00862,-0.0113291428571,0.432
0.463594496308,0.536975834789,-0.124002714764,-1.37243929209,0.0785943517657,1.9002038162,0.157092516322,-0.00687049177661,-0.0473500291161,0.000507077280186,-0.0788079848715,-0.000441604984925,0.0252285891548,-0.0182423562111,0.574015224734,0.818829777865,0.00225023467446,0.0,0.81878955894,-0.573954431411,-0.0118623663452,0.0,-0.00842188878371,0.00865181411435,-0.999927106294,0.0,0.65978872132,0.258343258463,0.303481158281,1.0,-0.00894,-0.0117497142857,0.448
0.463469752191,0.536126493903,-0.124008835288,-1.37376318357,0.0785316216076,1.90070611977,0.156926570437,-0.0092396029933,-0.0508037911259,0.000474777262161,-0.0792198642727,0.000100990709663,0.0329453348372,-0.0155849308452,0.574041919339,0.818810978968,0.0022808910508,0.0,0.818771042136,-0.573980881748,-0.0118606428148,0.0,-0.0084025984739,0.00867620075239,-0.999927057279,0.0,0.659641282709,0.258135340158,0.303494322152,1.0,-0.00928,-0.0121965714286,0.465
0.46335447675,0.53523662471,-0.124012308153,-1.37516957869,0.0784449927006,1.90120933291,0.156761497364,-0.0127469753853,-0.0524936241371,0.000388331255797,-0.0852243109958,-0.00281320637658,0.0327282735424,-0.0147872908783,0.574057504192,0.818800089755,0.00226755344638,0.0,0.818759970548,-0.573996508023,-0.0118687112272,0.0,-0.0084166961056,0.00867007166378,-0.999926991877,0.0,0.659473884479,0.257922173387,0.303496605395,1.0,-0.00962,-0.0126434285714,0.482
0.463235512958,0.534338702893,-0.124022639084,-1.37661492394,0.07836387116,1.9017382207,0.156588143245,-0.00486748392021,-0.0567022365545,-0.00134615337486,-0.0840539717717,-0.00205483969014,0.0337603404558,-0.00705487322606,0.574077757249,0.818785934214,0.00225154766222,0.0,0.818745573548,-0.574016787733,-0.0118810815086,0.0,-0.00843579868125,0.00866427612239,-0.999926881137,0.0,0.659304632701,0.257700716748,0.303488326157,1.0,-0.00996,-0.0130902857143,0.499
0.463109736108,0.533420884312,-0.12402191985,-1.37808655928,0.0782816045555,1.90228290276,0.156402429977,-0.0104718847074,-0.0559105862544,-0.000764873466073,-0.0866609886915,-0.011621609954,0.03619264396,-0.0136058977011,0.574086713288,0.818779668842,0.00224642363889,0.0,0.818739158051,-0.574025677386,-0.0118936822179,0.0,-0.00844896300542,0.00866740680656,-0.999926742858,0.0,0.659131866865,0.257479231297,0.303482394836,1.0,-0.0103,-0.0135371428571,0.516
0.462989309189,0.532531876425,-0.124019073904,-1.37951700858,0.0781944730659,1.9028203757,0.15622715188,-0.000905999427595,-0.0564565652748,0.00109697074938,-0.0853394627304,-0.00553597377287,0.0305617556627,-0.00902821299886,0.57409466523,0.818774106196,0.00224171354064,0.0,0.818733516703,-0.574033629295,-0.0118982337468,0.0,-0.00845530953269,0.00866624538235,-0.999926699279,0.0,0.658964530987,0.257265765951,0.303474864507,1.0,-0.01062,-0.0139577142857,0.532
0.46286671495,0.53155212467,-0.124016844443,-1.38108886533,0.078110034432,1.90339223343,0.156008473132,-0.00353016346367,-0.0602690847483,0.000570739217451,-0.0943512932786,-0.00462722970282,0.0306536296842,-0.0221724978141,0.574077484456,0.818786183729,0.00223026367907,0.0,0.818745299566,-0.574016347611,-0.0119211582964,0.0,-0.00848083517822,0.00866985339216,-0.999926451834,0.0,0.658773650951,0.257037710285,0.303466823702,1.0,-0.01096,-0.0144045714286,0.549
0.462724160297,0.530553789988,-0.124019113009,-1.38272954174,0.0780066082663,1.90396217098,0.155811999705,-0.00888030749438,-0.061159882269,0.00207294262646,-0.0927337355813,-0.00579610130649,0.0347582498241,-0.0124454729318,0.574096275025,0.818773183247,0.00216524804518,0.0,0.818731416021,-0.574035363772,-0.0119589489917,0.0,-0.00854890237778,0.00863851098549,-0.999926143471,0.0,0.658573568676,0.256782814579,0.303438867349,1.0,-0.0113,-0.0148514285714,0.566
0.462592995891,0.529511319149,-0.124025429129,-1.38437448844,0.0779026097926,1.90457098735,0.15558287817,-0.00928271406549,-0.0624058962031,-0.000886928126469,-0.0946819109478,-0.00231000783734,0.0430941718743,-0.00810914250228,0.574081922992,0.818783243998,0.00216608926453,0.0,0.81874153357,-0.574021056419,-0.0119530287441,0.0,-0.00854372329591,0.00863565123631,-0.999926212438,0.0,0.658378982457,0.25653569907,0.303443226935,1.0,-0.01164,-0.0152982857143,0.583
0.462453913286,0.52842236109,-0.124020865786,-1.38606184679,0.0777969698746,1.90520589861,0.15534764923,-0.00560789170147,-0.066139884294,0.00130337067032,-0.102475677795,-0.0105744049255,0.0324320725938,-0.0237438509965,0.574063064532,0.818796386809,0.00219585745213,0.0,0.818755066748,-0.574002081302,-0.0119372625392,0.0,-0.00851392460712,0.00865077748441,-0.999926335855,0.0,0.658180075979,0.256286801684,0.303461786051,1.0,-0.01198,-0.0157451428571,0.6
0.462310500954,0.527314282988,-0.124022999953,-1.38778206799,0.0776908847126,1.90586936086,0.155105764964,-0.00840736967528,-0.0710266697962,0.00206602929352,-0.102594843501,-0.0154249196234,0.0324150556553,-0.0101273250282,0.57404860233,0.818806415457,0.00223675468578,0.0,0.818765672041,-0.57398750053,-0.0119109371508,0.0,-0.00846904557718,0.00866900168251,-0.999926559142,0.0,0.657981839807,0.256029392913,0.303480592842,1.0,-0.01232,-0.016192,0.617
0.462162759265,0.52614698703,-0.124023011623,-1.3895761049,0.077577262268,1.90654739742,0.154858547612,-0.0119806885184,-0.0700668031298,0.000503874135,-0.104278366193,-0.00626588177477,0.0357245939196,-0.0191394888113,0.574033423019,0.818816945428,0.00227728759994,0.0,0.81877677262,-0.573972205604,-0.0118848943613,0.0,-0.00842461531105,0.00868708403711,-0.999926777533,0.0,0.657771272666,0.255762199464,0.303506828891,1.0,-0.01266,-0.0166388571429,0.634
0.462023424274,0.525050093361,-0.124033878845,-1.39130342832,0.0774600193917,1.90716760231,0.154633531279,-0.01231364217,-0.0720209181623,-0.000889316445469,-0.109151149455,-0.00469839964257,0.0349605316722,-0.0108638334165,0.574032210111,0.818817845876,0.00225918823353,0.0,0.818777546451,-0.573971176765,-0.0118812698274,0.0,-0.00843204918048,0.00867017110442,-0.999926861665,0.0,0.657562932279,0.255496764964,0.303510335137,1.0,-0.01298,-0.0170594285714,0.65
0.461816610088,0.523516324111,-0.124038981449,-1.39375420459,0.0773130855052,1.90804949654,0.154303129586,-0.00478016254053,-0.0725612977847,0.00168033408635,-0.115917587634,-0.0112893547128,0.0440733292969,-0.019402212156,0.574026559176,0.818821891072,0.00222866854726,0.0,0.818781124095,-0.573965576205,-0.0119052533817,0.0,-0.0084692661204,0.00865889008363,-0.999926644886,0.0,0.657265151141,0.255123173937,0.303498894371,1.0,-0.01342,-0.0176377142857,0.672
0.461670341357,0.522451915321,-0.124047463501,-1.39546287939,0.0772159145995,1.90871441296,0.154054733229,-0.011589618864,-0.0750171611519,0.000201639011332,-0.112618747367,-0.00973726521144,0.0440702676321,-0.0234592630171,0.574014596401,0.818830231406,0.00224547421728,0.0,0.818789681338,-0.573953545763,-0.0118967197851,0.0,-0.00845275866748,0.00866762880348,-0.999926708855,0.0,0.657068160161,0.25486265092,0.303491664365,1.0,-0.01372,-0.018032,0.687
0.461473927766,0.520999211393,-0.124057801407,-1.39781731027,0.0770700494088,1.90962153184,0.153755481891,-0.005825111717,-0.0731505459773,-0.00208500189694,-0.11272975325,-0.00944631622309,0.0431345585633,-0.0160386084686,0.574024503518,0.818823295044,0.00224226570982,0.0,0.81878278564,-0.573963548941,-0.0118887058795,0.0,-0.00844793318644,0.0086605037955,-0.999926811371,0.0,0.656792740255,0.254505165882,0.303470629181,1.0,-0.01412,-0.0185577142857,0.707
0.461365591753,0.520161706114,-0.124056939182,-1.39914206752,0.0769801778965,1.91009003017,0.153565962063,-0.00819191282512,-0.0760137062455,-0.0040184230821,-0.12237831839,-0.00642972603254,0.0402010197842,-0.018396131388,0.574003579701,0.818838018569,0.0022218769672,0.0,0.818797266574,-0.573942732502,-0.0118963422657,0.0,-0.00846611019006,0.0086479763336,-0.99992676606,0.0,0.656627852933,0.254305581932,0.303468823284,1.0,-0.01434,-0.0188468571429,0.718
0.46117040383,0.518656510334,-0.124060005034,-1.40147573539,0.0768360411043,1.91092775398,0.153255838308,-0.00736438315434,-0.0786743290661,0.000298586857406,-0.125873174335,-0.000577111116611,0.046438010072,-0.017956213689,0.573996604366,0.81884288955,0.00222874649177,0.0,0.818802189411,-0.573935692156,-0.0118971755401,0.0,-0.00846292337388,0.00865400748515,-0.999926740858,0.0,0.656341298809,0.253952022032,0.303487438316,1.0,-0.01472,-0.0193462857143,0.737
0.461037106781,0.517620049032,-0.124060617994,-1.40309053672,0.0767350224836,1.91151098984,0.153036911102,-0.00586924789567,-0.0803584069897,0.000645333618039,-0.129189745636,-0.00511424948291,0.0452368587226,-0.014275511959,0.573973988275,0.818858735311,0.00223143204331,0.0,0.818818045533,-0.573913043006,-0.0118984989781,0.0,-0.00846270480437,0.00865673240632,-0.999926719121,0.0,0.656126231212,0.253694015882,0.30349593296,1.0,-0.015,-0.0197142857143,0.751
0.460822634149,0.516031773997,-0.124063871264,-1.40560521019,0.0765722044992,1.91244437427,0.15267956466,-0.00803103743106,-0.0770264526616,0.000704293792215,-0.128418737488,-0.00368075336132,0.0401685115335,-0.0165860726312,0.573959473699,0.818868911543,0.00223050690023,0.0,0.818828273934,-0.573898599639,-0.0118912589469,0.0,-0.00845746031647,0.00865166941332,-0.999926807312,0.0,0.655838471073,0.253326283684,0.303494907831,1.0,-0.01538,-0.0202137142857,0.77
0.460674665306,0.514904457017,-0.124069554761,-1.40740879498,0.0764604844431,1.91312598538,0.152438828839,-0.00992683350643,-0.0764889286822,0.00423519191885,-0.129765714604,-0.00637072894357,0.0452559886889,-0.0171191949337,0.57395261676,0.818873716398,0.00223096558555,0.0,0.818833113564,-0.573891771199,-0.0118875557721,0.0,-0.00845423695287,0.00864984877535,-0.999926850321,0.0,0.655620990678,0.253054890095,0.303486147826,1.0,-0.01566,-0.0205817142857,0.784
0.460458440181,0.513334138017,-0.124070188422,-1.40994473642,0.0763081564014,1.914007222,0.152086393465,-0.0111850700658,-0.0829805172345,-0.00200364022736,-0.131597394099,-0.0110854648758,0.0467048750279,-0.0230328110163,0.573929821179,0.818889906788,0.00215123774546,0.0,0.818848145394,-0.573869178529,-0.0119426806024,0.0,-0.00854537609249,0.00861596346473,-0.99992636815,0.0,0.655282595117,0.252642591462,0.303451269098,1.0,-0.01606,-0.0211074285714,0.804
0.46028846297,0.512077671684,-0.124078357894,-1.41196167464,0.0761901217487,1.91471733488,0.151806288274,-0.0123914044016,-0.0838042878203,0.000459933798586,-0.128674840143,-0.00899923050249,0.0469834644501,-0.0168343302366,0.57392278006,0.818894924283,0.00211953120266,0.0,0.818852608579,-0.573862127259,-0.0119754424229,0.0,-0.0085904757247,0.00860872860676,-0.999926044025,0.0,0.655044445381,0.252357900591,0.303438125959,1.0,-0.01634,-0.0214754285714,0.818
0.460062556924,0.510445067606,-0.124081937403,-1.41455359397,0.0760276097796,1.91571315215,0.15143644264,-0.0134019621424,-0.0867027090497,-0.000282787827222,-0.140553968633,-0.00864775786915,0.0526483003043,-0.0223191650924,0.573899236469,0.818911358423,0.00214483733553,0.0,0.818869430236,-0.573838539925,-0.0119554683389,0.0,-0.00855984329652,0.00861774179646,-0.999926229083,0.0,0.654734878708,0.251963036754,0.303434034831,1.0,-0.01672,-0.0219748571429,0.837
0.459907266612,0.509235484287,-0.124085906593,-1.41648574359,0.0759094097821,1.91643125458,0.15117238898,-0.00772199026028,-0.0872338733792,0.000409691662848,-0.140605802418,-0.0147383124804,0.0528093080617,-0.0239054247823,0.573881774452,0.818923611232,0.00213888292595,0.0,0.818881588873,-0.573821087968,-0.0119603223255,0.0,-0.00856741917204,0.00861546872245,-0.999926183789,0.0,0.654495143205,0.251675325873,0.303423338123,1.0,-0.017,-0.0223428571429,0.851
0.459658124645,0.507448202544,-0.124089369018,-1.41930473431,0.0757285161157,1.91742822935,0.150778504526,-0.0145699128139,-0.0876159149371,-0.000556194253984,-0.144984936786,-0.0102908906524,0.0472240158611,-0.0161227388012,0.573862785377,0.818937005364,0.00210516194929,0.0,0.818894509751,-0.573802207351,-0.0119814706665,0.0,-0.00860428879333,0.00859979126461,-0.999926002164,0.0,0.654140263812,0.251237818125,0.303418349142,1.0,-0.0174,-0.0228685714286,0.871
0.459474169749,0.506149690497,-0.124094624516,-1.42129836181,0.0755975992382,1.91817373711,0.150510482057,-0.0129984744288,-0.0934007384354,0.000276050317214,-0.139622730395,-0.00579205266221,0.049189757574,-0.0117017150896,0.573865359736,0.818935106396,0.00214180047281,0.0,0.818893173909,-0.573804715455,-0.011952620962,0.0,-0.00855961050741,0.00861326674729,-0.999926269634,0.0,0.653900200986,0.250924430569,0.303442053374,1.0,-0.01768,-0.0232365714286,0.885
0.459230307287,0.504332686923,-0.124098549587,-1.42406108262,0.0754234732438,1.91923830489,0.150119537996,-0.00455542274678,-0.0993599154621,0.000960922203905,-0.145212508427,-0.00431533118828,0.0610660835784,-0.0230330159856,0.573843240269,0.818950347688,0.00223841936681,0.0,0.818909758215,-0.573782293087,-0.0118926423628,0.0,-0.00845528099111,0.00865774257964,-0.999926773177,0.0,0.653569219834,0.250502916554,0.303489139086,1.0,-0.01806,-0.023736,0.904
0.459031087669,0.502957700668,-0.12410679117,-1.42610434032,0.0752959564477,1.92001742799,0.149835353066,-0.0141606976495,-0.100259640305,-0.00135448184927,-0.147569479734,-0.00559331360447,0.0636574335654,-0.02180304953,0.573842101898,0.818950850847,0.00234369096487,0.0,0.818911699573,-0.573780812422,-0.0118302366509,0.0,-0.00834377810866,0.00870813147553,-0.999927272262,0.0,0.653311061443,0.250159598581,0.303552090593,1.0,-0.01836,-0.0241302857143,0.919
0.458805991138,0.501262501795,-0.12411007909,-1.42864791974,0.0751296918462,1.92093108802,0.149473439723,-0.0120165010102,-0.107010670803,0.000243459118526,-0.149188880254,-0.00806815887901,0.0522273324292,-0.0157627468277,0.573827398152,0.818960999752,0.0023968553123,0.0,0.818922571738,-0.573765940684,-0.0117988860063,0.0,-0.00828775310164,0.00873353112204,-0.999927516664,0.0,0.652992183148,0.249760125099,0.303609491783,1.0,-0.0187,-0.0245771428571,0.936
0.458563846138,0.499549575063,-0.124105398183,-1.43124260481,0.0749594317715,1.92185632578,0.149114086096,-0.0186511198444,-0.0988975223237,0.00144470608635,-0.156225714754,-0.0173800007079,0.0594069846288,-0.021203627367,0.573811769784,0.818971891683,0.00241669021754,0.0,0.818933707525,-0.573750224515,-0.0117902268674,0.0,-0.00826944705854,0.00874464838631,-0.999927571062,0.0,0.652682322408,0.249377555402,0.303636568854,1.0,-0.01902,-0.0249977142857,0.952
0.458294380966,0.497782409405,-0.124110395976,-1.43405368986,0.0747916770516,1.92288346147,0.148706286799,-0.0195220575369,-0.103823400836,0.0010738415899,-0.159166498564,-0.0142294574615,0.0629661380537,-0.0276425708533,0.573799672548,0.818980405783,0.00240366979537,0.0,0.818941950616,-0.573738070681,-0.0118090928368,0.0,-0.0082924984288,0.00874468799606,-0.999927379814,0.0,0.652332328645,0.248931325289,0.303620074859,1.0,-0.01938,-0.0254708571429,0.97
0.458035517547,0.496108193461,-0.12411388322,-1.43673373024,0.074627563644,1.92382732722,0.148306070676,-0.0128480747151,-0.0970777910074,-0.000859549103266,-0.164377217859,-0.00634075227097,0.0524403952451,-0.0261784786625,0.573777523371,0.81899607434,0.00235176331079,0.0,0.818956816975,-0.573715990426,-0.0118507873179,0.0,-0.00835666496578,0.00872587599269,-0.999927009956,0.0,0.651990415778,0.248502369158,0.303593222953,1.0,-0.01972,-0.0259177142857,0.987
0.457745152736,0.494352400684,-0.124108594481,-1.43962774455,0.0744472427842,1.92483072463,0.147897815166,-0.0186016926163,-0.095044614315,0.000852782369772,-0.161441557985,-0.0149092495772,0.0595721050361,-0.0209204762522,0.573774052738,0.81899882587,0.00223752745316,0.0,0.818957889621,-0.573712774938,-0.0119320493306,0.0,-0.00848879974356,0.00867890815878,-0.999926305701,0.0,0.651616058478,0.248035359201,0.303525692152,1.0,-0.0206405714286,-0.0271276081633,1.005
0.457479054185,0.49260757337,-0.124129377255,-1.44238347866,0.0742779519169,1.92585776033,0.147512114748,-0.0175626185463,-0.112534483211,0.00136652289435,-0.176086540428,-0.00969093392182,0.0732804280747,-0.0224789037563,0.573783804309,0.81899197156,0.00224573687717,0.0,0.818951183166,-0.573722534015,-0.0119231059888,0.0,-0.00847666143099,0.00868060111454,-0.999926393979,0.0,0.651277572574,0.247588501647,0.303518361449,1.0,-0.0232828571429,-0.0306003265306,1.021
0.457187887344,0.490659923278,-0.124154481191,-1.44548726043,0.0740871828363,1.92697819226,0.147064571243,-0.0259124011154,-0.128409774963,-0.000410944606287,-0.202770641211,-0.00881842454708,0.0732856377424,-0.0328883485098,0.573777391579,0.818996560676,0.00221029768094,0.0,0.81895529858,-0.573716253305,-0.0119426346643,0.0,-0.00851305691398,0.00866271554761,-0.99992623989,0.0,0.65088527052,0.247087304591,0.303494002447,1.0,-0.0259251428571,-0.034073044898,1.037
0.456826863192,0.488377763069,-0.124165256554,-1.44915314565,0.0738695377147,1.92828470195,0.146537904035,-0.0222682825241,-0.14126362139,0.000455858352905,-0.216460295059,-0.0217411223959,0.075966736601,-0.0280500905455,0.573773071183,0.818999754038,0.00214768985265,0.0,0.818957471656,-0.57371198493,-0.0119985360753,0.0,-0.00859480816279,0.00864346995883,-0.99992570709,0.0,0.650415485839,0.246495373025,0.303449470784,1.0,-0.0287325714286,-0.0377628081633,1.054
0.4563900039,0.485624917082,-0.124189890155,-1.45336171157,0.0736036836244,1.9299181433,0.145915501026,-0.0268008380018,-0.158647970801,-0.000211675811333,-0.240454075049,-0.0208539522265,0.0947980983631,-0.0316895615116,0.573775572262,0.818997621346,0.00228818823212,0.0,0.818957375868,-0.57371412281,-0.0119024661722,0.0,-0.00843548798806,0.00870344053756,-0.999926543635,0.0,0.649912613178,0.245802357008,0.303500721027,1.0,-0.0317051428571,-0.0416696163265,1.072
0.45589022484,0.482628931538,-0.124232946223,-1.45798788294,0.0733199503993,1.93153361881,0.145196759834,-0.0249623479221,-0.171574529463,-0.00772035599128,-0.270243405705,-0.0122303848702,0.0907652094514,-0.0405645115588,0.573777480797,0.818996324603,0.00227370119125,0.0,0.818955811542,-0.573716007672,-0.0119192358846,0.0,-0.00845751444481,0.00870121746855,-0.999926376922,0.0,0.649327244235,0.245008082255,0.303519140946,1.0,-0.0346777142857,-0.0455764244898,1.09
0.45546092859,0.479924157969,-0.124279220444,-1.46221704499,0.073054438926,1.93304032972,0.144577753239,-0.0306085316274,-0.181937970613,-0.00674039369746,-0.283553008993,-0.0192278672416,0.10562473187,-0.0412394945486,0.573789983834,0.818987631817,0.00224950765431,0.0,0.818946846896,-0.573728650812,-0.0119266130131,0.0,-0.00847730477006,0.00868576551643,-0.999926343678,0.0,0.648788953774,0.244296794821,0.303513408638,1.0,-0.0371548571429,-0.0488320979592,1.105
0.454913229567,0.476626111189,-0.124312009558,-1.46723612056,0.0727532380848,1.93487975231,0.143859833934,-0.0326455205496,-0.195325996929,-0.00349068223716,-0.297230585389,-0.0136701676584,0.114078699699,-0.0424816287157,0.573836392971,0.818954827662,0.00235186133349,0.0,0.818915311122,-0.573774580344,-0.0118823845268,0.0,-0.0083818592995,0.00874468829474,-0.999926634739,0.0,0.648162295757,0.243448065565,0.303568913064,1.0,-0.0399622857143,-0.0525218612245,1.122
0.454314491706,0.47312703343,-0.124339283515,-1.47263423581,0.0724291242007,1.936845917,0.143064599989,-0.0386820689377,-0.211771700804,-0.00178884430466,-0.320134525408,-0.0198925798426,0.117519632603,-0.0416070078291,0.573867496463,0.818932856346,0.00241250937246,0.0,0.818893983945,-0.573805290895,-0.0118692080971,0.0,-0.00833593433985,0.00878711132612,-0.999926646746,0.0,0.647480168149,0.242532917881,0.303591396946,1.0,-0.0427697142857,-0.0562116244898,1.139
0.453681044414,0.469369244443,-0.124358810472,-1.47834155082,0.0720761174554,1.93890196871,0.142183724178,-0.040879990757,-0.227809757475,-0.0021551548269,-0.333092471941,-0.0166399327481,0.131172447966,-0.0598140036655,0.57385548456,0.818940990735,0.00250667816563,0.0,0.818903210766,-0.573792777925,-0.0118374954707,0.0,-0.00825605539523,0.00884590880867,-0.999926791044,0.0,0.646748861078,0.241569036628,0.303649831968,1.0,-0.0455771428571,-0.0599013877551,1.156
0.4530646456,0.465628681548,-0.124365894203,-1.48397260502,0.0717030545874,1.94099242496,0.141266435602,-0.0407126737499,-0.235299166579,-0.000422403738702,-0.361130384025,-0.0174798143355,0.129293685781,-0.0587562674312,0.5737787885,0.818994219522,0.00266780029495,0.0,0.81895866072,-0.573715634014,-0.011740111606,0.0,-0.00808468045935,0.00892121693182,-0.999927522289,0.0,0.646031437735,0.240632152041,0.303731828532,1.0,-0.0482194285714,-0.0633741061224,1.172
0.452310681049,0.461233057951,-0.124369486312,-1.49083033197,0.0712508948968,1.94333584543,0.140251156449,-0.0435513893675,-0.243177664686,0.000722802842523,-0.388798846636,-0.0167994148545,0.135434038484,-0.052222421273,0.573764241487,0.819004741866,0.00256415524168,0.0,0.818967561565,-0.573701170215,-0.0118257049997,0.0,-0.00821440776071,0.00888529769447,-0.999926784815,0.0,0.645104873817,0.239478445995,0.303700028353,1.0,-0.051192,-0.0672809142857,1.19
0.451598389603,0.457143867846,-0.124379419899,-1.49715551015,0.0708171153745,1.94555476129,0.139296763558,-0.0473252330261,-0.256766413556,-0.000479488947194,-0.405603956052,-0.0279151138422,0.137253380975,-0.0649656568828,0.573746826568,0.819017032069,0.00253516985566,0.0,0.818979480063,-0.573683872634,-0.0118394432209,0.0,-0.00824247828081,0.00886926582745,-0.999926696151,0.0,0.644261671272,0.238402316557,0.303695727183,1.0,-0.0538342857143,-0.0707536326531,1.206
0.450781236822,0.452611222231,-0.124395103294,-1.5041598747,0.0703417802453,1.94806838207,0.138169916155,-0.0503995258086,-0.274650475787,-0.00309766584668,-0.41353096124,-0.0348327322238,0.146240595171,-0.0673516962543,0.573695221558,0.819053118103,0.0025552666714,0.0,0.819015885595,-0.573632261077,-0.0118218059911,0.0,-0.00821706186419,0.00887508847608,-0.999926853674,0.0,0.643338594813,0.237195484105,0.303694399565,1.0,-0.0566417142857,-0.0744433959184,1.223
0.449929879717,0.447779154279,-0.124446336186,-1.51140213576,0.0698508491052,1.95073863514,0.137075416223,-0.0505970710034,-0.286311374834,-0.0041198076873,-0.444660575863,-0.025922117245,0.145623001956,-0.0705167885246,0.573727152475,0.819030112004,0.00275264309529,0.0,0.818995802543,-0.573663869026,-0.0116785141062,0.0,-0.00798611658587,0.00895485619299,-0.999928013655,0.0,0.642402250391,0.23593095417,0.303794211942,1.0,-0.0594491428571,-0.0781331591837,1.24
0.449016477145,0.442816896329,-0.124477139545,-1.51914976352,0.0693238775828,1.95328841895,0.135904858762,-0.0504007152479,-0.296440372528,-0.0026260540615,-0.45834706447,-0.034253661211,0.160356467327,-0.0683534328439,0.573739625688,0.819022050025,0.00254369587014,0.0,0.818984722288,-0.573676762614,-0.0118213195616,0.0,-0.00822282048431,0.00886577820993,-0.999926888927,0.0,0.64131852489,0.234570136118,0.303726730562,1.0,-0.0622565714286,-0.081822922449,1.257
0.448107364037,0.437971879591,-0.124500113754,-1.52666886816,0.0688030202301,1.95587865611,0.134680814224,-0.0599347643399,-0.303915861771,-0.000418195607837,-0.471844292429,-0.0358582963051,0.164316180952,-0.0745951181208,0.573686434357,0.819059574104,0.00245682804752,0.0,0.819021043537,-0.57362383173,-0.01187336584,0.0,-0.00831585895562,0.00882395267227,-0.999926489473,0.0,0.640284780533,0.233247298022,0.303685265216,1.0,-0.0648988571429,-0.0852956408163,1.273
0.447057923174,0.432534347746,-0.124522331091,-1.53471513621,0.0682685900701,1.95888552153,0.133353323204,-0.0646746246386,-0.31814301944,-0.00119816497147,-0.478569449477,-0.0383502857776,0.180156866036,-0.0829113294892,0.573679370652,0.819063469378,0.00278562736282,0.0,0.819029420694,-0.57361579076,-0.011682445331,0.0,-0.00797093782637,0.00898366161371,-0.999927876386,0.0,0.639237444649,0.231807956427,0.303826179484,1.0,-0.0677062857143,-0.0889854040816,1.29
0.445946238331,0.427046115173,-0.124573903893,-1.54324843605,0.067643225352,1.96174606512,0.132012057359,-0.0693396948925,-0.333903500453,-0.00363457571038,-0.515357006637,-0.0390731234394,0.164054659785,-0.071605779492,0.573720862075,0.819035040344,0.00259268385788,0.0,0.818998608006,-0.573658099791,-0.0117648429403,0.0,-0.00814866140399,0.00887331114325,-0.9999274292,0.0,0.638049062908,0.230235298233,0.303751972838,1.0,-0.0705137142857,-0.0926751673469,1.307
0.444787013261,0.421291296047,-0.124676403017,-1.55211189942,0.0669990120976,1.96463569057,0.130528919765,-0.0683680189213,-0.339021499797,-0.0107573870364,-0.526932794158,-0.0431585499338,0.170402472104,-0.0924282379648,0.573725528642,0.819032444194,0.00237066303016,0.0,0.818993245504,-0.573663733046,-0.0118630563924,0.0,-0.00835642555608,0.00874786373259,-0.999926819838,0.0,0.636796883468,0.228569547348,0.303698059013,1.0,-0.0733211428571,-0.0963649306122,1.324
0.443632111806,0.415647341821,-0.12470719493,-1.56047335675,0.0664109721898,1.96768947684,0.129193720401,-0.0702578818345,-0.362470934064,-0.00457607823515,-0.52940312748,-0.0408989158956,0.203419051948,-0.0869021961233,0.573785728716,0.818989469046,0.00263325181202,0.0,0.818954000663,-0.573723290283,-0.0116909318327,0.0,-0.00806414742037,0.00886477262152,-0.999928190088,0.0,0.635673139266,0.227027332012,0.303811004048,1.0,-0.0759634285714,-0.0998376489796,1.34
0.442348420632,0.409554938664,-0.124717492245,-1.56968366156,0.0657929001573,1.97087285769,0.127619363302,-0.0748358641308,-0.359833721376,0.00123770071243,-0.550759613641,-0.0299999173621,0.18503428145,-0.0899364502198,0.573761318253,0.819006370121,0.00269486149257,0.0,0.818971336591,-0.573698261908,-0.011704743757,0.0,-0.00804037714544,0.00892291532011,-0.999927864357,0.0,0.634377100334,0.225330534997,0.30382669351,1.0,-0.0787708571429,-0.103527412245,1.357
0.441082005526,0.403711029083,-0.124793452882,-1.57874918899,0.0651326888252,1.97383144462,0.126151673185,-0.0781470745292,-0.359037817808,-0.00705657806125,-0.564874776837,-0.0320971829466,0.189678499647,-0.0889562969527,0.573832242805,0.818957467843,0.0024433344127,0.0,0.818919078112,-0.573770009112,-0.0118434390921,0.0,-0.00829752063415,0.00879720975505,-0.999926877452,0.0,0.633064065328,0.223602844944,0.30371775774,1.0,-0.0814131428571,-0.107000130612,1.373
0.439742458942,0.39754327756,-0.12484852525,-1.58778025465,0.0644993861465,1.97708633825,0.124570940531,-0.0847074732402,-0.388431717014,-0.00406132438374,-0.5613234027,-0.0413633881421,0.203353258142,-0.105621482754,0.573856915648,0.818939183363,0.00275703046403,0.0,0.818905156748,-0.573793853998,-0.0116492174414,0.0,-0.00795818670246,0.0089429026335,-0.999928343311,0.0,0.631824072675,0.221875484837,0.303857743307,1.0,-0.0840554285714,-0.11047284898,1.389
0.438258142142,0.390917054908,-0.124875065725,-1.5977883555,0.0637344430578,1.98040233477,0.122892322181,-0.08720657228,-0.392101420385,-0.0033207276306,-0.589749274861,-0.0437386134762,0.181758721466,-0.100105423079,0.573888355587,0.818917453705,0.00266575313166,0.0,0.818882327389,-0.573825701424,-0.01168525462,0.0,-0.00803973608855,0.00888914083071,-0.99992817033,0.0,0.630363788667,0.219956695909,0.303836810406,1.0,-0.0868628571428,-0.114162612245,1.406
0.436556264827,0.383318246999,-0.124932665543,-1.60928803977,0.0628759175025,1.98411338813,0.120826257901,-0.0914282618348,-0.411811660912,-0.00363384205633,-0.592051249667,-0.0491997970114,0.204525171774,-0.111311858493,0.573825761169,0.81896189826,0.00248030595941,0.0,0.818924147602,-0.573763556257,-0.0118054600769,0.0,-0.0082452715736,0.00880562909385,-0.999927235549,0.0,0.628646568542,0.217741695,0.303781591025,1.0,-0.0900005714286,-0.118286465306,1.425
0.435157168078,0.37711234389,-0.124933802309,-1.61838858109,0.0622394599912,1.9873030099,0.119244953913,-0.0955054036612,-0.412035301204,0.000359795700588,-0.61667973577,-0.035836009214,0.215034725188,-0.103781612581,0.573837321789,0.818952994663,0.00273268294528,0.0,0.818918365851,-0.573774026411,-0.0116971615991,0.0,-0.00801163727307,0.0089502844572,-0.999927850435,0.0,0.627326807052,0.216011541976,0.303875643207,1.0,-0.0924777142857,-0.121542138775,1.44
0.433156239532,0.368720976152,-0.124987878603,-1.63105432087,0.0612490461926,1.99136149311,0.117025751779,-0.101868249868,-0.416905255257,-0.00479597511308,-0.640894742309,-0.0504190335526,0.198779696899,-0.104258764401,0.57387413466,0.818927922431,0.00250645821011,0.0,0.818890309669,-0.573811608753,-0.0118171609098,0.0,-0.00823932684767,0.00883424741775,-0.999927032121,0.0,0.625408239211,0.213505180151,0.303796946125,1.0,-0.0957805714286,-0.125883036735,1.46
0.431852013915,0.363039023219,-0.125051069773,-1.63927429038,0.0606036407954,1.99413581326,0.115538867158,-0.10390353833,-0.446802757797,-0.00128180957822,-0.631220859461,-0.0449637876963,0.219099755507,-0.117935186622,0.573878346739,0.818924454891,0.00266968664764,0.0,0.818889388953,-0.573815690341,-0.0116819981127,0.0,-0.00803492054689,0.00889039499876,-0.999928197887,0.0,0.624188829355,0.211874465576,0.303904074883,1.0,-0.0979274285714,-0.128704620408,1.473
0.429814917985,0.354708678598,-0.125052044356,-1.65164470731,0.0596963643353,1.99818399673,0.113202870706,-0.111577657525,-0.440070884781,-0.000938029176178,-0.65123749488,-0.041660445868,0.211958401084,-0.125917729245,0.573804195137,0.818976374484,0.00268152586179,0.0,0.818940885752,-0.573740868454,-0.0117468468224,0.0,-0.00808204464994,0.00893657320749,-0.999927406472,0.0,0.622292438294,0.209437080557,0.303892535423,1.0,-0.101065142857,-0.132828473469,1.492
0.428112690841,0.348031957845,-0.125101478201,-1.66159706425,0.0589368056285,2.00137444426,0.111356535277,-0.113914090966,-0.449388855727,9.82464581928e-06,-0.64867470185,-0.0542510241817,0.213161295646,-0.127980742674,0.573841215647,0.818950717107,0.00259404625986,0.0,0.818913844829,-0.573777934883,-0.0118212981481,0.0,-0.00819281182655,0.00890802000313,-0.999926759825,0.0,0.620756246729,0.207406608828,0.303849396932,1.0,-0.103542285714,-0.136084146939,1.507
0.426152270997,0.340190790936,-0.125139765944,-1.67290088977,0.0580447700739,2.00519009764,0.109240848,-0.114774964315,-0.463253293456,-0.000665440528496,-0.667000538147,-0.0549959168763,0.216743182571,-0.125245909019,0.573846390223,0.818946274884,0.00284010248972,0.0,0.818912916198,-0.573782582184,-0.0116589436416,0.0,-0.00791859958172,0.00901641292858,-0.999927997447,0.0,0.618926600269,0.204974832952,0.303963115092,1.0,-0.106514857143,-0.139990955102,1.525
0.424233490722,0.332779118288,-0.125144443086,-1.68400445308,0.0571507121214,2.00856398675,0.107104984589,-0.119161429386,-0.464675085427,-0.000802775791984,-0.706957748756,-0.05091835061,0.207914511468,-0.130272112576,0.573775825131,0.818996608144,0.00257006696119,0.0,0.818959266519,-0.573712472361,-0.011851824364,0.0,-0.00823228298096,0.00890524191071,-0.999926460388,0.0,0.617236168994,0.202863760789,0.30385209482,1.0,-0.108992,-0.143246628571,1.54
0.422118489572,0.324624348908,-0.125150648836,-1.69564893398,0.0561869392515,2.01240796783,0.104792449243,-0.128282883178,-0.471866055388,0.00113826142648,-0.689459876424,-0.0553819332632,0.22351293479,-0.13046259486,0.573696865521,0.81905107951,0.00282534004872,0.0,0.819017499192,-0.573633093159,-0.0116686482564,0.0,-0.0079366632048,0.00900844331108,-0.999927926066,0.0,0.615416220324,0.2004694986,0.303985792993,1.0,-0.111799428571,-0.146936391837,1.557
0.419894612093,0.316419977167,-0.125175451736,-1.70766323527,0.0552349728863,2.01616059642,0.102478209558,-0.135446216,-0.487815985557,-0.00656467516125,-0.724905175824,-0.0517731170474,0.210879853997,-0.137402224345,0.573724732592,0.819031763145,0.00276569564407,0.0,0.818996995461,-0.573660699835,-0.0117503102766,0.0,-0.00803746119065,0.00900671345129,-0.999927136511,0.0,0.613472999663,0.197965153537,0.3039532908,1.0,-0.114606857143,-0.150626155102,1.574
0.417599145361,0.307983794923,-0.125258621226,-1.71971393539,0.0541889506949,2.01998682496,0.0999716630834,-0.134813377245,-0.504061469069,-0.00514823710931,-0.716132105115,-0.0624549079257,0.228083220813,-0.145961404985,0.573654359904,0.819080673513,0.00287620286679,0.0,0.819047998456,-0.573590701109,-0.0116116634624,0.0,-0.00786127726446,0.00901700317741,-0.999928444427,0.0,0.611542265227,0.195383394433,0.304041735886,1.0,-0.117414285714,-0.154315918367,1.591
0.415185542405,0.299505448418,-0.125293167257,-1.73208920144,0.0531843355088,2.02374465514,0.0974542170963,-0.147422324731,-0.504659929154,-0.00164232310521,-0.749474790062,-0.0548348419882,0.217143251409,-0.147903517544,0.573646492306,0.819086621854,0.00274857524496,0.0,0.819051770535,-0.573582686117,-0.0117407951623,0.0,-0.00804034787702,0.00898646439988,-0.999927295489,0.0,0.609489415065,0.192738866617,0.303979593849,1.0,-0.120221714286,-0.158005681633,1.608
0.412786757715,0.291299457042,-0.125382485066,-1.74374104414,0.0522659172444,2.02732636094,0.0950677214156,-0.146348284778,-0.527100820959,-0.00572191570742,-0.715434173453,-0.0638184660371,0.243379591,-0.156187102396,0.573771637679,0.81899856822,0.00286355552717,0.0,0.818964861004,-0.573707014447,-0.0117288071039,0.0,-0.00796318764886,0.00907498293586,-0.999927113507,0.0,0.607578258496,0.1901599539,0.304050154474,1.0,-0.122864,-0.1614784,1.624
0.410050358996,0.282042769089,-0.125446471053,-1.75705411515,0.0511291585969,2.03141484727,0.0922283914816,-0.155992085405,-0.520541596739,-0.00232037770946,-0.742280464677,-0.0609690170317,0.225352113031,-0.165395717314,0.57374329471,0.819018465598,0.00285161110288,0.0,0.818984607421,-0.573678721873,-0.0117338731639,0.0,-0.00797450371534,0.00906783123221,-0.999927088206,0.0,0.605354038677,0.187239650251,0.304032467951,1.0,-0.125836571429,-0.165385208163,1.642
0.407477680126,0.273595301165,-0.125491416205,-1.76906700421,0.0500690681836,2.03497721037,0.0896481008937,-0.167368533316,-0.533177005612,-0.00610146386857,-0.74715258204,-0.0591842943113,0.237801282229,-0.161045225064,0.57375057905,0.819013505087,0.00281041373426,0.0,0.818979107429,-0.57368614618,-0.0117547512592,0.0,-0.00801515892246,0.00904613963934,-0.999926959625,0.0,0.603312621977,0.184553313017,0.304045104429,1.0,-0.128478857143,-0.168857926531,1.658
0.404310424876,0.263472474621,-0.12564528215,-1.78339498219,0.0487956056246,2.03935741522,0.0864864539673,-0.17172379597,-0.539122792637,-0.0108992352907,-0.752479868719,-0.0625819464513,0.222664237169,-0.170323129544,0.573831239879,0.818956720406,0.00288879605358,0.0,0.818923883865,-0.573767143176,-0.0116483796187,0.0,-0.007882174268,0.00905008244523,-0.999927981075,0.0,0.600905297531,0.181256276556,0.304077951172,1.0,-0.131616571429,-0.172981779592,1.677
0.401705630468,0.255348075,-0.125753967196,-1.79486714122,0.0477661583804,2.0426548168,0.0839599732617,-0.170619330821,-0.554576596671,-0.0092924201954,-0.753781016879,-0.0588111926945,0.232102062866,-0.162648657406,0.57392700885,0.818889889823,0.00280780339696,0.0,0.818855993718,-0.573863167268,-0.0116907530322,0.0,-0.00796229781094,0.0090089990109,-0.999927717263,0.0,0.598916292375,0.178586923266,0.304077704448,1.0,-0.134093714286,-0.176237453061,1.692
0.398690350074,0.246039821342,-0.125759688495,-1.80795564182,0.0465716623864,2.04653259217,0.0809715047057,-0.179343758713,-0.55033784391,-0.000189244680246,-0.759230167164,-0.0577336073222,0.226806479523,-0.17494904602,0.573870164179,0.818929592233,0.00284684592681,0.0,0.818896280981,-0.573806284413,-0.0116608689905,0.0,-0.00791604501229,0.00902327006994,-0.999927955819,0.0,0.596627678543,0.175606162122,0.304087749588,1.0,-0.136901142857,-0.179927216327,1.709
0.39575334961,0.237111955317,-0.125779557375,-1.82040314867,0.0454965221025,2.05008592119,0.0780712521778,-0.184250991737,-0.570243084706,-0.00031059536366,-0.778371148743,-0.064701351538,0.232786862293,-0.183214827117,0.573844678705,0.818947325878,0.00288254413007,0.0,0.818913849329,-0.573779961314,-0.0117222127998,0.0,-0.00794608175302,0.009087459709,-0.999927136276,0.0,0.594406900675,0.172741888416,0.304110547769,1.0,-0.139543428571,-0.183399934694,1.725
0.392603713961,0.227525797164,-0.125775689926,-1.83368657495,0.0442614015376,2.05398824948,0.0749709579337,-0.185854670659,-0.561654084545,0.000609874480095,-0.80663350448,-0.077824502267,0.223527399165,-0.183273751319,0.573757429772,0.819007993061,0.00301097729396,0.0,0.818976368664,-0.573692501457,-0.0116347859284,0.0,-0.00780175778536,0.00914164012548,-0.999927778888,0.0,0.592029230785,0.169704485147,0.304155812813,1.0,-0.142350857143,-0.187089697959,1.742
0.389445893483,0.218363250463,-0.125815044537,-1.84640403648,0.0430616977395,2.05744577815,0.0718678565869,-0.203948062425,-0.581474608602,-0.00605429100932,-0.765857545681,-0.0710873488243,0.223663434003,-0.195511079627,0.573691043293,0.819054895096,0.0029004424458,0.0,0.819021540939,-0.57362615766,-0.0117257676746,0.0,-0.00794043063484,0.00910266798658,-0.999927042837,0.0,0.589694842708,0.16669027837,0.304142662485,1.0,-0.144993142857,-0.190562416327,1.758
0.385781579336,0.20794795471,-0.125922452918,-1.86068450316,0.0417563962817,2.06149287432,0.0683744048639,-0.206079483579,-0.575463445414,-0.00336063317671,-0.818775961873,-0.0758782476079,0.218091410692,-0.204832145432,0.573756180414,0.819008800552,0.0030293491089,0.0,0.818977030353,-0.573690740437,-0.011674972869,0.0,-0.00782414663163,0.00917973191513,-0.99992725498,0.0,0.587100449308,0.163239270508,0.304192182414,1.0,-0.147965714286,-0.19446922449,1.776
0.382191457377,0.197978176562,-0.125996311751,-1.87436795454,0.0404411128828,2.06512630182,0.0649143822336,-0.213181471893,-0.595340185003,-0.00340743090449,-0.81322735574,-0.073394207405,0.226151116194,-0.209707109745,0.573723919555,0.819031750389,0.0029330676805,0.0,0.818998417525,-0.573658452807,-0.0117608892377,0.0,-0.00795011569529,0.00914985742285,-0.999926535186,0.0,0.584535696012,0.159907172208,0.304183367852,1.0,-0.150773142857,-0.198158987755,1.793
0.378425878456,0.187928685953,-0.126136213742,-1.88812680155,0.0391539596463,2.06890279108,0.0613787752052,-0.22271928116,-0.590332483893,-0.00811881107902,-0.782940025253,-0.069666359121,0.218522220612,-0.211750243135,0.573822902331,0.8189622746,0.00296924980779,0.0,0.818929190912,-0.573757039689,-0.0117722801676,0.0,-0.00793757818645,0.00918698619349,-0.999926294352,0.0,0.581977981181,0.156465317985,0.304172856535,1.0,-0.153580571429,-0.20184875102,1.81
0.374959848895,0.178907813259,-0.126288523403,-1.90029918341,0.037996451781,2.07211774787,0.0581705341661,-0.237078152548,-0.605835237528,-0.00597348523001,-0.775782488579,-0.0806939357254,0.225107842933,-0.219132452012,0.573955255802,0.81886938154,0.003007858667,0.0,0.818836574749,-0.573888978039,-0.0117835325716,0.0,-0.00792314963797,0.00922634277529,-0.999926046415,0.0,0.579685737093,0.15334133257,0.304206679158,1.0,-0.156057714286,-0.20510442449,1.825
0.371007560786,0.168643172307,-0.126324660548,-1.91422172308,0.0365287722745,2.07577402761,0.0544757490383,-0.233053283847,-0.599600937234,-0.00142588753856,-0.803734833706,-0.0811552877025,0.213421385582,-0.226373442668,0.573890726448,0.818914895739,0.00292823085982,0.0,0.818881439442,-0.573825184955,-0.0117725167058,0.0,-0.00796054994122,0.00915418831239,-0.999926412533,0.0,0.577001933376,0.14986058792,0.304181726038,1.0,-0.158865142857,-0.208794187755,1.842
0.366668808222,0.157526912195,-0.126353862692,-1.92896127846,0.0350661025588,2.07964882848,0.050391340398,-0.240887728009,-0.630691632744,-0.000321156559217,-0.787712540053,-0.0854085996706,0.220976210327,-0.21932546719,0.573803254622,0.818975610281,0.00308571728097,0.0,0.818944093153,-0.573737053853,-0.0117094930391,0.0,-0.00781954941652,0.00924615317329,-0.999926678961,0.0,0.574299168565,0.14634681676,0.304257716526,1.0,-0.161672571429,-0.21248395102,1.859
0.362679316362,0.147679280126,-0.126420641731,-1.94224128767,0.0336577013161,2.08295041348,0.0467013757628,-0.255478713203,-0.620945627424,-0.00485856075095,-0.823288438921,-0.0877224246518,0.200847239514,-0.229753053031,0.57379356175,0.818982993266,0.00292440357427,0.0,0.818949355961,-0.573727895966,-0.0117898541971,0.0,-0.00797803177273,0.00916005721548,-0.999926219459,0.0,0.571332026402,0.142507393428,0.304194052664,1.0,-0.164645142857,-0.216390759184,1.877
0.358274998356,0.136937018853,-0.126512804498,-1.95628692381,0.032276393464,2.08646093255,0.0426630078153,-0.262618949557,-0.647201650537,-0.00715421276509,-0.84909146961,-0.0899850469496,0.217916086196,-0.241589595203,0.573833443183,0.818954279259,0.00313286911429,0.0,0.818922990582,-0.573766622041,-0.0117365169026,0.0,-0.00781428546115,0.00930056351402,-0.999926215508,0.0,0.568714616605,0.139046204067,0.304296935404,1.0,-0.167287428571,-0.219863477551,1.893
0.353711014251,0.126237100426,-0.126651794394,-1.97050386039,0.0307290039453,2.08989945274,0.0384507793563,-0.268677434419,-0.638637227298,-0.00708566565904,-0.865504343863,-0.0925478988708,0.194935310716,-0.240990614722,0.573824976233,0.818960689596,0.0030054033639,0.0,0.818927850726,-0.573758724445,-0.0117833920726,0.0,-0.00792591109539,0.00922299076452,-0.999926055453,0.0,0.565843147474,0.135244948522,0.304246502024,1.0,-0.170094857143,-0.223553240816,1.91
0.348946507549,0.115271822273,-0.126803408841,-1.98460596084,0.0292098965583,2.09336359498,0.0341951652483,-0.277181955173,-0.637744617223,-0.0024967443488,-0.809284323736,-0.0924149340441,0.20136918752,-0.252730172823,0.573945408953,0.818875466439,0.00322256226007,0.0,0.818846009178,-0.573879077823,-0.0116087980449,0.0,-0.0076569462757,0.00930177767534,-0.999927421419,0.0,0.56300489102,0.13137716068,0.304370253909,1.0,-0.172902285714,-0.227243004082,1.927
0.344086810809,0.104348856563,-0.126868058769,-1.99898121128,0.0276562506517,2.0966118981,0.0297395711224,-0.285415172005,-0.647941532214,-0.000265531712481,-0.858195588327,-0.0857529476879,0.185438993528,-0.268203794478,0.573878520001,0.818923045828,0.00303911089018,0.0,0.818890537862,-0.573812017032,-0.0117814689612,0.0,-0.00790439028016,0.00925000921371,-0.999925976232,0.0,0.559990016787,0.127507186384,0.304289422526,1.0,-0.175709714286,-0.230932767347,1.944
0.339411034038,0.0938590337151,-0.126882592343,-2.0123603278,0.0261953699978,2.09977903378,0.0254457593044,-0.296028637562,-0.641759358045,-0.00197284899866,-0.834783615155,-0.0870298771427,0.190886009602,-0.275196818022,0.57375954162,0.819005646155,0.00323834323866,0.0,0.818975963075,-0.573692661464,-0.011655427422,0.0,-0.00768819513724,0.0093397177862,-0.999926827987,0.0,0.557196311352,0.123888639659,0.3043784472,1.0,-0.178352,-0.234405485714,1.96
0.334244556199,0.0827092604552,-0.126949106046,-2.02683388155,0.0246606056817,2.10285403993,0.0207641511437,-0.30881049387,-0.666149826873,-0.00353768073068,-0.85624497874,-0.0913326629281,0.178043401647,-0.280451474316,0.573729073298,0.819027643949,0.00306851796705,0.0,0.818994409069,-0.573661186807,-0.0119057786871,0.0,-0.00799102606074,0.00934397033254,-0.999924414004,0.0,0.554070442293,0.119916134866,0.304296444083,1.0,-0.181159428571,-0.23809524898,1.977
0.328879105002,0.0713780557003,-0.12709860041,-2.04106292759,0.0229994202878,2.10613159628,0.0159540344766,-0.319340426008,-0.660547530255,-0.00680694449354,-0.824943870237,-0.0900625310037,0.18717433815,-0.279458259293,0.573748576434,0.819013082787,0.00329972194062,0.0,0.818983908497,-0.573681145964,-0.0116639311371,0.0,-0.00766007141382,0.00939476393571,-0.999926528159,0.0,0.551062561389,0.115842229325,0.304408933219,1.0,-0.183966857143,-0.241785012245,1.994
0.323248027012,0.059985975022,-0.127294057953,-2.05556352724,0.0213261146831,2.10905259418,0.0109768007363,-0.336618969982,-0.682220823537,-0.00863186701468,-0.83954839802,-0.100155504687,0.181284028876,-0.291823451615,0.57386148978,0.818934650998,0.00312647463469,0.0,0.818902671042,-0.573793964858,-0.0118172819799,0.0,-0.00788378120451,0.00934194133274,-0.999925284272,0.0,0.547881046979,0.111608681555,0.304361456499,1.0,-0.186774285714,-0.24547477551,2.011
0.317867876241,0.0491358080754,-0.127382673059,-2.06908198089,0.0197828005532,2.11194810891,0.00618462290316,-0.331931819923,-0.677344691672,-0.000289412613107,-0.833640703616,-0.0942409761779,0.182290976507,-0.302943730878,0.573861211199,0.818934187492,0.00329450142778,0.0,0.818904514537,-0.573793254974,-0.0117236307756,0.0,-0.00771066780015,0.00942580052476,-0.999925847194,0.0,0.544916445321,0.107696755488,0.304423307558,1.0,-0.189416571429,-0.248947493878,2.027
0.312027728121,0.0375945979348,-0.127459610409,-2.08351032999,0.0181304376084,2.11481779886,0.000976956387939,-0.352212558118,-0.690682994159,-0.00778471765279,-0.803238816369,-0.100982682627,0.17522492325,-0.307658960734,0.573827260114,0.818957996836,0.00328966098586,0.0,0.818927654399,-0.573758585285,-0.011803794897,0.0,-0.0077794907699,0.00946751591864,-0.999924920014,0.0,0.541667515843,0.103516651831,0.304409374803,1.0,-0.18998,-0.249688,2.044
0.305987982957,0.0260761640206,-0.127528021658,-2.09776669344,0.0163532232576,2.11762261545,-0.00436572857757,-0.352516842592,-0.678917351886,-0.00251198670035,-0.835827625988,-0.104225143053,0.158737016619,-0.321950761497,0.573763514547,0.819002710195,0.00327673148055,0.0,0.818972640516,-0.573695429527,-0.011752239234,0.0,-0.00774541903262,0.00942674101356,-0.999925569749,0.0,0.538436623799,0.0992761318551,0.304415516819,1.0,-0.18998,-0.249688,2.061
0.29979218932,0.0145357768927,-0.127691656154,-2.11178599,0.0146712699962,2.12022014584,-0.00977886980516,-0.367898025095,-0.687150646338,-0.00831859029744,-0.826678279599,-0.103781934017,0.157749233922,-0.321417377282,0.573865974433,0.818930558875,0.00336601096534,0.0,0.818901530476,-0.57379742856,-0.0117277987678,0.0,-0.00767299209176,0.00948679884923,-0.999925560149,0.0,0.535217331489,0.0949729165357,0.304483635293,1.0,-0.18998,-0.249688,2.078
0.292359240685,0.00120395799224,-0.127835965593,-2.12814257145,0.0127193397801,2.12309700542,-0.0162671374973,-0.372223231481,-0.662585158023,-0.0030376445684,-0.839331538016,-0.0998770090721,0.13331528745,-0.328130276257,0.573952285009,0.81887043661,0.00327558857467,0.0,0.818839191867,-0.573882770204,-0.0119033956015,0.0,-0.00786768638539,0.00951434458682,-0.999923785475,0.0,0.531378889075,0.0899313521102,0.304427161746,1.0,-0.18998,-0.249688,2.098
0.287539725862,-0.00753209314737,-0.127833930019,-2.13843048095,0.0114244747423,2.12499321543,-0.0205705232549,-0.373871955403,-0.689830617987,0.000838733024659,-0.784016529612,-0.10488771076,0.150542512839,-0.331288403224,0.573822933363,0.818960070396,0.00352010583392,0.0,0.818932749869,-0.573753517642,-0.0116961141784,0.0,-0.00755912292272,0.00959441321937,-0.999925400665,0.0,0.528964523623,0.086768297132,0.304557670319,1.0,-0.18998,-0.249688,2.111
0.280295142817,-0.0200251201677,-0.127896185748,-2.15362053077,0.00947108693114,2.12743937432,-0.0269295566489,-0.379601519899,-0.657837579789,-0.00486137788415,-0.816228305795,-0.0990477433137,0.109863350137,-0.343362109143,0.573747968454,0.819013513544,0.00329851907714,0.0,0.818982681192,-0.573678537718,-0.0118764544521,0.0,-0.0078348379334,0.00951570481892,-0.999924030452,0.0,0.525284545658,0.0820319625614,0.304462473289,1.0,-0.18998,-0.249688,2.13
0.274462319391,-0.0299836243487,-0.128021190486,-2.16517164958,0.00799090228751,2.12939338998,-0.0319899944826,-0.388625100265,-0.662530269361,-0.00973971394261,-0.766874652396,-0.102309973607,0.130067088959,-0.338063798474,0.573820988523,0.818961251217,0.00356216745145,0.0,0.818934577055,-0.573751565218,-0.0116639107574,0.0,-0.00750863636161,0.00961036392538,-0.999925627877,0.0,0.522511608149,0.0782735688102,0.304606148095,1.0,-0.18998,-0.249688,2.145
0.267674361278,-0.0410149519734,-0.12817500601,-2.17840626483,0.00629124365432,2.13139255607,-0.0378227255394,-0.402588833931,-0.649758065552,-0.00209088049576,-0.769937887838,-0.0950819891263,0.109515191247,-0.345249795808,0.573952278574,0.818869890074,0.00341056459061,0.0,0.818840460584,-0.573882354887,-0.0118359520127,0.0,-0.00773499080736,0.00958616447039,-0.999924134806,0.0,0.519239713998,0.0739492069195,0.304514896011,1.0,-0.18998,-0.249688,2.162
0.261319275826,-0.0514514107894,-0.128203666436,-2.19046588478,0.0047466160272,2.13324606474,-0.0433975247492,-0.401807643846,-0.651420551144,-0.0018099062879,-0.745509877353,-0.102354547851,0.127287055459,-0.348312355656,0.573868209188,0.818927963968,0.00360766072416,0.0,0.81890141556,-0.57379803588,-0.0117060887625,0.0,-0.00751651951498,0.00967225688954,-0.999924971876,0.0,0.516052719423,0.0697843917866,0.304606481711,1.0,-0.18998,-0.249688,2.179
0.254391131372,-0.0623252256857,-0.12829184958,-2.20331589636,0.00305209597053,2.13503301356,-0.0494958577931,-0.40408253051,-0.637952037176,-0.00533468054085,-0.772848932279,-0.0986420011391,0.1005691432,-0.357976111243,0.573826414857,0.818957936563,0.00344828264291,0.0,0.818928423463,-0.573755662833,-0.0118921617697,0.0,-0.00776085799134,0.00964811897781,-0.999923338503,0.0,0.512772526214,0.065545208197,0.304509029045,1.0,-0.18998,-0.249688,2.196
0.24690834821,-0.0739355396701,-0.128465646168,-2.21657928002,0.00123493721031,2.13679738105,-0.056009993731,-0.419385481863,-0.651412825328,-0.0157677256556,-0.726620320806,-0.103282909287,0.0981721464923,-0.36889348867,0.573885950304,0.818915892229,0.0035248261925,0.0,0.818887722567,-0.57381535698,-0.0118144328747,0.0,-0.00765257477457,0.00966676004589,-0.999923993036,0.0,0.509570193123,0.0612512467217,0.304570107067,1.0,-0.18998,-0.249688,2.213
0.240104286958,-0.0840847865457,-0.128580811955,-2.22829637721,-0.000285090219337,2.13826594661,-0.0619088823303,-0.423017855596,-0.630535756147,-0.00137389759612,-0.725532460515,-0.0939401100139,0.0877788286447,-0.363184464752,0.573962473554,0.818862366681,0.00350004097818,0.0,0.818832970001,-0.573890819994,-0.0119432352239,0.0,-0.00777137409735,0.00972110494205,-0.999922549932,0.0,0.506511667313,0.0572250260888,0.304524722676,1.0,-0.18998,-0.249688,2.229
0.232878715455,-0.0948851929653,-0.128612857137,-2.24051308636,-0.00192180616225,2.13967664106,-0.0682703751412,-0.436308933505,-0.632478800159,-0.00462049872561,-0.687462992152,-0.105728310543,0.0894803740515,-0.373729690968,0.573865505571,0.818930203989,0.00352837231644,0.0,0.818900710473,-0.573793178666,-0.0119900543951,0.0,-0.00779461179508,0.00977025333167,-0.999921890038,0.0,0.503265737442,0.0530523429227,0.304542533812,1.0,-0.18998,-0.249688,2.246
0.225501362764,-0.105583376747,-0.12872232666,-2.25253894739,-0.00365669975649,2.14104414053,-0.0746692713898,-0.43891475082,-0.624993872771,-0.0068369244493,-0.713958488292,-0.0936084382227,0.075082057055,-0.369321199802,0.573867422658,0.818928879363,0.00352401171588,0.0,0.818899691882,-0.57379556662,-0.0119452611039,0.0,-0.00776040640212,0.00974099585536,-0.999922441538,0.0,0.500046098735,0.0488140004658,0.304554769545,1.0,-0.18998,-0.249688,2.263
0.218347489355,-0.115615431317,-0.128907284409,-2.2638003066,-0.00524570177994,2.14213381114,-0.0808683531436,-0.443216639161,-0.633107139171,-0.00929878662823,-0.689894716175,-0.104051552608,0.0727938150919,-0.401064609356,0.573968804418,0.818858179846,0.00344089466471,0.0,0.818827240711,-0.573896413233,-0.0120666336684,0.0,-0.00790629679686,0.00974355717752,-0.999921273683,0.0,0.496967744002,0.04473668293,0.304523199572,1.0,-0.18998,-0.249688,2.279
0.210746343164,-0.126221497444,-0.12897264179,-2.27542049121,-0.00681661905291,2.14336063038,-0.087543552146,-0.443005071513,-0.621098401642,-0.00110117356184,-0.693681148732,-0.0938988168018,0.061717727083,-0.397425658406,0.573939121622,0.818878080522,0.00364976899633,0.0,0.818849950428,-0.573866060712,-0.0119687069972,0.0,-0.00770658163131,0.00985811214182,-0.999921710048,0.0,0.493783032711,0.0405511957999,0.304592013175,1.0,-0.18998,-0.249688,2.296
0.202993978067,-0.136712754954,-0.12903347629,-2.28701303004,-0.0085195611646,2.14432304588,-0.0943340327248,-0.463763957567,-0.606966211998,-0.00814214921669,-0.677657220267,-0.10476602083,0.0526863113252,-0.398575808235,0.573861091512,0.818933240551,0.00354147850114,0.0,0.818903347023,-0.573788000823,-0.012057580494,0.0,-0.00784244658942,0.00981969396081,-0.999921031703,0.0,0.490515750045,0.0363305585306,0.304558579382,1.0,-0.18998,-0.249688,2.313
0.195120042978,-0.147221220116,-0.129174899657,-2.29820148206,-0.0101310138146,2.14539981523,-0.101236625101,-0.469159156999,-0.602602438887,-0.00939918566649,-0.661935700137,-0.088107095309,0.0580385863948,-0.405744772268,0.573888272962,0.818912830834,0.00384350808092,0.0,0.818887965359,-0.57381551157,-0.0117900709358,0.0,-0.00744971924025,0.00991377683058,-0.9999231064,0.0,0.487380603231,0.0320920298009,0.304690698735,1.0,-0.18998,-0.249688,2.33
0.18707902525,-0.157562180557,-0.129320105258,-2.30949478115,-0.0118015062825,2.14611533567,-0.108286208419,-0.469605260191,-0.612373943815,-0.00130314941627,-0.654568963201,-0.0977320376075,0.0388787949112,-0.410105963623,0.573892437217,0.818910586759,0.00369706636851,0.0,0.818882921631,-0.573819016546,-0.0119684507505,0.0,-0.00767979189877,0.00989625841384,-0.999921539355,0.0,0.48409250029,0.027815491243,0.304628120432,1.0,-0.18998,-0.249688,2.347
0.179488435219,-0.167304668763,-0.1293617672,-2.31975952377,-0.0132958575216,2.1468117422,-0.114959328432,-0.477972536803,-0.610181065149,-0.0017071666361,-0.630434248552,-0.0907852245016,0.0436221685788,-0.424732934749,0.573823134313,0.818958367595,0.00386646800601,0.0,0.818933296229,-0.573749633369,-0.0118474232268,0.0,-0.00748430588123,0.00996489677361,-0.999922339983,0.0,0.480903836078,0.0236484588424,0.304716406225,1.0,-0.18998,-0.249688,2.364
0.171231758736,-0.177486302711,-0.12947943494,-2.33067639967,-0.0148832599793,2.14744241514,-0.122207515485,-0.490254261161,-0.597878497105,-0.0067559603935,-0.633175667572,-0.106676996659,0.0245159519681,-0.429637675378,0.573847582239,0.818941410945,0.00382945168056,0.0,0.818915134674,-0.573773250821,-0.011958500972,0.0,-0.00759622097,0.0099985453117,-0.999921160151,0.0,0.477840170169,0.0196590499046,0.304669413642,1.0,-0.18998,-0.249688,2.38
0.162737245027,-0.187650052525,-0.129684579186,-2.34138048157,-0.0164998593287,2.14790728068,-0.129626328266,-0.504839855343,-0.594851383874,-0.00876662413774,-0.612758386553,-0.088252186632,0.0243924791079,-0.445427947193,0.573962809193,0.818860692623,0.00382186363842,0.0,0.818833797395,-0.573887805082,-0.0120310566062,0.0,-0.00765858586224,0.0100350433691,-0.999920318809,0.0,0.474593463768,0.0153274223848,0.304667495835,1.0,-0.18998,-0.249688,2.397
0.154293147178,-0.197764016405,-0.129738224675,-2.35177514879,-0.0181136722767,2.14846870172,-0.137134993882,-0.503927671406,-0.597395747529,-0.00224741913429,-0.622843938273,-0.0949262283291,0.032229769292,-0.443967234857,0.573835995832,0.818948674858,0.00400808387929,0.0,0.818925404459,-0.573761959032,-0.011795897587,0.0,-0.00736069035518,0.0100514258716,-0.999922391526,0.0,0.471432027446,0.0111529193621,0.304759159449,1.0,-0.18998,-0.249688,2.414
0.14566678298,-0.207711197431,-0.129860309792,-2.3622695596,-0.0196755022718,2.14869037728,-0.144774997622,-0.506654016123,-0.586054889413,-0.00802452020472,-0.621731192565,-0.094339442456,0.0178164121571,-0.46303990388,0.573815076223,0.818964037909,0.00386132255491,0.0,0.818937256423,-0.57373942054,-0.0120662447083,0.0,-0.00766657512889,0.0100861682163,-0.999919743198,0.0,0.468122116944,0.00692706388512,0.304665386906,1.0,-0.18998,-0.249688,2.431
0.136310203133,-0.218259523985,-0.130055332237,-2.37286857958,-0.0212802918931,2.14901196359,-0.152941834082,-0.513835110597,-0.582878704559,-0.0052501770204,-0.58551578437,-0.0908162653123,0.0195833463217,-0.444887891567,0.573983797046,0.818844551568,0.00411679448078,0.0,0.818821703028,-0.573908003948,-0.0118898509793,0.0,-0.00737342035143,0.010195698778,-0.999920837066,0.0,0.464776066284,0.00239157309086,0.304777293498,1.0,-0.18998,-0.249688,2.449
0.128559798192,-0.226871351408,-0.130086911288,-2.38175713261,-0.0227068396099,2.14914817699,-0.159898885664,-0.516207324765,-0.568670851739,0.0015450205147,-0.601445437068,-0.0882008242895,0.0107113825968,-0.467131579127,0.573806799268,0.818969076393,0.00401944356077,0.0,0.818944701177,-0.573731023091,-0.0119597850517,0.0,-0.00748875883307,0.0101545034919,-0.999920399107,0.0,0.461901272475,-0.00126618554488,0.304726428796,1.0,-0.18998,-0.249688,2.464
0.118407671343,-0.237774769491,-0.130246270567,-2.39279749201,-0.0244825085164,2.1491749988,-0.168896647436,-0.533135570757,-0.574069233563,-0.0104645484045,-0.56655224843,-0.0987122588043,0.00338519282694,-0.478600230501,0.573806165622,0.818969721308,0.00397828822926,0.0,0.81894444004,-0.573730040803,-0.0120246126086,0.0,-0.00756547582762,0.010157989453,-0.999919786196,0.0,0.458261951009,-0.00603500271568,0.304710162442,1.0,-0.18998,-0.249688,2.483
0.110229297955,-0.246348751935,-0.130416140952,-2.40114560576,-0.0258064277427,2.14925468695,-0.176099740114,-0.542445100929,-0.57217086123,-0.0087775077257,-0.55788131452,-0.0854048140827,0.00495496270056,-0.482828944464,0.573927317139,0.818883577081,0.00422714190334,0.0,0.818862556287,-0.573851707052,-0.0117931812925,0.0,-0.00723162911606,0.0102300740851,-0.999921521483,0.0,0.455493777717,-0.0098339066749,0.304825723738,1.0,-0.18998,-0.249688,2.498
0.101027525955,-0.255859991877,-0.130520762749,-2.41078315569,-0.0272846201774,2.14918408653,-0.184408279544,-0.548865711948,-0.559422896007,-0.0116339968236,-0.561447366566,-0.088582575562,-0.00696765150722,-0.501707016979,0.573818063642,0.818960362921,0.0041833841012,0.0,0.818937683278,-0.573741093186,-0.0119572487597,0.0,-0.00739247574442,0.0102874142785,-0.999919756985,0.0,0.452218777678,-0.0140044845083,0.304743505901,1.0,-0.18998,-0.249688,2.515
0.0898245433172,-0.267010412347,-0.130744239711,-2.42164285072,-0.029100906763,2.14902213041,-0.194288644108,-0.563097888498,-0.556988448083,-0.0131823816513,-0.527062886787,-0.096461554672,-0.00337043535107,-0.503010368024,0.573954865577,0.818863914305,0.00429523360791,0.0,0.818843367856,-0.573878439764,-0.0118246435346,0.0,-0.00721797089695,0.0103041336301,-0.999920859732,0.0,0.44846024565,-0.0190633950986,0.304799840612,1.0,-0.18998,-0.249688,2.535
0.0819443402933,-0.274736767373,-0.130846223441,-2.42907796659,-0.0303274105152,2.14886689146,-0.201347963388,-0.554100301874,-0.543619802479,0.000320741578516,-0.534751403804,-0.0798234943093,-0.0188584770236,-0.494880075518,0.573938468915,0.818874795382,0.00441024827984,0.0,0.818856349586,-0.573862547538,-0.0116962462773,0.0,-0.00704702064087,0.0103244842659,-0.99992186921,0.0,0.44584476892,-0.0225446129272,0.304853153027,1.0,-0.18998,-0.249688,2.549
0.0711499145706,-0.28505817136,-0.13097019945,-2.43923272491,-0.032004063175,2.14846694245,-0.211142819559,-0.576598583002,-0.535812121712,-0.00619988981432,-0.535763631976,-0.0844193534659,-0.02365509862,-0.513931438891,0.573794304589,0.818976332488,0.00431390162089,0.0,0.818955779615,-0.573717485086,-0.0118501157676,0.0,-0.00723014276474,0.0103326225363,-0.999920477812,0.0,0.442183782555,-0.027236133669,0.304777548213,1.0,-0.18998,-0.249688,2.568
0.062326459987,-0.293168914749,-0.131148934662,-2.4469330026,-0.0332182083613,2.14813735893,-0.218953200252,-0.592687286773,-0.539719391786,-0.00873796684925,-0.501275603712,-0.075743151,-0.0171688825016,-0.529469845755,0.573953938996,0.818863816964,0.00443532182878,0.0,0.818844568402,-0.573876283604,-0.011846130831,0.0,-0.00715517966021,0.0104311734733,-0.999919993812,0.0,0.439535481756,-0.0307880873128,0.304799090533,1.0,-0.18998,-0.249688,2.582
0.0524482775663,-0.302262064376,-0.131256131219,-2.45543667651,-0.0346829427363,2.14775539262,-0.227960735614,-0.580937017593,-0.531487943297,-0.00437438369868,-0.504934445186,-0.0875987122275,-0.025979515956,-0.534121938775,0.57383184023,0.818948419432,0.00461002699071,0.0,0.818932802886,-0.573755678553,-0.0115858787243,0.0,-0.00684333966031,0.0104238491253,-0.999922253014,0.0,0.436004989182,-0.0354765204131,0.304896767824,1.0,-0.18998,-0.249688,2.601
0.0423043826987,-0.31117094646,-0.131428082121,-2.46402375969,-0.036122105576,2.1470964886,-0.23702896547,-0.60477072252,-0.524016566831,-0.00935866182504,-0.495942190918,-0.0893571759563,-0.0378530757516,-0.535917580645,0.573924914284,0.818883882417,0.00448628834725,0.0,0.818865152976,-0.573846879695,-0.0118476498425,0.0,-0.00712754415838,0.010473528262,-0.99991974844,0.0,0.432890819541,-0.0394831508848,0.304807139453,1.0,-0.18998,-0.249688,2.617
0.0325198213484,-0.31949920218,-0.131601724557,-2.47179332796,-0.0374722162623,2.14655461276,-0.245764351867,-0.611171547165,-0.520505614444,-0.0060349458066,-0.483032924969,-0.0873035840557,-0.0285374732681,-0.546227486991,0.574046937569,0.818798040449,0.00454195178933,0.0,0.818780232419,-0.573968987712,-0.0118016543495,0.0,-0.00705636784158,0.0104937659168,-0.999920041078,0.0,0.429858583191,-0.0435466282356,0.304822999707,1.0,-0.18998,-0.249688,2.633
0.0223394853486,-0.328253423234,-0.131680105616,-2.47970639803,-0.0387955587182,2.14603091939,-0.25523890262,-0.608183842268,-0.50652035927,-0.00802783121546,-0.465835217528,-0.0820161744595,-0.0391445737383,-0.563695524535,0.573812924791,0.818960630423,0.00479166585806,0.0,0.818947426166,-0.573736327446,-0.0115102843276,0.0,-0.00667744549907,0.010529075054,-0.999922272129,0.0,0.426741732805,-0.0476709323277,0.304936472101,1.0,-0.18998,-0.249688,2.65
0.0117236654693,-0.336776669159,-0.131871961649,-2.48777778737,-0.0401594151405,2.14518272087,-0.264810684923,-0.631808379552,-0.49411403027,-0.0127209091368,-0.465140333984,-0.0785670148295,-0.0518247318245,-0.568445247811,0.573913782222,0.818890686976,0.00466478953495,0.0,0.818873998449,-0.57383472575,-0.0118249350246,0.0,-0.00700664584189,0.0106065722523,-0.999919200505,0.0,0.423429274676,-0.0519515178969,0.304826133877,1.0,-0.18998,-0.249688,2.667
0.00165000564269,-0.344806625452,-0.131997112016,-2.49510050361,-0.0414637301553,2.14442603586,-0.273909969249,-0.618641457601,-0.49396704203,-0.00157831342052,-0.450452109489,-0.0890503543984,-0.0559156878025,-0.577894914004,0.57395195158,0.818863873647,0.00467553361311,0.0,0.818847346063,-0.573872884682,-0.0118187551485,0.0,-0.00699492433455,0.01061215019,-0.999919223389,0.0,0.420377507533,-0.0559516006762,0.304832881538,1.0,-0.18998,-0.249688,2.683
-0.0090317951515,-0.353247547186,-0.132133419786,-2.50250554301,-0.0427948045549,2.14365580258,-0.283778371002,-0.636580242332,-0.485807782964,-0.00802338707328,-0.43002590979,-0.0823115129689,-0.0381314825016,-0.58141228797,0.57384433152,0.818938182435,0.00486656286615,0.0,0.818925538586,-0.573766862917,-0.0115453960969,0.0,-0.00666282146617,0.0106108170127,-0.999921505606,0.0,0.417233234198,-0.0601484861968,0.304952167768,1.0,-0.18998,-0.249688,2.7
-0.019466889464,-0.360940733711,-0.132327129569,-2.50950684139,-0.0440724640447,2.14278800154,-0.293201601548,-0.648258303705,-0.478232672035,-0.00094411325443,-0.443032443836,-0.0866022968193,-0.0630494768445,-0.597296375919,0.573977897114,0.818844845443,0.00482074864918,0.0,0.8188310334,-0.573899636334,-0.0116487363394,0.0,-0.00677201219305,0.010633700518,-0.999920528974,0.0,0.414161577573,-0.0642203262383,0.304911392188,1.0,-0.18998,-0.249688,2.716
-0.0310131282104,-0.369548443548,-0.132405409737,-2.51723423625,-0.0454124172147,2.14175742389,-0.303977000788,-0.638899508456,-0.476097612426,-0.00713429226511,-0.427494647464,-0.0756956085965,-0.052139447593,-0.587928638616,0.57376262452,0.818995715654,0.00481823051099,0.0,0.818981307291,-0.573683525569,-0.0117293520963,0.0,-0.00684228138288,0.0106761101136,-0.999919598697,0.0,0.410724538371,-0.0685947469789,0.30488921646,1.0,-0.18998,-0.249688,2.734
-0.0423052841748,-0.377476297152,-0.132622837721,-2.52426407833,-0.0466558678462,2.14074476828,-0.314248648242,-0.680192364461,-0.467924871296,-0.0144646840764,-0.406069027638,-0.071203908235,-0.0460520310047,-0.606498982535,0.573922469139,0.818883423161,0.00486678447408,0.0,0.818869039337,-0.57384223508,-0.0118039211768,0.0,-0.00687340123402,0.0107600018777,-0.999918486035,0.0,0.407480389911,-0.0728868947173,0.304879038856,1.0,-0.18998,-0.249688,2.751
-0.0542809217199,-0.385719449725,-0.132734367545,-2.53130581106,-0.0480129993386,2.13976379764,-0.325333490401,-0.658687699995,-0.451047142188,-0.00794512936595,-0.392883927654,-0.0707446548565,-0.0545293705723,-0.628817271274,0.573837290033,0.818942413474,0.00498346082932,0.0,0.818931154263,-0.573759272824,-0.0115242495549,0.0,-0.00657851653925,0.010694361363,-0.999921173771,0.0,0.404158779244,-0.0773644870908,0.304976909572,1.0,-0.18998,-0.249688,2.769
-0.0657597805148,-0.393358443611,-0.132942841784,-2.53810719479,-0.0492519499026,2.13862809876,-0.335973771362,-0.688359104947,-0.436128685038,-0.0136894561468,-0.400688535493,-0.0651979774481,-0.0705885380288,-0.621858151678,0.573841479184,0.818939827874,0.00492564621997,0.0,0.818926485728,-0.573761499656,-0.0117430569575,0.0,-0.00679084162629,0.0107726027295,-0.999918914463,0.0,0.400860297758,-0.0816063555997,0.30490200756,1.0,-0.18998,-0.249688,2.786
-0.0760412653884,-0.400001337623,-0.133076480022,-2.5438308718,-0.0503629016459,2.1376286496,-0.345467570834,-0.669294454178,-0.440061072578,-0.00237396910465,-0.390378073043,-0.0726995990063,-0.0597179551421,-0.639677870829,0.573844850874,0.818937546954,0.00491204798603,0.0,0.818924027549,-0.573764914357,-0.0117476405157,0.0,-0.00680235408082,0.0107641243828,-0.999918927516,0.0,0.397998513439,-0.0853635446756,0.304908172576,1.0,-0.18998,-0.249688,2.801
-0.0883621207041,-0.40776035314,-0.133216425668,-2.55046868624,-0.0516047915253,2.13646067213,-0.357003249713,-0.692801210446,-0.43497228311,-0.0105296183196,-0.362141108108,-0.0586988228695,-0.063732887642,-0.643264880995,0.57374826974,0.819004951761,0.00495568994241,0.0,0.818992053153,-0.57366829305,-0.0117240489042,0.0,-0.00675926205382,0.0107855311088,-0.999918989066,0.0,0.394605477391,-0.0898014728312,0.304919674649,1.0,-0.18998,-0.249688,2.819
-0.0990010985286,-0.414080894356,-0.133404530731,-2.5557187784,-0.0525723666546,2.13554325354,-0.366755654765,-0.705612132678,-0.416455811427,-0.00483730327067,-0.346870606266,-0.0654736828746,-0.0647732425533,-0.652677814664,0.573949593294,0.818862822702,0.00512726591098,0.0,0.81885291614,-0.573870294371,-0.0115556855859,0.0,-0.0065202612547,0.0108310662169,-0.999920083906,0.0,0.391806282855,-0.0936364606357,0.304987560951,1.0,-0.18998,-0.249688,2.834
-0.111558308845,-0.421557802925,-0.133516496039,-2.56206535652,-0.0537646215297,2.13422021802,-0.378639410849,-0.705678680063,-0.408519390807,-0.00990770837102,-0.349345448996,-0.0656246902472,-0.0745463776911,-0.661465821185,0.573766375166,0.818991324978,0.00510913300528,0.0,0.818980535999,-0.573686094367,-0.0116573447101,0.0,-0.00661635301572,0.010873082246,-0.999918996697,0.0,0.388366998444,-0.0980399460287,0.304972028788,1.0,-0.18998,-0.249688,2.852
-0.123043457671,-0.427991684739,-0.133733879521,-2.5675532071,-0.054848975096,2.13304173326,-0.38928172491,-0.719146926776,-0.396480574454,-0.0110838607145,-0.33828515675,-0.0637773911242,-0.0632970320504,-0.663773640858,0.573884142322,0.818909030138,0.00507330768839,0.0,0.818896849337,-0.573802448318,-0.0118087828058,0.0,-0.00675937264078,0.0109315993413,-0.999917402097,0.0,0.385272054632,-0.102076569797,0.30492639618,1.0,-0.18998,-0.249688,2.868
-0.135192106036,-0.434622789449,-0.133813908007,-2.57310245384,-0.0558759835436,2.13190587746,-0.400759095247,-0.712667288109,-0.380786237378,-0.0105797540566,-0.319306153353,-0.0586340888383,-0.0736902215388,-0.679178631974,0.573777693483,0.818983270406,0.00512914790884,0.0,0.81897180534,-0.573695811611,-0.0117917216174,0.0,-0.00671478134183,0.0109666654969,-0.999917318562,0.0,0.382076630961,-0.106249556537,0.304924325077,1.0,-0.18998,-0.249688,2.885
-0.14690655602,-0.440690545156,-0.13399921403,-2.57803626357,-0.056895467089,2.13077141166,-0.411692696645,-0.744805046893,-0.384650515655,-0.0120653033359,-0.293247136844,-0.0649901636868,-0.0673921470271,-0.684599245796,0.573867596055,0.818919972102,0.00517768207591,0.0,0.81890951134,-0.5737861503,-0.0117223232444,0.0,-0.00662888998517,0.0109673257141,-0.999917884421,0.0,0.379064763342,-0.110298648652,0.304964834709,1.0,-0.18998,-0.249688,2.901
-0.159339334112,-0.447089865213,-0.13410540142,-2.58314299257,-0.057915952579,2.12960392918,-0.423473612495,-0.72366564957,-0.373042276815,-0.00312524980853,-0.298989149527,-0.0497130407236,-0.064247423612,-0.700610394753,0.573781102529,0.818979925158,0.00527972259803,0.0,0.818971837548,-0.573701115462,-0.0115285003982,0.0,-0.00641275111485,0.0109389903963,-0.999919604324,0.0,0.375884502204,-0.114513743266,0.305043587348,1.0,-0.18998,-0.249688,2.918
-0.171942322004,-0.45319622848,-0.134323504411,-2.5882937906,-0.0589195499862,2.12829847208,-0.435371592815,-0.751465851901,-0.356599597331,-0.0156425684203,-0.301721806917,-0.0583287101375,-0.0774989847493,-0.694386499391,0.573824517604,0.818949702504,0.0052492539115,0.0,0.818939549274,-0.573741806124,-0.0117941273812,0.0,-0.00664720866947,0.0110667941574,-0.99991666687,0.0,0.372578760718,-0.118749066086,0.304961740368,1.0,-0.18998,-0.249688,2.935
-0.183910403055,-0.458773938976,-0.134418551684,-2.59281798824,-0.0598193238091,2.12714238063,-0.446727684531,-0.741338103498,-0.348613022295,-0.000978813238992,-0.275660301773,-0.0496276080142,-0.0608705885637,-0.716824118185,0.573774060505,0.818984914797,0.0052710271371,0.0,0.818974858923,-0.573690973511,-0.0118150017367,0.0,-0.00665249558217,0.0110961938635,-0.99991630589,0.0,0.369542357908,-0.122718565547,0.304964343915,1.0,-0.18998,-0.249688,2.951
-0.198286702729,-0.465069537412,-0.134635823205,-2.59794381775,-0.0608869699609,2.12588168965,-0.460336183319,-0.766180211233,-0.330188432081,-0.0158846025787,-0.273290630501,-0.0606172964694,-0.0682554801883,-0.713970748525,0.573834637424,0.818942177142,0.00531660526258,0.0,0.818932624768,-0.573751231505,-0.0118164012451,0.0,-0.0066266681287,0.0111348162064,-0.999916048045,0.0,0.365945850745,-0.127490604898,0.304948106736,1.0,-0.18998,-0.249688,2.97
-0.209727518751,-0.469899004204,-0.134726622587,-2.60180689407,-0.0617064413777,2.12482615476,-0.471167802415,-0.753979315937,-0.317642662352,-0.00957408139847,-0.245676267296,-0.048333228168,-0.0627627490191,-0.728218746076,0.573842875474,0.818936408079,0.00531607856354,0.0,0.818926828782,-0.573759436164,-0.0118197045011,0.0,-0.00662956374914,0.011136346987,-0.999916011803,0.0,0.363106493422,-0.131228080066,0.304952855269,1.0,-0.18998,-0.249688,2.985
-0.225868462593,-0.476540708369,-0.134972742791,-2.60689641018,-0.0627632479862,2.12341710004,-0.48656512793,-0.783324533456,-0.30374695437,-0.0118734367426,-0.239204550285,-0.0442770172821,-0.0729639959389,-0.737181252922,0.573903579826,0.818892656703,0.00549952387097,0.0,0.818886518239,-0.573821336617,-0.0116056361948,0.0,-0.00634814833943,0.0111642170588,-0.999917527234,0.0,0.359155332705,-0.136498179621,0.305049742272,1.0,-0.18998,-0.249688,3.006
-0.23591055585,-0.480409016766,-0.135022923845,-2.60998510578,-0.0634805111744,2.12252004669,-0.496197032297,-0.766785041371,-0.295905434094,-0.0047948081185,-0.237736071745,-0.0541471609276,-0.0706617306008,-0.756371045754,0.573801017205,0.818964954292,0.00543536550587,0.0,0.818957947829,-0.573718934536,-0.0116280154855,0.0,-0.00640468837384,0.0111237170601,-0.999917618049,0.0,0.356683730325,-0.139714086114,0.30503904401,1.0,-0.18998,-0.249688,3.019
-0.249120174211,-0.485254231446,-0.135175952199,-2.61387546429,-0.0642816149337,2.12136756403,-0.508864744749,-0.793284804764,-0.275976193232,-0.012857100929,-0.21928416991,-0.0485669546626,-0.0743610033377,-0.755451927792,0.573800873261,0.818964842104,0.0054673708051,0.0,0.818957459731,-0.573717312833,-0.0117418485802,0.0,-0.00647956063358,0.0112152430032,-0.999916113291,0.0,0.35343927642,-0.143924303052,0.305004788479,1.0,-0.18998,-0.249688,3.036
-0.262521659456,-0.489784130194,-0.135287983452,-2.61751910496,-0.0650545957198,2.12025637147,-0.521716348745,-0.781672815683,-0.259100270128,-0.0013772605351,-0.207096282255,-0.038875750485,-0.0575599487973,-0.754664272782,0.573796431259,0.818968012457,0.00545865804036,0.0,0.818959731492,-0.573711550162,-0.0118643291132,0.0,-0.00658493764731,0.0112783479706,-0.999914715095,0.0,0.350391078923,-0.147915095412,0.304962563631,1.0,-0.18998,-0.249688,3.052
-0.275145436899,-0.49389124804,-0.135441815603,-2.62073610426,-0.0657281499449,2.11930159364,-0.533894106824,-0.802411117518,-0.253607155296,-0.0137297805689,-0.194980314164,-0.0407903145849,-0.0603251202657,-0.761912714593,0.573811280537,0.818956954791,0.0055558464149,0.0,0.818949764789,-0.57372574354,-0.0118659535054,0.0,-0.00653029876158,0.0113589957863,-0.999914160522,0.0,0.347184540655,-0.152148222741,0.304958731322,1.0,-0.188464571429,-0.247696293878,3.069
-0.290174883591,-0.498552012362,-0.135491679745,-2.62433084589,-0.0664705290712,2.11812024561,-0.548297898763,-0.785247360002,-0.238631759278,0.00458058159887,-0.189881465371,-0.0243666134571,-0.0704739329668,-0.747450579699,0.573841217063,0.818935595446,0.00561204163589,0.0,0.818928947063,-0.573755136283,-0.0118815046457,0.0,-0.00651037471307,0.0114141801925,-0.999913662029,0.0,0.343613152627,-0.156810830426,0.304969842957,1.0,-0.185326857143,-0.243572440816,3.088
-0.30037444005,-0.501494454088,-0.135522767961,-2.62657450738,-0.0669661616232,2.11736832453,-0.5581248007,-0.789583672509,-0.221511745878,-0.00650009906026,-0.169827193362,-0.0382526668217,-0.0538896776078,-0.754365178772,0.573830568048,0.818942883679,0.00563731729382,0.0,0.818936645637,-0.573744539094,-0.0118625964344,0.0,-0.00648053368981,0.0114239461118,-0.999913744349,0.0,0.34121909594,-0.159966797004,0.304984627487,1.0,-0.18318,-0.240750857143,3.101
-0.316081343566,-0.505666495551,-0.135517318215,-2.62973986052,-0.0676150337593,2.11635613039,-0.573180702048,-0.769686097263,-0.20044598063,-0.000595480469974,-0.155344693981,-0.0227566979308,-0.0487675287371,-0.758484521723,0.57390376722,0.818891004898,0.00572144814292,0.0,0.818886365278,-0.573818318754,-0.0117645537753,0.0,-0.00635093778429,0.0114371578059,-0.999914424844,0.0,0.337596763919,-0.164792974205,0.305014250074,1.0,-0.179877142857,-0.236409959184,3.121
-0.329254706765,-0.508942000634,-0.135517849074,-2.63219872441,-0.0681250943818,2.11554744624,-0.585842869672,-0.781594092881,-0.189336332647,-0.00314864645822,-0.141951342374,-0.0251838469507,-0.0469204984125,-0.749375022934,0.573965217292,0.818847395477,0.00579820322911,0.0,0.818844230522,-0.573880358981,-0.0116707590519,0.0,-0.00622921563405,0.0114466554003,-0.999915081871,0.0,0.334568838164,-0.16881685276,0.305044447183,1.0,-0.177069714286,-0.232720195918,3.138
-0.341473291641,-0.51179820881,-0.135435198067,-2.63440700087,-0.0685849196924,2.11477253761,-0.59770740084,-0.756882508237,-0.173489218154,0.0116747179259,-0.128998953289,-0.0142452677939,-0.0445895086398,-0.736474170068,0.57387439985,0.818911046093,0.00579816215032,0.0,0.818907674347,-0.57378918087,-0.0117022952009,0.0,-0.00625633654777,0.0114640278354,-0.999914713523,0.0,0.331743265554,-0.172488111957,0.305035074447,1.0,-0.174427428571,-0.229247477551,3.154
-0.355924944171,-0.514795680517,-0.135406854982,-2.63679074179,-0.0690312453668,2.11389259026,-0.611661420805,-0.770580627897,-0.157624377329,-0.0032564028328,-0.126326265302,-0.025998296784,-0.0498867279144,-0.728309496038,0.573935929133,0.818867528903,0.00585373889266,0.0,0.818863734277,-0.573848401965,-0.0118719480213,0.0,-0.00636251652853,0.0116073754853,-0.999912389771,0.0,0.328409462417,-0.176822791251,0.304985341111,1.0,-0.171289714286,-0.22512362449,3.173
-0.366425161786,-0.516775369702,-0.135302991831,-2.63835599917,-0.069365843302,2.1133431441,-0.621804671027,-0.739482628082,-0.136168633485,0.0121262566066,-0.105432152598,-0.0138965331134,-0.0387820743384,-0.714131317402,0.573922444369,0.818877104165,0.00583635369374,0.0,0.818872782745,-0.573834440325,-0.0119225701057,0.0,-0.00641414241912,0.0116220855297,-0.999911889071,0.0,0.326024692691,-0.179950842118,0.304959976223,1.0,-0.168977714286,-0.222084995918,3.187
-0.379749145151,-0.519095990027,-0.135211592212,-2.64014379767,-0.0697266318388,2.11270480874,-0.634713733233,-0.740549883885,-0.127060445319,0.00294309738237,-0.0933898889081,-0.0216827061506,-0.0327761952263,-0.714348126016,0.573941100886,0.818863740181,0.00587661746857,0.0,0.818859822313,-0.573852716647,-0.0119330591023,0.0,-0.00639935971679,0.0116612235289,-0.999911528117,0.0,0.323017193731,-0.18392093952,0.304949875528,1.0,-0.166005142857,-0.218178187755,3.205
-0.392889931624,-0.521208652673,-0.135084335248,-2.64171245778,-0.0700470689812,2.11206348487,-0.647521522334,-0.717576717204,-0.113716379578,0.0169092223206,-0.086430406031,-0.00606800106871,-0.0242050039245,-0.715146152677,0.573896481254,0.818894777742,0.00590920414852,0.0,0.818891227397,-0.573807874131,-0.0119343277559,0.0,-0.00638233368457,0.0116882891791,-0.999911320924,0.0,0.32006102237,-0.187810278996,0.304962034467,1.0,-0.163032571429,-0.214271379592,3.223
-0.402928392329,-0.522696819465,-0.134977887576,-2.64280379852,-0.0702825662416,2.1116274216,-0.657386448641,-0.722022713235,-0.105361581195,0.0054460922006,-0.0711293007669,-0.0160439296162,-0.0330883309888,-0.694547456952,0.573799716989,0.818962439929,0.0059290531307,0.0,0.818959336916,-0.573711398703,-0.0118988393653,0.0,-0.00634325928169,0.0116834290229,-0.999911626369,0.0,0.317810656878,-0.19077222053,0.304977761246,1.0,-0.160720571429,-0.21123275102,3.237
-0.415899866659,-0.524415856458,-0.13489636668,-2.64404075513,-0.0705663935074,2.11109098,-0.669872327475,-0.708570165187,-0.0854682502087,0.00731182040865,-0.0592565945049,-0.0136341256852,-0.0315670694876,-0.690259745819,0.573948690541,0.818857726643,0.00597252407786,0.0,0.818855366817,-0.573860502366,-0.0118641881664,0.0,-0.00628780754251,0.011700293924,-0.999911779408,0.0,0.31474661267,-0.194815667713,0.305001615454,1.0,-0.157582857143,-0.207108897959,3.256
-0.427035251894,-0.525663107984,-0.134763399795,-2.6449709913,-0.0707495751025,2.11073512022,-0.680834226537,-0.70203456262,-0.0761758841839,0.008326564025,-0.0535130137568,-0.0139935744519,-0.0249989159183,-0.679578353383,0.573863278742,0.81891730824,0.00601053065849,0.0,0.818915645794,-0.573775342133,-0.0118223828528,0.0,-0.00623297966198,0.0117067743739,-0.999912046831,0.0,0.312434779421,-0.197878482423,0.305008929555,1.0,-0.155105714286,-0.20385322449,3.271
-0.43962739683,-0.52688228677,-0.134698583765,-2.6458920826,-0.0709531660064,2.1103382374,-0.692987397957,-0.691173163059,-0.0572137256391,0.0109330130279,-0.049162804573,-0.0174648247446,-0.025166858203,-0.654780879293,0.574037099696,0.818795033725,0.00607024050624,0.0,0.818793995558,-0.573948611643,-0.011837691149,0.0,-0.00620875615047,0.0117657769,-0.999911505005,0.0,0.309620885987,-0.201586374517,0.305004000391,1.0,-0.152133142857,-0.199946416327,3.289
-0.450357919448,-0.527785478244,-0.134528435783,-2.64660928764,-0.0710766603132,2.11005721127,-0.703648000939,-0.673296935268,-0.0515191266751,0.0108364576488,-0.0425911893199,-0.0134830087459,-0.0106724903069,-0.665650414452,0.573880504661,0.818904599448,0.00609674295546,0.0,0.818903761728,-0.573791672319,-0.0118529619691,0.0,-0.00620830426653,0.0117950566284,-0.999911162853,0.0,0.307236916192,-0.204698870162,0.304988471432,1.0,-0.149490857143,-0.196473697959,3.305
-0.461197867416,-0.528530955605,-0.134432971128,-2.64720690783,-0.0712068014618,2.10977190493,-0.714116919666,-0.679771957715,-0.0490346261911,0.00801008744954,-0.0374872219739,-0.0074701864468,-0.0153081351594,-0.653989036367,0.574027311515,0.818801425268,0.00613339339302,0.0,0.81880064282,-0.573937501438,-0.0119163191034,0.0,-0.0062370346687,0.0118625474617,-0.99991018565,0.0,0.304813203999,-0.207859414531,0.304967163829,1.0,-0.146848571429,-0.193000979592,3.321
-0.47296422735,-0.529136795368,-0.134224649808,-2.64768267013,-0.0713148019585,2.10953274093,-0.725746936022,-0.644033970903,-0.031900195327,0.00787581031547,-0.0245818170351,-0.0036978604052,-0.00331073529799,-0.648091720257,0.573918708529,0.818877544145,0.00613437824908,0.0,0.818876631955,-0.573828646334,-0.0119370509621,0.0,-0.00625502143798,0.011874424491,-0.999909932319,0.0,0.302220315673,-0.21127065431,0.30495693818,1.0,-0.143876,-0.189094171429,3.339
-0.482690202848,-0.529510775415,-0.134099474996,-2.6479815729,-0.0713739605163,2.10935796502,-0.735295002954,-0.653593923778,-0.0259435084615,0.0104495549916,-0.0148326127947,-0.00182773879104,-0.00788570867183,-0.634132908098,0.573933822903,0.818866679544,0.00617049122383,0.0,0.818865999103,-0.57384315513,-0.0119689483352,0.0,-0.00626019935651,0.0119224192786,-0.999909328801,0.0,0.300068040272,-0.214095802845,0.304945797153,1.0,-0.141398857143,-0.185838497959,3.354
-0.49481846762,-0.529830503175,-0.133923890918,-2.64821494873,-0.0714441977452,2.10917432037,-0.747172405654,-0.618724925838,-0.0207754368926,0.0163100264418,-0.0120883041567,-0.000807259659171,-0.00322104772676,-0.622094222769,0.573972046558,0.818839708046,0.00619428749161,0.0,0.818839241994,-0.573881088909,-0.0119807539287,0.0,-0.00625565303913,0.0119489735808,-0.999909040281,0.0,0.297390084903,-0.217615832618,0.304945116776,1.0,-0.138261142857,-0.181714644898,3.373
-0.50466126588,-0.529975825956,-0.13377125764,-2.64834756548,-0.0714651602702,2.10907411082,-0.756980464829,-0.619250285071,-0.00703465055625,0.00545108378697,-0.004382882076,-0.000457866543074,-0.00216489405538,-0.606752969825,0.573876499763,0.818906397438,0.00623074281599,0.0,0.818906245415,-0.573785100432,-0.0119986100832,0.0,-0.00625075151139,0.011988345375,-0.999908599663,0.0,0.295211552696,-0.220458347179,0.304933158052,1.0,-0.135618857143,-0.178241926531,3.389
-0.514632113531,-0.530042669911,-0.133670282783,-2.64839339599,-0.0714841391504,2.10899679745,-0.766632389776,-0.613557548674,-0.00160108695958,0.00545343462172,0.00102374817278,-0.00441881120834,-0.00658879899877,-0.586010994529,0.574055720624,0.818780357256,0.00628514858103,0.0,0.818780937913,-0.573964096658,-0.011989093313,0.0,-0.00620910402281,0.0120287990432,-0.999908373313,0.0,0.292992335474,-0.223350081015,0.304932655026,1.0,-0.132976571429,-0.174769208163,3.405
-0.525887153425,-0.529968691857,-0.133450571772,-2.64834184098,-0.0714956177048,2.10896088251,-0.777858218958,-0.584522755156,0.00105623877929,0.00744399815759,0.00822541924581,-4.97043759545e-05,-0.000674998762648,-0.591645743846,0.573925128194,0.818871892312,0.00628634310291,0.0,0.81887266816,-0.573833875758,-0.0119575614056,0.0,-0.00618451337958,0.0120106907552,-0.999908743387,0.0,0.290640371909,-0.226420741523,0.304935012305,1.0,-0.130004,-0.1708624,3.423
-0.53592251707,-0.529820893388,-0.133311368699,-2.64820466857,-0.0715065330971,2.10895666456,-0.787658132159,-0.586454748265,0.00583594713578,0.00494952765333,0.0112201486578,0.00220331167332,-0.000421632999335,-0.576512405226,0.574020541635,0.81880481635,0.00631168796956,0.0,0.818806177373,-0.573929660077,-0.011913692982,0.0,-0.00613264233566,0.0120069847692,-0.999909107377,0.0,0.288273386188,-0.229490181861,0.304943158417,1.0,-0.127031428571,-0.166955591837,3.441
-0.54459489033,-0.529608053019,-0.133169725361,-2.64802587198,-0.0715072579706,2.10895605491,-0.796180160783,-0.56705397048,0.0171027042875,0.013524700337,0.0159919806029,-0.000316601887022,0.000700138645727,-0.56180425664,0.574053559076,0.818781618872,0.00631813338935,0.0,0.818783209117,-0.573962928742,-0.0118894826573,0.0,-0.00610863312352,0.0119986123777,-0.999909354843,0.0,0.286339383063,-0.231986988288,0.304950277478,1.0,-0.124554285714,-0.163699918367,3.456
-0.554493439303,-0.529161608407,-0.132943653303,-2.64772155251,-0.0715018112092,2.10896590288,-0.806172528753,-0.550304264447,0.0273231719279,0.0144108254973,0.0159958695428,-0.000692227411277,-0.000974558731995,-0.546650385729,0.573837219157,0.818933515792,0.00628406909371,0.0,0.818934289203,-0.57374604801,-0.011951956404,0.0,-0.00618251690316,0.0120049482153,-0.999908824695,0.0,0.284140550542,-0.234823171515,0.304932167918,1.0,-0.121581714286,-0.159793110204,3.474
-0.563387171611,-0.528719829825,-0.132785544968,-2.64740653328,-0.0715009025018,2.10899225969,-0.814901730283,-0.552193124468,0.0255804009089,0.00461323116713,0.0226380854273,-0.00106681431635,0.000968800542769,-0.547989462838,0.573878870163,0.818904465181,0.00626627383825,0.0,0.818904767868,-0.573787303013,-0.0119941220953,0.0,-0.00622665165651,0.0120148860833,-0.999908431468,0.0,0.282144074413,-0.237376052596,0.304920252635,1.0,-0.118939428571,-0.156320391837,3.49
-0.572022506291,-0.528131773014,-0.132621751886,-2.64694332642,-0.0714855061185,2.10911828838,-0.823387526858,-0.524069547494,0.0424947385543,0.0175454254626,0.0301184409756,-0.0017273082057,0.0167652600726,-0.530627070997,0.573918447248,0.818876962092,0.0062356847952,0.0,0.818877253457,-0.573827747292,-0.0119376342152,0.0,-0.00619736400032,0.0119577191543,-0.999909298703,0.0,0.280238686749,-0.239882890919,0.304930846096,1.0,-0.116297142857,-0.152847673469,3.506
-0.581874609064,-0.527298615193,-0.132425520871,-2.64635414908,-0.0714533306911,2.10925536276,-0.833255540565,-0.526695845013,0.0444027187613,0.00668148974381,0.0352603415076,0.00192307527725,0.0120420924616,-0.51258000312,0.573814194368,0.818950284516,0.00620070429446,0.0,0.818949872597,-0.573723187069,-0.0119815564275,0.0,-0.00625493164215,0.0119534832823,-0.999908990892,0.0,0.278050670582,-0.242731957843,0.304910731725,1.0,-0.113159428571,-0.148723820408,3.525
-0.589638346909,-0.526608808266,-0.132274901714,-2.64581431928,-0.071408703209,2.10937000098,-0.840823103864,-0.512019222159,0.0551476686384,0.0111531291485,0.0376943908299,-3.9895192157e-05,0.0129471988411,-0.49197047649,0.573917788294,0.818877829604,0.00618218119147,0.0,0.818877283119,-0.573827040322,-0.0119695400382,0.0,-0.0062542086449,0.0119322094155,-0.999909249509,0.0,0.27632548801,-0.244980775609,0.304917373982,1.0,-0.110682285714,-0.145468146939,3.54
-0.59857242933,-0.525631493317,-0.132073288052,-2.64507279847,-0.0713483676081,2.10953749866,-0.849758732936,-0.478029860178,0.0570603230379,0.0166612787553,0.03750254767,0.0055781303358,0.0100287555331,-0.494715979575,0.573841428212,0.818931654638,0.00614061897902,0.0,0.818930517173,-0.573750775468,-0.011983429966,0.0,-0.00629054634177,0.0119055580617,-0.999909339247,0.0,0.274354880794,-0.247577637993,0.304916070991,1.0,-0.107709714286,-0.141561338776,3.558
-0.605714752685,-0.524764707648,-0.131895838118,-2.64443773136,-0.0712429273119,2.10967679175,-0.857014692561,-0.477303658859,0.0602397166346,0.00931603380839,0.0414693182356,0.00701014635102,0.0123415464657,-0.474925865205,0.573703529864,0.81902823623,0.00614450813351,0.0,0.819026836812,-0.57361229925,-0.0120298642057,0.0,-0.00632835486472,0.0119343223917,-0.999908757774,0.0,0.27277930799,-0.24964254827,0.304903610537,1.0,-0.105232571429,-0.138305665306,3.573
-0.614336398682,-0.523749627757,-0.131703032138,-2.64361715892,-0.0711303204103,2.10985570268,-0.865432054688,-0.476689656205,0.0571811442309,0.0102915456319,0.048053194511,0.00986447319278,0.0124161954226,-0.465150787561,0.57382789727,0.818941158157,0.00613764552819,0.0,0.818939915704,-0.573737134504,-0.0119942427418,0.0,-0.00630130520393,0.0119092232928,-0.999909227857,0.0,0.270866341187,-0.252143648588,0.304924607364,1.0,-0.10226,-0.134398857143,3.591
