nelsonifechukwu/NELSON_IML_WORK/CNN-GradCAM/train2dof/data_sample_2022-02-21-17-17-34/robot_state.csv
position_joint1,position_joint2,position_joint3,position_joint4,position_joint5,position_joint6,position_joint7,velocity_joint1,velocity_joint2,velocity_joint3,velocity_joint4,velocity_joint5,velocity_joint6,velocity_joint7,ee_T_00,ee_T_10,ee_T_20,ee_T_30,ee_T_01,ee_T_11,ee_T_21,ee_T_31,ee_T_02,ee_T_12,ee_T_22,ee_T_32,ee_T_03,ee_T_13,ee_T_23,ee_T_33,v_x,v_y,time
0.46506944982,0.547844245564,-0.123991775406,-1.35586655828,0.0794660672989,1.89409828116,0.159164485795,-5.52979030624e-05,-0.000765120636315,0.00126466845376,-0.000265515428309,6.83998128107e-05,-0.00020749779477,7.12213167922e-05,0.573808758806,0.818975500811,0.0018396436896,0.0,0.818931202607,-0.573750925135,-0.0119293002666,0.0,-0.00871447517202,0.0083518393973,-0.999927149697,0.0,0.661671003605,0.260875300508,0.303153585348,1.0,0.0,0.0,0.0
0.465068434987,0.54784402973,-0.123999494121,-1.35586655828,0.0794653157943,1.89409796721,0.159168389383,0.000727846243542,0.000339987990078,-0.00111271048712,-8.26453655327e-06,-0.000136200797564,-0.000425715127272,0.00147167108254,0.573817977909,0.818969046906,0.00183720979572,0.0,0.818924764123,-0.573760198576,-0.0119252730235,0.0,-0.00871247936719,0.0083476333688,-0.99992720221,0.0,0.661673026356,0.260870021659,0.303153965222,1.0,-0.00016,-0.000210285714286,0.009
0.465066033942,0.547845617106,-0.123999968621,-1.35586750707,0.0794667399459,1.89410109481,0.159166824013,0.000257690330752,0.00244336315078,-0.000725033586444,0.000352946550121,0.000210053435752,-2.54492197176e-05,0.00200980889266,0.573819447685,0.818968014752,0.00183825274871,0.0,0.818923737904,-0.573761656431,-0.0119256030246,0.0,-0.00871213622736,0.00834869249128,-0.999927196358,0.0,0.661674045891,0.260868468158,0.303152679114,1.0,-0.00048,-0.000630857142857,0.025
0.465063189256,0.547826052864,-0.124000163969,-1.35587871929,0.0794667399459,1.89410598136,0.159161041685,-0.000281861110868,-0.00208160316389,0.00200937410926,0.000369630342848,0.000352919808548,0.000197185818782,-0.00175009999556,0.573813925513,0.818971882766,0.0018387569527,0.0,0.818927591113,-0.573756112316,-0.0119277406011,0.0,-0.00871365390137,0.00835027322735,-0.999927169934,0.0,0.661670001871,0.260869414024,0.303155827742,1.0,-0.00078,-0.00102514285714,0.04
0.465065299806,0.547760984768,-0.123997729446,-1.35595009118,0.0794628290685,1.89411588193,0.159161164087,0.000314717613259,-0.00197089739754,-1.07638856222e-05,-0.0025697438346,-0.000273709890746,0.000157191175318,-0.000101792205529,0.573817276627,0.818969497721,0.00185519500634,0.0,0.818925399314,-0.573759373553,-0.011921347204,0.0,-0.00869895168896,0.00836010225559,-0.999927215816,0.0,0.661660201446,0.2608609621,0.303174530816,1.0,-0.00116,-0.00152457142857,0.059
0.465064147281,0.547630147814,-0.123990647615,-1.35611446013,0.0794639932631,1.89414461596,0.159156601601,-0.000916775560673,-0.0113029889187,0.00147816846182,-0.0125205619623,0.000339722696531,0.000180150349589,-0.00161923691088,0.57381878429,0.818968428747,0.00186075616259,0.0,0.818924221305,-0.573760683081,-0.0119392299545,0.0,-0.0087103913714,0.00837493395276,-0.999926992117,0.0,0.661630315186,0.260848645434,0.303191247141,1.0,-0.00148,-0.00194514285714,0.075
0.465049550152,0.547487372921,-0.123989937435,-1.35632264929,0.0794604064764,1.89420826153,0.159152093745,-0.00260365205821,-0.0142395768413,-0.00109964966403,-0.0145066473609,-0.000201211657407,0.00561421900271,0.000596605382987,0.573844799615,0.818950165954,0.00187577684054,0.0,0.818906087056,-0.573786567007,-0.011939137625,0.0,-0.00870143071501,0.00838745859522,-0.999926965154,0.0,0.661604830561,0.260813458382,0.303207851872,1.0,-0.00184,-0.00241828571429,0.093
0.465029979036,0.547287157066,-0.123997822591,-1.35654085039,0.0794576426513,1.89435319871,0.159145512652,-0.000443102933949,-0.0127231695643,-0.000273987029645,-0.0108539282484,0.000246607842716,0.00100275374026,-0.000425904112661,0.573865134669,0.818935682292,0.00197544440316,0.0,0.818892899167,-0.573806481985,-0.0118864555772,0.0,-0.00860088539855,0.00843906230312,-0.999927400864,0.0,0.661594136704,0.260788939573,0.303249602719,1.0,-0.00218,-0.00286514285714,0.11
0.465010156645,0.547105879951,-0.12399565894,-1.35675905425,0.0794509804969,1.89445216817,0.159127254076,-0.000712511385225,-0.0165828450489,0.000198843213873,-0.0159166160356,-4.08882370744e-06,0.0113312160675,-0.00251416984367,0.573875407704,0.818928343524,0.00203261084034,0.0,0.818886260204,-0.573816477043,-0.0118612993887,0.0,-0.00854737323229,0.00847154821566,-0.999927585019,0.0,0.661573671395,0.260759209951,0.303282656444,1.0,-0.00248,-0.00325942857143,0.125
0.464975354123,0.546872428031,-0.124000176478,-1.35711594928,0.0794441365019,1.89459888961,0.159104894253,-0.00219842146969,-0.0112336531773,-0.00122463796778,-0.0203530439848,-0.00178443186508,0.0100142521937,0.00031758217036,0.573907011886,0.818906130868,0.00205850366194,0.0,0.818864294188,-0.5738478831,-0.0118584006669,0.0,-0.00852981326499,0.00849141792681,-0.99992756643,0.0,0.661537723884,0.260703129997,0.303291012618,1.0,-0.00284,-0.00373257142857,0.143
0.464937447394,0.546583170584,-0.123998053919,-1.35753020722,0.0794330115295,1.89475629445,0.158986963836,-0.00239229977664,-0.018553120072,-0.000711203538331,-0.0263835721529,-0.000126368688829,0.0102418799121,-0.00764566349569,0.573860214979,0.818938831691,0.00209535520664,0.0,0.818897336962,-0.573800806528,-0.0118546549739,0.0,-0.00850608455539,0.00851895966691,-0.9999275343,0.0,0.661491719575,0.260642797984,0.30331227356,1.0,-0.0032,-0.00420571428571,0.161
0.464904767862,0.54635875723,-0.123998168053,-1.35790317917,0.0794218878425,1.89488664353,0.158922960051,-0.00073157561461,-0.0200091127905,-0.000312195397117,-0.0282437831544,-0.000167347763774,0.00825658705392,-0.000831947616434,0.573858150945,0.818940290798,0.00209035980891,0.0,0.818898600448,-0.573798632107,-0.0118726104127,0.0,-0.00852367753212,0.00852515111582,-0.99992733172,0.0,0.661442913644,0.260584633476,0.3033091505,1.0,-0.0035,-0.0046,0.176
0.464853642894,0.546038198217,-0.123996347977,-1.35843868847,0.0793889933199,1.89507110692,0.158903635612,-0.00112966767409,-0.0194262890788,0.00154811844269,-0.0313581051184,-0.00432404891274,0.00860427641487,-0.00347359804906,0.573898459793,0.818912122372,0.00205926679883,0.0,0.818870016273,-0.573839050988,-0.0118906228435,0.0,-0.00855585221017,0.00851044582537,-0.999927182201,0.0,0.661384241247,0.26050190421,0.303292975924,1.0,-0.00384,-0.00504685714286,0.193
0.46478738711,0.545660484576,-0.124000358035,-1.35910505576,0.0792876789633,1.89529283602,0.158802374732,-0.00140275873008,-0.015821030488,-0.00130736417116,-0.035322646461,-0.00753410626683,0.0175856428361,-0.00295814636647,0.573882829661,0.818923302497,0.00196706618256,0.0,0.818880528367,-0.573824324969,-0.0118773413466,0.0,-0.00859804671511,0.00842715670462,-0.999927525685,0.0,0.661309213556,0.260380256844,0.303262440518,1.0,-0.00422,-0.00554628571429,0.212
0.464732614933,0.545336847505,-0.124001265026,-1.35967189558,0.0792787291351,1.89547225899,0.15873280674,-0.00843793941945,-0.0258115185769,-0.000168971158484,-0.039687585577,-0.000164630271088,0.0203341204747,-0.00619468005688,0.573900481334,0.818911029212,0.00192630776286,0.0,0.818867450939,-0.573841876556,-0.0119308593514,0.0,-0.00866508307904,0.00842467885314,-0.999926967894,0.0,0.66123824159,0.260291197063,0.303237359845,1.0,-0.0045,-0.00591428571429,0.226
0.464655224289,0.544840790998,-0.124001345435,-1.36050567214,0.0792533181694,1.89575274567,0.158652282816,-0.00811718724597,-0.023118140286,-0.000367566362556,-0.037775948731,0.00061642142961,0.0187907700412,-0.00125108450295,0.573937614283,0.818885087856,0.00189068755438,0.0,0.818840771013,-0.573878889881,-0.0119815848755,0.0,-0.00872668352433,0.00842501650124,-0.999926429339,0.0,0.661137154601,0.260162439292,0.303215965139,1.0,-0.0049,-0.00644,0.246
0.464598728645,0.544442077793,-0.124002027221,-1.36115865089,0.0792289819167,1.89598912581,0.158545431495,-0.00736497912781,-0.0277495240473,0.00132729739106,-0.0438527768787,-0.00198735170867,0.0141126250998,-0.00480319127604,0.573926795368,0.8188926876,0.00188325676339,0.0,0.818848121136,-0.573867956862,-0.0120028954705,0.0,-0.00874851105574,0.00843104691863,-0.999926187777,0.0,0.661060830713,0.260064521837,0.303207869277,1.0,-0.0052,-0.00683428571429,0.261
0.464534959613,0.543969019773,-0.124004771166,-1.36192327225,0.0791917162396,1.89626326616,0.15845506803,0.000110422309464,-0.0281096548409,-0.00184203907722,-0.0535960601454,-0.000704529261388,0.0107679672454,-0.00751767820496,0.573939596252,0.818883741412,0.00187211290386,0.0,0.818838941426,-0.57388071941,-0.0120189349007,0.0,-0.00876790968858,0.00843126392065,-0.999926016037,0.0,0.660971313214,0.25994879998,0.303202530728,1.0,-0.00552,-0.00725485714286,0.277
0.46447436175,0.543534799182,-0.124007756894,-1.36260607967,0.0791503166186,1.89649086916,0.158393774935,-0.00241985472231,-0.0345790920223,-0.000466902148514,-0.0487277858659,-0.00322008591615,0.0149616780124,-0.00568710411392,0.573967938424,0.818863917969,0.00185375598704,0.0,0.818818856507,-0.573909116705,-0.0120313296094,0.0,-0.00878830344328,0.00842364999132,-0.999925901176,0.0,0.660889691938,0.259840414688,0.303204561888,1.0,-0.0058,-0.00762285714286,0.291
0.464375471463,0.542852817742,-0.124014043279,-1.36370232909,0.0790828483176,1.89688244829,0.158233336419,-0.00448086378069,-0.0319136474852,-0.000914868024833,-0.0547094708188,-0.00494293835462,0.0225972571534,-0.00598624174631,0.57396487983,0.818866110857,0.00183196964405,0.0,0.818820775791,-0.573906163879,-0.0120415570312,0.0,-0.00880921390872,0.00841164758984,-0.999925818216,0.0,0.660764108251,0.259665902206,0.303199333899,1.0,-0.00622,-0.00817485714286,0.312
0.46430687787,0.54228222148,-0.124022517119,-1.36456776729,0.0790363472596,1.89719742552,0.158111545124,-0.00745075436188,-0.0347828029695,-0.00126331413146,-0.0535347802722,-0.00588845378938,0.0221854957294,-0.00735813444552,0.573962890526,0.818867463173,0.00185066395712,0.0,0.818822347105,-0.573904069245,-0.012034537232,0.0,-0.00879275668565,0.00842290494791,-0.999925868303,0.0,0.660664807346,0.259534286209,0.303218535543,1.0,-0.00654,-0.00859542857143,0.328
0.464217316478,0.541658048043,-0.124014816742,-1.36552000785,0.0789802738327,1.89755537044,0.157993219865,-0.00334360244559,-0.0374624472461,-0.000480361553092,-0.0565036524634,-0.00173409642822,0.0178824696239,-0.00372694412547,0.573971858653,0.818861113721,0.00187851308473,0.0,0.818816309096,-0.573912865283,-0.0120258854851,0.0,-0.0087695959968,0.00844083950681,-0.999925920463,0.0,0.660557596655,0.259389966847,0.30323741497,1.0,-0.00688,-0.00904228571429,0.345
0.464130227339,0.540999683111,-0.124018001649,-1.36653969617,0.0789220132274,1.89793844916,0.157861353724,-0.00529502384394,-0.0444327982724,0.000961752395178,-0.0610731029218,-0.00066273532718,0.0191445909947,-0.0132413179654,0.573978453476,0.818856447111,0.00189759635431,0.0,0.818811875797,-0.573919361639,-0.0120177073927,0.0,-0.0087518783905,0.00845184225814,-0.999925982754,0.0,0.660442537007,0.25923477231,0.303250815554,1.0,-0.00722,-0.00948914285714,0.362
0.464051612012,0.540330702118,-0.124021080917,-1.36755456687,0.0788611979276,1.89830849111,0.15772700039,-0.00171095886664,-0.0445398598256,1.86256379309e-05,-0.067685301737,-0.00511527839957,0.0153679295264,-0.0069796418742,0.573974871836,0.818858909912,0.00191808767665,0.0,0.81881460063,-0.573915687151,-0.0120075284007,0.0,-0.00873181912455,0.00846274070377,-0.999926065944,0.0,0.660324010611,0.259084660053,0.303272770612,1.0,-0.00754,-0.00990971428571,0.378
0.463941250049,0.539596899381,-0.124018684874,-1.36870683646,0.0787933374956,1.89875346454,0.157603405616,-0.00583797048197,-0.0393906847622,0.00080764277098,-0.0668469561833,-0.00749215810737,0.0279955422894,-0.0118608817721,0.574008102578,0.818835563044,0.00194055960012,0.0,0.818791535749,-0.573948806805,-0.0119972935933,0.0,-0.0087101964857,0.00847562068869,-0.999926145438,0.0,0.66019754388,0.25890525139,0.30328135592,1.0,-0.00788,-0.0103565714286,0.395
0.463836202851,0.5388312327,-0.124026903986,-1.36986913385,0.0787295574834,1.89919966323,0.157462880087,-0.00437982156489,-0.0455854356182,0.000576102283587,-0.0662110869961,-0.00355911836585,0.02757087209,-0.00219151387827,0.574032066451,0.818818660382,0.00198368273853,0.0,0.818775192885,-0.573972582323,-0.0119751892957,0.0,-0.00866709582143,0.0084984964968,-0.99992632579,0.0,0.660070436551,0.258723181647,0.303308011662,1.0,-0.00822,-0.0108034285714,0.412
0.463734569735,0.538098535689,-0.124037790467,-1.37102483173,0.0786568790698,1.89964064448,0.157304436773,-0.00951269397486,-0.0451636560862,-0.000272100767028,-0.0715251668772,-0.00314045642066,0.0236708372798,-0.00425241266412,0.574037620378,0.818814742511,0.00199367477725,0.0,0.818771491177,-0.573978177874,-0.0119600778153,0.0,-0.00864892873947,0.00849806229293,-0.999926486782,0.0,0.659942924002,0.258540384301,0.303314019694,1.0,-0.00854,-0.011224,0.428
0.463612807836,0.537248658107,-0.124039671999,-1.37236725838,0.0785921997198,1.90013481804,0.157144857295,-0.0104152032652,-0.045268315591,-0.000688594227638,-0.0749995304814,-0.00356099143495,0.0264987770859,-0.00512399750207,0.574064654024,0.818795767226,0.00200286658918,0.0,0.81875247741,-0.574005013933,-0.0119737886763,0.0,-0.00865459864926,0.00851374475163,-0.999926304321,0.0,0.659788274144,0.25833381497,0.303318114572,1.0,-0.0089,-0.0116971428571,0.446
0.463513392604,0.536454799885,-0.124043217916,-1.37360591367,0.0785162380575,1.90060717728,0.156994708935,-0.0036194066714,-0.0446614548148,0.00126107125672,-0.0799252824094,-0.00328746430353,0.023180123989,-0.016184599588,0.574073500458,0.818789513527,0.00202373721663,0.0,0.818746530343,-0.574013805886,-0.0119589549758,0.0,-0.00863037998661,0.00852241105201,-0.99992643982,0.0,0.659646804387,0.258149321188,0.303330029409,1.0,-0.00922,-0.0121177142857,0.462
0.463409077231,0.535636615859,-0.124053607126,-1.37489158845,0.0784328245074,1.90108172496,0.156837631147,-0.00777703252363,-0.0457764149719,-0.00123948225856,-0.0807458737776,-0.00610744034458,0.0352666171861,-0.0153935431532,0.574085868506,0.818780842585,0.00202343738222,0.0,0.818737942671,-0.574026259744,-0.0119491111125,0.0,-0.0086223630797,0.00851664476213,-0.999926558112,0.0,0.659498460615,0.25795132085,0.303336993915,1.0,-0.00954,-0.0125382857143,0.478
0.463289671887,0.534731662881,-0.124049274984,-1.37634187671,0.0783688449134,1.90160265223,0.156652160001,-0.00324340087581,-0.0478318789769,-6.28873937809e-06,-0.0810537998475,-0.0104775556016,0.0304161025646,-0.0181698277914,0.574091103877,0.818777189396,0.00201630245051,0.0,0.818733916141,-0.574031247745,-0.0119853274236,0.0,-0.00865605874632,0.00853164931304,-0.999926139076,0.0,0.659322539627,0.257739809159,0.303330270601,1.0,-0.00988,-0.0129851428571,0.495
0.463157194189,0.533766571224,-0.124054225333,-1.37792044487,0.0782763112517,1.90217150923,0.156468681966,-0.00695388891745,-0.0508949691766,-0.000925496073988,-0.0791064819501,-0.00488157082087,0.0309931830607,-0.0106953758747,0.574114415022,0.818760939128,0.0019773525441,0.0,0.818717109502,-0.574054673588,-0.012011379654,0.0,-0.00869950750892,0.00851496250243,-0.999925904246,0.0,0.659134606028,0.257498513841,0.303309152321,1.0,-0.01024,-0.0134582857143,0.513
0.46303016082,0.532889128282,-0.124055499041,-1.37933770705,0.0781959249459,1.90272619849,0.156289651406,-0.0116033199773,-0.0586822306577,-0.00237420868945,-0.0858367551438,-0.0141769158056,0.0423870604524,-0.00952859707075,0.574128899354,0.818750751824,0.00199002904345,0.0,0.818707067552,-0.574069082507,-0.0120072040996,0.0,-0.00868866052034,0.00852309781256,-0.999925929248,0.0,0.658975789009,0.257281950904,0.303301464543,1.0,-0.01056,-0.0138788571429,0.529
0.462905074537,0.531967874519,-0.124052335226,-1.3807997577,0.0781086575953,1.90325164971,0.156103221269,-0.00758484500355,-0.0628493906746,0.000233078993482,-0.0934919624706,-0.00308199837911,0.0355795838953,-0.0186504474354,0.574132692067,0.81874812101,0.00197816682137,0.0,0.818704211658,-0.574072856441,-0.0120214895876,0.0,-0.00870712777313,0.00852162775536,-0.999925781139,0.0,0.658800350821,0.257061456856,0.303300465711,1.0,-0.01088,-0.0142994285714,0.545
0.462764485301,0.530899700349,-0.124052108773,-1.3825242154,0.0780078137128,1.90386531906,0.155887242782,-0.0055972941583,-0.0636905808251,0.00113440043294,-0.0973319932011,-0.00398634803098,0.0357252411939,-0.010666374877,0.57413751045,0.81874482557,0.00194334702947,0.0,0.818700364008,-0.574077728729,-0.0120508195709,0.0,-0.00875108240422,0.00851001031183,-0.999925496365,0.0,0.658590139383,0.25680363984,0.303285663281,1.0,-0.01124,-0.0147725714286,0.563
0.462633582567,0.52992724839,-0.124051035705,-1.384063475,0.0779091299206,1.90441531253,0.155679446303,-0.00428155460975,-0.0604658847065,0.00649558436289,-0.0943265750658,-0.00527877579257,0.027391560566,-0.018973287343,0.574130772921,0.818749590198,0.00192640538078,0.0,0.818704899669,-0.574071058051,-0.0120604505659,0.0,-0.00876876420913,0.00850159701125,-0.99992541303,0.0,0.658404684632,0.256569488752,0.30328575299,1.0,-0.01156,-0.0151931428571,0.579
0.462492493439,0.528853799713,-0.124051401387,-1.38573735187,0.0778029118262,1.90504753421,0.155448554197,-0.00802591159493,-0.0689214832158,0.000981083321944,-0.10656281891,-0.00854160907356,0.0402095728567,-0.00832303942337,0.574119778322,0.818757244175,0.00194991060253,0.0,0.818712901619,-0.574060002858,-0.0120434522468,0.0,-0.00874146638623,0.00851096496393,-0.999925572351,0.0,0.65820975099,0.256317516082,0.30329984556,1.0,-0.0119,-0.01564,0.596
0.46233661464,0.527682559511,-0.124051484655,-1.38755716004,0.0776851920836,1.90575728936,0.155202446864,-0.00931866841954,-0.0658975741028,0.000339443476684,-0.105489980872,-0.00562172177056,0.0421525095783,-0.0145611514403,0.574112964944,0.818761910481,0.0019960783876,0.0,0.818718267283,-0.57405308723,-0.0120082787773,0.0,-0.00868623354948,0.00852849857162,-0.999925904284,0.0,0.65800254905,0.256043358372,0.303319762997,1.0,-0.01226,-0.0161131428571,0.614
0.462213628186,0.52664874091,-0.124061884738,-1.38912915934,0.0775977207272,1.90635004263,0.154982636104,-0.00755885016121,-0.0674386294852,-0.00115869219084,-0.107319815569,-0.00824989018317,0.0317738788941,-0.0158146325267,0.574102443195,0.81876916895,0.00204440608284,0.0,0.818726133352,-0.574042340186,-0.0119857057222,0.0,-0.00864011701038,0.00855499633593,-0.999926077476,0.0,0.657818204038,0.255809432268,0.303350824903,1.0,-0.01256,-0.0165074285714,0.629
0.462055540375,0.525473284611,-0.124063066387,-1.39096266526,0.0774778818196,1.9070187631,0.154729682476,-0.00972126342778,-0.070865441433,0.000191620407635,-0.107913527907,-0.0081201194881,0.0377792884994,-0.0158725991313,0.574092004055,0.818776478077,0.00204859193699,0.0,0.818733539554,-0.574031926891,-0.0119785232971,0.0,-0.00863194213238,0.00855419006759,-0.999926154977,0.0,0.65759954685,0.255528580172,0.303363077772,1.0,-0.0129,-0.0169542857143,0.646
0.461883221428,0.524229344444,-0.12407655362,-1.39294284427,0.0773468769596,1.90772343819,0.154467471215,-0.00960562937127,-0.0709009663936,0.000255986876376,-0.111088902731,-0.00115811776317,0.0365486798063,-0.012600998501,0.57409887185,0.81877175183,0.00201262175637,0.0,0.818728434451,-0.574039034075,-0.0119868628654,0.0,-0.00865934797756,0.00852959932901,-0.999926128085,0.0,0.657361822172,0.255215387468,0.303356888749,1.0,-0.01326,-0.0174274285714,0.664
0.461749074346,0.523173251821,-0.124080787629,-1.39463914098,0.0772537461388,1.90835731866,0.154242997672,-0.0106551006428,-0.0730856581589,-0.00330376503053,-0.112630242405,-0.0121179041298,0.047076168506,-0.0141588336983,0.574093932346,0.818775221191,0.0020102012403,0.0,0.818731781026,-0.574034015596,-0.0119986072928,0.0,-0.00867040538222,0.00853430759699,-0.999925992094,0.0,0.657157279203,0.254965210616,0.303347057411,1.0,-0.01356,-0.0178217142857,0.679
0.46156904361,0.521791174768,-0.124078456616,-1.3968255481,0.0771164499784,1.90921417927,0.153939918271,-0.00842851457564,-0.0730463282623,6.93183787763e-05,-0.116682606718,-0.00633559050115,0.0442227411531,-0.0083961960707,0.574071796371,0.81879064276,0.00205008341236,0.0,0.818747783567,-0.574011774854,-0.0119706363414,0.0,-0.00862483906098,0.00855067058512,-0.999926246372,0.0,0.656902410007,0.254642828165,0.303351821279,1.0,-0.01394,-0.0183211428571,0.698
0.461365980553,0.520285269736,-0.124091427312,-1.39921033825,0.0769767939003,1.91009356439,0.153609160709,-0.0130272641603,-0.078625624407,-0.000368424566722,-0.123474993081,-0.00241412019297,0.0458551749433,-0.0203192458669,0.574066016349,0.818794696478,0.00204958397777,0.0,0.818751799,-0.574005966145,-0.0119745298729,0.0,-0.00862837424429,0.00855243589165,-0.999926200776,0.0,0.656617067846,0.254275712173,0.303351145453,1.0,-0.01434,-0.0188468571429,0.718
0.46124734225,0.519355794638,-0.124089423016,-1.40067561481,0.0768756022301,1.91060970824,0.153423062926,-0.0125734907917,-0.0743840899785,0.000293119110093,-0.11930008869,-0.0152046978881,0.0438560196804,-0.0151912230771,0.574059743535,0.818799150189,0.00202716618434,0.0,0.818755996536,-0.573999823847,-0.0119819556254,0.0,-0.00864738853997,0.00853827723107,-0.99992615752,0.0,0.656433546182,0.254055993384,0.303350978637,1.0,-0.01458,-0.0191622857143,0.73
0.461074712012,0.518021871786,-0.124096107757,-1.40277870458,0.0767308362787,1.91136192273,0.153130884932,-0.0127817620074,-0.0791585024451,-0.00104799585939,-0.124772177071,-0.00838612823312,0.0471713557208,-0.0158513450778,0.574038850631,0.818813858705,0.00200241349085,0.0,0.818770490164,-0.573979144043,-0.0119822176785,0.0,-0.00866202908258,0.00851793953632,-0.999926204256,0.0,0.656174508009,0.253734402079,0.303351599586,1.0,-0.01492,-0.0196091428571,0.747
0.46088615283,0.51659067554,-0.124097093566,-1.40503600685,0.0765867484005,1.91220316317,0.152816018346,-0.0082550517805,-0.0732406873739,0.00109342729397,-0.12667475209,-0.00526839797867,0.0491409790414,-0.0176850540975,0.574016680488,0.818829381126,0.00201047941089,0.0,0.818786149221,-0.573956973683,-0.0119741849916,0.0,-0.00865105236742,0.00851969864598,-0.999926284297,0.0,0.65590119309,0.253394819355,0.303354206093,1.0,-0.01528,-0.0200822857143,0.765
0.460713236438,0.515285924801,-0.124099334044,-1.40710306382,0.0764534428884,1.91297877871,0.1525419074,-0.00905142310566,-0.0756515688227,0.00137170760419,-0.129093798025,-0.00819187481536,0.0515976264134,-0.0140605341345,0.574008512318,0.818835094007,0.0020158151357,0.0,0.818791986052,-0.573948837741,-0.0119650379605,0.0,-0.00864058458701,0.00851873093,-0.999926383051,0.0,0.655651479682,0.253083027279,0.303352610067,1.0,-0.0156,-0.0205028571429,0.781
0.460525684412,0.513881620439,-0.124100408017,-1.40935580144,0.0763238330711,1.91377424335,0.152235323512,-0.0140900213916,-0.0869338985626,-0.000533797195911,-0.135826543332,-0.0143761146777,0.0527560779376,-0.024953263245,0.573995186635,0.818844534431,0.00197510827342,0.0,0.818800727152,-0.573935520171,-0.0120056154398,0.0,-0.00869731524131,0.00850854938144,-0.999925977908,0.0,0.655366672784,0.252743622353,0.303333747115,1.0,-0.01594,-0.0209497142857,0.798
0.460329891019,0.512482464996,-0.12410539705,-1.41162081487,0.0761885118568,1.91456647935,0.151913185949,-0.00649071990062,-0.0773048866768,-0.000755571773622,-0.136823150302,-0.00421427324544,0.0517724073655,-0.0190824433558,0.573977319937,0.818857204876,0.00191340593846,0.0,0.818812469753,-0.573917802003,-0.0120516730002,0.0,-0.00877063039833,0.00848427096005,-0.999925543822,0.0,0.655080553103,0.252393953172,0.303304846243,1.0,-0.01628,-0.0213965714286,0.815
0.460144406325,0.511113566752,-0.12410740959,-1.41379775594,0.0760599676467,1.91539381001,0.151611119613,-0.00872750009268,-0.0848318886305,-0.00323452671281,-0.13434203134,-0.00262265318291,0.043857776798,-0.0169007567828,0.573962638167,0.818867457188,0.00192988314321,0.0,0.818822894024,-0.573903008718,-0.0120478922748,0.0,-0.00875822979224,0.00849543609832,-0.999925557717,0.0,0.654817155674,0.252066288553,0.303299162765,1.0,-0.0166,-0.0218171428571,0.831
0.459940416266,0.509628889046,-0.124109585,-1.41616025339,0.0759068029257,1.91627625837,0.151269468074,-0.013681600094,-0.0930844986292,-0.000814359509883,-0.14349857252,-0.0139494856488,0.0566351793948,-0.0245660387872,0.573933229631,0.818888075743,0.00192723453598,0.0,0.818843529919,-0.573873665685,-0.012043099403,0.0,-0.0087561299309,0.00849020192824,-0.999925620564,0.0,0.654528685203,0.251705791985,0.303290524607,1.0,-0.01694,-0.022264,0.848
0.459714607658,0.508032631727,-0.124112772505,-1.41867253225,0.0757505741311,1.91716884412,0.150923445328,-0.00740898956719,-0.0944065938638,-0.000469101440746,-0.143236619322,-0.00881608656327,0.051280706269,-0.0216233378028,0.573925084869,0.818893833366,0.00190618315019,0.0,0.818848945381,-0.573865548334,-0.0120616742359,0.0,-0.00878350692288,0.00848353680612,-0.999925437025,0.0,0.654214233283,0.251314448351,0.303289033582,1.0,-0.0173,-0.0227371428571,0.866
0.459513355474,0.506607995834,-0.124116293184,-1.42095298867,0.0756078795694,1.91800409625,0.150626439081,-0.0148270337893,-0.08701239928,0.000113180812113,-0.140702651054,-0.00289903788934,0.060227903163,-0.0269707699383,0.573928655705,0.81889137948,0.00188511917794,0.0,0.818846199221,-0.573869194389,-0.0120746285315,0.0,-0.00880616693692,0.00847376114133,-0.999925320609,0.0,0.653931461208,0.250962570681,0.303272405882,1.0,-0.01762,-0.0231577142857,0.882
0.459310535461,0.50508929149,-0.124120287851,-1.42325061677,0.0754590258484,1.918899903,0.150302389742,-0.00883563105011,-0.0946819028204,0.00166400244784,-0.137461034058,-0.00702629851567,0.0638274994049,-0.0135184579486,0.573910713691,0.818903734568,0.0019781613968,0.0,0.818859895035,-0.573850974234,-0.0120116017225,0.0,-0.00870134319178,0.00851358786383,-0.999925899979,0.0,0.653659114131,0.250611716692,0.303317995463,1.0,-0.01794,-0.0235782857143,0.898
0.459065573383,0.503335753076,-0.124126283664,-1.42588625453,0.0752934566848,1.91989804723,0.149930132559,-0.0133222494171,-0.090858473542,-0.000669922685719,-0.145007548476,-0.0127372752771,0.0581709843975,-0.02293894995,0.573901540096,0.818909926994,0.00207380027413,0.0,0.8188673949,-0.573841458968,-0.0119547664405,0.0,-0.00860000991495,0.00855919109067,-0.999926387329,0.0,0.653343099191,0.250199495651,0.30337508617,1.0,-0.0183,-0.0240514285714,0.916
0.458845043477,0.501727060245,-0.124131303416,-1.42826270176,0.0751450831898,1.9207590512,0.149605959563,-0.0188433731773,-0.0949017541967,0.0008347297898,-0.149252430883,-0.00542820183621,0.0477440752939,-0.0177012905819,0.573901606667,0.818909674916,0.0021533914713,0.0,0.81886817102,-0.57384119024,-0.0119144355866,0.0,-0.00852130590966,0.00860122306149,-0.999926700467,0.0,0.653049822076,0.249826282809,0.303441770096,1.0,-0.01862,-0.024472,0.932
0.458612835887,0.500013171794,-0.12412986536,-1.43087277676,0.074988632003,1.92167738844,0.149232923391,-0.0144437398389,-0.0943666977403,0.00146597003533,-0.156012110922,-0.0041593619186,0.0552739098121,-0.0243275401563,0.573875880905,0.818927638509,0.00217786645237,0.0,0.818886298132,-0.573815211446,-0.0119197628217,0.0,-0.00851189420067,0.0086240554263,-0.999926583968,0.0,0.652715292829,0.249425621677,0.30347489742,1.0,-0.01896,-0.0249188571429,0.949
0.458358880446,0.498326117605,-0.124132943934,-1.43349522369,0.0748167129401,1.92265981157,0.148858031431,-0.0162690760042,-0.100423006954,0.000614485482676,-0.149423860721,-0.0131683853921,0.0647531277039,-0.0220409781307,0.573865872748,0.818934563745,0.002210723714,0.0,0.818893728641,-0.573805150845,-0.0118935678927,0.0,-0.0084716922857,0.00863582677039,-0.999926823786,0.0,0.652395965906,0.249008212922,0.303488499106,1.0,-0.0193,-0.0253657142857,0.966
0.458115036273,0.496745017221,-0.124135540363,-1.4360154111,0.0746727440304,1.92355125628,0.148476976355,-0.0165766259016,-0.0952510495088,0.000185594619305,-0.157425929852,-0.000798052629491,0.0517734322786,-0.0253460944561,0.573844150316,0.818949875835,0.00217690587298,0.0,0.818908392008,-0.573783356133,-0.0119353519006,0.0,-0.00852554674244,0.00863188454864,-0.999926400102,0.0,0.652075080664,0.248606915171,0.303468497768,1.0,-0.01962,-0.0257862857143,0.982
0.457845141684,0.495065211099,-0.124140883603,-1.43873899377,0.074494073195,1.92449658116,0.148095623529,-0.0162773225127,-0.0941285777814,-0.000760429849117,-0.162278115512,-0.00293831967472,0.0608715334446,-0.0194262924555,0.573845426655,0.818949215825,0.00208688958389,0.0,0.8189065145,-0.573784959594,-0.0119869743376,0.0,-0.00861946332967,0.00858780322014,-0.999925974504,0.0,0.651726030812,0.248162506177,0.303424647517,1.0,-0.01996,-0.0262331428571,0.999
0.457570696287,0.493189677703,-0.124179825983,-1.44167178528,0.0743075836965,1.92556010891,0.147684105535,-0.0121997526567,-0.127234140248,-0.00504092848423,-0.187259957061,-0.0142612761652,0.071938341766,-0.0271972510274,0.573858037326,0.818940394448,0.00208092249729,0.0,0.818897751773,-0.573797729518,-0.0119743326173,0.0,-0.00861240188802,0.0085757948793,-0.99992613841,0.0,0.651362730285,0.24768002167,0.303427989321,1.0,-0.0257742857143,-0.0338747755102,1.016
0.457258113649,0.490787740057,-0.124220100715,-1.44542029608,0.0741040402367,1.92697233047,0.147127337042,-0.016563290397,-0.156236143657,-0.0012792915052,-0.238834299574,-0.0170775198441,0.0857777586414,-0.0410032984892,0.573820413901,0.81896659968,0.00214198535564,0.0,0.818924645054,-0.57375974981,-0.011955004082,0.0,-0.00856192890412,0.00861431583988,-0.999926240748,0.0,0.650893502752,0.247103026662,0.303438730201,1.0,-0.0323411428571,-0.0425055020408,1.033
0.45680438498,0.487879560703,-0.12423175533,-1.45010089298,0.0738278094765,1.92867058991,0.146442834726,-0.0308395764728,-0.189878438835,-0.00299222318071,-0.299496701106,-0.023566373126,0.112871564006,-0.038403849766,0.57379823141,0.818982294125,0.00208289262734,0.0,0.818939326113,-0.573737573482,-0.0120134849892,0.0,-0.00864396415813,0.00859924468657,-0.999925664674,0.0,0.650296889247,0.246355321778,0.30338037543,1.0,-0.038908,-0.0511362285714,1.05
0.456265138287,0.484331706383,-0.124321563276,-1.45558331428,0.0734988234306,1.93074306554,0.145622145885,-0.0293807501024,-0.216796628619,-0.00580530668298,-0.338040415017,-0.023284700164,0.130522550666,-0.0464340634225,0.57381502927,0.818970258903,0.00218497524857,0.0,0.818928890344,-0.573754216191,-0.0119297470352,0.0,-0.00851663322847,0.0086349737499,-0.999926449389,0.0,0.649632859724,0.245436740992,0.303416944593,1.0,-0.0454748571429,-0.059766955102,1.067
0.455656950583,0.48050535414,-0.124408886701,-1.46161866445,0.0731396389218,1.93282705985,0.144693598133,-0.0432877969097,-0.252212971079,-0.00574095827021,-0.402844598428,-0.0246182441039,0.138948376956,-0.0659494069307,0.573813939789,0.818971309005,0.00207471234956,0.0,0.818928369951,-0.573753449262,-0.0120021352319,0.0,-0.00863919736623,0.00858619861675,-0.99992581798,0.0,0.648854828729,0.244410042319,0.303381549796,1.0,-0.0516554285714,-0.0678899918367,1.083
0.454912145624,0.475864948946,-0.124500411111,-1.46876210369,0.0727042748282,1.93540347213,0.143674068306,-0.0393735658112,-0.276137763546,-0.00962351836782,-0.436397561878,-0.0247762537775,0.155596950422,-0.0505348451568,0.573884002011,0.818922081437,0.00212689279663,0.0,0.818879893242,-0.573823355198,-0.0119676386529,0.0,-0.00858026799154,0.00860987187769,-0.999926121825,0.0,0.647954549582,0.24319363948,0.30342126101,1.0,-0.0582222857143,-0.0765207183673,1.1
0.45404535698,0.470728731572,-0.124545960926,-1.47670128456,0.0722400772023,1.93825458975,0.142500822614,-0.0549545463363,-0.317896439063,-9.18052263463e-05,-0.476771002678,-0.0270033444049,0.171542035237,-0.0702095272283,0.573921775562,0.818895465688,0.00218144747294,0.0,0.818853592712,-0.573860499118,-0.0119861652352,0.0,-0.00856373470494,0.00866557417368,-0.999925782382,0.0,0.646936292606,0.241852930262,0.30344222571,1.0,-0.0647891428571,-0.085151444898,1.117
0.453158742653,0.465347136734,-0.124591083074,-1.48478380328,0.0717274381726,1.94128380783,0.141180685022,-0.0588733313565,-0.34280932299,-0.000901795547336,-0.518504976435,-0.0334144882494,0.188541387106,-0.0876425855095,0.573843763738,0.818949368372,0.00245229746291,0.0,0.818911191842,-0.573781596882,-0.0118273351449,0.0,-0.00827906488979,0.00879542569183,-0.999927046125,0.0,0.64592038381,0.240491595901,0.303572824839,1.0,-0.0709697142857,-0.0932744816326,1.133
0.452095515704,0.459199013616,-0.124627598688,-1.49434645829,0.0711073592371,1.94455505032,0.139744241197,-0.0604924846227,-0.372235713786,-0.00565409372672,-0.578828345004,-0.0387468450909,0.189757753077,-0.0862788660802,0.573841620915,0.818951235002,0.00232716468281,0.0,0.818911077876,-0.573779573667,-0.011932907248,0.0,-0.00843735201357,0.00875350830841,-0.99992609086,0.0,0.64463523835,0.238858915014,0.303540914378,1.0,-0.0775365714286,-0.101905208163,1.15
0.450858206067,0.45210379419,-0.12472647391,-1.50519567794,0.0703679092608,1.94834123697,0.13802527705,-0.0682102281129,-0.416694074283,-0.00248644495654,-0.6042836274,-0.0381172210723,0.227892976664,-0.102602201576,0.573814822671,0.818970030665,0.0023205724749,0.0,0.818930053911,-0.573753081287,-0.0119044284141,0.0,-0.00841809656993,0.00873149212966,-0.999926445643,0.0,0.64319745368,0.236956761907,0.303583885653,1.0,-0.0844897142857,-0.11104362449,1.168
0.449743084821,0.445699449448,-0.124773016795,-1.51471428648,0.0697360860883,1.95191490583,0.13657645727,-0.0760775319856,-0.429540466421,-0.00150249112542,-0.649841886956,-0.0449454464974,0.230862487771,-0.0957425316038,0.573833764489,0.818955625317,0.00269098411602,0.0,0.818920830235,-0.573771033096,-0.0116714304552,0.0,-0.00801452919505,0.00890133519983,-0.999928264204,0.0,0.641971363899,0.235316598963,0.303754469109,1.0,-0.090284,-0.118658971429,1.183
0.448281366357,0.437696246704,-0.124798557811,-1.52713451018,0.0688930576887,1.95611200251,0.13460177643,-0.0840718909359,-0.455039343527,-0.000303529928645,-0.708472692622,-0.0536431725424,0.23205183101,-0.113446463674,0.573750671669,0.819014462593,0.00249473927773,0.0,0.818976672905,-0.57368817954,-0.0118249226204,0.0,-0.00825373912056,0.00882786053303,-0.999926969668,0.0,0.640239065345,0.233160488887,0.303680988986,1.0,-0.0972371428571,-0.127797387755,1.201
0.446764366156,0.429546109528,-0.124825440422,-1.53935180444,0.0680821405466,1.96048154826,0.132607765802,-0.0962117817919,-0.479688533173,-0.00035135307457,-0.730372300552,-0.0524188162239,0.259898386982,-0.110281208581,0.573687948469,0.819057586741,0.0027485058953,0.0,0.8190229735,-0.573624404425,-0.0117114656694,0.0,-0.00801590908224,0.00896998888459,-0.999927639632,0.0,0.638581956716,0.231014873911,0.303802530799,1.0,-0.103804,-0.136428114286,1.218
0.445210133382,0.421558545911,-0.124889440598,-1.55162415722,0.067184316698,1.96464416768,0.130555868722,-0.102121876988,-0.500684169836,-0.00522999498984,-0.785586675645,-0.0588472759517,0.250276314414,-0.1304865657,0.573598438949,0.819120762548,0.00259886504778,0.0,0.819084389885,-0.573535647216,-0.0117630999566,0.0,-0.00814501447597,0.00887615645789,-0.99992743366,0.0,0.636858556921,0.228794551911,0.303755388653,1.0,-0.109984571429,-0.14455115102,1.234
0.443431056233,0.412558270992,-0.125007171428,-1.56511304212,0.0662166145827,1.96941213008,0.128359295334,-0.106112971853,-0.534631872198,-0.00382811039965,-0.813593988557,-0.0600908667921,0.284522993316,-0.146979120221,0.573634884226,0.819094634536,0.0027831952034,0.0,0.819061233951,-0.5735720854,-0.0115976200526,0.0,-0.00790333744528,0.00893257871358,-0.999928870618,0.0,0.635002894098,0.226305915836,0.303852052679,1.0,-0.116551428571,-0.153181877551,1.251
0.441456985852,0.403233240927,-0.125065806208,-1.57944600146,0.0652722485775,1.97415100829,0.125974909017,-0.114731966323,-0.554485038506,-0.00538948734393,-0.875386100521,-0.0494024522152,0.274494252602,-0.144780155422,0.573661467115,0.819076691741,0.00257703223471,0.0,0.819039573162,-0.573598246181,-0.0118311653431,0.0,-0.00821260871669,0.008897946363,-0.999926687117,0.0,0.632923428626,0.223646160472,0.303743605698,1.0,-0.123118285714,-0.161812604082,1.268
0.439429383781,0.393902726765,-0.125211726897,-1.59320699338,0.06427654713,1.97896915348,0.123628894293,-0.13032233402,-0.578715601419,-0.00897362109194,-0.889307709184,-0.0694700067421,0.306669586879,-0.152360224133,0.573773440199,0.818997329684,0.0028566051902,0.0,0.818964457039,-0.573709896195,-0.0116155075588,0.0,-0.00787435861223,0.00900430121092,-0.999928455959,0.0,0.631008176115,0.22097271522,0.303896235611,1.0,-0.129298857143,-0.169935640816,1.284
0.437024039613,0.383167746403,-0.12532549478,-1.60949121571,0.0630362148464,1.98430236107,0.120741748617,-0.132523996118,-0.620626042893,-0.0105009389259,-0.914372796825,-0.0730394350355,0.293723213135,-0.164711744746,0.57373427764,0.81902557523,0.00261393983132,0.0,0.818989672145,-0.573671712862,-0.0117230406768,0.0,-0.00810208278358,0.00886687071462,-0.999927864827,0.0,0.62860587802,0.217817328334,0.303812306866,1.0,-0.136252,-0.179074057143,1.302
0.434714967422,0.373121431367,-0.125408307087,-1.62434127946,0.0619804551127,1.98932342537,0.118083293739,-0.151681073189,-0.632802241226,-0.00446925247572,-0.94584019795,-0.0629391141386,0.304363936392,-0.170211215292,0.573763612117,0.819004442995,0.00279045973542,0.0,0.818970578048,-0.57370014118,-0.0116656419936,0.0,-0.00795347860807,0.00897879818012,-0.999928059093,0.0,0.62642841922,0.214916459706,0.303893296137,1.0,-0.142432571429,-0.187197093878,1.318
0.4321003405,0.362116431778,-0.125567071518,-1.64063277042,0.0606944847406,1.99474220054,0.11521722933,-0.162020059672,-0.664045941305,-0.00921747067347,-0.971429271789,-0.0803743658284,0.329764039576,-0.172754504826,0.573891805826,0.818914519053,0.00282003388797,0.0,0.818881742635,-0.573829018696,-0.0115626892121,0.0,-0.00785078794849,0.00894517907905,-0.999929171942,0.0,0.624010877704,0.211633090534,0.303935757132,1.0,-0.148999428571,-0.195827820408,1.335
0.429296032439,0.350815289602,-0.12568768615,-1.65758198432,0.0594258669381,2.00015317538,0.11203833143,-0.170120666819,-0.670262911676,-0.00718240463866,-1.01564346286,-0.0758803231579,0.3174138982,-0.196434576444,0.573898580686,0.81891049579,0.00260112932622,0.0,0.818874310673,-0.573835914809,-0.0117453435982,0.0,-0.00812592017196,0.00887080479516,-0.999927636504,0.0,0.621398867999,0.208204164602,0.303830108242,1.0,-0.155566285714,-0.204458546939,1.352
0.426115531151,0.338304751596,-0.125813725732,-1.67574872816,0.0580265698432,2.00612095861,0.108592158043,-0.180931102087,-0.684338927442,-0.00372964135871,-1.03125618948,-0.0857621149105,0.330008493168,-0.200597181394,0.573975356366,0.818855936678,0.00282703971616,0.0,0.818822777866,-0.573911996369,-0.0116200591116,0.0,-0.00789283434225,0.00898464506532,-0.999928487103,0.0,0.618621185004,0.204452844608,0.303952998165,1.0,-0.162519428571,-0.213596963265,1.37
0.423377316227,0.327652999558,-0.125850672579,-1.69137632921,0.0567343928977,2.01109727148,0.105539630968,-0.185883106972,-0.720058172952,-0.00151138408974,-1.03961351316,-0.08736166023,0.350510404762,-0.209386762059,0.573862377898,0.818935303289,0.00277257314364,0.0,0.818901540888,-0.573799332924,-0.0116335191976,0.0,-0.00793635175145,0.00894667566082,-0.9999284831,0.0,0.616137412844,0.201262353956,0.303939907972,1.0,-0.168313714286,-0.221212310204,1.385
0.42008005466,0.315210638728,-0.125860165259,-1.70956549166,0.0552508116874,2.01677785965,0.102000746303,-0.200532385189,-0.733572218306,0.00086785375997,-1.08651279029,-0.0818524023448,0.339391486839,-0.212249310515,0.573786674201,0.818988640578,0.0026844023421,0.0,0.818953307119,-0.573723469898,-0.0117306329078,0.0,-0.00806730579257,0.00892945293775,-0.999927589102,0.0,0.613182413679,0.197521400507,0.30390606392,1.0,-0.174880571429,-0.229843036735,1.402
0.416594071404,0.302376064054,-0.125973929723,-1.72798832818,0.0536897775528,2.02258983904,0.0981555877004,-0.207752109471,-0.744071502534,-0.00258944014546,-1.10582163631,-0.0968753889796,0.335725443957,-0.229840876462,0.573647347238,0.819085846894,0.00280059401691,0.0,0.819052465229,-0.57358425459,-0.0116150329235,0.0,-0.00790748469085,0.00895693870714,-0.99992861992,0.0,0.610195174148,0.193605879522,0.303985888156,1.0,-0.181447428571,-0.238473763265,1.419
0.412836582367,0.289172781186,-0.126104930518,-1.74681254152,0.0521905297828,2.02834450937,0.0943120814936,-0.227086531904,-0.780686578058,-0.0104640470808,-1.09652698538,-0.086621343573,0.350624377856,-0.227466620462,0.57375045501,0.819013235215,0.00291252804309,0.0,0.818980648386,-0.573686221927,-0.0116431628607,0.0,-0.00786517870242,0.009065748638,-0.999927972989,0.0,0.607077510303,0.189512129843,0.304063315396,1.0,-0.188014285714,-0.247104489796,1.436
0.408876728784,0.275798374061,-0.12622803942,-1.76607774537,0.0505385191452,2.03403940584,0.0901811660177,-0.23496841563,-0.803230852414,-0.00841196127032,-1.13253125476,-0.0919148333293,0.327776954639,-0.23784524016,0.57370440979,0.819046197328,0.00270623950764,0.0,0.819010470221,-0.573640386968,-0.0118026695741,0.0,-0.00811467958736,0.00898785511772,-0.99992668253,0.0,0.603797135304,0.185264360528,0.303990421612,1.0,-0.194581142857,-0.255735216327,1.453
0.40461991283,0.261978354133,-0.126405593676,-1.78560650138,0.0488174919352,2.03995525222,0.0859013847814,-0.263077162473,-0.777870275258,-0.00659907509267,-1.16281764344,-0.103508269013,0.338155624747,-0.246350445692,0.573772811526,0.81899793729,0.00280826817636,0.0,0.818963910783,-0.573708834029,-0.0117061305697,0.0,-0.00797632209802,0.00901670333677,-0.999927536048,0.0,0.600490464548,0.180822669485,0.304044860206,1.0,-0.201148,-0.264365942857,1.47
0.400372246221,0.248689009122,-0.126561798966,-1.80423405887,0.0471760795793,2.04540845768,0.0817345404639,-0.26919871536,-0.817529398914,-0.00522462759305,-1.18276135792,-0.110172230373,0.336228261782,-0.2692718861,0.573879577209,0.818922936792,0.002863801522,0.0,0.818889500121,-0.573815243925,-0.0116961246595,0.0,-0.00793508456129,0.00905747845589,-0.99992749563,0.0,0.597261718569,0.176510181319,0.304098147283,1.0,-0.207328571429,-0.272488979592,1.486
0.395693623154,0.234276702395,-0.126690195172,-1.82429673068,0.0453648982321,2.0512406891,0.0770557441736,-0.278256528391,-0.868248906493,-0.00650820170016,-1.17880056792,-0.104130748816,0.359348238536,-0.282366356375,0.573840502245,0.818949942378,0.0029693034106,0.0,0.818917811185,-0.573775741454,-0.0116517786176,0.0,-0.00783866007996,0.0091180534945,-0.999927705641,0.0,0.593714456379,0.171863336798,0.304158155305,1.0,-0.213895428571,-0.281119706122,1.503
0.390488716799,0.218809482326,-0.126772299372,-1.8459072375,0.0433333226077,2.05734671229,0.071877172827,-0.30334117175,-0.881059432306,-0.00638937093811,-1.18376250001,-0.113698678896,0.344660476422,-0.288982246082,0.573703082101,0.819046550943,0.00287539169505,0.0,0.81901300656,-0.573638436862,-0.0117211663448,0.0,-0.00795089874984,0.00907962726598,-0.999927169137,0.0,0.58978874911,0.166824789313,0.304107874855,1.0,-0.220848571429,-0.290258122449,1.521
0.385523754369,0.204706447415,-0.126929934247,-1.86536827295,0.0415063256529,2.06276912464,0.0671131070218,-0.314574109733,-0.864185611835,-0.00972657976917,-1.2390612963,-0.118542229775,0.334343652615,-0.310757681321,0.573755172275,0.819010031385,0.00288403865982,0.0,0.818976415757,-0.573690280222,-0.0117405158982,0.0,-0.0079612086253,0.0090983165371,-0.999926917226,0.0,0.586222697377,0.162123702244,0.304106015336,1.0,-0.227029142857,-0.298381159184,1.537
0.379957975063,0.189373555704,-0.127127050049,-1.88616756475,0.039503297743,2.06843796563,0.0617612850065,-0.340589114422,-0.922934221371,-0.00831524228858,-1.24602061157,-0.123514422265,0.342373015129,-0.318667604634,0.573774099545,0.818996356482,0.00299961018934,0.0,0.818964278578,-0.573708849199,-0.01167962605,0.0,-0.00784481930733,0.00915821683865,-0.999927290294,0.0,0.582355179653,0.156976996191,0.304187692028,1.0,-0.233596,-0.307011885714,1.554
0.373989171027,0.173805816531,-0.127379878484,-1.90718055748,0.0375081700667,2.07403927777,0.0562359770107,-0.353454074019,-0.933903193553,-0.0120781785594,-1.25016237633,-0.114399108563,0.321632636189,-0.325379973681,0.57399308662,0.818842472675,0.00311261273766,0.0,0.818811406726,-0.573926890565,-0.0116855210679,0.0,-0.00778233864977,0.00925622933192,-0.999926876038,0.0,0.578394069889,0.151607646747,0.304238313061,1.0,-0.240162857143,-0.315642612245,1.571
0.368586874974,0.159880941862,-0.127511652489,-1.92592050619,0.0355498935476,2.0788097241,0.0510975926148,-0.360963363453,-0.965087617466,-0.0131398319312,-1.2329770964,-0.127336588258,0.334673480479,-0.353774415774,0.573897687268,0.818909758203,0.00299989503275,0.0,0.818877311612,-0.573831985185,-0.0117280947952,0.0,-0.00788296732249,0.00918744934543,-0.999926722116,0.0,0.574741633732,0.146849538805,0.304228473754,1.0,-0.245957142857,-0.323257959184,1.586
0.361835588474,0.142966802902,-0.127672643537,-1.94862181846,0.033198722276,2.08450518852,0.0447919025391,-0.381618305411,-0.934591250067,-0.0105950448296,-1.25825792654,-0.126479250325,0.301963954269,-0.356813776531,0.573849519417,0.818943986059,0.00286769298554,0.0,0.818909419247,-0.573783832027,-0.0118416246635,0.0,-0.00805234646563,0.00914386746741,-0.999925771947,0.0,0.570232805697,0.141041038344,0.304161691949,1.0,-0.252910285714,-0.33239637551,1.604
0.355051364032,0.126588876015,-0.127858392583,-1.97017534398,0.0309444682282,2.08984623158,0.0384249202685,-0.409464860013,-0.938684708693,-0.0103232135308,-1.29109798571,-0.142839745822,0.306801515631,-0.367865176004,0.573770176276,0.818999245194,0.00296109593528,0.0,0.818965760628,-0.57370400895,-0.011812702307,0.0,-0.00797595522602,0.00920298965598,-0.99992584181,0.0,0.565904133094,0.135372440845,0.304200805046,1.0,-0.259477142857,-0.341027102041,1.621
0.348239735787,0.110862022462,-0.12813498401,-1.99050245629,0.0287347434576,2.09477782762,0.0322631227249,-0.437137386978,-0.979319615984,-0.0153064298334,-1.29052785108,-0.139133113251,0.308678887984,-0.399354008482,0.573911119033,0.818899736399,0.00316165729407,0.0,0.818869413056,-0.573844898109,-0.0116474966062,0.0,-0.00772397970326,0.00927379081305,-0.999927165818,0.0,0.561786845081,0.129799877938,0.304318240045,1.0,-0.265657714286,-0.349150138775,1.637
0.340811206918,0.0939701277955,-0.128281619621,-2.0122511541,0.0263173543719,2.09981424011,0.0253913602284,-0.432335135059,-0.994892632098,-0.00861419804222,-1.28653072881,-0.144379020205,0.295021680198,-0.41066312699,0.57375895611,0.819006010879,0.00324981971913,0.0,0.818976927462,-0.573692588024,-0.0115911014356,0.0,-0.00762893114372,0.00931220491701,-0.999927538499,0.0,0.557233300384,0.123914291381,0.30437793286,1.0,-0.272224571429,-0.357780865306,1.654
0.332949536754,0.0767969044057,-0.128505739948,-2.03411041232,0.0239357265902,2.10462657603,0.0181928225726,-0.472622942686,-1.02900856074,-0.00918825915915,-1.27888435803,-0.152541888537,0.303416213578,-0.42678743947,0.57372492649,0.819029408082,0.00335921452775,0.0,0.819001046413,-0.573657357151,-0.0116305400649,0.0,-0.00759886251862,0.00942411240052,-0.999926719012,0.0,0.552562251396,0.117830842277,0.304441182365,1.0,-0.278791428571,-0.366411591837,1.671
0.32518337076,0.0606914200363,-0.128755562997,-2.05472500038,0.0215523687933,2.10895795486,0.0111937133236,-0.4983574878,-1.01229430258,-0.0217242236168,-1.25902560916,-0.153978723312,0.258676773753,-0.435488423232,0.573738543052,0.819020598361,0.00317656709189,0.0,0.818989279191,-0.573670869991,-0.0117915391101,0.0,-0.00783536026532,0.00936701520632,-0.999925430297,0.0,0.548062466905,0.111945904569,0.304352109138,1.0,-0.27998,-0.367973714286,1.687
0.316070655714,0.0425214803389,-0.128984583886,-2.07758663302,0.0188827877483,2.11360591666,0.00315852052863,-0.505201660313,-1.00174848773,-0.0119837984939,-1.26776801039,-0.144254893487,0.236918243828,-0.447633417814,0.573837543775,0.818951454315,0.00312021322861,0.0,0.81891876133,-0.573769298054,-0.0118996577363,0.0,-0.00795511261561,0.00938385218765,-0.999924326887,0.0,0.542984423383,0.105280738706,0.304318180444,1.0,-0.27998,-0.367973714286,1.705
0.307257326545,0.0253895631878,-0.12918634267,-2.09857267191,0.0163432615395,2.1177551838,-0.00467342073158,-0.523503697123,-0.999933828139,-0.0114553395362,-1.24539980815,-0.151126877963,0.23568903147,-0.460535658248,0.573828666429,0.818956909826,0.0033148657655,0.0,0.81892708703,-0.573760138833,-0.011767587531,0.0,-0.00773535820825,0.00946739470189,-0.999925263543,0.0,0.538250671081,0.0990249367218,0.304434620023,1.0,-0.27998,-0.367973714286,1.722
0.298724653615,0.00951860553291,-0.129398869716,-2.11788941906,0.0139299986839,2.12134639908,-0.0121890432112,-0.539368518976,-0.984937493284,-0.0183432980288,-1.20187156269,-0.157438451673,0.202291576684,-0.468761642014,0.573861596972,0.818933553355,0.0033837274539,0.0,0.818904840981,-0.573793099225,-0.0117084414812,0.0,-0.0076470233526,0.00949015843394,-0.999925727205,0.0,0.533800425144,0.093111063815,0.304497364757,1.0,-0.27998,-0.367973714286,1.738
0.289386025868,-0.00723192593888,-0.129591854585,-2.13803286249,0.0114704893374,2.12494011528,-0.0203973506392,-0.541833271434,-0.989174234657,-0.0038791505112,-1.18190046878,-0.150968389183,0.223444394832,-0.490321331225,0.573894718,0.818909547676,0.00357103315757,0.0,0.818883060608,-0.57382534835,-0.0116511605264,0.0,-0.00749224149985,0.0096109830875,-0.999925744904,0.0,0.528791485013,0.0864780907015,0.304581163737,1.0,-0.27998,-0.367973714286,1.756
0.279351345572,-0.0247217139354,-0.129777494461,-2.15903004862,0.00871009966615,2.12834535086,-0.0292662817542,-0.563437280585,-0.972768986394,-0.00904345234009,-1.13982113514,-0.158948485683,0.185075365207,-0.500586865432,0.573825705483,0.818958684035,0.00338828439071,0.0,0.818929291584,-0.573756281574,-0.0118021879769,0.0,-0.00772160354613,0.00954734799387,-0.999924609651,0.0,0.524257903933,0.0806061188323,0.304518781485,1.0,-0.27998,-0.367973714286,1.772
0.27064489486,-0.0392363031084,-0.130027411103,-2.17613510707,0.00643997934253,2.131124581,-0.0367753558603,-0.587691880274,-0.947730803439,-0.0177418028596,-1.12989070309,-0.151705338252,0.17222234254,-0.508749261525,0.573964958926,0.818860479391,0.00353385295257,0.0,0.818833631914,-0.573895853752,-0.0116524329422,0.0,-0.00751379793179,0.00958191032434,-0.999925862169,0.0,0.519830693604,0.074636341848,0.304594254049,1.0,-0.27998,-0.367973714286,1.788
0.260075996137,-0.0565305940993,-0.130174633025,-2.1962118484,0.00383973948052,2.13412223274,-0.0460544725896,-0.590789662023,-0.937943580299,-0.0106598918077,-1.11638951614,-0.158700736505,0.162998666669,-0.530989594511,0.57392008752,0.818891062664,0.0037292802628,0.0,0.818866528004,-0.573850090934,-0.011594367187,0.0,-0.00735461744794,0.00970820992459,-0.99992582738,0.0,0.514811930798,0.0680775606054,0.304676313195,1.0,-0.27998,-0.367973714286,1.806
0.249818347816,-0.0725752063078,-0.130394740873,-2.21482428707,0.0012876701538,2.13663055112,-0.0550393909865,-0.609473985849,-0.962600188236,-0.0163663859973,-1.07162699882,-0.157380214815,0.156845617589,-0.528268549727,0.57390799173,0.818899818362,0.00366761724295,0.0,0.818874199979,-0.573837816593,-0.0116598352466,0.0,-0.00744376281029,0.00969517642813,-0.999925294184,0.0,0.510045307933,0.0618166860683,0.304650658221,1.0,-0.27998,-0.367973714286,1.823
0.239884963812,-0.0875158188717,-0.130611993768,-2.23210268943,-0.00104659996025,2.13878163214,-0.0637462933452,-0.616873480233,-0.919249157739,-0.00458029145992,-1.09247955408,-0.145840076882,0.123613435586,-0.555766413737,0.573925511287,0.818887990363,0.00356561851809,0.0,0.818859949533,-0.57385426238,-0.01184970465,0.0,-0.00765758287477,0.00972077715469,-0.999923431027,0.0,0.505523996001,0.055902682019,0.304562221046,1.0,-0.27998,-0.367973714286,1.839
0.229238757769,-0.103437212927,-0.130769436641,-2.2499003418,-0.00357814128833,2.14080783087,-0.0731498284037,-0.641840544682,-0.933394812055,-0.0190765559888,-1.05155053157,-0.158242787066,0.120030503463,-0.554835415742,0.573779662694,0.818989743648,0.00366679427558,0.0,0.818963318928,-0.573708475385,-0.0117649659111,0.0,-0.0075318604738,0.00975365596993,-0.999924065754,0.0,0.500774742558,0.0497378546711,0.304646820454,1.0,-0.27998,-0.367973714286,1.856
0.217451118811,-0.11998410714,-0.131092077667,-2.26840713176,-0.00626692239595,2.14268952105,-0.0833234031175,-0.661541708298,-0.928661155535,-0.0209120288366,-0.996124618583,-0.147655935976,0.107404072146,-0.58401134509,0.573958355647,0.81886478341,0.00360823711069,0.0,0.818837249688,-0.573886893836,-0.0118380111617,0.0,-0.00762315722766,0.00974927207615,-0.999923416651,0.0,0.495733385487,0.0430155120227,0.304624457617,1.0,-0.27998,-0.367973714286,1.874
0.206870652313,-0.134598003379,-0.131239309672,-2.28464578385,-0.00854679057648,2.14412165592,-0.0926675344415,-0.668893316887,-0.918694930778,-0.0111631538146,-1.01779437852,-0.153623877652,0.0800192941492,-0.596238674323,0.573860858878,0.818933406925,0.00354070218499,0.0,0.81890364164,-0.573787944481,-0.0120402399835,0.0,-0.00782869324774,0.00980910522696,-0.999921243407,0.0,0.491184673052,0.0371945663298,0.304561777201,1.0,-0.27998,-0.367973714286,1.89
0.195275786146,-0.150014830455,-0.131528339826,-2.30130227191,-0.0110482252411,2.14558235955,-0.102814522258,-0.696297784433,-0.889380291715,-0.0259949350622,-0.966934118495,-0.149608584742,0.0818299517116,-0.590642668027,0.573915436136,0.818894452386,0.00370066437394,0.0,0.818867438281,-0.573842779473,-0.0118882240342,0.0,-0.00761174772983,0.00985337854538,-0.999922483109,0.0,0.486477698517,0.0308988779963,0.30463104963,1.0,-0.27998,-0.367973714286,1.907
0.183454631998,-0.165244270002,-0.131740280848,-2.31763987775,-0.0134922227793,2.1466071119,-0.113167176533,-0.695417264616,-0.895181570759,-0.0069695817419,-0.933175650104,-0.136281653272,0.0658065709868,-0.604365568495,0.573922821356,0.81888933254,0.00368823539337,0.0,0.818861505625,-0.573849368246,-0.0119784836477,0.0,-0.00769270903718,0.00989506962873,-0.999921451827,0.0,0.481701166751,0.0246665575158,0.304642100703,1.0,-0.27998,-0.367973714286,1.924
0.172168562799,-0.179452268317,-0.131934571704,-2.33269980282,-0.015746745911,2.14745214839,-0.123193440493,-0.710705524435,-0.869254980278,-0.011625923146,-0.923872115456,-0.149299143369,0.0463867107994,-0.624332465104,0.573824090109,0.818958253664,0.00374690101431,0.0,0.818930689523,-0.573749787705,-0.0120188920699,0.0,-0.00769333531957,0.00996537390168,-0.999920748817,0.0,0.477212889053,0.0188540377262,0.30465826831,1.0,-0.27998,-0.367973714286,1.94
0.159696514408,-0.194463628034,-0.132237104554,-2.34827607682,-0.0182419164035,2.14824821196,-0.13410957571,-0.728623887136,-0.888584973578,-0.00329921319964,-0.929210481386,-0.149370007677,0.0486691864917,-0.648270388362,0.573909062077,0.818897997873,0.00389928811066,0.0,0.818873438843,-0.573835550435,-0.0118236676174,0.0,-0.00744497093884,0.00997892558204,-0.999922493722,0.0,0.472496940019,0.0125223721079,0.304746942991,1.0,-0.27998,-0.367973714286,1.957
0.146436206437,-0.210036932468,-0.132452621634,-2.36450290146,-0.0206948309508,2.1487240324,-0.145987971068,-0.745175179603,-0.868666156814,-0.0139403335866,-0.890932121929,-0.144789079142,0.0212382267583,-0.664860220359,0.57375781016,0.819004009366,0.00389291965061,0.0,0.818977994454,-0.573682513787,-0.0120068679225,0.0,-0.00760051937085,0.0100774437961,-0.999920335443,0.0,0.467415343299,0.0060083237376,0.304703076518,1.0,-0.27998,-0.367973714286,1.975
0.134944338983,-0.222882867687,-0.132783569768,-2.37752514603,-0.0228281404705,2.1490304429,-0.15601937083,-0.762123185877,-0.833269516768,-0.0157103672852,-0.86115623691,-0.150108965481,0.0115212904966,-0.672314197147,0.573953092886,0.818866616402,0.00400731956842,0.0,0.818842583123,-0.573878015392,-0.0118993451102,0.0,-0.00744440719472,0.0101112245085,-0.999921168863,0.0,0.463265208709,0.000406870544868,0.304762576228,1.0,-0.27998,-0.367973714286,1.99
0.120281945946,-0.238901285185,-0.133024104947,-2.39383099951,-0.0255074408596,2.14914534617,-0.169176239607,-0.778512375131,-0.85212674345,-0.0150942572092,-0.824041129144,-0.142495018197,0.00235534086193,-0.702059232617,0.573762342528,0.819000677825,0.0039256745012,0.0,0.818975053992,-0.573686877513,-0.0119989336518,0.0,-0.0075751726928,0.0100997602181,-0.999920302625,0.0,0.457914152721,-0.00650436314892,0.30471111489,1.0,-0.27998,-0.367973714286,2.009
0.108247511742,-0.251430759658,-0.133353882536,-2.40621554229,-0.027482669873,2.14917376161,-0.179818970178,-0.804220509982,-0.810273311446,-0.0163736132489,-0.850419239106,-0.13091099896,-0.00789887026792,-0.720829418246,0.573942921238,0.818873036006,0.00414981497592,0.0,0.818850440915,-0.573866775113,-0.0119007031624,0.0,-0.00736386576887,0.0102285990928,-0.999920571466,0.0,0.453766603271,-0.0121002201452,0.304773158336,1.0,-0.27998,-0.367973714286,2.024
0.0937297658377,-0.266241679705,-0.133613376568,-2.42086359562,-0.0299333483611,2.14899778408,-0.192819213519,-0.818394153532,-0.793701434601,-0.0179115710781,-0.807328696064,-0.134786431295,-0.00493471408658,-0.730551455273,0.573872222989,0.818922355036,0.0041946400826,0.0,0.818900349194,-0.573795940298,-0.0118820827008,0.0,-0.00732377670306,0.0102539868627,-0.999920605872,0.0,0.448726707564,-0.0186624809429,0.304761265834,1.0,-0.27998,-0.367973714286,2.042
0.0804327741408,-0.279200784915,-0.133941978702,-2.43343826599,-0.032125827,2.14869744126,-0.204704681113,-0.835076284714,-0.771713294481,-0.0150773888681,-0.796991593496,-0.142769308768,-0.0163067180434,-0.739615359983,0.573922820964,0.818886462637,0.00427829260016,0.0,0.818866095573,-0.573847027024,-0.0117751432216,0.0,-0.00718755827321,0.0102615697392,-0.999921516516,0.0,0.44427882665,-0.0245953507526,0.304787963307,1.0,-0.27998,-0.367973714286,2.058
0.0661640128362,-0.292797410087,-0.134181690613,-2.44647848541,-0.0342564048468,2.14812062563,-0.217667617918,-0.852779281418,-0.805763779354,-0.0184057242708,-0.748260884318,-0.130671485083,-0.0321223380834,-0.775301420929,0.573810082247,0.818964784275,0.00440664610899,0.0,0.818945504383,-0.573733043926,-0.0118068649177,0.0,-0.00714130558695,0.0103839010722,-0.999920585023,0.0,0.439524276556,-0.0307626731299,0.304806474875,1.0,-0.27998,-0.367973714286,2.075
0.0523204916357,-0.30534825297,-0.134468208521,-2.45827888467,-0.0363744789095,2.14753300962,-0.230118796875,-0.86616334331,-0.756921091856,-0.00584752188207,-0.735182155941,-0.122335258016,-0.0404209454011,-0.790269320033,0.573831047015,0.81894940827,0.00453244710787,0.0,0.818932766497,-0.573755089057,-0.0116176004292,0.0,-0.00691384551595,0.0103785090856,-0.999922239621,0.0,0.435106931892,-0.0366789673546,0.304871840309,1.0,-0.27998,-0.367973714286,2.091
0.0374554514585,-0.318470589661,-0.134794235945,-2.47067182128,-0.0385335907598,2.14660834018,-0.243587577762,-0.886740439934,-0.751820751964,-0.0289236227427,-0.713245023436,-0.127578030406,-0.0554593913218,-0.801535709187,0.573829729865,0.818950378437,0.00452390129012,0.0,0.81893268168,-0.573752388946,-0.0117561029684,0.0,-0.00703220119404,0.0104509732194,-0.999920659505,0.0,0.430306013105,-0.0428947851318,0.304834042094,1.0,-0.27998,-0.367973714286,2.108
0.021369062887,-0.332074854921,-0.135096095605,-2.48315605143,-0.0407300623731,2.14566051198,-0.258288950833,-0.897380430218,-0.746766229465,-0.0154421312302,-0.706548908481,-0.118111506782,-0.0559964153985,-0.82181440845,0.573760410078,0.818997773174,0.00473141251177,0.0,0.8189834667,-0.573683493724,-0.0115791709862,0.0,-0.00676911231931,0.0105188210346,-0.999921763701,0.0,0.425339581438,-0.049474991741,0.304902724602,1.0,-0.27998,-0.367973714286,2.126
0.00761526685566,-0.343201417805,-0.135438759806,-2.49340710095,-0.0426575503885,2.14459594353,-0.270723503843,-0.928758329989,-0.726612425758,-0.0273288166892,-0.668204460946,-0.133247382997,-0.0698108264563,-0.82924108145,0.573855536149,0.818931465439,0.00467177123001,0.0,0.818915862168,-0.573777979809,-0.0116785049371,0.0,-0.0068834682319,0.0105277649689,-0.999920888886,0.0,0.421093744781,-0.0550359888493,0.304869636244,1.0,-0.27998,-0.367973714286,2.141
-0.00905419593769,-0.356273964819,-0.135710174059,-2.50504580999,-0.0448385558162,2.14330459289,-0.286082437844,-0.931615979811,-0.705121608059,-0.016912868431,-0.638035150076,-0.121229551394,-0.0650512479594,-0.860617554972,0.573705436036,0.819035856442,0.00480472956442,0.0,0.819023000349,-0.573629102112,-0.0114771517072,0.0,-0.00664419399343,0.0105198908888,-0.999922590295,0.0,0.416128942203,-0.0616019077095,0.304962645135,1.0,-0.27998,-0.367973714286,2.159
-0.0233376049391,-0.366875199076,-0.136078483263,-2.51462753267,-0.0465862658068,2.14208343052,-0.299163626321,-0.95868010032,-0.70241513747,-0.0189254675432,-0.628911547715,-0.122221588378,-0.076560148514,-0.879048199387,0.573803613645,0.818966936301,0.00482877989813,0.0,0.818953346361,-0.573725542579,-0.0116260559461,0.0,-0.00675109103179,0.0106258229507,-0.999920754188,0.0,0.411887277965,-0.0671635555383,0.304915409916,1.0,-0.27998,-0.367973714286,2.174
-0.0396528083736,-0.378623339164,-0.136373431598,-2.52505393945,-0.0485683804125,2.14054670034,-0.314204959826,-0.976344873595,-0.683613418459,-0.0270525801445,-0.595659649399,-0.110141311068,-0.0826204846223,-0.890865813232,0.573751132886,0.819003881212,0.00479864284339,0.0,0.818989200927,-0.573672072117,-0.011738370397,0.0,-0.00686105562753,0.0106651453185,-0.999919587062,0.0,0.407105911678,-0.0733648522326,0.304894578758,1.0,-0.27998,-0.367973714286,2.191
-0.0582765393807,-0.391362974222,-0.136733681453,-2.5361050324,-0.0507307284158,2.13893568298,-0.331454989145,-0.981325726911,-0.658778879482,-0.0167749994185,-0.578656167455,-0.0974190107026,-0.0930864400643,-0.919215222413,0.57370814125,0.819033317608,0.00491326896992,0.0,0.819020947061,-0.573630027167,-0.0115770077401,0.0,-0.00666368474121,0.0106660991522,-0.99992091169,0.0,0.401845547565,-0.080341512774,0.304941967595,1.0,-0.27998,-0.367973714286,2.21
-0.0733311967826,-0.401132320238,-0.13707480633,-2.54462019899,-0.0524369461945,2.1374330632,-0.34539357576,-1.01009131734,-0.650349019649,-0.0206307408624,-0.573712352405,-0.116536879837,-0.102059501079,-0.933856132167,0.573741773024,0.819010073827,0.00486042792416,0.0,0.818996170064,-0.57366247321,-0.0117212265923,0.0,-0.00681168869899,0.0107058353023,-0.999919489753,0.0,0.397595640094,-0.0858945644433,0.304900661165,1.0,-0.27998,-0.367973714286,2.225
-0.0904481450865,-0.411903618189,-0.137349013754,-2.55372615076,-0.0541435857941,2.13577672664,-0.361439953176,-1.01689048908,-0.639554677808,-0.0214714430858,-0.528810237832,-0.108284771538,-0.0866627685443,-0.951926353573,0.573687937824,0.819046596528,0.00505664035875,0.0,0.81903555426,-0.573608534986,-0.0116084602532,0.0,-0.00660746500737,0.0108014098235,-0.999919832263,0.0,0.392617781913,-0.0924452375444,0.304969175503,1.0,-0.27998,-0.367973714286,2.243
-0.109072877683,-0.422900045512,-0.137740009315,-2.56293932392,-0.056072724046,2.13397623199,-0.378839573412,-1.03267630956,-0.596463732164,-0.0203771132125,-0.502869885071,-0.098985198617,-0.119042415537,-0.965931684713,0.573657209656,0.81906798316,0.00507855033752,0.0,0.81905744785,-0.573578111216,-0.0115669510889,0.0,-0.00656130031475,0.010795297207,-0.999920202264,0.0,0.387871121107,-0.0987193787335,0.304989514763,1.0,-0.27998,-0.367973714286,2.26
-0.126922804397,-0.432853423152,-0.138119764542,-2.57141970634,-0.0578568365213,2.13211949332,-0.395507739066,-1.05602627754,-0.572211114311,-0.0186013382683,-0.486289593753,-0.0971678955937,-0.108527879489,-0.990280881868,0.573710467452,0.819031273543,0.004981906828,0.0,0.819018054858,-0.57362935678,-0.0118124407925,0.0,-0.00681712166733,0.0108574016072,-0.999917818464,0.0,0.383038856125,-0.104977756445,0.304907941815,1.0,-0.27998,-0.367973714286,2.277
-0.143869894634,-0.441876603244,-0.138411434917,-2.5787942644,-0.059288612992,2.13048191625,-0.411552754988,-1.07231953894,-0.557782406566,-0.0255214818992,-0.438840630893,-0.0874806460484,-0.0990292144786,-1.01016397279,0.573668847392,0.819059324001,0.00515986433237,0.0,0.819048498967,-0.573587276546,-0.0117447616324,0.0,-0.00666015222201,0.0109639940957,-0.999917713217,0.0,0.378616962267,-0.110814135888,0.304954506518,1.0,-0.27998,-0.367973714286,2.293
-0.163357321055,-0.451608903808,-0.138725429111,-2.58667720591,-0.0610149789621,2.12862751309,-0.429893495955,-1.07758707818,-0.527578390221,-0.0148678184457,-0.43606728683,-0.0922692286158,-0.114591340438,-1.0218307278,0.573681154013,0.819050394158,0.00520886372734,0.0,0.819040918616,-0.573600607374,-0.0116216932191,0.0,-0.00653107075753,0.010933629416,-0.999918897142,0.0,0.373613348165,-0.117450955117,0.305000821989,1.0,-0.27998,-0.367973714286,2.311
-0.180882417105,-0.459843620305,-0.139054367499,-2.59343139808,-0.0625344862489,2.12684352898,-0.44654392681,-1.09293135865,-0.504891041751,-0.0129150622592,-0.41241964608,-0.0989669812254,-0.10401484514,-1.05310406512,0.57362392045,0.819090906199,0.00514122273196,0.0,0.819079575889,-0.573541988553,-0.0117890893776,0.0,-0.00670775793738,0.0109737854815,-0.999917287587,0.0,0.369087972056,-0.123332151855,0.304958779656,1.0,-0.27998,-0.367973714286,2.327
-0.199712981876,-0.468102117807,-0.139421192442,-2.60018204301,-0.0639770821007,2.12514988597,-0.464491607314,-1.13232700784,-0.472609337397,-0.0289236697851,-0.386309857996,-0.0881459960408,-0.0987649070564,-1.06353109036,0.573629263285,0.819086721634,0.00521129995277,0.0,0.819075617512,-0.573545962886,-0.0118704741406,0.0,-0.00673415735216,0.0110779133471,-0.999915961949,0.0,0.364326653815,-0.129572766972,0.304913353371,1.0,-0.27998,-0.367973714286,2.344
-0.217628072715,-0.475557665435,-0.139606383342,-2.60591091693,-0.065237596005,2.12354022349,-0.481538838906,-1.11028462178,-0.452293870142,-0.00114516548915,-0.344718225363,-0.0632458530617,-0.103745509937,-1.05762086367,0.573615957296,0.819095257797,0.00533283133521,0.0,0.819086954698,-0.573534294094,-0.0116499374489,0.0,-0.0064839716992,0.0110508553637,-0.999917914984,0.0,0.359938437942,-0.135414877769,0.305016711689,1.0,-0.275017714286,-0.361451853061,2.36
-0.236685313597,-0.482769210202,-0.139818240535,-2.61165124159,-0.0664626075056,2.12188809085,-0.499674220052,-1.11602806351,-0.409893815646,-0.00434652156132,-0.337903383978,-0.0632459089344,-0.094631506699,-1.07464687617,0.573678657086,0.819050942612,0.00539432209591,0.0,0.819042918191,-0.573595893641,-0.011713063698,0.0,-0.00649955999617,0.0111379304034,-0.999916847656,0.0,0.355280126649,-0.141544085719,0.305001233207,1.0,-0.268450857143,-0.352821126531,2.377
-0.255576585235,-0.489346469341,-0.13995455924,-2.61696125438,-0.067540305786,2.12021728888,-0.517656418487,-1.11296545848,-0.373148541473,-0.00133177350268,-0.30301294901,-0.0629062862634,-0.092093855278,-1.06288727848,0.573760557359,0.818993429875,0.00541586024405,0.0,0.818983805458,-0.573674506767,-0.0119930640228,0.0,-0.00671542897732,0.0113168668154,-0.999913412021,0.0,0.350676529363,-0.147506428298,0.304926779963,1.0,-0.261884,-0.3441904,2.394
-0.274286658811,-0.495392373091,-0.139931480123,-2.6216762552,-0.06847166163,2.11883585111,-0.535480625944,-1.10033145834,-0.342584267607,-0.00038902443683,-0.264138590428,-0.0521360863737,-0.0798734722187,-1.0488045465,0.573801547048,0.818964048498,0.00551532178499,0.0,0.818956025227,-0.573715632718,-0.0119226012293,0.0,-0.00660008251592,0.0113582317183,-0.999913711019,0.0,0.346258980668,-0.153331727959,0.3049391709,1.0,-0.255317142857,-0.335559673469,2.411
-0.29163458624,-0.500526208705,-0.139863535926,-2.62560786537,-0.0692518909226,2.11754288613,-0.551977004094,-1.06719738503,-0.30542518835,0.00872370800767,-0.235101290032,-0.0474505621203,-0.0771550585347,-1.03248939295,0.573889569601,0.81890189297,0.0055855612945,0.0,0.818894859046,-0.573803506329,-0.0118950768427,0.0,-0.00653601212643,0.0114006674568,-0.999913648935,0.0,0.342209208686,-0.158677007683,0.304964700209,1.0,-0.249136571429,-0.327436636735,2.427
-0.311904916492,-0.505923961456,-0.139750352902,-2.62973109425,-0.0700878395965,2.11619336144,-0.571346066032,-1.06217215545,-0.268838108366,0.00722602343316,-0.209997845876,-0.0475844039632,-0.0635723431748,-1.00797003,0.5739498571,0.81885918102,0.00565244157432,0.0,0.818853367633,-0.573864152795,-0.011825538245,0.0,-0.00643984095406,0.0114160065978,-0.999914097931,0.0,0.337541677313,-0.164874750002,0.304989660459,1.0,-0.241797142857,-0.317790530612,2.446
-0.32755391135,-0.509763666662,-0.139602118272,-2.63261907,-0.0705954295756,2.11522761271,-0.586421410048,-1.0503801926,-0.247886163861,0.00150819419078,-0.190303140197,-0.028959891092,-0.0682018243197,-0.996403186799,0.573928275071,0.818873562089,0.00575945186283,0.0,0.818869540862,-0.573842913101,-0.0117359717724,0.0,-0.00630537777303,0.0114520662259,-0.999914542544,0.0,0.333973519886,-0.169597622945,0.305023930598,1.0,-0.236002857143,-0.310175183674,2.461
-0.34496779094,-0.513613444884,-0.139359012796,-2.63562192464,-0.0711327228031,2.11411578457,-0.603250236212,-1.01099940507,-0.217515699708,0.0175789297982,-0.171710424549,-0.0187118990169,-0.059212819009,-0.978572102439,0.573829351614,0.818942790815,0.00577299740354,0.0,0.81893809332,-0.573742418143,-0.0118652363716,0.0,-0.006404859611,0.011536570495,-0.999912938867,0.0,0.329983986859,-0.17477658659,0.304995223147,1.0,-0.229436,-0.301544457143,2.478
-0.363120515409,-0.517091582669,-0.139154882871,-2.63844264064,-0.0716337150939,2.11313247961,-0.620679460016,-1.00047106663,-0.181897666358,0.0172269208801,-0.143162494,-0.0321711486688,-0.0470091517196,-0.95910191219,0.573898492911,0.818894157645,0.00579873349697,0.0,0.818888529384,-0.573809176246,-0.0120562265837,0.0,-0.00654553304326,0.0116677912533,-0.999910505318,0.0,0.325846805009,-0.18015842643,0.304917925867,1.0,-0.222482857143,-0.292406040816,2.496
-0.379776958983,-0.519935545643,-0.138909281971,-2.64067207941,-0.0719581053408,2.11235203225,-0.636750952343,-0.982085953053,-0.158718389309,-0.00106536078417,-0.120891874857,-0.0180346579702,-0.0461978967414,-0.941044374491,0.573934130881,0.818868513462,0.00589219581754,0.0,0.818863660466,-0.57384362188,-0.012105787743,0.0,-0.00653197518541,0.0117730564701,-0.999909360113,0.0,0.322108794662,-0.185061169666,0.304891169944,1.0,-0.215916,-0.283775314286,2.513
-0.394181669676,-0.522070436581,-0.138645015995,-2.64231082027,-0.0722541110443,2.1116939727,-0.650675204988,-0.947988993215,-0.132052293684,0.0252402884152,-0.103421996846,-0.018683218938,-0.0459302792998,-0.910155664183,0.57391747958,0.818880154998,0.00589620929677,0.0,0.818875032787,-0.573826378087,-0.0121538221182,0.0,-0.0065692497932,0.0118037767979,-0.999908753742,0.0,0.318901468855,-0.189284832453,0.304881183813,1.0,-0.210121714286,-0.276159967347,2.528
-0.411076385851,-0.524366745133,-0.138426016289,-2.64397144021,-0.0724952745744,2.1110195913,-0.666992314511,-0.935334894106,-0.11581015933,0.00316106542597,-0.0885802443847,-0.0176620481753,-0.0398099024421,-0.897599738126,0.574034060439,0.818797480166,0.00602750618159,0.0,0.818794407019,-0.573942982356,-0.0120796911874,0.0,-0.00643149965767,0.0118696710588,-0.999908869208,0.0,0.315147880694,-0.194241503294,0.304916544794,1.0,-0.203168571429,-0.26702155102,2.546
-0.426490114867,-0.526084460657,-0.138090065501,-2.64523685868,-0.0726696667247,2.1105125687,-0.68201014303,-0.896034631413,-0.0982202143441,0.0136268202118,-0.0654248949015,-0.0103795157843,-0.0268177045445,-0.873631523005,0.57397141872,0.81884103121,0.00607642992056,0.0,0.818838936177,-0.573880778878,-0.0120164527259,0.0,-0.00635254051209,0.011872946422,-0.999909335076,0.0,0.311761662383,-0.19871831998,0.304935705008,1.0,-0.196601714286,-0.25839082449,2.563
-0.439912562765,-0.527335456489,-0.137891012965,-2.6461709812,-0.0728334149185,2.11011898784,-0.694918183304,-0.883028999068,-0.0837019342445,0.0163523151924,-0.0601299390484,-0.0119679544078,-0.0272365821482,-0.848370259769,0.574127017485,0.818731593456,0.00612311786971,0.0,0.818730195787,-0.574036316748,-0.0119966854638,0.0,-0.006307294812,0.0119010318691,-0.999909287622,0.0,0.308793255841,-0.202632100386,0.304940107467,1.0,-0.190807428571,-0.250775477551,2.578
-0.454414376552,-0.528415868482,-0.137475519905,-2.64701087661,-0.0728936612202,2.10975094829,-0.709106612125,-0.842507850741,-0.0572219315182,0.0266709109247,-0.0442660768881,-0.00303191155939,-0.0246790073187,-0.818160965993,0.574015273529,0.818809784588,0.0061440474648,0.0,0.818808547112,-0.573924296003,-0.0120088523568,0.0,-0.00630686912236,0.011924292828,-0.999909013182,0.0,0.305623167703,-0.206786434773,0.30493248843,1.0,-0.184240571429,-0.24214475102,2.595
-0.469534357594,-0.529236345212,-0.137132465008,-2.64765362627,-0.0729330354664,2.10942753769,-0.723702249474,-0.810266081348,-0.0413493089373,0.024151098097,-0.0282493434326,0.00179533933751,-0.0158331815253,-0.796042306223,0.574148106148,0.81871626294,0.00619515176426,0.0,0.8187154373,-0.574056400469,-0.0120427865729,0.0,-0.00630338005584,0.0119866402694,-0.999908289722,0.0,0.302309898996,-0.211138561916,0.304921189978,1.0,-0.177287428571,-0.233006334694,2.613
-0.482343907327,-0.529700654062,-0.136733330863,-2.64802912679,-0.0729543294585,2.1092254316,-0.736271386123,-0.798790257029,-0.0187500934079,0.0235075071556,-0.0170767882146,-0.00189199426077,-0.0132728504518,-0.783932541584,0.574032524544,0.8187974666,0.00617384452856,0.0,0.818796308078,-0.573940830888,-0.0120530252864,0.0,-0.00632568689996,0.0119741801803,-0.999908298143,0.0,0.299526573979,-0.21479864525,0.304913046147,1.0,-0.171106857143,-0.224883297959,2.629
-0.497097448626,-0.529980572851,-0.136298033428,-2.64826881561,-0.0729489949315,2.10902803659,-0.75065254511,-0.758171286176,-0.00985597559454,0.0313663490699,-0.00762371361872,0.000666199291795,-0.00143468578487,-0.745645370959,0.574018942102,0.818807104291,0.00615848783355,0.0,0.81880548527,-0.573926826978,-0.0120963410764,0.0,-0.00637017127352,0.0119863633017,-0.999907869762,0.0,0.29631413388,-0.219015139903,0.304900645013,1.0,-0.163767428571,-0.215237191837,2.648
-0.508260465812,-0.530088477603,-0.135913966153,-2.6483685733,-0.0729474557546,2.10894713636,-0.761608537417,-0.741511008222,-0.00576850209142,0.0244480914825,-0.00484411741996,-1.57842459933e-05,-0.0020842125996,-0.715201182188,0.573912670269,0.818881962456,0.00610944917409,0.0,0.81887984123,-0.573821048833,-0.0120812435193,0.0,-0.00638750484843,0.0119367133168,-0.999908353129,0.0,0.293884558338,-0.222185829619,0.304897683542,1.0,-0.157973142857,-0.207621844898,2.663
-0.522032720868,-0.530050073611,-0.135481858434,-2.64836320192,-0.0729190830247,2.10884103657,-0.774959270381,-0.69300381071,0.00824070666058,0.0298159718412,0.00380278355503,0.00435301651475,-0.00117770927099,-0.695792236199,0.573965776624,0.81884501817,0.0060720987135,0.0,0.81884221882,-0.573873951042,-0.0121184113792,0.0,-0.00643860546928,0.0119278738307,-0.999908130873,0.0,0.290862180253,-0.226093768054,0.304888213512,1.0,-0.150633714286,-0.197975738776,2.682
-0.532310091447,-0.529893336505,-0.135103547475,-2.64827204743,-0.0728730962004,2.10884805273,-0.78505098922,-0.686885665747,0.012379216783,0.0229052270189,0.00422624699914,0.000692217598148,7.33752558446e-05,-0.656497287526,0.573876143163,0.818908173457,0.0060268278528,0.0,0.818904944285,-0.57378482969,-0.0120999315672,0.0,-0.0064507546626,0.0118794899043,-0.999908628568,0.0,0.288619370849,-0.228996138251,0.304882827946,1.0,-0.144839428572,-0.190360391837,2.697
-0.545662935029,-0.529557715129,-0.134670553332,-2.648008714,-0.0727631000725,2.10886301891,-0.797959324487,-0.644137732923,0.0184903166687,0.0316798049232,0.0139245532942,0.0138009250047,0.00465992064185,-0.622996615463,0.573996782908,0.818823650884,0.00602236371287,0.0,0.818820617045,-0.573905930829,-0.012063439065,0.0,-0.00642168260229,0.0118558390472,-0.999909096405,0.0,0.285689047685,-0.232774738234,0.304892517095,1.0,-0.137113714286,-0.180206595918,2.717
-0.553112426068,-0.529213549624,-0.134301426146,-2.64777009881,-0.0726083343829,2.10890096572,-0.805385090214,-0.620948132747,0.0273394894707,0.0217574413585,0.0223059103344,0.0161570036424,0.00445307853359,-0.599668664579,0.573835595794,0.818936615002,0.00602299838771,0.0,0.818933507042,-0.573744622606,-0.0120733580928,0.0,-0.00643177590294,0.0118607861839,-0.999908972862,0.0,0.284089256612,-0.234849646666,0.304888145867,1.0,-0.132478285714,-0.174114318367,2.729
-0.56592280817,-0.528506431219,-0.133815547087,-2.64727157794,-0.0723845326461,2.10901577249,-0.817776910771,-0.60446150907,0.0350719603925,0.0305449148701,0.0246214708069,0.0115287556039,0.00167639876514,-0.582568748135,0.573959604875,0.818849529679,0.00604703375469,0.0,0.818846699958,-0.573868438154,-0.0120766120553,0.0,-0.0064188498681,0.0118833099086,-0.999908788496,0.0,0.28129750935,-0.238456567876,0.304878863747,1.0,-0.124366285714,-0.163452832653,2.75
-0.574431067459,-0.527843831242,-0.133396222697,-2.64680667278,-0.0721689691811,2.10913670574,-0.826212776686,-0.554231699366,0.0474049790174,0.0332066818954,0.028055883238,0.0109933996178,0.00508930502079,-0.56123951943,0.573865969019,0.818915110124,0.00605300857063,0.0,0.81891227503,-0.573774642122,-0.012086883957,0.0,-0.0064251927852,0.0118933633779,-0.999908628228,0.0,0.279591738995,-0.240689834672,0.304870405908,1.0,-0.118958285714,-0.15634517551,2.764
-0.584189297842,-0.527000306564,-0.132921588134,-2.64622275508,-0.0719125047697,2.10925949935,-0.83575783238,-0.538242181759,0.0512199563458,0.0276782544057,0.0317361148775,0.0151961694925,0.00547047963146,-0.51349646377,0.573823548132,0.818944712992,0.00606956111002,0.0,0.818941634063,-0.573731308026,-0.0121545502052,0.0,-0.00647173199544,0.0119454134044,-0.999907707633,0.0,0.277374923247,-0.243565008112,0.304848866959,1.0,-0.111618857143,-0.146699069388,2.783
-0.591517696922,-0.526335775974,-0.132599333358,-2.64572338371,-0.0717159450565,2.10936372944,-0.842793324677,-0.516476172267,0.0514086093341,0.0203851589111,0.0423917447297,0.0118462147143,0.00619403326134,-0.494029581817,0.573947708483,0.818857522066,0.00609371680694,0.0,0.818854687461,-0.573855203423,-0.0121636026511,0.0,-0.00646347087022,0.0119713709259,-0.999907450629,0.0,0.275786971207,-0.245623078701,0.304849882117,1.0,-0.106210857143,-0.139591412245,2.797
-0.600221620971,-0.525362250099,-0.132092480857,-2.64502481679,-0.0713888859319,2.10954328628,-0.851399417635,-0.468127222477,0.0591150313148,0.034256738752,0.0373092430631,0.0152642725481,0.00963259902113,-0.475364195934,0.573848451126,0.818926834271,0.00612716506019,0.0,0.818924209659,-0.57375539642,-0.0121914238151,0.0,-0.00646851463108,0.0120139447834,-0.999906907391,0.0,0.27394497562,-0.24804672326,0.304839272925,1.0,-0.0992577142858,-0.130452995918,2.815
-0.607055441205,-0.52457356773,-0.131686345841,-2.64443621152,-0.0711541950861,2.10967874399,-0.858133269755,-0.454579696037,0.0546235804091,0.0223026964046,0.0391239354987,0.0146051090786,0.0125579394364,-0.44185196042,0.573776130392,0.818977505814,0.00612732108599,0.0,0.818974787131,-0.57368291209,-0.0122049711448,0.0,-0.00648058219405,0.0120212740439,-0.999906741164,0.0,0.2724918677,-0.249949317101,0.304839734584,1.0,-0.0934634285715,-0.12283764898,2.83
-0.614907060677,-0.523664400378,-0.131209527921,-2.64372677046,-0.0708495726458,2.10985008611,-0.865651513271,-0.417254277714,0.04977459376,0.0223430984501,0.0387397903839,0.0181458004117,0.00982169982384,-0.416829719505,0.573881001984,0.818903886825,0.00614545405446,0.0,0.818901593154,-0.573788029109,-0.0121747806035,0.0,-0.00644391125281,0.0120196288226,-0.999906997941,0.0,0.270821720275,-0.252129248221,0.304855560864,1.0,-0.0865102857144,-0.113699232653,2.848
-0.621747011344,-0.522725931123,-0.130788583969,-2.64300321179,-0.0705624650221,2.11002818889,-0.872273973716,-0.384223496951,0.0549385522858,0.0322675263355,0.0398586004093,0.0154495201023,0.00619775025964,-0.375128333843,0.573923533832,0.818873937956,0.0061642478495,0.0,0.818871969727,-0.573830616863,-0.0121600677172,0.0,-0.00642045200505,0.0120269103696,-0.999907061293,0.0,0.269381877304,-0.254043871517,0.304865918961,1.0,-0.0799434285715,-0.105068506123,2.865
-0.627558582395,-0.521909329583,-0.130306979713,-2.64239873888,-0.0702533428278,2.1101881456,-0.878045305542,-0.352012809791,0.0491595307481,0.0311232930239,0.0330138333477,0.0212122552621,0.0157579880177,-0.358901034259,0.573780642794,0.818973972634,0.00617681188419,0.0,0.818972115632,-0.573687601016,-0.0121637641754,0.0,-0.00641836945066,0.0120382008967,-0.999906938796,0.0,0.268178778454,-0.255628350413,0.30486656885,1.0,-0.0737628571429,-0.0969454693879,2.881
-0.633467917981,-0.521126270682,-0.12984376946,-2.64178761764,-0.0699790792323,2.11035660406,-0.883701063789,-0.340799914047,0.0428136935302,0.02875990016,0.0376749794154,0.0184721702729,0.00469763885658,-0.323637559737,0.573810492099,0.818953141117,0.00616593153067,0.0,0.818951420999,-0.573718016096,-0.0121224977906,0.0,-0.00639037467315,0.0120058459613,-0.99990750711,0.0,0.266938056021,-0.257244306367,0.304882551465,1.0,-0.0671960000001,-0.0883147428572,2.898
-0.638216194722,-0.520418267109,-0.129446843517,-2.6412232906,-0.0696975143294,2.11051374978,-0.888227744782,-0.306700040991,0.0467700625648,0.0226474480482,0.0395602439132,0.019668741143,0.0154399909311,-0.289928720693,0.573866665945,0.81891361112,0.00618822591263,0.0,0.818912489993,-0.573774661169,-0.0120714056698,0.0,-0.00633491314883,0.011995223761,-0.999907987508,0.0,0.265839346962,-0.258711758643,0.304901275661,1.0,-0.0606291428572,-0.0796840163266,2.915
-0.643396085788,-0.51958628629,-0.129040360193,-2.64061649652,-0.0693797149222,2.11068330971,-0.893231300574,-0.2773454428,0.0446961673358,0.0163040008082,0.0333528127354,0.0151684612139,0.00328023609708,-0.268322956498,0.573886200369,0.81889956527,0.00623521679744,0.0,0.818898953869,-0.573793789676,-0.012080446338,0.0,-0.00631506516336,0.0120390457492,-0.999907586395,0.0,0.264884987809,-0.259965450115,0.304896346122,1.0,-0.0544485714287,-0.0715609795919,2.931
-0.647817112809,-0.518908516159,-0.128606299057,-2.6401432173,-0.0690794048948,2.11082670159,-0.89736022078,-0.246099123794,0.0411159027756,0.0278339770693,0.0257602169795,0.0136682633719,0.0130750274823,-0.23144995563,0.573971507026,0.818839565972,0.00626268485135,0.0,0.818839157158,-0.57387865885,-0.0121023354155,0.0,-0.00631597149761,0.0120747597587,-0.99990715003,0.0,0.263970507731,-0.261139372574,0.30488493065,1.0,-0.0478817142858,-0.0629302530613,2.948
-0.651867370926,-0.518264663896,-0.128032837203,-2.63965902702,-0.0687786034187,2.11096828737,-0.901298958426,-0.219586947045,0.0300664387973,0.0334202603882,0.0240263252625,0.0201234283362,0.00905994677786,-0.20539797777,0.573810394277,0.818952822363,0.00621715895161,0.0,0.818951954353,-0.573718039292,-0.0120853115145,0.0,-0.00633052561252,0.0120264633857,-0.999907640047,0.0,0.263181778251,-0.262185308784,0.304893990619,1.0,-0.0409285714287,-0.0537918367348,2.966
-0.654834404373,-0.517763055972,-0.127574263451,-2.63930387852,-0.0685316420671,2.1110795273,-0.904093151403,-0.187455536853,0.0334148563076,0.0303623881624,0.0248359915503,0.0195702647707,0.00730071326147,-0.170073297289,0.573751034482,0.81899463986,0.00618685809954,0.0,0.818993345964,-0.573658767457,-0.0120939938744,0.0,-0.00635589313646,0.0120061682683,-0.999907723015,0.0,0.262612950593,-0.262939625097,0.304891253834,1.0,-0.0351342857144,-0.046176489796,2.981
-0.657779389378,-0.517245402024,-0.127149068937,-2.63893876954,-0.0682603756412,2.11119521755,-0.906777964032,-0.163738294346,0.0314647773721,0.0199695565155,0.0194426119888,0.0157023344139,0.00246373392353,-0.161079226969,0.573797650728,0.818961946638,0.00619135519497,0.0,0.818960659771,-0.573705256346,-0.0121022101438,0.0,-0.00635935899611,0.0120149274091,-0.999907595767,0.0,0.262045303366,-0.263694650147,0.304886596546,1.0,-0.0285674285715,-0.0375457632654,2.998
-0.660640968786,-0.516767631132,-0.126663551402,-2.63862737171,-0.0679434821443,2.11129566571,-0.909377516855,-0.134985163076,0.0242539552691,0.0235346415835,0.0162593077652,0.0156256923071,0.00499803289282,-0.119016069344,0.573811269772,0.818952231284,0.00621421426906,0.0,0.818950918826,-0.573718158568,-0.012149649551,0.0,-0.00638489797077,0.0120609745327,-0.99990687865,0.0,0.26147830879,-0.264417333813,0.304869101537,1.0,-0.0204554285715,-0.0268842775511,3.019
-0.662359835355,-0.516501563125,-0.126336222563,-2.63845191295,-0.0677203063837,2.11131037461,-0.910847352783,-0.106612616802,0.0146884616883,0.0188102784948,0.0123847004503,0.0159020882707,0.00530698468175,-0.0940142712299,0.573895794817,0.818892798285,0.00624087410332,0.0,0.818891558459,-0.573802023152,-0.0121901850839,0.0,-0.00640155183795,0.0121067281703,-0.999906219236,0.0,0.261175524296,-0.264792731978,0.304863068763,1.0,-0.0197246153846,-0.0259237802198,3.033
-0.664211864969,-0.516193202825,-0.126027880401,-2.63821900065,-0.067530487952,2.11139602933,-0.912655147574,-0.0908980593853,0.0175269607857,0.01171315212,0.0144203776742,0.00350249976499,0.00973356011534,-0.0939255788937,0.573809253045,0.818953442277,0.00624078557968,0.0,0.818952387445,-0.573715853069,-0.0121595204152,0.0,-0.00637776626954,0.0120883843157,-0.999906593169,0.0,0.260809814397,-0.265283174134,0.304868772916,1.0,-0.0193246153846,-0.0253980659341,3.053
-0.665603066936,-0.515944707449,-0.125866080716,-2.63801954224,-0.0674435580458,2.11145677179,-0.913960715684,-0.090624142638,0.0136550566173,0.00632614395026,0.0110656171889,0.00170164241748,0.000214495551425,-0.0824321435772,0.573809013233,0.818953756191,0.00622161185511,0.0,0.818952601292,-0.57371598454,-0.0121388970479,0.0,-0.00637187984095,0.0120608459584,-0.999906963243,0.0,0.260553163078,-0.265633340476,0.30487786252,1.0,-0.0190446153846,-0.0250300659341,3.067
-0.667179601937,-0.515657343962,-0.125746000576,-2.63779208779,-0.0673843471103,2.11148936582,-0.915538079843,-0.0810454200787,0.016640926177,0.00784770539616,0.00687881471171,0.00340627696273,0.000904055027811,-0.0931168095814,0.573760195418,0.818988077068,0.0062060193172,0.0,0.81898661508,-0.573667051958,-0.0121566737939,0.0,-0.00639610523276,0.0120578944372,-0.999906844171,0.0,0.260216177102,-0.266071008441,0.304880792095,1.0,-0.0186846153846,-0.0245569230769,3.085
-0.668465821863,-0.515436181085,-0.125709082701,-2.63760642378,-0.0673367782417,2.11155175122,-0.916757166547,-0.088805846669,0.0162168500845,0.0031996539507,0.013873088477,0.00471628339488,0.00427399417904,-0.0838073757715,0.57381886009,0.818946895475,0.00621651818485,0.0,0.818945793131,-0.573726077466,-0.0121211736134,0.0,-0.00636014135895,0.0120465813752,-0.999907209935,0.0,0.259932908381,-0.266446369349,0.304889715132,1.0,-0.0183846153846,-0.0241626373626,3.1
-0.669874101856,-0.515198738173,-0.125675552875,-2.63738818926,-0.067302106045,2.11160804307,-0.918140423779,-0.0836085878826,0.0145085538806,-0.000892855495907,0.0136474572079,0.00238726567923,0.00645456270318,-0.0882517529018,0.573841516935,0.818931023447,0.00621604202377,0.0,0.818930203111,-0.573749278439,-0.012076209041,0.0,-0.00632325434564,0.0120205661051,-0.999907756968,0.0,0.259620615353,-0.266862495106,0.30490679801,1.0,-0.0180446153846,-0.0237157802198,3.117
-0.671161066451,-0.514943752031,-0.125617657336,-2.63716938806,-0.0672600027086,2.11166707098,-0.919482729825,-0.0771416500206,0.0172698170322,0.00483353327741,0.0151935509121,0.00287177856634,0.00500141563272,-0.0786190168759,0.573784310865,0.818971152893,0.0062098498211,0.0,0.81897044466,-0.573692478464,-0.0120456560054,0.0,-0.00630262199635,0.0119975228887,-0.999908163983,0.0,0.259346402689,-0.267241067676,0.304918456119,1.0,-0.0177246153846,-0.0232952087912,3.133
-0.672707152573,-0.514621936131,-0.125577645088,-2.63692996032,-0.0672169072453,2.11172037667,-0.921035337355,-0.0792114776907,0.0142487705526,-0.00027114164335,0.0139223621617,0.00249562589929,0.00195742005502,-0.0841356552993,0.573781488373,0.818973075071,0.00621713848443,0.0,0.81897233034,-0.573689374584,-0.0120652612448,0.0,-0.00631453938879,0.0120147192678,-0.999907882314,0.0,0.259000647426,-0.267693642024,0.304913866829,1.0,-0.0173246153846,-0.0227694945055,3.153
-0.673786423387,-0.514412055591,-0.125550897891,-2.6367640343,-0.0671965965651,2.11175894543,-0.92214593834,-0.0781428237582,0.016524098538,0.00318849598408,0.0165940929063,0.000285652988905,0.00177384860724,-0.0820246149568,0.573754118415,0.818992273574,0.0062140428471,0.0,0.818991490453,-0.573662027776,-0.0120649639491,0.0,-0.00631647344664,0.0120118022318,-0.999907905144,0.0,0.258757932956,-0.268010669779,0.304915632371,1.0,-0.0170446153846,-0.0224014945055,3.167
-0.675213359509,-0.514127396238,-0.12553394028,-2.63652842067,-0.0671581364456,2.11184121801,-0.923517117377,-0.0718934645984,0.0188391200223,-0.000389241494682,0.0142993168966,0.00056344211636,0.00708557955451,-0.0646018170936,0.573816311236,0.818948647615,0.00622096705303,0.0,0.818948215661,-0.573724674592,-0.0120235074208,0.0,-0.00627763370763,0.011994165469,-0.999908361456,0.0,0.258441684519,-0.268440941491,0.304924912058,1.0,-0.0166646153846,-0.0219020659341,3.186
-0.676244807574,-0.513908192793,-0.125517181517,-2.63634851754,-0.0671283441805,2.11189298944,-0.924554871202,-0.0718301910223,0.0171978850381,-0.000978283041433,0.0163436266197,-0.0014150445019,0.00697022800336,-0.077098848193,0.573821251942,0.81894514586,0.00622621814658,0.0,0.818944894878,-0.573729807052,-0.0120047721839,0.0,-0.00625920348032,0.0119877537708,-0.999908553884,0.0,0.258214510001,-0.268751749398,0.304930444332,1.0,-0.0163846153846,-0.0215340659341,3.2
-0.677473159663,-0.513663166193,-0.125500143146,-2.63616201842,-0.0671061094802,2.11191557467,-0.925830730279,-0.0760890104705,0.0128431902832,7.89042378037e-05,0.0117913321003,0.00251372363296,-0.00061406060947,-0.0788202213006,0.573789471988,0.818967365344,0.00623243440516,0.0,0.818967004491,-0.573697641922,-0.012033624127,0.0,-0.0062797334295,0.0120091561829,-0.999908168341,0.0,0.257929758813,-0.269110910759,0.304926924125,1.0,-0.0160446153846,-0.0210872087912,3.217
-0.678611726228,-0.513430448312,-0.125477802505,-2.63597713007,-0.0670690904465,2.11194417141,-0.92695573739,-0.0680773922326,0.0167470020446,-0.000968872665871,0.0134329539532,0.00316043629485,0.00271644343573,-0.0785222220126,0.573814712449,0.818949547683,0.00624988220608,0.0,0.818949268229,-0.573722521677,-0.0120545049709,0.0,-0.00628645424777,0.0120356204858,-0.999907807917,0.0,0.25765495053,-0.269464111379,0.304924288127,1.0,-0.0157046153846,-0.0206403516484,3.234
-0.679828225897,-0.513162464128,-0.125463989479,-2.63577596175,-0.0670427739854,2.11203321314,-0.928206212098,-0.0648862943578,0.0130568172934,0.000846000700186,0.0110011571071,0.00084629727539,0.00594560641215,-0.0706223413862,0.573794155293,0.818963980944,0.00624597216981,0.0,0.81896389157,-0.573702447957,-0.0120163394636,0.0,-0.00625774016071,0.0120103622638,-0.999908291738,0.0,0.257402257289,-0.269813656399,0.304928063642,1.0,-0.0153646153846,-0.0201934945055,3.251
-0.680972062685,-0.512913464796,-0.125451243368,-2.63557600131,-0.0670155044863,2.11207910741,-0.929395292268,-0.0650714914944,0.0143389054099,-0.000957104316433,0.0124339359634,0.000555098990972,5.51071412014e-05,-0.0608243282402,0.573770031247,0.818980835211,0.00625217572963,0.0,0.818980840627,-0.573678329229,-0.0120126666544,0.0,-0.0062515264044,0.0120131515469,-0.999908297099,0.0,0.257144879498,-0.270157537325,0.304931022012,1.0,-0.0150246153846,-0.0197466373626,3.268
-0.682046020703,-0.512683802421,-0.125420608673,-2.63540226605,-0.0669825064343,2.1120928435,-0.930409452651,-0.0638041595652,0.017046299839,0.0015330756342,0.0122963201171,0.000738508610922,0.00336379520992,-0.0681722190138,0.573820374142,0.818945500941,0.00626032013326,0.0,0.818945386756,-0.573728192503,-0.0120483003182,0.0,-0.00627530000401,0.012040652309,-0.999907817402,0.0,0.256900219266,-0.270467594552,0.304926886312,1.0,-0.0147046153846,-0.0193260659341,3.284
-0.683167842968,-0.512455676634,-0.125396039871,-2.63521902151,-0.066962421173,2.11212955902,-0.931545182898,-0.0663002274176,0.0136437994183,-0.000222843965143,0.00862855267944,-8.26972326688e-05,-6.7508391619e-05,-0.0656046529031,0.573809555237,0.818953107206,0.00625694950795,0.0,0.818952934757,-0.573717363185,-0.0120509225466,0.0,-0.00627954079155,0.0120393134629,-0.9999078069,0.0,0.256645324503,-0.270798164537,0.304929430904,1.0,-0.0143646153846,-0.0188792087912,3.301
-0.684355909954,-0.512186199734,-0.125389629289,-2.63500077134,-0.0669261053028,2.1122077941,-0.932766752626,-0.0644524278644,0.0186005488827,-0.000608631094278,0.0118726477438,0.00621711869664,0.00409805976342,-0.0541936805237,0.573804310525,0.818956699379,0.00626774804405,0.0,0.818956873725,-0.57371246867,-0.0120162045529,0.0,-0.0062449862517,0.0120281968921,-0.999908157096,0.0,0.256382634399,-0.271162341153,0.304935677866,1.0,-0.0139846153846,-0.0183797802198,3.32
-0.685220465128,-0.512010464827,-0.125360163959,-2.63485185398,-0.0669057868456,2.11224962008,-0.933611730683,-0.0571874375112,0.00841571498334,0.00371914715217,0.0106677474324,0.00599787563427,0.00392802260446,-0.0623672035791,0.573815682561,0.818948788371,0.00626030138312,0.0,0.81894899298,-0.573724115461,-0.0119972137541,0.0,-0.0062335378091,0.0120112881671,-0.999908431789,0.0,0.256192188581,-0.271418059386,0.304942540941,1.0,-0.0137046153846,-0.0180117802198,3.334
-0.686369024996,-0.511772656231,-0.125323887274,-2.63464526178,-0.0668775570332,2.11228120386,-0.934775610448,-0.0626372568202,0.0128855577472,0.000197136750298,0.0070905992634,0.00533968085114,0.000632538545727,-0.0644975288463,0.573799949579,0.818959847735,0.00625560243476,0.0,0.818960033185,-0.573708486947,-0.0119909529305,0.0,-0.00623133675094,0.0120037276735,-0.999908536299,0.0,0.255936432162,-0.271756810062,0.304951898787,1.0,-0.0133246153846,-0.0175123516484,3.353
-0.687172700687,-0.511589778697,-0.125282925662,-2.63450636985,-0.06685535336,2.11231558215,-0.935603460484,-0.0541680425453,0.0125170996926,0.000174023300104,0.00871062003978,0.00271694675935,0.000344815685604,-0.0603565803927,0.573767677507,0.818982520716,0.0062473923823,0.0,0.818982568656,-0.573676198013,-0.0119966233747,0.0,-0.00624116470384,0.0120000112297,-0.999908519612,0.0,0.255761274805,-0.271990154507,0.304951177414,1.0,-0.0130446153846,-0.0171443516484,3.367
-0.688182241873,-0.511360600848,-0.125258018844,-2.63432765556,-0.0668250810345,2.11236951221,-0.936599907004,-0.0578147307311,0.0124408555036,-0.00103826473352,0.0124029585134,0.000431605494385,0.000103388656586,-0.0471050766153,0.573782829807,0.818971891988,0.00624910017159,0.0,0.818972019526,-0.573691450115,-0.0119874183448,0.0,-0.00623242333603,0.0119962439726,-0.99990861934,0.0,0.255537698664,-0.272291226909,0.304952679584,1.0,-0.0126846153846,-0.0166712087912,3.385
-0.689120896396,-0.511162131368,-0.125238435051,-2.63415911875,-0.0667983554337,2.11241374479,-0.937546939481,-0.0624072638149,0.00646335348547,6.28239015585e-05,0.0111988574131,0.00158090649991,0.000123505575006,-0.055894641881,0.573782061166,0.818972417592,0.00625079257316,0.0,0.818972687904,-0.573690907081,-0.0119677274438,0.0,-0.00621533548092,0.0119863264893,-0.999908844636,0.0,0.255328500777,-0.272571922529,0.3049599631,1.0,-0.0123446153846,-0.0162243516484,3.402
-0.690105165668,-0.510948477808,-0.125221357155,-2.63397384871,-0.0667783473855,2.11245670428,-0.938584346432,-0.0560839722251,0.0135307327733,-0.00093751790307,0.00871396614388,0.000403874770119,0.00345968721065,-0.0576841665135,0.573744381486,0.818998841208,0.00624737660274,0.0,0.818999187497,-0.573653482227,-0.0119482262355,0.0,-0.00620187350374,0.0119720545321,-0.999909099206,0.0,0.255108512708,-0.272869277615,0.304969037186,1.0,-0.0119846153846,-0.0157512087912,3.42
-0.690912489313,-0.510774222523,-0.125214604807,-2.63383275091,-0.0667613325352,2.11250293528,-0.939364826676,-0.0543444349801,0.0136342694658,0.000677623407675,0.00460772499491,-0.000331903362396,0.00294809871936,-0.0535941605157,0.573776067161,0.818976638124,0.00624802857814,0.0,0.818977101663,-0.573685368542,-0.011931126222,0.0,-0.00618703018429,0.0119630173416,-0.999909299323,0.0,0.254925526343,-0.273113268023,0.304972669408,1.0,-0.0116846153846,-0.0153569230769,3.435
-0.691908866484,-0.510553783823,-0.125201149812,-2.63365729811,-0.0667313957101,2.11254128487,-0.940329881597,-0.0535123490572,0.0102973412683,-0.000114989894894,0.00698788343111,0.00287385895287,0.00622748710657,-0.0453694272248,0.573813962807,0.818950019265,0.00625691097972,0.0,0.818950590237,-0.573723203346,-0.0119316215476,0.0,-0.00618178570444,0.011970862459,-0.99990923787,0.0,0.254698717546,-0.273409785254,0.304974272769,1.0,-0.0113046153846,-0.0148574945055,3.454
-0.69262067909,-0.510401821028,-0.125194020327,-2.63353129503,-0.0667154639026,2.11256797806,-0.94104744809,-0.0563994166475,0.0104163430457,0.00103542580168,0.0055750683957,0.00295819279592,0.00406081300516,-0.0507257193878,0.573817435829,0.818947564056,0.00625975766023,0.0,0.818948198347,-0.573726714681,-0.0119269521425,0.0,-0.00617627711908,0.0119705408236,-0.999909275761,0.0,0.254535556106,-0.273622732756,0.304977632349,1.0,-0.0110246153846,-0.0144894945055,3.468
-0.693526497817,-0.510195842502,-0.12517628918,-2.63336006176,-0.0666956746418,2.11260792439,-0.941994056946,-0.0486486952496,0.00749272760521,0.00135554528646,0.0053364483399,0.00187083113246,0.00457632589822,-0.0447302743993,0.573788616246,0.818967776159,0.0062571863366,0.0,0.818968436714,-0.573698027695,-0.0119171970789,0.0,-0.00617018372467,0.0119626204512,-0.999909408169,0.0,0.254332644324,-0.273895357633,0.304982884855,1.0,-0.0106446153846,-0.0139900659341,3.487
-0.694183788203,-0.51003479832,-0.125159710622,-2.63323238912,-0.0666777778564,2.11264429559,-0.942615715719,-0.0501890845727,0.00831653621691,0.000911523985324,0.00675695378841,0.000195496142012,0.000644541869892,-0.0495274326395,0.573820191812,0.818945670468,0.00625485352844,0.0,0.818946344112,-0.573729690389,-0.0119111180543,0.0,-0.00616608209885,0.0119574596948,-0.999909495199,0.0,0.254188037066,-0.274093757497,0.304984667639,1.0,-0.0103646153846,-0.0136220659341,3.501
-0.694964651782,-0.509847389552,-0.125139099296,-2.6330795159,-0.0666490212451,2.1126978651,-0.943372428415,-0.0457603940074,0.0166101971643,0.00203959532704,0.00693322560584,0.00106832371768,0.00324890278403,-0.0474859802507,0.573845387782,0.818928007099,0.00625595800442,0.0,0.818928841874,-0.573755161381,-0.0118875412469,0.0,-0.00614577059332,0.0119450251387,-0.999909768868,0.0,0.254018883166,-0.274330359993,0.304989679302,1.0,-0.0100246153846,-0.0131752087912,3.518
-0.695775116398,-0.509647424895,-0.125103990071,-2.63293495355,-0.0666275411218,2.11271914227,-0.944199182069,-0.0494892142244,0.0148541578857,0.00650955741364,0.0103086315783,0.000525116760913,-0.00149726371874,-0.0476049486704,0.573823727205,0.818943211455,0.00625247232172,0.0,0.81894381688,-0.573733162687,-0.0119176225791,0.0,-0.00617272423212,0.0119592684088,-0.999909432586,0.0,0.253837076765,-0.274564814242,0.304983830526,1.0,-0.00966461538462,-0.0127020659341,3.536
-0.696463692534,-0.509479678223,-0.125080099066,-2.63280639143,-0.066608467666,2.11274147846,-0.944916976393,-0.0450592395435,0.0110578509947,0.000216891739168,0.007546530101,0.000255646389543,0.000486571116857,-0.0482556222201,0.573797556636,0.818961556777,0.00625135346173,0.0,0.818962064653,-0.573706841669,-0.0119307745775,0.0,-0.00618452054206,0.0119657010161,-0.999909282738,0.0,0.253683098981,-0.274767290374,0.304982478705,1.0,-0.00934461538462,-0.0122814945055,3.552
-0.697340496638,-0.509265748179,-0.125058422143,-2.63263916207,-0.0665735100239,2.11279432701,-0.945756645131,-0.0413210477002,0.0122639049032,0.000188247215034,0.00677219998704,-0.000199667895369,0.00114792824923,-0.0384821328645,0.573836043839,0.818934541021,0.00625773232793,0.0,0.818935202288,-0.573745430499,-0.0119189905611,0.0,-0.00617064654021,0.0119644540328,-0.999909383375,0.0,0.253490241884,-0.275030348818,0.304984106262,1.0,-0.00892461538462,-0.0117294945055,3.573
