nelsonifechukwu/NELSON_IML_WORK/CNN-GradCAM/train2dof/data_sample_2022-02-21-09-35-44/robot_state.csv
position_joint1,position_joint2,position_joint3,position_joint4,position_joint5,position_joint6,position_joint7,velocity_joint1,velocity_joint2,velocity_joint3,velocity_joint4,velocity_joint5,velocity_joint6,velocity_joint7,ee_T_00,ee_T_10,ee_T_20,ee_T_30,ee_T_01,ee_T_11,ee_T_21,ee_T_31,ee_T_02,ee_T_12,ee_T_22,ee_T_32,ee_T_03,ee_T_13,ee_T_23,ee_T_33,v_x,v_y,time
0.465083219229,0.547646172087,-0.123970164203,-1.35575107355,0.0794647054407,1.89408543874,0.159162053863,0.000946104131595,0.00171639344021,8.07540308171e-05,-0.000290811311668,-0.000422021389961,3.38861143529e-05,0.00106007306706,0.573773287484,0.818999717779,0.00210327111236,0.0,0.818958861481,-0.573714395471,-0.0117865403191,0.0,-0.00844665890457,0.00848545787389,-0.99992832291,0.0,0.661691718536,0.260912197809,0.303347034877,1.0,0.0,0.0,0.0
0.465085113737,0.547642075179,-0.12396941043,-1.35574701146,0.0794660278691,1.89408204023,0.159161581261,6.27531424743e-05,0.00384547371469,-0.000532724769469,0.000600004534606,4.49309450977e-05,-0.000552086821878,0.00135345909311,0.573770919267,0.819001363734,0.00210838964796,0.0,0.818960558161,-0.573711991637,-0.0117856578228,0.0,-0.0084430239597,0.00848911912794,-0.999928322533,0.0,0.661691338767,0.260914407824,0.303351552953,1.0,-0.00012,-0.000157714285714,0.007
0.465076609953,0.547645066986,-0.123973196826,-1.35575248565,0.0794667399457,1.89408603745,0.159154919978,0.00225761506814,0.00235815387351,0.000982501718862,-0.000611659416803,-7.98288207896e-05,-6.52014441719e-05,-0.00104549112922,0.573762508149,0.819007265212,0.0021049167442,0.0,0.818966399471,-0.573703580032,-0.0117892195143,0.0,-0.00844802081213,0.00848823166957,-0.999928287862,0.0,0.661689176253,0.260916514681,0.303347416747,1.0,-0.00052,-0.000683428571429,0.027
0.465076899338,0.547615083995,-0.12396972132,-1.35576799414,0.0794659752143,1.89408925595,0.159160413136,-0.00085705817588,-0.000678458559186,0.00406493255783,-0.00312580592165,-1.01221484446e-05,-0.000701246928782,-0.000619415870935,0.573778039638,0.818996343753,0.00212062505959,0.0,0.81895568811,-0.573719054223,-0.0117802646544,0.0,-0.0084315130096,0.00849611869133,-0.999928360212,0.0,0.661690899783,0.260907140007,0.303361323756,1.0,-0.00082,-0.00107771428571,0.042
0.465081126088,0.5475048693,-0.123967559949,-1.35586711763,0.0794620778001,1.89410554776,0.159158368062,-0.000519324481837,-0.00670205780315,-0.000227921253401,-0.00963823019673,6.51319940284e-05,0.00486795765371,0.000463585950535,0.573775685091,0.818997922943,0.00214763003218,0.0,0.818957563958,-0.573716540218,-0.0117722902238,0.0,-0.00840951227903,0.00851363566157,-0.999928396492,0.0,0.661672958491,0.260901347005,0.303393555602,1.0,-0.00118,-0.00155085714286,0.06
0.465080829962,0.547384772083,-0.123964775921,-1.35602639411,0.0794632642004,1.89413903729,0.159155141123,0.000441880033384,-0.00483328947826,0.00168033188461,-0.0119708618989,-6.95312223382e-05,0.000605673343052,0.000419680422157,0.573780366684,0.818994634979,0.00215071723933,0.0,0.818954173287,-0.573721064649,-0.0117876603144,0.0,-0.0084202808886,0.0085250310495,-0.999928208781,0.0,0.661645665059,0.260887897557,0.303405635567,1.0,-0.0015,-0.00197142857143,0.076
0.465056809113,0.547225080552,-0.123970039332,-1.35623939414,0.0794604064221,1.89422660655,0.159144509824,-0.00145161233238,-0.0109921850122,0.00125296515821,-0.00970503765059,0.000406373373621,0.00399662400185,-0.00147834886269,0.573806197364,0.818976449266,0.00218410512827,0.0,0.818936372205,-0.573746712685,-0.011776029168,0.0,-0.00839132897607,0.00854596618356,-0.999928273458,0.0,0.66162614862,0.260851261074,0.303425144752,1.0,-0.00184,-0.00241828571429,0.093
0.46503987198,0.547029162092,-0.123964784828,-1.35644530998,0.0794536231056,1.89433601426,0.159134515163,-0.00356453051128,-0.0142024563706,0.000648454792783,-0.00883220150977,-0.0016603468815,0.00607787929398,-0.0013570021658,0.573818040379,0.818967908664,0.00227332695268,0.0,0.818928962921,-0.573758185875,-0.0117322091509,0.0,-0.00830412272418,0.0085940120094,-0.999928589702,0.0,0.661609519807,0.260827571522,0.303475223824,1.0,-0.00218,-0.00286514285714,0.11
0.465014782445,0.546859930616,-0.123969748617,-1.356660101,0.0794545315266,1.89445375079,0.159125965991,-0.00208429088752,-0.00710304003776,-0.000608943929781,-0.0193013474993,7.54562129228e-05,0.0106824813277,0.000609912271913,0.57384751192,0.818947069961,0.00234020661032,0.0,0.818908948864,-0.573787359343,-0.0117024198357,0.0,-0.0082410401302,0.00863198683404,-0.999928784495,0.0,0.661595844767,0.260792978262,0.303503245221,1.0,-0.00248,-0.00325942857143,0.125
0.464982292889,0.546643160092,-0.123964775973,-1.35696218251,0.079442362552,1.89458894114,0.159105942916,-0.00246244905152,-0.019679340457,0.000438310483483,-0.0171647872598,0.00024707565689,0.0090116271304,-0.00509550810143,0.573868033906,0.818932555726,0.00238657375443,0.0,0.818894992281,-0.573807662547,-0.0116835319834,0.0,-0.00819874825082,0.00865932554343,-0.999928895776,0.0,0.661567252727,0.260748565764,0.303524541019,1.0,-0.0028,-0.00368,0.141
0.46493741567,0.546347751391,-0.123972439221,-1.35740804268,0.0794322615209,1.8947440782,0.159019066984,-0.00495908479764,-0.0123428977243,-0.0014183548291,-0.0220613492446,-4.61781621071e-05,0.012083156185,-0.0158820187029,0.573861181122,0.818937322195,0.00239875348431,0.0,0.818899791359,-0.573800633636,-0.0116923672619,0.0,-0.00819906752377,0.00867430142201,-0.999928763356,0.0,0.661517718005,0.260674293177,0.303535227555,1.0,-0.00318,-0.00417942857143,0.16
0.464901208148,0.546077590933,-0.12397041172,-1.35783618566,0.079418632126,1.89489461054,0.158927042865,-0.00153885509476,-0.0166688633343,-0.000881989586296,-0.0268491042534,0.000124044974348,0.012395522378,-0.00265309523309,0.573834343111,0.818956124109,0.00240007347283,0.0,0.818918477707,-0.573773653766,-0.0117076050171,0.0,-0.00821107399024,0.00868385754034,-0.999928581891,0.0,0.661466344215,0.260612253544,0.303535722985,1.0,-0.0035,-0.0046,0.176
0.464849020621,0.545773799901,-0.123973269711,-1.35834084032,0.0793868740698,1.89506523264,0.158907724398,-0.00512707972716,-0.0154280324233,-0.00177852090772,-0.0266977722296,0.000179166696876,0.0100191239785,-0.000578323807307,0.573882978905,0.81892212449,0.00237222359143,0.0,0.818884119385,-0.573822389094,-0.0117222734486,0.0,-0.00823855268533,0.00866995635639,-0.999928476495,0.0,0.661408565141,0.260526602169,0.303525466496,1.0,-0.00384,-0.00504685714286,0.193
0.464787891642,0.545437506042,-0.123970347737,-1.35892281799,0.0792772813794,1.89525952903,0.158804421492,-0.0072730784718,-0.0167532566752,0.000278416542813,-0.0360992263975,-0.00847445485727,0.00707881432386,-0.00907784404499,0.573849744549,0.818945653166,0.00228795583874,0.0,0.818907152819,-0.573790096481,-0.0116938933908,0.0,-0.00826401586745,0.00858432641167,-0.999929005171,0.0,0.661343918216,0.260418636492,0.303503116351,1.0,-0.00418,-0.00549371428571,0.21
0.464731217533,0.545076582422,-0.123971067773,-1.35956657321,0.0792578800903,1.89547200661,0.158734336031,-0.00312932996931,-0.0226272116857,0.00101716940329,-0.0468119140063,-0.00114467228068,0.017027498885,-0.00543787719696,0.573869981241,0.81893161132,0.00223774741503,0.0,0.818892251242,-0.573810303968,-0.0117457574198,0.0,-0.00833509000187,0.0085731766688,-0.999928510903,0.0,0.661263909918,0.260320343122,0.303470639589,1.0,-0.0045,-0.00591428571429,0.226
0.464663400089,0.544633290102,-0.123973959744,-1.36030037336,0.0792417546007,1.89572368857,0.158668878368,-0.00316028193913,-0.0251854486873,-8.58346493182e-07,-0.0396393639722,-0.000683756622501,0.0100866004992,-0.00671717869187,0.573910512937,0.818903258362,0.00221889316605,0.0,0.81886338747,-0.57385062996,-0.0117878775311,0.0,-0.00837997941883,0.00858232245101,-0.999928057255,0.0,0.661176332456,0.26020701566,0.303457055933,1.0,-0.00486,-0.00638742857143,0.244
0.464602285341,0.54421099415,-0.123979257626,-1.36100849614,0.0792167039006,1.89596836442,0.158548192559,-0.00174768959698,-0.0318030844911,0.000327681670427,-0.0449556882008,-0.0017271390659,0.0172380051945,-0.00530462416487,0.573898206386,0.81891195499,0.00219216396663,0.0,0.818871571097,-0.573838259804,-0.0118215284948,0.0,-0.00842300562383,0.00857961993566,-0.999927718937,0.0,0.661091923657,0.260097581652,0.303440248241,1.0,-0.00518,-0.006808,0.26
0.464530688569,0.543725174586,-0.123980235237,-1.36181331818,0.0791799386214,1.89625031054,0.158479214267,-0.00423575431064,-0.0292273817392,0.000163833627135,-0.0474315005796,-7.61742885424e-05,0.00697599878784,-8.67464544403e-05,0.573936043892,0.818885506753,0.00216592987543,0.0,0.818844653229,-0.573876065577,-0.0118508285299,0.0,-0.0084616593241,0.008575342843,-0.999927429275,0.0,0.660996668151,0.2599737153,0.303425395052,1.0,-0.00552,-0.00725485714286,0.277
0.464449708892,0.543200279532,-0.123979695443,-1.36264977884,0.0791274291328,1.89654712849,0.158357690062,-0.00315799103508,-0.0365602832667,0.00117439841396,-0.0508124134019,-0.0057053534713,0.0224724243167,-0.00705633768841,0.573934979681,0.818886288303,0.00215240074768,0.0,0.818845247736,-0.573875044144,-0.0118592103605,0.0,-0.00847629887527,0.00856906376181,-0.999927359113,0.0,0.660900980019,0.259839755118,0.303424284668,1.0,-0.00586,-0.00770171428571,0.294
0.464378281468,0.542647990874,-0.123991473176,-1.36354224109,0.0790718240439,1.89685849909,0.158242891052,-0.00388609818574,-0.0333208783355,-0.000743818263787,-0.0548991287867,0.000330527648416,0.0233298016533,-0.00110011105116,0.573942441572,0.818881132897,0.00212387603531,0.0,0.818839759448,-0.573882657806,-0.0118697227623,0.0,-0.00850120007319,0.00855181645378,-0.999927295373,0.0,0.660796399735,0.259699175776,0.303417498932,1.0,-0.0062,-0.00814857142857,0.311
0.464311188854,0.542084147432,-0.12399149253,-1.36440891088,0.0790222588311,1.89718068465,0.158134068333,-0.00528451175981,-0.0371428875607,-0.000601984467781,-0.0578533015407,-0.000571333117189,0.0165910014808,-0.00880407910562,0.573943219665,0.818880541228,0.00214165809872,0.0,0.818839369839,-0.573883335029,-0.0118638559743,0.0,-0.00848618229438,0.00856301852812,-0.999927327071,0.0,0.660695937367,0.259573208624,0.303431652443,1.0,-0.00652,-0.00856914285714,0.327
0.464231206147,0.541461744592,-0.123989931047,-1.36536631468,0.0789617172793,1.89753184842,0.157995405906,-0.00345322326929,-0.0395210813734,0.00039851592525,-0.0606301634578,-0.000540941251841,0.0189565500784,-0.00671180142096,0.57393388718,0.818887042273,0.00215685989443,0.0,0.818846068175,-0.573873942567,-0.0118558668285,0.0,-0.00847101312284,0.00857078499309,-0.999927389154,0.0,0.660578254172,0.259422668106,0.303448307712,1.0,-0.00688,-0.00904228571429,0.345
0.464152281438,0.540873217967,-0.123989364136,-1.36627370248,0.0789144308654,1.89786840195,0.157881611216,-0.00406647261149,-0.0370525249059,0.000108402666781,-0.0624351138705,-0.00017919937161,0.0213119936925,-0.00680504329901,0.573939764298,0.818882878967,0.00217356701784,0.0,0.818842050383,-0.573879679743,-0.0118556570661,0.0,-0.00846119155036,0.00858440637204,-0.999927355464,0.0,0.660481511646,0.259293241533,0.303459701655,1.0,-0.00716,-0.00941028571429,0.359
0.464069342867,0.540173579536,-0.123995599652,-1.36733418594,0.0788535444315,1.89825518357,0.157744087952,-0.00658332324182,-0.0412006633288,-0.000527880344131,-0.0604249155574,-0.00749679394313,0.0229175010399,-0.00942660695935,0.573941845417,0.818881359799,0.00219625937697,0.0,0.81884081372,-0.573881657853,-0.0118453141815,0.0,-0.00843967650178,0.00859707381656,-0.999927428458,0.0,0.660358483088,0.259134553734,0.303483147116,1.0,-0.0075,-0.00985714285714,0.376
0.463947506031,0.539299836987,-0.123996356765,-1.36868873028,0.0787729861102,1.89877181526,0.15758076122,-0.00696496279895,-0.0458446783391,-0.000531999396888,-0.070010949821,-0.00155791478494,0.0292967805911,-0.0143887045128,0.573961893883,0.818867227119,0.00222612253898,0.0,0.818827072844,-0.573901589958,-0.0118294853116,0.0,-0.00840936447709,0.00861264901566,-0.999927549808,0.0,0.660207664452,0.258926375335,0.303500601925,1.0,-0.0079,-0.0103828571429,0.396
0.463854314569,0.538648028647,-0.123996342835,-1.36971193652,0.0787135369038,1.89916315887,0.1574555802,-0.00368712198907,-0.0388819930526,0.000173232138767,-0.0673449709218,-0.00455521455754,0.0270782632287,-0.0119354586354,0.573976409301,0.8188570059,0.0022432912858,0.0,0.818817062206,-0.573916023564,-0.0118221588014,0.0,-0.00839335834312,0.00862265145209,-0.999927598088,0.0,0.660093610817,0.25876889967,0.303507957285,1.0,-0.0082,-0.0107771428571,0.411
0.463736753644,0.537820279753,-0.124006902881,-1.37101141913,0.0786412347871,1.89966384713,0.157306971905,-0.00441321145394,-0.0489851149958,-0.000648351282949,-0.0803126768308,-0.0037481610154,0.0208998096164,-0.0119133068172,0.574010899529,0.818832763366,0.00226710421065,0.0,0.818793142461,-0.573950430707,-0.0118084652221,0.0,-0.0083681138829,0.00863464336877,-0.999927706189,0.0,0.659951265532,0.258564069225,0.303517795793,1.0,-0.00856,-0.0112502857143,0.429
0.463643468001,0.537116936805,-0.124008420123,-1.37211941979,0.0785789152223,1.90007167325,0.157157135972,-0.00245515276781,-0.0461756788587,-0.000196974370769,-0.0760422334319,-0.00899263715655,0.0249560813777,-0.0131388768719,0.574010023901,0.818833364819,0.00227156817951,0.0,0.818793752766,-0.57394948717,-0.0118120070146,0.0,-0.00836846117614,0.0086403226161,-0.999927654224,0.0,0.659822311719,0.258396933022,0.303522439849,1.0,-0.00886,-0.0116445714286,0.444
0.463533312085,0.536317122225,-0.124014087762,-1.37335746655,0.0785047129181,1.90054945961,0.157007989495,-0.00725171204939,-0.0500666356132,-0.000184899430313,-0.0821087012186,-0.00558529893776,0.030149249369,-0.0129550084995,0.574030440007,0.818818964796,0.0023029844347,0.0,0.818779800079,-0.57396982028,-0.0117911531048,0.0,-0.0083331366556,0.00865428456174,-0.999927828492,0.0,0.659685438638,0.25820492172,0.303539361294,1.0,-0.00918,-0.0120651428571,0.46
0.463403778412,0.535346313031,-0.124018080137,-1.37489505289,0.078410706366,1.90110734099,0.156818173452,-0.00300014050518,-0.0509405638191,-0.000800267836476,-0.0825065184606,-0.00882556571918,0.0333946423163,-0.0110201298303,0.574043099888,0.81881011673,0.00229327576041,0.0,0.818770821529,-0.573982511304,-0.0117968399047,0.0,-0.00834323231241,0.00864972836019,-0.999927783729,0.0,0.65950491859,0.257970045635,0.303541107374,1.0,-0.00956,-0.0125645714286,0.479
0.463281216958,0.534506992879,-0.124020461353,-1.37626093495,0.0783449233563,1.90159998771,0.156643246042,-0.00815277919594,-0.0486823401458,-0.00204073837205,-0.0900547484676,-0.00269152055584,0.0331574074794,-0.00616328574498,0.574059178067,0.818798903445,0.00227215662719,0.0,0.818759159936,-0.573998489312,-0.011828744264,0.0,-0.0083813097272,0.008650914818,-0.999927455029,0.0,0.659343700167,0.257759509474,0.303525951594,1.0,-0.00988,-0.0129851428571,0.495
0.463154696184,0.533541949805,-0.12402750981,-1.37782464675,0.0782524612629,1.9021663377,0.156471798086,-0.00719106658021,-0.0554433132209,-0.00266022179686,-0.081038859942,0.000561687841421,0.0303137830309,-0.0118590519258,0.574088140301,0.818778678474,0.00224270870839,0.0,0.818738529401,-0.574027539754,-0.01184698184,0.0,-0.00841284154587,0.00863757010248,-0.999927305598,0.0,0.659157690787,0.257522534471,0.303511654333,1.0,-0.01024,-0.0134582857143,0.513
0.463026473888,0.532590182715,-0.124027516841,-1.37933726097,0.0781654057654,1.90274901682,0.156269950676,-0.00756017257468,-0.0587424529562,0.000576377083534,-0.0897122011694,-0.00808076510546,0.0372687383955,-0.0116006308042,0.574087343751,0.818779184268,0.00226186981624,0.0,0.818739256912,-0.57402663995,-0.0118403006835,0.0,-0.00839637986083,0.00864941490923,-0.999927341574,0.0,0.658984609907,0.257296410952,0.303513301961,1.0,-0.01058,-0.0139051428571,0.53
0.462899939996,0.531732804601,-0.124027625317,-1.38070348642,0.0780886571432,1.90325140886,0.156106670218,-0.0106280002094,-0.0634466323295,-0.000677861274637,-0.0928515526622,-0.00441241585581,0.0318074369414,-0.00807991694811,0.574111271826,0.818762415417,0.00225866411625,0.0,0.81872237305,-0.57405050209,-0.0118508995032,0.0,-0.00840664568614,0.00865312043065,-0.999927223259,0.0,0.658825778715,0.257083729396,0.30351094211,1.0,-0.01088,-0.0142994285714,0.545
0.462769918219,0.530677846504,-0.124022554842,-1.38242311693,0.0779805420123,1.90385311104,0.155871966456,-0.011275573847,-0.0603323012379,0.0010213208403,-0.0987342622111,-0.0123898410472,0.0379208216925,-0.00888754667967,0.574086393398,0.818780008816,0.00220385592016,0.0,0.818739183594,-0.574025772512,-0.0118873311664,0.0,-0.00846820205926,0.00862890440641,-0.99992691311,0.0,0.658610567273,0.256834116948,0.303487848584,1.0,-0.01124,-0.0147725714286,0.563
0.462630288398,0.529651545969,-0.124028397037,-1.38406469689,0.0778748534133,1.90445135255,0.155654864148,-0.00543729080615,-0.0592840380498,-0.000418998129518,-0.0976370415408,-0.00958930933217,0.0366479422796,-0.0122492666706,0.574089968992,0.818777549541,0.00218604012522,0.0,0.818736536066,-0.574029463414,-0.011891448404,0.0,-0.00848176284486,0.00861671806387,-0.999926903263,0.0,0.658428648676,0.256595003002,0.303484293695,1.0,-0.01156,-0.0151931428571,0.579
0.462495113616,0.52864607086,-0.124036450452,-1.38563478299,0.0777780054042,1.90504055615,0.155442951295,-0.00967922362739,-0.0597801106204,-0.000118599272844,-0.0974331724393,-0.00839619131854,0.0392656175781,-0.0198633298376,0.574089799193,0.818777628403,0.00220104293541,0.0,0.818736858046,-0.574029282315,-0.0118780142688,0.0,-0.00846215217921,0.00862128779024,-0.999927030026,0.0,0.65823517028,0.256338373236,0.303493603405,1.0,-0.0119,-0.01564,0.596
0.4623558892,0.527528163277,-0.124031712363,-1.38735577073,0.0776798072572,1.90570959994,0.155196099368,-0.00870728462127,-0.0686210864456,0.000117173881165,-0.10072727815,-0.00711525359716,0.0325770075729,-0.0170060757706,0.574065237591,0.81879468729,0.00226052130779,0.0,0.81875463819,-0.574004434535,-0.0118532053557,0.0,-0.0084079541967,0.00865549209924,-0.999927191731,0.0,0.658035181623,0.256089392072,0.303519288119,1.0,-0.01224,-0.0160868571429,0.613
0.462206638784,0.526371072605,-0.124037170359,-1.38914780643,0.0775602043581,1.90638896929,0.154971791881,-0.0108824615336,-0.0672436381614,-0.000704717612981,-0.109551780514,-0.000931418438416,0.0423467771059,-0.0120636245689,0.574072227574,0.818789704823,0.00228991364227,0.0,0.818750162566,-0.574011437629,-0.0118231836161,0.0,-0.00836642548091,0.00866239530036,-0.999927480287,0.0,0.657827166449,0.255817259164,0.303539637434,1.0,-0.01258,-0.0165337142857,0.63
0.462068996208,0.525254006773,-0.124043446465,-1.39087565096,0.0774482868624,1.90701383731,0.154734421707,-0.0136713928003,-0.072715457302,-0.00241609566512,-0.101920539866,-0.0065663443013,0.0358476581897,-0.0150126737554,0.574057785508,0.818799810281,0.00229705944383,0.0,0.818760409523,-0.573997020099,-0.0118135353165,0.0,-0.0083545760516,0.00866256003484,-0.999927577934,0.0,0.657618524561,0.255556972525,0.30355738789,1.0,-0.0129,-0.0169542857143,0.646
0.461917688008,0.524096968783,-0.124048862305,-1.39274429458,0.0773235337537,1.90768086363,0.154481983098,-0.00808891425241,-0.0685137380393,-0.00072845373891,-0.11213425582,-0.0127765629549,0.0450209882022,-0.0156934322843,0.574038174194,0.818813693771,0.00224863572107,0.0,0.81877374187,-0.573977680074,-0.0118291717186,0.0,-0.00839538271179,0.00863168620573,-0.999927503143,0.0,0.657376913223,0.255251909213,0.30354103399,1.0,-0.01326,-0.0174274285714,0.664
0.461755130381,0.522881098346,-0.12404743704,-1.39466680971,0.077224554881,1.90840231105,0.154216210357,-0.0124119158902,-0.072142491177,0.000329454955609,-0.112254762946,-0.00449452714091,0.0449511325347,-0.011256888709,0.574036551681,0.818814764893,0.00227267005805,0.0,0.818774924248,-0.573975756624,-0.0118406559181,0.0,-0.00839100792857,0.00865794123971,-0.999927312878,0.0,0.657159947796,0.25498752285,0.303541757655,1.0,-0.01358,-0.017848,0.68
0.46158931801,0.521655528238,-0.124047632649,-1.39662165674,0.0770971695398,1.90917126737,0.1539467385,-0.0151239918079,-0.0671400150133,0.000623050406761,-0.114728179108,-0.00744524036193,0.041380015691,-0.0162784725604,0.574022312568,0.8188246749,0.00229855409799,0.0,0.818785278882,-0.573961530598,-0.0118142024798,0.0,-0.00835463972922,0.00866380489186,-0.999927566617,0.0,0.656934412326,0.25469408731,0.303539148721,1.0,-0.01392,-0.0182948571429,0.697
0.461420598164,0.520387083103,-0.124060991481,-1.39863940294,0.076968626855,1.90991986486,0.153683870202,-0.014003005773,-0.0759203986093,-0.000201211769043,-0.117522677806,-0.0118004715779,0.0481176206718,-0.0150558344018,0.574027676326,0.818820937964,0.00229025423839,0.0,0.818781517987,-0.57396701268,-0.0118085163961,0.0,-0.00835469094166,0.00865379968208,-0.999927652828,0.0,0.656694209342,0.254382677469,0.303535024344,1.0,-0.01426,-0.0187417142857,0.714
0.461248134849,0.519062838626,-0.124065255414,-1.40070672317,0.0768353932891,1.91065648835,0.15339884562,-0.0138690310094,-0.0766085356193,-0.000387619421313,-0.116598352224,-0.00934668985907,0.0454469553751,-0.0154461946073,0.574012315106,0.81883173376,0.0022805251887,0.0,0.818792200083,-0.573951704137,-0.0118119136148,0.0,-0.00836321940372,0.00864762661005,-0.999927634939,0.0,0.656439788096,0.254067467826,0.303544745883,1.0,-0.0146,-0.0191885714286,0.731
0.461090110679,0.517776061242,-0.124071640204,-1.40267860197,0.0767095678413,1.91136953847,0.15312947336,-0.00694808322607,-0.0789455033836,-0.000168289696363,-0.12424200153,-0.010405175396,0.0447330507827,-0.0148998690802,0.573996127372,0.818843025121,0.00230062476845,0.0,0.818803782336,-0.573935471752,-0.0117977624312,0.0,-0.00834026589295,0.0086557968602,-0.999927755963,0.0,0.656197944875,0.253770968708,0.303571214104,1.0,-0.01492,-0.0196091428571,0.747
0.460905762933,0.516447893773,-0.124078031282,-1.40481833626,0.0765672359987,1.91215701685,0.152828110262,-0.014598595217,-0.0774522052206,-0.000141555910644,-0.118803722296,-0.0115686646639,0.0453548420401,-0.0244509226984,0.573979597274,0.81885469563,0.00227073979708,0.0,0.818815151105,-0.573919148378,-0.0118028110008,0.0,-0.00836172714823,0.0086340550873,-0.999927764697,0.0,0.655939158575,0.253440250285,0.303552956806,1.0,-0.01526,-0.020056,0.764
0.460719328293,0.514987258574,-0.124087296618,-1.40712863149,0.0764268626365,1.91303208934,0.152513296976,-0.00997810235109,-0.0774222523804,-0.00170518660496,-0.126650585414,-0.00607950318369,0.0571306849582,-0.0159550476039,0.573965213828,0.818864727872,0.00228859423593,0.0,0.818825442197,-0.573904725822,-0.0117901565642,0.0,-0.00834126889426,0.00864126529179,-0.999927873283,0.0,0.655661138479,0.253094255277,0.303553671598,1.0,-0.01562,-0.0205291428571,0.782
0.460539521995,0.513734443188,-0.124083428341,-1.40913249129,0.0763063469682,1.91372353849,0.15224807546,-0.00868939763532,-0.0863283071546,0.000855944783079,-0.132791983667,-0.00383742773911,0.0467634970415,-0.0170604962744,0.573965105883,0.81886493598,0.00224070360305,0.0,0.818824885538,-0.573904656582,-0.0118321121772,0.0,-0.00840311333462,0.00862612946959,-0.999927486159,0.0,0.655407176826,0.252784795104,0.303537802576,1.0,-0.01592,-0.0209234285714,0.797
0.460334467547,0.512250744944,-0.124096760338,-1.41153263743,0.0761654781958,1.91456424474,0.151906679275,-0.0125763679362,-0.0865220336142,-0.000603979481325,-0.133328508747,-0.0105016266671,0.0498463672485,-0.0210296972998,0.573950626138,0.818875257714,0.00217668579569,0.0,0.818834266921,-0.57389032207,-0.011878065988,0.0,-0.00847763865557,0.00859993390435,-0.999927082731,0.0,0.655105403059,0.252411652206,0.303508200981,1.0,-0.01628,-0.0213965714286,0.815
0.460162638087,0.510975642465,-0.124097211904,-1.41356583202,0.0760391725664,1.91533496989,0.151623049145,-0.0100968456519,-0.0876101260474,0.00625891467591,-0.132972334847,-0.0154410474297,0.0494763925968,-0.0125124551458,0.573931738552,0.818888475319,0.00218434742035,0.0,0.818847590792,-0.573871412892,-0.0118731386042,0.0,-0.00846940489074,0.00860318434172,-0.999927124545,0.0,0.654858628044,0.252106205398,0.303500215393,1.0,-0.01658,-0.0217908571429,0.83
0.459948843365,0.509498904792,-0.12410320105,-1.41591406314,0.075893423143,1.91621760034,0.151290141795,-0.0156167474665,-0.0908848749621,-0.00161719473733,-0.143104696657,-0.00903712028049,0.0544598922161,-0.02100050764,0.573921627515,0.818895547635,0.00218961997984,0.0,0.818854752596,-0.573861303323,-0.0118678389479,0.0,-0.00846214522159,0.00860435583145,-0.999927175928,0.0,0.654576422838,0.251739835872,0.303492893853,1.0,-0.01692,-0.0222377142857,0.847
0.459748248405,0.507998582897,-0.124103922411,-1.41829025118,0.0757427263619,1.91706734997,0.150953697727,-0.0105949107254,-0.0910174761001,-0.00112805940233,-0.146134600061,-0.00616089209739,0.0542690478615,-0.0226354706895,0.57389341301,0.818915386955,0.0021648123829,0.0,0.818874228252,-0.573833150111,-0.0118853287666,0.0,-0.00849100097497,0.00859378641697,-0.999927022206,0.0,0.654276359549,0.251379294457,0.303485228121,1.0,-0.01726,-0.0226845714286,0.864
0.459541614384,0.506557230361,-0.12410524235,-1.42055026682,0.0755967692141,1.91789743269,0.150637422396,-0.0134959522318,-0.0923303186615,0.000796928480925,-0.145889330544,-0.0110560638142,0.0532520946175,-0.0220912088514,0.573882042596,0.818923341775,0.00216988107212,0.0,0.818882270935,-0.573821782953,-0.011880010868,0.0,-0.00848385651527,0.00859476751889,-0.999927074416,0.0,0.653999081615,0.251026946546,0.303489411583,1.0,-0.01758,-0.0231051428571,0.88
0.459323631072,0.504956599358,-0.124116350375,-1.42300609974,0.0754475138806,1.91884253216,0.150307887196,-0.00979814982302,-0.0929929477875,-4.16722762767e-05,-0.146782979903,-0.00782399527786,0.0571602750765,-0.0213610387502,0.573885277108,0.818920877844,0.00224308962223,0.0,0.818880814894,-0.573824783738,-0.0118353481928,0.0,-0.00840523514109,0.00862912127237,-0.999927442512,0.0,0.653706342298,0.250647585316,0.303521462759,1.0,-0.01792,-0.023552,0.897
0.459099231468,0.503290084521,-0.124118124639,-1.42548223537,0.0752881954524,1.9197851964,0.149959837756,-0.00360550526184,-0.0984672435628,0.00105654977729,-0.145705009914,-0.0137129767789,0.0659343515688,-0.0187629792353,0.573869501504,0.818931626208,0.00235239050598,0.0,0.818893065519,-0.57380867462,-0.0117685631158,0.0,-0.00828798602151,0.00868014284105,-0.999927979611,0.0,0.653408958535,0.250266277086,0.303588659844,1.0,-0.01826,-0.0239988571429,0.914
0.458843422804,0.501381364426,-0.124131911063,-1.42831518686,0.0751056786832,1.9208150219,0.149564526378,-0.00854985116367,-0.104563659345,8.31618577298e-05,-0.150978976342,-0.0133099945995,0.0525687193134,-0.0180156303782,0.573860529501,0.818937665132,0.00243725448084,0.0,0.818900282774,-0.573799468782,-0.0117150927856,0.0,-0.0081955931968,0.00871886559782,-0.999928404254,0.0,0.653060145432,0.249820627996,0.303662320719,1.0,-0.01864,-0.0244982857143,0.933
0.458635103149,0.499878309143,-0.124137286156,-1.43061067472,0.074961281479,1.92161765483,0.149242624132,-0.0126320306473,-0.0980760327221,-0.00198608316272,-0.152031375603,-0.0140408008356,0.0534167874773,-0.0274533067615,0.573849104546,0.818945646063,0.00244558911574,0.0,0.818908321393,-0.573787960979,-0.0117168207958,0.0,-0.00819234751242,0.0087265684129,-0.999928363657,0.0,0.652767731971,0.249460218338,0.303688146781,1.0,-0.01894,-0.0248925714286,0.948
0.458370536749,0.498098072533,-0.124132786743,-1.43340109317,0.0747894184978,1.92265934573,0.148839541902,-0.0124137711514,-0.102815324951,0.000384014929305,-0.157580920977,-0.00857442931062,0.0561828855126,-0.0145076559972,0.573827992755,0.818960358325,0.00247247316339,0.0,0.818923324275,-0.573766691413,-0.0117098114864,0.0,-0.00817140598912,0.00874435191878,-0.999928379652,0.0,0.652423161128,0.249025626748,0.3036916365,1.0,-0.0193,-0.0253657142857,0.966
0.458107942657,0.496426029836,-0.124133061881,-1.43606777337,0.0746331433416,1.92360596986,0.148450832759,-0.0164664585165,-0.101504778394,-0.000294284011111,-0.153501740119,-0.00889306163976,0.0599651588171,-0.0152036828248,0.573817728226,0.818967657549,0.00243671168965,0.0,0.818929976396,-0.573756364714,-0.011750515359,0.0,-0.00822537156155,0.00873831851499,-0.999927989933,0.0,0.652085076675,0.248599052901,0.303669879216,1.0,-0.01964,-0.0258125714286,0.983
0.457854740042,0.494850651579,-0.124130557309,-1.43863498524,0.0744662475753,1.92449081622,0.148081306381,-0.0155103241201,-0.0948626450052,-0.000958236308646,-0.159418056356,-0.0157825972914,0.0520521729593,-0.0204481132763,0.573804688622,0.818977068573,0.00234251329062,0.0,0.818938065422,-0.573743578983,-0.0118109051091,0.0,-0.00832901884369,0.00869569344996,-0.999927503552,0.0,0.651752563972,0.248185090705,0.303622104357,1.0,-0.01996,-0.0262331428571,0.999
0.457583076683,0.493127907596,-0.124137753404,-1.44144449948,0.0742838565345,1.92551386602,0.147686376197,-0.014455067811,-0.108641073406,-0.000562658915537,-0.171958895626,-0.012671228881,0.0614976566282,-0.0327027584408,0.573800750574,0.818980003833,0.00228010160138,0.0,0.818940203377,-0.573739897759,-0.0118414489134,0.0,-0.00838988614811,0.00866206591514,-0.999927286569,0.0,0.65139912194,0.247733556848,0.303573325782,1.0,-0.0214285714286,-0.0281632653061,1.016
0.457266697443,0.49113513788,-0.124142609099,-1.44463638041,0.0740972402642,1.92667141824,0.147235264234,-0.019509042414,-0.115593436242,-0.000619569033488,-0.181595504897,-0.00746868267738,0.0676994608919,-0.0268354301857,0.573803386832,0.81897824301,0.00224891928781,0.0,0.818937856055,-0.573742470364,-0.0118790791691,0.0,-0.00843856934727,0.00865814769585,-0.999926910842,0.0,0.650995969854,0.247221070061,0.303541277331,1.0,-0.0231668571429,-0.0304478693878,1.034
0.456982399175,0.489372844501,-0.124153670666,-1.44749712717,0.073912083991,1.92767075721,0.146826046848,-0.0141448077047,-0.119804703004,-0.00117327069042,-0.189156764224,-0.00805641798586,0.0676882077833,-0.0331102564001,0.573801151151,0.818980053206,0.00215830701494,0.0,0.818938443096,-0.573740555474,-0.0119309816911,0.0,-0.008533092043,0.00861369745562,-0.999926492576,0.0,0.650627477005,0.246751867305,0.303492202412,1.0,-0.0246154285714,-0.0323517061224,1.049
0.456625683877,0.487174840356,-0.1241649558,-1.45088805722,0.0736955389207,1.92897444269,0.146338457871,-0.0239516473362,-0.12849163444,0.000920822200755,-0.201183222895,-0.0156028173984,0.0836184245274,-0.0196263323734,0.573811936172,0.818972265448,0.00224437840068,0.0,0.818931897616,-0.57375111687,-0.0118722306165,0.0,-0.0084354753989,0.00865058724999,-0.999927002383,0.0,0.650219879545,0.246193870321,0.3035189368,1.0,-0.0262571428571,-0.0345093877551,1.066
0.456247544749,0.484837834803,-0.124188781619,-1.45444806161,0.0734763077846,1.93031778749,0.145790994066,-0.0208349624729,-0.13558914974,-0.00166345853248,-0.215714968927,-0.0175837618228,0.0822946084146,-0.0373809835407,0.573807016454,0.818975437599,0.0023425156407,0.0,0.818936417746,-0.573745889044,-0.0118129334272,0.0,-0.00833065399488,0.00869688289466,-0.999927479586,0.0,0.649788604732,0.245598916104,0.303564316116,1.0,-0.0278988571429,-0.0366670693878,1.083
0.455837805246,0.482349019966,-0.124225256682,-1.45827679815,0.0732339026824,1.93161370909,0.145216688154,-0.0233416051328,-0.144252036247,-0.00294652767341,-0.233603166321,-0.0161645446097,0.0751414681333,-0.0373077867336,0.573820066504,0.818966411584,0.00230105963152,0.0,0.818926798223,-0.573759041118,-0.0118409792266,0.0,-0.00837727178754,0.00867915798451,-0.99992724412,0.0,0.649295279819,0.24493991256,0.303582086169,1.0,-0.0295405714286,-0.0388247510204,1.1
0.4554051531,0.479742945605,-0.124249430874,-1.4623286411,0.0729934963275,1.93308977902,0.144606855054,-0.028951073335,-0.154945782379,0.000188386659772,-0.240795275185,-0.0074833930941,0.0929573265518,-0.0361786620098,0.573825323508,0.818962648432,0.00232926493704,0.0,0.818923287723,-0.573764069235,-0.0118401258763,0.0,-0.00836033327918,0.00870182089861,-0.99992718892,0.0,0.648786305951,0.244260996111,0.303588834805,1.0,-0.0311822857143,-0.0409824326531,1.117
0.455000106342,0.477327399355,-0.124264793917,-1.46600942567,0.0727639871363,1.93443366187,0.144081138408,-0.0274641180389,-0.160883410952,0.00145078499721,-0.251683734338,-0.00893588930163,0.0877686967368,-0.0296753085794,0.573853930926,0.818942414809,0.00239459569747,0.0,0.818903884033,-0.57379240139,-0.0118091373082,0.0,-0.00829716235446,0.00873783181284,-0.999927401061,0.0,0.648325319084,0.243639742408,0.303626817983,1.0,-0.0326308571429,-0.0428862693878,1.132
0.45451803688,0.474467682186,-0.124289681903,-1.47038961878,0.0724888335652,1.93604821508,0.143459369909,-0.028620071569,-0.173222721269,-0.000397142649117,-0.258626239268,-0.00949462140755,0.0931136996988,-0.0404608725342,0.573894226268,0.818913955711,0.00246923059829,0.0,0.818876432637,-0.573832450822,-0.011766620487,0.0,-0.00821908332535,0.00877495924903,-0.999927720768,0.0,0.647777849664,0.242897439266,0.303661555683,1.0,-0.0342725714286,-0.0450439510204,1.149
0.454009484388,0.471523226679,-0.124293596188,-1.47500437917,0.0722030109913,1.93764353776,0.142768894794,-0.0323774201758,-0.171997493064,-0.000541426844943,-0.270979936514,-0.025539246851,0.0997187888911,-0.0445105557171,0.573891141356,0.818916290302,0.00241127615056,0.0,0.818877729002,-0.573829282581,-0.0118307353385,0.0,-0.00830488092604,0.00876426328386,-0.999927105664,0.0,0.647169358141,0.242121505936,0.303639177648,1.0,-0.0359142857143,-0.0472016326531,1.166
0.453501742907,0.468383276445,-0.124289150003,-1.47971612493,0.0718983356365,1.93943941821,0.142024523464,-0.0319473938902,-0.19183327196,0.00300418244717,-0.282206403178,-0.0211091933122,0.112901823044,-0.0431042210073,0.573835491542,0.818954714961,0.00259815167562,0.0,0.818918658916,-0.573773027607,-0.0117256032833,0.0,-0.00811214492543,0.00885641272293,-0.999927875928,0.0,0.646577230384,0.241352782263,0.303720280621,1.0,-0.037556,-0.0493593142857,1.183
0.452881148987,0.464760048072,-0.124291998348,-1.48527741053,0.0715283583441,1.94138931153,0.141159859707,-0.0339204319103,-0.192231150951,-0.000489736995009,-0.306374323988,-0.0168737017345,0.106205517964,-0.0471640926334,0.573798353057,0.818980720878,0.00260302913463,0.0,0.818944642586,-0.573735782791,-0.0117333211575,0.0,-0.00811606912116,0.00886446778884,-0.999927772708,0.0,0.645844487251,0.240414020478,0.303741632048,1.0,-0.0393908571429,-0.0517708408163,1.202
0.452364276162,0.461826095297,-0.124299102315,-1.48989973931,0.0712169450652,1.94299759693,0.140473713641,-0.0333725356259,-0.192807238345,-0.000223773642063,-0.311052399424,-0.0173394905103,0.103531418367,-0.0524684295357,0.573795582784,0.81898290245,0.00252617779537,0.0,0.81894575593,-0.57373321866,-0.011780897765,0.0,-0.00819915958684,0.00882879966478,-0.999927410405,0.0,0.645228240908,0.239628564279,0.303702967549,1.0,-0.0408394285714,-0.053674677551,1.217
0.451759272113,0.458374948981,-0.124302806101,-1.49525281417,0.0708557648684,1.94488317111,0.139673362955,-0.0337902849562,-0.204846288493,0.00065715142686,-0.31512128794,-0.0210725264155,0.117253136219,-0.0470675976365,0.573782346924,0.818992211655,0.00251445976369,0.0,0.818954832976,-0.573719942261,-0.0117964528146,0.0,-0.0082187655066,0.00882799532341,-0.99992725655,0.0,0.644475234122,0.238666391442,0.303700542169,1.0,-0.0425777142857,-0.0559592816326,1.235
0.451128941722,0.455068146851,-0.124314796605,-1.50051881252,0.070502535905,1.94672954187,0.1388518583,-0.0381724606433,-0.208839228677,0.000578490965293,-0.32410725846,-0.0206460483887,0.115332088822,-0.0473139396504,0.573785006877,0.818990699261,0.00239735463982,0.0,0.818951739476,-0.573722986249,-0.011862982772,0.0,-0.00834041567155,0.00877028825906,-0.999926757073,0.0,0.643817257895,0.237798809995,0.303621820325,1.0,-0.0440262857143,-0.0578631183673,1.25
0.450487590631,0.451532302023,-0.124370033463,-1.50584136814,0.0701363620407,1.9486566777,0.137987547119,-0.0423072434055,-0.224119469773,0.00178577977466,-0.33707679094,-0.0259496359813,0.127229609717,-0.055393897207,0.573784978,0.81899042967,0.00249439985222,0.0,0.818953051883,-0.573722928438,-0.0117748502225,0.0,-0.00821255337219,0.00879919795928,-0.999927561418,0.0,0.643133768056,0.236845070879,0.30368476233,1.0,-0.0455714285714,-0.059893877551,1.266
0.449692733226,0.447188560634,-0.124408909688,-1.51239340552,0.0696953211244,1.95094240204,0.137029489066,-0.0462648984408,-0.235946095009,-5.47880491135e-06,-0.351297408379,-0.0201397926384,0.114572152642,-0.0503497527943,0.573854164686,0.818941787895,0.00254806062118,0.0,0.818905150383,-0.57379195513,-0.0117428193265,0.0,-0.00815478577342,0.00882545565919,-0.999927802794,0.0,0.642262134639,0.235681897596,0.303743735722,1.0,-0.0474062857143,-0.0623054040816,1.285
0.449003819623,0.443482948665,-0.124418859605,-1.5181293366,0.069302354767,1.95289200844,0.13615784994,-0.0428461093511,-0.232311207827,0.00091321857045,-0.358541138393,-0.0223230557677,0.126457903444,-0.0590770535108,0.573859423333,0.818938337343,0.00247159520078,0.0,0.818900571141,-0.573797351192,-0.0117983579884,0.0,-0.00824409161932,0.00879475895944,-0.999927340944,0.0,0.641473290968,0.234677922152,0.303720479329,1.0,-0.0489514285714,-0.0643361632653,1.301
0.448201759348,0.439227418454,-0.124422778677,-1.52473017309,0.0688442071534,1.95523828155,0.13506666891,-0.0400004325322,-0.235831061888,0.00126913706768,-0.368841515983,-0.0231419113298,0.127367801006,-0.0578891102812,0.573791031371,0.818986299681,0.00245767227942,0.0,0.818948358687,-0.573729026957,-0.0118040811667,0.0,-0.00825750181289,0.00878595174324,-0.999927307716,0.0,0.640579457813,0.233527988008,0.303692386433,1.0,-0.0506897142857,-0.0666207673469,1.319
0.447380566906,0.435033484563,-0.124445427865,-1.53105890266,0.0684233424212,1.95751862217,0.134045191912,-0.0453684264912,-0.254752477827,-0.00404748424898,-0.37106437788,-0.0304181541445,0.134495364816,-0.0664145775225,0.573804982097,0.818976165931,0.00257469564772,0.0,0.818939757971,-0.573742555488,-0.011743071916,0.0,-0.00814024027836,0.00884692413183,-0.999927731599,0.0,0.639739677662,0.232388575309,0.303741757249,1.0,-0.0523314285714,-0.0687784489796,1.336
0.446623381933,0.431254321184,-0.124465709211,-1.53680445788,0.0680024426236,1.95958069698,0.133125175911,-0.0533626046051,-0.249577148509,-0.000556616547943,-0.400439866162,-0.0281694966057,0.13881862753,-0.0623036362384,0.573818161033,0.81896676082,0.0026286198996,0.0,0.818931349857,-0.573755864037,-0.0116790241261,0.0,-0.00805670159284,0.00885446586525,-0.999928341429,0.0,0.638973140571,0.231341336823,0.303762977725,1.0,-0.05378,-0.0706822857143,1.351
0.445691768308,0.426597817949,-0.124508455268,-1.54403581312,0.0674690478608,1.96189389465,0.131969780435,-0.0499951281931,-0.259226953326,-0.00357723324768,-0.403096876242,-0.0240307399054,0.131831626543,-0.0703990884251,0.573825682732,0.818962249236,0.00238055980685,0.0,0.818923572858,-0.573764249068,-0.0118116556948,0.0,-0.0083075799517,0.00872749596701,-0.99992740483,0.0,0.637939350171,0.230009097581,0.303693298315,1.0,-0.0555182857143,-0.0729668897959,1.369
0.444897110111,0.422605576269,-0.12454982923,-1.55010241431,0.0670377853065,1.96397434538,0.130958932595,-0.0598596305751,-0.269183843131,-0.00282431038479,-0.402349298748,-0.0293391607265,0.139395123606,-0.062621063918,0.573822541472,0.818964504321,0.00236187676002,0.0,0.818925659921,-0.573761258168,-0.0118122415537,0.0,-0.00831881333041,0.0087124996958,-0.999927442215,0.0,0.637042072261,0.228814907961,0.303699227757,1.0,-0.0570634285714,-0.0749976489796,1.385
0.443943892788,0.417982172088,-0.124567990797,-1.55705065796,0.0665679836269,1.96644984177,0.129869935811,-0.0551153747216,-0.275069471367,-0.00580524634243,-0.406633476134,-0.0257812835077,0.156454703328,-0.0677665605633,0.573878384682,0.818924995291,0.00248969550046,0.0,0.818887781715,-0.573816582174,-0.011750654491,0.0,-0.00819443387921,0.00878239693211,-0.999927857777,0.0,0.636149803377,0.227618369956,0.303746509505,1.0,-0.0586085714286,-0.0770284081633,1.401
0.442831119793,0.412699414873,-0.124574644576,-1.56497475295,0.0660221991998,1.9692977965,0.128503694791,-0.0598628410255,-0.277935663658,0.00101815108141,-0.429280522196,-0.0293760586397,0.150458461772,-0.0674255006902,0.573851143331,0.818943559116,0.00265691194826,0.0,0.818908515855,-0.573788743496,-0.0116647931572,0.0,-0.00802845562882,0.00886979348132,-0.999928432771,0.0,0.635065643546,0.226158468913,0.303800591106,1.0,-0.0604434285714,-0.0794399346939,1.42
0.441871402646,0.408139025731,-0.124606618664,-1.57196519617,0.0655174168327,1.97149828132,0.127373347429,-0.0618141389229,-0.28819060712,-0.00197558405825,-0.440740431779,-0.0305487439384,0.141999218644,-0.0751269281963,0.57387669726,0.818926290151,0.00245245655171,0.0,0.818888304803,-0.573814726612,-0.0118046889972,0.0,-0.00826007351312,0.00878289302003,-0.999927313346,0.0,0.634035893159,0.224847320031,0.303749307024,1.0,-0.0619885714286,-0.0814706938775,1.436
0.440827058998,0.403243098507,-0.124632152434,-1.57947790129,0.0650042920161,1.97406113311,0.126122295987,-0.0592824040095,-0.287093428682,0.000614487428725,-0.44409635843,-0.0293424105912,0.151589201143,-0.0687290480208,0.573884997594,0.818920615327,0.0024046269679,0.0,0.818881726208,-0.573822910823,-0.0118630686886,0.0,-0.00833524194322,0.00877731121862,-0.999926738591,0.0,0.632958709689,0.22345444481,0.303702122097,1.0,-0.0636302857143,-0.0836283755102,1.453
0.439726974864,0.398126471781,-0.124648614239,-1.58689337365,0.0644724634423,1.97678836203,0.12483040243,-0.0624850856953,-0.301146399841,-0.00354251927794,-0.432761083291,-0.0313765997504,0.154859509541,-0.0813082466739,0.573884658715,0.818919768436,0.00274922843865,0.0,0.818885709986,-0.57382169818,-0.0116447232226,0.0,-0.00795868034287,0.00893420390544,-0.999928417142,0.0,0.631947539209,0.222055418297,0.303855999614,1.0,-0.065272,-0.0857860571429,1.47
0.438657638863,0.393291134225,-0.124657940867,-1.59420132864,0.0639020630515,1.97920193413,0.123608217874,-0.0710926094966,-0.296920773249,-0.00421390039271,-0.471678150677,-0.0336442079057,0.150968253167,-0.0797002216747,0.573887942002,0.818917735448,0.00266823810405,0.0,0.818882746654,-0.573825395625,-0.0116708812448,0.0,-0.00802654338987,0.00888292319012,-0.99992833157,0.0,0.630877794268,0.220666466986,0.30383946857,1.0,-0.0668171428571,-0.0878168163265,1.486
0.437440997402,0.387742219956,-0.124673023805,-1.60265404452,0.0632770877571,1.98189502811,0.122160663002,-0.0681228370871,-0.306929905766,0.000352415789914,-0.471758721782,-0.0336721141918,0.156046828617,-0.082758228385,0.573856154713,0.818940604716,0.00247922288614,0.0,0.818902811271,-0.573793919363,-0.0118097712053,0.0,-0.00824909697626,0.00880752205522,-0.999927187326,0.0,0.629602075731,0.219072352903,0.303775695772,1.0,-0.0685554285714,-0.0901014204082,1.504
0.436245016738,0.382338327944,-0.124678825162,-1.61057865343,0.0627087104291,1.98459844877,0.120718956425,-0.0704137064823,-0.320727530821,-0.00050626140594,-0.463822978957,-0.0241689902564,0.16083330999,-0.0832614412011,0.573797382352,0.818981311157,0.00263113723206,0.0,0.818945373079,-0.573734464435,-0.0117467924638,0.0,-0.00811098554478,0.00889520768919,-0.999927540972,0.0,0.628445205347,0.217567377104,0.303857771031,1.0,-0.0701971428571,-0.0922591020408,1.521
0.43513904504,0.377569432383,-0.124679981538,-1.61767082496,0.0621937157563,1.98707416499,0.119472724042,-0.0751847668474,-0.321282381264,0.000147173111532,-0.481894773459,-0.0391067618254,0.155537851606,-0.0827548241469,0.573801064289,0.818978339318,0.0027505000943,0.0,0.818943944192,-0.573737713944,-0.0116875476511,0.0,-0.00799393663776,0.00895900516548,-0.999927914004,0.0,0.62741688442,0.216205041091,0.303885345738,1.0,-0.0716457142857,-0.0941629387755,1.536
0.433741157741,0.371739550033,-0.124729383156,-1.62652015173,0.0614875282991,1.98988210738,0.11790997182,-0.0802821717536,-0.325978502016,-0.00160711811094,-0.496022900649,-0.0270737524415,0.162376892658,-0.0839492183928,0.573821865364,0.818964472672,0.00253105381638,0.0,0.818927303799,-0.573759387432,-0.0117891190101,0.0,-0.0082028116757,0.00883777349354,-0.999927301178,0.0,0.626077305227,0.214441695123,0.303809083029,1.0,-0.073384,-0.0964475428571,1.554
0.432411193518,0.366075057013,-0.124792671006,-1.63490828486,0.0608448644929,1.99264300238,0.116476584211,-0.0785817869021,-0.339456030628,-0.00442908775552,-0.496470959998,-0.0371601454902,0.176772573671,-0.0908192366215,0.573900883662,0.818909092704,0.00253387464753,0.0,0.818872097772,-0.573838533201,-0.0117716696531,0.0,-0.00818605001102,0.00883086088565,-0.999927499612,0.0,0.624821010744,0.212773420765,0.303828953894,1.0,-0.0750257142857,-0.0986052244898,1.571
0.431098658294,0.360683955855,-0.124805536345,-1.64276301541,0.0602297551209,1.99537315444,0.114965732726,-0.0873762454197,-0.330936220872,0.00068609334926,-0.497099006959,-0.0330806392282,0.171785974105,-0.0965242856105,0.573847310786,0.818946007216,0.00272911526303,0.0,0.818911897503,-0.573784658762,-0.0116282585957,0.0,-0.0079571446776,0.00890792138791,-0.999928663848,0.0,0.62366975741,0.2112084141,0.303908492298,1.0,-0.0765708571429,-0.100635983673,1.587
0.429647137255,0.354897495783,-0.124828527061,-1.6514616311,0.0595955347579,1.99807938789,0.113372115747,-0.0840246933865,-0.334371326701,-0.00145894374438,-0.52304301799,-0.0410352421171,0.164285719968,-0.0866079915158,0.573866784325,0.818932897297,0.00256329385006,0.0,0.818895988139,-0.573804008702,-0.0117926718042,0.0,-0.00818673622091,0.0088666644079,-0.999927177155,0.0,0.622311563513,0.209461975687,0.303840618032,1.0,-0.0782125714286,-0.102793665306,1.604
0.428060161144,0.348679567874,-0.12488104145,-1.66071741719,0.0588941134686,2.00106087263,0.111649603843,-0.0884296888501,-0.349022650365,0.000222772535872,-0.504674192519,-0.0418555987407,0.172763516681,-0.0953266915454,0.573910494406,0.818902516461,0.00248190360755,0.0,0.818864370054,-0.573847828045,-0.0118558258256,0.0,-0.0082846901147,0.00883669542908,-0.999926635671,0.0,0.620963647306,0.207670903014,0.303801549673,1.0,-0.0798542857143,-0.104951346939,1.621
0.426711018594,0.343304286194,-0.124896087195,-1.66834717098,0.0583099868297,2.00367979754,0.11022046021,-0.089510655685,-0.349131226893,-0.000804594787234,-0.516126380216,-0.0338413329517,0.163030632266,-0.0944090018701,0.573936691722,0.818883147949,0.00279478104439,0.0,0.818849262782,-0.573873097406,-0.0116747511897,0.0,-0.00795656053965,0.00898924554315,-0.999927940708,0.0,0.619746125557,0.206015853797,0.303949642367,1.0,-0.0813994285714,-0.106982106122,1.637
0.425052223681,0.336876537965,-0.124894304012,-1.67790168885,0.0575358866528,2.00661401295,0.108383826217,-0.0968694497356,-0.358604346842,0.00052898620026,-0.536189328283,-0.0354836420085,0.157274702096,-0.102629996793,0.573871794076,0.818929231278,0.00261247473661,0.0,0.818892664536,-0.573808512551,-0.0118043125468,0.0,-0.00816799361618,0.0089136700329,-0.999926912513,0.0,0.618213302978,0.204077898897,0.303889104958,1.0,-0.0831377142857,-0.109266710204,1.655
0.423469319222,0.330686582759,-0.124889740893,-1.68698446304,0.0567751019476,2.0094727163,0.106652385201,-0.0964577029426,-0.37261580263,0.00276488419466,-0.521982195255,-0.0405215351159,0.173013708804,-0.102157505335,0.573808914858,0.818973488165,0.00254986532967,0.0,0.818936151005,-0.573745922943,-0.0118297669176,0.0,-0.00822544900512,0.00887637351436,-0.99992677331,0.0,0.616758308016,0.202241075511,0.30387908783,1.0,-0.0847794285714,-0.111424391837,1.672
0.421931846243,0.32475696173,-0.124889503522,-1.69542904714,0.0561204925505,2.0123472085,0.104946302735,-0.0999288114642,-0.360682572929,-0.00111588338186,-0.539286846893,-0.0489170379808,0.175041963157,-0.111259006201,0.573741777336,0.819019562993,0.00284170276668,0.0,0.818986155062,-0.573677897672,-0.0116659522219,0.0,-0.00792457359431,0.00902073306191,-0.999927911156,0.0,0.615452188454,0.200518135512,0.303992311642,1.0,-0.0863245714286,-0.11345515102,1.688
0.420198597357,0.318431409494,-0.124923224224,-1.70473048066,0.0553499177958,2.01520360736,0.10319745011,-0.0989094563366,-0.378308777439,-0.00279105731118,-0.550899999028,-0.0446300362863,0.169460089057,-0.104410822391,0.573807557103,0.818973917904,0.00271221411219,0.0,0.818938724354,-0.57374400506,-0.0117443311116,0.0,-0.00806233950137,0.00896029562364,-0.999927353253,0.0,0.613946299949,0.198554734162,0.303948160942,1.0,-0.0879662857143,-0.115612832653,1.705
0.418327080521,0.31160113796,-0.124967323579,-1.71462913653,0.054523980637,2.01826475611,0.10113123077,-0.103891692557,-0.387149840155,-0.00256628091914,-0.536962601096,-0.0463883501949,0.187934594453,-0.114698757531,0.573727801916,0.819029912296,0.00267562601301,0.0,0.818994254887,-0.573664404712,-0.0117604477191,0.0,-0.00809740296005,0.00893879025172,-0.999927262402,0.0,0.612339766385,0.196453092289,0.30395485116,1.0,-0.0897045714286,-0.117897436735,1.723
0.416703668595,0.305819466928,-0.124969742007,-1.72286004239,0.0538289942758,2.02094258313,0.0994590230809,-0.113525515026,-0.387860332946,0.00104024201932,-0.559335957319,-0.0429896782428,0.181662061592,-0.116481703638,0.573718637361,0.819035788661,0.00283706509222,0.0,0.819002517334,-0.573655000493,-0.0116431915939,0.0,-0.00790884630259,0.0090036528164,-0.999928189615,0.0,0.611026305432,0.194698324577,0.304027050862,1.0,-0.0911531428571,-0.119801273469,1.738
0.414682863913,0.298893334574,-0.125028698489,-1.73305477174,0.0529885394427,2.02394365416,0.0974233325053,-0.107337259198,-0.383825544087,-0.00548620562686,-0.57286338653,-0.0536089306152,0.163994383551,-0.100880805531,0.573786228186,0.818989237496,0.00259617238303,0.0,0.818952369508,-0.573722921167,-0.0118225676577,0.0,-0.00819322981281,0.00890993957244,-0.999926739297,0.0,0.60932273443,0.192476347483,0.303928741096,1.0,-0.0928914285714,-0.122085877551,1.756
0.412839367007,0.292584966989,-0.125130826647,-1.7420165171,0.0522776112123,2.02675323495,0.0955640984192,-0.116586238365,-0.41078020019,-0.00437186970606,-0.555425129463,-0.0494812150453,0.18402537789,-0.122820181266,0.573886379718,0.818918672498,0.0027162309353,0.0,0.818883333938,-0.573822583854,-0.0117675213686,0.0,-0.00807816385382,0.00897766932848,-0.999927069702,0.0,0.60787043827,0.190476449615,0.30398717628,1.0,-0.0944365714286,-0.124116636735,1.772
0.410948376238,0.286208997184,-0.12515221226,-1.75109468019,0.0515064089516,2.02961383485,0.0936194045316,-0.113315132343,-0.396475321219,-0.00791724047482,-0.580445509472,-0.0503683797258,0.168128369429,-0.117313709552,0.57386718817,0.818931761228,0.00282271049828,0.0,0.818897942833,-0.573803171448,-0.0116972886199,0.0,-0.00795975418504,0.00902437569698,-0.999927598857,0.0,0.606377177467,0.188485457173,0.304026047193,1.0,-0.0959817142857,-0.126147395918,1.788
0.408767959944,0.279018971611,-0.125179301539,-1.76155759636,0.0505726170062,2.03259512728,0.0913779498875,-0.125142106779,-0.396661117094,-0.00312231242636,-0.581392325604,-0.0496966796942,0.167755214063,-0.129494394299,0.573820648844,0.81896528546,0.00254383035188,0.0,0.81892754334,-0.573757326501,-0.0118724869762,0.0,-0.00826377248703,0.00889606219757,-0.999926282354,0.0,0.604570294145,0.18617283671,0.303930320192,1.0,-0.09772,-0.128432,1.806
0.406646091898,0.272044829339,-0.125233930245,-1.77124759266,0.0497431614957,2.03571130266,0.0892877123711,-0.124912598372,-0.410720662474,-0.00504759112659,-0.565272333315,-0.048450356583,0.186049576401,-0.126643896153,0.573878969924,0.81892342665,0.00284535836984,0.0,0.818890082654,-0.573815078774,-0.0116633959048,0.0,-0.00791887106641,0.00902358711034,-0.999927930581,0.0,0.602981684022,0.183989343086,0.30405846902,1.0,-0.0993617142857,-0.130589681633,1.823
0.404583579195,0.265490169573,-0.125299240673,-1.78060685318,0.0489271230575,2.03847270519,0.0872459570828,-0.128398123095,-0.413442690005,-0.00776267591247,-0.596867339672,-0.0496847355168,0.168286140722,-0.115637206095,0.573922866411,0.818892875856,0.00278355591266,0.0,0.818858642078,-0.573859084006,-0.0117056780737,0.0,-0.00798848133829,0.00899766836111,-0.999927610445,0.0,0.601379515372,0.181856530392,0.304035074613,1.0,-0.100906857143,-0.132620440816,1.839
0.402191003918,0.258030686556,-0.125376083371,-1.79129865184,0.0479620688082,2.04147842629,0.0849055636561,-0.13326772466,-0.420783696526,-0.00468275803144,-0.586430457924,-0.05823271405,0.177838080294,-0.130350599854,0.573975619668,0.818856633025,0.00255919512009,0.0,0.818819254853,-0.573912395692,-0.011846385723,0.0,-0.00823189621371,0.00889522608807,-0.999926552722,0.0,0.599505194801,0.179395229644,0.303963616925,1.0,-0.102645142857,-0.134905044898,1.857
0.400316108052,0.252068830951,-0.125362734994,-1.79943356075,0.0472370139447,2.04401736429,0.083085139359,-0.130863464758,-0.41599374381,0.00119485836846,-0.592347526721,-0.0540479096901,0.179339225859,-0.129604602154,0.573968533641,0.818860669755,0.00284127085961,0.0,0.818827292421,-0.573904667292,-0.011663830734,0.0,-0.00792058613519,0.00902135563708,-0.999927937132,0.0,0.598119865745,0.177558186593,0.304097359304,1.0,-0.103997142857,-0.136681959184,1.871
0.397994920179,0.244890760195,-0.125354175892,-1.80963930561,0.0463537802069,2.0469349713,0.0807205144877,-0.135614765007,-0.42987768077,-6.88933445834e-06,-0.604475963093,-0.0534419296641,0.176261877703,-0.141382717214,0.573875338566,0.818926290442,0.00275200106992,0.0,0.81889112556,-0.573811090189,-0.0117857607514,0.0,-0.00807269602246,0.00901732030651,-0.999926757074,0.0,0.596295951255,0.175263661841,0.30404215293,1.0,-0.105638857143,-0.138839640816,1.888
0.395315866491,0.236679664002,-0.125365739538,-1.82097602978,0.0453529122153,2.05021617122,0.0780892311393,-0.14521965012,-0.452897332199,0.00108776258724,-0.587662022827,-0.0489253212587,0.182912504231,-0.13780533229,0.573848473045,0.818944698838,0.00287352240558,0.0,0.818910884698,-0.57378353512,-0.011754345955,0.0,-0.00797753305624,0.00909854742849,-0.99992678502,0.0,0.594282661885,0.172658227173,0.304114419049,1.0,-0.107473714286,-0.141251167347,1.907
0.393037319759,0.229748275373,-0.125344561473,-1.83059160835,0.0444497503132,2.05304776416,0.0758410213425,-0.136842836286,-0.433206898457,4.83709471613e-05,-0.612730921893,-0.0619008863238,0.170472558017,-0.148792915786,0.573763215622,0.819004123461,0.0029605834191,0.0,0.81897164004,-0.5736982168,-0.0116857071555,0.0,-0.00787231248409,0.00912963854639,-0.999927335558,0.0,0.592562152026,0.170468825721,0.304144567234,1.0,-0.109018857143,-0.143281926531,1.923
0.390465362058,0.222341161416,-0.125379296933,-1.8410872529,0.0434519012134,2.05581934672,0.0733269506816,-0.153896733452,-0.436335712039,-0.00108286194959,-0.621232973477,-0.0615416145539,0.164177966838,-0.152544647852,0.573720755226,0.819034869467,0.00266917991535,0.0,0.818998111996,-0.573656264277,-0.0118882254341,0.0,-0.00820583737547,0.00900674839341,-0.999925768603,0.0,0.590618497671,0.167987898865,0.304038775916,1.0,-0.110660571429,-0.145439608163,1.94
0.388459465626,0.216515143881,-0.125422013705,-1.84889664008,0.0427582545954,2.05817602402,0.0714035895246,-0.156744476556,-0.451941626326,-0.00125885277118,-0.604144912886,-0.0504136978463,0.185120524323,-0.146813721911,0.573748384318,0.819014484038,0.00296872522811,0.0,0.818981892073,-0.573683111085,-0.011708775027,0.0,-0.00788670065608,0.00914939911274,-0.999927041563,0.0,0.589243178582,0.166111892697,0.304167625734,1.0,-0.111916,-0.1470896,1.953
0.385430614602,0.208084803022,-0.125474730297,-1.860514074,0.041683080567,2.06140983046,0.0685506491054,-0.16060334047,-0.450018136063,-0.00196046160101,-0.621376023583,-0.0519679314095,0.160366409906,-0.155882740101,0.573796437705,0.8189807468,0.00298853639725,0.0,0.818948221729,-0.573730868701,-0.0117237932381,0.0,-0.00788709720919,0.009174704006,-0.999926806573,0.0,0.587119403774,0.163293188313,0.304174603353,1.0,-0.113750857143,-0.149501126531,1.972
0.382338509666,0.199580919045,-0.125570857116,-1.87232418663,0.0405175389937,2.0645300803,0.0655654626246,-0.162617345027,-0.452884968392,-0.00853112301095,-0.60608028053,-0.0548791462664,0.171926526652,-0.162811606072,0.573778778605,0.818993833472,0.00278583162117,0.0,0.818958572992,-0.573713820088,-0.0118344946619,0.0,-0.0080942638885,0.0090720372464,-0.999926087785,0.0,0.584907640223,0.160394799362,0.3041074314,1.0,-0.115585714286,-0.151912653061,1.991
0.379611106117,0.192272097321,-0.125611372395,-1.88220549229,0.0395787746152,2.06736307652,0.0630818053668,-0.172492094315,-0.448065080721,-0.00177984084581,-0.620877621369,-0.0634426171548,0.175959692205,-0.158743023052,0.573863668382,0.818933692835,0.00297384459907,0.0,0.81890115116,-0.573798343516,-0.0117095050689,0.0,-0.00788307289615,0.00915512056379,-0.999927017801,0.0,0.583100735619,0.15794372628,0.304170841295,1.0,-0.117130857143,-0.153943412245,2.007
0.376601837174,0.184524124284,-0.1257636425,-1.89290234051,0.0385790022887,2.07008272199,0.0602948597145,-0.17953006289,-0.454595366545,-0.0133576654195,-0.6286894893,-0.0639204766763,0.165148694774,-0.15246911067,0.574003654676,0.81883625306,0.00278244413251,0.0,0.818800519788,-0.57393819899,-0.0118911494885,0.0,-0.00814011003989,0.009104005247,-0.999925425068,0.0,0.581071359019,0.155194267532,0.304095739537,1.0,-0.118772571429,-0.156101093878,2.024
0.373766011408,0.177058945084,-0.125830909694,-1.90278803628,0.0375948520866,2.07282254681,0.057680045079,-0.178897189674,-0.46268905092,0.000428242030706,-0.614135658774,-0.0644549681069,0.170752801774,-0.160201349094,0.574054109102,0.818800092642,0.00300582994992,0.0,0.818767803297,-0.573988459285,-0.0117166459541,0.0,-0.00786843058253,0.00918724242292,-0.999926838512,0.0,0.579228132252,0.152684803592,0.304211240133,1.0,-0.120317714286,-0.158131853061,2.04
0.370911081489,0.169607917194,-0.125814633421,-1.91289748886,0.0365567731993,2.07541350889,0.0549502514092,-0.180718343551,-0.471646686999,-0.000118067032841,-0.638858165534,-0.0676252066824,0.152920774549,-0.168032087455,0.573931682584,0.818886231839,0.00291717870305,0.0,0.818852666352,-0.573866214413,-0.0117739400876,0.0,-0.00796760053414,0.00914635289996,-0.999926428079,0.0,0.577255256352,0.150192359979,0.304185027866,1.0,-0.121862857143,-0.160162612245,2.056
0.367403195682,0.160671577486,-0.12583839206,-1.92488734218,0.0353833958185,2.07850168476,0.0516261531488,-0.18537539605,-0.485224290321,0.0001531514391,-0.608870042293,-0.062001807962,0.171595699722,-0.174437750139,0.573860700381,0.818935894889,0.00293998657964,0.0,0.81890223067,-0.573794706045,-0.0118118084547,0.0,-0.00798631895329,0.00918607110115,-0.999925914659,0.0,0.574916933136,0.147171250699,0.304194061794,1.0,-0.123697714286,-0.162574138775,2.075
0.364378738763,0.15304863143,-0.125826353523,-1.934949975,0.0343119485316,2.08119003291,0.0488461062561,-0.192371310074,-0.469499871764,0.000172861398018,-0.637869878317,-0.0716388428897,0.156255905717,-0.178007006123,0.573803923752,0.818975133644,0.00308779231847,0.0,0.818944016359,-0.573738157392,-0.0116606913377,0.0,-0.0077783817294,0.00921985699701,-0.999927242861,0.0,0.572964508363,0.14461911599,0.30426415524,1.0,-0.125242857143,-0.164604897959,2.091
0.36125271142,0.14543666892,-0.12585110289,-1.94528977196,0.0332769414413,2.08355984915,0.0459791452055,-0.19616619037,-0.475534623771,-0.00591329654017,-0.649032232692,-0.0634958211705,0.145380994568,-0.182397018674,0.573797139853,0.818980924044,0.00279915174866,0.0,0.818944895478,-0.573731074641,-0.0119439969641,0.0,-0.00817610274492,0.00914595842069,-0.999924748563,0.0,0.570725556799,0.141802929247,0.304153185248,1.0,-0.126884571429,-0.166762579592,2.108
0.357655950355,0.136696012015,-0.125936197365,-1.9566007136,0.0321380368968,2.08656420144,0.0426569023013,-0.202397467359,-0.481045809929,-0.00554450431166,-0.629751232871,-0.0711541137043,0.168424309391,-0.189380044678,0.573811922595,0.818969337384,0.00313828190926,0.0,0.818938251751,-0.573745244034,-0.0117167260305,0.0,-0.00779521511572,0.00929343511779,-0.999926430636,0.0,0.568523377033,0.138816505653,0.30429317435,1.0,-0.128622857143,-0.169047183673,2.126
0.354343488945,0.128914961307,-0.125979716025,-1.96688349982,0.0310159646656,2.08898605883,0.0395948725487,-0.20798882937,-0.491781594829,-0.00811442539408,-0.648610243738,-0.0675004320931,0.140573133734,-0.199693787529,0.57376003055,0.819006096352,0.00303123457635,0.0,0.818973607309,-0.573693713041,-0.0117686469353,0.0,-0.00789974546116,0.00923505814418,-0.999926151135,0.0,0.566560503793,0.136253525122,0.304280548148,1.0,-0.130071428571,-0.170951020408,2.141
0.350507982835,0.120058820137,-0.126129049609,-1.9784612255,0.0297772621144,2.09179476949,0.0362242369389,-0.218633161025,-0.502441770905,-0.00465326297848,-0.623708088114,-0.0703227811001,0.164848050722,-0.194547377999,0.573926007074,0.818889685772,0.00306069298524,0.0,0.818857787065,-0.573859808599,-0.0117299419904,0.0,-0.0078492709427,0.0092385689256,-0.999926516195,0.0,0.564224689527,0.133094755611,0.304305148898,1.0,-0.131809714286,-0.17323562449,2.159
0.347230205738,0.112697916564,-0.126183216107,-1.98806716839,0.0287686061068,2.09418737235,0.0332254097205,-0.215308878206,-0.482447785856,-0.000784734945322,-0.644217109473,-0.068743902204,0.151592335692,-0.202163190444,0.573918142593,0.818894809931,0.00316271596494,0.0,0.818864325809,-0.573851707785,-0.0116696311226,0.0,-0.00774141944874,0.00928742710676,-0.99992690439,0.0,0.562280240508,0.130483875885,0.304320438529,1.0,-0.133258285714,-0.175139461224,2.174
0.343690027018,0.104763192068,-0.126204073678,-1.99850638625,0.027596687265,2.09647391306,0.030025660048,-0.221629449922,-0.499840489608,-0.00140222636868,-0.647810069004,-0.0735859034122,0.147601375622,-0.201799627648,0.573866118979,0.818932053832,0.00295221884154,0.0,0.818898480827,-0.573800001819,-0.011814521258,0.0,-0.00798146065008,0.00919769807053,-0.999925846569,0.0,0.560072066219,0.127676004032,0.304254534884,1.0,-0.134803428571,-0.177170220408,2.19
0.338970626243,0.0942014067631,-0.126204935177,-2.01196147936,0.0261729668834,2.09968302959,0.0256891958117,-0.229870565985,-0.502010797432,-0.000194562549054,-0.659480281182,-0.0652296747052,0.152283722818,-0.205964598111,0.573753137296,0.819010268061,0.00320392799414,0.0,0.818980009781,-0.573686216025,-0.0116882857382,0.0,-0.0077349256295,0.0093303232295,-0.9999265553,0.0,0.557268507565,0.124041122899,0.304354856387,1.0,-0.136831428571,-0.179835591837,2.211
0.335464793488,0.0866596966062,-0.126241314468,-2.02181105158,0.0251497484855,2.10174870304,0.022524556222,-0.234333924005,-0.502662253133,-0.0044795822587,-0.668557121845,-0.0769354046808,0.137383350184,-0.22369331344,0.573745305124,0.819016377907,0.00304047182589,0.0,0.818982823496,-0.573677573494,-0.0119131603591,0.0,-0.00801297722203,0.00932539356867,-0.999924411759,0.0,0.555137665971,0.121344022422,0.304275898823,1.0,-0.13828,-0.181739428571,2.226
0.331130506625,0.0774224516825,-0.126377086398,-2.03334669215,0.0237852707283,2.1044163512,0.0186237634393,-0.241337015307,-0.519638561944,-0.0073356085381,-0.64229272083,-0.0775345937188,0.152938733034,-0.211086797933,0.573758459907,0.819006317482,0.00326013976995,0.0,0.818976793635,-0.573691358165,-0.0116612158562,0.0,-0.00768044331565,0.00936088029185,-0.999926689668,0.0,0.552719959455,0.118024416677,0.304410870172,1.0,-0.140018285714,-0.184024032653,2.244
0.327179244007,0.0692880118965,-0.126443403613,-2.04381218227,0.0226502080344,2.10664564763,0.0151312780002,-0.256126252693,-0.520046060593,-0.00159789766728,-0.651550872902,-0.0717688316593,0.131137344698,-0.222540634689,0.573810712919,0.818970033669,0.00317751353718,0.0,0.818938724635,-0.573743024071,-0.0117921382701,0.0,-0.00783448248829,0.00936882453014,-0.999925420224,0.0,0.550301185695,0.114872625291,0.304354528465,1.0,-0.14166,-0.186181714286,2.261
0.32281702527,0.0605142288983,-0.126597763005,-2.05492755218,0.0213412182302,2.10884495731,0.0112916008045,-0.257173999997,-0.531202211769,-0.00979483167869,-0.633068337509,-0.0755118380531,0.145255382416,-0.2236319038,0.573903981727,0.818905188134,0.00304294367958,0.0,0.818871928576,-0.57383652527,-0.0118808147144,0.0,-0.00798326228373,0.00931040728439,-0.999924789091,0.0,0.548004468963,0.111788069821,0.304338662953,1.0,-0.143205142857,-0.188212473469,2.277
0.318424430423,0.0516839391616,-0.126663261691,-2.06590400564,0.0200725616395,2.11131126753,0.00738878434326,-0.257947267004,-0.524218997888,-0.00197772144757,-0.664056784424,-0.0762743018587,0.129404083347,-0.22073060663,0.573904267654,0.818904132368,0.00326503607209,0.0,0.818874387304,-0.573836782889,-0.0116974921626,0.0,-0.00770567523281,0.00938707581633,-0.999926249969,0.0,0.545628960662,0.108599682284,0.304414633288,1.0,-0.144846857143,-0.190370155102,2.294
0.314252587237,0.0433882499925,-0.126655398285,-2.0764967639,0.0188889404086,2.11333230031,0.00368931590605,-0.259319555374,-0.52190936055,0.000546711940749,-0.663444781423,-0.0763165583108,0.11835532236,-0.22721083382,0.573850929576,0.818942259319,0.00307138856008,0.0,0.818908802227,-0.57378271216,-0.0119381641676,0.0,-0.00801451178159,0.00936609405822,-0.999924019055,0.0,0.543213713538,0.105614962158,0.304310219147,1.0,-0.146392,-0.192400914286,2.31
0.309896914675,0.034897670183,-0.12669748212,-2.08677073727,0.0176588250847,2.11551150918,-0.000216889656061,-0.274438212316,-0.523606114981,-0.00186503907054,-0.633822260578,-0.077670912111,0.138067686806,-0.246346533532,0.573786873504,0.818986048147,0.00335016951162,0.0,0.818957084498,-0.57371872542,-0.0116989210485,0.0,-0.0076593456011,0.00945651445482,-0.999925951638,0.0,0.540943885871,0.10255184804,0.304451187462,1.0,-0.147937142857,-0.194431673469,2.326
0.304896354377,0.0254021051176,-0.126807709094,-2.09857710859,0.0162181445618,2.11773010423,-0.00462117243509,-0.277397943146,-0.535968916324,-0.00413923469554,-0.665087023156,-0.0779642298888,0.108696357418,-0.244696141857,0.573803728829,0.818974662104,0.00324507543301,0.0,0.818944168655,-0.573735731524,-0.0117688529193,0.0,-0.00777672634164,0.00941072847755,-0.999925477582,0.0,0.538244252443,0.0990179053828,0.304419336187,1.0,-0.149675428571,-0.196716277551,2.344
0.300602792847,0.0174228892156,-0.126899853506,-2.10832556561,0.0150543144275,2.11953012826,-0.00837715497309,-0.28889223862,-0.535419746308,-0.0117166118189,-0.634824422104,-0.0799894756572,0.125372646815,-0.242215690021,0.573855543837,0.818938270912,0.00326651856678,0.0,0.818907873001,-0.573787243514,-0.011783107336,0.0,-0.00777550056589,0.00943696093078,-0.999925239885,0.0,0.536002717024,0.0960417588227,0.304444621322,1.0,-0.14998,-0.197116571429,2.359
0.295918926001,0.00896183508447,-0.127020035959,-2.11865873274,0.0137831491058,2.12146029581,-0.012444938356,-0.29044640911,-0.528893301935,0.00107630506766,-0.654174649796,-0.0794858791912,0.11387050863,-0.253925220212,0.573940245977,0.818878821172,0.00328894882714,0.0,0.818848820445,-0.573871985504,-0.0117601195063,0.0,-0.0077428262779,0.00944293955562,-0.999925436987,0.0,0.53362139216,0.0928279580613,0.304453754473,1.0,-0.14998,-0.197116571429,2.375
0.290052650715,-0.00156010504785,-0.127037782545,-2.13152610754,0.0122747123335,2.12364774605,-0.0176234637732,-0.296094921864,-0.517159427607,0.000237133055406,-0.633019210288,-0.0738716665866,0.106799236676,-0.256637780339,0.573888813758,0.818915192248,0.00320690650421,0.0,0.818882972827,-0.573819463424,-0.0119434965462,0.0,-0.00794067828345,0.00948050272585,-0.999923529924,0.0,0.530563173192,0.0889223715277,0.304408187207,1.0,-0.14998,-0.197116571429,2.395
0.285937092251,-0.0089584109219,-0.127027921532,-2.14023176637,0.0111580704238,2.12533345161,-0.0212571957845,-0.295665519681,-0.524371667444,0.0011713985728,-0.620594491768,-0.0855012520235,0.117987937033,-0.253662039951,0.573798602331,0.818977380384,0.00345850892923,0.0,0.81894952004,-0.573729719104,-0.0116893089581,0.0,-0.00758917638765,0.00953983704144,-0.999925695195,0.0,0.528534855156,0.086236344926,0.30452437352,1.0,-0.14998,-0.197116571429,2.409
0.280513273443,-0.0183224606316,-0.127046989984,-2.15162744399,0.00972464151885,2.12709430508,-0.0260352773498,-0.302097806497,-0.516935199187,-0.00227713675054,-0.631405959389,-0.0800118807277,0.0887408630386,-0.269585917313,0.573718256537,0.819034524722,0.00324905087764,0.0,0.819003064027,-0.573649027208,-0.0118962850687,0.0,-0.00787980502257,0.00948628119316,-0.99992395668,0.0,0.525755098731,0.082704520352,0.304443124068,1.0,-0.14998,-0.197116571429,2.427
0.275271690559,-0.027225091789,-0.12717268923,-2.16202689439,0.00839082987054,2.12885501089,-0.0305566014293,-0.306721510004,-0.528890364696,-0.0122734453244,-0.602911999027,-0.0737705159838,0.117332324381,-0.257624492548,0.573817737812,0.818964082358,0.00343256192668,0.0,0.81893560856,-0.573748591139,-0.0117375508532,0.0,-0.0076433521524,0.00954644586704,-0.999925219474,0.0,0.523264804103,0.0793096768341,0.304546137285,1.0,-0.14998,-0.197116571429,2.444
0.270255328222,-0.0354576930287,-0.127305137324,-2.17183851391,0.00712153926172,2.13042358683,-0.0348439202398,-0.316431087179,-0.522829915741,-0.00772267433418,-0.618134894565,-0.0735926355521,0.0815422063754,-0.265825002043,0.573948534386,0.818872518345,0.00340961514877,0.0,0.818843691517,-0.573879378017,-0.0117564981953,0.0,-0.00767051314438,0.00953975043353,-0.999925075388,0.0,0.52087182153,0.076088431617,0.304525453983,1.0,-0.14998,-0.197116571429,2.46
0.264592093647,-0.0446838282834,-0.127314995281,-2.18284997013,0.00581226646703,2.13198240362,-0.0398558201354,-0.318469708583,-0.51083500741,-5.04759819636e-05,-0.607706462119,-0.0700160040229,0.0923296592209,-0.273401027158,0.573883065368,0.818918808163,0.00331056221519,0.0,0.818887139816,-0.573812367231,-0.0119985981715,0.0,-0.0079263887802,0.00959695389345,-0.999922532418,0.0,0.518103667844,0.072574167201,0.304453337539,1.0,-0.14998,-0.197116571429,2.478
0.259192102325,-0.0534454420968,-0.127326347119,-2.1928001479,0.00444513441788,2.13363633417,-0.0445285422738,-0.322277717422,-0.514859865821,-0.00295932671163,-0.595541022506,-0.0788498033326,0.0970695695267,-0.276431523006,0.573847617225,0.818942410876,0.00360371696846,0.0,0.818916177939,-0.573777931754,-0.0116587067549,0.0,-0.00748022016619,0.00964164884904,-0.999925539685,0.0,0.515661857342,0.0692710994332,0.30460569195,1.0,-0.14998,-0.197116571429,2.495
0.254052988569,-0.0615586203198,-0.127348711066,-2.20241350254,0.00321070023248,2.13484714209,-0.0490675053598,-0.323148335404,-0.508572532972,-0.000346408513969,-0.601931261787,-0.0749315542405,0.0676664835116,-0.281824671445,0.573766378502,0.819000150729,0.0034121705478,0.0,0.818970278411,-0.573695901688,-0.0118929545191,0.0,-0.00778293313019,0.00961842889218,-0.999923452959,0.0,0.513180933954,0.0661444940987,0.304515962186,1.0,-0.14998,-0.197116571429,2.511
0.248466651338,-0.0701887917031,-0.127459436744,-2.21237319696,0.00188891931597,2.13619017497,-0.0539115730508,-0.335913533733,-0.508554785792,-0.0120535420732,-0.576282668787,-0.0828218707208,0.0806068261806,-0.280988284216,0.573823134034,0.818960326428,0.00342658501381,0.0,0.818930497777,-0.573752419235,-0.0119058025269,0.0,-0.00778451835855,0.0096381454544,-0.999923250768,0.0,0.510632809496,0.0627586153015,0.304523303407,1.0,-0.14998,-0.197116571429,2.528
0.242766185169,-0.0787652947271,-0.127605797177,-2.2221214049,0.000586084202007,2.13753223551,-0.0588666324241,-0.335377628432,-0.496189149777,-0.00611072776176,-0.584069930056,-0.0723377169596,0.0750436129133,-0.295257745415,0.573910827053,0.818898312644,0.00355851676701,0.0,0.818870499523,-0.573840011252,-0.0118107323439,0.0,-0.00762991638543,0.00969245818001,-0.999923917421,0.0,0.508137788202,0.0593423514601,0.304575745713,1.0,-0.14998,-0.197116571429,2.545
0.237455788782,-0.0867862858098,-0.127611279613,-2.23144249468,-0.000603898315413,2.13858579779,-0.0635098465742,-0.332466029726,-0.498522566452,0.000294455760496,-0.583662392939,-0.0670972711535,0.0607451812458,-0.295784721045,0.573862601234,0.818932673021,0.00342620271729,0.0,0.818901835311,-0.573790642583,-0.0120345133123,0.0,-0.00788968499748,0.00971206779474,-0.99992171124,0.0,0.505657039207,0.0562486599636,0.304494357716,1.0,-0.14998,-0.197116571429,2.561
0.231356856586,-0.0958346477307,-0.127637534612,-2.24150228842,-0.00200800605708,2.1398591677,-0.0688760510179,-0.342957261574,-0.502312117714,-0.00264012244241,-0.548973882799,-0.0771455093699,0.0791543089748,-0.30137758469,0.573773469983,0.81899438029,0.00359959698145,0.0,0.818966669381,-0.573701982201,-0.0118480784994,0.0,-0.00763856085082,0.00974625070977,-0.999923328553,0.0,0.5030155561,0.0527407429695,0.304591946357,1.0,-0.14998,-0.197116571429,2.579
0.225848593033,-0.103780629144,-0.127681342043,-2.25046095871,-0.00328150985874,2.14082251048,-0.0736340052176,-0.340131524986,-0.49697078287,-0.00348061315118,-0.555199691791,-0.0761691824078,0.0574413429759,-0.282669208552,0.573771129753,0.818996254761,0.00354573714255,0.0,0.818967822195,-0.573699804362,-0.0118738193322,0.0,-0.00769057292517,0.00971688643862,-0.999923215655,0.0,0.50060507311,0.0495941571077,0.304586260009,1.0,-0.14998,-0.197116571429,2.595
0.219865835235,-0.112166608249,-0.127834205921,-2.26001030865,-0.00458947672919,2.14173005858,-0.0788135254331,-0.355325505083,-0.48299711318,-0.00552423309989,-0.558684797407,-0.074934685504,0.0535782684945,-0.308849286551,0.573870435718,0.818927326915,0.00339162814414,0.0,0.818895752304,-0.573798257926,-0.0120852372969,0.0,-0.0079509738349,0.00971293727808,-0.999921217329,0.0,0.497992175729,0.0461715744651,0.304505590867,1.0,-0.14998,-0.197116571429,2.612
0.213835905629,-0.120614353371,-0.127897406788,-2.26910392207,-0.00588510016223,2.14281632585,-0.0840467583243,-0.35036191046,-0.487071893513,-2.48894953501e-05,-0.531186882323,-0.0767118701354,0.0635263631821,-0.315410894763,0.573892168286,0.818910772924,0.00369757628008,0.0,0.818884611337,-0.573820684232,-0.0117712600546,0.0,-0.00751801066358,0.0097835106341,-0.99992387832,0.0,0.495549697036,0.0428238429655,0.304655725196,1.0,-0.14998,-0.197116571429,2.629
0.207823126839,-0.128890957795,-0.127905632927,-2.27836445858,-0.00713797506396,2.14360243118,-0.0893528052856,-0.352603853191,-0.489700118837,-0.00070684999846,-0.535335419632,-0.0804410522595,0.0416118690554,-0.302212534613,0.573803506,0.818973330557,0.00360100550098,0.0,0.818944871133,-0.573731032577,-0.0119476861606,0.0,-0.0077189763372,0.009804837967,-0.999922138247,0.0,0.492951692178,0.0395427483907,0.30459809588,1.0,-0.14998,-0.197116571429,2.646
0.201984970708,-0.136698093825,-0.127961337632,-2.28701435392,-0.00840905981118,2.14432176171,-0.0944245171201,-0.362159311815,-0.482884454664,-0.0074394080525,-0.536133381315,-0.0834031015942,0.0486097976262,-0.31772711025,0.573793069511,0.818981077543,0.00350070136539,0.0,0.818951053521,-0.573720644341,-0.0120225244824,0.0,-0.0078379463171,0.009765532314,-0.999921597415,0.0,0.490512373136,0.0363666263073,0.304560076126,1.0,-0.14998,-0.197116571429,2.662
0.195758632518,-0.145028275281,-0.128068431968,-2.29581120609,-0.00966110357654,2.14522652493,-0.0998987788709,-0.37459286026,-0.486349325424,-0.00997302864302,-0.522146516472,-0.0807177773217,0.0550313321074,-0.320137782998,0.573810536461,0.818967377307,0.00382753891794,0.0,0.818942854559,-0.573738571638,-0.0117217439707,0.0,-0.00740386175273,0.00986078569415,-0.999923970978,0.0,0.48806616711,0.0330159743464,0.304705543311,1.0,-0.14998,-0.197116571429,2.679
0.189000584657,-0.153667520576,-0.128219315451,-2.3052978053,-0.0110329320054,2.14582817521,-0.105774249124,-0.371593503874,-0.487877007003,-0.00510923759272,-0.526436755974,-0.0785622090847,0.0356845480389,-0.327211144493,0.573897081598,0.818907383557,0.00368561926534,0.0,0.818879999922,-0.573824256558,-0.0119170136376,0.0,-0.00764417989701,0.00985740903735,-0.999922195974,0.0,0.485313915689,0.0293958121306,0.304638863681,1.0,-0.14998,-0.197116571429,2.697
0.183070975362,-0.161340603728,-0.128214584249,-2.31360537782,-0.0122622495309,2.14633259988,-0.110998530045,-0.370100146104,-0.477450701193,0.00372661087907,-0.506230346276,-0.078701541231,0.036607831855,-0.318531749933,0.573785824666,0.818985742603,0.0035955148318,0.0,0.818956807922,-0.573712862092,-0.0120018969653,0.0,-0.00776673892771,0.00983127897986,-0.99992150878,0.0,0.482874883521,0.026317610009,0.304611863073,1.0,-0.14998,-0.197116571429,2.713
0.176608233704,-0.169495435913,-0.128241483749,-2.32206803066,-0.0134321957681,2.14700569463,-0.116687982273,-0.380959639301,-0.472454345271,-0.00125845270384,-0.502442587605,-0.0669223781274,0.0361222214071,-0.343694246539,0.573772256687,0.81899382841,0.00390555796174,0.0,0.818969715088,-0.573699233552,-0.0117703904549,0.0,-0.00739940399272,0.00995224879619,-0.999923097825,0.0,0.480421228903,0.0230123607051,0.304740122131,1.0,-0.14998,-0.197116571429,2.73
0.170055707571,-0.177514976459,-0.128334148745,-2.33075201436,-0.0147129576541,2.14739285519,-0.122406557687,-0.394712972689,-0.468193238324,-0.0169015059537,-0.500312859492,-0.082216066634,0.0150844121097,-0.337652093599,0.573799817609,0.818975276384,0.00374337881333,0.0,0.818947957037,-0.573725908628,-0.0119821673893,0.0,-0.00766557302431,0.00994118929281,-0.999921202768,0.0,0.477804555896,0.0196511865187,0.304657247373,1.0,-0.14998,-0.197116571429,2.747
0.16373299824,-0.185084083569,-0.128489952567,-2.33876096062,-0.0159382948697,2.14777898648,-0.127921879391,-0.391769166508,-0.468730455328,-0.0029289508617,-0.499212134814,-0.0682237862629,0.0225501653256,-0.352222475953,0.573885618841,0.81891526448,0.00371927287052,0.0,0.818887435423,-0.573811532973,-0.0120183041445,0.0,-0.00770795945186,0.00994298916734,-0.999920859032,0.0,0.475385908908,0.016416345701,0.30464585407,1.0,-0.14998,-0.197116571429,2.763
0.157099461723,-0.193104694235,-0.128521737644,-2.34694539273,-0.0171479690901,2.14827416246,-0.133815038246,-0.388747967515,-0.479475058118,-0.0068441837283,-0.478758716059,-0.0724357545376,0.0256547248071,-0.348608241942,0.573812831896,0.818965090625,0.00397003641366,0.0,0.818941592652,-0.573739288577,-0.0117746961284,0.0,-0.00736544102185,0.0100078923566,-0.999922793204,0.0,0.47292009201,0.0131317708388,0.304759449763,1.0,-0.14998,-0.197116571429,2.78
0.151107198501,-0.200049638586,-0.128560473303,-2.35427539835,-0.0182720418263,2.14848089046,-0.139131266436,-0.407458699228,-0.455921025647,-0.00378518189507,-0.495483418592,-0.0723523136867,0.0124389833484,-0.354880013532,0.573741963553,0.819015265807,0.0038601210316,0.0,0.818989764369,-0.573668035055,-0.0118953064836,0.0,-0.00752815449454,0.00998642838276,-0.999921796011,0.0,0.470635678807,0.0101848439897,0.304711781944,1.0,-0.14998,-0.197116571429,2.795
0.144248975249,-0.20790777982,-0.128687424795,-2.36253044081,-0.0194658883368,2.14867578218,-0.145155875131,-0.411017297764,-0.456766052815,-0.0104578994626,-0.473389496923,-0.0695516254579,0.00930054961676,-0.361710875317,0.573813633922,0.818965326641,0.00380186620357,0.0,0.818937813061,-0.573738260932,-0.0120835914632,0.0,-0.00771491486176,0.0100474149665,-0.999919761551,0.0,0.468034093574,0.00682283420311,0.304652474511,1.0,-0.14998,-0.197116571429,2.812
0.137223504012,-0.215793418407,-0.128844270833,-2.37042081629,-0.0206604131823,2.14895538779,-0.151281576566,-0.417476414265,-0.463913305362,-0.00323555895898,-0.456728727063,-0.0801896241681,0.0193933575197,-0.353598396548,0.573962783667,0.81885969166,0.00403425844101,0.0,0.818835986601,-0.573887580098,-0.011891987136,0.0,-0.00742280101715,0.0101291490482,-0.999921148073,0.0,0.4655563405,0.00340712943277,0.304757744842,1.0,-0.14998,-0.197116571429,2.829
0.130298302796,-0.223535011453,-0.128850421565,-2.37834270175,-0.0219183190297,2.14912602707,-0.157479676396,-0.413113162445,-0.455228872789,-0.0004975284869,-0.469235881507,-0.0739593888814,0.00723352178262,-0.362198465268,0.573814076772,0.818963975931,0.00401974212098,0.0,0.818940320354,-0.573739271467,-0.0118636831034,0.0,-0.00740978782891,0.0100996717173,-0.99992154276,0.0,0.463015146442,0.000135575705549,0.304755118993,1.0,-0.14998,-0.197116571429,2.846
0.123173089789,-0.231209267629,-0.128895675309,-2.38627109335,-0.0231400690871,2.14915874865,-0.163781109941,-0.424323370706,-0.45097422275,-0.00182644460925,-0.460332246997,-0.0716993569096,0.00386308655336,-0.370995055381,0.573785104353,0.818984817227,0.00390769444196,0.0,0.818958814856,-0.573709510286,-0.0120251519231,0.0,-0.00760668183743,0.0101002883219,-0.999920058088,0.0,0.46041646739,-0.00320270136591,0.304687227827,1.0,-0.14998,-0.197116571429,2.863
0.115956523647,-0.238922730431,-0.129046252002,-2.39395779619,-0.0243442287653,2.14917916657,-0.170153930579,-0.433788520585,-0.460538735972,-0.00807521914408,-0.442163602284,-0.0766992424608,0.00601568182879,-0.372206840534,0.57386251964,0.818930201642,0.00398500850177,0.0,0.818905226655,-0.573786655393,-0.0119937797277,0.0,-0.00753566883591,0.010146320293,-0.99992012975,0.0,0.457876375987,-0.00659045747792,0.304724927071,1.0,-0.14998,-0.197116571429,2.88
0.108215767478,-0.247022214852,-0.129159477747,-2.40187742932,-0.0255948315741,2.14924710504,-0.177023779641,-0.431396256322,-0.448069186714,-0.00385841102471,-0.449870323734,-0.0697220345329,0.000118103353787,-0.382798107068,0.573898527053,0.818903987902,0.00418164381323,0.0,0.818882488787,-0.573823231816,-0.0117947059275,0.0,-0.0072593471179,0.0101934355071,-0.99992169481,0.0,0.455244764844,-0.0101605246792,0.304817131817,1.0,-0.14998,-0.197116571429,2.898
0.101340199204,-0.25408552757,-0.129180326141,-2.40910088099,-0.0266789278996,2.14918518112,-0.183181757948,-0.433295052385,-0.439970177536,-0.00493302133933,-0.449968904947,-0.0737041262761,-0.00361824234943,-0.386303230496,0.573823642527,0.818956882884,0.00409855522686,0.0,0.818933227188,-0.573747154449,-0.0119715942819,0.0,-0.00745282862753,0.0102262237829,-0.999919936641,0.0,0.452788770469,-0.0132525169803,0.304727838336,1.0,-0.14998,-0.197116571429,2.914
0.0938844933341,-0.261581945975,-0.129271564775,-2.41651910126,-0.0278807451752,2.14908287384,-0.189808140382,-0.439804768955,-0.441294686241,-0.00760556097595,-0.436157027848,-0.0698491454731,-0.00830350069479,-0.394941452854,0.5738307881,0.818951831477,0.00410746267871,0.0,0.818928284249,-0.573754256366,-0.0119693550219,0.0,-0.00744579437662,0.0102322987928,-0.999919926898,0.0,0.450235789216,-0.0166087779725,0.304723413127,1.0,-0.14998,-0.197116571429,2.931
0.0858451747128,-0.269508317842,-0.129449014646,-2.42402382193,-0.0290927068529,2.14900635142,-0.19696806905,-0.443259688582,-0.43415576236,-0.0104753040332,-0.417105597883,-0.0612635131741,-0.00235769698281,-0.387886539111,0.57394695954,0.818869010446,0.00437929984134,0.0,0.818850285279,-0.573871313191,-0.0116907268891,0.0,-0.00706015533816,0.010296046308,-0.999922069782,0.0,0.447484283796,-0.020419510445,0.304852122784,1.0,-0.14998,-0.197116571429,2.95
0.0792130020222,-0.276008747015,-0.129474488171,-2.43039906409,-0.030106839371,2.14883915208,-0.202926662278,-0.444507880048,-0.432308813702,-0.000821854095344,-0.429694374059,-0.0719170020619,-0.00998567880426,-0.405147620277,0.573862987751,0.818927846323,0.00438186117616,0.0,0.818908994512,-0.573787113489,-0.0117112767651,0.0,-0.00707657142893,0.010309212289,-0.999921818083,0.0,0.445377016229,-0.0231106450034,0.304838782161,1.0,-0.14998,-0.197116571429,2.964
0.0710474594129,-0.283696324102,-0.129511389766,-2.43798562896,-0.0313649149691,2.14851815672,-0.210261615438,-0.458065757956,-0.429775832776,-0.00172402890331,-0.413072807902,-0.0723368498455,-0.0111659599463,-0.404723289707,0.573780014441,0.818986630614,0.00425920226997,0.0,0.818965552099,-0.573703647867,-0.0118446528694,0.0,-0.00725723218922,0.0102845630427,-0.999920777034,0.0,0.442635440196,-0.0266391602631,0.304771532671,1.0,-0.14998,-0.197116571429,2.982
0.0632352300491,-0.290982056786,-0.129663402243,-2.4449480696,-0.0324464314488,2.14825246378,-0.217264562826,-0.468237587935,-0.424457769302,-0.0121038073782,-0.399403302757,-0.0619487871981,-0.0203291797112,-0.410565719782,0.573861985287,0.818928514883,0.00438819502627,0.0,0.818908980886,-0.573784979724,-0.0118163009683,0.0,-0.00715896324145,0.0103746579936,-0.999920554703,0.0,0.440095720075,-0.0300165329013,0.304794663686,1.0,-0.14998,-0.197116571429,2.999
0.0558101600086,-0.297761458738,-0.129770117933,-2.45121798746,-0.0334573884787,2.14801569411,-0.223910210984,-0.460571857775,-0.419281101228,0.00147157161381,-0.396818945445,-0.0587817483721,-0.0184441104787,-0.411329720962,0.573931257401,0.818878738946,0.00461189555535,0.0,0.818863110558,-0.573855019225,-0.0115918065076,0.0,-0.00684585628643,0.0104296120268,-0.999922175694,0.0,0.437781925771,-0.033185553717,0.304896617204,1.0,-0.14998,-0.197116571429,3.015
0.0479063139049,-0.30485409362,-0.129797345825,-2.45806533383,-0.0346360205021,2.14755531727,-0.231053118263,-0.475250925643,-0.413835731818,-0.00205703394207,-0.40840473301,-0.0691549108439,-0.0325375219309,-0.416839682955,0.573825264486,0.818953745001,0.00448065713528,0.0,0.818935913011,-0.573748695896,-0.0117111587805,0.0,-0.00702026131526,0.0103897298611,-0.999921381632,0.0,0.435188929514,-0.0364882947137,0.304840454753,1.0,-0.14998,-0.197116571429,3.032
0.0393820248195,-0.312297125058,-0.129902929608,-2.46518239702,-0.0358039469128,2.14705005124,-0.238704238892,-0.475486075206,-0.420874879384,-0.00891766522768,-0.396956927542,-0.0578046544465,-0.0289900429672,-0.43013148834,0.573862976316,0.818927560849,0.00443637202352,0.0,0.818908353056,-0.573785371592,-0.0118407577371,0.0,-0.00715133516761,0.0104281553585,-0.999920052795,0.0,0.432450282061,-0.0400347973868,0.304792054231,1.0,-0.14998,-0.197116571429,3.05
0.0321735682402,-0.318477646008,-0.130047243589,-2.47089331174,-0.0367558406243,2.14666007376,-0.245224716619,-0.47285586142,-0.415065283345,-0.00836825397833,-0.370148590034,-0.0526284846846,-0.0220396282344,-0.436425736629,0.573917733834,0.818888597253,0.00454389496428,0.0,0.818871032985,-0.573840123896,-0.011768196437,0.0,-0.00702950796304,0.0104750422706,-0.999920426588,0.0,0.430223662036,-0.0430310773564,0.304829829049,1.0,-0.14998,-0.197116571429,3.065
0.0235833182653,-0.32582935646,-0.130079359112,-2.47750097778,-0.0379089497978,2.14623175899,-0.253114589244,-0.484316482731,-0.413835222333,-0.000480843572353,-0.372928141446,-0.0652688569384,-0.0259156343977,-0.442724671358,0.573769309369,0.818991545375,0.00473023599858,0.0,0.818978084298,-0.573693737918,-0.0114516118909,0.0,-0.00666519487393,0.0104447441559,-0.999923238302,0.0,0.427627216786,-0.0465181665409,0.304948204672,1.0,-0.14998,-0.197116571429,3.083
0.0152478882769,-0.332606040986,-0.130126140197,-2.48394692483,-0.0389671805881,2.14557871304,-0.260612657884,-0.488159439867,-0.390205687432,-0.00285012130256,-0.376648055801,-0.0612370178453,-0.0471656672924,-0.440405720865,0.573789458077,0.818978136621,0.00460613050125,0.0,0.81896172804,-0.573712190113,-0.011694350055,0.0,-0.00693495731866,0.0104825411969,-0.999921008229,0.0,0.425010369909,-0.0498524956685,0.304859004021,1.0,-0.14998,-0.197116571429,3.1
0.00731062892803,-0.338981433505,-0.130305717612,-2.48980593615,-0.0399165966538,2.1450090311,-0.267786193958,-0.4952318113,-0.400669298182,-0.0106788463642,-0.359010367299,-0.0663476177283,-0.0316912888417,-0.443637324389,0.573916712856,0.818888528339,0.00468313571435,0.0,0.81887256191,-0.573838330015,-0.0117492662365,0.0,-0.006934110063,0.0105781952601,-0.999920006752,0.0,0.422595994999,-0.0530513474185,0.304855865997,1.0,-0.14998,-0.197116571429,3.116
-0.00156545873954,-0.34605150961,-0.130378087723,-2.49623851727,-0.0410002311964,2.14435652723,-0.275972564447,-0.495100839232,-0.391984674762,-0.00443830547867,-0.360269047066,-0.0585281078032,-0.0348524192269,-0.464285867099,0.573814826026,0.818959626186,0.00473529422051,0.0,0.818944326435,-0.573736274398,-0.0117313486429,0.0,-0.00689082350471,0.0106097683874,-0.999919971481,0.0,0.419912619423,-0.0565447950141,0.304867066018,1.0,-0.14998,-0.197116571429,3.134
-0.00965875308021,-0.352287865582,-0.130444759573,-2.50172011266,-0.0420197179633,2.14376252456,-0.283295323842,-0.506743344086,-0.38509142881,-0.00105279445414,-0.33476775162,-0.0648393523719,-0.0304999656327,-0.466075944651,0.573833834385,0.818945839596,0.00481551921618,0.0,0.818932731611,-0.573756829117,-0.0115338215185,0.0,-0.00668276677514,0.0105622866896,-0.999921886313,0.0,0.417569532518,-0.0597205292334,0.304949013457,1.0,-0.14998,-0.197116571429,3.15
-0.0178184637823,-0.358393953695,-0.130617269648,-2.50725817933,-0.0429679005681,2.14310045611,-0.290727625957,-0.510466902679,-0.380024564447,-0.0111602890514,-0.347390821097,-0.0608213454058,-0.051177254814,-0.461203289878,0.573926130221,0.818880983776,0.00484544743352,0.0,0.818867748842,-0.573848207118,-0.0116013790279,0.0,-0.00671972672466,0.0106263197923,-0.999920960177,0.0,0.415157194851,-0.0629135493649,0.304931034471,1.0,-0.14998,-0.197116571429,3.166
-0.0269487057338,-0.365201315673,-0.130681358992,-2.51346963564,-0.0440850429044,2.14226920941,-0.299222613044,-0.504588784115,-0.383262722468,-0.00168421976055,-0.338338634805,-0.0712777753756,-0.0418927829371,-0.475676531611,0.573754368574,0.819001955039,0.00474015669302,0.0,0.81898662859,-0.573675672917,-0.0117418650758,0.0,-0.0068974306692,0.0106192757854,-0.999919825002,0.0,0.412413429932,-0.0663974268839,0.30487451495,1.0,-0.14998,-0.197116571429,3.184
-0.035810580287,-0.371556095722,-0.130749484784,-2.51912764423,-0.0450886362494,2.14151774723,-0.307304812632,-0.524681260017,-0.363859839307,-0.00193825462653,-0.324941416001,-0.0590921683261,-0.0443388831808,-0.47760562537,0.573772098274,0.818989481535,0.00474923977384,0.0,0.818974250921,-0.573693336017,-0.0117422075751,0.0,-0.00689226998218,0.0106270607688,-0.999919777879,0.0,0.409857856755,-0.0697561583804,0.304874018366,1.0,-0.14998,-0.197116571429,3.201
-0.0442267196097,-0.37744996333,-0.130911050174,-2.52426363462,-0.0459291588986,2.14076677951,-0.314932425276,-0.522001452645,-0.368499224901,-0.0138828037038,-0.317196917167,-0.0572662085207,-0.0445232265864,-0.476271867544,0.573958082358,0.818858385644,0.00487963706488,0.0,0.818844561659,-0.573878416446,-0.0117428225291,0.0,-0.0068155215274,0.0107357588704,-0.999919142805,0.0,0.407472757624,-0.0729465243866,0.30490608796,1.0,-0.14998,-0.197116571429,3.217
-0.0530942996182,-0.383620530598,-0.130986208237,-2.52953877807,-0.0468842196076,2.14005187467,-0.323230828195,-0.522473674204,-0.354984077534,-0.00352966480658,-0.314915765219,-0.0608779518443,-0.0515100609023,-0.500069912965,0.573838376148,0.818941498138,0.00500875118859,0.0,0.818930428797,-0.573760060614,-0.0115365738552,0.0,-0.00657408426226,0.0107221540007,-0.999920905287,0.0,0.40500170319,-0.0762561773766,0.30498196942,1.0,-0.14998,-0.197116571429,3.234
-0.0611416566611,-0.38897610556,-0.131060714181,-2.53435354237,-0.0478119506522,2.1392584829,-0.330595640061,-0.537183014851,-0.358794040289,-0.00889723693071,-0.324226818029,-0.0566856400104,-0.0503641869385,-0.495748436692,0.573840542596,0.818940794622,0.00487375403835,0.0,0.818927258406,-0.573761489844,-0.0116895300309,0.0,-0.00677679110828,0.0106993822846,-0.999919795944,0.0,0.402689575431,-0.0792282481896,0.304915952561,1.0,-0.14998,-0.197116571429,3.249
-0.0703153356404,-0.395024639391,-0.131208684854,-2.53961502798,-0.0487627700661,2.13836729898,-0.339033786019,-0.536013573922,-0.358484141401,-0.00932711713831,-0.304124465848,-0.0541365809788,-0.0480462555076,-0.49441240334,0.573909051644,0.818892672116,0.00489273920101,0.0,0.818878957468,-0.573829255286,-0.0117467312478,0.0,-0.00681184639724,0.010748323505,-0.999919032867,0.0,0.4001054303,-0.0826054077979,0.304909458864,1.0,-0.14998,-0.197116571429,3.266
-0.0793755411675,-0.400870929036,-0.131262545886,-2.54465058737,-0.0496368711067,2.13755344466,-0.347570352568,-0.532651408818,-0.342752343457,-0.00151790317065,-0.296892693361,-0.0493761946383,-0.0447364051419,-0.502648290231,0.573773655322,0.818987139002,0.00496039405687,0.0,0.818974392053,-0.573693803714,-0.0117094680776,0.0,-0.00674428627411,0.0107812275799,-0.999919136598,0.0,0.397601135223,-0.0858754274298,0.304920864507,1.0,-0.14998,-0.197116571429,3.283
-0.0887480352909,-0.406643640005,-0.131347050455,-2.54959948895,-0.0506184214916,2.13662731374,-0.356209609139,-0.549357009387,-0.342189819795,-0.00786404242882,-0.288884459653,-0.056700592181,-0.056024664079,-0.509901951584,0.57378592177,0.818978869053,0.00490662045428,0.0,0.818965444246,-0.573706274322,-0.0117242840554,0.0,-0.00678711262877,0.0107457886236,-0.999919228302,0.0,0.395043323061,-0.0892577526347,0.304920759292,1.0,-0.14998,-0.197116571429,3.3
-0.0987712946254,-0.412670969442,-0.131489719932,-2.55463433688,-0.0515545614625,2.13576427882,-0.365459915952,-0.556663996693,-0.337531733514,-0.00866227662937,-0.280300199477,-0.0541832407712,-0.0451503794992,-0.521797049282,0.573887654093,0.81890682265,0.00503221596444,0.0,0.818895831291,-0.573808891688,-0.0115637457184,0.0,-0.00658222672714,0.0107573586908,-0.9999204736,0.0,0.392386025012,-0.0928634214572,0.304977285436,1.0,-0.14998,-0.197116571429,3.318
-0.107522026559,-0.417950649637,-0.131552176255,-2.55913625462,-0.0523051177778,2.13485720512,-0.373785219243,-0.559305948229,-0.324145201564,-0.00487936613514,-0.279116462727,-0.0474641565698,-0.0655510070689,-0.521865436411,0.573748370009,0.819004129828,0.00507839917916,0.0,0.818993022332,-0.573668320942,-0.0116547767597,0.0,-0.00663212125715,0.0108462914858,-0.999919183199,0.0,0.389981269206,-0.0959267854842,0.304964383329,1.0,-0.14998,-0.197116571429,3.334
-0.117143436638,-0.42347596765,-0.131675022173,-2.56383479968,-0.0531746257146,2.13383767586,-0.382687715696,-0.567416382289,-0.321726752602,-0.00623507014125,-0.270769276791,-0.0377783053843,-0.0640453387953,-0.531986270215,0.573830508397,0.818946678598,0.00506282009016,0.0,0.818934546406,-0.573749158464,-0.0117838349398,0.0,-0.006745673594,0.0109082522861,-0.999917749577,0.0,0.387377534886,-0.0993028297593,0.304939937116,1.0,-0.14998,-0.197116571429,3.351
-0.125677006246,-0.428178599223,-0.131793257002,-2.56778403196,-0.0539583269659,2.13305202683,-0.390562844643,-0.564433831833,-0.303578153632,-0.00897747783173,-0.264354504038,-0.0544979960022,-0.0515489505999,-0.523567523001,0.573929719971,0.818877076758,0.00507509561802,0.0,0.818865258171,-0.5738485612,-0.0117585998548,0.0,-0.00671664087365,0.0109046393535,-0.999917984425,0.0,0.385135986506,-0.102295277836,0.304940835707,1.0,-0.14998,-0.197116571429,3.366
-0.135183196787,-0.433385206745,-0.131828642382,-2.57215420822,-0.0547499709693,2.13215193063,-0.399666953814,-0.566512181215,-0.306709308885,-0.00692708466935,-0.256954727631,-0.0477383421312,-0.0590741926027,-0.536575376336,0.573720532857,0.819023495697,0.00510005651933,0.0,0.8190118524,-0.573639085158,-0.0117699834001,0.0,-0.00671443046627,0.0109298983197,-0.999917723488,0.0,0.382476931398,-0.105745901899,0.304930522364,1.0,-0.14998,-0.197116571429,3.384
-0.145082057242,-0.438519424686,-0.131963344441,-2.57643534985,-0.0555685451262,2.13114518377,-0.408830335668,-0.585898011768,-0.305871231611,-0.0144630679174,-0.244308361428,-0.0480728427855,-0.0589425062817,-0.540518481017,0.573871816859,0.81891743763,0.00511028975948,0.0,0.818905367235,-0.573789397169,-0.0118521774571,0.0,-0.0067738551308,0.010986685851,-0.999916700341,0.0,0.380048568392,-0.108957848071,0.304920088083,1.0,-0.14998,-0.197116571429,3.4
-0.154930239547,-0.443635596863,-0.132056996123,-2.58048027956,-0.0563947859305,2.1302385383,-0.418082114283,-0.572956213154,-0.294943546831,-0.00263282582717,-0.234090202954,-0.0428417694025,-0.0522285776349,-0.540748342162,0.573884497534,0.818908041525,0.00519133087442,0.0,0.818898119571,-0.5738036048,-0.0116636093117,0.0,-0.00657274563481,0.0109449463845,-0.999918500261,0.0,0.377686891855,-0.112135397213,0.304996200692,1.0,-0.14998,-0.197116571429,3.416
-0.165927890261,-0.449201007664,-0.132145495463,-2.58503920014,-0.0572970846719,2.12917634336,-0.428507051825,-0.588289404807,-0.289953385045,-0.00532804455124,-0.239547025155,-0.0512495161193,-0.0628752589573,-0.546556357009,0.57378897332,0.818974827605,0.00521466651851,0.0,0.818965502395,-0.573708515436,-0.011610000214,0.0,-0.00651672480407,0.0109325325733,-0.999919002734,0.0,0.374695543644,-0.116022845936,0.305014270798,1.0,-0.14998,-0.197116571429,3.436
-0.175480004037,-0.453659644853,-0.132297026814,-2.58877231848,-0.0579986801321,2.12823223936,-0.437408953378,-0.5980537576,-0.276787384861,-0.00925551118025,-0.227258851041,-0.0392138465021,-0.0577200040068,-0.562018308741,0.573943025337,0.818866825818,0.00522227375136,0.0,0.818856523756,-0.573860720114,-0.0117734579607,0.0,-0.0066441642943,0.0110337994456,-0.999917051735,0.0,0.372245318201,-0.11923349048,0.304966636952,1.0,-0.14998,-0.197116571429,3.452
-0.185367609538,-0.458276608636,-0.132299185042,-2.59252314125,-0.0586843546888,2.12729385408,-0.446979761747,-0.585005245379,-0.26679768162,0.00083941444864,-0.215489983819,-0.0370957521562,-0.0557561773369,-0.555889582777,0.573718112759,0.819024209485,0.00525530884072,0.0,0.819014217922,-0.573635538035,-0.011778253096,0.0,-0.00663217020649,0.0110617827715,-0.999916822181,0.0,0.369744784279,-0.122480501386,0.30496986905,1.0,-0.14998,-0.197116571429,3.469
-0.195568794821,-0.462759444215,-0.132410155961,-2.59617846214,-0.0593988641911,2.12637308281,-0.456622031122,-0.604819836288,-0.265144509215,-0.00247012706974,-0.217708786653,-0.0396043687819,-0.0599026314335,-0.571274712371,0.573762196648,0.818993110192,0.00528905061569,0.0,0.818983295266,-0.573679060291,-0.0118086731157,0.0,-0.00663713212057,0.011107228177,-0.999916285476,0.0,0.367195961913,-0.125856002318,0.304957200924,1.0,-0.14998,-0.197116571429,3.486
-0.205867945572,-0.467173133927,-0.132551171409,-2.59978232432,-0.0601265682758,2.12541099587,-0.466283712561,-0.597655572099,-0.259373431647,-0.00422524065585,-0.210572891849,-0.0402017245711,-0.0524495085863,-0.572805940982,0.573887852982,0.818904996883,0.00529954544846,0.0,0.818894741824,-0.573803693408,-0.0118941222953,0.0,-0.00669938641341,0.0111658771867,-0.99991521711,0.0,0.364607917819,-0.129242782189,0.304930878338,1.0,-0.14998,-0.197116571429,3.503
-0.215411062839,-0.471255441398,-0.132598584768,-2.60294478586,-0.0607642617534,2.12454675268,-0.475455589245,-0.603754017862,-0.256488171492,-0.00780586270502,-0.195724016508,-0.0425648738459,-0.0553299248524,-0.58541017132,0.573786396857,0.818975683295,0.00536170265487,0.0,0.818966877685,-0.573703114632,-0.0117786424294,0.0,-0.00657052272201,0.011149696348,-0.999916252744,0.0,0.362256379983,-0.132340786098,0.304982847396,1.0,-0.14998,-0.197116571429,3.519
-0.226491086307,-0.475742447729,-0.132759628951,-2.60636220867,-0.0615045228814,2.1235986679,-0.485928241466,-0.620692910173,-0.232912755961,-0.00715105835745,-0.185355164574,-0.0389656030563,-0.056663725967,-0.592142466556,0.573901770116,0.81889417734,0.0054618200009,0.0,0.818887658526,-0.573819836966,-0.0115993241163,0.0,-0.00636464085653,0.0111297039156,-0.999917807141,0.0,0.35956729745,-0.135967066383,0.305058184679,1.0,-0.14998,-0.197116571429,3.537
-0.236172159771,-0.479478314022,-0.132774263702,-2.60937899698,-0.0621231582634,2.1227533005,-0.495284310791,-0.598328458477,-0.227399146089,0.00940720979142,-0.185359907005,-0.0427652750853,-0.0524087838514,-0.590156471829,0.573753277635,0.818998390022,0.00543695180059,0.0,0.818991294385,-0.573671008081,-0.0116439301608,0.0,-0.00641746199095,0.0111337736467,-0.999917424224,0.0,0.357187760431,-0.139050918229,0.305036414883,1.0,-0.14998,-0.197116571429,3.553
-0.246632477627,-0.483326094747,-0.132853670076,-2.61252361582,-0.0627575376832,2.12183985084,-0.505267087874,-0.619695190786,-0.223484053859,-0.00961767789713,-0.182515995269,-0.0388064458447,-0.0506170639312,-0.588628377496,0.573762558322,0.818991968305,0.00542488899167,0.0,0.818983873148,-0.573678873813,-0.0117776129066,0.0,-0.00653375196398,0.0112006655575,-0.999915924054,0.0,0.354613132379,-0.142376425971,0.30498731401,1.0,-0.14998,-0.197116571429,3.57
-0.25730228213,-0.487055700286,-0.132991254511,-2.61548135085,-0.0634282468281,2.12091864424,-0.515392578278,-0.618539597355,-0.216316586092,-0.00657482752033,-0.17237562778,-0.0444871253507,-0.0477332622278,-0.598894761705,0.573860995628,0.818923071851,0.00541359291629,0.0,0.818914387948,-0.573776577678,-0.011849515647,0.0,-0.00659777596472,0.0112334602554,-0.999915135761,0.0,0.352023198324,-0.145786051807,0.304971776792,1.0,-0.14998,-0.197116571429,3.587
