nelsonifechukwu/NELSON_IML_WORK/CNN-GradCAM/train2dof/data_sample_2022-02-22-08-54-13/robot_state.csv
position_joint1,position_joint2,position_joint3,position_joint4,position_joint5,position_joint6,position_joint7,velocity_joint1,velocity_joint2,velocity_joint3,velocity_joint4,velocity_joint5,velocity_joint6,velocity_joint7,ee_T_00,ee_T_10,ee_T_20,ee_T_30,ee_T_01,ee_T_11,ee_T_21,ee_T_31,ee_T_02,ee_T_12,ee_T_22,ee_T_32,ee_T_03,ee_T_13,ee_T_23,ee_T_33,v_x,v_y,time
0.465076549262,0.547808326532,-0.123992117629,-1.35582896059,0.0795269354873,1.89411561139,0.159146137914,-0.000136302220793,0.00705405919283,-0.000457338603651,0.00156104863151,2.66285374212e-05,0.000257910750675,-0.000121515891714,0.573802299493,0.818979771164,0.00194998020152,0.0,0.818936414591,-0.573743523334,-0.011927497217,0.0,-0.00864975696468,0.00844109764233,-0.99992696212,0.0,0.661678855776,0.260895798486,0.303198553176,1.0,0.0,0.0,0.0
0.465071539963,0.54781153095,-0.123988552828,-1.35583269827,0.079528715051,1.89411326735,0.159143797745,-0.000907123776255,0.00116553357542,0.00148857160776,0.000447020058132,0.000464992055043,-0.000595843920161,-0.000671544893961,0.573802659585,0.818979532911,0.00194407485249,0.0,0.818936057275,-0.573743866985,-0.0119354972003,0.0,-0.00865969362453,0.00844085554439,-0.999926878159,0.0,0.661677833368,0.260894188417,0.30319418591,1.0,-0.00016,-0.000210285714286,0.009
0.465075934012,0.547802690635,-0.12398856199,-1.35583520496,0.0795240921312,1.89411302588,0.159146951228,0.00200316243942,-0.00129474493602,0.00123598586329,-0.000280481702857,2.52468575763e-05,-9.75583385103e-05,-0.000110378871378,0.573800544506,0.818981007837,0.00194700506407,0.0,0.818937610394,-0.573741778928,-0.0119293041233,0.0,-0.008652961961,0.00843967936611,-0.999926946362,0.0,0.661676560785,0.260896144853,0.303199226191,1.0,-0.0004,-0.000525714285714,0.021
0.465073096608,0.547793521492,-0.123991404016,-1.35584937889,0.0795272776958,1.8941148998,0.159148831123,0.000137866200638,0.000728501088672,0.00120822582579,-0.0017970021692,0.000149677853143,0.000177450254177,0.00754591607507,0.57380800828,0.818975780952,0.0019459574164,0.0,0.81893234324,-0.573749220204,-0.0119329967544,0.0,-0.00865651045049,0.00844101908309,-0.99992690434,0.0,0.661675141412,0.260891703546,0.303199238495,1.0,-0.00072,-0.000946285714286,0.037
0.465072650729,0.547736465159,-0.123992401955,-1.35589025813,0.0795272367941,1.89412229117,0.159149745534,-0.000250988525431,-0.00965184526715,6.17302759942e-06,-0.00387310942458,-0.000250592140867,0.000857015216074,0.0012001062964,0.573811991714,0.818972936758,0.00196822880259,0.0,0.818929763978,-0.5737530856,-0.0119241493005,0.0,-0.00863644450062,0.00845422377836,-0.999926966296,0.0,0.661669105071,0.260887228687,0.303220876076,1.0,-0.00106,-0.00139314285714,0.054
0.465071677551,0.547613066076,-0.12398926974,-1.35605991654,0.0795239168961,1.89415431798,0.159142168012,0.00175751741348,-0.00934249178641,0.000984604827362,-0.0108220431057,9.96143155495e-05,0.00339914705727,-0.000562417576047,0.573812781682,0.818972397876,0.00196214090838,0.0,0.818929024947,-0.57375378268,-0.0119413509395,0.0,-0.00865401766109,0.00845911680473,-0.99992677298,0.0,0.66163957738,0.260871513234,0.30323021391,1.0,-0.00142,-0.00186628571429,0.072
0.465053617339,0.547476731366,-0.12398900667,-1.3562513607,0.0795204503038,1.89419959288,0.159137369971,-0.00365787981784,-0.00699301285207,0.0007901678614,-0.0157595945876,0.000100800135339,0.00467163977509,-0.00090993990737,0.573833064283,0.818958193035,0.00195941267496,0.0,0.818914675825,-0.573773967985,-0.0119555126484,0.0,-0.008666971916,0.00846522323542,-0.999926609104,0.0,0.661613158421,0.260841292544,0.303239587743,1.0,-0.00174,-0.00228685714286,0.088
0.465029600511,0.547282912715,-0.123991759191,-1.35648352661,0.0795175957599,1.8943467734,0.159134403529,-0.00325240605065,-0.0110374586369,0.000707681430915,-0.00898421568996,3.99858521584e-05,0.00778322470553,0.00174434907831,0.573864823746,0.818935702179,0.00205588530186,0.0,0.818893444087,-0.573805325568,-0.0119047252003,0.0,-0.00856969154929,0.00851541797248,-0.999927021359,0.0,0.661601465033,0.260808349452,0.303279244656,1.0,-0.00212,-0.00278628571429,0.107
0.465007750112,0.547088893642,-0.123986738214,-1.356707334,0.0795156577822,1.89445611732,0.159116622089,0.000282376157917,-0.00569735802396,-0.00198806149637,-0.0104015841181,0.000107967890152,0.00177661358278,-0.00388928027476,0.573876758057,0.818927146179,0.00213136440229,0.0,0.818885782553,-0.573816864177,-0.0118755387263,0.0,-0.00850235189738,0.0085606044891,-0.999927210382,0.0,0.661581731362,0.260779906049,0.303319472443,1.0,-0.00244,-0.00320685714286,0.123
0.46497920155,0.546893270516,-0.123991650035,-1.35698111492,0.0795101926636,1.89457265024,0.15909990255,0.000107399654681,-0.0169996638872,0.000281388521484,-0.0193538945951,-0.00314109785298,0.00531499965958,-0.00217487594237,0.573903826418,0.818908079348,0.00216852539182,0.0,0.818867148587,-0.573843729288,-0.0118623026227,0.0,-0.00846990383143,0.00858372033276,-0.999927287594,0.0,0.661556219919,0.260735279615,0.303337989023,1.0,-0.00274,-0.00360114285714,0.138
0.464943801094,0.546612686819,-0.12399175201,-1.35739482228,0.0795058541404,1.89472284696,0.159051793361,0.00176909298323,-0.0187383940885,-0.000783131399113,-0.0225065809544,0.000294548217257,0.0121783562488,-0.00821032960924,0.573915451894,0.818899862114,0.00219472284835,0.0,0.818859084431,-0.573855058269,-0.0118709243437,0.0,-0.00846180841625,0.00861024142514,-0.999927128115,0.0,0.661508160013,0.26067587499,0.303352831083,1.0,-0.0031,-0.00407428571429,0.156
0.464893758618,0.546330560573,-0.123992706002,-1.35782870803,0.0794933156233,1.89488710265,0.158929177111,-0.00772517857833,-0.0194675436391,-0.000625830111562,-0.024492206409,7.96948953087e-05,0.0152157838108,-0.00385551318628,0.573877664089,0.818926294167,0.00221320632178,0.0,0.818885637691,-0.573817080022,-0.011875098278,0.0,-0.00845501742193,0.00862738263463,-0.999927037813,0.0,0.661462754211,0.260603542952,0.303360378019,1.0,-0.00344,-0.00452114285714,0.173
0.464852243774,0.546050723651,-0.123990282198,-1.35830138455,0.0794777749439,1.89504959993,0.158916659855,-0.00285859618144,-0.016136995652,0.00052289043382,-0.027138048218,0.000281795166787,0.0116495104008,-0.000171293970805,0.573921993082,0.818895279199,0.00219418863534,0.0,0.818854227624,-0.573861329296,-0.0119027535545,0.0,-0.00848811211073,0.00862813880185,-0.999926750904,0.0,0.661405162134,0.260533562223,0.303347553335,1.0,-0.00376,-0.00494171428571,0.189
0.464795130897,0.545715120758,-0.123994949283,-1.35887571389,0.0794508912879,1.89523487477,0.158826363387,-0.00169023348447,-0.0203548484464,-0.00209428430851,-0.0354624000675,0.000784185007593,0.0102274973369,-0.00638074038709,0.573922934711,0.818894731359,0.00215194494106,0.0,0.81885303429,-0.573862345607,-0.0119358045227,0.0,-0.00853941167685,0.00861252442223,-0.999926448731,0.0,0.66133651808,0.260437533432,0.303328001722,1.0,-0.0041,-0.00538857142857,0.206
0.464728558046,0.545322194228,-0.123998112341,-1.35957751427,0.0793360678578,1.89546280383,0.158753275914,-0.00291817465226,-0.0187063215669,-0.00044927894224,-0.043702218133,-0.00516334087763,0.0079163648403,-0.00010638714135,0.573928386239,0.818891193635,0.00204141092794,0.0,0.818848671053,-0.573868864224,-0.011921723447,0.0,-0.00859125758139,0.00851398604514,-0.999926848492,0.0,0.661255575269,0.260310396274,0.303291827369,1.0,-0.00446,-0.00586171428571,0.224
0.464675007228,0.544975385506,-0.12399909094,-1.36015437503,0.0793297183491,1.89564790751,0.158700583371,-0.0069010490821,-0.0294459863868,0.000293663172408,-0.0439597299806,-8.81675127524e-05,0.0124708706042,0.00264614323436,0.573960139265,0.818868994786,0.00201861699435,0.0,0.818825876743,-0.573900413013,-0.0119685596916,0.0,-0.00864236370922,0.00852253610285,-0.999926335251,0.0,0.661183554323,0.260222030271,0.303278852237,1.0,-0.00474,-0.00622971428571,0.238
0.464604983297,0.544521984318,-0.123999091069,-1.36091761078,0.0793075742372,1.89591271422,0.158557301755,-0.00201480122671,-0.0267483495281,-0.00148029457903,-0.0441472940035,-0.00109705355781,0.0218655955189,-0.00921217987418,0.573936794266,0.818885419002,0.00199339783144,0.0,0.818841713384,-0.573876923059,-0.0120113489627,0.0,-0.00869212086444,0.00852619656994,-0.999925872756,0.0,0.661092257729,0.260105471747,0.303259444952,1.0,-0.0051,-0.00670285714286,0.256
0.464537335886,0.544038893044,-0.124006609224,-1.3617054445,0.079281812689,1.89619741507,0.158496441246,-0.00735783214103,-0.0276006345763,-0.000288455204116,-0.041610906324,-8.32326860975e-05,0.0182320123579,2.24744910435e-05,0.573984682161,0.818851873013,0.0019853484379,0.0,0.818807885652,-0.573924666201,-0.012036229555,0.0,-0.0087166164975,0.00853439466581,-0.999925589584,0.0,0.661001261743,0.259984372129,0.303251261462,1.0,-0.00544,-0.00714971428571,0.273
0.464468174527,0.543598602397,-0.124004871083,-1.36244534271,0.0792431250414,1.89644397363,0.158403347167,-0.0027689803181,-0.025755200151,-0.000260090236066,-0.0475979974604,-0.00332192456344,0.0178917820986,-0.00922373695866,0.573994657601,0.818844980345,0.00194373626185,0.0,0.818800334847,-0.573934708378,-0.0120710013836,0.0,-0.00876887001405,0.00852038625201,-0.999925252175,0.0,0.660911445081,0.259868083147,0.303231921349,1.0,-0.00574,-0.007544,0.288
0.464386197522,0.543017145818,-0.124008174232,-1.36336125105,0.0791907936165,1.89676982174,0.158267748865,-0.00256604590186,-0.0323731414762,0.0012255402553,-0.0528037413743,0.000107287608234,0.0279584010901,-0.00954557291324,0.573990023923,0.818848243322,0.00193745871926,0.0,0.81880347618,-0.573930064173,-0.0120787306978,0.0,-0.00877885062643,0.00851963288578,-0.999925171019,0.0,0.660805770777,0.259724551134,0.303235646301,1.0,-0.0061,-0.00801714285714,0.306
0.464309357218,0.542422537902,-0.124008422202,-1.364272036,0.0791372754694,1.89709671337,0.158157853708,-0.00644934637315,-0.0362410874971,0.00062711160453,-0.052956546711,-0.00225667859594,0.0236681809722,-0.0101129313286,0.573999421496,0.818841631721,0.00194760990786,0.0,0.818796964685,-0.573939384678,-0.0120772612297,0.0,-0.0087717231428,0.00852720221512,-0.999925169048,0.0,0.660699720879,0.259586855003,0.303251019529,1.0,-0.00644,-0.008464,0.323
0.464235175066,0.541854052661,-0.12401337733,-1.36516764098,0.0790791968374,1.8974384729,0.15802625311,-0.00268633208097,-0.0391339440049,-0.000754459981948,-0.0580220417943,-0.00514264438103,0.0310384758965,-0.00764457059856,0.573990221407,0.818848061045,0.00195590191673,0.0,0.818803569324,-0.573930214844,-0.0120652497751,0.0,-0.00875722378079,0.00852699903157,-0.999925297869,0.0,0.660599948005,0.259449921006,0.303256508527,1.0,-0.00676,-0.00888457142857,0.339
0.464150936112,0.541161787056,-0.124016961412,-1.36622531426,0.0790140570383,1.89782846732,0.157887130413,-0.00218576137982,-0.043964533884,-0.00570501492185,-0.0632858199036,-0.00611850327637,0.020844644335,-0.00724031400156,0.573989065465,0.818848824649,0.00197534759924,0.0,0.818804607143,-0.573928994612,-0.0120528572119,0.0,-0.00873592689362,0.00853579630271,-0.999925409099,0.0,0.660478192398,0.259291666759,0.303276423047,1.0,-0.00712,-0.00935771428571,0.357
0.46406378508,0.540498526193,-0.124011706516,-1.36722683174,0.0789604424427,1.89819914254,0.157767576343,-0.00707736826832,-0.0370585177161,0.000408435835977,-0.0615219488475,-0.00932216375703,0.0265434049148,-0.0049993305179,0.574000009667,0.818841073221,0.00200813584587,0.0,0.818797189791,-0.573939704115,-0.0120467809739,0.0,-0.0087120179017,0.00855927317533,-0.999925417012,0.0,0.660362687658,0.259143461814,0.303300508062,1.0,-0.00744,-0.00977828571429,0.373
0.463967461119,0.539802728979,-0.124012307181,-1.3682834132,0.078900060171,1.89858909239,0.157626883863,-0.00321696607177,-0.0450429987587,0.000912139536189,-0.0663350629933,-0.000174121936811,0.0293910321392,-0.00773701745346,0.574006425929,0.818836509252,0.00203494711206,0.0,0.81879293963,-0.573945969115,-0.012037169525,0.0,-0.00868869146703,0.00857577809552,-0.999925478559,0.0,0.66024307071,0.25897991855,0.30332313287,1.0,-0.00776,-0.0101988571429,0.389
0.46385857427,0.538988015556,-0.124018001336,-1.36952963709,0.0788234949809,1.89905555806,0.157477350868,-0.0100067947771,-0.0465612529327,-0.00010672737824,-0.0719964693167,-0.000756395418993,0.0232626584209,-0.0022800606938,0.57402558197,0.818823012185,0.00206224674977,0.0,0.818779839684,-0.573965047091,-0.0120185583852,0.0,-0.0086575813115,0.00858765137357,-0.999925646501,0.0,0.660103089406,0.25878676295,0.30334618311,1.0,-0.00812,-0.010672,0.407
0.46375272232,0.538211515945,-0.124026488681,-1.37072234123,0.0787606832879,1.89951988133,0.157326639904,-0.00706921750712,-0.0490941727479,-0.000147806765569,-0.066170501563,-0.00140974420322,0.0214142384615,-0.0107158959296,0.574044015137,0.818809980337,0.00210515743541,0.0,0.818767351918,-0.573983281619,-0.0119984480682,0.0,-0.00861628974397,0.0086114372801,-0.999925798597,0.0,0.659972888371,0.258601927221,0.303367499791,1.0,-0.00846,-0.0111188571429,0.424
0.463649401677,0.537463136555,-0.124033597563,-1.37191185703,0.0786908696244,1.89997541222,0.157189019383,-0.00729879534638,-0.0464025414922,-0.000213759462294,-0.0790496170756,-0.00240953379182,0.0251188036406,-0.0190372190276,0.574067965855,0.818793162858,0.00211516846986,0.0,0.818750691769,-0.574007214247,-0.0119903970632,0.0,-0.00860369882215,0.00861526437033,-0.999925874046,0.0,0.659840093744,0.258417853286,0.303369529971,1.0,-0.00878,-0.0115394285714,0.44
0.463539330172,0.536622578736,-0.124038946122,-1.37321550608,0.0786112783798,1.90045460594,0.157026688861,-0.00816176017132,-0.0474025562251,-0.000661732887547,-0.0723074421178,-0.00868453470201,0.0305111884969,-0.00783593962238,0.574079367683,0.81878513837,0.00212689586045,0.0,0.81874283768,-0.574018583315,-0.0119824312252,0.0,-0.00859032425044,0.00862041326299,-0.99992594466,0.0,0.659689603089,0.258218053192,0.303384157704,1.0,-0.00912,-0.0119862857143,0.457
0.463421302392,0.535764806044,-0.124040020222,-1.37458288214,0.0785395619395,1.90095003227,0.156863645631,-0.00941382003762,-0.0482160171577,-0.00119018611691,-0.0775222751825,-0.00338391953725,0.0305222966172,-0.0053165880934,0.574099203706,0.818771248372,0.00211991636926,0.0,0.818728731141,-0.574038320078,-0.0120007827718,0.0,-0.00860914841295,0.00862544233874,-0.999925739397,0.0,0.659528342508,0.25801053329,0.303381740201,1.0,-0.00946,-0.0124331428571,0.474
0.463308771641,0.534908833056,-0.124044974861,-1.37593377102,0.0784666696749,1.90143714973,0.156702310615,-0.00685580953635,-0.0547779132056,-0.00233087410058,-0.0851714875225,-0.00700468237463,0.0346864735631,-0.00682186224516,0.574117286346,0.818758577614,0.0021166019088,0.0,0.818715928174,-0.574056325219,-0.0120129651319,0.0,-0.00862083550839,0.00862991279138,-0.999925600133,0.0,0.659368417319,0.257805585503,0.303385135244,1.0,-0.00978,-0.0128537142857,0.49
0.463172182864,0.533967056417,-0.124047879179,-1.37749763345,0.0783819839199,1.90200304818,0.156509806125,-0.00904959966419,-0.0561930262577,0.000248900097001,-0.0886373310221,-0.000404498035983,0.033571377978,-0.00814703765209,0.574136575028,0.818745166631,0.00207177075938,0.0,0.818701808394,-0.57407567795,-0.0120503866792,0.0,-0.00867700970572,0.0086148960665,-0.99992524374,0.0,0.659182972345,0.257565263196,0.303354303307,1.0,-0.01014,-0.0133268571429,0.508
0.463045744526,0.533045182598,-0.124043821522,-1.37897871297,0.07828885628,1.90256438793,0.156321198752,-0.00930880835937,-0.049232195837,0.000674943255371,-0.092278454581,-0.000109364416351,0.0290807648238,-0.0164039426957,0.574138962285,0.818743495033,0.00207080374653,0.0,0.818700133359,-0.574078078153,-0.0120498433359,0.0,-0.00867709487335,0.00861381769469,-0.999925252291,0.0,0.659011223298,0.257343594688,0.303347986556,1.0,-0.01048,-0.0137737142857,0.525
0.462918631185,0.532151006761,-0.124048315248,-1.38044104449,0.0782173054054,1.90310365501,0.156128738505,-0.00875333643214,-0.0538643043142,-0.000213959512791,-0.093707080656,-0.00427027690875,0.028473145955,-0.0132902108574,0.574149375973,0.818736237325,0.0020529643178,0.0,0.818692481434,-0.574088407256,-0.0120775990394,0.0,-0.00870995267162,0.00861525827374,-0.999924954209,0.0,0.658839257434,0.25712037888,0.303329290738,1.0,-0.0108,-0.0141942857143,0.541
0.462780466665,0.531091685222,-0.124050993683,-1.38214559773,0.0781056304314,1.90371608019,0.155917553683,-0.00707865274061,-0.0547429018049,-0.00162680591681,-0.09290723727,-0.0036292565971,0.034660441708,-0.0158927190968,0.574154267583,0.818732891554,0.00201896160978,0.0,0.818688726583,-0.574093480053,-0.0120909895598,0.0,-0.00874038642691,0.00859515984785,-0.999924861613,0.0,0.65863395985,0.256862879548,0.303317728153,1.0,-0.01116,-0.0146674285714,0.559
0.462647340169,0.530109555649,-0.124054563386,-1.38369403358,0.0780117092892,1.9042698993,0.155720149098,-0.00642317321553,-0.0669170790868,-0.00161099615082,-0.0902111730664,-0.0049626581585,0.0373694020224,-0.00922880480071,0.574163007944,0.818726790393,0.00200746201212,0.0,0.818682443951,-0.574102238705,-0.0121005116266,0.0,-0.00875469316584,0.00859130546865,-0.999924769579,0.0,0.658448850315,0.256624619128,0.303320796851,1.0,-0.01148,-0.015088,0.575
0.462513341539,0.529129868979,-0.124054911093,-1.38524354124,0.0779197535999,1.90484830644,0.155498646007,-0.00931896762423,-0.0585012586092,-0.000258651544985,-0.0970266761837,-0.00359151484924,0.0367955576522,-0.0116028064643,0.574151059176,0.818735151297,0.00201498842825,0.0,0.818690870642,-0.574090226662,-0.0121002843146,0.0,-0.00875031141616,0.00859720920912,-0.999924757191,0.0,0.658267299652,0.256389497419,0.303323455583,1.0,-0.0118,-0.0155085714286,0.591
0.462365128293,0.527975152952,-0.124052513764,-1.38705639815,0.0777989008055,1.90555111377,0.155255702608,-0.0135959516709,-0.0690881134698,-0.00186302794189,-0.100457743702,-0.00611415698072,0.0427446013591,-0.0159259026683,0.574137674482,0.818744461579,0.00204555004131,0.0,0.818700691465,-0.574076820882,-0.0120718027775,0.0,-0.00870958648717,0.00860573569378,-0.999925039399,0.0,0.658057699713,0.256121448993,0.303334439231,1.0,-0.01216,-0.0159817142857,0.609
0.462229206768,0.526885155036,-0.124055351214,-1.38870830163,0.0776958989037,1.90618419708,0.155017204322,-0.0165785133555,-0.0710096778661,-0.00127068679142,-0.10843299105,-0.00869393267013,0.0422814170086,-0.00791289341102,0.574117330933,0.818758579685,0.00210366744208,0.0,0.818715624951,-0.574056287879,-0.0120353939974,0.0,-0.00864662504688,0.00863219987966,-0.999925357715,0.0,0.657866727106,0.255874886889,0.303370300061,1.0,-0.01248,-0.0164022857143,0.625
0.462075762755,0.52570143286,-0.124058451677,-1.39053966493,0.0775924939202,1.90684867872,0.154784464397,-0.0108540530733,-0.0660903789274,-9.14380899261e-05,-0.110579102588,-0.00308800233618,0.0371468314647,-0.0159192120598,0.574125445446,0.818752842834,0.00212182565976,0.0,0.818710029674,-0.574064229119,-0.0120372363278,0.0,-0.00863762355255,0.00864821012232,-0.99992529717,0.0,0.657646430257,0.255598678673,0.303389164908,1.0,-0.01282,-0.0168491428571,0.642
0.46191869478,0.524529929496,-0.124061638829,-1.39240405213,0.0774726317009,1.90751873128,0.154524953687,-0.0107623246549,-0.0677811132637,0.000141041677562,-0.113193353096,-0.0113645824029,0.0367705813455,-0.0184794587908,0.574111710881,0.818762535315,0.00209787895542,0.0,0.818719422746,-0.574050611022,-0.0120478091382,0.0,-0.00866017279391,0.00863452880549,-0.999925220364,0.0,0.657420414231,0.255313731809,0.303383889163,1.0,-0.01316,-0.017296,0.659
0.461768574417,0.523325426266,-0.124070881238,-1.39430876214,0.0773535632464,1.90821587969,0.154267862259,-0.00679897141137,-0.0726171949564,-0.00251437705219,-0.117692094058,-0.00506907758639,0.0425596086611,-0.0186796710699,0.574096765051,0.818773013687,0.00209840834483,0.0,0.818729950322,-0.574035707012,-0.0120425255658,0.0,-0.00865570028117,0.00863177091865,-0.9999252829,0.0,0.657177326488,0.255015469545,0.303387336844,1.0,-0.01352,-0.0177691428571,0.677
0.461620320341,0.52216627339,-0.124063441494,-1.39613326502,0.0772403050927,1.90894125251,0.154010196213,-0.00764585715234,-0.0730923881474,0.00135112920328,-0.113126928002,-0.00398238360444,0.0511869619123,-0.0150249522671,0.57407342078,0.818789274913,0.00213956573073,0.0,0.818746771134,-0.574012214426,-0.0120187083083,0.0,-0.00861281842162,0.00865155009474,-0.999925482243,0.0,0.656978027457,0.254763913884,0.303393721702,1.0,-0.01382,-0.0181634285714,0.692
0.461457914574,0.520915240117,-0.124069872587,-1.39814792227,0.0771135944257,1.90970077689,0.153741448502,-0.00838721873715,-0.0772565218781,5.79359838497e-05,-0.121104933197,-0.00976537433482,0.0404319879024,-0.0168642121672,0.574064481685,0.818795567011,0.00213007323741,0.0,0.818752990663,-0.574003367798,-0.0120175263373,0.0,-0.00861739399101,0.00864300526605,-0.999925516717,0.0,0.65673716981,0.254461830626,0.303379739931,1.0,-0.01416,-0.0186102857143,0.709
0.461287085818,0.519604696384,-0.124075518412,-1.40018904903,0.0769951940017,1.9104381321,0.15347847846,-0.0101834373798,-0.0820788913257,0.00160545734869,-0.119391766421,-0.0089849576694,0.0425928398594,-0.0158338191376,0.574069742778,0.818791857674,0.00213802140663,0.0,0.818749304409,-0.574008513916,-0.0120228691325,0.0,-0.00861715076808,0.00865263551987,-0.999925435526,0.0,0.65648800418,0.254152214265,0.303392610625,1.0,-0.0145,-0.0190571428571,0.726
0.461116954553,0.518256398304,-0.12408402075,-1.40228244131,0.0768557320432,1.91119345057,0.15319255946,-0.0081732769596,-0.0798233768679,-0.000625060716384,-0.121655761516,-0.00698709975832,0.0492958371369,-0.020179330685,0.574054306494,0.818802678181,0.0021387612148,0.0,0.818760223093,-0.573993165394,-0.0120120798513,0.0,-0.00860805456478,0.0086468852573,-0.999925563616,0.0,0.656231942081,0.253833577485,0.303408320599,1.0,-0.01484,-0.019504,0.743
0.460944573303,0.516975447447,-0.124087217882,-1.40429297637,0.0767222792479,1.91191026238,0.152912685047,-0.0109139789295,-0.0775785160175,-0.000212976953419,-0.122742122022,-0.00428775157082,0.0427977869278,-0.0215363528143,0.574038784835,0.818813604139,0.00212181116748,0.0,0.818770966364,-0.573977755392,-0.0120161497877,0.0,-0.00862128049067,0.00863517965655,-0.999925550826,0.0,0.655984330172,0.253523926457,0.303412323353,1.0,-0.01516,-0.0199245714286,0.759
0.460749171957,0.515542180602,-0.124090407217,-1.40659668796,0.076579610057,1.91278738702,0.152599108641,-0.0093580169399,-0.0848590040898,-0.00032887815091,-0.131309379796,-0.00708532675205,0.0519277393604,-0.0215225658645,0.574027692459,0.818821377754,0.00212285740476,0.0,0.818778779782,-0.573966686227,-0.0120124844331,0.0,-0.00861779554309,0.00863381554306,-0.999925592646,0.0,0.655708792273,0.253175762875,0.303397176064,1.0,-0.01552,-0.0203977142857,0.777
0.460575334771,0.514235536642,-0.12408936933,-1.40870046438,0.0764533803467,1.91353306014,0.152313601741,-0.0156647295683,-0.0783735255894,0.00127144037524,-0.132896181548,-0.014752316133,0.0466485796334,-0.0164440908522,0.574012094873,0.818832420886,0.00208046804538,0.0,0.818789150236,-0.573951150696,-0.0120478616874,0.0,-0.00867125967196,0.00861924893613,-0.999925256108,0.0,0.655442957336,0.252860126782,0.303376455978,1.0,-0.01584,-0.0208182857143,0.793
0.46037677574,0.512825916706,-0.124097174042,-1.41097465874,0.0763220710194,1.91432397697,0.151994184942,-0.012524919391,-0.0834042771869,0.000484370547675,-0.134927928386,-0.00584515994271,0.0526337866899,-0.0138725156552,0.574002462338,0.818839322605,0.00202086307194,0.0,0.81879511319,-0.573941617688,-0.0120966525678,0.0,-0.00874552575221,0.0085983467125,-0.999924789278,0.0,0.655156049799,0.252506579626,0.303350599218,1.0,-0.01618,-0.0212651428571,0.81
0.460183271543,0.511402392601,-0.124105697585,-1.41327441477,0.0761770980808,1.91518799108,0.151668794232,-0.0112443324137,-0.0859381594659,-0.00163299135647,-0.1377574649,-0.0130745967371,0.0480563146562,-0.0229103740129,0.573981914594,0.818853767887,0.00200385559722,0.0,0.818809385269,-0.573921194821,-0.0120995715409,0.0,-0.00875789316404,0.00858587631324,-0.999924788189,0.0,0.654876758085,0.252155842787,0.303328216533,1.0,-0.01652,-0.021712,0.827
0.459986481827,0.510027236677,-0.124106049407,-1.41547513208,0.0760470458701,1.91601348639,0.151363534857,-0.0142789277846,-0.0800621809568,-5.77792153854e-05,-0.137214668515,-0.00838117116155,0.0539363851557,-0.0189704527201,0.573973258167,0.81885983403,0.00200450054109,0.0,0.818815390775,-0.573912468972,-0.0121070512131,0.0,-0.00876373882148,0.0085906049212,-0.999924696359,0.0,0.65460941142,0.251818694556,0.303315060532,1.0,-0.01684,-0.0221325714286,0.843
0.459785181646,0.508507181501,-0.124113125299,-1.41784020681,0.0758986126829,1.91685828605,0.151035162559,-0.0127574124942,-0.0909485130375,-0.000761577554181,-0.142243732262,-0.00401313924059,0.0498999422962,-0.018083797812,0.573956931643,0.818871284253,0.00200183574616,0.0,0.818826785088,-0.573896135525,-0.0121106793377,0.0,-0.0087684105628,0.00859033047154,-0.999924657761,0.0,0.654313224035,0.251455557403,0.303326418892,1.0,-0.01718,-0.0225794285714,0.86
0.459552350614,0.506892638976,-0.124113929708,-1.4203795523,0.0757352747379,1.91778759066,0.150670814541,-0.0151048813357,-0.0888014057785,2.44993034839e-05,-0.140228140846,-0.00164490118401,0.0499824912162,-0.0210629816044,0.573937183597,0.818885127252,0.00200113754357,0.0,0.818840627954,-0.573876401856,-0.0121098433582,0.0,-0.00876833382384,0.00858906747977,-0.999924669284,0.0,0.654000991625,0.251059419294,0.303327518808,1.0,-0.01754,-0.0230525714286,0.878
0.45936274918,0.50547035147,-0.124124454251,-1.42255546244,0.0755910179909,1.91861155979,0.150382038259,-0.0111064148679,-0.0948205284669,-0.00132061907217,-0.146156674687,-0.0135922253753,0.0559268380037,-0.015609235905,0.573939651176,0.818883243379,0.00206335222656,0.0,0.81883971097,-0.573878751359,-0.0120604053529,0.0,-0.00869211720262,0.00861166538334,-0.999925140357,0.0,0.653723675706,0.250696913858,0.303363922128,1.0,-0.01786,-0.0234731428571,0.894
0.459122284961,0.503713552978,-0.124130965137,-1.42517696201,0.0754299172193,1.91961252748,0.150014216975,-0.0142343164846,-0.0993949939467,-0.000614180186325,-0.148596114576,-0.0114863234158,0.0529530202005,-0.022593076603,0.573928802606,0.81889058008,0.00216663256935,0.0,0.818848445169,-0.573867517325,-0.0120018042539,0.0,-0.00858496968121,0.00866249163501,-0.999925627001,0.0,0.653426196674,0.250315437462,0.303424252002,1.0,-0.0182,-0.02392,0.911
0.458886856929,0.502028039117,-0.124135143156,-1.42768209359,0.0752702418411,1.92053694117,0.149670404097,-0.0158406878727,-0.0965511684064,0.000959553787712,-0.153013045371,-0.0170871288617,0.0535154988655,-0.0167524461345,0.573928167993,0.818890790484,0.00225347396852,0.0,0.818849833526,-0.573866572163,-0.0119521708608,0.0,-0.00849449280772,0.00870511191002,-0.999926029573,0.0,0.653121071425,0.249921156253,0.303488926741,1.0,-0.01854,-0.0243668571429,0.928
0.458665393921,0.500405130228,-0.124138114892,-1.43011294639,0.0751134361199,1.92139605963,0.149324424777,-0.0186952202488,-0.0998946465243,-0.00116903304549,-0.15003520903,-0.010989221151,0.0474695552889,-0.0254220895731,0.573909720267,0.818903602426,0.00229560858048,0.0,0.818863184518,-0.573847946419,-0.011931736407,0.0,-0.00845377441857,0.00872769689148,-0.999926177778,0.0,0.652814130487,0.249540894107,0.303538937262,1.0,-0.01886,-0.0247874285714,0.944
0.458417894672,0.498722264409,-0.124141175223,-1.4327247465,0.0749503686474,1.92236503309,0.148951584076,-0.0182068877853,-0.0996305323691,-0.00146576169471,-0.154651754451,-0.00950107813122,0.0613796258238,-0.0278509765907,0.573898215659,0.818911574895,0.00232754544995,0.0,0.818871567446,-0.573836309871,-0.0119160564863,0.0,-0.00842272865528,0.00874473270927,-0.999926290929,0.0,0.652492838197,0.24912938341,0.303553671601,1.0,-0.0192,-0.0252342857143,0.961
0.458163928332,0.497043111739,-0.124138519305,-1.43538158309,0.0747852763974,1.92333277287,0.148556762666,-0.0162253527956,-0.0992909131996,-2.60019741237e-05,-0.158842267819,-0.00825625405986,0.0577562235283,-0.0140171420681,0.573871088389,0.818930609624,0.00231892953302,0.0,0.818890410032,-0.573809137551,-0.0119296655959,0.0,-0.00843910784265,0.00874520770812,-0.999926148673,0.0,0.652159531259,0.24871136164,0.303543510164,1.0,-0.01954,-0.0256811428571,0.978
0.457912308486,0.495468400692,-0.124136250839,-1.43793885801,0.074629183827,1.92420262546,0.148195160943,-0.0192388255393,-0.101072610348,0.000577761680983,-0.160351837516,-0.00638307039492,0.0571235486913,-0.0245001753367,0.573866123507,0.818934346462,0.00222606758814,0.0,0.818892724669,-0.573804333741,-0.0120016234766,0.0,-0.00855137908954,0.0087104033951,-0.999925498619,0.0,0.651825803495,0.248300131977,0.303498951975,1.0,-0.01986,-0.0261017142857,0.994
0.457602422094,0.493607978128,-0.124166924251,-1.44095837324,0.0744430165674,1.92528408297,0.147761441536,-0.0171305730627,-0.116719825836,7.58723916721e-05,-0.181545576587,-0.0148661815021,0.0601986381858,-0.0272785147241,0.573888442393,0.818918902378,0.00215265335731,0.0,0.818876325432,-0.573826959314,-0.0120387421758,0.0,-0.00862366903053,0.00867181882621,-0.999925213149,0.0,0.651451939708,0.247790165243,0.303452124001,1.0,-0.0264165714286,-0.034718922449,1.012
0.457294437666,0.491013288351,-0.124241554043,-1.4449057053,0.0742308444031,1.92678765207,0.147189986837,-0.024544050447,-0.162944641871,-0.00810114946978,-0.253944687754,-0.0203412448862,0.103503303042,-0.0431683578934,0.573867756262,0.818933050833,0.00228111309349,0.0,0.818892218733,-0.573805814138,-0.0119653107755,0.0,-0.00849003596127,0.00873465997927,-0.99992580975,0.0,0.65096513685,0.247179693319,0.303511371215,1.0,-0.036364,-0.0477926857143,1.029
0.45684376215,0.487910517159,-0.124249597631,-1.44989598832,0.0739579110522,1.92863931372,0.146449725849,-0.0334167232109,-0.217096489627,-0.00212540311981,-0.332742844558,-0.0219914574,0.133085405827,-0.0450741525935,0.5738066489,0.818975959991,0.00224800714347,0.0,0.818934305952,-0.573744450874,-0.0120272410779,0.0,-0.00856040449802,0.00874244938746,-0.999925141725,0.0,0.650369536088,0.246469442131,0.303446335049,1.0,-0.0451411428571,-0.0593283591837,1.044
0.45621556305,0.483722358796,-0.124359643103,-1.45643958867,0.0735649216748,1.93107289014,0.145461629733,-0.0436290245731,-0.264368017265,-0.00622682078746,-0.405275901389,-0.0233050812097,0.146969573455,-0.0541270509225,0.573814450202,0.818970309116,0.00231439570457,0.0,0.818929767839,-0.573752232291,-0.0119648731245,0.0,-0.00847114923528,0.00876111330928,-0.999925738505,0.0,0.649522108677,0.245321315923,0.303462043466,1.0,-0.0556737142857,-0.0731711673469,1.062
0.455432907701,0.478709722029,-0.124492807624,-1.46438870633,0.0730907071533,1.93382039831,0.144251048209,-0.0506644346616,-0.313932283988,-0.00730094241076,-0.488372680723,-0.0341205141983,0.167839223122,-0.0717719991888,0.57382040838,0.81896660031,0.00214322278315,0.0,0.818923717826,-0.573758790734,-0.0120640514961,0.0,-0.00865052887687,0.00867790200242,-0.999924928366,0.0,0.64849431846,0.243970166927,0.303396123464,1.0,-0.0656211428571,-0.0862449306122,1.079
0.454609133755,0.473544556944,-0.124605078276,-1.47240811427,0.0725983952307,1.93669765773,0.143111112387,-0.0568564340893,-0.357794477481,-0.00534420673359,-0.553906841516,-0.0315665323286,0.194660203713,-0.0753898301634,0.573897198706,0.818912779644,0.00214745305837,0.0,0.818870057807,-0.5738356591,-0.0120503806498,0.0,-0.00863609184409,0.00867433171607,-0.999925084137,0.0,0.647474247432,0.242605339079,0.303406650879,1.0,-0.0743982857143,-0.0977806040816,1.094
0.453403716207,0.466094257081,-0.124694686941,-1.48369535755,0.0719429256239,1.94090595951,0.141326055831,-0.0612541431086,-0.413227799825,-0.00141000314421,-0.622098545942,-0.0349514471849,0.2333760717,-0.0965778406311,0.573849670183,0.818945152038,0.00247808107562,0.0,0.818906537436,-0.573786580679,-0.0119075471114,0.0,-0.0083298986889,0.00886262940879,-0.999926030558,0.0,0.646049843003,0.240715876522,0.303546426512,1.0,-0.085516,-0.112392457143,1.113
0.452118743328,0.458677331979,-0.124748033007,-1.49524969036,0.0711985333033,1.94491710909,0.13956767596,-0.0761807029014,-0.449946170915,-0.00395378939555,-0.69733467308,-0.0525574440184,0.244366718743,-0.101456023388,0.573838173551,0.818953542844,0.00236477070431,0.0,0.818913098846,-0.573775166963,-0.0120058825776,0.0,-0.00847557654727,0.00882614536635,-0.999925129077,0.0,0.644510729547,0.238741517677,0.303505398889,1.0,-0.0954634285714,-0.125466220408,1.13
0.450846927615,0.451410059514,-0.124870369459,-1.50637411203,0.0704516254791,1.94874958191,0.137783682231,-0.0879426924995,-0.50576430386,-0.00956206405465,-0.762544364201,-0.0481771077475,0.278337971799,-0.123704356415,0.573814178606,0.818970500304,0.00231407940507,0.0,0.818929558369,-0.573751552224,-0.0120117296887,0.0,-0.00850970946033,0.00878773802138,-0.999925177453,0.0,0.643029141322,0.236775235258,0.303539294005,1.0,-0.104240571429,-0.137001893878,1.145
0.449186295206,0.4419082943,-0.124975300966,-1.52070915885,0.0695018818381,1.95395472233,0.13559356038,-0.0920161021076,-0.537721955845,-0.00201469666893,-0.81421419583,-0.0527780348919,0.284935875198,-0.133541286666,0.573843403328,0.818949161379,0.00260123706616,0.0,0.818912297247,-0.573780002504,-0.0118281463438,0.0,-0.0081942704837,0.00891786047097,-0.999926660159,0.0,0.641137460374,0.234285018175,0.303679150157,1.0,-0.114773142857,-0.150844702041,1.163
0.447414599535,0.432157915239,-0.125042571174,-1.53537390938,0.0685182927593,1.95907813435,0.133175461656,-0.103979182146,-0.60158188504,-0.00636707295694,-0.86710318802,-0.0557970002702,0.320402090537,-0.143227141577,0.573736875432,0.819023249436,0.00276795121245,0.0,0.818988426164,-0.573672737889,-0.0117598687795,0.0,-0.00804386265961,0.0090141639268,-0.999927017898,0.0,0.639133514902,0.231707407588,0.303801399574,1.0,-0.124720571429,-0.163918465306,1.18
0.445564756978,0.422469980668,-0.12513462042,-1.55011667201,0.0674545720774,1.96422127613,0.130727390126,-0.122542399915,-0.626284191101,-0.00249455996541,-0.94857353481,-0.0718105902956,0.328847897219,-0.16633087304,0.573650285955,0.819083834927,0.00278705700978,0.0,0.819049695775,-0.573586581992,-0.0116951148404,0.0,-0.00798081466477,0.0089918172888,-0.999927724298,0.0,0.637100312645,0.229052387397,0.303823979996,1.0,-0.134082857143,-0.176223183673,1.196
0.443392153213,0.411435561088,-0.125260838792,-1.56661802113,0.0662748518193,1.97001568702,0.128005990521,-0.131562439594,-0.65421565858,-0.00820358754864,-0.986309068123,-0.0703466390043,0.344680113198,-0.167447781278,0.573652940514,0.819081185949,0.00301024331876,0.0,0.819050477585,-0.57358911525,-0.0115147269328,0.0,-0.00770500173525,0.00907117284028,-0.999929170877,0.0,0.634818400052,0.226018807932,0.303954139433,1.0,-0.144030285714,-0.189296946939,1.213
0.440969473207,0.399860346621,-0.125358706368,-1.58419087477,0.065106471307,1.97589447414,0.125057960288,-0.147039517583,-0.704737461199,-0.00542554922628,-1.04330978188,-0.0692996023516,0.358527555686,-0.17508421223,0.573681039461,0.819061808311,0.0029267783493,0.0,0.819029092995,-0.573616405845,-0.0116752162698,0.0,-0.00788402746491,0.00909514193209,-0.999927557628,0.0,0.632283188299,0.222747200906,0.303916408911,1.0,-0.153977714286,-0.202370710204,1.23
0.438473991237,0.388336759641,-0.125481686084,-1.60148298772,0.0638278783633,1.98180400442,0.122098629993,-0.157109620208,-0.711873742883,-0.00579174891889,-1.11092393587,-0.0754877780543,0.360421376781,-0.189842523972,0.573707354618,0.819043153326,0.00298850277458,0.0,0.819011600103,-0.573642931279,-0.0115988443598,0.0,-0.00778577046781,0.0091021359979,-0.999928263876,0.0,0.629798522988,0.219446023478,0.30394690197,1.0,-0.16334,-0.214675428571,1.246
0.435450662908,0.374658641123,-0.12563522842,-1.62186173547,0.0622950851302,1.98859195971,0.118419036768,-0.175683991152,-0.762502542857,-0.00871397421263,-1.15085444876,-0.0779118185689,0.38239721542,-0.212229212582,0.573619471684,0.819104690238,0.00299249682062,0.0,0.81907347043,-0.573555376446,-0.0115597183825,0.0,-0.00775240616228,0.00908212916661,-0.999928705023,0.0,0.626960197152,0.21573056687,0.30398414972,1.0,-0.173287428571,-0.227749191837,1.263
0.432239088654,0.361181035681,-0.125815169475,-1.64184134176,0.0607671173911,1.99519898987,0.114887717335,-0.1874133638,-0.79122744226,-0.0160632057899,-1.18549915899,-0.0974201101187,0.401141272893,-0.211838841086,0.573770617878,0.818998713875,0.00302185906784,0.0,0.818968162592,-0.573706748874,-0.0115092075223,0.0,-0.0076925133218,0.00907862627142,-0.999929199386,0.0,0.623813736187,0.211487351358,0.304026463498,1.0,-0.18382,-0.241592,1.281
0.428950984722,0.348075058779,-0.125987824346,-1.66142744444,0.0592819037438,2.00144063629,0.11120228751,-0.209121622744,-0.819419958752,-0.00949809062016,-1.21344155283,-0.0930423605415,0.38549524994,-0.234678571727,0.57382409557,0.818962081297,0.00278633142498,0.0,0.818928040332,-0.573760492952,-0.0116836803766,0.0,-0.00796995775292,0.00898635527381,-0.999927859994,0.0,0.620803216779,0.207474947541,0.30392823558,1.0,-0.193182285714,-0.253896718367,1.297
0.425225319599,0.333454438014,-0.126141405266,-1.68279884991,0.0576268281749,2.0084281422,0.107126858365,-0.224586153532,-0.841401070832,-0.00854444773982,-1.28118749176,-0.10049128803,0.40819108931,-0.246547730834,0.573877347369,0.818924224648,0.00294131990937,0.0,0.818892210338,-0.573813232218,-0.0116047093965,0.0,-0.00781575983819,0.00906847840365,-0.999928335731,0.0,0.61750315657,0.203071304463,0.303992565593,1.0,-0.203129714286,-0.266970481633,1.314
0.421334329351,0.3182799932,-0.126269805485,-1.70472859575,0.0557985602011,2.01545507014,0.102811999067,-0.235902697974,-0.908914493397,-0.0108676042403,-1.30556176985,-0.106143838066,0.417003717582,-0.254332781219,0.57376972825,0.818999119985,0.00308014748528,0.0,0.818969483201,-0.573705869922,-0.0114589398819,0.0,-0.00761790965509,0.00909751477164,-0.999929598861,0.0,0.614016639288,0.198537584776,0.304098097182,1.0,-0.213077142857,-0.280044244898,1.331
0.417392289443,0.303570878887,-0.126355324333,-1.72597287545,0.05404313068,2.02211149806,0.0984351280092,-0.25260702604,-0.932984769655,-0.00175187217222,-1.34166248446,-0.117791049629,0.404313267123,-0.278962193897,0.573581063941,0.819131062166,0.00313256845205,0.0,0.81910199311,-0.57351693963,-0.0114451623888,0.0,-0.0075786528649,0.00913079727869,-0.999929593802,0.0,0.610548657267,0.194092589054,0.304134770456,1.0,-0.222439428571,-0.292348963265,1.347
0.412519990902,0.286439163109,-0.126523480196,-1.75053023775,0.0520336108518,2.02962840409,0.0933641464714,-0.277249008269,-0.953330021808,-0.00869280397937,-1.37327574399,-0.114519189662,0.416418081053,-0.287592198976,0.573624145896,0.81910071006,0.00318008258971,0.0,0.819071728291,-0.573559234958,-0.0114915103525,0.0,-0.00758888466171,0.00919670061886,-0.999928912237,0.0,0.606473641452,0.188763738967,0.304173500438,1.0,-0.232972,-0.306191771429,1.365
0.407571543836,0.269799850918,-0.126714773979,-1.77429203814,0.0499785263421,2.03676315766,0.0882048055033,-0.298670602887,-1.00324355434,-0.00989586268967,-1.40669379834,-0.125922584656,0.446238872545,-0.311236486197,0.573582495494,0.819130093036,0.00312385126621,0.0,0.819100295963,-0.573517658444,-0.0115302865009,0.0,-0.00765336814173,0.00917249460059,-0.999928643104,0.0,0.602447098452,0.183479810135,0.304164107829,1.0,-0.242919428571,-0.319265534694,1.382
0.402503400265,0.253689641464,-0.126932411775,-1.79703477164,0.0479400295712,2.04348413127,0.0832089100664,-0.331702177522,-1.04190606489,-0.0125416069391,-1.42155983594,-0.134520450407,0.434074635825,-0.311966985776,0.57372072359,0.819033320146,0.00311427613176,0.0,0.819003643964,-0.573656191656,-0.0115044273689,0.0,-0.00763613257799,0.00915110808196,-0.999928970827,0.0,0.598542248056,0.178242426534,0.304191085991,1.0,-0.252281714286,-0.331570253061,1.398
0.396472849779,0.235040635512,-0.127125351825,-1.8231220712,0.0456048003427,2.05099136118,0.0771895326806,-0.340207408452,-1.06959865892,-0.0079790805079,-1.43830983136,-0.129389650931,0.430297033489,-0.333265258747,0.573719170591,0.819034373149,0.00312342744202,0.0,0.819004400062,-0.573654112611,-0.0115541622492,0.0,-0.00767163674029,0.00918712208136,-0.999928368823,0.0,0.593928706415,0.172200373101,0.30422077613,1.0,-0.262814285714,-0.345413061224,1.416
0.390479920307,0.217033868877,-0.127269597206,-1.84815426542,0.0432984865243,2.05812316206,0.0711766938527,-0.363582101324,-1.07946563231,-0.0107756724264,-1.46194712883,-0.140096806503,0.424312075392,-0.360329073834,0.57357719596,0.819133663456,0.00316046970243,0.0,0.819103858253,-0.573511664704,-0.0115752643536,0.0,-0.00766927011238,0.00922823826978,-0.999928008366,0.0,0.589394510625,0.16636756626,0.304220657976,1.0,-0.272761714286,-0.35848682449,1.433
0.384397541056,0.199654575729,-0.127465349598,-1.8720504606,0.0410049506615,2.06462212188,0.0652575803486,-0.389506069878,-1.08745956028,-0.0120471062821,-1.45441213728,-0.129458891799,0.393279351665,-0.370945400026,0.573546432255,0.819155504599,0.00308159591419,0.0,0.819124431087,-0.573480867791,-0.011645066557,0.0,-0.00777203370825,0.00920337407065,-0.999927444067,0.0,0.584963985832,0.160600392561,0.304224897069,1.0,-0.282124,-0.370791542857,1.449
0.377826715672,0.181800966941,-0.127751502663,-1.89633900546,0.038653213372,2.0711660819,0.058947874865,-0.428078897683,-1.09271520704,-0.0162221024954,-1.51583289536,-0.14723085599,0.398341659769,-0.395656967475,0.573600849896,0.819117276511,0.00311435717481,0.0,0.819086481262,-0.573534995652,-0.011648685688,0.0,-0.00775559618627,0.00923280163058,-0.999927300408,0.0,0.580410246175,0.154537736633,0.304250874669,1.0,-0.291486285714,-0.383096261224,1.465
0.369982111336,0.161331058069,-0.12804634467,-1.92388368187,0.0358787364986,2.07830104792,0.0515431248301,-0.445304341235,-1.12329966891,-0.0120553391754,-1.52431030361,-0.154044729798,0.379670958779,-0.418243288695,0.573645647073,0.819085993118,0.00309101504872,0.0,0.819054720707,-0.573579657698,-0.0116827934979,0.0,-0.0077964192663,0.00923367187998,-0.999926974909,0.0,0.575103874939,0.147531807124,0.304276807617,1.0,-0.302018857143,-0.396939069388,1.483
0.363106469526,0.143894009336,-0.12826481942,-1.94715012483,0.0334115556158,2.08420925678,0.0450753514995,-0.466204664114,-1.15622336317,-0.0190564812764,-1.57196073694,-0.17020826921,0.377359701847,-0.436147208715,0.573579106437,0.819132741525,0.00305079045955,0.0,0.819101177685,-0.573513533343,-0.0116719616516,0.0,-0.00781136672375,0.00919387640341,-0.999927224945,0.0,0.570208412352,0.141155466613,0.304276335956,1.0,-0.311381142857,-0.409243787755,1.499
0.35427043447,0.122605944023,-0.128597575124,-1.97514906218,0.0304976916939,2.09107511354,0.0368100660604,-0.504709041572,-1.16759021972,-0.0217683605882,-1.53367043787,-0.163402341588,0.366635430005,-0.468146675041,0.57357926393,0.819132273339,0.00314541978884,0.0,0.819101590489,-0.573512962907,-0.0116710212305,0.0,-0.00775632046326,0.00927085261114,-0.999926942724,0.0,0.564882121818,0.134138384399,0.304321800534,1.0,-0.321328571429,-0.42231755102,1.516
0.344730314546,0.100815095062,-0.129027758473,-2.00333925821,0.0273755528808,2.09773504229,0.0281210304366,-0.537185846663,-1.20015757246,-0.0139586314026,-1.55541301974,-0.169334468601,0.35507484687,-0.490297516565,0.573724323851,0.819030241475,0.00325740271738,0.0,0.819001501506,-0.573658236257,-0.0115548867274,0.0,-0.00759531200224,0.00929731629357,-0.999927932976,0.0,0.559100199038,0.126362623219,0.304411772349,1.0,-0.331861142857,-0.436160359184,1.534
0.336419923709,0.0823349744994,-0.129326287931,-2.02717069917,0.024784174488,2.10303681441,0.0204452172374,-0.56970907848,-1.22722697086,-0.021459255948,-1.62335851566,-0.169374347373,0.340597353613,-0.522758932727,0.573682126714,0.819059945388,0.0032202875273,0.0,0.819029684819,-0.573614901211,-0.011707578504,0.0,-0.00774215275869,0.00935411970915,-0.99992627704,0.0,0.554029545646,0.119805917164,0.30438209179,1.0,-0.33998,-0.446830857143,1.549
0.326425851529,0.061398522599,-0.129703527811,-2.05383792513,0.0216355365107,2.10882235684,0.0113932207742,-0.605291551832,-1.20326673779,-0.0309762448511,-1.52309527408,-0.188111533159,0.325485688916,-0.529803474751,0.57368741209,0.819056463193,0.00316389198168,0.0,0.819025755767,-0.573620718476,-0.011697419651,0.0,-0.00776612269803,0.00930215052438,-0.999926575971,0.0,0.548274728726,0.112168134741,0.304358187991,1.0,-0.33998,-0.446830857143,1.566
0.315951801444,0.0405684580858,-0.130071459325,-2.07999311071,0.0185589574903,2.11404857369,0.00218987072757,-0.615273440646,-1.20784881504,-0.0188411762887,-1.49957843762,-0.179648151902,0.291764331751,-0.533281419172,0.573906971481,0.818903011846,0.00306466576704,0.0,0.818870122697,-0.573839537995,-0.0118597508281,0.0,-0.0079535124148,0.00931613627745,-0.999924972808,0.0,0.542458801016,0.104458112711,0.304329826861,1.0,-0.33998,-0.446830857143,1.583
0.305841352815,0.02109946814,-0.130334568512,-2.10398359854,0.0155962002166,2.11871307276,-0.00676412720981,-0.645045095428,-1.1943629409,-0.0183796693411,-1.48565212838,-0.194083056683,0.275790447206,-0.572415287484,0.573916800615,0.818895918562,0.00311888373829,0.0,0.818863865951,-0.573849325911,-0.0118180832593,0.0,-0.00788816268703,0.00933671748971,-0.999925298508,0.0,0.537012026673,0.0972838272269,0.304373035971,1.0,-0.33998,-0.446830857143,1.599
0.294713525792,0.000589889155884,-0.130667043194,-2.1287992684,0.0125231405308,2.12323061056,-0.016539008638,-0.665614890946,-1.18803064534,-0.0146455700633,-1.47336082696,-0.189664696821,0.245844028681,-0.592175085114,0.574035841168,0.818811869799,0.00327442073339,0.0,0.81878160483,-0.573967525381,-0.0117775337255,0.0,-0.00776432273329,0.00944194372867,-0.999925279704,0.0,0.531247278415,0.0896245436305,0.30446740335,1.0,-0.33998,-0.446830857143,1.616
0.283408640773,-0.019627164807,-0.130870413021,-2.15298603841,0.00943377017547,2.12742546042,-0.0266327873096,-0.68022732317,-1.18575568737,-0.0188618865758,-1.43456289865,-0.19534609728,0.236024711835,-0.601222885829,0.573860631166,0.818934044093,0.00342845805974,0.0,0.818905799413,-0.57379184503,-0.0117028699983,0.0,-0.00761680402653,0.00952358391032,-0.999925640058,0.0,0.525476663219,0.0821312270075,0.304536332616,1.0,-0.33998,-0.446830857143,1.633
0.272306239972,-0.0384800523118,-0.131169054726,-2.17512661818,0.00648141179672,2.13092976832,-0.0362738802515,-0.700827056076,-1.16928964999,-0.0234604588573,-1.37086515908,-0.185846607822,0.206929887277,-0.615654467849,0.573969806192,0.818856994956,0.0035539122723,0.0,0.818830739666,-0.573901061922,-0.0115990432032,0.0,-0.00745850723403,0.00956773740255,-0.999926411828,0.0,0.5200763982,0.0749493248303,0.30463934378,1.0,-0.33998,-0.446830857143,1.649
0.259503075073,-0.0594396892261,-0.131417537332,-2.19952120305,0.00328436370231,2.13451873021,-0.0475513423442,-0.706457127613,-1.14288555169,-0.0127845785696,-1.33747688024,-0.167012172679,0.180639765952,-0.623258300007,0.573917417565,0.818893025238,0.0037091686971,0.0,0.818868233554,-0.573847487916,-0.0116027406364,0.0,-0.00737304819573,0.00969652204976,-0.999925805058,0.0,0.51396042761,0.0669685556819,0.304697391216,1.0,-0.33998,-0.446830857143,1.667
0.247759283741,-0.0778586424318,-0.131704668633,-2.22067506928,0.000361733867418,2.13738992008,-0.0578758653085,-0.747742778177,-1.15508871647,-0.0237992339493,-1.31163688326,-0.186420874595,0.169375988088,-0.657724921203,0.573878900849,0.818919642496,0.00379119987248,0.0,0.818895980888,-0.57380881667,-0.0115568723717,0.0,-0.00728886621166,0.00973703102024,-0.999926028592,0.0,0.508200220459,0.0593726255693,0.304737615076,1.0,-0.33998,-0.446830857143,1.684
0.234913610332,-0.0971056757395,-0.131985987169,-2.24257069393,-0.00272627705094,2.14002848015,-0.0691854881443,-0.759181619334,-1.14753664622,-0.0109640025722,-1.27352523876,-0.178751071449,0.163223336273,-0.671386974398,0.573821097974,0.818960149609,0.00379048470199,0.0,0.818936190732,-0.573750639971,-0.0115959278917,0.0,-0.00732195078769,0.009758341056,-0.999925579139,0.0,0.502760313352,0.0522506611462,0.304730997775,1.0,-0.33998,-0.446830857143,1.7
0.221754713329,-0.116059321358,-0.132275812539,-2.26398167446,-0.00584540908002,2.14222384419,-0.0807079773831,-0.782640941517,-1.11163617035,-0.0217093187169,-1.23176306327,-0.179363118377,0.125450334697,-0.679007482307,0.573779023638,0.818990530932,0.00359015002715,0.0,0.818963112327,-0.573708097496,-0.011797729306,0.0,-0.00760267682142,0.00970967698367,-0.999923957848,0.0,0.496937399906,0.0447005955054,0.304642358726,1.0,-0.33998,-0.446830857143,1.717
0.208102677624,-0.134900891182,-0.132618745497,-2.28492157505,-0.00889587276657,2.14416426894,-0.0926769430102,-0.804080904971,-1.09958090535,-0.0108958341275,-1.22737183528,-0.172884360729,0.107361389832,-0.722067757444,0.573803084508,0.818973989409,0.00351735431376,0.0,0.818944609992,-0.573731130224,-0.0119608895275,0.0,-0.007777791494,0.00974390126133,-0.999922278153,0.0,0.491112533352,0.0370857905681,0.304575992106,1.0,-0.33998,-0.446830857143,1.734
0.194946887552,-0.152490477654,-0.13296843152,-2.30402150843,-0.0117521776299,2.14575258392,-0.104281553848,-0.846007625641,-1.09192695919,-0.0319359083904,-1.19983268429,-0.180381279951,0.0874017159305,-0.734961703448,0.573790107929,0.818982686025,0.00360817620057,0.0,0.818954342943,-0.573717639662,-0.011941566745,0.0,-0.00771001051644,0.00980707325755,-0.999922185498,0.0,0.485681131843,0.0299413082457,0.304595343544,1.0,-0.33998,-0.446830857143,1.75
0.180556119072,-0.170994947828,-0.13333218243,-2.32372657671,-0.0147378436505,2.14698840413,-0.116930706126,-0.846757703151,-1.0966241064,-0.013071930518,-1.14685424892,-0.172298276564,0.0686739977917,-0.752145226719,0.573831262556,0.818953434394,0.00370152785193,0.0,0.818925815134,-0.573757818966,-0.011967513662,0.0,-0.00767720367747,0.00989880077031,-0.999921534065,0.0,0.479902265515,0.0223503096991,0.304646928922,1.0,-0.33998,-0.446830857143,1.767
0.165707036729,-0.189143248636,-0.133788520336,-2.34295201108,-0.0177804762263,2.14788907636,-0.129995902614,-0.886404748773,-1.06590568545,-0.0373541633234,-1.09744842863,-0.177507325835,0.0498004527889,-0.780559899023,0.573919808293,0.818891743022,0.00362129267227,0.0,0.818862203888,-0.573845537644,-0.0121134995107,0.0,-0.00784173306557,0.00991770796208,-0.999920069951,0.0,0.474094225778,0.0146861304349,0.304607992441,1.0,-0.33998,-0.446830857143,1.784
0.151445619634,-0.206103972536,-0.134095804466,-2.36053886335,-0.0205127132175,2.14860308973,-0.142685975361,-0.896244119333,-1.04736584878,-0.0216898115466,-1.10101757576,-0.164820114093,0.0271728259944,-0.804995814303,0.57384696619,0.818942111371,0.00377154070713,0.0,0.818914248574,-0.573771764145,-0.0120897913415,0.0,-0.00773698464313,0.0100264515476,-0.999919801453,0.0,0.468660171471,0.00759291311795,0.304638495169,1.0,-0.33998,-0.446830857143,1.8
0.134888149837,-0.224924598778,-0.134567409817,-2.37960716538,-0.0236736235909,2.14902684384,-0.157275622112,-0.924688858433,-1.02814975309,-0.0216206117301,-1.05738159613,-0.178603078691,0.0164929872796,-0.818336825283,0.573962000368,0.818860758117,0.00392783020439,0.0,0.818835562696,-0.573887031529,-0.0119475189343,0.0,-0.0075293685595,0.0100738628756,-0.99992090982,0.0,0.46258353889,-0.000489259029639,0.304732360081,1.0,-0.33998,-0.446830857143,1.818
0.11893945691,-0.242297739809,-0.134893313661,-2.39706750655,-0.0265564490525,2.14913134402,-0.171556925964,-0.956997341431,-1.01984414052,-0.0279578800866,-0.997444941033,-0.159827883959,0.00702302960705,-0.844568476945,0.573839126679,0.818946491522,0.00400594777942,0.0,0.818922215883,-0.573763766972,-0.0119285768564,0.0,-0.00747054230828,0.0101258387118,-0.99992082606,0.0,0.456835131087,-0.00800044013044,0.304758529056,1.0,-0.33998,-0.446830857143,1.835
0.103465202001,-0.258414516853,-0.135291905706,-2.41311862962,-0.02925463942,2.14908016855,-0.185426383924,-0.969107416386,-1.0083513029,-0.0156808017668,-1.00015829609,-0.159990054106,-0.0105404582286,-0.88310532232,0.573809643916,0.818966737383,0.00408931649147,0.0,0.818943437305,-0.57373384455,-0.0119108779651,0.0,-0.00740857623229,0.0101836916153,-0.999920699567,0.0,0.451403466122,-0.0151410186365,0.304747939006,1.0,-0.33998,-0.446830857143,1.851
0.0866079685174,-0.275342215799,-0.135769289698,-2.42955058472,-0.0321404093325,2.1488319346,-0.200503567603,-1.00605835784,-0.986886115577,-0.0306206772539,-0.970099622858,-0.174639405762,-0.0248465284347,-0.903832020739,0.573856513803,0.818932884786,0.00428703654765,0.0,0.818913300838,-0.573781661425,-0.0116772267043,0.0,-0.00710317875655,0.0102119604694,-0.999922627364,0.0,0.445676225641,-0.0227557171553,0.304821738308,1.0,-0.33998,-0.446830857143,1.868
0.0693971185754,-0.291827179692,-0.136146027434,-2.44553796867,-0.0348500271929,2.14811894537,-0.216108926873,-1.02064205772,-0.950768175138,-0.0276262147911,-0.924735487458,-0.163003016934,-0.0344149657875,-0.926908921559,0.573741099069,0.819013711339,0.00429403989081,0.0,0.818992913885,-0.573664375453,-0.0118548827141,0.0,-0.00724611328713,0.0103186203456,-0.999920506799,0.0,0.439865268618,-0.030267176673,0.304772626955,1.0,-0.33998,-0.446830857143,1.885
0.0526743303221,-0.307091656877,-0.13663261116,-2.45992682213,-0.0374877589509,2.14737261961,-0.231184487049,-1.03936398036,-0.945673346892,-0.0271976611079,-0.887241195856,-0.160915243415,-0.0528792336444,-0.942979299581,0.573800143152,0.818971656667,0.00442359524767,0.0,0.818953306252,-0.573724087339,-0.0117004566841,0.0,-0.00704455487762,0.0103366406862,-0.999921760992,0.0,0.434470097831,-0.0374670890222,0.304826698158,1.0,-0.33998,-0.446830857143,1.901
0.0345250214177,-0.322975612178,-0.137163974459,-2.47471813328,-0.040135035229,2.14627102707,-0.247579080817,-1.07869023761,-0.913257172771,-0.0413516824339,-0.820971105085,-0.154477614287,-0.0627091739578,-0.973063080004,0.57393569056,0.818875890823,0.00456567967229,0.0,0.818859023158,-0.573858626302,-0.0117014576995,0.0,-0.00696212097514,0.0104547334878,-0.999921110598,0.0,0.42869989969,-0.0450827327652,0.304857110301,1.0,-0.33998,-0.446830857143,1.918
0.0160338367896,-0.338502381631,-0.137540915025,-2.48896178923,-0.0427978965549,2.14504166209,-0.264538782467,-1.09938661865,-0.902290805549,-0.0199860917972,-0.857180659206,-0.168124079806,-0.0736263159073,-1.00352653329,0.573746436904,0.819007930197,0.00466725996025,0.0,0.818992959844,-0.57366997251,-0.0115776192279,0.0,-0.00680482608131,0.010465272318,-0.999922083173,0.0,0.42261120607,-0.0530462800693,0.304898660249,1.0,-0.33998,-0.446830857143,1.936
-0.00187202559301,-0.35272910317,-0.138034054042,-2.50176493573,-0.0452846838421,2.14361209381,-0.280845305154,-1.12429213636,-0.87815070684,-0.0254504556766,-0.789496708623,-0.155343388364,-0.0844957140185,-1.03894329713,0.573826755336,0.818951374091,0.00471684599264,0.0,0.818937364355,-0.573750625887,-0.0115134468846,0.0,-0.00672278924071,0.0104697268685,-0.999922591466,0.0,0.417529518806,-0.0597823057693,0.304945794,1.0,-0.33998,-0.446830857143,1.951
-0.0224326905847,-0.368245818319,-0.138564964016,-2.51561876416,-0.0479033620126,2.141914731,-0.299806263877,-1.15336982213,-0.842713888118,-0.0184545720778,-0.747675267945,-0.153619054226,-0.101884314277,-1.06012203974,0.573804390269,0.818966264897,0.00485031643267,0.0,0.818953787661,-0.573727575794,-0.0114938831742,0.0,-0.00663046994066,0.0105676291001,-0.999922178014,0.0,0.411432113698,-0.0678121798796,0.304965376614,1.0,-0.33998,-0.446830857143,1.969
-0.0422783239659,-0.382394125111,-0.13903997878,-2.52808839425,-0.0503616815346,2.14007579064,-0.318106656957,-1.18401464542,-0.852201637844,-0.0439539888524,-0.715158565466,-0.138456543669,-0.100358935032,-1.08649671705,0.573800519066,0.818968874167,0.00486768598982,0.0,0.818956200117,-0.573722983187,-0.0115510932068,0.0,-0.00666741083996,0.0106146492643,-0.999921434341,0.0,0.4056611451,-0.0753817720249,0.304964971075,1.0,-0.33998,-0.446830857143,1.986
-0.0625309001531,-0.3961009611,-0.139454610978,-2.54004220391,-0.0527642744437,2.13825311568,-0.336923125313,-1.20333844251,-0.801879905745,-0.0217248794022,-0.682877541171,-0.138031765951,-0.115492350128,-1.10451876796,0.573689343214,0.819046544389,0.00490331608506,0.0,0.819034544023,-0.573612061648,-0.0115050132797,0.0,-0.00661066739722,0.0106164931664,-0.999921791516,0.0,0.399901945632,-0.0829195494216,0.304958899297,1.0,-0.33998,-0.446830857143,2.003
-0.0832525447967,-0.40923422273,-0.139994218315,-2.55140642473,-0.0550470534609,2.13612814374,-0.356228224491,-1.22290120773,-0.764050810962,-0.0295786177807,-0.640875100905,-0.129101715144,-0.124046907011,-1.15424162607,0.573717633612,0.819026802205,0.00489091536437,0.0,0.819013026295,-0.573637816614,-0.0117501068514,0.0,-0.00681816970009,0.0107471738078,-0.999919002128,0.0,0.394085933096,-0.0905048914076,0.304902077204,1.0,-0.33998,-0.446830857143,2.02
-0.105641031869,-0.422692350545,-0.140499817225,-2.56263843144,-0.0574683446099,2.13404249394,-0.377228925286,-1.25101126366,-0.725461043162,-0.0110374942101,-0.625031836114,-0.139555301832,-0.122365359404,-1.18622781895,0.573622682274,0.819092565371,0.00501344546137,0.0,0.819081818445,-0.573544817027,-0.0114919299812,0.0,-0.00653764461943,0.0106986597078,-0.999921395852,0.0,0.388036325873,-0.0985460278775,0.304983499636,1.0,-0.33998,-0.446830857143,2.038
-0.123414450596,-0.43264739242,-0.14095921428,-2.57113324587,-0.059176195567,2.13214424463,-0.393844765863,-1.2788851156,-0.695228777932,-0.0353828880202,-0.591710948682,-0.122775803078,-0.130986332345,-1.19853653738,0.573740624947,0.819010010091,0.00500455365404,0.0,0.818996856366,-0.573659065467,-0.011839458264,0.0,-0.00682585867892,0.0108917015926,-0.999917385832,0.0,0.383197175896,-0.104789733908,0.304890234752,1.0,-0.33998,-0.446830857143,2.052
-0.146551596781,-0.445000742305,-0.14144888184,-2.58113385881,-0.0613124436265,2.12988508954,-0.4157271634,-1.31447751928,-0.668550726337,-0.03926995995,-0.536122672116,-0.120459734702,-0.118469681688,-1.22861579116,0.573681858942,0.819049977381,0.00519674659073,0.0,0.819040205537,-0.573601117812,-0.011646727378,0.0,-0.00655851841387,0.0109380712003,-0.99991866891,0.0,0.377148109667,-0.112789125069,0.304986511806,1.0,-0.33998,-0.446830857143,2.07
-0.168864997979,-0.455951424026,-0.141884567031,-2.59012457547,-0.0633303028471,2.12768168474,-0.436850397543,-1.32787647567,-0.63206713247,-0.023929077578,-0.51776516338,-0.113218977534,-0.141890228848,-1.24649273621,0.573623088951,0.819091275752,0.00517500824179,0.0,0.819080689022,-0.57354154456,-0.0117332193454,0.0,-0.00664262327327,0.0109694060357,-0.999917770463,0.0,0.371354992757,-0.120347897508,0.304957798169,1.0,-0.33998,-0.446830857143,2.087
-0.190136069328,-0.465693180575,-0.14235768782,-2.59802808424,-0.0651216782797,2.12560686642,-0.457188545522,-1.32944104184,-0.586367843497,-0.0214121241618,-0.484683892361,-0.0917861962913,-0.122763143895,-1.27077863154,0.573527468301,0.819158037365,0.00520574928372,0.0,0.819147068939,-0.573444548032,-0.01183962339,0.0,-0.00671344336872,0.0110548363358,-0.999916356638,0.0,0.365901040095,-0.127451655443,0.304931900098,1.0,-0.335152571429,-0.440486236735,2.103
-0.212950961064,-0.475148649048,-0.142636718925,-2.60544603017,-0.0667276566828,2.12361908111,-0.478724713933,-1.3288827511,-0.534796430065,-0.0248743046919,-0.411130088593,-0.0848362661117,-0.118896358109,-1.27163882618,0.57368018652,0.819049804582,0.00540445279978,0.0,0.819042236825,-0.57359794824,-0.0116599731151,0.0,-0.00645023985116,0.0111157846747,-0.999917413458,0.0,0.359988834376,-0.13534975265,0.30500848868,1.0,-0.32462,-0.426643428572,2.121
-0.236843483214,-0.484191477794,-0.142812184145,-2.6125290908,-0.0682475589041,2.12152649773,-0.501394640166,-1.31285584287,-0.487048229516,0.000291052963121,-0.386371326953,-0.0896485032807,-0.118663989253,-1.23995661878,0.573742970524,0.819005431913,0.00546380566165,0.0,0.818998581801,-0.573660437073,-0.0116521606003,0.0,-0.00640893707315,0.0111604091964,-0.999917181967,0.0,0.354505750912,-0.142580941946,0.305031505651,1.0,-0.314672571429,-0.413569665306,2.138
-0.256526429947,-0.490930066561,-0.142882616397,-2.61794270066,-0.0692815166995,2.11983810448,-0.520049641702,-1.30485831324,-0.440677919526,-0.00135162721571,-0.340469574022,-0.0708943269022,-0.113732684081,-1.23221201141,0.573880920266,0.818908247399,0.00554243612216,0.0,0.818900706185,-0.573795112688,-0.0118974352766,0.0,-0.0065628114661,0.0113666348027,-0.999913860849,0.0,0.349748352949,-0.148755543191,0.304967506715,1.0,-0.305895428572,-0.402033991837,2.153
-0.279770830571,-0.498185916679,-0.1427980934,-2.62356068232,-0.0703986223134,2.11816368686,-0.542125790753,-1.29669307521,-0.391643564978,-0.00322879209525,-0.298011672697,-0.0605303171175,-0.0957660332468,-1.21744885377,0.5739703704,0.818844735097,0.00566220871503,0.0,0.818839339149,-0.573885143398,-0.0117781895596,0.0,-0.00639517417637,0.0113969904939,-0.999914601531,0.0,0.344306693365,-0.155962816933,0.304995545299,1.0,-0.295362857143,-0.388191183674,2.171
-0.301084783419,-0.504105469791,-0.142556890196,-2.628136939,-0.0712407543533,2.11662304133,-0.562525152307,-1.24768328337,-0.335422937835,0.011224333393,-0.259118982854,-0.0421400083068,-0.0838661169937,-1.17765981535,0.573916673828,0.818881953675,0.00572226782077,0.0,0.818876991044,-0.573830620211,-0.011816926305,0.0,-0.00639317829495,0.0114679852891,-0.999913802577,0.0,0.339376128862,-0.162443976921,0.304999490676,1.0,-0.285415428572,-0.375117420408,2.188
-0.320822236489,-0.509025828285,-0.142365725116,-2.63184979068,-0.071905694121,2.1154261164,-0.581402761345,-1.22018647317,-0.297819787784,0.0134032383366,-0.218414337556,-0.035978789764,-0.0814609408956,-1.17278311725,0.573979534036,0.818836926747,0.00585907884304,0.0,0.818834438671,-0.573894254878,-0.0116744664161,0.0,-0.00619711182826,0.0114987417156,-0.999914683733,0.0,0.334892243643,-0.168425343685,0.305043066919,1.0,-0.276053142857,-0.362812702041,2.204
-0.342480702721,-0.513801618083,-0.142015972792,-2.63557155067,-0.0725500900153,2.11406439182,-0.602153259726,-1.1838765931,-0.245794977563,0.0216250015562,-0.202465595745,-0.0253898957936,-0.0720369483376,-1.13473974412,0.573977263344,0.81883835021,0.00588254124134,0.0,0.818835277649,-0.573890256662,-0.0118113626103,0.0,-0.00629578478411,0.0115965091468,-0.999912938245,0.0,0.32995711076,-0.174865021072,0.305012027751,1.0,-0.265520571429,-0.348969893878,2.222
-0.361187925082,-0.517376348546,-0.14170284794,-2.6384783437,-0.072974596108,2.11301843455,-0.620132423808,-1.16170821812,-0.210900329996,0.0256582694087,-0.17240151349,-0.0297006067548,-0.0684074636165,-1.11296305256,0.573997248904,0.818823957527,0.0059356323524,0.0,0.818819990479,-0.573907123553,-0.012049216911,0.0,-0.00645981015768,0.0117766585218,-0.999909786514,0.0,0.325705912346,-0.180365932386,0.304928501244,1.0,-0.256158285714,-0.33666517551,2.238
-0.379330687295,-0.52041635681,-0.141257052562,-2.64087905211,-0.0733482032732,2.1121761602,-0.637571246853,-1.12777964968,-0.180710814872,0.016027020811,-0.134255525076,-0.0200390898392,-0.0528873032019,-1.07153940435,0.573955214834,0.818853372721,0.00594241108309,0.0,0.818849093189,-0.573864340062,-0.0121090333927,0.0,-0.00650551027068,0.0118162082877,-0.999909023641,0.0,0.321412365258,-0.185991324945,0.304892579566,1.0,-0.246210857143,-0.323591412245,2.255
-0.399085660419,-0.523268378317,-0.140809323198,-2.64304153661,-0.0736090760068,2.11131655922,-0.65668297193,-1.07358300017,-0.152124946698,0.0232461504299,-0.11520827897,-0.0080210201906,-0.0502468915405,-1.05294977402,0.573923468897,0.818875061608,0.00601932121879,0.0,0.818871613455,-0.573831955345,-0.0121208334302,0.0,-0.00647149395338,0.0118857108833,-0.999908420628,0.0,0.317292499836,-0.191407551549,0.304898076211,1.0,-0.236263428572,-0.31051764898,2.272
-0.417202146052,-0.525461200705,-0.140354968699,-2.64465658556,-0.0738501247986,2.11065218553,-0.674076408674,-1.04458714334,-0.118748456923,0.0312476954769,-0.0879140626654,-0.0104351959239,-0.0416551107522,-1.02076448387,0.573994199592,0.818825366867,0.00603525560409,0.0,0.818822493564,-0.5739032794,-0.0120622066512,0.0,-0.00641331127927,0.011865668146,-0.999909033541,0.0,0.313317060257,-0.196663963301,0.304922522084,1.0,-0.226316,-0.297443885714,2.289
-0.43358574304,-0.527057010731,-0.139938895903,-2.64586624843,-0.0739056751464,2.1101719956,-0.689894223175,-1.01596791814,-0.0949731073415,0.0196732700442,-0.0706597373971,-0.00670913071461,-0.0333132509389,-0.986953938426,0.574067378119,0.818773277396,0.00614105064339,0.0,0.818771840626,-0.573976099683,-0.0120356508897,0.0,-0.00632977489608,0.0119376237251,-0.999908709378,0.0,0.309740221866,-0.201388253072,0.304926481756,1.0,-0.216953714286,-0.285139167347,2.305
-0.450265573397,-0.528374508531,-0.139390669079,-2.64686718175,-0.0739706145429,2.10973969287,-0.706046080381,-0.959691897423,-0.0656437602225,0.0321622802871,-0.0521478876468,0.00318511284221,-0.0240589159256,-0.935797480934,0.574025139584,0.818802868157,0.00614403155182,0.0,0.818801598402,-0.573934099411,-0.0120141120836,0.0,-0.00631104172405,0.0119273748599,-0.999908950096,0.0,0.306111749164,-0.206153257002,0.304930482294,1.0,-0.207006285714,-0.272065404082,2.322
-0.466425062942,-0.529308417969,-0.138877801062,-2.6475834752,-0.0739887258204,2.10939213999,-0.721534689268,-0.927611261132,-0.0501654022159,0.0317714320099,-0.0346403337981,-0.00114735235172,-0.0229367334873,-0.904539330302,0.574162228867,0.81870667541,0.00615316847185,0.0,0.818705517608,-0.574071107536,-0.0120160655794,0.0,-0.00630539826097,0.0119370337988,-0.999908870436,0.0,0.302598746117,-0.210765872075,0.304929694576,1.0,-0.197058857143,-0.258991640816,2.339
-0.480760967399,-0.529852413065,-0.138265266544,-2.64799736917,-0.0739749479199,2.10916478059,-0.735548262548,-0.884723327927,-0.0274057172522,0.0368438051893,-0.0236315835447,0.000515982109623,-0.0213697486979,-0.867715610868,0.573975466219,0.818838160296,0.00608098043316,0.0,0.81883629054,-0.573885117256,-0.0119895115762,0.0,-0.00632780726287,0.0118612413231,-0.999909630821,0.0,0.29952036054,-0.214820321276,0.304936763334,1.0,-0.187696571429,-0.246686922449,2.355
-0.496246040163,-0.530160001444,-0.137662265779,-2.64824693924,-0.0739429415901,2.1089646685,-0.750539662603,-0.829609907891,-0.00944792321541,0.044555946396,-0.00744151473656,0.00825353768384,-0.010265003647,-0.816949279045,0.573953527515,0.818854033615,0.00601388284352,0.0,0.818851259803,-0.573863405127,-0.0120063931709,0.0,-0.00638045903417,0.011815814747,-0.999909834067,0.0,0.296177505188,-0.219207464276,0.30493425706,1.0,-0.177164,-0.232844114286,2.373
-0.510067158018,-0.530239715949,-0.137033232453,-2.64832290487,-0.0738670169569,2.10887353002,-0.763955177715,-0.80400966217,-0.000780634027621,0.0362452678376,-0.00138998077208,0.00248553332987,5.48497484092e-05,-0.767830369358,0.573870152783,0.818913077687,0.00593007924354,0.0,0.818909466185,-0.573780857928,-0.0119816597199,0.0,-0.00640949528371,0.0117323408057,-0.999910631281,0.0,0.293208464777,-0.223093154661,0.30493750427,1.0,-0.167216571429,-0.219770351021,2.39
-0.52251229163,-0.530158525515,-0.136455532505,-2.64829691615,-0.0737365029937,2.10885819951,-0.775946090128,-0.750849656854,0.0143824051619,0.035628891314,0.00780942121915,0.00883631413391,0.0026906941875,-0.736251621143,0.573892134477,0.818897994869,0.00588548095144,0.0,0.818894031415,-0.573803431817,-0.0119554945356,0.0,-0.00641334481176,0.0116809743958,-0.999911207981,0.0,0.290530292997,-0.226575548771,0.304933525661,1.0,-0.157854285714,-0.207465632653,2.406
-0.534874979791,-0.529896113782,-0.135795219594,-2.64814818694,-0.0735027612227,2.10885746547,-0.787951167883,-0.725151676299,0.016247455233,0.029679129863,0.00909928034925,0.0167022058631,0.000834026785779,-0.691904932883,0.573827854092,0.818943158826,0.00586884842369,0.0,0.818938882958,-0.573739056543,-0.011972797455,0.0,-0.00643797696122,0.0116767776576,-0.999911098706,0.0,0.287882783156,-0.229998827319,0.30492262053,1.0,-0.147906857143,-0.194391869388,2.423
-0.546635062935,-0.529505349487,-0.135174927987,-2.64789571794,-0.0732395883668,2.10886954681,-0.799222446313,-0.664414060797,0.0306313854092,0.0436088999119,0.0173890232966,0.0200362579211,0.00129358273292,-0.654601421991,0.573917596847,0.818880215518,0.0058763562688,0.0,0.8188757998,-0.573828320146,-0.0120095961781,0.0,-0.00646252548391,0.0117047498698,-0.999910613302,0.0,0.285355238958,-0.233249473169,0.304912004133,1.0,-0.137959428572,-0.181318106123,2.44
-0.55681156724,-0.528995434931,-0.134485876581,-2.64758451501,-0.0728845678499,2.1089272298,-0.809179659188,-0.621599260359,0.0310635911651,0.0429551684686,0.0164176190734,0.0313347521664,0.00392445521472,-0.612468774209,0.573780607606,0.818976020818,0.00590241999847,0.0,0.818971523954,-0.573690489398,-0.0120669891868,0.0,-0.00649653764837,0.0117579446656,-0.999909768797,0.0,0.283205541337,-0.236016078142,0.304890176638,1.0,-0.128597142857,-0.169013387755,2.456
-0.568313387594,-0.528309563324,-0.133821105575,-2.64710021272,-0.0725156669614,2.10905010419,-0.820115962056,-0.590693924026,0.0344871182586,0.0314239156168,0.0313296798002,0.0141638047379,0.00798482670438,-0.565030363001,0.573959590351,0.818850292233,0.00594427913026,0.0,0.818846366746,-0.573869306868,-0.0120579103858,0.0,-0.0064625085221,0.0117884316381,-0.999909630348,0.0,0.280758121499,-0.239186371634,0.304887522646,1.0,-0.117479428572,-0.154401534694,2.475
-0.576470144637,-0.527644133585,-0.133155016819,-2.64665941402,-0.0721454634453,2.10916581007,-0.828123933081,-0.522981738129,0.0426811019698,0.0437859244373,0.0302135227332,0.0273282706404,0.00440685705387,-0.511364266428,0.573794321995,0.818966017209,0.00595697938726,0.0,0.818961971093,-0.573703497229,-0.0120968620666,0.0,-0.0064895039831,0.0118198779178,-0.999909084279,0.0,0.279073435789,-0.241387458297,0.304871745898,1.0,-0.108702285714,-0.142865861225,2.49
-0.584675315697,-0.526964532482,-0.13253166328,-2.64618358572,-0.0718150684888,2.10928181664,-0.83597905128,-0.499611107549,0.0463686358929,0.0405227822676,0.0279619313591,0.0247334425952,0.00131775654679,-0.467548206294,0.573808641801,0.818956008516,0.00595362168864,0.0,0.818951782885,-0.573717581526,-0.0121186162322,0.0,-0.00650904146096,0.0118297235761,-0.999908840855,0.0,0.277356076786,-0.243612417576,0.304865391646,1.0,-0.0993400000001,-0.130561142857,2.506
-0.592757558443,-0.526233291301,-0.13191143322,-2.64565064841,-0.0714214911357,2.10939262232,-0.843613704318,-0.463501041643,0.0471105559931,0.0398123894201,0.0317614501564,0.0288297764621,0.0111865868311,-0.440555713465,0.573931380064,0.818869618065,0.00600553820215,0.0,0.818865891078,-0.573839743348,-0.0121387101527,0.0,-0.00649392947425,0.0118847458796,-0.999908286642,0.0,0.275571937766,-0.245920204793,0.304864841036,1.0,-0.0888074285715,-0.116718334694,2.524
-0.600267148243,-0.525439502004,-0.131178647463,-2.64509315961,-0.0709690996637,2.10955092383,-0.850879278594,-0.398804322168,0.0449667154494,0.0468062311461,0.0293319192283,0.0237608676579,0.00834208649923,-0.389869033783,0.573840781872,0.818932953211,0.00602678241392,0.0,0.818929394211,-0.573748870934,-0.0121501975176,0.0,-0.00649246252982,0.0119080173809,-0.999908019296,0.0,0.274144717893,-0.247794226618,0.304860277411,1.0,-0.0788600000001,-0.103644571429,2.541
-0.606325414841,-0.524807819211,-0.130530527704,-2.64461899798,-0.0705954670616,2.10965936156,-0.856645678862,-0.371527769208,0.0366636197996,0.0394003327879,0.0288622094656,0.0204057128275,0.0108859684766,-0.348904575683,0.573807095294,0.818956553085,0.0060273087144,0.0,0.81895302954,-0.573715241564,-0.012145118571,0.0,-0.00648849049024,0.0119052671542,-0.999908077828,0.0,0.272921110882,-0.249387884291,0.304869977127,1.0,-0.0694977142858,-0.0913398530614,2.557
-0.612083131978,-0.524173545042,-0.129837698335,-2.64413643537,-0.0701843346157,2.10981074437,-0.861962174822,-0.320186612757,0.037511252848,0.0390321332645,0.0258140030956,0.0266467709611,0.00939955344327,-0.295855151663,0.573880175086,0.818905336468,0.00602838687027,0.0,0.818902175191,-0.573788941685,-0.0120923433899,0.0,-0.00644358686903,0.0118764439211,-0.999908710967,0.0,0.271785327386,-0.250887710714,0.304887117848,1.0,-0.0595502857144,-0.0782660897961,2.574
-0.617037521479,-0.523538214867,-0.129188844593,-2.64368302101,-0.069738367441,2.10994974441,-0.866569741679,-0.269736332173,0.0376294039318,0.043696627688,0.0271208266034,0.0230633647321,0.00830027864093,-0.252595850957,0.573920183,0.818876937065,0.00607720237817,0.0,0.81887441392,-0.573828733906,-0.0120840916697,0.0,-0.00640823400573,0.0119119989811,-0.999908515224,0.0,0.270828977391,-0.252162045625,0.304888283567,1.0,-0.049602857143,-0.0651923265307,2.591
-0.621029418273,-0.523056035178,-0.128546291356,-2.64332349818,-0.069353922771,2.11003524313,-0.870257661702,-0.234808352877,0.0298796612321,0.0463983394681,0.0240301174394,0.0234211635865,0.00166980805067,-0.219224908027,0.573897856338,0.81889255723,0.00608088030624,0.0,0.818890109492,-0.573806447144,-0.0120787703506,0.0,-0.00640209007662,0.0119117824899,-0.999908557159,0.0,0.270076667237,-0.253152327435,0.304898003051,1.0,-0.0402405714287,-0.0528876081634,2.607
-0.62446156691,-0.522649489898,-0.127758215889,-2.643031252,-0.0689223556428,2.11012835396,-0.87336401965,-0.187217308729,0.0216322651717,0.0469233447921,0.014350658095,0.0237029579503,0.00818934906107,-0.172923934889,0.573806666447,0.818956671061,0.00605205473763,0.0,0.818954002186,-0.573715687082,-0.0120581756758,0.0,-0.00640308794772,0.0118756446797,-0.999908980622,0.0,0.269485152369,-0.253937702693,0.304908956556,1.0,-0.0302931428572,-0.0398138448981,2.624
-0.627194435816,-0.522361635424,-0.127010283371,-2.64281162689,-0.0685353471266,2.1102089639,-0.875770631727,-0.144750300769,0.0156726647298,0.0433149650817,0.0134280339859,0.0236680637803,0.005849804977,-0.134475149133,0.573721063639,0.819016982917,0.00600580823555,0.0,0.819014059434,-0.573630940542,-0.0120108868985,0.0,-0.00639212599112,0.0118099675683,-0.99990982863,0.0,0.269040751024,-0.254529036347,0.304928250547,1.0,-0.0203457142858,-0.0267400816328,2.641
-0.629211983843,-0.522112196922,-0.126501414418,-2.6426430397,-0.0682156903897,2.11023750181,-0.877469801508,-0.115105592156,0.0120773073463,0.0235836602421,0.00634345881975,0.0209174807202,0.00171544998088,-0.105078138832,0.573766879834,0.818984753826,0.00602391136623,0.0,0.818981894441,-0.573676354196,-0.0120351201287,0.0,-0.00640092762295,0.0118390556058,-0.999909428342,0.0,0.268701325449,-0.254967932354,0.304928112606,1.0,-0.0196725,-0.0258552857143,2.657
-0.63111504143,-0.521877602605,-0.126135659538,-2.64246409658,-0.0679787217343,2.11027618418,-0.879164685476,-0.100261052187,0.00934568912483,0.02112658789,0.00738663278389,0.0123577242043,0.00143269566098,-0.0952152563663,0.573788882756,0.818969213468,0.00604088718788,0.0,0.818966595606,-0.573698318928,-0.0120291745957,0.0,-0.00638599978308,0.0118497196103,-0.999909397472,0.0,0.268357098512,-0.255420089314,0.304935457667,1.0,-0.0193125,-0.0253821428571,2.675
-0.632774557884,-0.521638308845,-0.125930092989,-2.64225715095,-0.0678237345211,2.11034672641,-0.880753856924,-0.0916348547776,0.0182182950999,0.00434317248225,0.0119504847417,0.010715888902,0.00620674018008,-0.0823769673161,0.573777780522,0.818976847383,0.00606043989027,0.0,0.818974811582,-0.573687747536,-0.0119738558072,0.0,-0.00632963243535,0.011833907866,-0.999909943134,0.0,0.268044591083,-0.255861738965,0.304952606967,1.0,-0.0189725,-0.0249352857143,2.692
-0.634197415159,-0.521381789116,-0.125794781235,-2.64208594688,-0.0677541996704,2.11040075026,-0.882115123928,-0.0913023404023,0.019315164197,0.00279874104183,0.00815669764297,0.000340075273524,0.00131256928393,-0.0944251931271,0.573771239982,0.818981533168,0.00604643704347,0.0,0.818979197364,-0.573681046611,-0.0119949133336,0.0,-0.00635500853439,0.0118344703039,-0.999909775519,0.0,0.267758112304,-0.256252342832,0.304944017811,1.0,-0.0186525,-0.0245147142857,2.708
-0.635639439817,-0.521132847641,-0.125683814172,-2.64192877995,-0.0677218307401,2.11040130455,-0.883585163012,-0.0826594878657,0.013286698393,0.00701424649492,0.0122251537834,0.00420989963844,-2.46639187955e-05,-0.0850858186511,0.573692033502,0.81903720326,0.00602140127103,0.0,0.819034033097,-0.573601020807,-0.012077601552,0.0,-0.00643824703768,0.0118607847189,-0.999908931234,0.0,0.267446005901,-0.256646131854,0.304926645189,1.0,-0.0183125,-0.0240678571429,2.725
-0.637009038114,-0.520923161517,-0.125600507367,-2.64177617525,-0.0676840546534,2.11042441901,-0.884909069398,-0.0792051994206,0.00904611828576,0.00327316707537,0.0117156124565,0.0015004804969,0.00222920747234,-0.0771049187589,0.5736946601,0.819035442946,0.00601058010756,0.0,0.81903197894,-0.573603412432,-0.0121032897003,0.0,-0.00646545846051,0.0118666784611,-0.999908685725,0.0,0.267149924947,-0.257028351928,0.3049228829,1.0,-0.0179725,-0.023621,2.742
-0.638266237741,-0.520709713441,-0.125546389173,-2.64160645839,-0.0676527256691,2.11049721068,-0.886242143226,-0.0773913549881,0.00731804129515,0.00262409817894,0.0152364472364,0.00143015234509,0.00669459446094,-0.0844663116374,0.573616423558,0.81909030261,0.00600180782159,0.0,0.819086963169,-0.573525668524,-0.0120665326902,0.0,-0.00644151308852,0.0118377917828,-0.999909182674,0.0,0.266887229772,-0.25739848708,0.304929040169,1.0,-0.0176525,-0.0232004285714,2.758
-0.639694417523,-0.520491023743,-0.125556281626,-2.64142074214,-0.0676209976989,2.11055823728,-0.887668843853,-0.0795440810927,0.0130491653893,-3.47290529682e-05,0.00750644364414,0.00580796588818,0.0012833040511,-0.0746692812001,0.573647853607,0.819068117704,0.00602540570296,0.0,0.819065299251,-0.573557386142,-0.0120294333121,0.0,-0.0063971325192,0.0118360872062,-0.999909487771,0.0,0.266567924371,-0.257830339747,0.304938002528,1.0,-0.0172925,-0.0227272857143,2.776
-0.640960403226,-0.520319619064,-0.125564353834,-2.64126863923,-0.0675974491545,2.11055735436,-0.888885842628,-0.0828854905134,0.0157827563855,-0.000363088531533,0.0117106052489,0.0001112459866,0.00011148351198,-0.0818056874827,0.573712422341,0.819022699229,0.00605157009991,0.0,0.81902011603,-0.573621635435,-0.0120422506413,0.0,-0.00639168814715,0.0118653748765,-0.999909175476,0.0,0.266255621638,-0.258226929599,0.304943554108,1.0,-0.0169525,-0.0222804285714,2.793
-0.642259374143,-0.520128638509,-0.125569640784,-2.64109918415,-0.0675682508118,2.11058255487,-0.890219566584,-0.0740222322995,0.0149892235254,-0.00142375523046,0.011971293904,0.000108380960311,0.000304355067055,-0.0735526456208,0.573708196633,0.819025513501,0.00607126440163,0.0,0.819023245014,-0.573617435495,-0.0120294939439,0.0,-0.00637000198059,0.0118741545628,-0.999909209643,0.0,0.265977638302,-0.258590024767,0.30495261515,1.0,-0.0166325,-0.0218598571429,2.809
-0.643511520641,-0.519944245839,-0.125551309402,-2.64093329209,-0.0675441807595,2.11063599783,-0.891411801977,-0.0753137012723,0.00695132668956,0.00381788325507,0.00830319345921,-0.000233189820524,0.00143870572079,-0.0743587513152,0.573763114784,0.818987022723,0.00607384766044,0.0,0.818985056596,-0.573672833248,-0.0119876756372,0.0,-0.00633347132234,0.0118527047839,-0.999909696188,0.0,0.265702434887,-0.25896306064,0.304965167593,1.0,-0.0162925,-0.021413,2.826
-0.644745222214,-0.519751144394,-0.125511040692,-2.64076730432,-0.067514240196,2.11068994009,-0.892690564864,-0.0782548901269,0.0140602092096,0.0060476918574,0.00698489454001,0.00235706641591,0.00363773074581,-0.0813987415514,0.573719049744,0.819017907935,0.00607168381455,0.0,0.819016128617,-0.573629189083,-0.0119533006788,0.0,-0.00630719368499,0.0118308710597,-0.99991012086,0.0,0.265436685498,-0.259325455445,0.304975114919,1.0,-0.0159525,-0.0209661428571,2.843
-0.645867717912,-0.519557768031,-0.125445627024,-2.64062041919,-0.0674942915265,2.11070931153,-0.893810652316,-0.0671675450756,0.0115360189433,0.00514588529685,0.00659623095012,5.8826366968e-05,0.00433187773265,-0.0769340705666,0.573690898234,0.819037764725,0.00605310985823,0.0,0.819035626984,-0.573600901305,-0.0119747506472,0.0,-0.00633582571713,0.0118277458036,-0.999909976819,0.0,0.265193998465,-0.259643884382,0.304973907697,1.0,-0.0156325,-0.0205455714286,2.859
-0.647089177661,-0.519339405735,-0.12540579491,-2.64045926452,-0.0674687394299,2.11074877247,-0.895059550483,-0.0640505766163,0.0105905948809,0.00128781587119,0.00632578800077,0.000728124381643,-0.000146154994939,-0.0745161953334,0.573659591175,0.819059713982,0.00605023022203,0.0,0.819057471063,-0.573569486354,-0.0119854211451,0.0,-0.00634667036737,0.0118312658477,-0.9999098664,0.0,0.264926065597,-0.259999377099,0.304971086629,1.0,-0.0152725,-0.0200724285714,2.877
-0.648182522711,-0.519156177085,-0.125360358711,-2.64033080345,-0.0674469821836,2.11077821106,-0.896156644737,-0.0669849737817,0.0113432575441,0.00465851988812,0.00485018361294,-0.000338046432582,0.000324684858057,-0.0647795752635,0.5736404034,0.819073197492,0.00604414078457,0.0,0.819070758354,-0.573550110132,-0.0120046190416,0.0,-0.00636616665889,0.0118371413874,-0.999909672923,0.0,0.264683579245,-0.260310664649,0.304965605484,1.0,-0.0149525,-0.0196518571429,2.893
-0.649229357028,-0.518976538117,-0.125354507896,-2.64019055222,-0.0674270567449,2.11080823731,-0.897192898343,-0.0651354796855,0.0114039722726,0.0042289807406,0.00783798817238,-7.51364475403e-05,0.000101185504519,-0.0646698453791,0.573660775162,0.819058860418,0.00605352058421,0.0,0.819056514239,-0.573570384235,-0.0120078188256,0.0,-0.00636311278559,0.011846818212,-0.999909577759,0.0,0.264446948675,-0.260621432664,0.304965904714,1.0,-0.0146325,-0.0192312857143,2.909
-0.650407788067,-0.51878285578,-0.12535275847,-2.64003573416,-0.0673985924169,2.11088050048,-0.898366054241,-0.0683589684753,0.00623377510289,0.000184272514273,0.0113651963969,0.00533334258116,0.00668588406263,-0.0640238126308,0.573684064012,0.819042445535,0.00606745516123,0.0,0.819040525875,-0.573594068104,-0.0119669925735,0.0,-0.00632134027954,0.0118349924598,-0.999909982754,0.0,0.264185199537,-0.260976218944,0.30497115404,1.0,-0.0142725,-0.0187581428571,2.927
-0.651498518566,-0.518615621152,-0.125346984127,-2.63989465267,-0.067379738392,2.11090451385,-0.899502837135,-0.0637387784018,0.00966860427612,0.000120819394346,0.00911374001197,0.00170941102819,-0.000311951700125,-0.0657716831936,0.573657625016,0.819060891331,0.00607720775798,0.0,0.81905911308,-0.573567621644,-0.0119624237975,0.0,-0.00631238543105,0.011840155981,-0.999909978196,0.0,0.26393573636,-0.261297836414,0.30497586318,1.0,-0.0139325,-0.0183112857143,2.944
-0.652509756709,-0.518439434981,-0.125337834243,-2.6397495472,-0.0673612775711,2.11092778307,-0.900482467096,-0.0629920223084,0.0138464370283,-0.000171688489921,0.0131016414272,-0.000165027755114,0.00837198749192,-0.0585146383742,0.5736924583,0.819036451062,0.00608292876051,0.0,0.819034730516,-0.573602392693,-0.0119646231339,0.0,-0.00631040147304,0.0118463720558,-0.999909917094,0.0,0.26370799194,-0.261598340406,0.304979110695,1.0,-0.0136125,-0.0178907142857,2.96
-0.653542225385,-0.518258417398,-0.12534102184,-2.63959900916,-0.0673391010761,2.11097469138,-0.901518065424,-0.0618180887348,0.006462973684,-0.00116951298322,0.00553083738457,-0.000219528808252,0.00564402062028,-0.06020873945,0.573709434333,0.819024468545,0.00609522626807,0.0,0.819023038935,-0.573619560974,-0.011941853431,0.0,-0.00628445013902,0.0118435127422,-0.999910114406,0.0,0.263476846931,-0.261911203917,0.304984765065,1.0,-0.0132725,-0.0174438571429,2.977
-0.654546716057,-0.518067717677,-0.125330026849,-2.63946531786,-0.0673210470369,2.11099970013,-0.902542565677,-0.0612309367333,0.0146844074266,-0.000548073213323,0.00994291382164,0.00579989911397,0.000551537990364,-0.0614233486506,0.573700042139,0.819030994228,0.00610238025979,0.0,0.819029484574,-0.573609815204,-0.011967882095,0.0,-0.00630180248716,0.0118642322443,-0.999909759568,0.0,0.263247900909,-0.262206239051,0.304977651183,1.0,-0.0129325,-0.016997,2.994
-0.655476986014,-0.517902016783,-0.125313115259,-2.63934241604,-0.0673065091838,2.1110236334,-0.903417544507,-0.0576314398386,0.00636034232712,0.00140177141592,0.00904131553699,0.00282495799395,0.00361808531152,-0.0531820636113,0.573746000229,0.818998799033,0.00610256550098,0.0,0.818997207385,-0.573655604074,-0.0119820328319,0.0,-0.00631262113792,0.0118728561043,-0.999909588964,0.0,0.263037019659,-0.262478116114,0.304974882828,1.0,-0.0126125,-0.0165764285714,3.01
-0.656497360533,-0.517709999016,-0.125273372845,-2.6391989222,-0.067294399882,2.1110611999,-0.904382892275,-0.0608407285227,0.00884757122855,0.0025681074184,0.0068768774429,0.000468687454312,0.000786997746258,-0.0511243732205,0.573775564532,0.818978203362,0.00608694216409,0.0,0.81897638653,-0.573685186274,-0.0119888388449,0.0,-0.00632673095752,0.0118641930974,-0.999909602613,0.0,0.262813243199,-0.262775581182,0.304973463748,1.0,-0.0122525,-0.0161032857143,3.028
-0.657364076186,-0.517551243476,-0.12525650691,-2.63907605615,-0.067282310196,2.11110907494,-0.905308427925,-0.0573935537893,0.0114767184582,0.00125485555442,0.00391900394917,0.000369532690093,0.00932539505078,-0.0583941547005,0.573721892518,0.819015831853,0.0060831013148,0.0,0.819014039743,-0.573631681558,-0.0119767908331,0.0,-0.00631984334734,0.0118537207059,-0.999909770372,0.0,0.262612114752,-0.263048756695,0.304974804693,1.0,-0.0119125,-0.0156564285714,3.045
-0.658249274207,-0.517384393481,-0.125232013713,-2.63894541773,-0.0672692059975,2.1111449609,-0.906218996729,-0.0511169492348,0.0111829030886,0.00164719430275,0.0073816945322,0.00154627738101,0.000888702623449,-0.0541821901564,0.573704544556,0.819028052201,0.00607389203497,0.0,0.819026200604,-0.57361448845,-0.0119686367749,0.0,-0.00631869844722,0.0118413660092,-0.999909923994,0.0,0.262439554157,-0.263282309795,0.304977415967,1.0,-0.0116125,-0.0152621428571,3.06
-0.659134863464,-0.517209779011,-0.125180013935,-2.63882598288,-0.0672539081572,2.11117502785,-0.907090206493,-0.0496360842206,0.0106590059694,0.00172534163244,0.00590457215548,-0.000136744116273,0.000509677959082,-0.0560404767456,0.573688952915,0.819039080261,0.00605947268013,0.0,0.819036924314,-0.573598741496,-0.0119894647869,0.0,-0.00634425645501,0.0118413833498,-0.999909761954,0.0,0.26223506907,-0.263547550579,0.304970443762,1.0,-0.0112525,-0.014789,3.078
-0.660008040568,-0.517046430503,-0.125158124261,-2.63871307305,-0.0672422699761,2.11120535875,-0.907949976818,-0.0497808500367,0.0087768089741,0.000823424134491,0.00343052180889,-0.000759077366929,0.00126861614116,-0.0506080176104,0.573695333814,0.819034641125,0.00605536934616,0.0,0.819032336343,-0.573604960231,-0.0120053539714,0.0,-0.00635953332925,0.0118471869522,-0.999909596162,0.0,0.2620375194,-0.263801241618,0.304964621157,1.0,-0.0109125,-0.0143421428571,3.095
-0.660788380993,-0.516899466419,-0.125153232176,-2.63862236088,-0.0672249164674,2.11123613706,-0.908742030385,-0.0469006029986,0.0184506324562,-0.000937237653654,0.00494970698564,0.00402557519509,0.00303443841981,-0.0552490609606,0.573694543692,0.819035113415,0.00606633595664,0.0,0.819032808867,-0.573603858638,-0.0120257330432,0.0,-0.0063699465556,0.0118678541018,-0.999909284795,0.0,0.261856397414,-0.264028182466,0.304954389094,1.0,-0.0105925,-0.0139215714286,3.111
-0.661606868439,-0.51673714892,-0.125150561315,-2.63851144729,-0.067214252929,2.1112673006,-0.909542623852,-0.046463579965,0.0126847070993,0.000657105905369,0.0101458124302,-0.000245379937573,0.000335212225838,-0.0422505994962,0.573717729504,0.819018842183,0.00607041213389,0.0,0.819016486622,-0.573626828437,-0.0120417291303,0.0,-0.00638037463248,0.0118805498516,-0.999909067543,0.0,0.261668205259,-0.264271162706,0.304947641828,1.0,-0.0102525,-0.0134747142857,3.128
-0.662434191344,-0.516572474601,-0.125152192741,-2.63837529059,-0.0671965240403,2.11129460507,-0.910329398987,-0.0445373741205,0.0048540322587,-0.000330776512934,0.0117249406062,-0.000260453251453,0.00365355065727,-0.0401079056847,0.573766717369,0.818984460454,0.00607901933782,0.0,0.818982234605,-0.573675802264,-0.0120382806064,0.0,-0.00637190113048,0.0118860024302,-0.999909056776,0.0,0.261482206992,-0.264522506196,0.304951058553,1.0,-0.0098925,-0.0130015714286,3.146
-0.663140619116,-0.516424188066,-0.125142918511,-2.63827585427,-0.067177707037,2.11132543573,-0.91102331351,-0.0486043146688,0.0090185098097,-0.00125746871829,0.00446408200631,0.00111379082682,0.00411820011385,-0.0385580305983,0.573783685204,0.818972516312,0.00608662634693,0.0,0.818970296186,-0.573692559929,-0.0120518690389,0.0,-0.00637842006708,0.0119001611278,-0.999908846807,0.0,0.261323097328,-0.264730915608,0.304944390055,1.0,-0.0095725,-0.012581,3.162
-0.663815064435,-0.516286115992,-0.12512587038,-2.63818939698,-0.0671642735459,2.11134900158,-0.911715657505,-0.040574406142,0.00691495666417,-0.00131237936392,0.00462131376234,-0.000345132904245,0.000806032932812,-0.0354238549988,0.573767282573,0.818983995385,0.00608832106994,0.0,0.818981639323,-0.573675858907,-0.012076020068,0.0,-0.00639746751559,0.0119152777953,-0.9999085451,0.0,0.261169687685,-0.264925506248,0.304935147846,1.0,-0.0092525,-0.0121604285714,3.178
-0.664551288415,-0.516135279442,-0.125090058699,-2.63809525886,-0.0671403054346,2.11138200422,-0.912488083242,-0.0386265681546,0.00579333116172,0.000817482092832,0.01005320653,0.00295614448081,0.00194545313515,-0.0400866727083,0.573727461813,0.819011887313,0.00608891641834,0.0,0.819009413011,-0.573635809473,-0.0120948911077,0.0,-0.00641316256775,0.0119262806556,-0.999908313385,0.0,0.26100780977,-0.265134148097,0.304925932984,1.0,-0.0088925,-0.0116872857143,3.196
-0.665194044133,-0.516009576844,-0.125057684262,-2.63802389637,-0.0671229234612,2.11140153171,-0.913102470036,-0.0354281272796,0.0122484467746,-6.82940104454e-05,0.00410172283715,0.0030218297289,0.000740273924037,-0.0360608889567,0.573738991619,0.8190038186,0.00608781697478,0.0,0.819001132317,-0.573646974581,-0.0121260347434,0.0,-0.00643913494322,0.011943337888,-0.999907942873,0.0,0.260862511229,-0.265312299402,0.304914405613,1.0,-0.0085725,-0.0112667142857,3.212
-0.665881682593,-0.515874437929,-0.125031007718,-2.63793726125,-0.0671025661769,2.11142249953,-0.913778139705,-0.0300497162395,0.00346922872908,6.3719672975e-05,0.00598579713907,-7.62294918792e-05,-0.000363072565329,-0.0432864689836,0.573743153187,0.819000882025,0.00609067434585,0.0,0.818998080375,-0.573650839708,-0.0121492940522,0.0,-0.00645648639923,0.0119590551248,-0.999907643127,0.0,0.260707646206,-0.265507022767,0.30490631903,1.0,-0.0082125,-0.0107935714286,3.23
-0.666467936946,-0.515761597117,-0.125025975264,-2.63785460536,-0.0670790905406,2.11144141287,-0.914365305179,-0.0367020973566,0.00510196381264,0.000578751187452,0.00744610843384,0.00231128642274,9.5899978007e-05,-0.0392725700953,0.573753081088,0.818993824796,0.0061044073471,0.0,0.818991098146,-0.573660511169,-0.012163304846,0.0,-0.00645993849273,0.0119784195301,-0.999907389042,0.0,0.26056304368,-0.265688059293,0.304902018564,1.0,-0.0078725,-0.0103467142857,3.247
-0.667031585938,-0.515676969173,-0.125008981123,-2.63779703441,-0.0670592886027,2.11146198373,-0.914950683876,-0.0313944729176,0.00256676678616,0.00129179120621,0.00404656865611,-5.49821623141e-06,0.000942641396398,-0.0344315777123,0.573733985742,0.819007140337,0.00611265762697,0.0,0.819004532788,-0.573641404204,-0.0121598337515,0.0,-0.00645264139658,0.0119830348986,-0.999907380858,0.0,0.260436871504,-0.26584645764,0.304900812817,1.0,-0.0075525,-0.00992614285715,3.263
-0.667621283436,-0.51559029631,-0.124987786902,-2.63771927641,-0.0670356884002,2.11147368514,-0.915529720393,-0.0331167976248,0.00481116006059,0.00076129213751,0.00202851022956,0.000232406593447,0.000672880786818,-0.0313249688222,0.573742541207,0.819001087028,0.0061206828202,0.0,0.818998634107,-0.573650014765,-0.0121509173331,0.0,-0.00644060871565,0.0119845597981,-0.999907440159,0.0,0.260311943343,-0.266003367754,0.304905888449,1.0,-0.00723250000001,-0.00950557142858,3.279
-0.66820994977,-0.515515324829,-0.12496854116,-2.63762963869,-0.0670125556945,2.11149222858,-0.916089005966,-0.0282593354462,0.0017239805261,0.000253565862334,0.00819724561841,0.00285613975588,0.000567329523476,-0.0308692312113,0.573767271633,0.818983732519,0.00612460390805,0.0,0.818981568121,-0.573675165052,-0.0121137517383,0.0,-0.00640755582095,0.0119666423918,-0.999907867105,0.0,0.260183140205,-0.266174833332,0.304920978661,1.0,-0.00687250000001,-0.00903242857144,3.297
-0.668671504152,-0.515426696923,-0.124937758358,-2.63754129678,-0.0669904023557,2.11151359797,-0.91652049232,-0.031258673887,0.00627407560154,0.00247323656057,0.00518746850598,0.000692613026327,0.00118419689997,-0.0323515519702,0.573783948046,0.818972075444,0.00612107087326,0.0,0.818970023245,-0.573692149179,-0.012089908952,0.0,-0.00638981054545,0.0119501993237,-0.999908177313,0.0,0.26009041283,-0.266310621058,0.304930948918,1.0,-0.00657250000001,-0.00863814285715,3.312
-0.669173050966,-0.51533725507,-0.124881240579,-2.63744881461,-0.0669644951981,2.11153348349,-0.917010286841,-0.0308200249444,0.00509334981958,0.0015683006683,0.0070719654247,0.00671456197043,0.000748210333731,-0.0289161763362,0.573769128611,0.818982553403,0.00610828738181,0.0,0.818980510741,-0.573677717729,-0.0120642491856,0.0,-0.00637634400289,0.0119248916534,-0.999908565418,0.0,0.25999373386,-0.266451712824,0.304942977505,1.0,-0.00623250000001,-0.00819128571429,3.329
-0.669669586133,-0.515257525052,-0.124841520119,-2.63737020956,-0.0669401751765,2.11156779797,-0.917523673428,-0.0257702471235,0.00329030694896,0.00578315431538,0.00363709185377,0.00358823641271,0.000255146021706,-0.0280338179795,0.573741443743,0.819001991274,0.00610253405034,0.0,0.819000108889,-0.573650503644,-0.0120278099055,0.0,-0.00635020079281,0.0118990581657,-0.999909039545,0.0,0.259893756766,-0.266593857752,0.304953120682,1.0,-0.00587250000001,-0.00771814285715,3.347
-0.670085903052,-0.515175044695,-0.124813984652,-2.6373201323,-0.0669179934313,2.11159966921,-0.917953534485,-0.0257584579615,0.00426718694273,0.00398606914262,-0.000284358151183,0.000463180682021,0.000796677022398,-0.0241618889133,0.573722917982,0.819014949249,0.00610517726787,0.0,0.819013114049,-0.573631994486,-0.0120250080827,0.0,-0.00634665856456,0.0118994720737,-0.999909057109,0.0,0.259805328146,-0.266710113121,0.304948791266,1.0,-0.00555250000001,-0.00729757142858,3.363
-0.670505255754,-0.515091807631,-0.124795310401,-2.63726577433,-0.0668994136697,2.11160852851,-0.918396436701,-0.0254356114063,0.00412216576224,-0.00134957757903,0.000638994308952,0.00191140580258,-0.000306156994542,-0.0316247125373,0.573701176262,0.819030130481,0.006111679038,0.0,0.819028264792,-0.573610013766,-0.0120416145216,0.0,-0.00635684720469,0.011914155677,-0.999908817537,0.0,0.259711098322,-0.266827195369,0.304943951138,1.0,-0.00521250000001,-0.00685071428572,3.38
-0.670953455579,-0.515021041824,-0.124785680425,-2.63722981381,-0.0668755661284,2.11161896466,-0.918829299855,-0.0231145380854,0.00182502203991,0.000421218076615,0.000605865766805,0.000517195270051,-0.000245173067087,-0.0137503971658,0.573719056713,0.819017475451,0.00612909222958,0.0,0.819015692856,-0.573627546011,-0.0120615178762,0.0,-0.00636290029171,0.011939975259,-0.999908471057,0.0,0.259603960886,-0.266948792311,0.304935283165,1.0,-0.00483250000001,-0.00635128571429,3.399
-0.67130113396,-0.514975151515,-0.124778340775,-2.63720112043,-0.0668615342813,2.11162535486,-0.919163557079,-0.0225198730381,0.0016093266804,0.00130299921007,0.00574352776865,-0.000219089714193,-0.000139039409362,-0.0239716354404,0.573732354872,0.819008089945,0.00613844274929,0.0,0.819006370584,-0.573640690845,-0.0120693682619,0.0,-0.00636377222998,0.0119522409096,-0.999908318967,0.0,0.259520487208,-0.26704368079,0.304932094937,1.0,-0.00453250000001,-0.00595700000001,3.414
-0.671663691763,-0.514936121475,-0.124750558786,-2.63717406004,-0.0668459674885,2.11163268956,-0.919497395215,-0.0165165246369,0.00676870078269,0.00866050611985,0.000237924581623,-0.000329203065093,-0.000142347627756,-0.017189521502,0.573744196354,0.818999792134,0.00613877323346,0.0,0.818998064615,-0.57365250497,-0.0120714787543,0.0,-0.00636513849635,0.011953814422,-0.999908291461,0.0,0.259437652523,-0.267137685257,0.304931259395,1.0,-0.00419250000001,-0.00551014285715,3.431
-0.672006219152,-0.514882401349,-0.124724340903,-2.63713001375,-0.0668276197257,2.11163595097,-0.919820637064,-0.0236366025247,0.00412519898254,0.00519354295987,-0.000321860998026,5.1773289315e-05,-9.03156306256e-05,-0.0242445511521,0.573751462427,0.818994687659,0.00614067178626,0.0,0.818992959412,-0.573659713414,-0.0120752863583,0.0,-0.00636706194801,0.0119576103874,-0.999908233827,0.0,0.259362898671,-0.26723012961,0.304932330565,1.0,-0.00385250000001,-0.00506328571429,3.448
-0.672288100571,-0.514831777324,-0.124709687023,-2.63707968351,-0.0668146671284,2.11164151907,-0.920093603712,-0.0143312405044,0.00333726012712,0.00121344983252,0.00323683472878,0.000444220942451,0.000104872587022,-0.00948592263337,0.57375642192,0.818991206704,0.00614154285103,0.0,0.818989535156,-0.573664753265,-0.0120681011987,0.0,-0.00636060456039,0.011954240044,-0.999908315224,0.0,0.259303074561,-0.267311877766,0.304937320715,1.0,-0.00353250000001,-0.00464271428572,3.464
-0.672563505556,-0.514767425847,-0.124690590282,-2.63702927146,-0.0667983303793,2.11165260858,-0.920368813404,-0.0154821529717,0.00502239099781,0.0049528712463,0.00745656686688,0.00195568161623,0.000192122122375,-0.00731555986294,0.573754468497,0.818992572775,0.00614186621938,0.0,0.81899102744,-0.573663028333,-0.0120488089634,0.0,-0.0063446456309,0.0119434212561,-0.999908545898,0.0,0.259245257386,-0.267397621255,0.304945439813,1.0,-0.00317250000001,-0.00416957142858,3.482
-0.672819294928,-0.514724125974,-0.12466279302,-2.63699101698,-0.0667819843667,2.11166608052,-0.920615059472,-0.0154176496527,0.00198248601361,0.000221611638401,0.00140087909654,0.00296625792576,0.0048883819386,-0.00754474216448,0.573748974079,0.818996427313,0.00614114752229,0.0,0.818994856379,-0.573657507617,-0.0120513932861,0.0,-0.00634725486823,0.0119442727314,-0.999908519168,0.0,0.259195189247,-0.267464734034,0.304942812051,1.0,-0.00283250000001,-0.00372271428572,3.499
-0.673032319279,-0.514695978151,-0.124638311896,-2.63696818444,-0.0667705289102,2.11168184365,-0.920824231919,-0.014772281781,0.00337606301136,-0.000101925157893,0.000696045744663,0.000760936224822,0.000213319960747,-0.0141355004922,0.573741381124,0.819001780829,0.00613656957378,0.0,0.819000183973,-0.573649999411,-0.0120467310742,0.0,-0.00634617325402,0.0119377895738,-0.999908603456,0.0,0.259152382158,-0.267517692856,0.304942946225,1.0,-0.00253250000001,-0.00332842857144,3.514
-0.673264320229,-0.51466894779,-0.124609256765,-2.63694559404,-0.0667580098361,2.11169660808,-0.921035405607,-0.0145118144931,-0.000309071874939,0.0017770343133,0.000890870469072,-0.000135083468977,0.00310414860824,-0.0132212962972,0.573744278041,0.818999791305,0.00613124449619,0.0,0.818998205369,-0.573653069574,-0.012035043488,0.0,-0.00633961293666,0.0119267452031,-0.999908776868,0.0,0.259104734652,-0.267577895757,0.304945170581,1.0,-0.00217250000001,-0.00285528571429,3.532
-0.673463873545,-0.514643721589,-0.124587698072,-2.63693571752,-0.066747890284,2.11170952384,-0.921217873877,-0.0141485515703,0.00397174466682,-0.0010771114531,0.00187387332053,0.000275890535651,-0.000592667907629,-0.00948562128025,0.573747825978,0.818997318666,0.00612952723268,0.0,0.818995705881,-0.57365661567,-0.0120361101505,0.0,-0.00634142018449,0.0119259781268,-0.999908774557,0.0,0.259060759725,-0.267627968164,0.304941951149,1.0,-0.00183250000001,-0.00240842857144,3.549
-0.673639948004,-0.514635952889,-0.124559866917,-2.636919573,-0.0667359112372,2.11172698195,-0.921372832016,-0.0115647683612,0.00152791855489,0.00548064565196,-0.000125228158135,0.00172289047383,0.00321556122088,-0.00863529663224,0.573751208709,0.818994996257,0.00612319461892,0.0,0.818993478529,-0.573660358665,-0.0120092432869,0.0,-0.00632299787687,0.0119054035281,-0.999909136404,0.0,0.259027128918,-0.267673021989,0.304948563431,1.0,-0.00151250000001,-0.00198785714286,3.565
