nelsonifechukwu/NELSON_IML_WORK/CNN-GradCAM/train2dof/data_sample_2022-02-21-14-50-39/robot_state.csv
position_joint1,position_joint2,position_joint3,position_joint4,position_joint5,position_joint6,position_joint7,velocity_joint1,velocity_joint2,velocity_joint3,velocity_joint4,velocity_joint5,velocity_joint6,velocity_joint7,ee_T_00,ee_T_10,ee_T_20,ee_T_30,ee_T_01,ee_T_11,ee_T_21,ee_T_31,ee_T_02,ee_T_12,ee_T_22,ee_T_32,ee_T_03,ee_T_13,ee_T_23,ee_T_33,v_x,v_y,time
0.465090618043,0.547872712632,-0.123979624052,-1.35584864587,0.0794537809453,1.89409563329,0.15916626267,0.000740168894526,-0.000513594436618,-0.00061781011969,0.00142513260136,-0.000104809840237,-0.00029093866815,0.00104253504044,0.573780183574,0.818995557424,0.00182339224841,0.0,0.818951112071,-0.573722484061,-0.0119303906794,0.0,-0.00872498381758,0.00833885141246,-0.999927166455,0.0,0.661666202029,0.2608959167,0.303141289235,1.0,0.0,0.0,0.0
0.465086105979,0.547874748016,-0.123982127265,-1.35585296838,0.0794542859752,1.89409315053,0.159164738253,-0.00127396507843,0.00203092570772,-0.00117817371011,7.06338331172e-05,9.54542051266e-05,4.31121445314e-05,-0.000868093066453,0.573784734467,0.818992386165,0.00181570865676,0.0,0.818947841314,-0.573727067622,-0.011934487251,0.0,-0.00873270111961,0.00833495775699,-0.99992713155,0.0,0.661666384145,0.260890853842,0.303137658479,1.0,-0.0001,-0.000131428571429,0.006
0.465085424185,0.547870891515,-0.123978970366,-1.3558542773,0.0794530380991,1.89409586584,0.159167140065,-0.00117658531533,-0.00229808512006,0.000275118081491,0.000810192378043,-0.000558821682141,-0.00010266903812,0.000332678372871,0.573784807591,0.818992324768,0.00182028837068,0.0,0.818947837234,-0.573727119028,-0.0119322957776,0.0,-0.00872827790243,0.00833745178299,-0.999927149378,0.0,0.661666251481,0.260892108396,0.303139896412,1.0,-0.00046,-0.000604571428571,0.024
0.465085028796,0.547855746166,-0.123981837248,-1.35587033013,0.0794496259601,1.89409557419,0.159162144651,-0.000154636355173,5.38667473413e-05,-0.000129505319407,-0.00153200567792,-3.34287785437e-05,-0.000287181885466,-0.00125573916756,0.573782986629,0.818993606424,0.00181763383561,0.0,0.818949113323,-0.573725337273,-0.0119303838715,0.0,-0.00872825357351,0.00833416136588,-0.99992717702,0.0,0.661663867181,0.260887908131,0.303143048868,1.0,-0.0008,-0.00105142857143,0.041
0.465082198863,0.547798646144,-0.123976705373,-1.35592744809,0.0794514247723,1.89410809606,0.159165251326,-0.000305476477385,-0.00593183193925,0.00103501515794,-0.00624572964835,6.34648171687e-05,-3.00009002068e-05,0.00142088582146,0.57378784524,0.81899016771,0.00183323523281,0.0,0.818945791912,-0.573730046914,-0.0119318933641,0.0,-0.00872048910769,0.00834785638462,-0.999927130527,0.0,0.661654241996,0.260884121049,0.30315723523,1.0,-0.00112,-0.001472,0.057
0.465083832038,0.547668680758,-0.123974224198,-1.3560955831,0.0794499235846,1.89413374888,0.159155688481,-8.42111073715e-05,-0.00469403323285,0.00102395752859,-0.0101610957242,-0.00069110495391,0.00303378792611,-0.00136008178593,0.573785668316,0.818991700363,0.00182988300591,0.0,0.818947138783,-0.57372774855,-0.0119499507629,0.0,-0.00873722405611,0.00835544880512,-0.999926921025,0.0,0.661623334007,0.26086988332,0.303171423017,1.0,-0.00146,-0.00191885714286,0.074
0.465073363192,0.547529637899,-0.123976711702,-1.3562974159,0.0794429441825,1.89420364062,0.159154888772,0.00106416671921,-0.009117452293,-0.00283904249316,-0.0134670898462,-0.00228571546982,0.00883697906218,-0.000656217614395,0.573816230489,0.818970255531,0.00184420283736,0.0,0.81892581627,-0.573758184408,-0.0119499026112,0.0,-0.00872865637714,0.00836747448486,-0.999926895292,0.0,0.661599941529,0.260838503473,0.303180539086,1.0,-0.00182,-0.002392,0.092
0.465051647847,0.547364911364,-0.123977449155,-1.356499086,0.0794404458604,1.89432549622,0.159143595317,0.000984188468518,-0.014391125624,0.000744417829985,-0.01282690558,-4.66343565832e-05,0.00273049896523,-0.00284414170451,0.573824685275,0.818964170225,0.00191451272088,0.0,0.818920649347,-0.573766344117,-0.011912150647,0.0,-0.00865730828556,0.00840348188957,-0.999927213604,0.0,0.66158675946,0.26081432218,0.303211295007,1.0,-0.00212,-0.00278628571429,0.107
0.4650244277,0.547153704054,-0.123974135509,-1.3567551125,0.0794392026043,1.89446060085,0.15913334058,-0.000180079964294,-0.00903096006532,0.00104194432508,-0.0163963694937,0.00023003973879,0.0126799825656,0.000214822149689,0.573850467763,0.818945901877,0.0019993369989,0.0,0.818903395189,-0.573791685004,-0.0118776457426,0.0,-0.00858011155306,0.00845341917633,-0.999927458064,0.0,0.661566984717,0.260779606233,0.303250659319,1.0,-0.00248,-0.00325942857143,0.125
0.464983309488,0.546937127975,-0.12397966166,-1.35708872552,0.0794326101967,1.8945862406,0.159119496487,-0.0031330527669,-0.0206163556676,0.000494947955056,-0.0235716832596,-0.000255424940898,0.000651907337853,0.000222369853808,0.573893601475,0.818915643966,0.00201225120117,0.0,0.818873214612,-0.57383467116,-0.0118817282734,0.0,-0.00857559876095,0.0084667894522,-0.999927383655,0.0,0.661533592314,0.260719913606,0.303256350037,1.0,-0.00282,-0.00370628571429,0.142
0.464952740403,0.546691033409,-0.12397718264,-1.35746200447,0.0794273313278,1.89471887325,0.159074603478,-0.000583431869804,-0.0145125781982,-0.0043067999875,-0.0272444327974,0.00037008399966,0.00544749951869,-0.00303793285869,0.573899576806,0.818911419503,0.00202722709237,0.0,0.818869006392,-0.573840407898,-0.0118946851293,0.0,-0.00857755380665,0.00848655158921,-0.999927199356,0.0,0.661488588831,0.260668200613,0.303264400445,1.0,-0.00314,-0.00412685714286,0.158
0.464905225512,0.54641298835,-0.123977235254,-1.35790534637,0.0794084502305,1.89488581569,0.158927689836,-0.0034944020347,-0.0174570949213,0.000736523760373,-0.0246757738557,0.000472254125504,0.00333288113546,-0.00139976763104,0.573838037984,0.818954527336,0.00203352395518,0.0,0.818912117107,-0.573778772588,-0.0119000623521,0.0,-0.00857898223178,0.00849414937804,-0.99992712259,0.0,0.66144092378,0.260596041864,0.303264754654,1.0,-0.00348,-0.00457371428571,0.175
0.464862985318,0.546098487187,-0.123974477501,-1.35842318803,0.0793827689044,1.89505670494,0.158908291034,-0.00143894594,-0.0164276973039,0.0012565303374,-0.0341470797218,0.00034563351242,0.00347140348893,-0.000755927172513,0.573876837222,0.818927399537,0.00200920115188,0.0,0.818884578386,-0.573817574199,-0.0119241655216,0.0,-0.00861227674424,0.00848846966356,-0.999926884613,0.0,0.661376221507,0.260519797245,0.303255683946,1.0,-0.00382,-0.00502057142857,0.192
0.464806207577,0.545784061276,-0.123979998474,-1.35896846113,0.0792900120719,1.89524518263,0.158852597325,-0.00222346124937,-0.0197484822857,0.000179920973731,-0.0369505762497,-0.00666135142646,0.012061370355,-0.00707194707222,0.573887375261,0.818920186672,0.00193785420168,0.0,0.818876988176,-0.573828947321,-0.0118980818996,0.0,-0.00863174880158,0.0084151852226,-0.999927336145,0.0,0.661318117362,0.260416219263,0.303235161071,1.0,-0.00414,-0.00544114285714,0.208
0.464740084249,0.545401310198,-0.123982858165,-1.35963761012,0.0792500678827,1.89545968386,0.158737789825,-0.00440662260983,-0.0265055221872,0.00514937489653,-0.0419019674019,-0.00137525625998,0.0128930214045,-0.00636253160696,0.573876099979,0.818928231529,0.00187626720285,0.0,0.818884187211,-0.573817888647,-0.0119358914773,0.0,-0.00869817028105,0.00838632985697,-0.999927002988,0.0,0.661237339059,0.260304515412,0.303206297746,1.0,-0.00448,-0.005888,0.225
0.46467821297,0.544951999043,-0.123982828477,-1.36038370444,0.0792310831698,1.89569932297,0.158673308046,-0.00337260586231,-0.0290781740762,0.00197504346714,-0.0413709327098,-0.00353791164708,0.00974133298336,-0.00359015495859,0.573910317338,0.818904329995,0.00184197407036,0.0,0.818859542911,-0.573851963859,-0.011988305176,0.0,-0.00876042324559,0.00838869158153,-0.999926439713,0.0,0.661142617351,0.260194146067,0.303190017614,1.0,-0.00484,-0.00636114285714,0.243
0.464602039255,0.544539784501,-0.123981467709,-1.36106032599,0.0792086916513,1.89596065625,0.158579819456,-0.00184845081658,-0.0293314349824,0.00150773546511,-0.0396707934369,-0.000436027429177,0.0165343318723,-0.0129827052643,0.573927075086,0.818892570556,0.00184858665791,0.0,0.81884769947,-0.573868527933,-0.0120043584622,0.0,-0.00876960309691,0.008403499066,-0.999926234912,0.0,0.661070745398,0.260083784503,0.303182337935,1.0,-0.00516,-0.00678171428571,0.259
0.464540150614,0.544044748182,-0.123992669778,-1.3618654312,0.079173225944,1.89624119933,0.158473509107,-0.00163086760751,-0.0310554126414,7.644041506e-05,-0.0488040055335,-0.00208548068571,0.0134701566221,-0.00978146180522,0.573933876712,0.81888785031,0.00182775220638,0.0,0.818842609731,-0.573875325775,-0.0120265479571,0.0,-0.00879966153111,0.0083992463906,-0.999926006571,0.0,0.660975126372,0.259960614811,0.303174133554,1.0,-0.0055,-0.00722857142857,0.276
0.464458963047,0.543518659195,-0.123997374422,-1.36270687487,0.0791260682442,1.89653308474,0.158381144899,-0.00413381268135,-0.0325302123997,-0.00145806604918,-0.0544657238687,-0.000135054159799,0.0206182157813,-0.00425836861286,0.573962188463,0.818868049443,0.00180851231301,0.0,0.818822514248,-0.573903676755,-0.0120418798147,0.0,-0.0088229686391,0.00839259587433,-0.999925857031,0.0,0.660878286304,0.259823432307,0.30317129678,1.0,-0.00584,-0.00767542857143,0.293
0.464394942666,0.543004002686,-0.123998483682,-1.36353033265,0.0790696520722,1.89683321741,0.158264183044,-0.000401242165163,-0.0284952011744,0.00103324712011,-0.0570768142888,-3.25556272917e-07,0.0261417566536,-0.0114131816536,0.573950366727,0.818876361273,0.00179677044954,0.0,0.818830724277,-0.573891956974,-0.0120421593345,0.0,-0.00883005751418,0.00838301401379,-0.999925874833,0.0,0.660782044503,0.259700732929,0.303169452477,1.0,-0.00616,-0.008096,0.309
0.464318230726,0.542397305471,-0.123996570338,-1.36445895265,0.079019891518,1.89716346153,0.158141571224,-0.00768513016464,-0.0383379354201,-0.00016588993314,-0.0532688435977,-0.00397893810775,0.0231120405653,-0.0125977617133,0.573949663375,0.818876828748,0.00180835623084,0.0,0.818831246927,-0.573891111491,-0.0120469128538,0.0,-0.00882730817966,0.00839522179855,-0.999925796688,0.0,0.660672104522,0.259563256281,0.303185114153,1.0,-0.0065,-0.00854285714286,0.326
0.464239442965,0.541708245001,-0.123999496353,-1.3655195477,0.0789559434358,1.89755496746,0.158003928922,-0.00444934370315,-0.039910481131,0.00185186881546,-0.0610349530909,0.000774112254218,0.0257265479092,-0.00888043911387,0.573945307814,0.818879845522,0.00182459243153,0.0,0.818834478211,-0.573886687699,-0.0120380179361,0.0,-0.00881075059526,0.00840336489227,-0.999925874319,0.0,0.660548391999,0.259408888596,0.303201571326,1.0,-0.00688,-0.00904228571429,0.345
0.464171513718,0.541125911098,-0.124004869784,-1.36641113758,0.0789059084668,1.89789680054,0.157880698933,-0.00206997876302,-0.0369629737673,-0.00102358353765,-0.062101584375,-0.000444927687822,0.0239409464345,-0.00381637604957,0.573939942286,0.818883543081,0.00185267942934,0.0,0.818838542306,-0.573881200348,-0.0120231619062,0.0,-0.00878252061675,0.00841778024218,-0.999926001416,0.0,0.660447763002,0.259277820162,0.303218703034,1.0,-0.00718,-0.00943657142857,0.36
0.464072544996,0.540379815843,-0.124002303396,-1.36756049902,0.0788365193219,1.89831150116,0.157745925308,-0.000530353670934,-0.0454665836627,-0.000262826135802,-0.0656396915658,-0.00395083271644,0.0247877929651,-0.0105689344833,0.573953852596,0.818873769621,0.00186317395699,0.0,0.81882886785,-0.573895026991,-0.0120220660494,0.0,-0.00877545723093,0.00842589397161,-0.999925995092,0.0,0.660313582496,0.25910422989,0.303234850839,1.0,-0.00754,-0.00990971428571,0.378
0.463977565274,0.539680203316,-0.12400294716,-1.36863944981,0.0787723980498,1.89872627222,0.157601265078,-0.0104420815443,-0.0381556404111,-0.000659585679325,-0.0705489388394,-0.00263657610157,0.0193580159649,-0.0139005372441,0.573956263185,0.818872011602,0.00189300464,0.0,0.818827503724,-0.57389731296,-0.0120058412385,0.0,-0.00874502545844,0.0084410345536,-0.999926134005,0.0,0.660193656833,0.258940027102,0.303251661826,1.0,-0.00786,-0.0103302857143,0.394
0.463881083646,0.538979109978,-0.124008332188,-1.36973591498,0.0787166096562,1.89914088424,0.157473120702,-0.00343339267539,-0.0388731702062,-0.000885224532904,-0.0667765898645,-0.00125044624852,0.027942559339,-0.00474128859788,0.57397985225,0.818855431124,0.00191285951565,0.0,0.818811115676,-0.573920749472,-0.0120032109281,0.0,-0.00873123279582,0.00845603467403,-0.999926127797,0.0,0.660070486979,0.258771366846,0.303261234285,1.0,-0.00818,-0.0107508571429,0.41
0.463758013774,0.538143968884,-0.124008500094,-1.37102724935,0.0786405110689,1.89963818803,0.157327339678,-0.00972878333537,-0.0472849296344,0.000141038495567,-0.0684594083924,-0.00218371165445,0.0298532292241,-0.00753366843701,0.57401238118,0.818832547083,0.00194756018155,0.0,0.81878868469,-0.573953126751,-0.0119851999552,0.0,-0.00869623098025,0.00847445656414,-0.999926276859,0.0,0.6599288107,0.25856915351,0.303279595332,1.0,-0.00854,-0.011224,0.428
0.463657879142,0.537390534759,-0.124019748233,-1.37221523074,0.0785738915396,1.90007604797,0.157163433733,-0.00337348072602,-0.0427087951224,-0.000302810550262,-0.0754862338413,-0.00572618264852,0.0290147366997,-0.0178094323607,0.574015692098,0.818830220135,0.00195005617642,0.0,0.818786382427,-0.573956418996,-0.011984821538,0.0,-0.00869445419354,0.0084763182674,-0.99992627653,0.0,0.659792862072,0.258384355613,0.30328452211,1.0,-0.00886,-0.0116445714286,0.444
0.463550299496,0.536585786135,-0.124020235773,-1.37344567225,0.0784976070463,1.9005539167,0.157024219553,-0.00665504284646,-0.0482130003098,-0.000956866619267,-0.0792921246063,-0.000516341323779,0.0232148803248,-0.00572531040889,0.574037515577,0.818814819707,0.00199214455988,0.0,0.81877157278,-0.573978103424,-0.011958064127,0.0,-0.00864815926986,0.00849565232472,-0.999926513916,0.0,0.659656155426,0.258197690437,0.30330843174,1.0,-0.00918,-0.0120651428571,0.46
0.463433806083,0.535734000067,-0.124029572799,-1.37480913737,0.0784209031223,1.90104812452,0.156847454441,-0.00957743679244,-0.0470199815118,-0.000104504985968,-0.0853268102991,-0.000373222232571,0.0251886304583,-0.0112479713237,0.574049050954,0.818806768028,0.00197753163684,0.0,0.81876329243,-0.573989661301,-0.0119702376635,0.0,-0.00866639575431,0.00849079735846,-0.999926397264,0.0,0.659497118053,0.257985889321,0.303303805008,1.0,-0.00952,-0.012512,0.477
0.463301019477,0.534778503478,-0.124025330089,-1.37634183142,0.0783370025502,1.90160434928,0.15666003717,-0.00850712997868,-0.0488784409959,0.000459233735122,-0.0851038420712,-0.000647583824923,0.0345522108272,-0.0123441198552,0.574062875485,0.818797106777,0.00196464366396,0.0,0.818753325443,-0.57400340392,-0.0119929673617,0.0,-0.00869226217985,0.00849343938749,-0.999926150306,0.0,0.659315009452,0.257755564634,0.303296575907,1.0,-0.00988,-0.0129851428571,0.495
0.463182449214,0.533928772182,-0.12402854611,-1.37773813303,0.0782519412933,1.90211011674,0.156498651044,-0.0106436091484,-0.0487934456044,0.00238178530177,-0.0796801648333,-0.0061321724068,0.0301368762708,-0.0041348819223,0.574083696096,0.818782597646,0.00192732193263,0.0,0.818738314349,-0.574024366603,-0.0120144106484,0.0,-0.0087310287076,0.00847541275972,-0.999925965518,0.0,0.659149482317,0.257541497191,0.303275331369,1.0,-0.0102,-0.0134057142857,0.511
0.463045687289,0.532995777652,-0.124030874054,-1.37924419867,0.0781716185801,1.90268640127,0.156301726822,-0.00918253196668,-0.0562612071151,0.00023034827496,-0.092944325158,-0.00855311770921,0.027928851572,-0.0131237273945,0.57409703872,0.818773228284,0.00193330762727,0.0,0.818728940164,-0.574037601323,-0.0120208862982,0.0,-0.00873275674086,0.0084841734779,-0.999925876133,0.0,0.658978534266,0.257309576191,0.303266494099,1.0,-0.01054,-0.0138525714286,0.528
0.462908331521,0.53196571917,-0.124031229198,-1.3808945855,0.0780759405292,1.90329481577,0.156086886024,-0.00228648512346,-0.0589695268488,0.000161919986553,-0.0948641014858,-0.00679984705969,0.0323979664195,-0.0120335522523,0.574101606288,0.818770041169,0.00192671824517,0.0,0.818725592345,-0.57404212417,-0.0120329139896,0.0,-0.00874634044266,0.00848573216295,-0.999925744182,0.0,0.658771049295,0.257048302729,0.30326297675,1.0,-0.01092,-0.014352,0.547
0.462782299431,0.531015302321,-0.124033266628,-1.38242047127,0.0779807792719,1.90383066411,0.155903754103,-0.00667049467556,-0.0636780036435,-0.000198285482391,-0.10172615512,-0.00517725253963,0.0282941339566,-0.00500073404393,0.574110225249,0.818764087086,0.00188834957584,0.0,0.818719117657,-0.574050889509,-0.012055270144,0.0,-0.00878658266927,0.00846724477708,-0.999925548094,0.0,0.658597004133,0.256830418955,0.303249940669,1.0,-0.01122,-0.0147462857143,0.562
0.462629689037,0.529914148853,-0.124033266788,-1.38416244529,0.0778753645541,1.90445699098,0.15567000049,-0.0124177350005,-0.0600399907841,0.00452329338526,-0.0920327187542,-0.00928961871402,0.0352496307058,-0.00847101102265,0.574109981203,0.818764286523,0.00187603270105,0.0,0.818719102409,-0.574050647549,-0.0120678208674,0.0,-0.00880393245849,0.00846436318565,-0.999925419883,0.0,0.658389003802,0.256563065492,0.303250893668,1.0,-0.01158,-0.0152194285714,0.58
0.462501348198,0.528920396613,-0.124034010489,-1.38573687615,0.0777758754464,1.90504587141,0.155459792564,-0.00583069215309,-0.0569911878997,-0.000105182777073,-0.101841959538,-0.00298047404009,0.0349284434165,-0.0130075911866,0.574102126911,0.818769785825,0.00187952062152,0.0,0.818724673253,-0.57404280395,-0.0120629822308,0.0,-0.00879804947961,0.00846435662742,-0.999925471719,0.0,0.658203009159,0.256328175824,0.303252467523,1.0,-0.0119,-0.01564,0.596
0.462364752261,0.527870441791,-0.124037097638,-1.38734096396,0.0776792710725,1.90567975448,0.155234238706,-0.00672819017844,-0.0688268908704,-0.000536568619907,-0.100433721632,-0.00529971531143,0.0376837999087,-0.0152118444178,0.574092520425,0.818776367102,0.0019456539273,0.0,0.818732166261,-0.57403295875,-0.0120228573516,0.0,-0.00872733001208,0.00849536549649,-0.999925828487,0.0,0.658022608376,0.256087234152,0.303283229498,1.0,-0.01222,-0.0160605714286,0.612
0.462205300851,0.526638901468,-0.12403741615,-1.38923904144,0.077556802629,1.90639869033,0.154962264813,-0.0109073966969,-0.0652022054873,-4.58118086055e-05,-0.104799402428,-0.00577147897171,0.0466508532751,-0.0229986799302,0.574070169528,0.818791942262,0.001985609785,0.0,0.818748329024,-0.574010504973,-0.0119941986648,0.0,-0.00868115948452,0.00851139022509,-0.999926094122,0.0,0.657801185629,0.255801993588,0.30330885968,1.0,-0.01258,-0.0165337142857,0.63
0.462054757821,0.525452016703,-0.124043229576,-1.39107185597,0.0774368810873,1.90705273118,0.154721739811,-0.00557760301508,-0.0753750355882,-0.000190022498456,-0.103020531579,-0.0105566436597,0.0374748135042,-0.0177466560713,0.574066780857,0.818794314147,0.00198724386737,0.0,0.818750770542,-0.574007157191,-0.0119877492074,0.0,-0.00867497570766,0.00850898986931,-0.999926168218,0.0,0.657579157442,0.255522649471,0.303328346109,1.0,-0.01292,-0.0169805714286,0.647
0.461899299335,0.524342554547,-0.124049349778,-1.39283256073,0.0773279526202,1.90768409869,0.154481961641,-0.00986268312513,-0.0635084765851,0.000690257903935,-0.106575504653,-0.00999446913235,0.0416758546513,-0.0154917981353,0.57406721494,0.818794056841,0.00196776887288,0.0,0.818750249502,-0.574007664298,-0.0119990486768,0.0,-0.00869540274313,0.00849953535382,-0.999926071202,0.0,0.657367654148,0.255247701032,0.303325483172,1.0,-0.01324,-0.0174011428571,0.663
0.461745145314,0.523151088751,-0.12405566724,-1.39476453747,0.0772132997348,1.90840092997,0.154230965834,-0.00929691624601,-0.0718232489116,0.00075592063814,-0.118964747109,-0.00493658015191,0.0417032750554,-0.0122710258381,0.574065175785,0.818795539177,0.00194573275482,0.0,0.818751417213,-0.574005692968,-0.012013665277,0.0,-0.00872004174751,0.00848986177572,-0.999925938817,0.0,0.657134524619,0.254959130196,0.303305915842,1.0,-0.01358,-0.017848,0.68
0.461586120644,0.521897583253,-0.12405664228,-1.39672164532,0.0770894558154,1.90917497496,0.153959857162,-0.00951644031357,-0.0725535249878,-0.00100646534717,-0.115848347388,-0.00281358582759,0.052100299306,-0.0134099981382,0.574045671746,0.818809081939,0.00200024637964,0.0,0.818765761532,-0.57398604855,-0.0119745861452,0.0,-0.00865695304574,0.0085118564775,-0.999926300016,0.0,0.65690843398,0.254670713888,0.303322394104,1.0,-0.01392,-0.0182948571429,0.697
0.461437618975,0.5207989901,-0.124067100013,-1.39848891269,0.076984504435,1.90983759875,0.153722031043,-0.00587858986773,-0.0718395814407,-0.00168736444883,-0.11472752977,-0.00715504872814,0.0384042253268,-0.0113425974965,0.574046058747,0.8188088299,0.00199233929258,0.0,0.81876541432,-0.573986476581,-0.0119778093483,0.0,-0.00866412705783,0.00850723654582,-0.999926277197,0.0,0.656698603701,0.254399733345,0.303310766292,1.0,-0.01422,-0.0186891428571,0.712
0.461266176583,0.519478539582,-0.124070170342,-1.40055346025,0.0768490986914,1.91056534037,0.153447293303,-0.00681378447377,-0.0793236894791,-0.000704308474933,-0.125100263555,-0.00759893754418,0.0387776780603,-0.0163322974397,0.574036660282,0.818815464763,0.00197337750238,0.0,0.81877181946,-0.573977176578,-0.0119856300292,0.0,-0.00868151272168,0.00849610049768,-0.999926221085,0.0,0.656442605915,0.254085223653,0.303318473781,1.0,-0.01456,-0.019136,0.729
0.461082682038,0.518055986256,-0.124073680669,-1.40277385706,0.0766971877061,1.91137779431,0.153145530423,-0.0127642592862,-0.0787687077998,0.000481591001911,-0.125177506044,-0.0132598265974,0.0484807849538,-0.0217965228258,0.574018925857,0.818827891602,0.00197575140622,0.0,0.818784395879,-0.573959550466,-0.0119705636761,0.0,-0.00866799691301,0.00848920796833,-0.99992639688,0.0,0.656172638348,0.253748514975,0.303330602493,1.0,-0.01492,-0.0196091428571,0.747
0.460911991212,0.516766673134,-0.124079752441,-1.40478971372,0.0765756210766,1.91210377386,0.152872154092,-0.00957192633186,-0.0817126665625,-0.000806361262189,-0.128410537263,-0.00831792133727,0.048811765227,-0.0173325113232,0.574012873878,0.818832135967,0.00197500142329,0.0,0.818788585145,-0.573953458022,-0.0119761330224,0.0,-0.00867305066995,0.00849172664721,-0.999926331672,0.0,0.655925220836,0.253440313704,0.303338791306,1.0,-0.01524,-0.0200297142857,0.763
0.460694876006,0.51515459733,-0.124075985359,-1.40735906579,0.0764133798195,1.91308134258,0.152511685158,-0.0132431874344,-0.079563223596,0.00196528599321,-0.128667955852,-0.0141809376389,0.047074731539,-0.0215581890857,0.573984715976,0.818851843747,0.0019876417272,0.0,0.818808478566,-0.5739252708,-0.011966865378,0.0,-0.00865849866505,0.00849645930687,-0.999926417583,0.0,0.65561614356,0.253056480498,0.303330975677,1.0,-0.01564,-0.0205554285714,0.783
0.460540712332,0.514003443194,-0.12407977114,-1.40922322647,0.0763074979971,1.91373068285,0.152263859661,-0.0134475947916,-0.0828143329177,0.00102154925174,-0.13435504736,-0.00734555029839,0.0439163048173,-0.0159626501636,0.573980022,0.818855254964,0.00193717962067,0.0,0.818811079789,-0.573920643225,-0.0120107367084,0.0,-0.00872343544888,0.00848027032855,-0.999925990606,0.0,0.655378691276,0.25277409459,0.303307049325,1.0,-0.01592,-0.0209234285714,0.797
0.460369339006,0.512741273507,-0.124084740452,-1.41124352017,0.076187509367,1.91442306833,0.151974638742,-0.00834687634458,-0.0868735044798,-0.0012971579796,-0.130245459762,-0.0122796914989,0.0498380072641,-0.0210303790471,0.57396040903,0.818869129396,0.0018827348061,0.0,0.818824110094,-0.573901139055,-0.012054303029,0.0,-0.00879056222262,0.00846048423977,-0.999925570341,0.0,0.655104152041,0.25244720914,0.303287393683,1.0,-0.01624,-0.021344,0.813
0.460161654034,0.511226174249,-0.12408999966,-1.41366252686,0.0760345306913,1.91535190607,0.151630455522,-0.0143692705398,-0.0877702903111,0.000509151157521,-0.137637545422,-0.0154685636965,0.0532931574083,-0.0267519329192,0.573937709495,0.818885004561,0.0018978479117,0.0,0.818840256726,-0.573878448044,-0.012037762977,0.0,-0.00876857839845,0.00846312332305,-0.999925741031,0.0,0.654831150722,0.252095425742,0.303280477356,1.0,-0.01658,-0.0217908571429,0.83
0.459953731075,0.50966213338,-0.124094753168,-1.41615869767,0.0758825087218,1.91628395972,0.151282159866,-0.0166365633647,-0.0900955691657,-6.97958060208e-05,-0.140762299271,-0.0118054694548,0.0507155956146,-0.0191903704509,0.573915298809,0.818900716905,0.00189540174932,0.0,0.818855913783,-0.573856028234,-0.0120415208042,0.0,-0.00877329121243,0.00846303688155,-0.999925700424,0.0,0.654524313192,0.251719560593,0.303268204928,1.0,-0.01694,-0.022264,0.848
0.459773845713,0.508339835524,-0.124100325047,-1.41823782501,0.0757532683611,1.91702622372,0.151000846834,-0.01138905836,-0.0825099264248,-0.000629040297534,-0.142110520112,-0.00902448765063,0.0514186650963,-0.0207053276009,0.573909115517,0.818905083022,0.0018812307651,0.0,0.818860059168,-0.573849873018,-0.0120529514116,0.0,-0.00879084839179,0.00845792626091,-0.999925589465,0.0,0.654263812128,0.251398804977,0.303268305565,1.0,-0.01724,-0.0226582857143,0.863
0.459549094857,0.506716096532,-0.124103593153,-1.42080148367,0.0755955683748,1.91795229455,0.150631279215,-0.00809622988884,-0.087416992975,-0.00027058864238,-0.141321009595,-0.00780689321475,0.0523952778465,-0.00959972038781,0.5738828678,0.818923506139,0.00186870008457,0.0,0.818878252601,-0.573823619962,-0.0120667929621,0.0,-0.00880964576618,0.00845532640134,-0.999925446019,0.0,0.653943392918,0.251004462847,0.303264028906,1.0,-0.0176,-0.0231314285714,0.881
0.459326507316,0.505114029471,-0.124104293882,-1.4232598454,0.0754330758058,1.91891106768,0.150296870869,-0.0102334097873,-0.0888656802111,0.00191853041997,-0.146811803167,-0.00984532343573,0.0617293032987,-0.0291033437659,0.573874876128,0.818928923335,0.00194729964834,0.0,0.818884839445,-0.573815427472,-0.0120092390898,0.0,-0.0087174904965,0.00848657814788,-0.999925988937,0.0,0.653652247612,0.250626709538,0.303296789164,1.0,-0.01794,-0.0235782857143,0.898
0.459106356883,0.503539857807,-0.124110687406,-1.42558328657,0.0752872109635,1.91979143714,0.149975447689,-0.0188964397506,-0.0952093257216,0.000952064213824,-0.147040892152,-0.0123824921929,0.0513344143239,-0.0199306811707,0.573876524385,0.818927501232,0.00205654717819,0.0,0.818884904968,-0.573816677603,-0.0119448659135,0.0,-0.0086020637424,0.00853911797977,-0.999926541284,0.0,0.653375874866,0.250260334961,0.303366984949,1.0,-0.01826,-0.0239988571429,0.914
0.458871006089,0.501847072665,-0.124119469184,-1.4280980127,0.0751175764537,1.9207129181,0.149625468761,-0.0121453196081,-0.0950894850714,0.000870773085579,-0.151204306382,-0.0110453457727,0.0585516111567,-0.0159565272786,0.573871528865,0.818930806221,0.00213304526296,0.0,0.81888933752,-0.573811501053,-0.0118895355846,0.0,-0.00851290495755,0.00856995898399,-0.999927040465,0.0,0.653069418653,0.249860625527,0.303431976963,1.0,-0.0186,-0.0244457142857,0.931
0.458658723984,0.500319231421,-0.124124902778,-1.43040309085,0.0749755083452,1.92152231308,0.149296085096,-0.013685808871,-0.0984782453132,-0.000128830148166,-0.155120976327,-0.00495382620028,0.0530280118228,-0.0221185661782,0.573858445903,0.818939897841,0.00216210354929,0.0,0.818898736556,-0.573798231302,-0.0118825890205,0.0,-0.00849067851791,0.00858963331046,-0.999927060629,0.0,0.652777676039,0.249497601806,0.303471271523,1.0,-0.0189,-0.02484,0.946
0.458396600271,0.498546430954,-0.124122745497,-1.43318070525,0.074804308226,1.92255016842,0.148902529921,-0.018643894222,-0.0894090003202,0.000451095759087,-0.149530900659,-0.0111550428793,0.0596441711362,-0.0320191301364,0.573844325852,0.81894974044,0.00218156399795,0.0,0.81890877042,-0.573783972194,-0.0118796415618,0.0,-0.00847724613052,0.00860373244309,-0.999927053382,0.0,0.652433222814,0.249063832305,0.303474744911,1.0,-0.01926,-0.0253131428571,0.964
0.458057789765,0.496366473886,-0.124126309732,-1.43665422848,0.0745937502217,1.92379264594,0.148391370871,-0.0150125332713,-0.102111928933,0.000447374559061,-0.160345245254,-0.0116461042486,0.0567929377982,-0.024266296674,0.573824628642,0.818963652142,0.00213984440489,0.0,0.818921982446,-0.573764287634,-0.0119195555009,0.0,-0.00853408071184,0.00859226555882,-0.999926668531,0.0,0.651994959773,0.248507978348,0.303448846902,1.0,-0.0197,-0.0258914285714,0.986
0.4578508868,0.495097443225,-0.124126689286,-1.43873965597,0.0744604926366,1.92449822268,0.148088256858,-0.0117483449893,-0.0923910020424,0.000414930597811,-0.155009220294,-0.00922521622682,0.0559856332523,-0.0271858634604,0.57381488368,0.818970724552,0.00204413683545,0.0,0.818927693808,-0.573754826075,-0.0119824359355,0.0,-0.0086405972238,0.00854986495843,-0.999926117215,0.0,0.651722504941,0.2481688624,0.303401594892,1.0,-0.01996,-0.0262331428571,0.999
0.457558557648,0.493175540728,-0.124165655327,-1.44178381741,0.0742719197874,1.92562049586,0.147664170029,-0.0135058607699,-0.123186413504,-0.00417753538774,-0.175014345366,-0.0186609135305,0.0684062550505,-0.0212842233173,0.573837107907,0.81895517794,0.00203396544197,0.0,0.81891212848,-0.573777202832,-0.0119747333843,0.0,-0.00863989325227,0.00853734971296,-0.999926230231,0.0,0.651349656554,0.247665731417,0.303389382841,1.0,-0.0236371428571,-0.0310659591837,1.017
0.457290326293,0.491313089051,-0.124200570059,-1.44474768255,0.0740923591417,1.92669953114,0.147244251313,-0.0206618074613,-0.1369938834,-0.000762791656812,-0.21222258012,-0.0132110737744,0.0732113679033,-0.033248658075,0.573837889533,0.818954692839,0.00200861029545,0.0,0.818911345095,-0.573778122852,-0.0119842192851,0.0,-0.00866220275292,0.0085220369367,-0.999926167839,0.0,0.650977163883,0.247188094891,0.303369336744,1.0,-0.0270657142857,-0.0355720816327,1.032
0.456842678441,0.488462908935,-0.12420439639,-1.44934441761,0.073823275123,1.92834762355,0.146573193915,-0.0215493005937,-0.15148488765,0.000445932454774,-0.242476207375,-0.0224770839467,0.085624927925,-0.0346190738506,0.573813892226,0.818971690367,0.00193245098136,0.0,0.818927023277,-0.573754136931,-0.0120610033752,0.0,-0.0087690374079,0.00850347133885,-0.999925394696,0.0,0.650386351194,0.246455873467,0.303306381042,1.0,-0.0316371428571,-0.041580244898,1.052
0.456490572148,0.486288002791,-0.124244370207,-1.4526770959,0.0736154040775,1.92964425376,0.146091580719,-0.0327440696062,-0.175466177697,-0.0057111335968,-0.259089961799,-0.0195402423643,0.0994012153418,-0.0425208410714,0.573845838141,0.818949049074,0.00203861939883,0.0,0.818906000945,-0.57378585379,-0.0119792532028,0.0,-0.0086408334096,0.00854384674936,-0.999926166615,0.0,0.64999474128,0.24589159517,0.303344600405,1.0,-0.0346085714286,-0.0454855510204,1.065
0.455907329689,0.482596712309,-0.124285726407,-1.45835794869,0.0732596308297,1.93165601825,0.145202380838,-0.0351569331567,-0.199099228149,-0.00218146599985,-0.299832255192,-0.0187560865274,0.107830087631,-0.0458129102429,0.573807575665,0.81897582336,0.00205274496501,0.0,0.818932915529,-0.573747493454,-0.0119766656102,0.0,-0.00863100847449,0.00855352655926,-0.999926168713,0.0,0.649272357765,0.244943581016,0.303378070217,1.0,-0.03918,-0.0514937142857,1.085
0.455453271328,0.479757847159,-0.124339414179,-1.4628298274,0.0729981210099,1.93323412088,0.144538681728,-0.0341017896266,-0.212501058531,-0.00220373260654,-0.320650578546,-0.0246920431958,0.117212506539,-0.050822367037,0.573822309535,0.818965614809,0.00200642501381,0.0,0.81892196719,-0.573762287254,-0.012016500359,0.0,-0.00869005690976,0.00853860590249,-0.999925784806,0.0,0.648699301933,0.244190373617,0.303356245501,1.0,-0.04238,-0.0556994285714,1.099
0.454757765574,0.475511669263,-0.124384801872,-1.46930497934,0.0725992807953,1.93562188099,0.143615341696,-0.0367372681819,-0.229020268679,-0.00109584609841,-0.353552065126,-0.0206888838084,0.133686263474,-0.0497792162582,0.573874233371,0.818928901847,0.00213656122711,0.0,0.818886976862,-0.573813685738,-0.0119465511987,0.0,-0.00855755274084,0.0086055857589,-0.999926353381,0.0,0.647890573628,0.243100181236,0.303422622304,1.0,-0.0467228571429,-0.0614071836735,1.118
0.45414812171,0.471897520886,-0.124405044807,-1.47486082903,0.0722736804569,1.93758419036,0.142794912215,-0.0409519559457,-0.243947291855,-0.00149420965924,-0.373197431303,-0.0224446844447,0.133965690397,-0.0632882515464,0.573894686308,0.818914487173,0.00216763155566,0.0,0.818872602743,-0.573833640915,-0.0119733008552,0.0,-0.00856141445562,0.00864659430586,-0.999925966554,0.0,0.64717071612,0.242164851297,0.303448083664,1.0,-0.0501514285714,-0.0659133061224,1.133
0.453281281808,0.466668379764,-0.124436591853,-1.4827280239,0.0717739961728,1.94053373078,0.141530692294,-0.0473019325253,-0.267248931443,-0.00365948842096,-0.410912018943,-0.0338911557004,0.145190670738,-0.0671969159637,0.573830349575,0.818958846758,0.00242572168173,0.0,0.818920446906,-0.573768415373,-0.011825990912,0.0,-0.00829335706643,0.00877275448549,-0.999927126848,0.0,0.646182722855,0.240844220225,0.303570245917,1.0,-0.0547228571429,-0.0719214693878,1.153
0.452672669305,0.463061169858,-0.124435998732,-1.48828579766,0.0714138299066,1.9424497506,0.140687451667,-0.0458257652223,-0.285048887231,-6.30984102787e-05,-0.432467440728,-0.0224297248937,0.14931391173,-0.063102690288,0.57380005867,0.818980149432,0.00239883482312,0.0,0.8189411494,-0.5737379678,-0.0118694998094,0.0,-0.00834474277321,0.00877539318777,-0.999926676183,0.0,0.645436581856,0.239915106838,0.303577812243,1.0,-0.0576942857143,-0.0758267755102,1.166
0.451665041283,0.457204763999,-0.124470662711,-1.49734424858,0.0708005326229,1.9455707282,0.139333759731,-0.0489528889016,-0.292414743669,-0.00301726282122,-0.46483662341,-0.0307838156286,0.161884296022,-0.0745949446288,0.573793637202,0.818984898007,0.00231206502793,0.0,0.818944701563,-0.57373181955,-0.0119214897872,0.0,-0.00843717726389,0.00873409654859,-0.99992626208,0.0,0.644220672963,0.23836708729,0.303568789867,1.0,-0.0622657142857,-0.0818349387755,1.186
0.450892412529,0.452858440164,-0.124492739314,-1.50398635014,0.0703464405194,1.94796944809,0.138259942365,-0.0575066604119,-0.313878003547,-0.00295196404678,-0.482464251638,-0.0357607661973,0.166602423801,-0.0802774385892,0.573742964012,0.8190201974,0.0023820997269,0.0,0.818981063113,-0.57368103323,-0.0118674881736,0.0,-0.00835330790107,0.0087599510631,-0.999926740069,0.0,0.643350882495,0.237220847736,0.30360207808,1.0,-0.0654657142857,-0.0860406530612,1.2
0.449715179607,0.44625842761,-0.124540593201,-1.51389555813,0.06968104214,1.95160825814,0.136753242473,-0.060408030161,-0.334411326495,-0.0067165522906,-0.508201091138,-0.0373117377619,0.169867226078,-0.0713511247435,0.573765853713,0.819003298475,0.00266253667637,0.0,0.81896813056,-0.573703226647,-0.0116857076109,0.0,-0.00804328205413,0.00888556376264,-0.999928173606,0.0,0.642135543861,0.235588792307,0.303737354731,1.0,-0.0698085714286,-0.0917484081633,1.219
0.448908362122,0.441812885814,-0.124555597894,-1.52082077852,0.0692168416657,1.95392296701,0.135680489121,-0.062014009227,-0.348823522119,-7.44039500619e-05,-0.537580626378,-0.0333543563913,0.187369695973,-0.0858185210411,0.573747823062,0.819016452125,0.00249671429611,0.0,0.818978787549,-0.573685430223,-0.011811841301,0.0,-0.00824192242282,0.00882194412963,-0.999927119352,0.0,0.641093089056,0.234297010818,0.303675837286,1.0,-0.0730085714286,-0.095954122449,1.233
0.447634321443,0.434979898695,-0.124601008374,-1.53127498404,0.068508558625,1.95752662337,0.133980729685,-0.0735763685819,-0.375654775373,-0.00704325715101,-0.542822661272,-0.0311837319782,0.197922539323,-0.0888457285581,0.573696266546,0.819052651049,0.00246889897317,0.0,0.819014473272,-0.573633824223,-0.0118437823324,0.0,-0.00828459686238,0.00881696745191,-0.999926810592,0.0,0.639657536976,0.232448224601,0.303681173678,1.0,-0.0773514285714,-0.101661877551,1.252
0.44654798019,0.429373153066,-0.124624856946,-1.5397529865,0.0679110336074,1.9606185351,0.132611653756,-0.0712881930952,-0.376504120454,-0.00187380453044,-0.575374648666,-0.0423702857105,0.207619986329,-0.08723778055,0.573683565368,0.819061048849,0.00262906567639,0.0,0.819025258865,-0.573620861415,-0.0117251691849,0.0,-0.00809569831981,0.00887997902585,-0.999927800214,0.0,0.638525426798,0.230933528919,0.303735803991,1.0,-0.08078,-0.106168,1.267
0.445219578852,0.422772541912,-0.124705938775,-1.54992425243,0.0671774264328,1.96398928836,0.130914988134,-0.0788665427963,-0.390468684434,-0.00785147224107,-0.620622115737,-0.0397717800073,0.203298273262,-0.103948558946,0.573669054551,0.819071842441,0.00242480364017,0.0,0.819033451726,-0.573607166597,-0.0118224483166,0.0,-0.00829270943961,0.0087683368611,-0.999927170967,0.0,0.637096385775,0.229047600975,0.303678469559,1.0,-0.0846657142857,-0.111274938776,1.284
0.443812499403,0.415838713502,-0.12482536132,-1.56034260365,0.0664289397479,1.96761430825,0.129271079962,-0.0890831691767,-0.415821558667,-0.00317679670442,-0.619708687518,-0.0466274080267,0.225065443794,-0.0990088776995,0.573789858244,0.818986998598,0.00249832047252,0.0,0.818950055111,-0.573728204863,-0.0117260854831,0.0,-0.00817031193904,0.00877447755163,-0.99992812469,0.0,0.635670532807,0.22708269613,0.303740929466,1.0,-0.0885514285714,-0.116381877551,1.301
0.442401333565,0.409127868887,-0.124846138579,-1.57047182169,0.0657518268783,1.97113423521,0.127534484154,-0.0962529669856,-0.429464018454,0.000138069326864,-0.637606201617,-0.0405724699235,0.208728737328,-0.112539530856,0.573766371437,0.81900316709,0.00259040646853,0.0,0.818967050181,-0.573703987543,-0.0117240051415,0.0,-0.00811602708021,0.00884846779349,-0.999927914763,0.0,0.634250583814,0.225212995582,0.303766999832,1.0,-0.0922085714286,-0.121188408163,1.317
0.440808129456,0.4018175328,-0.124930557312,-1.58169699049,0.0649631888261,1.97484179478,0.125673558097,-0.0953963140879,-0.43410032637,-0.00596297988419,-0.662410438103,-0.0434207101866,0.21839738018,-0.113499105246,0.573840030649,0.818952145594,0.00239778085008,0.0,0.818913236916,-0.573778049291,-0.0118578015345,0.0,-0.00833533847102,0.00876822448883,-0.999926817508,0.0,0.632634163977,0.223072294044,0.303683322987,1.0,-0.0960942857143,-0.126295346939,1.334
0.43914079107,0.394107501838,-0.125001976798,-1.59302465638,0.0641127738644,1.9788935082,0.123729597569,-0.0990035065599,-0.447796209251,-0.000904998050269,-0.690825895106,-0.0534278317956,0.238315245862,-0.116321668786,0.573872183176,0.818928631631,0.00271303766894,0.0,0.818894549916,-0.573809847141,-0.0116069954361,0.0,-0.00794868619656,0.00888279459315,-0.99992895465,0.0,0.631063793526,0.220903716064,0.303833597265,1.0,-0.09998,-0.131402285714,1.351
0.437482341042,0.386773987107,-0.125029822018,-1.60428218932,0.06326978345,1.98249580132,0.121794456933,-0.103538256354,-0.457166973176,-0.00134364592635,-0.710376541422,-0.0523385073743,0.225005529824,-0.130680135246,0.573858649207,0.818939039231,0.00241819230873,0.0,0.818900771329,-0.573796983142,-0.0118023622747,0.0,-0.00827802314809,0.0087533157477,-0.999927424264,0.0,0.629376604427,0.218750198457,0.303712323617,1.0,-0.103637142857,-0.136208816327,1.367
0.435550479542,0.378124427327,-0.125107803533,-1.61703391573,0.0623382121196,1.98680867921,0.119514646378,-0.105147626511,-0.477386852658,-0.00499849169443,-0.706308404645,-0.05054460757,0.238433021122,-0.121234403824,0.573846495112,0.818947084417,0.00257291157507,0.0,0.81891087779,-0.573784313773,-0.011716757495,0.0,-0.00811926440782,0.00883077551878,-0.999928044886,0.0,0.627513532633,0.216279981974,0.303806679668,1.0,-0.107751428571,-0.141616163265,1.385
0.433560293621,0.36981928308,-0.125158005661,-1.62952213316,0.0613805446266,1.99090439669,0.117285384199,-0.11878613452,-0.498832830715,-0.0045666337232,-0.733222209341,-0.0533350467107,0.239794078468,-0.126731174359,0.573869686699,0.818931171671,0.00246285496614,0.0,0.818893511657,-0.573807880386,-0.0117762418915,0.0,-0.00823088445226,0.00877501314286,-0.999927623224,0.0,0.625647401215,0.213807208432,0.30376004309,1.0,-0.111637142857,-0.146723102041,1.402
0.431641737097,0.361688865306,-0.125278489973,-1.64142782488,0.0604391922833,1.99482358541,0.115184485701,-0.118572920365,-0.517277567668,-0.009344567912,-0.753666143313,-0.0609398718418,0.259152923612,-0.134329250109,0.573962815153,0.818865707999,0.00252705086042,0.0,0.818829405406,-0.573901325066,-0.0116799328492,0.0,-0.00811417486766,0.00877323960444,-0.999928592667,0.0,0.623870332748,0.211401577885,0.303841836377,1.0,-0.115294285714,-0.151529632653,1.418
0.429471182942,0.352948045309,-0.125306732786,-1.65449943831,0.0594914362037,1.99903890282,0.112715571274,-0.132836120962,-0.523803272623,-0.00112653015887,-0.805910339723,-0.059578474664,0.246838960378,-0.148654716683,0.573921086984,0.818895217151,0.00244052098384,0.0,0.818856994585,-0.573859068811,-0.0118211025093,0.0,-0.00827988862065,0.00878298677925,-0.99992714864,0.0,0.621854797296,0.208797801769,0.303781046336,1.0,-0.11918,-0.156636571429,1.435
0.427189886643,0.343886298091,-0.125388520445,-1.66768756536,0.0584874474386,2.00337363065,0.110236121344,-0.137897207264,-0.539208162298,-0.00471234470312,-0.777807596873,-0.0639031602282,0.255884752012,-0.14566730324,0.573973717947,0.818857855662,0.00259426830147,0.0,0.818821613102,-0.573911101954,-0.011745632104,0.0,-0.00812928025222,0.00886609778364,-0.999927650939,0.0,0.619843734217,0.206094681354,0.30386629382,1.0,-0.123065714286,-0.161743510204,1.452
0.42501471401,0.335273608185,-0.125393250361,-1.68040230426,0.0574593502656,2.00745621329,0.107800978639,-0.135991943025,-0.546068450269,-0.000938460761044,-0.787928457484,-0.0656330805234,0.249024285819,-0.154858886237,0.573875989321,0.818926509611,0.00254315529268,0.0,0.818889524912,-0.573813488572,-0.0117802046981,0.0,-0.00818798274949,0.00884311011221,-0.999927375534,0.0,0.617834128801,0.203543019849,0.303838230894,1.0,-0.126722857143,-0.166550040816,1.468
0.422156939456,0.324101940353,-0.125385481244,-1.6965845118,0.0561226073405,2.0126173086,0.104634667178,-0.144544150945,-0.55968554281,0.00046342755787,-0.800905405771,-0.0702710544435,0.266125366246,-0.156204664287,0.573728505327,0.819029588461,0.00262341410996,0.0,0.818993713271,-0.573665803011,-0.0117299181471,0.0,-0.0081023430659,0.00887851900851,-0.999927759359,0.0,0.615248269745,0.200261787162,0.303906909153,1.0,-0.131294285714,-0.172558204082,1.488
0.420026995416,0.316185622693,-0.125410864022,-1.70816381427,0.0551859348851,2.01628111393,0.102401240853,-0.154473917639,-0.570784075781,-0.00213644120246,-0.818087632143,-0.0645865566512,0.25900531346,-0.164473943164,0.573736305791,0.81902419785,0.00260031808532,0.0,0.818987852241,-0.573673500012,-0.0117626598438,0.0,-0.00814232623103,0.00887846486688,-0.99992743506,0.0,0.61338211468,0.197855844118,0.303884615905,1.0,-0.134494285714,-0.176763918367,1.502
0.417491102875,0.306875850999,-0.125449207619,-1.72146030208,0.0540459668567,2.02048419696,0.0996358496841,-0.161258447736,-0.586606869445,-0.00341400835755,-0.849234300543,-0.0761380567043,0.261352007492,-0.171030442125,0.573624006613,0.819102441964,0.00272681265126,0.0,0.819068143359,-0.573561213053,-0.0116472449961,0.0,-0.00797644641772,0.00891475635288,-0.999928449151,0.0,0.611235185749,0.195038786753,0.303978690889,1.0,-0.138151428571,-0.18157044898,1.518
0.414463279377,0.296337322673,-0.125522945814,-1.73686720713,0.0528056757599,2.02511103322,0.0965247415718,-0.177209722686,-0.59615986873,-0.00334899547058,-0.84321663789,-0.0682446506881,0.249349669936,-0.170717022164,0.57367565492,0.819066941323,0.00251703906485,0.0,0.819029111105,-0.573612733602,-0.0118530128393,0.0,-0.00826476443551,0.00886148378229,-0.999926581192,0.0,0.608668911826,0.191716717529,0.303880847398,1.0,-0.142265714286,-0.186977795918,1.536
0.411469230291,0.286033906101,-0.125662893121,-1.75139739477,0.0516113710741,2.0296997966,0.0934460721794,-0.172823533114,-0.597164745405,-0.0020882098638,-0.861889195614,-0.0733381424753,0.257536516253,-0.183032666519,0.573747936378,0.819015435246,0.0027873340616,0.0,0.818981364026,-0.573684291335,-0.011687863597,0.0,-0.00797364444256,0.00898883533417,-0.999927808311,0.0,0.606302848512,0.18849067676,0.30401288424,1.0,-0.146151428571,-0.192084734694,1.553
0.408538836225,0.276307745684,-0.125741896224,-1.76547978037,0.0503976321142,2.03379846638,0.090427632985,-0.190408387958,-0.617296064806,-0.00129810995686,-0.86272217444,-0.0792286303705,0.257285648683,-0.189409893241,0.573729282189,0.819029303207,0.002541288747,0.0,0.818991568113,-0.573666024547,-0.0118680471208,0.0,-0.00826258643144,0.00889051138143,-0.999926341524,0.0,0.603889808388,0.185368931764,0.303919147802,1.0,-0.149808571429,-0.196891265306,1.569
0.405235814196,0.265671124248,-0.125866427251,-1.78045073751,0.049090467401,2.03840547218,0.0871523557589,-0.197381059408,-0.620490105036,-0.00337711583552,-0.89040359331,-0.0762737958861,0.264435060275,-0.195177338008,0.573816600712,0.818967570548,0.00271551836948,0.0,0.818932509304,-0.573753135086,-0.0117316701982,0.0,-0.00804997524976,0.00895582581356,-0.999927492913,0.0,0.601383486264,0.181949322096,0.303999636864,1.0,-0.153694285714,-0.201998204082,1.586
0.401777414039,0.254877362203,-0.126033241167,-1.79567267929,0.0477182438786,2.04287545431,0.0837872687343,-0.207319131851,-0.651590622923,-0.00833759460826,-0.874640029577,-0.081394076401,0.272140512652,-0.19841494562,0.573953150983,0.818871972904,0.00268688852507,0.0,0.818836822109,-0.573890083018,-0.0117123128558,0.0,-0.00804906102616,0.00892261391808,-0.999927797182,0.0,0.598772081035,0.178395074042,0.304018956365,1.0,-0.15758,-0.207105142857,1.603
0.398454613101,0.2446090299,-0.126083799658,-1.81019559183,0.0464076903989,2.04713905825,0.0804944215663,-0.209262496069,-0.645552282495,-0.00278264318733,-0.921488271089,-0.0850057401415,0.266539672393,-0.206129173822,0.573929584423,0.818888597413,0.00265406327994,0.0,0.818852921148,-0.573866527215,-0.0117409271757,0.0,-0.00809158909793,0.00891192450653,-0.999927549269,0.0,0.596221843126,0.1750769753,0.30398751894,1.0,-0.161237142857,-0.211911673469,1.619
0.394579721435,0.232721447772,-0.126111753274,-1.82657156006,0.0449823219925,2.05194500388,0.0766672811891,-0.216000986648,-0.665240181066,0.000237590700577,-0.916709922065,-0.0785010012049,0.277515377654,-0.216584885125,0.573888038769,0.818916815213,0.00291815363466,0.0,0.818884171317,-0.573823618826,-0.0116582736737,0.0,-0.0078728024447,0.00908034845981,-0.999927780519,0.0,0.593319918927,0.171315546172,0.304106821419,1.0,-0.165351428571,-0.217319020408,1.637
0.390786270401,0.22147279278,-0.126124325431,-1.84238864495,0.0434546893827,2.056324397,0.0728867150551,-0.228746745786,-0.668371224792,-0.00521752688026,-0.92304668934,-0.0873710603818,0.256431618655,-0.225483772095,0.573727271537,0.819030205352,0.00269954019443,0.0,0.818994582149,-0.573663481753,-0.0117826573886,0.0,-0.00810188065979,0.00897111339026,-0.999926936658,0.0,0.590418853047,0.167653405104,0.304019625153,1.0,-0.169237142857,-0.222425959184,1.654
0.386998884271,0.21054396103,-0.126218456147,-1.85720392525,0.0421014731879,2.0605519219,0.0692552466442,-0.24075976101,-0.669221066567,-0.00331154112392,-0.920780304418,-0.0890828777933,0.259177411961,-0.237630331028,0.573769411282,0.818999777759,0.00296202789931,0.0,0.818967592088,-0.573704730611,-0.0116495530101,0.0,-0.00784180288726,0.0091101374271,-0.999927753152,0.0,0.58774266655,0.164086921675,0.304156741819,1.0,-0.172894285714,-0.227232489796,1.67
0.382847810578,0.19891500145,-0.126342641581,-1.8732006526,0.0405554390261,2.06484003156,0.0652097002186,-0.249733749553,-0.691451649195,-0.0100446843484,-0.931374014072,-0.08803340445,0.252299231642,-0.241285571843,0.573724985479,0.819031297933,0.00284972700503,0.0,0.818997469795,-0.573660483638,-0.0117277825163,0.0,-0.00797079862685,0.00906261554402,-0.999927165032,0.0,0.584758492637,0.160191672241,0.304140130411,1.0,-0.17678,-0.232339428571,1.687
0.378456935851,0.187067223791,-0.126487053789,-1.889370772,0.0390498523439,2.06922875267,0.0610639454009,-0.261621860935,-0.702204207574,-0.0114235247871,-0.96817234768,-0.0899238734847,0.249020923266,-0.24628709467,0.573802668804,0.818976766501,0.00288099064942,0.0,0.818942836277,-0.573737467294,-0.0117769450189,0.0,-0.00799226594821,0.00911718466997,-0.999926497613,0.0,0.581552632099,0.155937597234,0.304137183037,1.0,-0.180894285714,-0.23774677551,1.705
0.373572558103,0.174292961917,-0.126650485204,-1.90653011117,0.0373828858987,2.07380463587,0.0565472569393,-0.273325291218,-0.707376593322,-0.0039370499787,-0.966252710387,-0.105219398422,0.260138387143,-0.253315453393,0.573937383546,0.818881869853,0.00301826036805,0.0,0.818849729884,-0.573871692583,-0.011710987206,0.0,-0.00785797220535,0.00919305203761,-0.999926867359,0.0,0.578493516619,0.151810616875,0.304220300391,1.0,-0.18478,-0.242853714286,1.722
0.36944926023,0.163675832414,-0.126686828887,-1.92107118311,0.0358698516255,2.07745300203,0.0526180193972,-0.276210074194,-0.709737365771,-0.000166432358297,-0.96884205362,-0.0965059714813,0.238550834345,-0.262093034014,0.573806297085,0.818974711143,0.00273913026185,0.0,0.818938577885,-0.573741213524,-0.0118900149953,0.0,-0.00816622690098,0.00906591946506,-0.99992555815,0.0,0.575631840825,0.148186384141,0.304103360698,1.0,-0.188208571429,-0.247359836735,1.737
0.363983144491,0.149876841248,-0.126759015648,-1.93935182008,0.0339807181356,2.08223899606,0.0475072320374,-0.295805153639,-0.713598882977,-0.00355689479736,-0.978726036859,-0.103283566878,0.232653426282,-0.264912667717,0.573730766624,0.819026976141,0.00292688956103,0.0,0.818993715941,-0.573665496671,-0.0117447042895,0.0,-0.00794032696206,0.00913557824172,-0.999926743526,0.0,0.572070481258,0.143515416124,0.30419307519,1.0,-0.192551428571,-0.253067591837,1.756
0.359773109623,0.139601031458,-0.126875313202,-1.95298287621,0.032603120737,2.08561068131,0.0436403519887,-0.305007700968,-0.742644425318,-0.00867016478012,-0.963305260479,-0.0934918040595,0.249938221691,-0.273520843812,0.573780021537,0.818992461967,0.00292933902679,0.0,0.818958826987,-0.573714268904,-0.0117950946441,0.0,-0.00797964363643,0.0091669742048,-0.999926143208,0.0,0.56935537415,0.139951230165,0.304199976962,1.0,-0.195751428571,-0.257273306122,1.77
0.354159813879,0.126223756441,-0.127040686916,-1.97063448054,0.0307125620914,2.0899385642,0.0384039310049,-0.316375993255,-0.755752738425,-0.0127341106037,-1.00064527546,-0.117492503,0.241378356251,-0.287058019588,0.57373047524,0.819027237028,0.00291095995605,0.0,0.818993505664,-0.573664958385,-0.0117855888056,0.0,-0.00798295621079,0.00914598485421,-0.99992630897,0.0,0.565802010204,0.135268142659,0.304200835169,1.0,-0.199865714286,-0.262680653061,1.788
0.348536648647,0.113385597918,-0.127244749696,-1.98725687764,0.0289138497055,2.09401784709,0.0333996956541,-0.341538619099,-0.750214593062,-0.0143158370933,-0.984872887699,-0.106475726273,0.233040659363,-0.307900145377,0.573903863588,0.818905095194,0.00308987477313,0.0,0.818874242787,-0.573838359276,-0.011630082738,0.0,-0.00775099457213,0.00920494550605,-0.999927592909,0.0,0.562453212179,0.130692560234,0.304292691315,1.0,-0.203751428571,-0.267787591837,1.805
0.343143397568,0.101273862489,-0.127342290264,-2.00300995669,0.0271737152227,2.09760208235,0.0284607603449,-0.348830034391,-0.755170841062,-0.00298594162716,-0.981672939471,-0.109817527372,0.236350600046,-0.306961712133,0.573841135154,0.818949371274,0.00300429638327,0.0,0.81891717325,-0.573775648752,-0.0117010750508,0.0,-0.00785894725883,0.00917500473876,-0.999927025455,0.0,0.559160156113,0.126405920815,0.30427838281,1.0,-0.207408571429,-0.272594122449,1.821
0.337254232076,0.0882214887392,-0.127438159266,-2.01986565783,0.0254338944394,2.10140954407,0.0230768639148,-0.356953790451,-0.750951498109,-0.0100750311462,-0.991581289419,-0.093766479912,0.214216475942,-0.313964904496,0.573806728362,0.818973306784,0.00305092822721,0.0,0.818940533566,-0.573739702971,-0.0118280437843,0.0,-0.00793656627948,0.00928571867593,-0.999925390389,0.0,0.555583781487,0.121828520654,0.304265397885,1.0,-0.211294285714,-0.277701061224,1.838
0.331070103261,0.0748829632205,-0.127567665976,-2.03670358363,0.0234710190875,2.10514137697,0.017411117791,-0.366935053573,-0.777820610355,-0.00634308733724,-0.98902369004,-0.120661524439,0.225837716418,-0.331655808483,0.573687891432,0.819056115923,0.00316687456352,0.0,0.81902546962,-0.573621214589,-0.0116931256942,0.0,-0.00776088910165,0.00930213464527,-0.999926616753,0.0,0.551988401209,0.117098475624,0.304363667333,1.0,-0.21518,-0.282808,1.855
0.324930654887,0.0623881649377,-0.127791516296,-2.05275159032,0.0216668609586,2.10845293441,0.0119954458554,-0.392607883982,-0.803838563088,-0.0133532197524,-0.99829770693,-0.108750642542,0.19475806957,-0.347419474153,0.573846102481,0.818946017878,0.00296940591081,0.0,0.818911853746,-0.57377898667,-0.0119078609143,0.0,-0.00804826751682,0.00926513965618,-0.999924688453,0.0,0.548483284479,0.112454950631,0.304265851587,1.0,-0.218837142857,-0.287614530612,1.871
0.318206167749,0.0488886402561,-0.127952602182,-2.0695477421,0.0196828849828,2.11201949591,0.00603782916237,-0.394827605901,-0.763227115209,-0.0025051955494,-0.988293006616,-0.10748318816,0.203862778353,-0.351332022525,0.573890979339,0.818913956606,0.00313407259411,0.0,0.818882456794,-0.573823876469,-0.0117655280071,0.0,-0.00783670028755,0.00931874687084,-0.999925870795,0.0,0.544810170014,0.107530422836,0.30435435636,1.0,-0.21998,-0.289116571429,1.888
0.311014309093,0.0346748156657,-0.128036880505,-2.08726634868,0.0176707333515,2.11554420998,-0.000394414782585,-0.405164894302,-0.778446759977,-0.00923536814256,-0.981221616301,-0.119024022357,0.204237010399,-0.356793757486,0.573830576008,0.818956113172,0.00317830728694,0.0,0.818924296236,-0.573762262721,-0.0118579009003,0.0,-0.00788765951304,0.00940740028367,-0.999924639984,0.0,0.540813286619,0.102403810252,0.304352380018,1.0,-0.21998,-0.289116571429,1.906
0.30443822069,0.022145517585,-0.128148819717,-2.10279895483,0.0157118091764,2.11848022782,-0.00620798421354,-0.412027683878,-0.79650974684,-0.00351298998917,-0.973595510971,-0.116687244936,0.183536894054,-0.372031588823,0.57377711767,0.818994032755,0.00305621509342,0.0,0.818960788639,-0.573709446293,-0.0118930571061,0.0,-0.00798711710884,0.00932706392465,-0.999924603077,0.0,0.537255277757,0.0977760303973,0.304324197883,1.0,-0.21998,-0.289116571429,1.922
0.296781172566,0.00808906889292,-0.128370191465,-2.11979055853,0.0136034014549,2.12164870883,-0.012901134372,-0.429581436654,-0.776264963582,-0.0135450665554,-0.936024535236,-0.11365737082,0.165724719433,-0.376488850212,0.573891237517,0.818913512758,0.00320203432249,0.0,0.818882575643,-0.57382351616,-0.0117748253159,0.0,-0.00780531124419,0.00937973977445,-0.999925546027,0.0,0.53335007459,0.0924913580974,0.304423085958,1.0,-0.21998,-0.289116571429,1.94
0.289897692746,-0.00427894169333,-0.128448059648,-2.13470205781,0.0118568876539,2.12429201833,-0.0189724798239,-0.433229296939,-0.781128308106,-0.00365935880903,-0.91943270331,-0.110680593612,0.172360553242,-0.379415739751,0.573877848961,0.818922267675,0.00335870210585,0.0,0.818892626004,-0.573808686864,-0.0117985108128,0.0,-0.00773495970698,0.00952150371204,-0.999924752852,0.0,0.529620586942,0.0876147937368,0.304478386628,1.0,-0.21998,-0.289116571429,1.957
0.282916809593,-0.0165181581839,-0.128503682508,-2.14943079705,0.00993250095796,2.12684582869,-0.0251054117687,-0.441092265967,-0.758743983662,0.000151562679836,-0.931276802014,-0.121745311436,0.145190237847,-0.386230754553,0.573796255135,0.81897957546,0.00332557856687,0.0,0.818949845402,-0.573727638501,-0.0117683659672,0.0,-0.00773022385661,0.00947630882254,-0.999925218809,0.0,0.526322090685,0.0833230625185,0.304467445869,1.0,-0.21998,-0.289116571429,1.972
0.275309664575,-0.0295693323572,-0.128664173496,-2.16478904752,0.00796761951566,2.12930849722,-0.0317782602163,-0.454781356727,-0.778990393588,-0.012634261831,-0.904451271583,-0.113106885407,0.151417474026,-0.386664497251,0.573817416821,0.818964269645,0.00344152571693,0.0,0.818936076672,-0.573748446026,-0.011711955857,0.0,-0.00761724999817,0.00953909748136,-0.999925488785,0.0,0.522598126993,0.0783910567289,0.304554493585,1.0,-0.21998,-0.289116571429,1.989
0.267435474859,-0.042365620436,-0.128858174598,-2.18008542465,0.00601137792818,2.13163659386,-0.0385630012738,-0.462584415491,-0.740078123965,-0.0113863250601,-0.896612496623,-0.109641857559,0.126590146347,-0.406571887122,0.573968093752,0.818859224386,0.00330830684535,0.0,0.818828191551,-0.573898198276,-0.0119162761621,0.0,-0.00785927263316,0.00954868106638,-0.999923524338,0.0,0.518595824283,0.0730879348512,0.304458435277,1.0,-0.21998,-0.289116571429,2.007
0.260074835195,-0.0544460730306,-0.128940192728,-2.19399149808,0.00417728920385,2.13376588632,-0.0450169958575,-0.467749010492,-0.745755894697,-0.004845443783,-0.855667215205,-0.119825206001,0.127926448982,-0.407351705911,0.573920900828,0.818891302943,0.00354689407646,0.0,0.818864163008,-0.573851171157,-0.0117073824704,0.0,-0.00755182976165,0.00962372122943,-0.999925174129,0.0,0.515358725861,0.0688229254193,0.304585516525,1.0,-0.21998,-0.289116571429,2.022
0.251559423898,-0.0677506244507,-0.129056375656,-2.20969840924,0.00209289350596,2.13581836734,-0.05251402415,-0.469092965596,-0.734373524345,-0.00469228523898,-0.847039367323,-0.108529955679,0.115006178311,-0.418553518918,0.573846425507,0.818944524815,0.0033003194704,0.0,0.818912845089,-0.573775918867,-0.0119872423083,0.0,-0.00792339516928,0.00958169463486,-0.999922702481,0.0,0.511317746163,0.0636311953684,0.304453714945,1.0,-0.21998,-0.289116571429,2.04
0.242760978093,-0.0811341841419,-0.12927321513,-2.22489652301,3.02264041697e-05,2.13785596187,-0.0601460558897,-0.490937341835,-0.738314652506,-0.0126514316505,-0.859659844172,-0.122718803725,0.105672085972,-0.429791292454,0.573961484686,0.818863176665,0.00347259278602,0.0,0.818834072289,-0.573890741959,-0.011871194281,0.0,-0.00772814379996,0.0096572715193,-0.999923503524,0.0,0.50741020804,0.0583528336245,0.304535746116,1.0,-0.21998,-0.289116571429,2.058
0.235448403905,-0.092159535398,-0.129325565545,-2.2375090875,-0.00161734281562,2.13928828781,-0.0665777933014,-0.491865261034,-0.725941691713,-0.00273630833829,-0.803329880975,-0.100966603755,0.0987534574145,-0.430796139091,0.573890484903,0.818913149084,0.00342235244105,0.0,0.818882141247,-0.573818389322,-0.0120516274184,0.0,-0.00790557960226,0.009719004719,-0.9999215183,0.0,0.50405394057,0.0540989228432,0.3044983842,1.0,-0.21998,-0.289116571429,2.073
0.226930895284,-0.104599966795,-0.129429125896,-2.25139765572,-0.00366719510091,2.14091484752,-0.0740151143717,-0.506630791675,-0.713890871635,-0.00951791950341,-0.795274794798,-0.116110924131,0.0889062535808,-0.430508156226,0.573814761229,0.81896593671,0.00348729212719,0.0,0.818936839921,-0.573743757749,-0.0118869493969,0.0,-0.00773434346812,0.00967696533602,-0.999923265192,0.0,0.500355445563,0.0492015018371,0.304566041056,1.0,-0.21998,-0.289116571429,2.09
0.217652986114,-0.117664515333,-0.129665501466,-2.26598699931,-0.00571390796166,2.14239271365,-0.0820169037866,-0.519320496696,-0.724026011026,-0.0153968239669,-0.754906931883,-0.112075270314,0.0818610202295,-0.451640425923,0.573953323181,0.818868941074,0.00346223270299,0.0,0.818838828722,-0.573881532034,-0.011987771643,0.0,-0.00782965320841,0.0097156189991,-0.999922148609,0.0,0.496594148298,0.0442185545265,0.304548697746,1.0,-0.21998,-0.289116571429,2.107
0.209879507023,-0.128455210983,-0.129739902801,-2.27790854497,-0.00734688045388,2.14355050861,-0.0888797871218,-0.516444098546,-0.712616844221,-0.00043620810322,-0.809862804365,-0.111175848831,0.078366604667,-0.459686902894,0.573908761713,0.818899746549,0.00356163349198,0.0,0.818870546546,-0.573836129273,-0.0119946505399,0.0,-0.00777877207563,0.0098005404935,-0.999921716991,0.0,0.493080551076,0.0396455607279,0.304571136518,1.0,-0.21998,-0.289116571429,2.123
0.200338699868,-0.141326228036,-0.129881862989,-2.29196420925,-0.00940996186839,2.14476260686,-0.0972595291541,-0.523587551234,-0.728056438082,-0.00467646974898,-0.755701893264,-0.123080803801,0.070537028204,-0.469992982732,0.573858899903,0.81893458276,0.00358595359952,0.0,0.818905735986,-0.573786230832,-0.0119793062536,0.0,-0.00775284663508,0.00981117837552,-0.999921814017,0.0,0.489124000284,0.0344521972444,0.304593058857,1.0,-0.21998,-0.289116571429,2.141
0.191116583228,-0.153404122664,-0.130081544597,-2.30498656287,-0.0113217537302,2.14585425477,-0.105314489774,-0.547400302272,-0.721592718948,-0.00852097441043,-0.770915177466,-0.113496920952,0.0492383836614,-0.481795817211,0.573922899758,0.818889165543,0.00371302992685,0.0,0.818862259721,-0.573850130237,-0.0118901022686,0.0,-0.00760609965883,0.00986465197385,-0.999922414935,0.0,0.485414861875,0.0295034944501,0.304636705143,1.0,-0.21998,-0.289116571429,2.158
0.182397451157,-0.164626766067,-0.130167525724,-2.31705748945,-0.0130998557016,2.14658190918,-0.113001309903,-0.542030462569,-0.703230744689,-0.00319616820643,-0.746739985187,-0.107178680331,0.0443511859319,-0.484280073101,0.573840876856,0.81894686962,0.003663289498,0.0,0.818918661537,-0.573767455703,-0.0119949765986,0.0,-0.00772152090504,0.00988333430656,-0.999921345816,0.0,0.481870537991,0.0249497411597,0.304624902271,1.0,-0.21998,-0.289116571429,2.174
0.17289244494,-0.176481313851,-0.130308905464,-2.32966014262,-0.0149571637678,2.14737126894,-0.121364210584,-0.5649421624,-0.698530556817,-0.00745014715244,-0.737344758845,-0.1177092052,0.0310914860838,-0.491224004807,0.573832126707,0.818952650504,0.0037407877056,0.0,0.818925255007,-0.573758167412,-0.0119891176204,0.0,-0.00767235987053,0.00994335782766,-0.999921129154,0.0,0.478139857831,0.0200569656546,0.304636952289,1.0,-0.21998,-0.289116571429,2.191
0.163100287664,-0.188253649832,-0.130546924916,-2.34203686569,-0.0168445428714,2.14794360572,-0.129917985665,-0.581041050411,-0.683962617493,-0.0112046879776,-0.707421989862,-0.113472802964,0.0355284896254,-0.506149497676,0.573952128684,0.818868452268,0.0037628128294,0.0,0.8188409787,-0.573877596099,-0.0120292642501,0.0,-0.00769113909558,0.00998555941572,-0.999920564336,0.0,0.474394031862,0.0150601624198,0.304647546281,1.0,-0.21998,-0.289116571429,2.208
0.153894617927,-0.199262098834,-0.130652400309,-2.35337560166,-0.0185898368387,2.14849695813,-0.138145747761,-0.585106032708,-0.6695521747,-0.0118250113545,-0.708390923694,-0.105221720421,0.0229071918552,-0.518139871992,0.573820450921,0.818959909404,0.00393748597071,0.0,0.818935471216,-0.573746317194,-0.0118576722951,0.0,-0.00745198362763,0.0100289148798,-0.999921941357,0.0,0.470928046682,0.0104971236415,0.304726358207,1.0,-0.21998,-0.289116571429,2.224
0.143228713737,-0.211449065077,-0.130867105055,-2.3660959855,-0.0205016923757,2.1487672052,-0.147517613524,-0.59589616523,-0.67484995941,-0.0127204500917,-0.701742978262,-0.106825770213,0.0138836599838,-0.529261480559,0.57391453365,0.818894356404,0.00385849927668,0.0,0.818867315514,-0.573838580767,-0.0120975083289,0.0,-0.00769257365413,0.0101027293043,-0.999919376336,0.0,0.466909052815,0.00526634854075,0.304661641683,1.0,-0.21998,-0.289116571429,2.242
0.133037842216,-0.222948716935,-0.131011715904,-2.37764712915,-0.0223577321052,2.1490776299,-0.156507972808,-0.592040149436,-0.657701264792,-0.00348588451222,-0.692689128884,-0.105599475951,0.00748472946741,-0.543276696661,0.573909374757,0.818897083781,0.00404260342184,0.0,0.818873565702,-0.573834257499,-0.0118775088492,0.0,-0.00740681563038,0.0101271897358,-0.999921286457,0.0,0.463234224126,0.000375227928887,0.304766481009,1.0,-0.21998,-0.289116571429,2.259
0.123976522154,-0.232925332075,-0.131138806041,-2.38788197479,-0.0239394351278,2.14916257883,-0.164651692621,-0.612334116334,-0.661889264419,-0.0121181193147,-0.676218537511,-0.107416268148,0.00248449189132,-0.538418107348,0.573800545827,0.818973579257,0.00399462000923,0.0,0.818948488894,-0.573724331911,-0.0120212483825,0.0,-0.00755341954563,0.0101693826958,-0.999919761535,0.0,0.459888470613,-0.00389598097152,0.3047106281,1.0,-0.21998,-0.289116571429,2.274
0.112670430904,-0.244825196913,-0.131375469592,-2.39963342108,-0.0259039804169,2.1492268782,-0.174585202073,-0.62835818835,-0.655933570753,-0.0112475757931,-0.654251858566,-0.0959827039398,0.000863714455058,-0.548160844801,0.573925658285,0.818885173392,0.00414227738341,0.0,0.818863083195,-0.573850379542,-0.0118211581953,0.0,-0.00730326434029,0.01017661996,-0.999921546291,0.0,0.45599476695,-0.00918619873354,0.304803867949,1.0,-0.21998,-0.289116571429,2.292
0.102084386063,-0.25589000244,-0.13146723985,-2.41074584969,-0.0275921479965,2.14918670783,-0.184182525116,-0.625453719855,-0.652567080369,-0.0075706409133,-0.651021410664,-0.100187585958,-0.0105985052466,-0.567218047488,0.573748902553,0.819008766678,0.00419330714054,0.0,0.8189865121,-0.573672320332,-0.0119125473634,0.0,-0.00735103801718,0.0102692706808,-0.99992024898,0.0,0.452234283669,-0.0139740927582,0.304759323125,1.0,-0.21998,-0.289116571429,2.309
0.0917473079453,-0.266195735281,-0.131687669215,-2.42089339275,-0.0293221340761,2.14903597554,-0.193307892006,-0.658637624623,-0.642712783561,-0.0150624744379,-0.622704812707,-0.108655099052,-0.0111515379665,-0.583000718667,0.573850157961,0.81893773677,0.00421027358404,0.0,0.818915994975,-0.57377390983,-0.0118676228887,0.0,-0.0073032397035,0.0102582951544,-0.999920711892,0.0,0.44872340838,-0.0186538167751,0.304761916709,1.0,-0.21998,-0.289116571429,2.325
0.0806209501625,-0.277026614227,-0.131844874722,-2.43134574508,-0.0310661025832,2.14881731327,-0.203245834902,-0.644522937048,-0.625303215757,-0.00311970553273,-0.619809578648,-0.101010471808,-0.01295076265,-0.590859421784,0.57385434122,0.818934078691,0.00434933592557,0.0,0.818914893035,-0.573778700304,-0.0117110180535,0.0,-0.0070951320689,0.0102823524815,-0.999921963119,0.0,0.445040993413,-0.0235707048634,0.304819804688,1.0,-0.21998,-0.289116571429,2.342
0.0688192987669,-0.288329722965,-0.132021926932,-2.44238707293,-0.0328659545376,2.14835294834,-0.213999784668,-0.667364327985,-0.615042035154,-0.0111306163986,-0.613952610634,-0.0999919081576,-0.0311212644529,-0.602403996572,0.57370302719,0.819040270151,0.00431501624002,0.0,0.819019612633,-0.57362604822,-0.0118649832329,0.0,-0.00724283280562,0.010341258829,-0.999920296693,0.0,0.44104003818,-0.0286898316952,0.30475931277,1.0,-0.21998,-0.289116571429,2.36
0.0585293296299,-0.297685031904,-0.132255868707,-2.45113655692,-0.0343755070096,2.14799279389,-0.223108382778,-0.686199942982,-0.624831319096,-0.0130747580856,-0.581203954594,-0.111378317336,-0.0200903809007,-0.605570843667,0.573895047864,0.818904672067,0.00451209546404,0.0,0.818887636047,-0.573818946661,-0.0116448651224,0.0,-0.00694704234002,0.0103780294242,-0.999922014513,0.0,0.437808019703,-0.0331358886549,0.304854598972,1.0,-0.21998,-0.289116571429,2.375
0.0463739780189,-0.308710780517,-0.13241839638,-2.46161852843,-0.0361393169243,2.14732470874,-0.234167543948,-0.680345323031,-0.604705818914,-0.0160445206095,-0.574774937271,-0.0949022664837,-0.0433123144141,-0.611554958661,0.573780247203,0.818985102952,0.00451397418118,0.0,0.818967558871,-0.573703364946,-0.0117189362949,0.0,-0.00700808699837,0.0104210932186,-0.999921140657,0.0,0.433836104453,-0.0382408979636,0.304834913055,1.0,-0.21998,-0.289116571429,2.393
0.0344265994448,-0.318959473808,-0.1326803958,-2.47129945131,-0.0378608578788,2.14658407853,-0.244879686577,-0.718989124214,-0.595089157619,-0.0208355680123,-0.553276105326,-0.102313090923,-0.0436733351906,-0.637490497707,0.573890452165,0.818908174793,0.0044606135736,0.0,0.818889383398,-0.573812909091,-0.0118182070866,0.0,-0.00711860579886,0.0104353062196,-0.999920211735,0.0,0.430057236556,-0.0432336876617,0.304797449268,1.0,-0.21998,-0.289116571429,2.41
0.0232227371352,-0.328522828278,-0.132778691642,-2.47995163434,-0.0393301445602,2.14599180131,-0.255153980926,-0.695652194932,-0.587379208222,-0.00890799676092,-0.544933740318,-0.0824592108784,-0.0454930922969,-0.645533930434,0.573761224108,0.818997308897,0.00471302769365,0.0,0.818983188878,-0.573685021553,-0.0115229893238,0.0,-0.00673363349593,0.0104715365191,-0.999922499548,0.0,0.426642008955,-0.0477819401501,0.304915872226,1.0,-0.21998,-0.289116571429,2.426
0.0102867051524,-0.339025080773,-0.133063828422,-2.48971895678,-0.0410039183406,2.14499519751,-0.266872384878,-0.730195032813,-0.590082620251,-0.022906673875,-0.537733365875,-0.102423181237,-0.0648829108084,-0.656475166854,0.57387134657,0.8189202674,0.00469256097953,0.0,0.818904518036,-0.573793085249,-0.0117316905085,0.0,-0.00691489321921,0.010575444027,-0.999920168931,0.0,0.422631274795,-0.0530115311586,0.304858965771,1.0,-0.21998,-0.289116571429,2.444
-0.00280409881873,-0.349360912332,-0.133222587477,-2.49913971035,-0.0427369561335,2.14396759865,-0.27882515599,-0.724465804029,-0.569517854856,-0.0128354872489,-0.509592201349,-0.0821536499314,-0.0506622136975,-0.672432107546,0.573793122375,0.818975304769,0.00465293408934,0.0,0.818959019066,-0.573714969347,-0.0117475928736,0.0,-0.00695166435657,0.0105514534811,-0.999920167409,0.0,0.418667447941,-0.0581851905825,0.304853460531,1.0,-0.21998,-0.289116571429,2.462
-0.0138859805641,-0.357859395349,-0.133454316748,-2.50664994752,-0.0441345087272,2.14317030065,-0.289000376705,-0.747928968609,-0.557215215099,-0.0215603945671,-0.507510066306,-0.0988685960091,-0.0628522333938,-0.688307708394,0.573795716456,0.818972621507,0.00480290525691,0.0,0.818959349507,-0.573718753156,-0.0115378955152,0.0,-0.00669383259824,0.0105539823853,-0.999921899981,0.0,0.415430612413,-0.0625496427164,0.304932227684,1.0,-0.21998,-0.289116571429,2.477
-0.0266412707719,-0.367278129167,-0.133614485334,-2.51518350345,-0.0456534097265,2.14201714338,-0.30068933165,-0.745304505524,-0.551851082154,-0.00108065754579,-0.501699079168,-0.088628451991,-0.0623112941346,-0.697372549195,0.573772648314,0.818989130263,0.0047433595991,0.0,0.818973998905,-0.573694175831,-0.0117187301295,0.0,-0.00687640721284,0.0106087792523,-0.99992008122,0.0,0.411639741288,-0.067438968472,0.304876444306,1.0,-0.21998,-0.289116571429,2.494
-0.0394876437434,-0.376484859023,-0.133848238805,-2.52342168848,-0.0471415934465,2.1408335415,-0.312520882536,-0.765967262177,-0.537666060771,-0.023322630286,-0.476730144778,-0.0844898044541,-0.0695927876354,-0.702306903969,0.573780486568,0.818983697491,0.00473322087362,0.0,0.818967443504,-0.573700526325,-0.0118650527223,0.0,-0.00700196825262,0.0106844952322,-0.999918403672,0.0,0.407874280548,-0.0723209939552,0.304834981304,1.0,-0.21998,-0.289116571429,2.511
-0.0518572403969,-0.38503395897,-0.134017049,-2.53071250284,-0.0485700390682,2.13983402561,-0.323896648832,-0.764791081737,-0.530590711848,-0.003491948994,-0.460277739783,-0.0763089739302,-0.0631155455658,-0.72406695119,0.573778805989,0.818984033407,0.00487665085836,0.0,0.818971409365,-0.573701141949,-0.0115575633294,0.0,-0.0066678480423,0.0106255270881,-0.999921315893,0.0,0.404442495601,-0.0769743265326,0.304944278626,1.0,-0.21998,-0.289116571429,2.527
-0.0651065857872,-0.393874111114,-0.134240805405,-2.5385131843,-0.0500283042192,2.13854801113,-0.336187833754,-0.791674528477,-0.518003159485,-0.0126957026139,-0.454352103026,-0.0897118563475,-0.0898042654941,-0.732719898347,0.573749052202,0.819005120638,0.00483573856556,0.0,0.818990994312,-0.573669984523,-0.0117152462573,0.0,-0.00682085992892,0.0106822434388,-0.999919679547,0.0,0.400659762935,-0.081872802461,0.304891900396,1.0,-0.21998,-0.289116571429,2.544
-0.0777547711922,-0.401998828397,-0.134408118585,-2.5455941534,-0.0514317842249,2.13727805541,-0.347883047518,-0.775712046813,-0.503634505864,0.00144974193082,-0.445674600831,-0.0826137767175,-0.0751575860077,-0.743717225644,0.5737260323,0.819021844457,0.00473339883836,0.0,0.81900570474,-0.573646251543,-0.0118482317261,0.0,-0.0069887986572,0.0106745251471,-0.99991860229,0.0,0.396885698612,-0.0867660950788,0.304847930989,1.0,-0.21998,-0.289116571429,2.561
-0.0912999284182,-0.410449910701,-0.134631451763,-2.55272686532,-0.0526821241793,2.13604185045,-0.36058319889,-0.812728980741,-0.494460604259,-0.018616223855,-0.410988503517,-0.0714262061219,-0.06787725397,-0.745615746351,0.57370531528,0.819035039567,0.00495601480012,0.0,0.819022068284,-0.573625222257,-0.0117346902567,0.0,-0.0067683577193,0.0107915474362,-0.999918862627,0.0,0.393423236567,-0.0913628338592,0.304906700839,1.0,-0.21998,-0.289116571429,2.577
-0.105987836226,-0.419172312316,-0.134825264218,-2.56002017076,-0.0541502611187,2.13465724639,-0.374196520679,-0.80839945136,-0.486572190204,-0.00282492454091,-0.403582595413,-0.0855141341378,-0.0911624692747,-0.762900193527,0.573744915211,0.819006964692,0.00501108339783,0.0,0.818995496467,-0.573665910249,-0.0115994433913,0.0,-0.006625464766,0.0107593835518,-0.999920166254,0.0,0.389493359702,-0.09659771659,0.304958582522,1.0,-0.21998,-0.289116571429,2.595
-0.119102746032,-0.426667776498,-0.135053776134,-2.56645004307,-0.0553918561719,2.13325596196,-0.386504942087,-0.846002617596,-0.462871170134,-0.0215280975117,-0.390034968485,-0.0661884595402,-0.0857817467557,-0.770092037716,0.573726337557,0.819020297308,0.00495873897825,0.0,0.819006615431,-0.573645046391,-0.0118436283495,0.0,-0.00685574795516,0.010856450564,-0.999917564703,0.0,0.385912212531,-0.101199765368,0.304890990567,1.0,-0.21998,-0.289116571429,2.611
-0.134011948736,-0.434857224035,-0.135241365928,-2.5733245735,-0.0567640052744,2.13182843426,-0.400513100954,-0.82136720274,-0.446559211916,-0.011077299292,-0.377630174088,-0.0723804403727,-0.0787237316439,-0.78860192732,0.573670266409,0.819059499738,0.00497073710659,0.0,0.819045861117,-0.573588764728,-0.0118555162259,0.0,-0.00685934629602,0.0108726281374,-0.999917364249,0.0,0.381957569348,-0.106362147408,0.304875572078,1.0,-0.21998,-0.289116571429,2.629
-0.147544722121,-0.441890576203,-0.135503481024,-2.57900272398,-0.0579191033577,2.13053626709,-0.413177182714,-0.854456932845,-0.436749881332,-0.0234012472254,-0.350774574033,-0.0750226351397,-0.0768085071099,-0.79857918591,0.573790063874,0.818974809784,0.0050961200566,0.0,0.818963343959,-0.573708989522,-0.0117381213862,0.0,-0.00668966463807,0.010908962974,-0.999918118105,0.0,0.378481251477,-0.11104769661,0.304939973,1.0,-0.21998,-0.289116571429,2.645
-0.162803867688,-0.449591851689,-0.135661593856,-2.58523251789,-0.0591533127216,2.12908292386,-0.427615874887,-0.846180784451,-0.409573672545,-0.0143304436714,-0.348422928658,-0.0626383668907,-0.0832392913708,-0.802982892888,0.573727268482,0.819018194073,0.00519288737814,0.0,0.819008451376,-0.573646663648,-0.0116365270775,0.0,-0.006551771015,0.0109294219698,-0.99991880772,0.0,0.3745646569,-0.116206551028,0.304986956682,1.0,-0.21998,-0.289116571429,2.663
-0.175744312303,-0.455739988613,-0.13591600884,-2.59039912707,-0.0601980825378,2.12772101603,-0.439849825339,-0.876497707193,-0.402150838859,-0.0187318209601,-0.338276966193,-0.0690239541767,-0.0876108683044,-0.818108340832,0.573775506616,0.818984662543,0.00515144909707,0.0,0.818972509238,-0.573691953579,-0.0119297280634,0.0,-0.00681505062685,0.0110640939747,-0.99991556689,0.0,0.37118025216,-0.120551506144,0.304903257654,1.0,-0.21998,-0.289116571429,2.678
-0.190416214604,-0.462459567461,-0.136070862718,-2.59583154387,-0.06138773469,2.12637712106,-0.453885079146,-0.871721773769,-0.38172664523,-0.016243869765,-0.307849646814,-0.0737415550824,-0.0665023963989,-0.832786408546,0.573612072837,0.819099180034,0.00514490665576,0.0,0.819087330106,-0.573529204229,-0.0118720030831,0.0,-0.00677372418576,0.0110242644048,-0.999916287624,0.0,0.367471913236,-0.125419257642,0.304910854318,1.0,-0.21998,-0.289116571429,2.695
-0.205478897998,-0.468883092815,-0.136294764005,-2.60101247937,-0.0624948977371,2.12501769135,-0.468051215742,-0.879919731713,-0.374457714683,-0.00561007284759,-0.295365264877,-0.0687384799933,-0.0886740198144,-0.83392293709,0.573774427472,0.818985202151,0.00518574377585,0.0,0.818973653954,-0.573691009214,-0.011896511198,0.0,-0.00676818235657,0.0110731146219,-0.999915785374,0.0,0.363498966334,-0.130674284113,0.304903102873,1.0,-0.21998,-0.289116571429,2.713
-0.216872453475,-0.47367380713,-0.13641800546,-2.60467649443,-0.063258899649,2.12399602161,-0.478977713322,-0.877064177563,-0.366460182361,-0.0105677185793,-0.275454674842,-0.0704032335129,-0.0706210144882,-0.83971483859,0.573703346625,0.819034298209,0.00529483984688,0.0,0.81902503528,-0.573621001545,-0.0117339282817,0.0,-0.00657338493752,0.0110686134218,-0.99991713477,0.0,0.360924500675,-0.134103520613,0.304978915138,1.0,-0.21998,-0.289116571429,2.725
-0.235665663012,-0.480991486872,-0.136660739912,-2.6104733963,-0.0645797786626,2.1223394694,-0.496948159596,-0.883879030055,-0.338642623079,-0.00587570393411,-0.269888288508,-0.0600677805976,-0.0760188664297,-0.864310510303,0.573670075725,0.819057585625,0.00529740966756,0.0,0.819048343729,-0.573587707276,-0.0117345471856,0.0,-0.00657286736859,0.0110708063342,-0.999917113896,0.0,0.356299569014,-0.140182226371,0.304981661411,1.0,-0.21998,-0.289116571429,2.746
-0.250995955276,-0.486543557649,-0.136853889272,-2.61493029862,-0.0654511203792,2.12099268866,-0.511628992072,-0.91339764401,-0.31850595584,-0.0138992062318,-0.25065967763,-0.0483439274589,-0.0738955501187,-0.859304570136,0.573723277921,0.819019756161,0.00538389174175,0.0,0.819010346971,-0.573638419027,-0.0119064130594,0.0,-0.00666330866303,0.0112406657898,-0.99991462023,0.0,0.352539243607,-0.145058273046,0.304938343141,1.0,-0.217237142857,-0.285511673469,2.763
-0.264514911494,-0.49105399216,-0.13692356031,-2.6185554594,-0.0662355390395,2.11989593415,-0.524594844359,-0.896690703924,-0.304448447929,0.00214556237782,-0.234813516435,-0.0416329647314,-0.0659561677487,-0.867026429182,0.573689234809,0.819043708868,0.00536765577846,0.0,0.81903338021,-0.57360325523,-0.0120155978938,0.0,-0.00676252523526,0.0112897257797,-0.999913401422,0.0,0.349284876605,-0.149313544406,0.304896039272,1.0,-0.213808571429,-0.28100555102,2.778
-0.280726901195,-0.49612687441,-0.137045193573,-2.62250214331,-0.0670671766915,2.11870536224,-0.540044008092,-0.908649015026,-0.2739018573,-0.00700010565122,-0.21465699753,-0.0526524227277,-0.0730343650009,-0.85882200687,0.573824137577,0.818948581086,0.00546146246201,0.0,0.818939540578,-0.573737882958,-0.0119840493162,0.0,-0.00668100090233,0.0113495628373,-0.999913272064,0.0,0.345456063984,-0.154404769803,0.304902954711,1.0,-0.209694285714,-0.275598204082,2.796
-0.29660430045,-0.500874511973,-0.136999252783,-2.62613027182,-0.0677692231645,2.11748256562,-0.555308431508,-0.876473467691,-0.250698409952,0.00406036396771,-0.189406878426,-0.0388216920277,-0.0601605956563,-0.842633897698,0.573787467722,0.818973774661,0.00553581099996,0.0,0.818965588589,-0.573700739287,-0.0119822097321,0.0,-0.00663734445929,0.0114091001543,-0.999912885252,0.0,0.341720174043,-0.159280583822,0.304926870461,1.0,-0.20558,-0.270190857143,2.814
-0.309925451098,-0.504451133557,-0.137020389295,-2.62886184742,-0.0683626505061,2.11659355632,-0.56796737198,-0.872904541466,-0.229190808022,0.000718370101938,-0.177285817364,-0.0386353489918,-0.0546883390913,-0.840942407725,0.573935645025,0.818869609057,0.00558440994476,0.0,0.818862292816,-0.573849111664,-0.0119368901787,0.0,-0.00657027440616,0.0114240894448,-0.999913157066,0.0,0.338635829048,-0.163389026136,0.304942436477,1.0,-0.202151428571,-0.265684734694,2.829
-0.325474498877,-0.508413919421,-0.136921879492,-2.63183468254,-0.0689062481839,2.11564471809,-0.583016362748,-0.86683629164,-0.211869112216,1.91294179532e-05,-0.158112256281,-0.0365993655071,-0.0544550231475,-0.832762980068,0.573872332645,0.818913165084,0.00570269923232,0.0,0.818908106522,-0.573786642489,-0.0117961381479,0.0,-0.00638800316966,0.0114396841949,-0.999914159836,0.0,0.335076396233,-0.168107299254,0.304985869945,1.0,-0.198037142857,-0.260277387755,2.847
-0.339261465565,-0.511625856581,-0.136864489643,-2.63427850169,-0.0694299787434,2.11476972154,-0.596278073759,-0.840316860869,-0.194111903902,0.0145958959924,-0.150200599683,-0.0318518917936,-0.0544764043172,-0.830223754036,0.57389741103,0.81889544587,0.00572339484433,0.0,0.818890590035,-0.573811522461,-0.0118019127888,0.0,-0.00638050557055,0.011460142019,-0.999913973447,0.0,0.331902394661,-0.172274077035,0.304992304825,1.0,-0.19438,-0.255470857143,2.863
-0.353606558916,-0.51461979782,-0.136729008054,-2.63666341417,-0.0698794165809,2.11390567934,-0.61018565188,-0.850049049378,-0.168306128021,-0.000157197710666,-0.134510762691,-0.03112109744,-0.0471127633693,-0.815806791067,0.573830757931,0.818942100223,0.00573102402971,0.0,0.818936381934,-0.573743135375,-0.0119483829869,0.0,-0.00649702324968,0.0115499161208,-0.999912190208,0.0,0.32860881469,-0.176548463215,0.304944894749,1.0,-0.190494285714,-0.250363918367,2.88
-0.367000546848,-0.517122399501,-0.136585505703,-2.63867223781,-0.0702772710937,2.11317797716,-0.62308555524,-0.827189860975,-0.143901173352,0.0177326957857,-0.123283680083,-0.0229427177856,-0.046383113291,-0.796360733741,0.573848316642,0.818929875736,0.00571970412181,0.0,0.818923175326,-0.573759260714,-0.012078516474,0.0,-0.0066098520468,0.011615458241,-0.999910691505,0.0,0.325559310652,-0.180524716792,0.304896536447,1.0,-0.186837142857,-0.245557387755,2.896
-0.382618194827,-0.51981862603,-0.13648260375,-2.64072921867,-0.070648373464,2.11245553498,-0.638177312103,-0.840713381321,-0.134748582165,0.000581810182162,-0.0989387135319,-0.0221716353798,-0.0337912717715,-0.795541886244,0.573928745504,0.818872805751,0.00581979271498,0.0,0.81886740171,-0.573839246222,-0.0120600503231,0.0,-0.00653614762197,0.0116874731117,-0.999910336854,0.0,0.322039228711,-0.185168972662,0.304895095511,1.0,-0.182494285714,-0.239849632653,2.915
-0.394677667888,-0.521660601553,-0.136296975377,-2.64210392685,-0.0709074117812,2.11190184191,-0.649947029461,-0.801259455057,-0.123651938101,0.0111645588641,-0.098802022401,-0.00805519627402,-0.029384134444,-0.782080895345,0.573844072363,0.818932003593,0.00583960667872,0.0,0.818926856597,-0.573754506218,-0.0120547517685,0.0,-0.00652164693408,0.0116999838483,-0.999910285225,0.0,0.319350127209,-0.18871860508,0.304904548524,1.0,-0.179065714286,-0.235343510204,2.93
-0.40902101918,-0.52365586586,-0.136177152367,-2.64356494317,-0.0711787965887,2.11129367306,-0.663793403521,-0.800129566134,-0.109983827533,0.00475852571554,-0.0753005393731,-0.0136245214574,-0.0372829119954,-0.767594581124,0.573965333268,0.818846421328,0.00592295407125,0.0,0.81884240442,-0.57387547734,-0.0120332926592,0.0,-0.00645450480507,0.0117568851409,-0.999910053465,0.0,0.316140653494,-0.192951053935,0.304923632817,1.0,-0.174951428571,-0.229936163265,2.948
-0.421472118101,-0.525161444246,-0.135972003188,-2.64466802943,-0.0713804984746,2.11084386802,-0.675965783455,-0.771318924658,-0.0820691129933,0.0103126051542,-0.067448517183,-0.00907169726964,-0.025831882695,-0.745462917664,0.573898142428,0.8188932931,0.00595344731431,0.0,0.818889920472,-0.573808626958,-0.0119876886705,0.0,-0.00640062165474,0.0117551565809,-0.999910420156,0.0,0.313382963777,-0.196590985767,0.304940690867,1.0,-0.171294285714,-0.225129632653,2.964
-0.431456088608,-0.526225840794,-0.135869853063,-2.64545313117,-0.0715414579838,2.11051546017,-0.68566669553,-0.766885574848,-0.0817523731387,0.00696155534269,-0.055458176272,-0.0102849118697,-0.0243267413614,-0.733100178577,0.573943386581,0.81886130358,0.00599177769304,0.0,0.818858517137,-0.573853866513,-0.0119672762638,0.0,-0.00636125711919,0.0117751839725,-0.999910435714,0.0,0.311161010795,-0.199519910322,0.304947949182,1.0,-0.168322857143,-0.221224326531,2.977
-0.446500649196,-0.527555832286,-0.135638145958,-2.64650057177,-0.0717282661164,2.11006966295,-0.700361733009,-0.73354616948,-0.0629868958736,0.00960603689314,-0.0465623243662,-0.0110982240917,-0.0192175577272,-0.721313454547,0.573925799808,0.818873389728,0.00602451753859,0.0,0.818870647454,-0.573835440772,-0.0120206719127,0.0,-0.00638644963772,0.0118325021315,-0.999909598491,0.0,0.307817530077,-0.203890885303,0.304925997808,1.0,-0.163751428571,-0.215216163265,2.997
-0.459740271883,-0.528468130301,-0.135480258743,-2.6472175208,-0.0718444602396,2.10975180654,-0.71327897077,-0.7373573773,-0.0429108430627,0.00408162776629,-0.0318790089792,-0.00139344441936,-0.016073954672,-0.714186652473,0.57398741558,0.818829700077,0.00609228432656,0.0,0.818827567008,-0.573896248141,-0.0120523350038,0.0,-0.00637259343097,0.0119066482131,-0.999908806733,0.0,0.304882290816,-0.207746333579,0.304910288788,1.0,-0.159637142857,-0.209808816327,3.015
-0.471240368341,-0.529055431023,-0.135232118545,-2.64768670622,-0.0719521885571,2.10952133454,-0.724517250879,-0.702532409578,-0.0306215904054,0.0198167872973,-0.0236477407605,-0.00498668113833,-0.00735920534778,-0.700078411468,0.573953810914,0.818853428324,0.00606899992778,0.0,0.81885086236,-0.573862509222,-0.012076117861,0.0,-0.00640592231814,0.0119009688224,-0.999908661379,0.0,0.302356810379,-0.211070116327,0.304898087788,1.0,-0.15598,-0.205002285714,3.031
-0.483141034083,-0.529502823778,-0.135053529257,-2.64804864982,-0.071981591148,2.10930529275,-0.736239409089,-0.705060019047,-0.0233385435909,0.00210497098283,-0.0174294804271,-0.00403846976066,-0.0153097187975,-0.686117005467,0.573940684802,0.818862112999,0.00613816949684,0.0,0.818860062283,-0.573848363163,-0.0121244131665,0.0,-0.00640596740055,0.0119852266048,-0.999907654699,0.0,0.299730007873,-0.214514914009,0.304882984584,1.0,-0.152094285714,-0.199895346939,3.048
-0.495567997485,-0.529819412066,-0.134819329265,-2.6482733238,-0.072014277043,2.1091196564,-0.748376140125,-0.671046058585,-0.0132508575039,0.0189248206232,-0.00658537119485,-0.00449453473226,-0.0121997434929,-0.661898276343,0.573986163849,0.818830000106,0.00616940333593,0.0,0.81882829748,-0.573893582501,-0.0121293903996,0.0,-0.00639145081508,0.0120140156023,-0.999907402106,0.0,0.296997276837,-0.218102535668,0.304886506291,1.0,-0.14798,-0.194488,3.066
-0.505518821972,-0.529955179772,-0.134603918397,-2.6483984067,-0.0720324075357,2.10902579832,-0.758237058322,-0.661176107883,-0.00965913732227,0.0135787603028,-0.0090783505679,-0.0032661439195,-0.00508143905743,-0.654719055048,0.573893132072,0.818895140296,0.00617811142148,0.0,0.818893466637,-0.573800372696,-0.0121395837319,0.0,-0.00639616663308,0.0120262703521,-0.999907224633,0.0,0.29480482663,-0.220959763754,0.304876662689,1.0,-0.144551428571,-0.189981877551,3.081
-0.517452620363,-0.529997497668,-0.134413726486,-2.64842306414,-0.0720351485647,2.10891288868,-0.769797781574,-0.652509049606,0.00107923166955,0.015762150828,0.00172988388181,-0.00076497214573,-0.00426325444329,-0.634052837771,0.574061900907,0.818776500805,0.00622274515283,0.0,0.818775294411,-0.573968686857,-0.0121536278905,0.0,-0.00637956687866,0.0120721971515,-0.999906777246,0.0,0.292157252926,-0.224398328945,0.30487610243,1.0,-0.140437142857,-0.184574530612,3.099
-0.528103633678,-0.529890490439,-0.134141637544,-2.648338825,-0.0720248203808,2.10891844023,-0.780425114685,-0.631624506058,0.0103143253293,0.013271984728,0.00544998763621,-0.00155162955416,0.000795809358696,-0.618012437607,0.573883258307,0.818901812807,0.00621077433085,0.0,0.818900879735,-0.573790950305,-0.0120847597287,0.0,-0.00633266746722,0.0120214813031,-0.999907686394,0.0,0.289686355897,-0.227627618822,0.304884738675,1.0,-0.136322857143,-0.179167183674,3.117
-0.538098331877,-0.529726024217,-0.133970851885,-2.64821201555,-0.0720203223067,2.10890672014,-0.790159212466,-0.624874113335,0.0147748798189,0.0135908345423,0.00798996185691,-0.00159150906424,0.000428278556945,-0.613491051775,0.574000888192,0.818819223591,0.00622947305413,0.0,0.818818593439,-0.573908585059,-0.0120745159361,0.0,-0.00631181921999,0.0120318228858,-0.999907693828,0.0,0.287594167369,-0.23032019516,0.304883742133,1.0,-0.132894285714,-0.174661061225,3.132
-0.548302927337,-0.529400264126,-0.133688662764,-2.64796813881,-0.0719917294348,2.10892317573,-0.800244301093,-0.583137311708,0.0248793494695,0.0221532239502,0.0144596288637,0.00606424564715,0.000500975984742,-0.584669936793,0.573925943957,0.818871982925,0.00619946243468,0.0,0.818871028044,-0.573833914902,-0.0120674951481,0.0,-0.00632439364584,0.0120026398093,-0.999907965106,0.0,0.285342011756,-0.233228345037,0.304884293311,1.0,-0.129008571429,-0.169554122449,3.149
-0.558165345708,-0.528942093821,-0.133433430917,-2.64763257493,-0.0719726638276,2.10895669146,-0.810055138927,-0.584284448951,0.029500383321,0.00941652379519,0.0229152168743,0.00952248443368,0.00244746124229,-0.567605445795,0.573815550385,0.818949648118,0.00615913016838,0.0,0.818948062061,-0.573723522145,-0.0120887834033,0.0,-0.00636658963735,0.0119809702882,-0.999907957208,0.0,0.283157721134,-0.236046826731,0.304878885461,1.0,-0.125122857143,-0.164447183674,3.166
-0.567397511734,-0.528439896894,-0.13324762042,-2.64723414506,-0.0719146401691,2.10902607043,-0.818981968664,-0.577054145095,0.0330254727954,0.00764613118793,0.0255345266,0.00143054239145,0.0069866511719,-0.562463828324,0.573981772683,0.818833074834,0.00616985304312,0.0,0.818831796095,-0.573889978165,-0.0120635636043,0.0,-0.00633735006497,0.0119765680574,-0.999908195692,0.0,0.281106008476,-0.238698491272,0.304887227932,1.0,-0.121465714286,-0.159640653061,3.182
-0.576614400422,-0.527697506488,-0.132940639162,-2.64669290192,-0.0718230620603,2.10917456491,-0.828251677811,-0.535568056501,0.0397635398646,0.0144566109234,0.0314368324883,0.00267717404885,0.014995122692,-0.544953447701,0.573778862385,0.818975603391,0.00612576792286,0.0,0.81897382623,-0.573687444835,-0.0120554755375,0.0,-0.00635898663536,0.0119342504051,-0.999908564298,0.0,0.27898777025,-0.241485142211,0.30488116285,1.0,-0.117351428571,-0.154233306123,3.2
-0.586235876305,-0.526868512819,-0.132673502015,-2.64608469006,-0.0716988730442,2.10929080382,-0.837729385155,-0.529814764872,0.0493116884466,0.0174123206691,0.0366303641542,0.00230281303825,0.0109317700343,-0.517506068351,0.573808249954,0.818954957191,0.00613329263146,0.0,0.81895302883,-0.573716326119,-0.0120938255671,0.0,-0.00638565122758,0.0119626457791,-0.999908055055,0.0,0.276979647316,-0.244088648671,0.304872497415,1.0,-0.113465714286,-0.149126367347,3.217
-0.594056131532,-0.526084615774,-0.132486679908,-2.64548674317,-0.0715607091615,2.10941625656,-0.845361848599,-0.513118020944,0.0560202845809,0.014020072728,0.0400854994624,0.0144275379283,0.00615934899086,-0.511965559104,0.573922575523,0.818874566758,0.00616993708096,0.0,0.818873030865,-0.573830306063,-0.0121031428319,0.0,-0.00637058161276,0.0119988929996,-0.99990771687,0.0,0.275258479992,-0.246341570102,0.304872942668,1.0,-0.110037142857,-0.144620244898,3.232
-0.603309383582,-0.524992328632,-0.13210626235,-2.64470804098,-0.0713566169937,2.10959823171,-0.854715389279,-0.481847863522,0.0575697842279,0.0193019456111,0.0451842427311,0.00716210188057,0.0144049279345,-0.489437381855,0.57370255734,0.819028789359,0.00616155853054,0.0,0.819026699266,-0.573609537624,-0.0121700918872,0.0,-0.00643345074884,0.0120287253746,-0.99990695591,0.0,0.273253598687,-0.248971108951,0.304852108668,1.0,-0.105694285714,-0.138912489796,3.251
-0.611024124799,-0.524096702683,-0.131864061265,-2.64405051475,-0.0712013643546,2.10974535688,-0.862260253042,-0.477739563502,0.0591381343496,0.0150837017793,0.040471524247,0.00744970013642,0.00989461780101,-0.467943814276,0.573773466677,0.818978994622,0.00617755657395,0.0,0.818976844048,-0.573679855232,-0.0122106312343,0.0,-0.00645643503734,0.0120656443015,-0.999906362953,0.0,0.271547640495,-0.251171036569,0.304841444857,1.0,-0.102037142857,-0.134105959184,3.267
-0.618969273918,-0.523101031164,-0.131633828756,-2.6432392479,-0.0710213786454,2.1099241647,-0.870029804218,-0.466715885393,0.0590559469328,0.0119764995853,0.053338072425,0.0059848490004,0.00654501385906,-0.453542892815,0.573875905009,0.81890701749,0.00620397104669,0.0,0.818905492842,-0.573782678098,-0.0121646623153,0.0,-0.00640211947399,0.0120617047881,-0.999906759725,0.0,0.269804314834,-0.25346294553,0.304866097678,1.0,-0.0981514285715,-0.128999020408,3.284
-0.625973411811,-0.522060518085,-0.131351784103,-2.64243916003,-0.07082694447,2.11012165408,-0.877062495846,-0.429017490576,0.0699972682708,0.0159991406432,0.0521853807871,0.00798707872451,0.0131712580458,-0.426916454721,0.573780058223,0.81897414468,0.00620822287396,0.0,0.818972689141,-0.573686858425,-0.012160173256,0.0,-0.00639741478463,0.012061862129,-0.999906787939,0.0,0.268294129139,-0.255476566454,0.30487178206,1.0,-0.0944942857143,-0.124192489796,3.3
-0.633215316377,-0.52101742214,-0.131075976873,-2.64163281,-0.0706301155349,2.1103248419,-0.884264058616,-0.432626388828,0.0639242829617,0.0127875359188,0.044944181055,0.00828356984869,0.0101831684235,-0.419600173349,0.573746114144,0.818997843767,0.0062189476932,0.0,0.818996606796,-0.573653021583,-0.0121456077082,0.0,-0.00637983122053,0.0120620245164,-0.999906898325,0.0,0.266709132142,-0.257548183789,0.304879341701,1.0,-0.0906085714286,-0.11908555102,3.317
-0.639851242609,-0.520020277589,-0.130822250488,-2.64081501341,-0.07043786813,2.11052564497,-0.890746908009,-0.399669870965,0.0634528123027,0.0155160642103,0.0509595185972,0.00821187352491,0.0115055186323,-0.405168358909,0.573818256459,0.818947247542,0.00622584918312,0.0,0.818946511073,-0.573725896144,-0.0120811835584,0.0,-0.00632204283924,0.0120312727917,-0.999907635859,0.0,0.265263778352,-0.259458054196,0.304907890364,1.0,-0.0869514285715,-0.114279020408,3.333
-0.646951161888,-0.518824975587,-0.130603366464,-2.63991160097,-0.0702152616028,2.11075852369,-0.897716284473,-0.390313359701,0.065745818162,0.0194836873266,0.0496094779146,0.0142696401589,0.0113135320932,-0.38860023576,0.573914450133,0.818879485469,0.00627208963558,0.0,0.818879246809,-0.573821663301,-0.0120923435682,0.0,-0.00630323252893,0.0120762872524,-0.999907211968,0.0,0.263699015476,-0.26151004486,0.304903976889,1.0,-0.0828371428572,-0.108871673469,3.351
-0.653191686717,-0.517700133297,-0.130271398512,-2.63909022806,-0.0699903426466,2.11098437962,-0.904062156573,-0.354900070245,0.0659175461573,0.0189995240992,0.0440076496733,0.00870160412564,0.0140895905224,-0.361559309527,0.573733643477,0.819006204973,0.0062681304342,0.0,0.819005679347,-0.573640463792,-0.0121269286841,0.0,-0.00633649858736,0.0120914942013,-0.999906817935,0.0,0.262352076444,-0.263281587436,0.30489048648,1.0,-0.0789514285715,-0.103764734694,3.368
-0.658579739153,-0.516774193276,-0.130020253488,-2.63838009087,-0.0698048367184,2.11118289406,-0.909309185858,-0.358974916833,0.0623778450895,0.0191557149827,0.0490620561039,0.0135847628167,0.0136956569123,-0.350625805605,0.573788564873,0.818967711958,0.00627028655432,0.0,0.818967331618,-0.573695587319,-0.012109076565,0.0,-0.00631982867722,0.0120834421558,-0.999907020773,0.0,0.261172931018,-0.264815702825,0.304895045992,1.0,-0.0755228571429,-0.099258612245,3.383
-0.66471682788,-0.515614555077,-0.129727566148,-2.63748312073,-0.0695684637573,2.11142704587,-0.915389165116,-0.329692695365,0.0673780132481,0.0141471386903,0.0505739169064,0.00856062426917,0.0129895256451,-0.335496236473,0.573776793927,0.818975877087,0.00628095543772,0.0,0.818975769057,-0.573684026324,-0.0120861300179,0.0,-0.00629508632726,0.0120789237994,-0.999907231441,0.0,0.259843239977,-0.266576651458,0.30490289997,1.0,-0.0714085714286,-0.0938512653062,3.401
-0.670234683182,-0.514503134217,-0.12952862832,-2.63664827823,-0.0693491771781,2.11163968614,-0.920788513508,-0.323254837434,0.0613103944306,0.0146153088407,0.0455470924628,0.0102680981122,0.015941797126,-0.310123294476,0.573871186929,0.818909378914,0.00632746709826,0.0,0.818909687554,-0.57377782436,-0.0121111024852,0.0,-0.00628745616179,0.0121320704426,-0.999906636022,0.0,0.25862781531,-0.268172707098,0.304894925945,1.0,-0.0675228571429,-0.0887443265307,3.418
-0.675150096394,-0.513535256531,-0.129285795648,-2.6359141549,-0.0691400706598,2.11184487604,-0.925633710303,-0.295441428051,0.0606135515344,0.0200381293798,0.0480844556642,0.00840357695815,0.0115504504309,-0.292755839124,0.573884773067,0.818899703641,0.00634740259857,0.0,0.818900293757,-0.573791358642,-0.0121050623055,0.0,-0.00627086790725,0.0121450346162,-0.999906582812,0.0,0.257553981126,-0.269574736593,0.304894299115,1.0,-0.0638657142858,-0.0839377959184,3.434
-0.679983710706,-0.512529998797,-0.128945397443,-2.63517463552,-0.0689167244892,2.11204708351,-0.930456242999,-0.27863359761,0.0575408787248,0.0193359286377,0.0453224211273,0.0121784456899,0.0123109754688,-0.281419644414,0.573786810205,0.818968453049,0.0063337386677,0.0,0.818968673061,-0.57369310896,-0.012135739683,0.0,-0.0063052871235,0.0121506948529,-0.999906297594,0.0,0.256518384252,-0.270929758432,0.304884111472,1.0,-0.0599800000001,-0.0788308571429,3.451
-0.684635564387,-0.511542893392,-0.128670758781,-2.63441725505,-0.0687143560663,2.11226293223,-0.935011553535,-0.266286807684,0.0585804264412,0.0132288940399,0.041904743995,0.0157578812015,0.0124212778458,-0.261751490068,0.57379715683,0.818961267245,0.00632554085098,0.0,0.818961490506,-0.57370370307,-0.0121196143898,0.0,-0.00629662977866,0.012134808275,-0.999906545074,0.0,0.255514839485,-0.27225750026,0.304887974038,1.0,-0.0560942857143,-0.0737239183674,3.468
-0.688973833986,-0.510575513574,-0.128427436283,-2.63370263282,-0.0685050203586,2.11246183701,-0.939216522003,-0.244895064812,0.0540750938114,0.0152306364653,0.0355347028592,0.0111873513812,0.00872271953365,-0.243921447496,0.573860574047,0.818916690597,0.00634368330052,0.0,0.8189169949,-0.57376672324,-0.0121428854551,0.0,-0.00630433856861,0.0121635074681,-0.999906147797,0.0,0.254572418464,-0.273494203296,0.30487721419,1.0,-0.0522085714286,-0.0686169795919,3.485
-0.69324742209,-0.509640316701,-0.128169701985,-2.63302958848,-0.0682734803125,2.11266073931,-0.943420862025,-0.235056517185,0.0513889372543,0.00981289834756,0.0398262438507,0.018537289439,0.0124852332499,-0.216453559158,0.573868462224,0.818910885178,0.0063794280508,0.0,0.818911439341,-0.573774025244,-0.0121724842482,0.0,-0.00630795118669,0.0122098265012,-0.999905560485,0.0,0.25363906906,-0.274695587606,0.304859562709,1.0,-0.0480942857143,-0.0632096326531,3.503
-0.697004356975,-0.508840077379,-0.127925767728,-2.6323936686,-0.0680825269691,2.11283482042,-0.9470531318,-0.215927260366,0.0473884724693,0.0154044762989,0.0362456423308,0.00946659127997,0.00972519663824,-0.216118829759,0.57391166192,0.818880596508,0.00638121274538,0.0,0.818881401437,-0.573817648096,-0.0121368865611,0.0,-0.00627712927157,0.0121911918909,-0.999905981824,0.0,0.252826852878,-0.275758890643,0.304872355988,1.0,-0.0442085714286,-0.0581026938776,3.52
-0.700036576137,-0.508128017559,-0.12766528087,-2.63185671859,-0.0678963774165,2.11298105741,-0.950020667432,-0.196891192228,0.0471558075106,0.0158126150054,0.0362605587234,0.0191068254646,0.00577861421223,-0.18828158552,0.573886718841,0.818898091323,0.00637940967838,0.0,0.818898830179,-0.57379263629,-0.0121434497815,0.0,-0.00628391053552,0.012193290432,-0.999905913642,0.0,0.252190612106,-0.276604977244,0.304870749575,1.0,-0.0407800000001,-0.0535965714287,3.535
-0.703142522856,-0.50740340416,-0.127339705612,-2.63130221011,-0.067703551233,2.11314655349,-0.953076897072,-0.175676757319,0.0448152641382,0.0192051838598,0.0309069253004,0.00734103666203,0.00407050488573,-0.171241340873,0.573806622603,0.818954464847,0.00634754015926,0.0,0.818954904492,-0.573712930188,-0.0121278623222,0.0,-0.00629062224755,0.0121576309355,-0.999906305652,0.0,0.251553489959,-0.277461281406,0.304875473135,1.0,-0.0368942857143,-0.0484896326531,3.552
-0.706028280525,-0.506749149807,-0.127040267875,-2.63077543685,-0.0674945988228,2.11329797436,-0.955879753361,-0.164483610527,0.035145301796,0.0171698306364,0.0355478947872,0.00974412902486,0.0119091733634,-0.150803270741,0.573777476262,0.818974940727,0.00634043351829,0.0,0.818975581107,-0.573684390298,-0.012081588456,0.0,-0.00625723092355,0.0121250370032,-0.999906910937,0.0,0.250963745723,-0.278256506204,0.304891745346,1.0,-0.0330085714286,-0.0433826938776,3.569
-0.708490736505,-0.506172324677,-0.126807105906,-2.63033642455,-0.0673191266258,2.11341723179,-0.958213695305,-0.152980841491,0.0351110436156,0.0155117954306,0.0266906252182,0.0176639091114,0.00673068725651,-0.139121245877,0.57381416562,0.818949177469,0.00634783101517,0.0,0.81894991914,-0.573721047766,-0.0120804053126,0.0,-0.00625147409344,0.0121306969449,-0.999906878296,0.0,0.250448984625,-0.278934386698,0.304892474611,1.0,-0.0293514285715,-0.0385761632654,3.585
