nelsonifechukwu/NELSON_IML_WORK/CNN-GradCAM/train2dof/data_sample_2022-02-21-14-19-34/robot_state.csv
position_joint1,position_joint2,position_joint3,position_joint4,position_joint5,position_joint6,position_joint7,velocity_joint1,velocity_joint2,velocity_joint3,velocity_joint4,velocity_joint5,velocity_joint6,velocity_joint7,ee_T_00,ee_T_10,ee_T_20,ee_T_30,ee_T_01,ee_T_11,ee_T_21,ee_T_31,ee_T_02,ee_T_12,ee_T_22,ee_T_32,ee_T_03,ee_T_13,ee_T_23,ee_T_33,v_x,v_y,time
0.465093911175,0.547808377408,-0.123982849503,-1.35577097811,0.0794848486565,1.89408757691,0.159174214489,-0.000653662011982,-0.000959739196892,0.00188624599158,0.00129357859663,-0.000265735522053,0.000129133922048,0.000441651293448,0.573790085652,0.818988319581,0.00195368829241,0.0,0.81894537573,-0.573731651576,-0.0118832003424,0.0,-0.00861147526658,0.00841858861889,-0.9999274823,0.0,0.661682265183,0.260910813505,0.303223293796,1.0,0.0,0.0,0.0
0.465092875925,0.547815036174,-0.123988147995,-1.35577410437,0.0794861563815,1.8940878778,0.159172689684,0.000783917364437,0.000463954806955,-0.000667680931144,0.00129546424971,2.61705226957e-05,2.22161339293e-05,-0.000819005943236,0.573793917558,0.818985655754,0.00194492745911,0.0,0.818942609834,-0.573735530811,-0.0118865211501,0.0,-0.00861918227655,0.00841335948938,-0.999927459908,0.0,0.661682844526,0.260906833908,0.30321729266,1.0,-0.00032,-0.000420571428571,0.017
0.465087980464,0.547803302417,-0.123988462947,-1.35578268707,0.0794847311098,1.89408958322,0.159168721165,-0.000959359582457,-0.00127536073716,-0.000640608919474,0.000143916780344,-0.000224363346633,-0.00016886426536,-0.000571146622495,0.573794979141,0.818984902897,0.00194875335982,0.0,0.818941914896,-0.573736584418,-0.0118835444197,0.0,-0.00861453823264,0.00841479594145,-0.999927487841,0.0,0.661682957944,0.260902433614,0.30322167606,1.0,-0.00068,-0.000893714285714,0.035
0.465090238805,0.547774840433,-0.123986414094,-1.35581272672,0.0794857989913,1.89409352457,0.159173028292,0.000427188293489,0.000738319623691,0.00010423355652,-0.00340300559867,0.000222736153769,0.0027710838631,0.00150122350037,0.573797125491,0.818983388266,0.00195331085734,0.0,0.81894041389,-0.573738667073,-0.0118864336348,0.0,-0.00861426757631,0.00842020876907,-0.999927444607,0.0,0.661676491207,0.260902362991,0.303227818056,1.0,-0.00098,-0.001288,0.05
0.465087488733,0.547661020448,-0.123988490489,-1.3559412658,0.0794847343233,1.89412333672,0.159171509232,0.000302564306958,-0.0120796564161,-0.00133391633015,-0.0109871624069,-0.000252822169824,0.00468287974298,0.00148570111014,0.573806325859,0.818976900472,0.00197073583521,0.0,0.818934080335,-0.573747723543,-0.0118856508339,0.0,-0.0086035339256,0.00843412675733,-0.999927419721,0.0,0.661657235432,0.260887433868,0.30324992607,1.0,-0.00132,-0.00173485714286,0.067
0.465078609559,0.547524229932,-0.123988525517,-1.3561401679,0.0794799420005,1.89417001631,0.159161245146,-0.000510919268957,-0.00739491223082,-0.000876149828928,-0.0160910084423,-0.000695076261024,0.00466882841268,-0.000958320044121,0.573814885778,0.818970922378,0.00196266629562,0.0,0.818927895587,-0.573756216175,-0.0119018120666,0.0,-0.00862131200574,0.00843688154687,-0.999927243358,0.0,0.661627149433,0.260862114782,0.303256203849,1.0,-0.00166,-0.00218171428571,0.084
0.465064487995,0.547374772014,-0.123986820921,-1.35633944575,0.0794800590299,1.89427736134,0.159153216212,8.41471342432e-05,-0.00616989921193,0.00379748682401,-0.014204564315,0.000215146289971,0.00599445252163,-0.00164455025213,0.573830073573,0.818960147049,0.00201769922701,0.0,0.81891776382,-0.573771104341,-0.011881196258,0.0,-0.00857269377178,0.00847028054107,-0.999927378998,0.0,0.66161010646,0.260839386117,0.303276492381,1.0,-0.00198,-0.00260228571429,0.1
0.465039607096,0.547182189996,-0.123986047134,-1.35655776241,0.0794727611444,1.89438147496,0.159146801997,-0.00133360877841,-0.0140163745792,4.54365657958e-05,-0.0131733008833,2.47125893842e-06,0.00945474663223,0.00129827887408,0.573855013128,0.818942495439,0.0020880550722,0.0,0.818901006524,-0.573795735441,-0.0118466200047,0.0,-0.00850374717682,0.00850831649006,-0.9999276448,0.0,0.661592623222,0.260805888715,0.303317995566,1.0,-0.00232,-0.00304914285714,0.117
0.46501262678,0.546967533679,-0.123988204307,-1.35687530993,0.0794696475022,1.89453242638,0.159123292433,0.000651360963884,-0.0108795918572,-0.000643482048078,-0.0149188697599,-0.000150077699679,0.0073605358617,-0.00092135327374,0.573876527064,0.81892729629,0.00213587873145,0.0,0.818886341337,-0.573816967903,-0.0118319153178,0.0,-0.00846403792262,0.00853926479834,-0.999927717897,0.0,0.661563274562,0.260761669123,0.303332068604,1.0,-0.00268,-0.00352228571429,0.135
0.464981103613,0.546749257882,-0.123983551224,-1.35720737231,0.0794616462496,1.89464494925,0.159078702262,-0.000973614762883,-0.0134841529416,0.000234752510198,-0.0258920121809,-0.000217957054653,0.0130690301252,-0.00154179236947,0.57387589753,0.818927706933,0.00214754581317,0.0,0.818886750019,-0.573816137008,-0.0118439205144,0.0,-0.00846718124488,0.00855570205073,-0.999927550778,0.0,0.661521565685,0.26071031025,0.303338830376,1.0,-0.003,-0.00394285714286,0.151
0.464945490213,0.546470302361,-0.123983686626,-1.35761362441,0.0794480087624,1.89480204593,0.15894392373,-0.00334026305379,-0.0203687309962,-0.000550838251052,-0.0267228325802,-0.00228824225832,0.00776155890069,-0.0037607997446,0.573825419653,0.818962983982,0.00218300897052,0.0,0.818922413604,-0.573765449439,-0.0118336988406,0.0,-0.00843898866762,0.00857835733827,-0.999927595007,0.0,0.661476954193,0.260646164141,0.303363381881,1.0,-0.00334,-0.00438971428571,0.168
0.464903947484,0.546163147358,-0.123985936429,-1.35812501935,0.0794268417645,1.89498230061,0.158935865553,-0.00146647026596,-0.0181199781188,0.000353492122413,-0.0297323964751,-0.000254329694175,0.0102676073515,0.000728770167019,0.573868934435,0.818932557207,0.00215864290689,0.0,0.818891567279,-0.573808951297,-0.0118589777251,0.0,-0.00847321746734,0.00857335844753,-0.999927348416,0.0,0.661417649964,0.260576915828,0.303345809431,1.0,-0.00368,-0.00483657142857,0.185
0.464853655935,0.545854634793,-0.123986701603,-1.35864678275,0.079377524904,1.89515449753,0.158872066508,-0.0011737424755,-0.0239079420714,-5.26902016922e-05,-0.0368365705749,-0.00307106958374,0.0125215111991,-0.00795896948233,0.573874386907,0.818928854107,0.00211349578158,0.0,0.818887405832,-0.573814713803,-0.0118675057692,0.0,-0.00850605169146,0.00854133712241,-0.999927343683,0.0,0.661356361671,0.260489020774,0.303330798842,1.0,-0.004,-0.00525714285714,0.201
0.464801541205,0.545500038408,-0.123986658846,-1.35926183634,0.0792975942039,1.89536085964,0.158774347439,-0.00207245070492,-0.0206754668194,0.000953063265958,-0.0406802389853,-0.00242574826141,0.019529820608,-0.00339885860552,0.573850057936,0.818946080045,0.00204349866632,0.0,0.818904067983,-0.573791016484,-0.0118635468416,0.0,-0.00854322848809,0.00848148970814,-0.999927536164,0.0,0.661283620859,0.260387282844,0.303306874862,1.0,-0.00434,-0.005704,0.218
0.464731626844,0.545066947787,-0.123989105737,-1.36000487912,0.0792828802996,1.89560143712,0.158685631534,-0.00265742593036,-0.0253556112667,0.000292811252355,-0.0392305098481,0.000432072465212,0.0153858209341,-0.002488873462,0.573873786946,0.818929559015,0.00200023214984,0.0,0.818886667458,-0.573814607171,-0.0119234792714,0.0,-0.00861689309823,0.00848069892211,-0.999926910779,0.0,0.661191835654,0.260271056965,0.303280743449,1.0,-0.0047,-0.00617714285714,0.236
0.464669367346,0.544690670145,-0.123987553731,-1.36064189819,0.0792571526993,1.89582373216,0.158633230901,-0.00381386822706,-0.0270949057983,0.000735465965083,-0.0407210673204,-0.00594099856231,0.0160808464617,-0.00315399473341,0.573909436203,0.818904640132,0.00197390675139,0.0,0.818861257953,-0.573850216884,-0.0119547357375,0.0,-0.00865722842811,0.00847745462988,-0.999926589885,0.0,0.661116904236,0.260171033244,0.303263085135,1.0,-0.005,-0.00657142857143,0.251
0.464589487089,0.544133295037,-0.123993231901,-1.36154700819,0.0792198944563,1.89615252034,0.158481191176,-0.0062483490398,-0.0252435174466,0.000789294914395,-0.0472264788358,-0.00226456553296,0.0135244087469,-0.00807578355492,0.573894867289,0.818914870179,0.00196560458566,0.0,0.818871227933,-0.573835536203,-0.011976491756,0.0,-0.0086799605463,0.00848298751136,-0.999926345891,0.0,0.661013116832,0.260031096556,0.303255413573,1.0,-0.0054,-0.00709714285714,0.271
0.464521119416,0.543677498712,-0.123994080625,-1.36228807312,0.0791815463118,1.89640052463,0.158409231736,-0.00481286805814,-0.0280164297758,-1.31358698116e-05,-0.0502048356775,-0.0031738305064,0.0190298545079,-0.00863468577881,0.573923439477,0.818894913896,0.00193714108757,0.0,0.818850803217,-0.573864131092,-0.0120028337374,0.0,-0.00871757155316,0.0084751003295,-0.999926085579,0.0,0.66092412439,0.259914052613,0.303246706342,1.0,-0.0057,-0.00749142857143,0.286
0.464447951984,0.543196374891,-0.123998835712,-1.36305280676,0.0791309043549,1.89667163647,0.158304001246,-0.00388078562628,-0.0336347500843,0.000528222102641,-0.0538753942299,-0.00326938111057,0.0201938660732,-0.0183312318334,0.573929516159,0.81889068867,0.00192286059163,0.0,0.818846432566,-0.573870307829,-0.0120056889301,0.0,-0.00872804231818,0.0084651097542,-0.999926078865,0.0,0.660837692721,0.259788684706,0.303246716016,1.0,-0.006,-0.00788571428571,0.301
0.464368015396,0.542588806876,-0.124000233262,-1.36400555986,0.0790764604177,1.89701663172,0.158182239027,-0.0017661772624,-0.03850105841,0.00033153156976,-0.0520984374195,-0.00259098989614,0.0253417882955,-0.0121778665743,0.573934664639,0.818887077874,0.00192388089776,0.0,0.818842794224,-0.573875411666,-0.012009876471,0.0,-0.00873083280234,0.00846840347781,-0.999926026615,0.0,0.660727089478,0.259644538053,0.303252915947,1.0,-0.00636,-0.00835885714286,0.319
0.464288430395,0.54199710395,-0.12400494903,-1.36494134323,0.0790237303581,1.89736285595,0.158053393006,-0.00164206143805,-0.0347496844228,-0.000420178663245,-0.0526617273761,-0.000600995346263,0.0234229514555,-0.0120245182458,0.573935565411,0.818886441264,0.00192612832791,0.0,0.818842165856,-0.573876282234,-0.0120111201673,0.0,-0.00873055217569,0.00847096722857,-0.999926007349,0.0,0.660620642387,0.259500873993,0.303256111976,1.0,-0.0067,-0.00880571428571,0.336
0.464208080177,0.541391394801,-0.12400296578,-1.36586019064,0.0789711159846,1.89770783225,0.157936647841,-0.005948302441,-0.0380172336557,0.000272565472616,-0.0565911151008,-0.000230183212902,0.0207480171881,-0.00108857551659,0.573941327721,0.818882333706,0.00195519301338,0.0,0.81883840168,-0.573881884723,-0.0120000508914,0.0,-0.00870474742035,0.00848847569282,-0.999926083845,0.0,0.660516734476,0.259362728092,0.303276858146,1.0,-0.00702,-0.00922628571429,0.352
0.464113410197,0.540653979299,-0.124011163498,-1.36698853753,0.0789013621452,1.89812327244,0.157786545792,-0.00385469004689,-0.0391323158064,-0.00313658505636,-0.0639433877232,-0.00166376494294,0.0235683893629,-0.00814657233009,0.573945562071,0.81887932253,0.00197327483934,0.0,0.818835670357,-0.573886084722,-0.0119855585803,0.0,-0.00868245828297,0.00849500953723,-0.999926222144,0.0,0.660388811551,0.259188099674,0.303297330657,1.0,-0.00738,-0.00969942857143,0.37
0.464025983458,0.539966397137,-0.124011604518,-1.36803834259,0.0788329818094,1.89851371081,0.157659381437,-0.00489727626964,-0.0382980326296,0.000172679860509,-0.0626758937646,-0.00269698641481,0.0254422311204,-0.00612556770472,0.573953160456,0.81887394594,0.00199428294791,0.0,0.818830610315,-0.573893635299,-0.0119697065784,0.0,-0.00865734124743,0.00850319455661,-0.999926370352,0.0,0.660268791987,0.259029957595,0.303317423113,1.0,-0.0077,-0.01012,0.386
0.463932927999,0.539263887626,-0.124016254047,-1.36912564694,0.0787806608686,1.89893087269,0.157527687762,-0.00320465171772,-0.0460958209693,-0.000921734331178,-0.0705317046147,-0.00559244692829,0.0249911948484,-0.0140076333457,0.573971027667,0.818861341819,0.0020271096039,0.0,0.818818347699,-0.573911277556,-0.0119626864654,0.0,-0.00863256663194,0.00852623413709,-0.999926388353,0.0,0.660147157086,0.258865816752,0.303332600096,1.0,-0.00802,-0.0105405714286,0.402
0.463815075586,0.538405018649,-0.124020103501,-1.37046439903,0.0786949818707,1.89944159914,0.157365449368,-0.00746777883345,-0.0500768212773,0.00127065930298,-0.0681412934694,-0.00712253210178,0.0280631439487,-0.00731026269462,0.573988487282,0.81884905009,0.00204854469607,0.0,0.818806407654,-0.57392871737,-0.0119432434067,0.0,-0.00860416054541,0.00853281002277,-0.999926577092,0.0,0.659997966007,0.258658943724,0.30334647404,1.0,-0.0084,-0.01104,0.421
0.463716416912,0.537667605367,-0.124023428727,-1.37162387632,0.0786322714475,1.89989329476,0.157215791374,-0.00915234106657,-0.0486230820281,0.000198629164134,-0.0767365981707,-0.0052023064737,0.0304499400679,-0.000434776958932,0.573996388562,0.818843443622,0.00207548952754,0.0,0.81880112161,-0.573936475902,-0.0119328027252,0.0,-0.00858006332318,0.00854896341678,-0.999926646179,0.0,0.659868674504,0.258484447021,0.303354643723,1.0,-0.00872,-0.0114605714286,0.437
0.463617753574,0.536935388169,-0.124019405258,-1.37277627271,0.0785676841244,1.90031419061,0.157081560264,-0.0078852708651,-0.0488737147724,-0.00256673054796,-0.0762686553574,-0.00147116763948,0.0285445138464,-0.0049521704142,0.574016552437,0.818829304077,0.00207730921827,0.0,0.818786989198,-0.573956613254,-0.0119339567433,0.0,-0.00857975331822,0.00855132710671,-0.999926628627,0.0,0.659726580233,0.258296156365,0.303360897505,1.0,-0.00904,-0.0118811428571,0.453
0.463499943229,0.536026197844,-0.124027237047,-1.37417570774,0.0784810639802,1.90083728068,0.156903748544,-0.00448221838796,-0.0510794220454,-0.000465903035268,-0.0785326672769,-0.00211651519548,0.0277420960277,-0.00907802643717,0.574020696164,0.818826331328,0.00210390116975,0.0,0.818784345686,-0.573960630181,-0.011922129122,0.0,-0.00855476151504,0.00856635512992,-0.999926714122,0.0,0.659573532412,0.2580976441,0.303380733856,1.0,-0.00938,-0.012328,0.47
0.463386960064,0.535127008964,-0.124030782168,-1.37558829119,0.0784092385852,1.90134816097,0.156730017082,-0.00893671263288,-0.0556230066911,-0.000105336243708,-0.0862770274793,-0.00572294059733,0.0230705258026,-0.0103179429104,0.574031690772,0.818818612736,0.00210815734925,0.0,0.818776544869,-0.573971468096,-0.0119360917671,0.0,-0.00856363681006,0.00857796988125,-0.99992653858,0.0,0.659404989028,0.257888235541,0.303387327065,1.0,-0.00972,-0.0127748571429,0.487
0.463271894834,0.534284763933,-0.124033563431,-1.3769784349,0.0783234058367,1.90184483526,0.156569750634,-0.00870250674528,-0.0534412469686,-0.00194318326209,-0.0887014856352,-0.00463312781421,0.0224447230488,-0.00507989181593,0.574049757926,0.818806065013,0.00206160722111,0.0,0.818763372727,-0.573989707672,-0.0119625192881,0.0,-0.00861180782374,0.00855521449751,-0.999926319821,0.0,0.659238113529,0.257676607652,0.303362987836,1.0,-0.01004,-0.0131954285714,0.503
0.463134641213,0.533313393289,-0.124034285182,-1.37854361889,0.0782305749366,1.9024379413,0.156363737392,-0.00360048736637,-0.0579495769023,-0.00107580873932,-0.0850438854582,-0.00627926314925,0.0355095065159,-0.0100924528479,0.574054833336,0.818802510959,0.00205992018823,0.0,0.818759780023,-0.573994772925,-0.0119653738857,0.0,-0.00861506062807,0.00855552523229,-0.999926289143,0.0,0.659058425473,0.257437888548,0.303354529708,1.0,-0.0104,-0.0136685714286,0.521
0.462993983729,0.532366892121,-0.124033987094,-1.38009053747,0.0781478095503,1.90302209609,0.156174842214,-0.0120307438381,-0.0591484549893,0.000533784149389,-0.0916194392598,-0.00324069736956,0.0358581079669,-0.00422272663346,0.574077562835,0.818786600527,0.00204976799802,0.0,0.818743630163,-0.574017435799,-0.0119832535805,0.0,-0.00863529114833,0.00855771626457,-0.999926095889,0.0,0.658880208411,0.257200400288,0.303336239337,1.0,-0.01074,-0.0141154285714,0.538
0.462871125945,0.531502802367,-0.124037180432,-1.38147281012,0.0780860105412,1.90352647148,0.156003154464,-0.0119208326518,-0.0579369244293,0.00103799172297,-0.0934241539376,-0.00715909077773,0.0352543722224,-0.0122072534707,0.574098639368,0.818771825807,0.00204852171563,0.0,0.818728626591,-0.574038304336,-0.0120086659126,0.0,-0.00865659404902,0.00857150715992,-0.999925793569,0.0,0.658716965368,0.256989076347,0.303331241465,1.0,-0.01104,-0.0145097142857,0.553
0.462731408784,0.530421989677,-0.124042132997,-1.38322343461,0.0779444344019,1.90413212574,0.15575983643,-0.00835609846769,-0.0619065497673,-0.000949042735246,-0.0994632704292,-0.0070438646749,0.0344989184801,-0.013762125748,0.574074138394,0.818789189073,0.00197341985105,0.0,0.818745265083,-0.574014376665,-0.012018035898,0.0,-0.00870763415039,0.00851513570513,-0.999925832035,0.0,0.658502376042,0.256718800302,0.303312176766,1.0,-0.0114,-0.0149828571429,0.571
0.462593980145,0.529366369869,-0.124040385537,-1.38486526265,0.0778530174562,1.90474599228,0.155537305029,-0.00802223028535,-0.064796111499,-0.000128104219774,-0.100078073168,-0.00900558874729,0.040775559363,-0.0147752527155,0.574067836419,0.818793539825,0.00200130733039,0.0,0.818749884823,-0.574007863518,-0.0120143922855,0.0,-0.00868870792789,0.00853581067229,-0.999925820394,0.0,0.658308821222,0.256475157082,0.303327446782,1.0,-0.01174,-0.0154297142857,0.588
0.462455219091,0.528267529839,-0.124041076181,-1.38657436656,0.0777465337282,1.90540001711,0.155305741067,-0.00951579137629,-0.068900901329,0.000997279877647,-0.101074884725,-0.00475501638431,0.0468028864778,-0.0178917117582,0.574056405614,0.818801469478,0.00203559715587,0.0,0.818758300019,-0.573996326636,-0.0119920831635,0.0,-0.00865087658257,0.00855095885598,-0.999926018982,0.0,0.658109928272,0.256222118549,0.303344415427,1.0,-0.01208,-0.0158765714286,0.605
0.462318102436,0.527203270965,-0.124052318446,-1.38822005777,0.077650771993,1.90603711654,0.155082266104,-0.00962977015812,-0.0738872247322,-0.0028418869768,-0.105475581042,-0.00604587926932,0.0502626719863,-0.0128140743867,0.574057029014,0.818800917727,0.00208121870256,0.0,0.818758382175,-0.5739967979,-0.0119638839904,0.0,-0.00860159192719,0.00857213199693,-0.999926262866,0.0,0.657922503691,0.255971697717,0.303365841509,1.0,-0.0124,-0.0162971428571,0.621
0.462165181826,0.52602977671,-0.124044263821,-1.39003670048,0.0775319933165,1.90670959814,0.15483109926,-0.0126010862145,-0.0747079112303,0.00113287221552,-0.109036951312,-0.00404680195572,0.0429164863514,-0.00879796500608,0.574036832267,0.818815020733,0.00210331234453,0.0,0.818772786654,-0.5739765257,-0.0119506770052,0.0,-0.00857830708684,0.00858242891942,-0.99992637457,0.0,0.657705324662,0.25570199163,0.303384908592,1.0,-0.01274,-0.016744,0.638
0.462029055931,0.524922780488,-0.124058713204,-1.39176913769,0.0774165904909,1.90732657062,0.154593489022,-0.00744006646388,-0.0708274142262,-0.00193433665476,-0.108141156934,-0.00282596297005,0.0372817343907,-0.0110735684485,0.574025891818,0.81882273066,0.00208762510417,0.0,0.818780393557,-0.573965752708,-0.0119469136547,0.0,-0.00858434442262,0.00856730921673,-0.999926452417,0.0,0.65749516746,0.255436186176,0.303392897371,1.0,-0.01306,-0.0171645714286,0.654
0.461863105001,0.523658564512,-0.124059572743,-1.39377842513,0.0772938890225,1.90805427237,0.15431722622,-0.00990659355308,-0.0694039980154,0.00052362188435,-0.110971141204,-0.00498803969624,0.0438592117275,-0.0160410548817,0.574010912194,0.818833271541,0.00207195577926,0.0,0.818790683074,-0.573950792874,-0.0119604168416,0.0,-0.00860455225339,0.0085620727157,-0.999926323582,0.0,0.657250510097,0.255134237917,0.303388559226,1.0,-0.01342,-0.0176377142857,0.672
0.46170577559,0.522444097648,-0.124064270977,-1.39572498143,0.077182453822,1.90880785747,0.154060882023,-0.00869904961281,-0.0748453094476,-0.000897462362385,-0.112158708931,-0.00313832414395,0.0402260881087,-0.0158988631525,0.574007703097,0.818835475083,0.00209007949475,0.0,0.818793098233,-0.573947484521,-0.011953836202,0.0,-0.00858879463801,0.00857310178537,-0.999926364555,0.0,0.657021864562,0.254846084985,0.303381161373,1.0,-0.01376,-0.0180845714286,0.689
0.461551262368,0.521265082974,-0.124060955171,-1.39760260622,0.0770642057837,1.9095287939,0.153803831312,-0.011720578255,-0.0766034036105,-0.00228531397309,-0.118146403427,-0.0113283368027,0.044752378547,-0.0219431193767,0.573990000477,0.818847845017,0.0021054605463,0.0,0.818805694212,-0.573929746239,-0.0119427136199,0.0,-0.00857104389343,0.00857912645541,-0.999926465194,0.0,0.656799208628,0.254568910894,0.303378221999,1.0,-0.01408,-0.0185051428571,0.705
0.46138080611,0.519980400262,-0.124068366003,-1.39963910338,0.0769285884635,1.91026232728,0.153521179199,-0.00914102762596,-0.0777341858386,-0.00156248741482,-0.123384862484,-0.00900242508707,0.0468297386085,-0.0195719050309,0.573975125264,0.818858332747,0.00208167479386,0.0,0.818815947994,-0.57391504689,-0.0119460941389,0.0,-0.00858761958081,0.0085614342337,-0.999926474614,0.0,0.656551133486,0.254255688048,0.303374959095,1.0,-0.01442,-0.018952,0.722
0.461213196939,0.518622675011,-0.124076476429,-1.40172149517,0.0767951870248,1.91099673642,0.153251829808,-0.00740831428535,-0.0783396744591,-0.00407502669865,-0.120980367323,-0.0109704755755,0.0448884441601,-0.0217726139743,0.57397188227,0.818860594711,0.00208607150037,0.0,0.81881828502,-0.573911803875,-0.0119417080595,0.0,-0.00858153832692,0.00856248299514,-0.999926517843,0.0,0.656292894727,0.253939916827,0.30340080155,1.0,-0.01476,-0.0193988571429,0.739
0.461042430481,0.517368024176,-0.124079989649,-1.4037276858,0.0766673394298,1.91172370164,0.152967473667,-0.00912943059109,-0.0751834979882,-0.00113366760604,-0.127246282692,-0.00821792821762,0.0481303957363,-0.0191537041088,0.573953072731,0.81887384266,0.00206082790185,0.0,0.818831210092,-0.573893107204,-0.0119539861367,0.0,-0.00860627733236,0.00854866186743,-0.999926423479,0.0,0.656047209745,0.253632866222,0.303389457913,1.0,-0.01508,-0.0198194285714,0.755
0.460849928771,0.515930970689,-0.12408649711,-1.40599738517,0.0765239013019,1.91258725837,0.152647948232,-0.00669922266682,-0.078529305385,-0.00151340394529,-0.130180321014,-0.00558225789914,0.0442463776054,-0.0112688497706,0.573935043334,0.818886428283,0.00208098742369,0.0,0.818844128785,-0.573875066726,-0.0119351348929,0.0,-0.00857945836808,0.00855416119005,-0.999926606917,0.0,0.655777432413,0.253287696436,0.303392176971,1.0,-0.01544,-0.0202925714286,0.773
0.460654806839,0.514537544738,-0.124084434309,-1.40823047139,0.0763895410223,1.91340710322,0.152359759368,-0.0160023221161,-0.0828352023237,-0.00148356236601,-0.134582183205,-0.0116214990031,0.0461783935402,-0.0223568796116,0.573936820686,0.818885231075,0.00206181697666,0.0,0.818842563066,-0.573876805069,-0.0119589471268,0.0,-0.00860994201022,0.00855214824582,-0.999926362118,0.0,0.65548674013,0.252929726649,0.303376255336,1.0,-0.0158,-0.0207657142857,0.791
0.460479272094,0.513225318077,-0.12408762278,-1.41036788059,0.0762696204221,1.91414158668,0.152057205874,-0.0122179281331,-0.0875559400938,-6.30483284662e-05,-0.131141623955,-0.0102184291993,0.0431672153639,-0.0227565636602,0.573921238942,0.81889632522,0.00199171606859,0.0,0.818852607783,-0.573861386768,-0.012010928567,0.0,-0.00869290368619,0.00852441302213,-0.999925881157,0.0,0.655214407498,0.252599745413,0.30334323135,1.0,-0.01612,-0.0211862857143,0.807
0.460271055083,0.511710173879,-0.124095732958,-1.41279516869,0.0761199979008,1.91503030753,0.151715228732,-0.0102048703101,-0.0861515095739,-0.000396791119075,-0.141322150298,-0.00951453180685,0.0515514017446,-0.0161637663696,0.5738996457,0.818911512054,0.00196951577829,0.0,0.818867453272,-0.57383984058,-0.0120282265989,0.0,-0.00872003449889,0.00851593131113,-0.999925717197,0.0,0.654930094687,0.252252209613,0.303326660013,1.0,-0.01646,-0.0216331428571,0.824
0.460065035797,0.51023409899,-0.124096856911,-1.41511158184,0.075976460465,1.91590666723,0.151396221716,-0.00941481276201,-0.086165405602,0.000498219337557,-0.135176609233,-0.00955200413725,0.0437540492072,-0.015829538166,0.573890175874,0.818918080892,0.00199742952573,0.0,0.818874395396,-0.573830261465,-0.0120125972852,0.0,-0.00869131494309,0.00852971968751,-0.999925849714,0.0,0.654651375183,0.251897424816,0.303333554144,1.0,-0.0168,-0.02208,0.841
0.45987007662,0.508805878424,-0.124103189004,-1.41734767643,0.0758317071346,1.91672117774,0.151078471688,-0.0138173569927,-0.0866172485381,-0.000284182210402,-0.133158424593,-0.00127748855267,0.0502577371629,-0.0191280831894,0.573871200238,0.818931378407,0.00199747322381,0.0,0.818887734165,-0.573811327945,-0.012007733222,0.0,-0.00868750401733,0.00852676276516,-0.999925908051,0.0,0.654375759903,0.251551477008,0.303339485367,1.0,-0.01712,-0.0225005714286,0.857
0.459674060213,0.507388521369,-0.124103937013,-1.41959849726,0.075688921818,1.91752983181,0.150768752028,-0.0131788037236,-0.0948155943805,-0.00068785406284,-0.140927394416,-0.0139170403997,0.0488722918536,-0.0156751708755,0.573856592164,0.818941672872,0.00197356670487,0.0,0.818897682283,-0.573796790033,-0.0120240010203,0.0,-0.00871469705495,0.00851636541657,-0.999925760032,0.0,0.654093181055,0.251206215712,0.303329699234,1.0,-0.01744,-0.0229211428571,0.873
0.459451029119,0.505831605953,-0.124104626869,-1.42204315236,0.0755323263209,1.91845572928,0.150434622759,-0.0125082817561,-0.0878099975252,-0.000482194194319,-0.143972590552,-0.0158028358446,0.0615478052147,-0.0229040210882,0.573850237657,0.818946060218,0.00200052404076,0.0,0.818902471696,-0.573790370652,-0.0120041367258,0.0,-0.0086830262222,0.0085269749653,-0.999925945135,0.0,0.65379786061,0.250827905573,0.30333488381,1.0,-0.01778,-0.023368,0.89
0.459240040103,0.504276934759,-0.124109878869,-1.42437825844,0.0753829283908,1.91934939964,0.150099951047,-0.013796516099,-0.0977137906448,0.00102273652075,-0.145513294838,-0.00306846469493,0.0553482427703,-0.027051447008,0.573832650578,0.818958154311,0.00209225206346,0.0,0.818915854121,-0.573772493181,-0.0119455782102,0.0,-0.00858261724237,0.00856830615908,-0.999926458701,0.0,0.653518962651,0.250466817585,0.303387323609,1.0,-0.0181,-0.0237885714286,0.906
0.459006527862,0.502601266975,-0.124115710155,-1.42684986133,0.0752278742387,1.92028419842,0.149772263136,-0.010760201351,-0.102224100032,-0.000596184850838,-0.147461623918,-0.010649411305,0.0563176202584,-0.0151074388652,0.573844611097,0.81894946919,0.00220819585594,0.0,0.818908741311,-0.573784044802,-0.0118781411173,0.0,-0.00846073270839,0.00862468421088,-0.999927012749,0.0,0.653223742936,0.250078042103,0.30346224598,1.0,-0.01844,-0.0242354285714,0.923
0.458759456994,0.500787990963,-0.124117062838,-1.42958066357,0.0750597234402,1.92124477975,0.149381003734,-0.00982533040768,-0.106248043089,0.00119200780759,-0.15222675038,-0.00532868357864,0.0570324847535,-0.0258630078714,0.573821265341,0.818965718775,0.00224806918617,0.0,0.818925406824,-0.573760438312,-0.0118694728748,0.0,-0.0084310005457,0.00865212349701,-0.999927026832,0.0,0.652876793709,0.249653949314,0.30351130641,1.0,-0.0188,-0.0247085714286,0.941
0.458525135403,0.499196462085,-0.12412531305,-1.43203595623,0.0748993382244,1.92214122953,0.149036732109,-0.0160065594082,-0.101101764228,-0.000373027039391,-0.151626880863,-0.00882975542436,0.0536248809252,-0.0210470188811,0.573818653309,0.818967489754,0.00226952486393,0.0,0.818927517776,-0.573757804632,-0.0118511246256,0.0,-0.00840368997896,0.00865913945147,-0.999927195999,0.0,0.65257438408,0.249260888099,0.303530829197,1.0,-0.01912,-0.0251291428571,0.957
0.45827159345,0.497512680763,-0.124125576487,-1.43468238167,0.0747402216509,1.92312474673,0.148651087928,-0.0142303434551,-0.10461606725,-0.00260242453958,-0.15766308931,-0.00739728243495,0.056348641116,-0.0237015514209,0.573802133977,0.818979010716,0.00228865706606,0.0,0.818939208938,-0.573741131223,-0.0118504560386,0.0,-0.00839233964754,0.00867425497707,-0.999927160315,0.0,0.652247444473,0.248844675009,0.303530485102,1.0,-0.01946,-0.025576,0.974
0.457990005487,0.495733406905,-0.124125970321,-1.43754368577,0.0745600177483,1.92410710521,0.148232343253,-0.0122649527549,-0.0996584329566,-0.000298816525655,-0.162873814747,-0.0097214114682,0.0528458787699,-0.0172592623503,0.573785606066,0.818990823577,0.00220364880193,0.0,0.818949767239,-0.573724791179,-0.0119117432545,0.0,-0.00849148395694,0.0086396308357,-0.999926623048,0.0,0.651877573252,0.248382711843,0.303493702836,1.0,-0.01982,-0.0260491428571,0.992
0.457749940054,0.494253682158,-0.124123469575,-1.43996105363,0.0744018336205,1.92495975259,0.147896017046,-0.0156442965727,-0.102773996236,-0.000898105861937,-0.163219864856,-0.0136659746636,0.0639971324701,-0.0219586089131,0.573783672206,0.818992381763,0.00212674053386,0.0,0.818950265105,-0.573723112411,-0.011958280443,0.0,-0.00857374545459,0.00860332643055,-0.999926234111,0.0,0.651568101734,0.247993054628,0.303447638842,1.0,-0.0210908571429,-0.0277194122449,1.007
0.457473499057,0.49233965432,-0.124168019484,-1.44297337038,0.0742213486535,1.92608629211,0.147465181366,-0.0135678595794,-0.116140017185,-0.00303411286664,-0.184040151054,-0.00631416377098,0.0702074470294,-0.0279525504743,0.573791932937,0.818986553298,0.002142455315,0.0,0.818944750911,-0.573731417541,-0.0119374361786,0.0,-0.00854757035342,0.00860432277337,-0.999926449631,0.0,0.65119990537,0.247502265325,0.303445253919,1.0,-0.0242382857143,-0.0318560326531,1.024
0.457125109876,0.490074242112,-0.12418740123,-1.44663653393,0.0740062285263,1.92738718711,0.146923182313,-0.0240306526576,-0.127482096742,-0.00164677253562,-0.211149661245,-0.0109464833307,0.0728086904993,-0.0360433923469,0.573772167177,0.819000606601,0.00206239188098,0.0,0.818957566225,-0.573711792751,-0.0120012700805,0.0,-0.00864599539476,0.00857517127706,-0.999925853852,0.0,0.650729521214,0.246913429301,0.303391076482,1.0,-0.0275708571429,-0.0362359836735,1.042
0.456751354719,0.487748599386,-0.124205030455,-1.45029083193,0.0737837887164,1.9287349609,0.146400245654,-0.0242760888335,-0.152094007043,-0.00317671114367,-0.230804053013,-0.0204095781464,0.0939492634462,-0.0265862440277,0.573784226317,0.818992122904,0.00207633118655,0.0,0.818949224455,-0.573723752091,-0.0119987896555,0.0,-0.00863583995999,0.00858529134762,-0.999925854772,0.0,0.650276192431,0.246313135432,0.303385637645,1.0,-0.0305331428571,-0.0401292734694,1.058
0.456310838704,0.484995409033,-0.124233770236,-1.45449688507,0.0735284612093,1.93033346615,0.145765500013,-0.022906506241,-0.172718623316,0.000346180216163,-0.257526620295,-0.0164554047173,0.0985663587568,-0.0427242696355,0.573784990407,0.818991274603,0.00219631717526,0.0,0.818950013069,-0.573724093728,-0.0119284228303,0.0,-0.0085093579684,0.00864319036684,-0.999926440338,0.0,0.649767378752,0.245615075053,0.303435032015,1.0,-0.0336805714286,-0.0442658938775,1.075
0.455788829917,0.481821562315,-0.124288070443,-1.45944676895,0.0732213499519,1.93202843304,0.145017376203,-0.0310048027814,-0.181111988965,-0.00238900838682,-0.285633132586,-0.0173973482303,0.102338925268,-0.0473435173525,0.573798075848,0.818982302156,0.00212221793017,0.0,0.818939993875,-0.573737399925,-0.0119761955518,0.0,-0.00859086180749,0.00861005287256,-0.999926029306,0.0,0.649131248166,0.244765611602,0.303429587377,1.0,-0.0370131428571,-0.048645844898,1.093
0.455325166185,0.478946053996,-0.124325848455,-1.46393090762,0.0729443676897,1.93366060611,0.144346170242,-0.0314843138928,-0.19210920831,-0.00283954774751,-0.302546845796,-0.0167419567634,0.111100870433,-0.0457031381796,0.57379900261,0.818981615855,0.00213644503442,0.0,0.818939500664,-0.573738275242,-0.0119679854454,0.0,-0.00857596488334,0.00861700324554,-0.99992609731,0.0,0.64856572986,0.244015763597,0.303430888613,1.0,-0.0397902857143,-0.0522958040816,1.108
0.454700323915,0.475200957949,-0.124363027059,-1.46964772445,0.0725986729556,1.93576907447,0.143534232924,-0.0336742463342,-0.209680391433,-0.0027509901801,-0.329627484456,-0.0210831927646,0.118607241431,-0.055246369381,0.573855862301,0.818941464689,0.00225246905605,0.0,0.818900818736,-0.57379461196,-0.0119138263989,0.0,-0.0084644347998,0.00868153502207,-0.999926489445,0.0,0.647852599558,0.243049043517,0.303486329767,1.0,-0.0431228571429,-0.056675755102,1.126
0.454105349698,0.471645886001,-0.124392625057,-1.47513044265,0.0722648282106,1.93769550706,0.14271667299,-0.0330616019715,-0.22154099609,-0.0030451153203,-0.346651508818,-0.0209243947529,0.125523060724,-0.0546676477594,0.573867218313,0.818933497342,0.00225600925711,0.0,0.818892673892,-0.573805722949,-0.0119385032085,0.0,-0.00848249247708,0.00869871255713,-0.999926187136,0.0,0.647140761633,0.242121954109,0.303502688063,1.0,-0.0460851428571,-0.060569044898,1.142
0.453431244977,0.467569611581,-0.124401173151,-1.4812142033,0.0718833993257,1.93998839923,0.141738139244,-0.0388808275135,-0.248485364416,0.000144317152626,-0.369801131591,-0.028396028303,0.140756877317,-0.0618369128668,0.573809997575,0.818972883942,0.00249979043604,0.0,0.818935255107,-0.573747580663,-0.011811372831,0.0,-0.00823910398415,0.0088248202391,-0.999927117201,0.0,0.646377821349,0.241109476768,0.303620397921,1.0,-0.0492325714286,-0.0647056653061,1.159
0.452712308386,0.463320566841,-0.124405135524,-1.4877884066,0.0714462772437,1.94226101911,0.140733729958,-0.0406918156644,-0.25163219815,-0.00150023262285,-0.397478173154,-0.0242862116898,0.134997008493,-0.0589384829061,0.573768282326,0.819002260277,0.00245005280712,0.0,0.818963809664,-0.573705873734,-0.0118573101909,0.0,-0.00830571407149,0.00881002270228,-0.99992669662,0.0,0.645498524894,0.240006604553,0.303618318565,1.0,-0.05238,-0.0688422857143,1.176
0.451985877687,0.45909345618,-0.124415024736,-1.49431469292,0.0710021109287,1.94452368864,0.139766174605,-0.0467168341849,-0.274262734578,0.000545619691019,-0.409880398426,-0.0376479082327,0.150883933521,-0.0610021653802,0.57375287186,0.819013163795,0.00241380682721,0.0,0.818974192745,-0.573690554117,-0.0118813566858,0.0,-0.00834637004667,0.00879397732914,-0.999926499334,0.0,0.644571123364,0.238832853647,0.30362006926,1.0,-0.0555274285714,-0.0729789061224,1.193
0.451150811641,0.454448745441,-0.124420008575,-1.50157313894,0.0705109110296,1.94712202652,0.13863448542,-0.0520679333572,-0.280208180039,0.0018711155066,-0.437149893701,-0.031848008213,0.157317287421,-0.0647386112628,0.573719704267,0.819036497725,0.00237975441562,0.0,0.818997049892,-0.573657489072,-0.0119022855109,0.0,-0.00838340370358,0.00877775656828,-0.999926332053,0.0,0.643663496106,0.237662274448,0.303583050566,1.0,-0.0584897142857,-0.0768721959184,1.209
0.450271444572,0.449434113977,-0.124470877312,-1.50905180636,0.069996968458,1.94993377709,0.137445899987,-0.0525406095218,-0.297056670147,-0.00318167320648,-0.450887553093,-0.0305792070461,0.172766258359,-0.0686207186231,0.573703172131,0.819047262077,0.00264568951625,0.0,0.819011787684,-0.573640515861,-0.0117045760043,0.0,-0.00806908158601,0.008881974288,-0.999927997635,0.0,0.642711493099,0.23635958599,0.303709811276,1.0,-0.0616371428571,-0.0810088163265,1.226
0.449322776494,0.44424637338,-0.124517025864,-1.51704007365,0.0694704351253,1.95261170247,0.136267398459,-0.0555508324969,-0.312267674461,-0.00178097480617,-0.480056618566,-0.0279910787884,0.162722703302,-0.0655600307548,0.573762315935,0.819006174609,0.00253725565777,0.0,0.818969015505,-0.573699746158,-0.0117940579296,0.0,-0.00820394129253,0.00884509005548,-0.999927227217,0.0,0.64161298881,0.23494950577,0.303695400234,1.0,-0.0647845714286,-0.0851454367347,1.243
0.448378185523,0.439200025746,-0.12453614168,-1.52492691225,0.0689202455485,1.95526400489,0.13500206105,-0.0590546096352,-0.317169510195,8.43078947384e-07,-0.497173049544,-0.0284959083533,0.174148626363,-0.0750078674479,0.573710383116,0.819043077972,0.00236212446414,0.0,0.819003461318,-0.573648302179,-0.0119038925473,0.0,-0.00839493373189,0.008764143603,-0.999926354725,0.0,0.640514517991,0.233564908822,0.303623565244,1.0,-0.0677468571429,-0.0890387265306,1.259
0.447304859621,0.433517955494,-0.124557760045,-1.53338964303,0.0683676124226,1.95836720283,0.133608167701,-0.0626127739326,-0.346023686145,-0.00135547464212,-0.505959866826,-0.0356102707706,0.194456045457,-0.0825352781131,0.573682389498,0.819061855873,0.00263422360944,0.0,0.819025790889,-0.573619292012,-0.0117647180513,0.0,-0.00812514675333,0.00890688012358,-0.999927322097,0.0,0.639394559908,0.232068270995,0.303743113681,1.0,-0.0708942857143,-0.0931753469388,1.276
0.446072765292,0.427409739854,-0.124606343733,-1.54281591031,0.0676915908524,1.96161643059,0.132106601278,-0.0638313253017,-0.347759365582,-0.0036943539866,-0.535420967583,-0.0384298431798,0.168558753755,-0.0882250465254,0.57371485593,0.819039406256,0.00254204385993,0.0,0.819002295281,-0.573652259163,-0.0117929124107,0.0,-0.00820076866592,0.00884787914976,-0.999927228566,0.0,0.638101010584,0.230341423609,0.30370057407,1.0,-0.0742268571429,-0.0975552979592,1.294
0.444928825327,0.421711845403,-0.124710575637,-1.55159430167,0.0670462093519,1.96449757266,0.130649784043,-0.0726822752801,-0.348443437532,-0.0058729051216,-0.563186537386,-0.046382023611,0.18075793357,-0.0860287205424,0.573726199283,0.819032087769,0.00233117195292,0.0,0.818992461255,-0.573664647743,-0.0118729624795,0.0,-0.00838718778977,0.00872120980326,-0.999926795111,0.0,0.636865511111,0.228692474598,0.303648332767,1.0,-0.0771891428571,-0.101448587755,1.31
0.443646540474,0.415372581691,-0.124766153375,-1.56098546559,0.0663891241434,1.96787090196,0.129147762529,-0.0762719195862,-0.373603745011,0.000850639611132,-0.558155011522,-0.0401496349205,0.201187351892,-0.0891029399777,0.573796248084,0.818982270537,0.00257936655312,0.0,0.818946177708,-0.573734082541,-0.0117092890129,0.0,-0.00810998574159,0.00883127851238,-0.999928115742,0.0,0.63559303394,0.22695423068,0.303771150977,1.0,-0.0803365714286,-0.105585208163,1.327
0.442287112537,0.408929383046,-0.124778875132,-1.57076253957,0.0657261392954,1.9712281768,0.127469381656,-0.0817645133239,-0.38117560375,-0.00144872506978,-0.580104697122,-0.0424576993996,0.190293983207,-0.0927003907723,0.573760410259,0.81900730457,0.00260261050129,0.0,0.818971130831,-0.573697748068,-0.0117442593348,0.0,-0.00812567884275,0.00887002469492,-0.999927645385,0.0,0.634210819591,0.225151534382,0.30376906079,1.0,-0.083484,-0.109721828571,1.344
0.440848716846,0.402326345366,-0.124854563173,-1.5809281428,0.0650011249048,1.97459676887,0.125807373728,-0.0862862801121,-0.386524663454,7.63936897844e-05,-0.595807383998,-0.0426537745933,0.20205982525,-0.105547489413,0.573838571308,0.818953116218,0.00241545394503,0.0,0.818914350815,-0.573776430447,-0.0118592071296,0.0,-0.00832636440045,0.00878348948478,-0.999926758302,0.0,0.632748490173,0.223214968748,0.303682933535,1.0,-0.0866314285714,-0.11385844898,1.361
0.439428572936,0.395782178773,-0.124908756201,-1.59050917739,0.0642949708175,1.97802134522,0.12414226766,-0.0911069018135,-0.401699387475,-0.00522099803856,-0.608944367831,-0.0415487425637,0.216568473139,-0.0969354141006,0.573862478953,0.818935472582,0.00270072181876,0.0,0.818900977834,-0.573799903641,-0.0116449983447,0.0,-0.00798698207744,0.00889442260094,-0.999928546129,0.0,0.631333380784,0.221259266688,0.303821496854,1.0,-0.0897788571428,-0.117995069388,1.378
0.437754246206,0.388320492233,-0.124944213566,-1.60185761408,0.0634365949472,1.98173047844,0.122216655309,-0.0895699214317,-0.412349291451,-0.00716382535098,-0.634948076863,-0.0495484756242,0.202932140259,-0.111943716718,0.573882365081,0.818922030297,0.00254681077824,0.0,0.818885465545,-0.573820252825,-0.0117328030754,0.0,-0.00814699616579,0.00881896490011,-0.999927923558,0.0,0.629848068221,0.219326565304,0.303772563041,1.0,-0.0927411428571,-0.121888359184,1.394
0.43633004556,0.381859264074,-0.124999659094,-1.61143009815,0.0627121801366,1.9848708996,0.120476416029,-0.0990125463094,-0.449832314481,-0.00203531237544,-0.633802100261,-0.0493875702159,0.222354336269,-0.119128783457,0.573809036706,0.818973486229,0.00252292474846,0.0,0.818936605938,-0.573747015181,-0.0117449958152,0.0,-0.00817147695085,0.00880566970182,-0.999927840969,0.0,0.628330601977,0.217357552709,0.303805710019,1.0,-0.0957034285714,-0.12578164898,1.41
0.434500579309,0.374021443392,-0.12500475513,-1.62314188429,0.0618781598291,1.98887088052,0.118401835869,-0.105105637663,-0.437699712499,0.000603882985772,-0.660452582207,-0.0526952965231,0.223873491875,-0.121056954213,0.573809536265,0.818972803371,0.0026287509687,0.0,0.818936945753,-0.573746747649,-0.0117343659526,0.0,-0.00810204525082,0.00888624346283,-0.999927693156,0.0,0.626607410678,0.215102393405,0.303814939764,1.0,-0.099036,-0.1301616,1.428
0.432566153383,0.365933622482,-0.125108060044,-1.63521535914,0.0609431904907,1.99272649971,0.116327244731,-0.108380838277,-0.454281672593,-0.00862610404416,-0.658916002117,-0.0459968211627,0.222682504709,-0.111846838906,0.573938334793,0.818883021091,0.00247639358111,0.0,0.818845244905,-0.573876157346,-0.0118054151312,0.0,-0.0082462695417,0.00880353290564,-0.999927245777,0.0,0.624784264477,0.212670391875,0.303792628075,1.0,-0.102368571429,-0.13454155102,1.446
0.431043306014,0.359458189394,-0.12514720058,-1.64468608989,0.0601883264708,1.9959424578,0.114534280073,-0.115629182667,-0.458286894146,-0.000502405928504,-0.692729714338,-0.0500512802424,0.22474874886,-0.135685081272,0.57386152363,0.818936404033,0.0026200664177,0.0,0.818900932847,-0.573799307069,-0.0116775122167,0.0,-0.00805990274599,0.00884702011903,-0.999928381537,0.0,0.623370936039,0.210800225819,0.303864997975,1.0,-0.104960571429,-0.137948179592,1.46
0.428942662194,0.351072385324,-0.125166926368,-1.65731432161,0.0592650838802,1.9998903755,0.112215748163,-0.119047549057,-0.462474452045,-0.00437028651558,-0.698751944636,-0.055641510034,0.219307176974,-0.138564564661,0.573866242578,0.818933815012,0.00238519605044,0.0,0.818894292651,-0.573803834861,-0.0119181988629,0.0,-0.00839174298928,0.00879284472181,-0.999926129537,0.0,0.62138960123,0.208280368678,0.303752735291,1.0,-0.108293142857,-0.142328130612,1.478
0.42688692106,0.342821287093,-0.12523967267,-1.66912999942,0.0583554966727,2.00389706623,0.109981103776,-0.129743203592,-0.483259830327,-0.00268810588659,-0.707811658642,-0.0454118186289,0.222564146795,-0.125574319509,0.573906418583,0.818904590926,0.00272774109896,0.0,0.818869905296,-0.57384313986,-0.0116993990187,0.0,-0.0080155503747,0.00894819756629,-0.999927837753,0.0,0.619614474347,0.205860615353,0.303922890276,1.0,-0.111440571429,-0.14646475102,1.495
0.424763508721,0.334554438373,-0.125237627363,-1.68144266692,0.0573725281988,2.00778219519,0.107621809045,-0.124661064833,-0.488572137644,-0.00173997398456,-0.754939418218,-0.0546377283562,0.22290178132,-0.138614771428,0.573822135958,0.818964162987,0.00256961654212,0.0,0.818927056439,-0.573759039681,-0.0118231771753,0.0,-0.00820857572015,0.00888890043042,-0.999926800688,0.0,0.617651542921,0.203381204416,0.303840185501,1.0,-0.114588,-0.150601371429,1.512
0.422426967459,0.325464240691,-0.125246489001,-1.69454269475,0.0562576139168,2.01197786864,0.105054184459,-0.131504338564,-0.516160314789,0.000863193541883,-0.740239514464,-0.0594526676423,0.231757370918,-0.142274520863,0.573718374465,0.81903654584,0.00266651087333,0.0,0.819001141082,-0.573655420849,-0.0117190416663,0.0,-0.00806882033946,0.00890747647956,-0.999927772892,0.0,0.615573309581,0.200698104113,0.303928336669,1.0,-0.117920571429,-0.154981322449,1.53
0.420082960731,0.316803392085,-0.125259963674,-1.70722595093,0.0552657286223,2.01597940454,0.102621571173,-0.141722983476,-0.512061572194,-4.53329965772e-05,-0.747516223668,-0.0543437484168,0.235457478549,-0.146234485781,0.573749375132,0.819014902957,0.00264389322842,0.0,0.818978694631,-0.573685938597,-0.0117935787253,0.0,-0.00814250913543,0.00893202261826,-0.999926956591,0.0,0.613528173109,0.19806739071,0.303898387878,1.0,-0.121068,-0.159117942857,1.547
0.417939451281,0.308941799141,-0.125346275026,-1.71843276027,0.0543176669905,2.01953719863,0.100266139549,-0.143309019564,-0.536567184844,-0.00238340437563,-0.74513938974,-0.0680339198423,0.246202889292,-0.147006116077,0.57368797258,0.819057486522,0.00277322730192,0.0,0.819023410756,-0.573624585253,-0.0116719633412,0.0,-0.00796937103126,0.0089675757225,-0.999928033266,0.0,0.611737306606,0.195658595788,0.303992548953,1.0,-0.123845142857,-0.162767902041,1.562
0.41524531601,0.299465800119,-0.125399331792,-1.73225630671,0.0531676618598,2.02377399108,0.0974483150937,-0.153560848495,-0.536353029821,-0.00147134854035,-0.803241091047,-0.0652922328591,0.223066468074,-0.152270966089,0.573675262661,0.819066802841,0.0026480927156,0.0,0.819030848976,-0.573612039733,-0.0117661888185,0.0,-0.00811847309895,0.00891901280463,-0.999927268158,0.0,0.609457307161,0.192694639348,0.30393137763,1.0,-0.127177714286,-0.167147853061,1.58
0.412544249138,0.29022747522,-0.125497248247,-1.74535608638,0.0521336098647,2.02781095495,0.0947574830902,-0.165899765241,-0.560768166703,-0.0063323141685,-0.767164051867,-0.0644602523164,0.25264646578,-0.174557737391,0.573809811825,0.818972054982,0.00279641066348,0.0,0.81893764819,-0.573745615837,-0.0117406808483,0.0,-0.00801101539983,0.00902717764152,-0.999927164196,0.0,0.607309200364,0.189795636082,0.304018133036,1.0,-0.130325142857,-0.171284473469,1.597
0.410137397938,0.282086473084,-0.125564544225,-1.75710303576,0.0511294362157,2.03138628088,0.0922570272179,-0.162974449044,-0.553975387199,-0.00209470992045,-0.786970647886,-0.0701037482893,0.245305676917,-0.170167728608,0.57378378869,0.818990546429,0.0027194848143,0.0,0.81895509148,-0.573719818039,-0.0117845419362,0.0,-0.0080913618907,0.00898908812279,-0.999926860404,0.0,0.605200740585,0.187037547939,0.303973583367,1.0,-0.133287428571,-0.175177763265,1.613
0.407245489667,0.272583300129,-0.125616311336,-1.77057664745,0.0499431726211,2.03544154374,0.0893399127525,-0.169183739631,-0.568429319633,-0.00344780162541,-0.804786656611,-0.0691909652919,0.252996350808,-0.176204292545,0.573786111997,0.81898877243,0.00276318926792,0.0,0.818953982697,-0.573722091991,-0.0117508419832,0.0,-0.00803865969258,0.00900556817523,-0.999927137192,0.0,0.603060624158,0.184202961388,0.304017965352,1.0,-0.136249714286,-0.179071053061,1.629
0.404232714573,0.263001558739,-0.12576349241,-1.78419763407,0.0487477084527,2.03954961914,0.086342784452,-0.180119019007,-0.567566356785,-0.012965016573,-0.783248540834,-0.0695223963619,0.24037350866,-0.181534906132,0.573876298492,0.818925560931,0.00276885954788,0.0,0.818891080651,-0.573812511127,-0.0117195138579,0.0,-0.00800875740321,0.00899311876565,-0.999927489181,0.0,0.600756362992,0.181067200634,0.30401641318,1.0,-0.139397142857,-0.183207673469,1.646
0.401298530888,0.253774523602,-0.125886972418,-1.79709411435,0.0475840274982,2.04331024949,0.0834916061491,-0.181503026504,-0.588014480898,-0.00279638382243,-0.788916848396,-0.0748368503674,0.241626554896,-0.179378674183,0.573977104957,0.818854816941,0.0027961863157,0.0,0.818820906389,-0.573913451279,-0.0116799230692,0.0,-0.00795954557378,0.00899375740054,-0.99992787638,0.0,0.598531575948,0.178067115993,0.304076696417,1.0,-0.142359428571,-0.187100963265,1.662
0.397912700622,0.243335254727,-0.125897843853,-1.81189623073,0.0462517775213,2.04762915581,0.0801011348319,-0.194061019088,-0.581542979912,0.00193276361886,-0.842692111066,-0.0752081505981,0.228960681357,-0.194575774741,0.573890818381,0.81891552516,0.00272729375551,0.0,0.818880426277,-0.573827088871,-0.0117501675954,0.0,-0.00805755476382,0.00897681360204,-0.999927243668,0.0,0.595914274859,0.174711082968,0.304021960593,1.0,-0.145692,-0.191480914286,1.68
0.394605964473,0.23320288234,-0.125912603179,-1.82577090915,0.0450438102833,2.05172094691,0.07685781102,-0.197285891522,-0.588706651199,0.00154694671812,-0.806769145609,-0.0737542680051,0.24892187833,-0.18996934405,0.573884078269,0.818919271731,0.00300632633495,0.0,0.818887544914,-0.573819099444,-0.0116437451134,0.0,-0.00781035017178,0.00914417917744,-0.999927688594,0.0,0.593608265609,0.171702835287,0.304158895468,1.0,-0.148654285714,-0.195374204082,1.696
0.391193148935,0.223080480501,-0.125911652909,-1.84002960776,0.04367097074,2.05566981189,0.073452583215,-0.202979538705,-0.605770937055,-0.00125404721712,-0.830706309228,-0.0806447832734,0.223008204397,-0.200227117511,0.573711542209,0.819040858511,0.00280808228394,0.0,0.819006408125,-0.573647097442,-0.0117583139619,0.0,-0.0080198457173,0.00904589198339,-0.999926924286,0.0,0.590848270176,0.168225571804,0.304074146612,1.0,-0.151986857143,-0.199754155102,1.714
0.387580689459,0.212651557607,-0.126005687293,-1.85421245186,0.042392588208,2.05971729888,0.0700072702153,-0.215336567821,-0.60752629861,-0.0157040148378,-0.851705485467,-0.065539589592,0.238211076509,-0.203114254643,0.573779406285,0.81899249534,0.00303848667859,0.0,0.818960957419,-0.573714066159,-0.0116562179281,0.0,-0.00780328269716,0.00917667644115,-0.999927446062,0.0,0.588291021601,0.164814209154,0.304190737049,1.0,-0.155134285714,-0.20389077551,1.731
0.383858478348,0.202275292678,-0.126105442851,-1.86870459908,0.0410025721046,2.06353812959,0.0664086421401,-0.222300221329,-0.614162863571,-0.00864418243303,-0.845660458318,-0.0800988856158,0.216858638424,-0.211302508475,0.573760651795,0.819006622363,0.00275932574734,0.0,0.818970904788,-0.57369566846,-0.0118610286985,0.0,-0.0081314043777,0.00906537359742,-0.999925846883,0.0,0.585572532112,0.161304728407,0.304081994295,1.0,-0.158281714286,-0.208027395918,1.748
0.380188486498,0.19221867234,-0.126191117728,-1.88226314865,0.0397134345132,2.06735318916,0.0629326780292,-0.234582913415,-0.610893184308,-0.00626473898356,-0.851745723221,-0.0837249521479,0.234158642891,-0.217836372745,0.573788857894,0.818986067476,0.00298575594402,0.0,0.818953546552,-0.57372334631,-0.0117199569538,0.0,-0.00788563538804,0.00917015268845,-0.999926859852,0.0,0.583077610242,0.157959079104,0.304183255371,1.0,-0.161244,-0.211920685714,1.764
0.376084454491,0.181517639655,-0.126382239911,-1.89690221615,0.0383338762421,2.07117105832,0.0590862933302,-0.243789440685,-0.632064155976,-0.00843780798955,-0.852479598108,-0.0816520753704,0.233947933052,-0.231014239348,0.573922918446,0.818892516285,0.00287703956675,0.0,0.818857952954,-0.57385705275,-0.0118525437406,0.0,-0.00805510500745,0.00915850955451,-0.999925615727,0.0,0.580312150589,0.1542224387,0.304141928667,1.0,-0.164391428571,-0.216057306122,1.781
0.371675856348,0.170021117085,-0.126460429635,-1.91242247946,0.0367374482116,2.07529162313,0.0550062496585,-0.246061920329,-0.63368490004,-0.00234094944155,-0.884708767101,-0.0953460703613,0.221648185677,-0.233572940197,0.573935534134,0.818883645464,0.00288526428532,0.0,0.818849568476,-0.573870068904,-0.0118014882058,0.0,-0.00800843305678,0.00913606674953,-0.999926195919,0.0,0.577344359816,0.150320778006,0.304156985993,1.0,-0.167724,-0.220437257143,1.799
0.367872139373,0.160280898587,-0.12647360633,-1.92546029442,0.0354422250767,2.07862950977,0.0513637538764,-0.251084330218,-0.655480776383,0.000608838179768,-0.855885418338,-0.0872974480436,0.227474173757,-0.244876661198,0.57380964732,0.818971782734,0.00290768453322,0.0,0.818937610709,-0.57374367621,-0.0118376803519,0.0,-0.00802661510508,0.00917396403936,-0.999925703157,0.0,0.57479526923,0.147045334133,0.304177975512,1.0,-0.170501142857,-0.224087216327,1.814
0.363169072712,0.148523011038,-0.126544091619,-1.94115796859,0.0337736401501,2.0826923219,0.0470206678644,-0.268207084379,-0.653226765037,-0.00409174745329,-0.8940130806,-0.0914058960476,0.219395833267,-0.248881022577,0.573772848233,0.818997485486,0.0029298975514,0.0,0.818964108042,-0.573707382279,-0.0117633395922,0.0,-0.0079533948199,0.00914914194674,-0.999926515656,0.0,0.571718624426,0.143022853924,0.304189381104,1.0,-0.173833714286,-0.228467167347,1.832
0.358808837467,0.137865626716,-0.126649585047,-1.95517402313,0.032377569746,2.08617108422,0.0430146243187,-0.269444018585,-0.67417584324,-0.00563505232454,-0.860436637482,-0.094117744914,0.228174312906,-0.256552478059,0.573818361182,0.818965235814,0.00302948841344,0.0,0.81893273122,-0.573752050306,-0.0117691719028,0.0,-0.00790051956357,0.00923449194692,-0.999926150248,0.0,0.568927405241,0.13935743747,0.304246119933,1.0,-0.176796,-0.232360457143,1.848
0.354271604103,0.127181231237,-0.126791461824,-1.96930759356,0.0308451153332,2.08961965888,0.0388059962518,-0.292052595481,-0.677442038762,-0.00597727730712,-0.883978874165,-0.102315839793,0.214668648744,-0.256450213216,0.573799812899,0.818978457902,0.00296767759205,0.0,0.818945353935,-0.573733959067,-0.0117727814515,0.0,-0.00793914983749,0.00918576242455,-0.999926293118,0.0,0.56608426345,0.135575895206,0.304228847743,1.0,-0.179758285714,-0.236253746939,1.864
0.349234563332,0.115602922138,-0.126976943334,-1.98428120726,0.0292519035058,2.0932877862,0.0343333585499,-0.298394386058,-0.690823982984,-0.010017982746,-0.892632453918,-0.0900751500404,0.220641959954,-0.266300055242,0.573976858941,0.818853712633,0.00314795305257,0.0,0.818823302734,-0.573910783603,-0.0116429492087,0.0,-0.00772737675835,0.00926057902581,-0.999927262017,0.0,0.563069125483,0.131467009528,0.304324455383,1.0,-0.182905714286,-0.240390367347,1.881
0.344082619849,0.104033861542,-0.127063898673,-1.9994658556,0.0275987231434,2.09671115905,0.0296324883278,-0.305824770903,-0.684036988172,-0.00172977914838,-0.874625076134,-0.103583992753,0.19468668814,-0.273116905628,0.573936161932,0.818882913492,0.00296697127787,0.0,0.818849552447,-0.573870005707,-0.0118056727635,0.0,-0.00796496123432,0.00920538285005,-0.999925907415,0.0,0.559888572044,0.127356770255,0.304256218151,1.0,-0.186053142857,-0.244526987755,1.898
0.339131131863,0.0929557998546,-0.127093896635,-2.01365491184,0.0260620101568,2.10003267956,0.0250764507415,-0.316350217457,-0.680623388634,-0.000601547589797,-0.904983646011,-0.0891856148457,0.190994622575,-0.291515172097,0.573818131503,0.818965051394,0.00312145079189,0.0,0.818933674401,-0.573751422876,-0.0117340777228,0.0,-0.00781901327224,0.00928966657512,-0.999926279846,0.0,0.556914455159,0.123517400639,0.304318801807,1.0,-0.189015428571,-0.248420277551,1.914
0.333313562192,0.080366763007,-0.127203748199,-2.02974958204,0.0243210009661,2.1035149779,0.0197651002505,-0.329672491386,-0.716495738784,-0.00970180833941,-0.874262796555,-0.101783714908,0.196582535118,-0.301128392879,0.573768837964,0.8189996134,0.00311459997907,0.0,0.818967358868,-0.573701225868,-0.0118370371248,0.0,-0.00790783125319,0.00934265862996,-0.999925087661,0.0,0.553462931408,0.119046777903,0.304334517077,1.0,-0.192348,-0.252800228571,1.932
0.327946596798,0.0690906505809,-0.127357665615,-2.04403904601,0.0226939243148,2.1067283818,0.0149864011365,-0.342634204379,-0.69555640315,-0.00558084274738,-0.915822449312,-0.0976364954029,0.195020874332,-0.299614006653,0.573829822855,0.818956425002,0.00323345814301,0.0,0.818926064841,-0.573762205543,-0.0117379179125,0.0,-0.00775775657575,0.00938371117479,-0.999925878842,0.0,0.550410307604,0.114976075261,0.304374913478,1.0,-0.195310285714,-0.256693518367,1.948
0.322306724916,0.0576683363889,-0.127543929495,-2.05840239259,0.0209565685368,2.10968092372,0.00999119299174,-0.353360001498,-0.720781885898,-0.00671081424561,-0.888339676039,-0.109643787421,0.188883909306,-0.316537349453,0.573884152439,0.818918496441,0.00319729053659,0.0,0.818888048306,-0.573817110627,-0.0117061861891,0.0,-0.0077519016236,0.00933639750137,-0.999926367141,0.0,0.547076312916,0.11050072471,0.30441415087,1.0,-0.198457714286,-0.260830138775,1.965
0.315887142887,0.0447859537409,-0.127623911768,-2.07463907299,0.019141042516,2.11304608204,0.00427172639536,-0.357627089787,-0.709955059017,-0.00565386026892,-0.913047725621,-0.100472290769,0.178658613083,-0.324707109962,0.573877712405,0.81892299689,0.00320051108951,0.0,0.818891803138,-0.573809713834,-0.0118056750819,0.0,-0.00783160524862,0.00939606700984,-0.999925187144,0.0,0.543660849567,0.106109848256,0.304370346023,1.0,-0.19998,-0.262830857143,1.982
0.309627348537,0.0326087251109,-0.127695313085,-2.08968763334,0.0173360837366,2.11608204157,-0.00129089283462,-0.371926639475,-0.723881963658,-0.00127455103736,-0.890029163697,-0.11202848707,0.18016230838,-0.32508696538,0.573821878565,0.818961747183,0.00329472795561,0.0,0.818932028611,-0.573753867644,-0.0117293981002,0.0,-0.00771571400561,0.00942892503674,-0.999925778811,0.0,0.540283064447,0.101676967005,0.304418872466,1.0,-0.19998,-0.262830857143,1.999
0.303608578471,0.021268950039,-0.127800609923,-2.1037981127,0.0156342930242,2.11866641236,-0.00661185666114,-0.381145375109,-0.716896194288,-0.00860911590461,-0.892058225677,-0.095110673271,0.153118968258,-0.337525282139,0.573811054272,0.818969951294,0.00313684130485,0.0,0.818937492913,-0.573742772822,-0.0118895011297,0.0,-0.00793755695551,0.00939138494511,-0.999924395681,0.0,0.537029673252,0.0974600412856,0.304358311527,1.0,-0.19998,-0.262830857143,2.015
0.296603918162,0.00851784878521,-0.128016871721,-2.11923224687,0.0136966573172,2.12156055658,-0.0126829988745,-0.388500524558,-0.688476242243,-0.0134288953185,-0.877143454614,-0.0995040411937,0.14797707047,-0.347894904448,0.573964686807,0.818861843349,0.00325064722795,0.0,0.81883145777,-0.573896691152,-0.0117634413311,0.0,-0.00776724710784,0.00941371337088,-0.999925523163,0.0,0.533490904935,0.0926235874182,0.304439798024,1.0,-0.19998,-0.262830857143,2.033
0.289573633483,-0.00414169943663,-0.128085129501,-2.13452529273,0.0119217760967,2.12424375178,-0.0189024795331,-0.39109321861,-0.707928265194,-0.000781853085105,-0.834819986805,-0.0964964572743,0.147698256438,-0.34270835651,0.57394182379,0.818877458833,0.00335219635622,0.0,0.818847386196,-0.573872249698,-0.0118467736855,0.0,-0.00777747320706,0.00954447988022,-0.999924204035,0.0,0.529879748626,0.0879403301644,0.304468681027,1.0,-0.19998,-0.262830857143,2.051
0.284034992573,-0.0139143520654,-0.12810693923,-2.14623961424,0.0104192475119,2.126333502,-0.0237554384866,-0.405288114315,-0.692623879604,-0.00153553448768,-0.857569742674,-0.103381310052,0.1470420117,-0.348382817915,0.573852432162,0.818939837449,0.00341696377948,0.0,0.818911018769,-0.57378315578,-0.0117635191718,0.0,-0.00767316595007,0.00954889722316,-0.999924967728,0.0,0.526893215424,0.0840579688252,0.304497508545,1.0,-0.19998,-0.262830857143,2.066
0.276752804258,-0.0264426701709,-0.128211726522,-2.1611272883,0.00848244236195,2.12864242544,-0.0301657586984,-0.413673989872,-0.700584112893,-0.00643329553704,-0.792525011272,-0.101322356102,0.142459346711,-0.352250057401,0.573816575619,0.818965161601,0.00336875780258,0.0,0.818935517388,-0.573747223179,-0.0118105527718,0.0,-0.00773976483902,0.00953606996059,-0.999924576861,0.0,0.52347040923,0.0795863578232,0.3045246466,1.0,-0.19998,-0.262830857143,2.083
0.269648469807,-0.0381723840066,-0.128397780573,-2.17498559555,0.00669325282808,2.1308737012,-0.0362690216367,-0.416188173001,-0.684005405323,-0.00258767625127,-0.826447533571,-0.101970531574,0.124090557431,-0.375131027326,0.573976390122,0.81885287853,0.00343712178193,0.0,0.818824188259,-0.573906861504,-0.0117732723421,0.0,-0.00766813780803,0.00957216310571,-0.999924783849,0.0,0.520093414927,0.0750346523926,0.304545704141,1.0,-0.19998,-0.262830857143,2.1
0.262971231834,-0.0491303647342,-0.128452490497,-2.18783528784,0.00510691047497,2.13279554705,-0.0421490565656,-0.420690674935,-0.700969455803,3.99049237259e-05,-0.797860871234,-0.102254653691,0.12991443742,-0.368088886326,0.573934116391,0.818882186234,0.00351311996701,0.0,0.818853752813,-0.57386341592,-0.0118346218278,0.0,-0.0076752577433,0.0096692108529,-0.999923795486,0.0,0.516885099622,0.0708903284878,0.304557010757,1.0,-0.19998,-0.262830857143,2.116
0.255725913909,-0.0606614685422,-0.12849906653,-2.20128215249,0.00326670091452,2.13477068297,-0.0485107496897,-0.425592505652,-0.682311438782,-0.0053582397623,-0.789922661285,-0.10513897089,0.101574942907,-0.381462271401,0.573823393222,0.818959780995,0.00351246406472,0.0,0.818931738684,-0.573753214829,-0.0117814578857,0.0,-0.00763339958735,0.00963712998926,-0.999924425612,0.0,0.513496030202,0.0664607638944,0.304558232948,1.0,-0.19998,-0.262830857143,2.133
0.248338544969,-0.0721603830132,-0.128650061415,-2.21458316648,0.00147295272269,2.13650849938,-0.0549521327727,-0.444372083079,-0.692936661345,-0.0150422042122,-0.77473752381,-0.109783700955,0.114034753227,-0.371883376225,0.573850188635,0.818941208685,0.00346476866893,0.0,0.818912173693,-0.573779703254,-0.0118511945837,0.0,-0.0077175662651,0.00963833705728,-0.999923767909,0.0,0.510074000977,0.0619731928017,0.304546751282,1.0,-0.19998,-0.262830857143,2.15
0.240729206619,-0.0835632599143,-0.128819294255,-2.22764111769,-0.000249490293754,2.13818728778,-0.0615698790926,-0.443147586967,-0.671122830702,-0.000757602353304,-0.747016780976,-0.106213006088,0.0909206568244,-0.383401593508,0.573943649126,0.818875472382,0.00352069027237,0.0,0.818846680991,-0.573872346038,-0.0118907688385,0.0,-0.00771678073526,0.00970772370617,-0.999923102741,0.0,0.506686295672,0.0574435616169,0.304550314498,1.0,-0.19998,-0.262830857143,2.167
0.233140299197,-0.0949004256976,-0.12887384556,-2.24053465612,-0.00197011497122,2.13968711706,-0.0682467406104,-0.45370632295,-0.661159214311,-0.00242677578885,-0.729974956284,-0.107753386178,0.093285022016,-0.392079699651,0.573861743219,0.818932883916,0.00351826813129,0.0,0.818903369495,-0.57378959301,-0.0119800369177,0.0,-0.00779225056829,0.00975619433393,-0.999922045713,0.0,0.503261226984,0.0530473311549,0.304539639413,1.0,-0.19998,-0.262830857143,2.184
0.22535251066,-0.106167731783,-0.128997000238,-2.25320532762,-0.00380679090215,2.14111318574,-0.0749864294123,-0.458829395999,-0.654241388089,-0.0102204700061,-0.761556264205,-0.104665060091,0.0839077298569,-0.392327892954,0.573879471234,0.818920548765,0.00349774316644,0.0,0.81889110768,-0.573807820003,-0.0119451399394,0.0,-0.00777523787044,0.00971952849925,-0.999922535221,0.0,0.499865671115,0.0485709168647,0.304547690845,1.0,-0.19998,-0.262830857143,2.201
0.21781137057,-0.116724809742,-0.129196269965,-2.2650064709,-0.00547899813945,2.14227349549,-0.081497886633,-0.473386493027,-0.66312649394,-0.0112554262182,-0.70867222098,-0.111865812293,0.0829250097905,-0.407791812526,0.574009293741,0.818829744236,0.00345362932745,0.0,0.818799241078,-0.573937181396,-0.0120275318353,0.0,-0.00786648598896,0.00973193149637,-0.999921700888,0.0,0.496643756982,0.0442780758787,0.304535065737,1.0,-0.19998,-0.262830857143,2.217
0.208847533845,-0.129166916734,-0.129277129833,-2.27868944512,-0.00736713152489,2.14362086859,-0.0893906194174,-0.471872270268,-0.647630048584,-0.00351841062511,-0.72125755299,-0.103607635182,0.0589748581734,-0.407043031205,0.573940615293,0.81887733384,0.00358177900254,0.0,0.818848290506,-0.573867769812,-0.0120002836305,0.0,-0.00777144236091,0.00982057286027,-0.999921577441,0.0,0.492863620407,0.0393478230025,0.304576339669,1.0,-0.19998,-0.262830857143,2.236
0.201123513608,-0.139545434794,-0.129374323993,-2.29009199232,-0.00903569503838,2.14459741398,-0.0961806688423,-0.486848360785,-0.650153873232,-0.00183955528131,-0.702070982877,-0.106096206231,0.0629430389328,-0.425879355139,0.573882844355,0.818917962606,0.00354941926188,0.0,0.818888336459,-0.573809925742,-0.0120336375184,0.0,-0.00781802043735,0.00981266508598,-0.999921291983,0.0,0.489651403799,0.0351481562784,0.304565003295,1.0,-0.19998,-0.262830857143,2.252
0.193777163037,-0.149270586894,-0.129538578879,-2.30050325299,-0.0105445996674,2.14555158507,-0.102606974205,-0.495648274534,-0.644556868973,-0.0142323858533,-0.697186758731,-0.106262109204,0.0530814330947,-0.425987817933,0.573940182431,0.818876831671,0.00376144190387,0.0,0.818850639984,-0.573867350931,-0.0118591667295,0.0,-0.00755277359094,0.00988670177608,-0.999922601374,0.0,0.486714915997,0.0311903903604,0.304649800447,1.0,-0.19998,-0.262830857143,2.267
0.185321516304,-0.160175142752,-0.129646929779,-2.31235908454,-0.012323770677,2.14626040835,-0.110016279365,-0.493242302785,-0.639767334905,-0.00201245655592,-0.697087811532,-0.107858451268,0.0368555316874,-0.43652661858,0.573897742618,0.818907306351,0.00359882270312,0.0,0.818878189019,-0.573824465371,-0.0120308516829,0.0,-0.00778720975912,0.00985166571543,-0.999921148915,0.0,0.4832447241,0.0267267749092,0.304595939449,1.0,-0.19998,-0.262830857143,2.284
0.176245688235,-0.171652097554,-0.129726368411,-2.32441462979,-0.0140198016464,2.14711215766,-0.118030910323,-0.511155469887,-0.631645187305,-0.00601684691639,-0.676349806942,-0.091175516045,0.0427336096516,-0.459956752255,0.573862274586,0.81893091868,0.00387132256296,0.0,0.818905619058,-0.573788363144,-0.0118847926987,0.0,-0.00751164898902,0.00999067432252,-0.999921877726,0.0,0.479717936511,0.0220616158799,0.304699172243,1.0,-0.19998,-0.262830857143,2.302
0.167999423628,-0.181732738135,-0.129900910526,-2.33521401604,-0.015695339096,2.1476229994,-0.125239365273,-0.523219504077,-0.630879766182,-0.0170744931997,-0.677979056876,-0.104911609231,0.0329149584348,-0.456510169527,0.573901072939,0.818904383069,0.00373051876349,0.0,0.818876624969,-0.573826845224,-0.0120237964229,0.0,-0.00770581613955,0.00995549595647,-0.999920751109,0.0,0.476463556968,0.0178188876216,0.304637939555,1.0,-0.19998,-0.262830857143,2.318
0.159073151014,-0.192451883596,-0.130031330865,-2.34626021224,-0.0173643577169,2.14818590545,-0.133068307389,-0.523967132313,-0.63079098959,-0.00644105178925,-0.639216746229,-0.098813012501,0.0354135740362,-0.455121050134,0.573937055762,0.818878236379,0.0039289831724,0.0,0.818853713192,-0.573862968082,-0.0118590538355,0.0,-0.00745656670709,0.0100238058916,-0.999921958419,0.0,0.473119358212,0.0133411980927,0.304737254405,1.0,-0.19998,-0.262830857143,2.335
0.150087566284,-0.202971721563,-0.13012945815,-2.35729808995,-0.019023132163,2.14857362527,-0.141067156945,-0.540602500945,-0.616104327777,-0.00664899366197,-0.654760241726,-0.0921135752105,0.013801653569,-0.478644687666,0.573848066331,0.818940772577,0.00389290127638,0.0,0.818915056038,-0.573773152547,-0.0119685968566,0.0,-0.00756807542736,0.0100563052448,-0.999920794343,0.0,0.469691786849,0.00891798817698,0.304695896204,1.0,-0.19998,-0.262830857143,2.352
0.141445415744,-0.212839216501,-0.130308907483,-2.3674834742,-0.0205617579858,2.14878681735,-0.148669273821,-0.546491380118,-0.6194824243,-0.0166124968333,-0.616233595953,-0.100935861234,0.0131662830902,-0.475435910882,0.573926683531,0.818885658578,0.00389705112461,0.0,0.818859165315,-0.573850640859,-0.0120770967729,0.0,-0.00765358341448,0.010122699022,-0.99991947357,0.0,0.466466905756,0.00469344578614,0.304686704541,1.0,-0.19998,-0.262830857143,2.368
0.13163958632,-0.22384068266,-0.130408994768,-2.37860184503,-0.022321547512,2.14909241439,-0.157361945282,-0.53691585015,-0.601648121971,0.00128410731688,-0.623653699549,-0.102785437263,0.0087337404066,-0.485052756964,0.573877051575,0.818919749557,0.00403984668677,0.0,0.818896011288,-0.573801697139,-0.0119030230433,0.0,-0.00742969280913,0.0101392813195,-0.999920994199,0.0,0.46312696582,0.000269757115711,0.304756665194,1.0,-0.19998,-0.262830857143,2.385
0.12218622407,-0.234074283821,-0.130524498921,-2.38911863848,-0.0239754791125,2.14914516377,-0.165759996876,-0.561531765399,-0.602398142,-0.00499081205325,-0.615423222149,-0.093486483781,-0.000943979707267,-0.493823008849,0.573822999537,0.818958145963,0.00393284433709,0.0,0.818931979163,-0.573746651046,-0.0120805967764,0.0,-0.00763719391026,0.0101530517528,-0.999919291148,0.0,0.45947404105,-0.00443012971627,0.304682632454,1.0,-0.19998,-0.262830857143,2.403
0.113060762035,-0.243738669414,-0.130732981266,-2.39859489246,-0.0255490048201,2.14922795142,-0.173829512506,-0.577180746314,-0.610353187521,-0.0102600861667,-0.581494077756,-0.0938247471343,0.0160044366457,-0.507178975656,0.573902004845,0.818901851395,0.00412231950187,0.0,0.818879365214,-0.57382660771,-0.0118472111341,0.0,-0.00733634776337,0.0101750164992,-0.999921320425,0.0,0.456342204316,-0.00870622621031,0.304791545399,1.0,-0.19998,-0.262830857143,2.419
0.103406905002,-0.253802008346,-0.130833637856,-2.4086920402,-0.0270725369803,2.14920386698,-0.182512765176,-0.571036330255,-0.585956979602,-0.00781444138015,-0.596748769055,-0.0961977864402,-0.00463898914645,-0.510346073406,0.573821934307,0.81895763135,0.00418720232392,0.0,0.818935285111,-0.573745345009,-0.0119174150812,0.0,-0.00735761184161,0.0102677195882,-0.999920216559,0.0,0.452934107333,-0.0130903186766,0.304761594505,1.0,-0.19998,-0.262830857143,2.436
0.0934568105077,-0.263786166166,-0.131019813279,-2.41861348551,-0.0287049061639,2.14904973202,-0.191313854553,-0.596055962198,-0.589601932918,-0.0104788501159,-0.574432559551,-0.0857048421598,-0.00915886476005,-0.520494381,0.573899248185,0.81890354658,0.00416908053136,0.0,0.81888064035,-0.573822260288,-0.0119690165797,0.0,-0.00740930156438,0.010283186935,-0.999919675932,0.0,0.449510138247,-0.0175917958148,0.304730513625,1.0,-0.19998,-0.262830857143,2.453
0.0839137279949,-0.273129820304,-0.131196807866,-2.42749153985,-0.0301820027729,2.14892905039,-0.199785291292,-0.589668387338,-0.586116116618,-0.00695172285886,-0.561373907105,-0.0870101605868,-0.012529552919,-0.5246602132,0.573993814062,0.818835924414,0.00442461387249,0.0,0.818817759461,-0.573917977335,-0.0116781412748,0.0,-0.00702325138138,0.0103263320829,-0.999922017362,0.0,0.446410187655,-0.021849100077,0.304858246991,1.0,-0.19998,-0.262830857143,2.469
0.0738933436069,-0.282865074874,-0.131291341377,-2.43707997104,-0.0317903563689,2.14856770869,-0.208961958706,-0.603235528002,-0.575482898645,-0.00633220872921,-0.552535912628,-0.0934496364126,-0.0169674751123,-0.541237475427,0.573747843776,0.819008877064,0.00431485278407,0.0,0.818988657403,-0.573671487568,-0.0118046727221,0.0,-0.00719296222179,0.0103069194494,-0.999921011233,0.0,0.442969485236,-0.0262101579803,0.304789720748,1.0,-0.19998,-0.262830857143,2.486
0.0634239666673,-0.292515025363,-0.13149337154,-2.44634745226,-0.0332548468585,2.14816095381,-0.218283312921,-0.618740027386,-0.560116612394,-0.0145791808588,-0.53658377144,-0.0855713643575,-0.0192854482427,-0.558570039208,0.57389927265,0.818902195158,0.00442340582489,0.0,0.818882811427,-0.573821695494,-0.0118469334383,0.0,-0.0071633714853,0.0104213981255,-0.999920037088,0.0,0.4395729814,-0.0307352216506,0.304793007904,1.0,-0.19998,-0.262830857143,2.503
0.0535792127079,-0.301579205512,-0.131606976763,-2.4547598329,-0.0347267503743,2.14780054284,-0.227153727769,-0.605420443128,-0.556793264886,-0.00711585228511,-0.523077313856,-0.0920396110421,-0.0268050418376,-0.558522841925,0.573852461635,0.818934002783,0.004604157072,0.0,0.818918519281,-0.573776632664,-0.0115577457985,0.0,-0.00682340466053,0.0104030706607,-0.99992260564,0.0,0.436451465742,-0.0349174304497,0.304904084212,1.0,-0.19998,-0.262830857143,2.519
0.0423748171277,-0.311530285042,-0.131782927324,-2.4643294687,-0.0363186195728,2.14708724344,-0.23729663252,-0.630991804354,-0.548820639591,-0.0109229875461,-0.521829111891,-0.0937784291855,-0.0439682909019,-0.574701809952,0.57382564496,0.818953393645,0.00449612331895,0.0,0.818935006859,-0.573747909419,-0.0118126152598,0.0,-0.00709447659075,0.0104606157504,-0.99992011877,0.0,0.432779267523,-0.039605928891,0.304816504994,1.0,-0.19998,-0.262830857143,2.537
0.031407958009,-0.32083989859,-0.131990900839,-2.47297244078,-0.0378860235818,2.14646896575,-0.24706138733,-0.641844333784,-0.554700495807,-0.00472435921826,-0.490423740974,-0.0956330162492,-0.0371564023421,-0.583461397824,0.573970266268,0.81885181696,0.00453676118404,0.0,0.818834560627,-0.573893268516,-0.0117143321077,0.0,-0.00698881998294,0.0104387361478,-0.999921091478,0.0,0.429395891422,-0.0441692481415,0.304849175806,1.0,-0.19998,-0.262830857143,2.554
0.0212986780787,-0.329490568476,-0.132081066006,-2.48083697467,-0.0391848881642,2.14592644174,-0.25645153831,-0.6394089434,-0.529280423798,-0.0131853007805,-0.498254902742,-0.0880701871391,-0.0388464818739,-0.595838384306,0.573767459363,0.818992668635,0.00476006290315,0.0,0.818979232688,-0.573691238713,-0.0114946053521,0.0,-0.00668331980357,0.0104938252119,-0.999922603439,0.0,0.426286718023,-0.0482576119475,0.304934870604,1.0,-0.19998,-0.262830857143,2.57
0.0100792885804,-0.338469887586,-0.132306767595,-2.48926835705,-0.0406001112618,2.14502993935,-0.26654446309,-0.676529384734,-0.522848154438,-0.0195496119034,-0.485944204466,-0.0865185238468,-0.056830126864,-0.587871551919,0.573923495504,0.818883767895,0.00468432357608,0.0,0.818867592662,-0.573844765872,-0.0117812253032,0.0,-0.00695951359315,0.0105975668133,-0.999919625144,0.0,0.422811823202,-0.0527806950709,0.304846097615,1.0,-0.19998,-0.262830857143,2.587
-0.00113461570422,-0.347393891898,-0.132415907815,-2.49738966364,-0.0420907041011,2.14416738139,-0.276813834498,-0.65062214711,-0.520116098939,-0.00502646635663,-0.465983315315,-0.0829715284228,-0.0536000796545,-0.616192896861,0.573808996069,0.818964147059,0.00465926646564,0.0,0.818947869225,-0.573730706845,-0.0117562926169,0.0,-0.00695495181725,0.0105617661549,-0.999920035673,0.0,0.419411298973,-0.0572108464941,0.304853579921,1.0,-0.19998,-0.262830857143,2.604
-0.0118215517031,-0.355677912661,-0.132604430536,-2.50466687763,-0.0433671444558,2.14341716907,-0.28662132342,-0.677913222713,-0.506378097945,-0.013045454957,-0.455947041289,-0.0861063343963,-0.0475692360593,-0.629256500316,0.573822469937,0.81895339262,0.00488473260719,0.0,0.818941142684,-0.573745205342,-0.0115148194812,0.0,-0.0066276361693,0.010607974895,-0.999921769594,0.0,0.416296984963,-0.0614122586923,0.304958936399,1.0,-0.19998,-0.262830857143,2.62
-0.0234734922642,-0.364225050427,-0.132795632334,-2.51249015198,-0.044855264696,2.14237246595,-0.297205673013,-0.674875118348,-0.498210769478,-0.00964092366556,-0.458500475297,-0.0783796047044,-0.0639712864194,-0.620457759469,0.573870417573,0.818920745844,0.00472257995151,0.0,0.818905464696,-0.573792180331,-0.0117098497872,0.0,-0.00687979193161,0.0105874867588,-0.999920283616,0.0,0.412833589257,-0.0659298463527,0.304878892725,1.0,-0.19998,-0.262830857143,2.637
-0.0357035299714,-0.373174743073,-0.132938338512,-2.52052645875,-0.0462036895672,2.14129000015,-0.308592914154,-0.690770167791,-0.487432158836,-0.0106565899154,-0.44656366078,-0.0732788409899,-0.0690274937464,-0.637251491133,0.57375955013,0.818998159279,0.00476871399666,0.0,0.818982363822,-0.573679466194,-0.0118534686246,0.0,-0.00697238992472,0.0107067396248,-0.999918372421,0.0,0.409012699724,-0.0708202374475,0.304838343622,1.0,-0.19998,-0.262830857143,2.656
-0.0463103236129,-0.380539789053,-0.133149986452,-2.52684550582,-0.0474269264278,2.14037789088,-0.318148112351,-0.704052654543,-0.483890157742,-0.00946394329161,-0.402817252507,-0.0917593242511,-0.0549951369989,-0.639875646257,0.573958144235,0.818858362764,0.00487619723714,0.0,0.81884502232,-0.573879323249,-0.0116661334902,0.0,-0.00675469224785,0.0106889279589,-0.99992005728,0.0,0.406257931846,-0.0745934045872,0.30492343302,1.0,-0.19998,-0.262830857143,2.67
-0.058884641987,-0.389136896769,-0.133276855779,-2.53436639423,-0.048825335937,2.13927648095,-0.32992036769,-0.702618100064,-0.47499421064,-0.0114472331173,-0.421182495413,-0.0828571977598,-0.0661267043078,-0.646267241784,0.573771060064,0.818989272,0.00490814451701,0.0,0.818976609342,-0.573692590241,-0.0116134471089,0.0,-0.00669565136396,0.0106833211004,-0.999920514293,0.0,0.402690758959,-0.0792513753624,0.304929647252,1.0,-0.19998,-0.262830857143,2.688
-0.0711419004091,-0.397140808626,-0.133521529114,-2.54137228617,-0.0501498729738,2.13804475971,-0.341183279912,-0.726511782334,-0.458953609111,-0.00975932495989,-0.410004176394,-0.0786286691585,-0.0643574807387,-0.664241696051,0.573878978857,0.818913862533,0.00487342566249,0.0,0.818899791135,-0.573799084604,-0.0117681556827,0.0,-0.00684087034894,0.0107445512893,-0.999918875265,0.0,0.3992251771,-0.0837760953712,0.304892190421,1.0,-0.19998,-0.262830857143,2.705
-0.0825899629129,-0.404511276527,-0.133602142975,-2.54771124897,-0.0513383813304,2.13692488546,-0.351885676717,-0.713643139204,-0.460693175958,-0.00869801703657,-0.381589139394,-0.0772772214452,-0.0680870380345,-0.67420784266,0.573743273535,0.819008945148,0.00487347322717,0.0,0.818994807528,-0.573663297321,-0.0117759691943,0.0,-0.00684902325195,0.0107479393134,-0.999918783042,0.0,0.3960317833,-0.0878955460907,0.304895099592,1.0,-0.19998,-0.262830857143,2.721
-0.0950918675736,-0.412120547212,-0.133842343259,-2.55406036194,-0.0524939887654,2.13582456046,-0.363482180436,-0.749962942476,-0.449902342179,-0.0180484213366,-0.363991981237,-0.0696110270606,-0.0611880590704,-0.681200177922,0.573867069487,0.818920920999,0.00508513611259,0.0,0.818910223903,-0.573787508495,-0.0116054807394,0.0,-0.00658631020221,0.0108244815792,-0.999919722336,0.0,0.392697065562,-0.0924173720832,0.30497005601,1.0,-0.19998,-0.262830857143,2.738
-0.107647524409,-0.419586595494,-0.133947567944,-2.56033878038,-0.0536787793956,2.13460775004,-0.375244083359,-0.738566561154,-0.436246337062,-0.00777560323261,-0.369203429339,-0.0700211834118,-0.0748720762496,-0.694418933476,0.573783792226,0.81897896266,0.0051347248852,0.0,0.818969094226,-0.573704402424,-0.0115597682925,0.0,-0.00652151833232,0.0108381973453,-0.999919998438,0.0,0.389316075599,-0.0968474211341,0.304994843398,1.0,-0.19998,-0.262830857143,2.755
-0.120362727769,-0.426800014842,-0.134183057503,-2.56654677337,-0.0549233126075,2.13323018805,-0.387138547868,-0.757956898436,-0.42725582095,-0.0188114745399,-0.356149462776,-0.0686226603987,-0.0726991468422,-0.714199157831,0.573792859435,0.818973269851,0.00502838262691,0.0,0.818960494702,-0.573711318695,-0.0118227670321,0.0,-0.00679782102629,0.0109020759242,-0.999917463779,0.0,0.38584274958,-0.101318922817,0.304917419545,1.0,-0.19998,-0.262830857143,2.772
-0.133164834621,-0.433830498629,-0.134289346948,-2.57244325695,-0.0560460255992,2.13204301126,-0.399144328513,-0.746149973219,-0.413195146336,-0.00824456314438,-0.343050878001,-0.062472571517,-0.066224395535,-0.708838202939,0.573749394124,0.8190034507,0.00507221691328,0.0,0.818991324669,-0.573667839081,-0.011796924252,0.0,-0.00675208395256,0.0109227900885,-0.99991754761,0.0,0.382466194993,-0.105733822201,0.304912335364,1.0,-0.19998,-0.262830857143,2.789
-0.146210878166,-0.440619784011,-0.134513654707,-2.57797784839,-0.0571897085739,2.13077756467,-0.411366366419,-0.781092007478,-0.400670558102,-0.0142027093462,-0.314468679363,-0.0699962361167,-0.0733860120173,-0.721669576838,0.573819287364,0.818954123273,0.00512994387267,0.0,0.818943063455,-0.57373804184,-0.0117330757432,0.0,-0.00666573514239,0.0109340076255,-0.999918004364,0.0,0.37910051702,-0.110249719835,0.304952011986,1.0,-0.19998,-0.262830857143,2.806
-0.158573102797,-0.446956784098,-0.134602734268,-2.58301836988,-0.0581903922544,2.12961437963,-0.423020120566,-0.765365216835,-0.394746579521,-0.00739452460788,-0.316276937347,-0.0566199797573,-0.0743801302368,-0.724402400212,0.573777510568,0.818982709956,0.00523794438598,0.0,0.818974131096,-0.573697733379,-0.0115338723721,0.0,-0.00644116924224,0.0109078275386,-0.9999197621,0.0,0.375952202053,-0.114438511498,0.305037328352,1.0,-0.19998,-0.262830857143,2.822
-0.171791509175,-0.453371394351,-0.134839708652,-2.5884314152,-0.05922737378,2.12825064808,-0.435545355607,-0.781272952182,-0.367281267902,-0.0239212884066,-0.31381884775,-0.0577540215267,-0.0840600148747,-0.734841648837,0.573796610544,0.818969394458,0.00522757778211,0.0,0.818958854048,-0.573713803833,-0.0118158185999,0.0,-0.00667778883772,0.0110612607369,-0.999916524339,0.0,0.372482421128,-0.11887961317,0.304950673767,1.0,-0.19998,-0.262830857143,2.839
-0.185160595053,-0.459611819095,-0.134954889349,-2.59347266031,-0.0602551680305,2.1269536602,-0.448233847759,-0.784078272444,-0.361612981358,-0.00869804011129,-0.290276821137,-0.0533573790742,-0.0804198972025,-0.752487490979,0.573733782787,0.819013290842,0.00524621906267,0.0,0.819002922821,-0.573650806652,-0.011819955129,0.0,-0.00667133099443,0.011078389608,-0.999916377817,0.0,0.369088080966,-0.123314872023,0.304961260419,1.0,-0.19998,-0.262830857143,2.856
-0.197902183771,-0.465166284335,-0.135142965913,-2.59801991675,-0.0612388918102,2.12584074426,-0.460327945055,-0.81016089859,-0.348424711375,-0.0186939961583,-0.283041651174,-0.0655896291803,-0.0724407536452,-0.75328036213,0.57373971234,0.819009128812,0.00524750484355,0.0,0.818998680766,-0.573656570052,-0.0118341641201,0.0,-0.00668215146845,0.0110876429337,-0.999916203002,0.0,0.365895117164,-0.127542015227,0.304934748453,1.0,-0.19998,-0.262830857143,2.872
-0.211533387488,-0.470950844576,-0.135273803266,-2.60259189141,-0.0622066701271,2.12459389281,-0.473259834395,-0.795555113903,-0.338513369314,-0.00472077225396,-0.260410400282,-0.0572399531657,-0.0695943833997,-0.758999591165,0.573748317435,0.819002830181,0.00528954608516,0.0,0.818993221224,-0.573665516177,-0.0117782019133,0.0,-0.00661207781915,0.0110900394349,-0.999916642252,0.0,0.362518130149,-0.131999343625,0.304965287595,1.0,-0.19998,-0.262830857143,2.889
-0.226131268952,-0.47689164024,-0.135524911055,-2.60714076215,-0.0631658135503,2.1233245748,-0.487170603784,-0.816817992733,-0.332350882993,-0.0150446434662,-0.253258043155,-0.066567060656,-0.0690369119095,-0.778777370493,0.573836132651,0.81894020508,0.00545713000995,0.0,0.818933660311,-0.573754287199,-0.0115941723339,0.0,-0.0063640046567,0.0111223966078,-0.999917892498,0.0,0.358951223319,-0.136773621703,0.305050636765,1.0,-0.19998,-0.262830857143,2.907
-0.239135373741,-0.481857339351,-0.135609219565,-2.61113669949,-0.064056724916,2.12216502981,-0.499681410995,-0.802598709087,-0.30864939742,-0.0136387413151,-0.246191285101,-0.0533482139349,-0.0681055741183,-0.783116953215,0.57370214218,0.819034447412,0.0054011953589,0.0,0.819026768096,-0.57361979118,-0.0116719839842,0.0,-0.00646164880561,0.0111201798918,-0.999917290927,0.0,0.355742168167,-0.140928576046,0.305020242642,1.0,-0.19998,-0.262830857143,2.923
-0.253158032573,-0.486881057831,-0.135813719054,-2.61516929524,-0.0649039842587,2.12093854818,-0.513073282557,-0.831711689486,-0.293548236279,-0.0180453639226,-0.230620717836,-0.0482621389626,-0.0751218113473,-0.796922237046,0.573782986306,0.818977563731,0.00543889989941,0.0,0.818969331098,-0.573698701363,-0.0118229300887,0.0,-0.00656255102047,0.0112383047179,-0.99991531313,0.0,0.352303510133,-0.145402617173,0.304978905733,1.0,-0.19998,-0.262830857143,2.94
-0.267191224603,-0.491566299561,-0.135900699837,-2.61889481114,-0.0656531361756,2.11982623492,-0.526594536477,-0.830579345917,-0.271869133186,-0.006109330361,-0.209648365424,-0.0391577684094,-0.061249185425,-0.791305318943,0.573738667263,0.819008245251,0.00549388743764,0.0,0.819000212601,-0.573653308097,-0.0118861588092,0.0,-0.00658340211708,0.0113192618244,-0.999914262889,0.0,0.34893790442,-0.149818397778,0.304954745086,1.0,-0.197840571429,-0.260019036735,2.957
-0.280527334336,-0.495735516028,-0.13602373679,-2.62214859197,-0.0663689037536,2.11882241817,-0.539321673317,-0.834004473761,-0.257893625331,-0.00879836641432,-0.19713173912,-0.0471151669853,-0.0695846452956,-0.801982072203,0.573838204466,0.818938183796,0.00554194169655,0.0,0.818930688607,-0.573752497739,-0.0118888812256,0.0,-0.006556682144,0.0113609791195,-0.999913965335,0.0,0.34577574588,-0.154014254554,0.304953099985,1.0,-0.194878285714,-0.256125746939,2.973
-0.295215995343,-0.500213112112,-0.136011405604,-2.62556717993,-0.0670632416605,2.11766943452,-0.553493853896,-0.811268097169,-0.24256085103,1.44667987962e-05,-0.183637232891,-0.0407989843118,-0.060029589658,-0.780433767827,0.57376309376,0.818990463607,0.00559282232193,0.0,0.818983589861,-0.573677142484,-0.0118811881097,0.0,-0.00652223100326,0.0113976363899,-0.999913773476,0.0,0.342299368065,-0.158537324565,0.304977139705,1.0,-0.191545714286,-0.251745795918,2.991
-0.308427093666,-0.503827021815,-0.136067604469,-2.62831830867,-0.0676585457872,2.11677580245,-0.566049898135,-0.823557007422,-0.221246069068,-0.0017502543655,-0.168701633483,-0.0397302764101,-0.047981952644,-0.788195855361,0.573929732968,0.818873251175,0.00565747529246,0.0,0.818867478898,-0.573843971097,-0.0118277529833,0.0,-0.00643904642288,0.0114212415352,-0.999914043267,0.0,0.339230604956,-0.162625643315,0.304997254566,1.0,-0.188583428571,-0.247852506123,3.007
-0.321301868158,-0.507159736122,-0.135987719381,-2.63080776796,-0.0681384259104,2.11600128061,-0.578545650508,-0.798974972489,-0.203782136738,0.00255865076189,-0.147710303412,-0.034286079146,-0.0492599969208,-0.784363754211,0.573836410109,0.818938069629,0.00574103178955,0.0,0.818934231667,-0.573751897463,-0.0116718149022,0.0,-0.00626468629708,0.0113994592954,-0.999915399438,0.0,0.336289683917,-0.16654812446,0.30504157511,1.0,-0.185621142857,-0.243959216327,3.023
-0.335819835216,-0.51062166087,-0.135991850942,-2.63344351754,-0.0687016202026,2.11506965348,-0.592436811862,-0.799142413865,-0.185698158582,0.000781650399734,-0.141368554654,-0.036883390087,-0.0522853560558,-0.764671032032,0.573961814555,0.818849849668,0.00578843954579,0.0,0.818846525661,-0.573876930955,-0.0116782889353,0.0,-0.0062410333767,0.0114429558316,-0.999915050524,0.0,0.33293736737,-0.170964870231,0.305048295886,1.0,-0.182288571429,-0.239579265306,3.041
-0.349129138601,-0.513555318842,-0.135850569157,-2.63576344191,-0.0690991538575,2.11421218574,-0.605445128195,-0.781999066453,-0.162766616515,0.00732584282243,-0.134600955701,-0.0296189954534,-0.0544608986845,-0.764029884472,0.573814421035,0.818952921926,0.00581968920256,0.0,0.818949123579,-0.573727846071,-0.0118084094277,0.0,-0.00633173555869,0.011542087212,-0.999913340919,0.0,0.330046897367,-0.174685725199,0.305015507694,1.0,-0.179326285714,-0.23568597551,3.057
-0.361022738164,-0.515867345126,-0.135833380225,-2.63763906718,-0.0695236996797,2.11354502934,-0.616806340567,-0.786315095927,-0.14872813049,0.013362427165,-0.116097426468,-0.0294568638698,-0.0309411826559,-0.755532210131,0.573926680346,0.818874400678,0.00579900016018,0.0,0.818869431222,-0.573838529676,-0.0119558927183,0.0,-0.00646280918784,0.0116106533223,-0.999911708516,0.0,0.326952502185,-0.178721592213,0.304956694591,1.0,-0.176178857143,-0.231549355102,3.074
-0.374808383023,-0.518364857585,-0.135654710307,-2.63959148078,-0.0698764785998,2.11288409533,-0.630263543701,-0.769279775825,-0.133366073894,0.00831999868063,-0.100256434281,-0.0198189769619,-0.0381110961142,-0.748057140352,0.573821488098,0.818947876549,0.00583285472316,0.0,0.818943155069,-0.573732877354,-0.0119766902907,0.0,-0.00646190896994,0.0116494829838,-0.999911262702,0.0,0.324019019663,-0.182573577387,0.304935606191,1.0,-0.173031428571,-0.227412734694,3.091
-0.387865898073,-0.520495407547,-0.135594553332,-2.64118000537,-0.0702532337898,2.11225739458,-0.642831342502,-0.758728021448,-0.121366304958,0.00644244927401,-0.0890406961495,-0.0189230745846,-0.0344577135867,-0.729204210697,0.573927393129,0.818873518182,0.00585282302223,0.0,0.81886909887,-0.57383875766,-0.0119677075526,0.0,-0.00644158611677,0.0116615156318,-0.999911253573,0.0,0.321078090017,-0.186473953131,0.304945251746,1.0,-0.169884,-0.223276114286,3.108
-0.40047293315,-0.522416767434,-0.135416800484,-2.64260004378,-0.0704935639311,2.11172039603,-0.655268661135,-0.749126388512,-0.108261571727,0.0105263773277,-0.0844103392766,-0.0118463852238,-0.0322317334114,-0.73126973452,0.573755815235,0.818993317385,0.00591248368274,0.0,0.818989930647,-0.573667445333,-0.0119122863391,0.0,-0.00636440603115,0.011677232984,-0.999911564372,0.0,0.318262814655,-0.190178015429,0.304964140486,1.0,-0.166736571429,-0.219139493878,3.125
-0.413228246395,-0.524157251325,-0.135354038953,-2.64381101985,-0.0707750380024,2.11118733409,-0.667502325882,-0.746782895801,-0.0956308601299,0.00554690317551,-0.0769294615707,-0.0113297170002,-0.0287758780009,-0.723893022346,0.57394785326,0.81885831966,0.00597168011854,0.0,0.818856159052,-0.573860060114,-0.0118308532886,0.0,-0.00626100447594,0.0116804647773,-0.999912179427,0.0,0.315409882503,-0.193962866679,0.305008015538,1.0,-0.163589142857,-0.215002873469,3.142
-0.425471062745,-0.525590620756,-0.13519362729,-2.6448599892,-0.0709638578043,2.11076323316,-0.679584315211,-0.721663964403,-0.0827730406723,0.0080190222052,-0.0608415988274,-0.0140525404803,-0.0250893838395,-0.701522734732,0.573824766411,0.818944198379,0.00602364478198,0.0,0.818942933489,-0.573737215859,-0.0117824330687,0.0,-0.00619328525779,0.0116942983829,-0.999912439468,0.0,0.312693036198,-0.197550368514,0.305024078728,1.0,-0.160441714286,-0.210866253061,3.159
-0.437083879424,-0.526738548861,-0.135123872656,-2.6457328138,-0.0711552291336,2.11038592429,-0.69076260751,-0.719670161522,-0.0685469194328,0.00403115941364,-0.0530061985782,-0.0203273186478,-0.0269874892185,-0.697332526636,0.573999330624,0.818821499479,0.00607184774355,0.0,0.818820668475,-0.573911197641,-0.0118066507208,0.0,-0.00618295707771,0.0117489902434,-0.999911862251,0.0,0.310096703084,-0.20096670981,0.305016852157,1.0,-0.157479428571,-0.206972963265,3.175
-0.448937043733,-0.527734275408,-0.134934958857,-2.64654909865,-0.0712923990994,2.11004641147,-0.702487541396,-0.695781343718,-0.0533814594441,0.00782366156804,-0.0469566820919,-0.00365466238864,-0.018539639201,-0.688908526521,0.573865747157,0.818914950884,0.0060954375908,0.0,0.818913938126,-0.57377662307,-0.0118783695061,0.0,-0.00623007473194,0.0118084555431,-0.999910869301,0.0,0.307456607705,-0.204400995323,0.304985617713,1.0,-0.154332,-0.202836342857,3.192
-0.460795291936,-0.528539189759,-0.134813241244,-2.64718380681,-0.0714481980286,2.10975818474,-0.713977351328,-0.698870105964,-0.0450371659129,0.00138321321745,-0.0338946895466,-0.00990212626762,-0.0197110489135,-0.672519924061,0.573978690181,0.818835630588,0.00611720525797,0.0,0.818834672396,-0.573889022024,-0.0119128747238,0.0,-0.00624420956395,0.011846944084,-0.999910325861,0.0,0.304818169858,-0.207863536292,0.304969578083,1.0,-0.151184571429,-0.198699722449,3.209
-0.471640391468,-0.529096756986,-0.134598767919,-2.64762755486,-0.0715466743209,2.1095355917,-0.724616302817,-0.665939927274,-0.029094557033,0.0149396152526,-0.029323822137,-0.00219137249105,-0.004350811131,-0.659975311465,0.573928767707,0.818870701996,0.00610654665605,0.0,0.818869446936,-0.57383885375,-0.0119392504762,0.0,-0.00627264945319,0.0118529720025,-0.999910076419,0.0,0.302431859702,-0.211001793828,0.304957868786,1.0,-0.148222285714,-0.194806432653,3.225
-0.482930588898,-0.529557188679,-0.134448114149,-2.6479748739,-0.0715994000734,2.10931647037,-0.735768259036,-0.671503643995,-0.0246464379746,0.00821496368332,-0.0133461140472,-0.00082637149687,-0.0122636814711,-0.652122683135,0.57389319729,0.818895209345,0.00616288215116,0.0,0.818894446226,-0.573802601015,-0.0119669507335,0.0,-0.00626352141022,0.0119147309801,-0.999909399638,0.0,0.299933655658,-0.214277042027,0.30495315513,1.0,-0.145074857143,-0.190669812245,3.242
-0.494749881686,-0.529855097444,-0.134268816722,-2.64820712904,-0.0716464622595,2.10913106437,-0.747315600913,-0.635756049457,-0.0130374636989,0.0130218599266,-0.00888587476926,-0.00271114838874,-0.005407157846,-0.645637629507,0.57395607446,0.818850874806,0.00619809013609,0.0,0.818850307722,-0.573864816746,-0.0120038554252,0.0,-0.00627262242326,0.0119652241211,-0.999908739646,0.0,0.297322679406,-0.217699744721,0.304944990171,1.0,-0.141742285714,-0.186289861225,3.26
-0.504220367814,-0.529988566991,-0.134095140931,-2.64834352574,-0.0716712814836,2.10903123535,-0.756755605075,-0.635801850396,-0.00726413367553,0.0138321113035,-0.00977343414342,-0.00269460527765,-0.00712490600224,-0.621434152629,0.573840062409,0.81893203778,0.00621668514309,0.0,0.818931443471,-0.573748235773,-0.0120415839195,0.0,-0.0062945479136,0.0120012132662,-0.999908170557,0.0,0.295086932963,-0.220609960747,0.304927905286,1.0,-0.13878,-0.182396571429,3.276
-0.51568274524,-0.530055318284,-0.133957274965,-2.64840628675,-0.0716903479344,2.108933545,-0.767868699687,-0.632935224189,0.00171115913846,0.0118584254882,0.000315573649352,-0.00203620794771,-0.00130546408036,-0.596267704819,0.574017611866,0.81880719815,0.00626900525803,0.0,0.81880716941,-0.573925296211,-0.0120548991596,0.0,-0.00627281827635,0.012053062936,-0.999907683451,0.0,0.292674410916,-0.223739627317,0.304918529042,1.0,-0.135632571429,-0.17825995102,3.293
-0.52595309278,-0.529968406313,-0.133726363715,-2.64834879632,-0.0716857034825,2.10891685742,-0.778148223583,-0.595778983618,0.011015310899,0.0144874026213,0.003962884662,-2.18446467438e-05,-8.37122290602e-05,-0.60779372588,0.573852650569,0.818922802967,0.00627097416261,0.0,0.818922961181,-0.573760672286,-0.0120258675155,0.0,-0.00625033912085,0.0120367524247,-0.999908020696,0.0,0.290414704642,-0.226688057755,0.304917394071,1.0,-0.132485142857,-0.174123330612,3.31
-0.535591664475,-0.529822862065,-0.133597264993,-2.64824618868,-0.0716913344912,2.10890343805,-0.787555405583,-0.604073850317,0.00795618046259,0.00740596610369,0.00655273726277,-9.19124835808e-06,0.000173984789572,-0.583848486447,0.57395465882,0.818851097767,0.00629890510458,0.0,0.8188516552,-0.573862605357,-0.0120176474585,0.0,-0.00622607759107,0.012055685727,-0.999907943963,0.0,0.288260675845,-0.229466818868,0.304913045828,1.0,-0.129522857143,-0.170230040816,3.326
-0.545622012318,-0.529568550433,-0.133405506006,-2.64801801278,-0.071688773629,2.10891921935,-0.797389318815,-0.571402516921,0.0210984964995,0.0157414746472,0.0166504145106,0.000294163707845,0.00187878866616,-0.569758935897,0.573994202514,0.818823416133,0.00629409041849,0.0,0.818824281763,-0.573902880865,-0.0119593407205,0.0,-0.00618051059385,0.0120185777006,-0.999908673369,0.0,0.286035767567,-0.232353005456,0.304930157153,1.0,-0.126375428571,-0.166093420408,3.343
-0.555163752631,-0.529134221612,-0.133180886971,-2.64770687658,-0.0716867546049,2.10893185068,-0.806986872291,-0.565612050231,0.0229303105796,0.0150904858669,0.0170815193662,-0.000252544522618,-0.00167510561195,-0.565263386694,0.573808848378,0.81895362433,0.00625408828221,0.0,0.818953716693,-0.57371724907,-0.0120031219373,0.0,-0.0062420420678,0.0120095376399,-0.999908399763,0.0,0.283919102013,-0.235087885893,0.304919779797,1.0,-0.123228,-0.1619568,3.36
-0.564198494109,-0.52867703522,-0.133025564599,-2.64735715382,-0.0716682938822,2.10898466958,-0.81580166087,-0.562564609989,0.027659543483,0.00352156931247,0.0246623419597,0.00167238406467,0.00456012301633,-0.536229335559,0.573907151161,0.818884767885,0.00625025384702,0.0,0.818884849862,-0.573815623251,-0.0119991700062,0.0,-0.00623956436957,0.0120048787888,-0.999908471172,0.0,0.281900288079,-0.237688797879,0.304920222912,1.0,-0.120265714286,-0.158063510204,3.376
-0.57394624021,-0.527975215692,-0.132791985828,-2.64682076868,-0.0716190309258,2.10913676731,-0.825508433012,-0.522166750168,0.038892167159,0.0182672523415,0.0333251407852,0.011102608257,0.00458643325533,-0.531727669521,0.573827253723,0.81894101098,0.00621693827714,0.0,0.818941005037,-0.573736548575,-0.0119478031566,0.0,-0.00621778099779,0.0119475107809,-0.999909293979,0.0,0.279761115026,-0.240504590593,0.304926517337,1.0,-0.116933142857,-0.153683559184,3.394
-0.582345872999,-0.527274882499,-0.132612731696,-2.64630788825,-0.0715877031588,2.10922319696,-0.833860112022,-0.532383185295,0.0405263462604,0.00678865688625,0.0378561147183,-0.00122318665361,0.0105718266949,-0.520653241049,0.573782473072,0.818972631281,0.00618463495193,0.0,0.818971936239,-0.573691399497,-0.0119955282309,0.0,-0.00627605827149,0.0119480963535,-0.999908922896,0.0,0.277892574947,-0.242926803868,0.304915518658,1.0,-0.113970857143,-0.149790269388,3.41
-0.589664029061,-0.526618121196,-0.132452134726,-2.64581195511,-0.0715256723115,2.10932536319,-0.8409908545,-0.518600173702,0.0503943153015,0.00980278293111,0.034009363047,0.00945806569119,0.00863902080209,-0.501814375907,0.57387694332,0.818906499945,0.00617617801435,0.0,0.818905632672,-0.573785767443,-0.0120085286179,0.0,-0.00629018020362,0.0119493547235,-0.99990881912,0.0,0.276266629215,-0.245035449074,0.304913503113,1.0,-0.111378857143,-0.146383640816,3.424
-0.599610565747,-0.525513023995,-0.1321807088,-2.64499749768,-0.0713832223288,2.10950517947,-0.850954823362,-0.482270471873,0.0583572851708,0.0178451587066,0.0411248028869,0.00878463433213,0.00704757659563,-0.493439888611,0.573777494059,0.818976213171,0.00617223398732,0.0,0.818974997424,-0.573685793213,-0.0120545079001,0.0,-0.00633155418281,0.011971741142,-0.999908290212,0.0,0.274082520885,-0.247902661175,0.304901435277,1.0,-0.107676,-0.141517028571,3.444
-0.60777333602,-0.524536810093,-0.131959237554,-2.64430330588,-0.0712461630017,2.10966321761,-0.859154794457,-0.485174460763,0.0603297529981,0.00637582311277,0.0393871033957,0.00546699711241,0.0123859033375,-0.478231733719,0.573688013512,0.819038802688,0.00618463789779,0.0,0.819037276844,-0.57359538699,-0.0121251006564,0.0,-0.00638357105922,0.0120217053463,-0.999907360019,0.0,0.272275745398,-0.250246101155,0.304878446139,1.0,-0.104528571429,-0.137380408163,3.461
-0.615408271377,-0.523625785386,-0.131753174766,-2.64356449321,-0.0710929964699,2.10982443468,-0.866613091173,-0.476659960227,0.0615146977248,0.00832094266097,0.0475851274282,0.016519161437,0.0104522012983,-0.46135472943,0.573793093758,0.818965032914,0.00620542668039,0.0,0.818964009871,-0.57370079029,-0.0120872104953,0.0,-0.00633906659718,0.0120178104022,-0.999907689973,0.0,0.270593073973,-0.252448090133,0.304899233001,1.0,-0.101566285714,-0.133487118367,3.477
-0.623203433347,-0.522525445029,-0.131559234909,-2.64270980985,-0.0709300117242,2.11002376628,-0.874336522471,-0.446459193044,0.0672744330266,0.0221467810731,0.0503467970366,0.0149873930429,0.0114254179504,-0.452503151659,0.573831437363,0.818937994259,0.00622815809414,0.0,0.818937270148,-0.573739030246,-0.0120838584889,0.0,-0.00632271518053,0.0120348003805,-0.999907589156,0.0,0.26887919924,-0.254714979814,0.304905883055,1.0,-0.0984188571429,-0.129350497959,3.494
-0.630583706041,-0.521421388672,-0.131304359695,-2.64186737042,-0.0707504417409,2.11022621454,-0.881815735849,-0.440607462038,0.067248035818,0.00816745193177,0.0546848862827,0.00470119326438,0.00941581562789,-0.43327669824,0.573693101509,0.819034867446,0.00623362571958,0.0,0.819034127016,-0.57360053332,-0.012094373036,0.0,-0.00633022405559,0.0120442424662,-0.999907427959,0.0,0.267265302022,-0.256841635332,0.304907015557,1.0,-0.0952714285715,-0.125213877551,3.511
-0.637529804948,-0.5204003726,-0.131100477339,-2.6410508811,-0.0705850816044,2.11041070978,-0.88863484633,-0.428791837162,0.0684012098503,0.0141889123011,0.0523900056647,0.0113252792292,0.0120578150389,-0.420389252936,0.573767946096,0.818982323653,0.00624855804516,0.0,0.818981921712,-0.573675569948,-0.0120705946109,0.0,-0.00630107983975,0.0120434082268,-0.999907622089,0.0,0.265728025301,-0.258847725028,0.304923689758,1.0,-0.0923091428572,-0.121320587755,3.527
-0.64460787733,-0.519248912227,-0.130924909555,-2.640150433,-0.0704023753974,2.1106628968,-0.89564212583,-0.415620999402,0.0701785988834,0.0100657944955,0.0498507341108,0.0208861593219,0.0141354766255,-0.411816035079,0.573828699589,0.818939521841,0.00627933081382,0.0,0.818939788811,-0.573736689964,-0.0120241337671,0.0,-0.00624447610702,0.0120424187477,-0.999907989101,0.0,0.264163914127,-0.260912903079,0.304935266911,1.0,-0.0891617142858,-0.117183967347,3.544
-0.651710743062,-0.517961429373,-0.130661379707,-2.63919101504,-0.0701854571798,2.11092237678,-0.902849367964,-0.385627284593,0.0644850320346,0.0171644637785,0.0493507007964,0.0165983756006,0.0158678291987,-0.405700885101,0.573701463486,0.819028553055,0.00629340732316,0.0,0.819028841831,-0.573609108262,-0.0120454999417,0.0,-0.00625577306853,0.0120652353492,-0.999907643435,0.0,0.262611492175,-0.262966760481,0.304925934415,1.0,-0.0858291428572,-0.112804016327,3.562
-0.657843910032,-0.516887981267,-0.130424048433,-2.63836792082,-0.0700020180515,2.11113003118,-0.908912215035,-0.383580681461,0.0597435942547,0.0138741720766,0.0530112244122,0.0148026918773,0.0198055265915,-0.376892762414,0.573713714225,0.819019940539,0.00629746068943,0.0,0.81902025647,-0.573621288999,-0.0120491991469,0.0,-0.00625629730382,0.0120707710647,-0.999907573344,0.0,0.261257364294,-0.264728144452,0.304927969628,1.0,-0.0828668571429,-0.108910726531,3.578
-0.66419766997,-0.515702199546,-0.130193684204,-2.63745032571,-0.0698095978209,2.11136725905,-0.915210304386,-0.368139708028,0.0729343850968,0.015024330451,0.0528448910392,0.00233211254139,0.0162202260084,-0.361319910139,0.573727570983,0.819010195372,0.00630246546317,0.0,0.81901062784,-0.573635219827,-0.0120404717474,0.0,-0.00624607321305,0.0120699691894,-0.999907646942,0.0,0.259855504745,-0.266567620798,0.304933470967,1.0,-0.0797194285715,-0.104774106123,3.595
