nelsonifechukwu/NELSON_IML_WORK/CNN-GradCAM/train2dof/data_sample_2022-02-21-08-11-26/robot_state.csv
position_joint1,position_joint2,position_joint3,position_joint4,position_joint5,position_joint6,position_joint7,velocity_joint1,velocity_joint2,velocity_joint3,velocity_joint4,velocity_joint5,velocity_joint6,velocity_joint7,ee_T_00,ee_T_10,ee_T_20,ee_T_30,ee_T_01,ee_T_11,ee_T_21,ee_T_31,ee_T_02,ee_T_12,ee_T_22,ee_T_32,ee_T_03,ee_T_13,ee_T_23,ee_T_33,v_x,v_y,time
0.465085432613,0.547542483392,-0.123997976423,-1.35574620682,0.0794257565869,1.89410957972,0.159152240095,-0.000657327126959,0.000922344181722,-0.000145476697032,-0.000200174579284,1.39810143829e-05,0.000499656046035,0.000900217959557,0.573772254669,0.81900021445,0.0021898409885,0.0,0.818961004719,-0.573713561396,-0.0116777189905,0.0,-0.00830787283739,0.00849390906476,-0.999929413888,0.0,0.661708392755,0.260894853943,0.303425754719,1.0,0.0,0.0,0.0
0.465082848222,0.547544989083,-0.123997394985,-1.35574971945,0.0794264686637,1.89410436536,0.159152507264,-0.00135730915977,0.00132643569115,0.0012086237551,-0.00142125920458,0.00029649734971,-1.77190242937e-06,-0.000352155216579,0.573774534541,0.818998640671,0.00218105288319,0.0,0.818959297937,-0.573715854422,-0.0116847597226,0.0,-0.0083186578709,0.00849077458276,-0.999929350843,0.0,0.66170698146,0.260892789785,0.3034218363,1.0,-6e-05,-7.88571428571e-05,0.004
0.465087189204,0.547544670865,-0.124000922709,-1.35574410037,0.0794251462354,1.89410974005,0.159152742159,0.00045531091751,0.000183825294358,0.000248283512137,0.0012364881622,-0.00015026387217,0.000304054880349,0.000423100201007,0.573773014271,0.818999685317,0.00218870892281,0.0,0.818960483154,-0.573714347877,-0.0116756573293,0.0,-0.0083068258984,0.00849180670995,-0.999929440442,0.0,0.661709102485,0.260894444535,0.303425318117,1.0,-0.00032,-0.000420571428571,0.017
0.465085031717,0.547529090018,-0.123998141648,-1.35576035818,0.0794264686637,1.89410768494,0.15914780501,-5.44595783825e-06,-0.000835023076989,-0.00253996831684,-0.000879756099556,0.000186124170938,-0.000309422478036,0.000325337635034,0.573769991072,0.819001802923,0.00218884776138,0.0,0.818962558035,-0.573711279011,-0.0116809149319,0.0,-0.00831108375436,0.00849490637124,-0.999929378733,0.0,0.661705226787,0.260892975013,0.303428348662,1.0,-0.00066,-0.000867428571429,0.034
0.465084344647,0.547485896468,-0.123998379,-1.35579450813,0.0794257565869,1.89411152425,0.159145888281,0.000679687557864,-0.00364991009796,0.000268144262112,-0.00495039604735,-4.50780455513e-05,0.000418901273924,0.000672466706254,0.573770773204,0.819001221256,0.00220143120417,0.0,0.818962117872,-0.573711991893,-0.011676761065,0.0,-0.00830045390085,0.00850283669204,-0.999929399624,0.0,0.661699578485,0.260889042922,0.303443032082,1.0,-0.001,-0.00131428571429,0.051
0.465088961083,0.547359978233,-0.123995636141,-1.355930481,0.0794220310932,1.89413098666,0.1591442563,0.00167348928357,-0.00569238542366,0.000758386081935,-0.0115148808337,-0.000137683833927,0.0033473449385,-0.000181548102564,0.573770084171,0.819001668134,0.00221472461154,0.0,0.818962645482,-0.573711159418,-0.0116806577288,0.0,-0.00829602566434,0.0085159526536,-0.999929324757,0.0,0.66167398747,0.260879914784,0.303469100712,1.0,-0.00132,-0.00173485714286,0.067
0.46507236232,0.547211232933,-0.123998168053,-1.35613113417,0.0794166796277,1.89417733922,0.159138036898,-0.00242517175293,-0.00777348196636,7.21390196442e-05,-0.00971946157554,-0.00116576807647,0.00245547596059,-0.000554537784163,0.573789946086,0.818987753672,0.00221449936808,0.0,0.818948646659,-0.573730936173,-0.0116907619405,0.0,-0.0083042239468,0.00852176699447,-0.99992920717,0.0,0.661646366907,0.260847879474,0.303483054821,1.0,-0.00168,-0.002208,0.085
0.465055663636,0.547041233805,-0.123995666318,-1.35634625784,0.0794147475931,1.89429880864,0.15913171966,-0.00258606077408,-0.0117062542609,0.00158995323086,-0.0148109796566,0.000135609400116,0.00209193421238,-0.000401536908219,0.573808448656,0.818974596473,0.00228505657137,0.0,0.818936349188,-0.573749118328,-0.0116598498205,0.0,-0.00823823021997,0.00856200106835,-0.999929409359,0.0,0.661629647909,0.260822923251,0.303511540269,1.0,-0.00202,-0.00265485714286,0.102
0.465030696272,0.546867397557,-0.123996457368,-1.35653013306,0.079408723843,1.89439943333,0.159128899615,-0.0028484257967,-0.00754649324919,0.00040368399454,-0.0106695748248,0.000200201266457,0.0031479791374,-0.00171359577616,0.573835936574,0.818955110437,0.00236471712181,0.0,0.818917899593,-0.573776319152,-0.0116170653488,0.0,-0.00815719340098,0.00860296438694,-0.99992972213,0.0,0.661619170135,0.260792270693,0.30355590294,1.0,-0.00232,-0.00304914285714,0.117
0.464994962336,0.546633906785,-0.124000304031,-1.35683062809,0.0793982471164,1.89453833249,0.159109395879,-0.00429400119293,-0.0131798638405,-0.000679326054146,-0.0178840973416,1.32325544369e-05,0.00835902745114,-0.00293496632386,0.573866053198,0.818933819365,0.00242886559721,0.0,0.818897428746,-0.573806194392,-0.0115844452319,0.0,-0.00809335167604,0.00863707794656,-0.999929946818,0.0,0.661594902181,0.260741541135,0.303590414153,1.0,-0.00268,-0.00352228571429,0.135
0.464960228565,0.546381137687,-0.123998487721,-1.35719510536,0.0793798042742,1.89467061005,0.159089235086,-0.000468830114729,-0.0145808338699,0.000430250430065,-0.0207292398519,-0.00177145734667,0.00699911126338,-0.000346847499681,0.573892161949,0.818915463271,0.00244895300111,0.0,0.818879291352,-0.573832185707,-0.0115791080595,0.0,-0.00807717809822,0.00865072280905,-0.999929959642,0.0,0.661554010477,0.26068566316,0.3036073283,1.0,-0.00302,-0.00396914285714,0.152
0.464920785961,0.546108130162,-0.124004120367,-1.35762801921,0.0793514121996,1.89482983914,0.158951740745,-0.00279299467942,-0.0154414102755,0.00176933155312,-0.0227357526238,-0.00189473137385,0.00831357488848,-0.00538201933663,0.573832492413,0.818957283855,0.00244637963045,0.0,0.818921113407,-0.573772569673,-0.0115756299495,0.0,-0.00807643643183,0.00864603097885,-0.999930006212,0.0,0.661506795797,0.260614718788,0.303608551203,1.0,-0.00336,-0.004416,0.169
0.464880428087,0.545831580449,-0.123999067203,-1.35809655065,0.0793122834794,1.89498469077,0.158912655339,-0.0037728089914,-0.0175238459667,-0.000235497909482,-0.0308956149543,-0.00138248598912,0.00675979821219,1.1842991397e-05,0.573847664445,0.818946762263,0.00240945876002,0.0,0.818910208969,-0.573787970158,-0.0115836889776,0.0,-0.0081040621605,0.00862056921481,-0.999930002532,0.0,0.661446832334,0.260537601615,0.303597778772,1.0,-0.0037,-0.00486285714286,0.186
0.464822742197,0.545500730531,-0.124003708522,-1.35864209898,0.0792616783661,1.89517128843,0.158876739361,-0.00190667729921,-0.0202092467556,-0.000309596602178,-0.0300982250664,-0.000635832265346,0.0129845710999,-0.00283794431447,0.573883802838,0.818921541277,0.00237423106797,0.0,0.818884634398,-0.573824336693,-0.0115902143086,0.0,-0.00812924111071,0.00859582309944,-0.999930011183,0.0,0.661388579364,0.260446351282,0.303585384607,1.0,-0.00402,-0.00528342857143,0.202
0.464766027329,0.545161376372,-0.124004534171,-1.35922849794,0.0792462524679,1.89536533813,0.158789195347,-0.00268520228368,-0.0222086550184,-0.000440569782304,-0.0355270221213,-0.000195138741824,0.0129814509103,-0.00126143427262,0.57388255591,0.818922513854,0.0023399200612,0.0,0.81888492291,-0.573822959872,-0.0116378974151,0.0,-0.00818799399601,0.00859507705478,-0.99992953822,0.0,0.661310367116,0.26035290721,0.303562473709,1.0,-0.00436,-0.00573028571429,0.219
0.464702513007,0.544729804664,-0.124002627345,-1.35996487213,0.0792144189225,1.89560330934,0.158701706837,-0.00548389007569,-0.0262907929235,0.000380229905758,-0.0389150816065,-0.0071798931575,0.0128919352618,-0.00402132175921,0.573899229544,0.818910970021,0.00229006732508,0.0,0.818872598031,-0.573839672534,-0.0116809812208,0.0,-0.00825171104943,0.00857914467821,-0.999929151261,0.0,0.661224839347,0.26024224351,0.303538871203,1.0,-0.0047,-0.00617714285714,0.236
0.464638245707,0.544301547967,-0.124008075496,-1.36069934986,0.0791781744454,1.89584577314,0.158615899242,-0.00554211728268,-0.0278757288739,-0.00172958633982,-0.045159220395,0.000708451555808,0.00938396570873,-0.00762686795932,0.573916615327,0.818898928317,0.00223847124541,0.0,0.818859797367,-0.57385715572,-0.0117193850855,0.0,-0.00831258918809,0.00855910872177,-0.999928818726,0.0,0.661135606579,0.260125621082,0.303513534543,1.0,-0.00504,-0.006624,0.253
0.464579566368,0.54385527894,-0.124010925901,-1.36142005821,0.0791346550901,1.8961056563,0.158515788492,-0.000219605535212,-0.0276808494625,-0.00102970612887,-0.0451141284095,-0.00074950454475,0.0152264453468,-0.00520374458719,0.57391325203,0.818901322242,0.00222496645507,0.0,0.818862013543,-0.573853841218,-0.0117268323847,0.0,-0.00832647330914,0.00855228967945,-0.999928761554,0.0,0.661051756503,0.260016082269,0.303508871111,1.0,-0.00536,-0.00704457142857,0.269
0.464506070612,0.543337415791,-0.12401063235,-1.36225135036,0.0790909256813,1.89639838512,0.158423453916,-0.000735171605665,-0.0278519383435,0.000382460431742,-0.0487109102671,-0.00309198327336,0.0175907641477,-0.00902929781482,0.573932195149,0.818888084775,0.00221063044951,0.0,0.818848505574,-0.573872749851,-0.0117447348941,0.0,-0.0083491636359,0.00855101755274,-0.999928583233,0.0,0.660953934773,0.259888584337,0.303504927234,1.0,-0.0057,-0.00749142857143,0.286
0.46442586761,0.542735441064,-0.124014695444,-1.36321921015,0.0790286643783,1.89673527529,0.15828977208,-0.00650340151475,-0.0326606242225,0.000520201238251,-0.0526133754478,-0.00985602645216,0.0213238017743,-0.00696139482873,0.57392839345,0.818890823684,0.00218288309742,0.0,0.818850899588,-0.573869070485,-0.0117575969958,0.0,-0.00837566045174,0.00853563888015,-0.999928493034,0.0,0.660839328606,0.259739028273,0.303499361343,1.0,-0.00608,-0.00799085714286,0.305
0.464362698896,0.542271272495,-0.124017319467,-1.36396247084,0.078986363191,1.8970016368,0.158190003218,-0.00318236215,-0.030681420151,-0.000736893061543,-0.0534310214299,-0.00416619240475,0.0160309561749,-0.00717728403786,0.573930259415,0.818889543328,0.00217256929731,0.0,0.818849456068,-0.57387094617,-0.0117665772779,0.0,-0.00838891420798,0.00853236621141,-0.99992840986,0.0,0.660752770559,0.259624864766,0.30349702542,1.0,-0.00636,-0.00835885714286,0.319
0.464273163134,0.541618691109,-0.124017674641,-1.36494912535,0.0789291993249,1.89737604332,0.158067474115,-0.00597711914566,-0.0352714419266,0.000330361609012,-0.0517880109619,-0.00187732876164,0.0235295571045,-0.00547880666972,0.573943052574,0.818880482481,0.00220787558409,0.0,0.818840839299,-0.573883587563,-0.0117496691009,0.0,-0.0083546719946,0.00855170429367,-0.999928531351,0.0,0.660643647809,0.259473114343,0.303521295661,1.0,-0.00672,-0.008832,0.337
0.464182608261,0.540982294848,-0.124020537556,-1.36594227675,0.0788629743009,1.89774139181,0.157927776783,-0.0082348707892,-0.0387314839284,-0.000475124137338,-0.0575680955149,-0.0035745173267,0.0238580722236,-0.00752394586854,0.573942210094,0.81888106492,0.0022108570255,0.0,0.818841516764,-0.573882791489,-0.0117413353875,0.0,-0.00834614511345,0.0085493541034,-0.999928622656,0.0,0.660531961153,0.259316181857,0.303530218327,1.0,-0.00706,-0.00927885714286,0.354
0.464103826854,0.540322138264,-0.124023677941,-1.36693283442,0.0788135203213,1.89811259371,0.157798617009,-0.00197443555409,-0.0404476139078,0.000865635861961,-0.0605096840256,-0.00584885659539,0.0231043493317,-0.00370422668355,0.573944820972,0.818879126461,0.00225069459671,0.0,0.818840017357,-0.57388517088,-0.0117296001406,0.0,-0.00831364452702,0.00857526715585,-0.99992867151,0.0,0.660418570645,0.259170602887,0.303557622047,1.0,-0.00738,-0.00969942857143,0.37
0.463986711212,0.539602305718,-0.124026831511,-1.36804563795,0.0787439619164,1.89852750407,0.157669599718,-0.00944327582572,-0.0428646607818,-0.00122958254444,-0.0695918680069,-0.00662262031332,0.0191800873415,-0.00709374870599,0.573980287321,0.818854222975,0.00226675615464,0.0,0.818815354674,-0.573920605919,-0.0117175062352,0.0,-0.00829415108578,0.00858183756723,-0.999928777025,0.0,0.660298093448,0.258985698281,0.303572674034,1.0,-0.00772,-0.0101462857143,0.387
0.463878776117,0.538831055554,-0.124032888248,-1.36926724796,0.0786594297807,1.89899834957,0.157518633689,-0.00772110009143,-0.0379695852765,-0.000458543507494,-0.0696766488938,-0.00892788923602,0.0321539460881,-0.00999406815884,0.5739943504,0.818844342015,0.00227511747801,0.0,0.818805717959,-0.57393477669,-0.0116968048452,0.0,-0.00827225269193,0.00857694423163,-0.999929000411,0.0,0.660163854488,0.258794319832,0.303577076834,1.0,-0.00808,-0.0106194285714,0.405
0.463786318042,0.538148042625,-0.124048924523,-1.3703336954,0.0786171581202,1.89939983665,0.157386440191,-0.00584458007135,-0.0459152966738,0.000214682071784,-0.07349190699,-0.0101122442048,0.0226293272561,-0.0137988623217,0.574016600674,0.818828663934,0.00230394706574,0.0,0.818790281778,-0.573956780027,-0.0116976932715,0.0,-0.00825619947082,0.00860128519598,-0.999928924006,0.0,0.660036905621,0.258619534815,0.303588682492,1.0,-0.0084,-0.01104,0.421
0.463679899134,0.537368255352,-0.124051375885,-1.37156704845,0.0785268863175,1.8998761573,0.157235536611,-0.00641015510581,-0.0407786420108,-0.00197566659449,-0.0757422708164,-0.00438578957456,0.0315204960518,-0.0110908711843,0.574029953898,0.818819295875,0.00230643264286,0.0,0.818781122713,-0.5739703067,-0.0116750595648,0.0,-0.00823609877113,0.00859046280553,-0.999929182805,0.0,0.659908013705,0.258436662086,0.303592194548,1.0,-0.00872,-0.0114605714286,0.437
0.463562418401,0.536435261262,-0.124054810837,-1.37302593061,0.0784545139793,1.90041628337,0.157043071419,-0.00444037494694,-0.0452426872433,-0.000287410521215,-0.0763297244322,-0.00355862742584,0.0303113184527,-0.0108587314399,0.5740319063,0.818817872079,0.00232590092976,0.0,0.818779813999,-0.573972043888,-0.0116814350023,0.0,-0.00823012409628,0.00861008290413,-0.999929063249,0.0,0.659737247814,0.258221166024,0.303603406744,1.0,-0.0091,-0.01196,0.456
0.463463885014,0.535673978885,-0.124058203747,-1.37422204232,0.0783854870852,1.90085249871,0.156902088991,-0.00640059969016,-0.0504383423271,0.000763708945791,-0.0804712556167,-0.0125626133016,0.0290990146762,-0.0188340832269,0.574046738562,0.818807468862,0.00232761310141,0.0,0.818769399746,-0.573986833258,-0.0116846988466,0.0,-0.00823165789882,0.00861350748258,-0.99992902113,0.0,0.659596785296,0.258040643442,0.303609295311,1.0,-0.0094,-0.0123542857143,0.471
0.463341496875,0.534735364661,-0.124064141788,-1.37571045179,0.0782963918658,1.90139726158,0.156721899775,-0.0064504619129,-0.0469206646316,-0.000922049023585,-0.0825514303868,-0.00442962546299,0.0354042416505,-0.0124532074556,0.574061354797,0.81879723875,0.00232156094909,0.0,0.818759086548,-0.574001465153,-0.0116885883641,0.0,-0.00823816310139,0.00861093178114,-0.99992898974,0.0,0.659422320738,0.257814676725,0.303610523149,1.0,-0.00976,-0.0128274285714,0.489
0.463230681387,0.533893852155,-0.124058969181,-1.37710166311,0.0782269981723,1.90189649134,0.156557838058,-0.00948560595894,-0.050560372397,0.0012134219857,-0.0878452427077,-0.000365781741275,0.0340139297757,-0.00868108220969,0.574071729278,0.818790063439,0.00228660412456,0.0,0.818751263583,-0.574011766168,-0.0117306258451,0.0,-0.00829254186493,0.00860654638337,-0.999928578004,0.0,0.659251829516,0.257613168108,0.303585063061,1.0,-0.01008,-0.013248,0.505
0.463114626609,0.533018995125,-0.124061990028,-1.37850666725,0.078137813264,1.90242803481,0.156384283085,-0.00252929541643,-0.0516781895205,0.00203917020202,-0.0907406246974,-0.0035936672108,0.0414140895484,-0.0126882595205,0.574079783445,0.81878442653,0.00228298304564,0.0,0.818745627737,-0.574019882801,-0.0117268116411,0.0,-0.00829141271968,0.00860147347926,-0.999928631018,0.0,0.659089436785,0.257401259194,0.303579423574,1.0,-0.0104,-0.0136685714286,0.521
0.462985335254,0.532068703948,-0.124060501614,-1.38005308545,0.0780480449786,1.9030042196,0.156188986534,-0.00583685449164,-0.0522444571379,0.000936018932506,-0.0947369396735,-0.00768237118042,0.0337872912346,-0.0095585209029,0.57408510938,0.818780737773,0.00226661456155,0.0,0.818741668646,-0.574025209773,-0.0117424643542,0.0,-0.00831356979004,0.00859711124252,-0.999928484561,0.0,0.658907037482,0.257170403557,0.303563218792,1.0,-0.01074,-0.0141154285714,0.538
0.462849443331,0.531066905715,-0.124059554562,-1.38164479986,0.0779665184419,1.90358087612,0.15598156877,-0.0055533734285,-0.0635723960301,-0.000111453421453,-0.100828513278,-0.00633240503588,0.0372150300173,-0.0115835345077,0.57409068845,0.818776835195,0.00226329040801,0.0,0.818737549735,-0.574030621803,-0.0117650664105,0.0,-0.00833392629514,0.0086074216378,-0.999928226407,0.0,0.65871646433,0.256931573028,0.303561612626,1.0,-0.01108,-0.0145622857143,0.555
0.462716701613,0.530100378417,-0.124062063139,-1.38318026537,0.0778575427783,1.90412107747,0.155799351748,-0.00683568625127,-0.0621704053665,-0.000832096386119,-0.100938318473,-0.00527141457934,0.0342137342591,-0.00659749183123,0.574105933694,0.818766238543,0.00222944403361,0.0,0.818726608153,-0.574046092046,-0.0117716698495,0.0,-0.00835860313812,0.00858365592377,-0.999928224726,0.0,0.658531873183,0.256692169999,0.303558601512,1.0,-0.0114,-0.0149828571429,0.571
0.462578210074,0.529063189228,-0.124065220992,-1.38482605898,0.0777595266386,1.90472524279,0.155569257906,-0.00588072541968,-0.0632265169586,0.000315474998366,-0.0975069021072,-0.00681166415961,0.0333893322162,-0.0116776514437,0.574096119555,0.818773131324,0.00222527208279,0.0,0.818733415409,-0.574036262976,-0.0117775286809,0.0,-0.00836589823625,0.00858350338523,-0.999928165028,0.0,0.658336716695,0.256442550256,0.30355823216,1.0,-0.01174,-0.0154297142857,0.588
0.462436298101,0.528040461734,-0.124068449404,-1.38642812023,0.0776557222973,1.90534636501,0.155340010777,-0.0146399269002,-0.0589063253311,0.000304070643056,-0.0981361893477,-0.00733506660937,0.0386566933792,-0.0144580601618,0.57408589374,0.818780220395,0.00225481688933,0.0,0.81874097783,-0.574026017786,-0.0117511287875,0.0,-0.00832742858752,0.00859243368821,-0.999928409446,0.0,0.658155549086,0.256195872383,0.303569712899,1.0,-0.01206,-0.0158502857143,0.604
0.462297627215,0.526897314794,-0.124071500337,-1.38817883522,0.0775492700514,1.90601530163,0.155096504467,-0.0046453948571,-0.0687588012331,0.000320019180455,-0.107171801957,-0.00623992622814,0.0431080941617,-0.0170378112564,0.574068265052,0.818792439224,0.00230552191072,0.0,0.818753877338,-0.574008223695,-0.0117215346869,0.0,-0.00827427474653,0.00861678198492,-0.999928641177,0.0,0.657951073667,0.255938208664,0.303599076748,1.0,-0.0124,-0.0162971428571,0.621
0.46215418471,0.52580629769,-0.124074833613,-1.38988560572,0.0774325568233,1.90664889307,0.154878153218,-0.00883451497805,-0.0703243318161,0.000798518344504,-0.106317653682,-0.00428933364478,0.0399807872334,-0.0163317131453,0.574069843551,0.818791314419,0.00231193827209,0.0,0.818752945565,-0.574009892536,-0.0117048836544,0.0,-0.00825694060506,0.00861249281566,-0.999928821416,0.0,0.657749796541,0.255677771929,0.303609324176,1.0,-0.01272,-0.0167177142857,0.637
0.461992295482,0.524651364028,-0.124083929776,-1.39173236463,0.0773264359938,1.90731707124,0.154628802743,-0.0122689736349,-0.0658624447011,-0.000863649558345,-0.113087695192,-0.00623741382272,0.0387486626117,-0.00863392234759,0.574075424824,0.818787456189,0.00229240078481,0.0,0.818748775036,-0.574015484682,-0.0117223557288,0.0,-0.00828240374205,0.00860658238276,-0.999928661719,0.0,0.657529144031,0.255390156693,0.303600853538,1.0,-0.01306,-0.0171645714286,0.654
0.461816532067,0.523317599977,-0.124091108699,-1.3938442708,0.0771860454333,1.90807116906,0.154335398911,-0.0110917366694,-0.0686743793643,-0.00271119665603,-0.107076622563,-0.00829474538088,0.0381166841322,-0.016516881355,0.574059471083,0.818798721111,0.00226381707809,0.0,0.818759737449,-0.573999711109,-0.0117290613688,0.0,-0.00830446998653,0.00858686636592,-0.999928648207,0.0,0.657272335837,0.255065778021,0.303598926654,1.0,-0.01344,-0.017664,0.673
0.461669427636,0.522174537294,-0.124097035153,-1.39567991505,0.077069650789,1.90878527303,0.154093245902,-0.00873593416135,-0.070275262174,-0.00438501560294,-0.115947127566,-0.00728096935702,0.0425761555384,-0.0130640680416,0.57405299156,0.818803232465,0.00227514543634,0.0,0.818764482025,-0.573993279156,-0.011712615379,0.0,-0.008284568647,0.00858663549135,-0.999928815273,0.0,0.657057964013,0.254792403979,0.303590636231,1.0,-0.01376,-0.0180845714286,0.689
0.461502929091,0.520925016808,-0.124108164225,-1.39767173078,0.0769470672482,1.90955524195,0.153827615365,-0.0116334266644,-0.0751033533586,-0.00256798005579,-0.117791417015,-0.00852792596262,0.0499375199669,-0.0147903928898,0.574053272511,0.818802986824,0.00229259453584,0.0,0.818764539101,-0.573993574434,-0.0116941404234,0.0,-0.00825942159416,0.00859032007804,-0.999928991657,0.0,0.656826576951,0.254488940659,0.303587502542,1.0,-0.0141,-0.0185314285714,0.706
0.461354616736,0.519786440961,-0.124104224744,-1.39947162118,0.0768306235399,1.91021418619,0.153580000249,-0.0114760267704,-0.072424239372,0.000726153121438,-0.124358905385,-0.00627466033561,0.042952955459,-0.0191806485695,0.574030753626,0.81881881951,0.00227631466112,0.0,0.818780144199,-0.57397110175,-0.0117045598687,0.0,-0.00827753442879,0.00858274381318,-0.999928906939,0.0,0.656588540483,0.254201425674,0.303579930402,1.0,-0.01442,-0.018952,0.722
0.46118562,0.518437196192,-0.124112721519,-1.40155576693,0.0766970093388,1.91094985588,0.153309430752,-0.0082320079842,-0.0800547321178,-0.000160135791171,-0.120452781148,-0.0106526217512,0.0401749629687,-0.0112883901699,0.574030759444,0.818818795221,0.00228357329477,0.0,0.818780251704,-0.573971119628,-0.0116961597947,0.0,-0.0082664895066,0.00858386547262,-0.999928988681,0.0,0.656348217323,0.253903898397,0.303606446995,1.0,-0.01474,-0.0193725714286,0.738
0.461000677733,0.517076977147,-0.12411278115,-1.40368662227,0.0765531640136,1.91171828247,0.153011207763,-0.0108834282504,-0.0834644983769,0.000158074201544,-0.125903752296,-0.00919996152952,0.0431529536106,-0.0200114436692,0.574011857074,0.818832072002,0.0022743574058,0.0,0.818793468447,-0.57395231552,-0.0116936922943,0.0,-0.00826995681357,0.00857471210844,-0.999929038546,0.0,0.656087772495,0.253576407419,0.303613189062,1.0,-0.01508,-0.0198194285714,0.755
0.460817743015,0.515735000513,-0.124120640277,-1.4058248103,0.0764155051204,1.91253568277,0.152710936316,-0.0101156674815,-0.0812518724016,-0.00338129522479,-0.132900690361,-0.00341644457767,0.0497973312553,-0.0249405549072,0.573997309941,0.818842241968,0.00228426160892,0.0,0.818803863225,-0.573937833562,-0.0116766294664,0.0,-0.00825045213852,0.0085728811874,-0.999929215369,0.0,0.655835033635,0.25324890029,0.303607775453,1.0,-0.01542,-0.0202662857143,0.772
0.460623091135,0.514267794856,-0.124120232485,-1.40818215318,0.0762851232186,1.9133945747,0.152396501201,-0.00701145903069,-0.0840575549966,-0.000301243850686,-0.130885092642,-0.0078594712139,0.0479038494059,-0.0199134947214,0.57398799056,0.818848830628,0.00226410561153,0.0,0.818810009849,-0.573928402881,-0.0117091006802,0.0,-0.00828870846545,0.00857492060257,-0.999928881495,0.0,0.65554169497,0.252898229434,0.30358879241,1.0,-0.01578,-0.0207394285714,0.79
0.460436473448,0.51293938003,-0.124122362758,-1.41032468177,0.0761554367312,1.91413577161,0.152102062282,-0.012675239103,-0.085737001844,-6.22504139435e-05,-0.13229145719,-0.00640245033859,0.0505779147127,-0.0144958976917,0.573978434318,0.818855696045,0.00220292849546,0.0,0.818815969206,-0.573918964003,-0.0117549237556,0.0,-0.00836144481768,0.0085510303977,-0.999928480502,0.0,0.655269856663,0.252567275016,0.303564193726,1.0,-0.0161,-0.02116,0.806
0.460244672758,0.511526013404,-0.124130274497,-1.41260974268,0.0760155910279,1.91496691292,0.151773431125,-0.00806232059886,-0.0863381592704,0.000262626433183,-0.135202175893,-0.00991908137392,0.043703218568,-0.0160545877643,0.573953869017,0.818873014386,0.00216551401789,0.0,0.818832773228,-0.573894516879,-0.0117779406074,0.0,-0.00840202287232,0.00853335272289,-0.99992829138,0.0,0.654986626431,0.252218240136,0.303538840552,1.0,-0.01644,-0.0216068571429,0.823
0.460024851673,0.509978784427,-0.124131122981,-1.41507134724,0.0758668726243,1.91589979444,0.151427248115,-0.0126993445345,-0.0813029400844,8.10953873758e-05,-0.142315159896,-0.0104562381952,0.0448560726486,-0.0208080455197,0.573939486634,0.818883056593,0.00217995622223,0.0,0.818842973531,-0.573880050377,-0.0117736731596,0.0,-0.00839038961861,0.00854258223536,-0.999928310256,0.0,0.654690146178,0.25184128476,0.303531275666,1.0,-0.0168,-0.02208,0.841
0.459835509008,0.508548961033,-0.12413411095,-1.41730070099,0.0757212138096,1.91670901706,0.151120348461,-0.0126701037893,-0.0888732736226,-0.000873866516095,-0.136567340838,-0.012524341106,0.0480356801517,-0.0171492029245,0.573921721883,0.818895499709,0.00218279844116,0.0,0.818855486207,-0.573862310085,-0.0117681211197,0.0,-0.00838439709467,0.00854154126631,-0.999928369414,0.0,0.654412993172,0.251501302554,0.303540858115,1.0,-0.01712,-0.0225005714286,0.857
0.459618830225,0.507021443103,-0.124137648996,-1.41969176922,0.0755685924703,1.91757346936,0.150782956539,-0.0119149342408,-0.0861804936093,-0.000154413224272,-0.137799855941,-0.0101221182157,0.0552146869944,-0.0170211364658,0.573907901251,0.818905193557,0.00217985035274,0.0,0.818865139355,-0.573848500064,-0.0117698523774,0.0,-0.00838765087228,0.00853997915991,-0.999928355468,0.0,0.654117223183,0.251127911805,0.303546131598,1.0,-0.01746,-0.0229474285714,0.874
0.459402182094,0.505456279701,-0.124144097526,-1.42213981179,0.0754160049774,1.91850227398,0.150444784884,-0.0104805192202,-0.089636749285,-0.000282846252305,-0.14788026828,-0.012482197153,0.0503282778837,-0.0223891190168,0.573898363053,0.818911785046,0.00221451989689,0.0,0.818872218939,-0.573838868766,-0.0117468567931,0.0,-0.00834902261716,0.00855507541812,-0.9999285497,0.0,0.653821299557,0.250750965978,0.303555748207,1.0,-0.0178,-0.0233942857143,0.891
0.459181285192,0.503800448706,-0.124151712318,-1.42461974713,0.0752572688659,1.91945762783,0.150103027839,-0.0137612867964,-0.10154379235,-0.00187186915238,-0.147688533882,-0.0125258178241,0.0574943550978,-0.0213839622702,0.573889641288,0.81891760398,0.00232043430626,0.0,0.818879518079,-0.573829861455,-0.0116778368958,0.0,-0.00823181020176,0.00860211137091,-0.999929117978,0.0,0.653526027337,0.25036884584,0.30361517158,1.0,-0.01814,-0.0238411428571,0.908
0.458949887037,0.502125583373,-0.124152931522,-1.42709384933,0.0751013683199,1.92037932208,0.149759227892,-0.00995947472929,-0.105833556642,-0.000114361298034,-0.148305193804,-0.00857924309145,0.0498842473803,-0.021274475166,0.573883045684,0.818921926497,0.00242385636025,0.0,0.818885194817,-0.573822907988,-0.0116213114338,0.0,-0.00812623889785,0.00865430031032,-0.999929531181,0.0,0.653225881451,0.249982854357,0.303686864428,1.0,-0.01848,-0.024288,0.925
0.458732362808,0.500507894154,-0.124147555813,-1.42952971491,0.0749474605679,1.9212329368,0.149423512346,-0.0148378614422,-0.106054323656,0.00107685963914,-0.151844209189,-0.00869177148996,0.0544637756819,-0.0167547112042,0.573864815865,0.818934604823,0.00245622407018,0.0,0.818898201551,-0.57380446893,-0.01161524144,0.0,-0.00810288681613,0.00867714292577,-0.999929522724,0.0,0.652913695768,0.249609467309,0.303730147585,1.0,-0.0188,-0.0247085714286,0.941
0.458476125948,0.498719818556,-0.124153401588,-1.43229831447,0.074764777738,1.92224595281,0.149022794288,-0.0191452022432,-0.104848018074,-0.00021054009591,-0.15725974812,-0.00744956218369,0.0558463875131,-0.0242925925086,0.573842006215,0.818950527566,0.00247632872804,0.0,0.81891444898,-0.573781660592,-0.0115964701708,0.0,-0.00807621884673,0.00868261025077,-0.999929691013,0.0,0.652570201247,0.249173272538,0.303747509096,1.0,-0.01916,-0.0251817142857,0.959
0.458191384989,0.496868544247,-0.124149058602,-1.43525434764,0.0745867088592,1.92333235016,0.148595764336,-0.0143514637807,-0.0933663044854,0.000881814462136,-0.155686200759,-0.0044884064906,0.0509266956156,-0.0264251126972,0.573824247731,0.818963011367,0.00246285005832,0.0,0.818926633056,-0.573763817236,-0.0116188899178,0.0,-0.00810250282334,0.00868426147146,-0.999929464038,0.0,0.65220091151,0.248708880138,0.303725147769,1.0,-0.01954,-0.0256811428571,0.978
0.457977476336,0.495479911648,-0.124146561717,-1.43749756835,0.0744461518463,1.92409073942,0.148271524894,-0.0181173614563,-0.103070747376,0.000995344611937,-0.163800268207,-0.0154350561937,0.0531517693306,-0.0244188240042,0.57380703087,0.818975313018,0.0023822030501,0.0,0.818937746715,-0.573746739814,-0.011678718201,0.0,-0.00819795849686,0.00865237319836,-0.999928962434,0.0,0.651905927688,0.248352103843,0.3036906621,1.0,-0.01982,-0.0260491428571,0.992
0.457687131221,0.493707621991,-0.124151512081,-1.44040982403,0.0742624187756,1.92512750259,0.147863198096,-0.0166755533704,-0.0957392453986,0.000519665212069,-0.164712886335,-0.000818155800457,0.0600514711569,-0.0209274870088,0.573810743342,0.818972974553,0.00229012633177,0.0,0.818934141642,-0.573750717462,-0.0117359604028,0.0,-0.0082976325295,0.00860984857057,-0.999928507345,0.0,0.651536335213,0.247878879895,0.303628865884,1.0,-0.0206022857143,-0.0270772897959,1.01
0.457470889966,0.492328580736,-0.124152971968,-1.44261072013,0.0741182460768,1.92594372278,0.147554934605,-0.0164568754233,-0.107682208896,-0.00107069695642,-0.17088282746,-0.00621484248995,0.0643045875726,-0.0180329387278,0.573807742634,0.818975107355,0.00227923856635,0.0,0.818936165194,-0.57374779139,-0.0117378069995,0.0,-0.00830542355916,0.00860196104334,-0.999928510547,0.0,0.65126260187,0.247526599031,0.303611967451,1.0,-0.0215011428571,-0.028258644898,1.023
0.457079321074,0.489905817956,-0.124156527129,-1.44654064254,0.073876952257,1.92732185459,0.146995796226,-0.0185901836316,-0.11584280709,0.00064748912714,-0.185742939829,-0.0132086406091,0.0611613998815,-0.0289621721716,0.573803731156,0.818978213748,0.0021703500503,0.0,0.818937652433,-0.573743989809,-0.0118195806504,0.0,-0.00843491614949,0.00855966565316,-0.99992778955,0.0,0.650755476281,0.246890530414,0.303546405851,1.0,-0.0230222857143,-0.0302578612245,1.045
0.456790631463,0.488138805723,-0.124162797098,-1.44933142241,0.0736934713426,1.92835873734,0.146592956602,-0.0222407896088,-0.119475189039,0.00120273376822,-0.189660284952,-0.017797456966,0.0726569168678,-0.0224754404618,0.573803641236,0.818978269225,0.00217318734779,0.0,0.818937811479,-0.57374395647,-0.0118101754678,0.0,-0.00842558617542,0.00855659171848,-0.999927894518,0.0,0.650410684013,0.246432439488,0.303536407332,1.0,-0.0240594285714,-0.0316209632653,1.06
0.45641824245,0.485853303502,-0.12418632586,-1.45279828192,0.073484942483,1.92969845874,0.146087886577,-0.0235132356533,-0.125965017258,-0.00476526487377,-0.192885614235,-0.00653174842565,0.077119570914,-0.0259223199619,0.573827415727,0.818961251743,0.00230477849516,0.0,0.818922574536,-0.573767296914,-0.0117325534138,0.0,-0.00828625963891,0.00862006190721,-0.999928513662,0.0,0.649999069801,0.245853038039,0.303590550855,1.0,-0.025304,-0.0332566857143,1.078
0.456088057821,0.483880977171,-0.124207628188,-1.45581360313,0.0732876258692,1.93075833358,0.145623084519,-0.0254340453974,-0.130627711899,-0.004219026465,-0.200438122931,-0.0155730441768,0.0678470543033,-0.0295406067916,0.573826934212,0.818961567345,0.00231250642657,0.0,0.81892303355,-0.573766831417,-0.0117232755188,0.0,-0.00827423191287,0.00862106200996,-0.999928604639,0.0,0.649620357277,0.245335117052,0.303616774425,1.0,-0.0263411428571,-0.0346197877551,1.093
0.455640117483,0.481117794826,-0.124249009613,-1.46007846369,0.0730233256555,1.9322422311,0.144983863895,-0.021017503873,-0.143471518557,-0.00162735883659,-0.219862282313,-0.015926818197,0.0820220048079,-0.032900295016,0.573836878916,0.818954651801,0.00229381577981,0.0,0.818915826027,-0.57377679362,-0.0117391603606,0.0,-0.00829786148183,0.0086149710514,-0.999928461325,0.0,0.649075243224,0.244609709167,0.303633084967,1.0,-0.027724,-0.0364372571429,1.113
0.455336148979,0.479272435102,-0.124251282112,-1.46292544267,0.0728502105087,1.93330829008,0.14456122096,-0.0194185110886,-0.145685119438,0.000275813460226,-0.221255878564,-0.0115900722239,0.0794519263484,-0.0402062037294,0.573833266167,0.818957023348,0.00235020231284,0.0,0.818918864245,-0.573772902597,-0.0117173773005,0.0,-0.00824770482658,0.0086486124086,-0.999928585884,0.0,0.648720102034,0.244142846416,0.303649338466,1.0,-0.0286228571429,-0.0376186122449,1.126
0.454848530076,0.476466759163,-0.124274682689,-1.4672050249,0.0725812567948,1.93487473323,0.143947631218,-0.0237296107175,-0.151157090856,-0.0029733875357,-0.22575873126,-0.0182263128024,0.0812077744444,-0.033526242662,0.573881291231,0.818923154124,0.00242448243639,0.0,0.818885976208,-0.57382066807,-0.0116767189565,0.0,-0.00817127470866,0.00868659246265,-0.999928884162,0.0,0.648189525483,0.243406461946,0.303691604598,1.0,-0.0299365714286,-0.0393452081633,1.145
0.454512240058,0.474478936591,-0.124277834566,-1.47028367211,0.0723875328531,1.93599028708,0.143515073389,-0.0280359163127,-0.15844017309,0.00154100243398,-0.234883555046,-0.0128403769978,0.0808900426739,-0.0287094520798,0.573900358647,0.818909730565,0.00244508315616,0.0,0.818872749949,-0.573839584286,-0.0116746648537,0.0,-0.00815756820641,0.00870247386416,-0.999928857984,0.0,0.647796181852,0.242893283827,0.303698448211,1.0,-0.0308354285714,-0.0405265632653,1.158
0.454006058384,0.471512880067,-0.124289342775,-1.47490328533,0.0720963811792,1.93759237068,0.14282186921,-0.0309401503092,-0.154798544324,-0.00180505086013,-0.242923797575,-0.0181356747068,0.0858675519702,-0.0395866335771,0.573897164871,0.818912093807,0.00240284632054,0.0,0.818874373583,-0.573836341363,-0.0117200905044,0.0,-0.00821904155519,0.00869392337304,-0.999928428965,0.0,0.647189850701,0.242113753449,0.303689434683,1.0,-0.0321491428571,-0.0422531591837,1.177
0.453603734715,0.469054751077,-0.124281822989,-1.47859501357,0.0718560488207,1.93901017106,0.142234854014,-0.0279700847264,-0.163159162588,-0.00105932362284,-0.246403184276,-0.0195823202138,0.0990812717174,-0.037591836662,0.573850840388,0.818944092561,0.00255600213261,0.0,0.818908417552,-0.573789535439,-0.0116326946186,0.0,-0.0080600744436,0.00876873206978,-0.999929069753,0.0,0.646728647298,0.241511295604,0.303752547679,1.0,-0.0331862857143,-0.0436162612245,1.192
0.453086084043,0.466027789007,-0.124283948889,-1.483216315,0.0715412945279,1.9406833716,0.141501918283,-0.0321055614756,-0.175180342859,-0.000981274815106,-0.259344877598,-0.0164664560863,0.0875438867548,-0.0408584048505,0.573808105864,0.818973857619,0.00261248599836,0.0,0.818938986162,-0.573746689193,-0.0115939848534,0.0,-0.00799641926433,0.00879235840317,-0.999929373362,0.0,0.646132851453,0.240732399754,0.303786631233,1.0,-0.0344308571429,-0.0452519836735,1.21
0.452566494283,0.463110246467,-0.124290360114,-1.48782727418,0.0712300187141,1.9422522722,0.140825955231,-0.0344767194743,-0.176998970662,-0.000348396193655,-0.276604708888,-0.0182265408438,0.0929455689256,-0.0416979587001,0.573815241243,0.818969212483,0.00249896454847,0.0,0.818932759964,-0.573754101232,-0.0116667424009,0.0,-0.00812106803348,0.00874120683532,-0.999928817245,0.0,0.645513265523,0.239943962874,0.303739517367,1.0,-0.0356062857143,-0.0467968326531,1.227
0.452065463257,0.460280185054,-0.124286025241,-1.49224408557,0.0709322624164,1.943806099,0.14017670702,-0.0329226905778,-0.181817875558,7.7352909458e-05,-0.272031856379,-0.0224321950576,0.0964356462799,-0.048408247079,0.573814526526,0.818969816943,0.002464748585,0.0,0.81893284591,-0.57375342956,-0.0116937102064,0.0,-0.00816279491257,0.00872865241219,-0.999928587153,0.0,0.644925845798,0.239197154894,0.303720869621,1.0,-0.0367125714286,-0.0482508081633,1.243
0.4514995573,0.457234592548,-0.124299238604,-1.49702562785,0.0706197469533,1.94549926467,0.139437657442,-0.0340380704464,-0.180354996909,-0.00136065372373,-0.290298294805,-0.022088974802,0.0995617249298,-0.049710685371,0.573817909106,0.818967571471,0.00242300825996,0.0,0.818929971416,-0.57375687124,-0.0117261043525,0.0,-0.00821323969647,0.00871309052056,-0.999928309804,0.0,0.644296783215,0.238365647338,0.303687651089,1.0,-0.037888,-0.0497956571429,1.26
0.450864121319,0.453910040207,-0.124337424708,-1.50230880972,0.0702496496756,1.94730364204,0.138620507947,-0.0370933255336,-0.181665092977,-0.000581063481479,-0.289879338095,-0.0205869843293,0.103420307096,-0.0484893390496,0.573836927094,0.818954684124,0.00227010039322,0.0,0.818915187753,-0.573776556708,-0.0117951321104,0.0,-0.0083573092088,0.008627668164,-0.99992785676,0.0,0.643591356647,0.237418663241,0.303615607557,1.0,-0.0391325714286,-0.0514313795918,1.278
0.450270959531,0.450525789088,-0.124384407152,-1.50729649809,0.0699277805801,1.94919722274,0.137825509925,-0.0360947832658,-0.197140200353,-0.000370463878289,-0.293344054476,-0.017778385258,0.109826534477,-0.0390752292409,0.573845386086,0.818948070037,0.00250566403096,0.0,0.818911869037,-0.573784395915,-0.0116432236023,0.0,-0.00809764048042,0.00873349630499,-0.999929074615,0.0,0.64296485191,0.236542919149,0.303729596107,1.0,-0.040308,-0.0529762285714,1.295
0.449673603232,0.447309709228,-0.124390804756,-1.51215759524,0.069588842177,1.95083149573,0.137109060808,-0.0353743929188,-0.207029449575,0.000395671535578,-0.306899173433,-0.0120204358561,0.09316922016,-0.0437024203609,0.573877429246,0.81892566718,0.00248892282269,0.0,0.818889187854,-0.573816428547,-0.0116598133295,0.0,-0.00812049194963,0.00872962376022,-0.999928923114,0.0,0.642302516503,0.235682608292,0.303762459132,1.0,-0.0414142857143,-0.0544302040816,1.311
0.449047159219,0.44386179744,-0.124396545113,-1.51745761663,0.0692208788476,1.95267766409,0.136310292074,-0.0331938834852,-0.198641604798,-0.00634638675091,-0.313787623388,-0.0116645369643,0.109937912373,-0.040711333535,0.573875604287,0.818926995442,0.00247261837029,0.0,0.818890289959,-0.573814646323,-0.0116701147229,0.0,-0.00813830403839,0.0087221652416,-0.999928843389,0.0,0.64158072916,0.234765840624,0.303761217581,1.0,-0.0425897142857,-0.0559750530612,1.328
0.448421172069,0.440577516336,-0.124391918487,-1.52253955862,0.0688688618674,1.95448609686,0.135470764643,-0.0339102607277,-0.195444559983,0.000111723906761,-0.3169988647,-0.0160070997087,0.108405031672,-0.0576470186671,0.573825288389,0.818962253794,0.00247227969926,0.0,0.818925521879,-0.573764314295,-0.0116725386496,0.0,-0.00814101943346,0.00872277874033,-0.999928815933,0.0,0.64089474076,0.233879732802,0.303745633193,1.0,-0.043696,-0.0574290285714,1.344
0.447676411509,0.43680874495,-0.124399987054,-1.52838826461,0.068478984196,1.95654406201,0.134536537631,-0.0467793200533,-0.21594967369,-0.000762068112614,-0.318002871111,-0.0189583815475,0.115021321311,-0.0471749896791,0.57382553658,0.818962148324,0.00244950652576,0.0,0.818924975827,-0.573764489653,-0.0117021912749,0.0,-0.00817836930387,0.00872114616895,-0.999928525388,0.0,0.640102359494,0.232838330189,0.30371542563,1.0,-0.0449405714286,-0.0590647510204,1.362
0.446980567546,0.433262351549,-0.124411069161,-1.53364129329,0.0681138439065,1.95843191973,0.133694245681,-0.0465691665505,-0.225043156281,0.000924251137955,-0.332288262014,-0.0204820985091,0.12221147748,-0.0532949623359,0.573841825135,0.818950311203,0.00258735537177,0.0,0.818915105004,-0.57378048055,-0.0116085243272,0.0,-0.00802238505759,0.00878045023389,-0.999929270014,0.0,0.639362525614,0.231823485629,0.303793576243,1.0,-0.046116,-0.0606096,1.379
0.446225060208,0.429533785642,-0.124442127118,-1.53947621243,0.0676740007163,1.96036297691,0.13277203203,-0.0487920536019,-0.220446548071,-0.00110226096195,-0.354984423787,-0.0301588450765,0.113383349349,-0.0560446543183,0.573854896088,0.818941683309,0.00241339534159,0.0,0.818904303108,-0.573794254355,-0.0116894363412,0.0,-0.00818833194445,0.00868454731167,-0.999928762392,0.0,0.63858815474,0.23081286509,0.303730283829,1.0,-0.0472222857143,-0.0620635755102,1.395
0.445508855944,0.425877502168,-0.12447590439,-1.54503433821,0.0672730544929,1.96222932304,0.131861522309,-0.0438946481834,-0.230654532151,-0.000421222251282,-0.345221402514,-0.025689608672,0.113568317594,-0.0523210752557,0.573845325285,0.818948529596,0.00236546451656,0.0,0.818910593298,-0.573784929784,-0.0117064699063,0.0,-0.00822988687583,0.00865497361708,-0.999928677653,0.0,0.637811276628,0.229796658134,0.303735544748,1.0,-0.0483285714286,-0.0635175510204,1.411
0.444621558679,0.421496872199,-0.124489154733,-1.55168362399,0.0668117921374,1.96453490171,0.130757946963,-0.0407702405567,-0.225835070389,-0.000546401488665,-0.353269183445,-0.0256738460836,0.112058253188,-0.0513578900033,0.573830024394,0.818959184517,0.00238832577671,0.0,0.818921465259,-0.573769462809,-0.0117040244036,0.0,-0.00821492804605,0.00867213881915,-0.999928651937,0.0,0.636889645176,0.228586721105,0.303747607661,1.0,-0.0496422857143,-0.0652441469388,1.43
0.443831035783,0.41769939219,-0.124510497964,-1.55734677124,0.0664239127265,1.96656670563,0.129860548969,-0.0531072938343,-0.243704444915,0.000440553888731,-0.353681955155,-0.0230647678052,0.124526052872,-0.0565526571121,0.573887015017,0.818918853001,0.00252053481538,0.0,0.818882901119,-0.573826028165,-0.0116288673733,0.0,-0.00807690575457,0.00873784707754,-0.999929204305,0.0,0.636123697668,0.227535432853,0.303805146183,1.0,-0.0507485714286,-0.066698122449,1.446
0.442995402516,0.41360985437,-0.124523312074,-1.56348642722,0.0660015562934,1.9687765773,0.12882277132,-0.0478112738142,-0.242506003229,-0.00100883738746,-0.360997962316,-0.0247901513312,0.124536334168,-0.0674929951043,0.573867133024,0.818932383831,0.00264787634646,0.0,0.818898101605,-0.573805733504,-0.0115596836904,0.0,-0.00794738570354,0.00880223292176,-0.999929677405,0.0,0.635280425661,0.226416795094,0.303845442948,1.0,-0.051924,-0.0682429714286,1.463
0.44211886401,0.409446275752,-0.124541224067,-1.56985380999,0.0655330949758,1.97079048798,0.127759767845,-0.0557507748949,-0.245048205155,0.00121084125892,-0.373114692499,-0.0311064664317,0.114877917324,-0.0557897661663,0.573854442693,0.818941817234,0.00247497230711,0.0,0.818905103618,-0.57379343748,-0.011673443105,0.0,-0.00813990456042,0.00872579263949,-0.999928798713,0.0,0.634345257411,0.225226587187,0.303806826837,1.0,-0.0530994285714,-0.0697878204082,1.48
0.441389645288,0.405979055182,-0.124561282661,-1.57515295199,0.0651693322344,1.97260438385,0.12690746871,-0.0535217191522,-0.242330398196,-0.000149256521098,-0.386465387717,-0.0254834568897,0.129513855068,-0.0611692415761,0.573880929103,0.818923314286,0.00245589733277,0.0,0.81888620855,-0.573819834751,-0.011701350145,0.0,-0.00817342320441,0.00872645015957,-0.999928519556,0.0,0.633588989225,0.224247145667,0.303785086704,1.0,-0.0540674285714,-0.0710600489796,1.494
0.440458671745,0.401717292808,-0.124564183395,-1.58161400531,0.0647343123567,1.97484363632,0.125807340611,-0.0553944514236,-0.25848939233,-0.00245393311483,-0.38073517438,-0.0267831455495,0.135860815928,-0.0654101739708,0.573881315051,0.818922926717,0.00249464108351,0.0,0.81888603946,-0.573819775253,-0.0117160917782,0.0,-0.0081632589508,0.00876664169868,-0.999928251024,0.0,0.632670903969,0.223044413331,0.303779353585,1.0,-0.0552428571429,-0.0726048979592,1.511
0.439488744053,0.397298466871,-0.124584583038,-1.58805594316,0.0642406714296,1.977153107,0.124677658708,-0.0594917225577,-0.257773180905,0.000797883782327,-0.378685963686,-0.0295942191321,0.12977116381,-0.0661741338378,0.573879400434,0.81892359937,0.00270537495286,0.0,0.818889894199,-0.573817621161,-0.011551005394,0.0,-0.007907151331,0.0088444585421,-0.999929623779,0.0,0.63178366557,0.221808264092,0.303889273874,1.0,-0.0564182857143,-0.0741497469388,1.528
0.438444819275,0.392560289059,-0.12459179496,-1.59524436671,0.0637076680068,1.97945414387,0.123507939052,-0.0531108595644,-0.268139949008,0.000334873255481,-0.401921791197,-0.0364481986196,0.119375935106,-0.0671664539387,0.573909082504,0.81890324023,0.00256808527553,0.0,0.818867520764,-0.57384750892,-0.0116519030973,0.0,-0.00806824720193,0.00879022387773,-0.999928815142,0.0,0.630711208487,0.220448296887,0.303853728537,1.0,-0.0576628571429,-0.0757854693877,1.546
0.437516160697,0.388341092194,-0.124599846531,-1.60163213771,0.063222803112,1.98158549765,0.122389139638,-0.0516119386576,-0.259246525763,-0.000171947391622,-0.397020769473,-0.0319691248691,0.138620814734,-0.0764795056485,0.57386582396,0.8189337132,0.00251721601211,0.0,0.818897343573,-0.573804446598,-0.0116766713794,0.0,-0.00811818640997,0.00876235285019,-0.999928655566,0.0,0.629769083542,0.219244159981,0.303830880046,1.0,-0.0587691428571,-0.077239444898,1.562
0.436431561543,0.383511686645,-0.124589333741,-1.60886443196,0.0627044527681,1.98402711255,0.121061662902,-0.0586131671725,-0.275016777277,0.00141682108911,-0.393618812087,-0.0278661863211,0.136468442389,-0.0706896336142,0.573785584536,0.818989833857,0.0025498860426,0.0,0.81895362856,-0.573723819605,-0.0116910216531,0.0,-0.00811205370352,0.00879654748083,-0.999928405106,0.0,0.628702343692,0.217881197037,0.303836415355,1.0,-0.0600137142857,-0.0788751673469,1.58
0.435356961115,0.378855811292,-0.124597845719,-1.61573855251,0.0621959874999,1.9864302463,0.119872488727,-0.069581124053,-0.271061680551,0.000448041957727,-0.417259831577,-0.0228664440339,0.135611314504,-0.0674759326427,0.573809767421,0.818972441632,0.00269027169146,0.0,0.818938168306,-0.573747631966,-0.0116050940105,0.0,-0.00796086843624,0.00886245309601,-0.999929038232,0.0,0.627711999874,0.216553358674,0.303887279199,1.0,-0.0611891428571,-0.0804200163265,1.597
0.434305629954,0.374429347719,-0.124628644221,-1.62250353378,0.0616498260069,1.98855098535,0.118657706287,-0.0659044698877,-0.282703171827,-0.0039935162237,-0.414402811173,-0.0344865984199,0.134015792238,-0.0777008853968,0.573788797437,0.81898781756,0.00247336316281,0.0,0.818950782239,-0.573727484045,-0.0117105603154,0.0,-0.00817192714552,0.00874511938829,-0.999928368681,0.0,0.626680720594,0.215216377254,0.303808810114,1.0,-0.0622954285714,-0.0818739918367,1.613
0.433102313174,0.369328906493,-0.124679750469,-1.63010538401,0.0610739831454,1.99099928414,0.117356252244,-0.0634635464718,-0.281467680581,-0.00239619579315,-0.432318469449,-0.0303446911974,0.141353353856,-0.0761730705486,0.573856283744,0.818940723799,0.00240902710803,0.0,0.818902808587,-0.573795151323,-0.0117499492298,0.0,-0.00824038250577,0.00871570906834,-0.999928063668,0.0,0.62553460813,0.213704901992,0.303804097926,1.0,-0.06354,-0.0835097142857,1.631
0.431997380611,0.364708953908,-0.124694435265,-1.63676454614,0.0605529862512,1.99333487861,0.116149769883,-0.0766553955946,-0.291315640314,-0.0019104260313,-0.412948396198,-0.0335163905391,0.147957650739,-0.0860346546913,0.573871084714,0.818929666722,0.00263172821565,0.0,0.818895011574,-0.573809558209,-0.011588694005,0.0,-0.00798036816132,0.0088056950436,-0.999929384236,0.0,0.62456986829,0.212380572831,0.303910144804,1.0,-0.0646462857143,-0.0849636897959,1.647
0.430861806605,0.360093357902,-0.124709300606,-1.64355805469,0.0600501088439,1.99564021926,0.114846815309,-0.0738131835682,-0.287777483729,-0.00141782966106,-0.433346251689,-0.0306186743787,0.140975031647,-0.0856507290946,0.573839586137,0.818951412028,0.00273148680144,0.0,0.818917999965,-0.57377767512,-0.0115427798907,0.0,-0.00788586157098,0.00886073834042,-0.999929647777,0.0,0.623559363403,0.21102571082,0.303942177967,1.0,-0.0657525714286,-0.0864176653061,1.663
0.429607501931,0.355113801346,-0.124736769447,-1.651043008,0.0594852727365,1.99791385955,0.113508849803,-0.0743859435818,-0.294307015256,-0.00055378275737,-0.436172115591,-0.0341031234388,0.138261340311,-0.0702710467876,0.573886468718,0.818919196106,0.00253341121174,0.0,0.818882763074,-0.57382473514,-0.0117021614659,0.0,-0.00812954716173,0.00879044813646,-0.999928316673,0.0,0.622382693539,0.209509243541,0.303879210041,1.0,-0.066928,-0.0879625142857,1.68
0.428341677386,0.350110903134,-0.124783686677,-1.65857379468,0.0589202831761,2.00031842792,0.112116660929,-0.0735068312636,-0.297725146306,-0.00693538944431,-0.437992099545,-0.0310886596461,0.142199547893,-0.0806549720992,0.573911206532,0.818902202566,0.00242003111909,0.0,0.818864038924,-0.573849611883,-0.0117921838577,0.0,-0.00826807060169,0.00874951137712,-0.999927539904,0.0,0.621216239325,0.207980771442,0.303815534355,1.0,-0.0681034285714,-0.0895073632653,1.697
0.427024867839,0.344901744097,-0.124786015658,-1.665945329,0.0583597982157,2.00289433637,0.110694473964,-0.0767242465519,-0.309240974969,0.00153172192012,-0.43362587865,-0.0372921454249,0.14975808212,-0.0790900768434,0.573910549268,0.818901598649,0.00275682270127,0.0,0.818868022834,-0.573847991673,-0.011592693131,0.0,-0.00791143008664,0.00891081439778,-0.99992900081,0.0,0.620125201452,0.206481586896,0.303968173764,1.0,-0.0692788571429,-0.0910522122449,1.714
0.425693361248,0.339710785527,-0.124789210989,-1.67358359616,0.0577291019268,2.00527819163,0.109296609894,-0.0800781620225,-0.305795137555,-0.000704807466045,-0.453186085791,-0.0362473722303,0.138430527782,-0.0816134461825,0.573922060468,0.818893796784,0.00267675145121,0.0,0.818859173231,-0.573859762605,-0.0116350410666,0.0,-0.00799193687194,0.00886965999128,-0.999928726498,0.0,0.618916154596,0.204925630866,0.303960075601,1.0,-0.0704542857143,-0.0925970612245,1.731
0.424356766862,0.334496847244,-0.124786996351,-1.68136693092,0.0570835536111,2.00767550447,0.107794213295,-0.0820121750286,-0.305925606633,0.000576281127126,-0.455100712914,-0.0401950863048,0.13879672273,-0.0866081874604,0.573842969183,0.818949759978,0.0025068408974,0.0,0.81891279669,-0.573781137789,-0.0117381530101,0.0,-0.00817473695687,0.00878890987995,-0.999927961775,0.0,0.617659412927,0.203357019377,0.303892960844,1.0,-0.0716297142857,-0.0941419102041,1.748
0.423065644685,0.329470164331,-0.124782098503,-1.68858369899,0.0565129744818,2.01005269286,0.106384109772,-0.0817678308763,-0.322917854374,0.00261438033766,-0.442568782093,-0.0354208053258,0.149179505537,-0.0844489735476,0.573801612175,0.818978278952,0.00265242739,0.0,0.818943221539,-0.573739282916,-0.0116611335352,0.0,-0.00802856785937,0.00886353530448,-0.999928487363,0.0,0.616529279077,0.201891558266,0.303961983626,1.0,-0.072736,-0.0955958857143,1.764
0.421631151076,0.324132474399,-0.124782478546,-1.69633459068,0.0558944229406,2.01262873857,0.104824598666,-0.0910133046694,-0.307276796525,-0.000568275146248,-0.465331194054,-0.0418011216923,0.14604580231,-0.0882140560784,0.57375716685,0.81900902302,0.00277138974289,0.0,0.81897558007,-0.573694516936,-0.0115908320175,0.0,-0.00790321706827,0.00892019520349,-0.999928982117,0.0,0.61531865183,0.200288907275,0.303991662912,1.0,-0.0739114285714,-0.0971407346939,1.781
0.420053214734,0.318381699449,-0.124830564629,-1.70480521765,0.0551976670462,2.01518774199,0.103251448586,-0.0865541117185,-0.327369003407,-0.00541613486849,-0.473465289527,-0.03212066788,0.154998904306,-0.0929372348478,0.573836656708,0.818953836341,0.00261768269028,0.0,0.818918206226,-0.573774311323,-0.0116943609877,0.0,-0.00807533818685,0.00885449150112,-0.999928190868,0.0,0.614013652434,0.198591510863,0.30394452466,1.0,-0.0750868571429,-0.0986855836735,1.798
0.418714526439,0.313536211084,-0.124858698892,-1.71188516856,0.0546133418031,2.0173402965,0.101774880956,-0.0909766359944,-0.327070004172,-0.0016517015753,-0.473850956822,-0.0345488886641,0.150267655474,-0.0983647882192,0.573790898731,0.818986182735,0.00252664281944,0.0,0.818949269096,-0.573728777871,-0.011752914146,0.0,-0.00817602400935,0.00881307713984,-0.999927738541,0.0,0.612783685119,0.196986197272,0.303918666741,1.0,-0.0761931428571,-0.100139559184,1.814
0.417062987429,0.307631690139,-0.124866597385,-1.72021983676,0.0539032764913,2.02012215306,0.100064363631,-0.0964994017397,-0.320281835987,-9.25755537761e-05,-0.463069520172,-0.0382588797782,0.149065578984,-0.0935340480787,0.573777606979,0.818994665699,0.00278247851682,0.0,0.818961587725,-0.573715167861,-0.0115572876721,0.0,-0.00786915832975,0.00891022743711,-0.999929339601,0.0,0.611476178393,0.195203364797,0.304032831788,1.0,-0.0774377142857,-0.101775281633,1.832
0.415448831459,0.302040025571,-0.124905140847,-1.72839588059,0.0532231735738,2.02257225622,0.0983617924943,-0.0919265761696,-0.325410485345,-0.0026719221288,-0.491859723309,-0.0454376566944,0.144183117544,-0.0963754619519,0.573762456892,0.819005712345,0.00265200085749,0.0,0.818970730407,-0.573700223522,-0.0116508870452,0.0,-0.00802084398533,0.00885692317857,-0.999928607938,0.0,0.610122606218,0.19343006161,0.303984749875,1.0,-0.0786131428571,-0.103320130612,1.849
0.413697258299,0.296104553322,-0.124966995258,-1.73712884789,0.0525372684129,2.02515923897,0.096677123674,-0.0987351032045,-0.33295883592,-0.00330312701411,-0.483121037305,-0.0347969088687,0.136088435573,-0.0989275496504,0.573902966086,0.818907804098,0.00247806508283,0.0,0.81886995562,-0.573840686466,-0.0118156354086,0.0,-0.00825406039447,0.00881041087929,-0.999927120918,0.0,0.608663046609,0.191517349554,0.303898730147,1.0,-0.0798577142857,-0.104955853061,1.867
0.412203071484,0.290967435699,-0.12499335612,-1.74421890098,0.0519446124322,2.02753611681,0.095131692399,-0.0956173981575,-0.341553079887,-0.00116466324446,-0.473985373621,-0.0337925260346,0.160331411976,-0.0998659920346,0.573895163255,0.818912203925,0.00280904907185,0.0,0.818879108359,-0.573832210833,-0.0115907982654,0.0,-0.00788007502942,0.00895234702251,-0.999928877421,0.0,0.607542715769,0.189953606956,0.30404698408,1.0,-0.0808948571429,-0.106318955102,1.882
0.410496148637,0.285205000735,-0.125010758214,-1.75251662801,0.0512334139608,2.02997945129,0.0933911679212,-0.0998756219315,-0.340212554754,-0.000926381348126,-0.487043186931,-0.0434997479317,0.140380260066,-0.104953420133,0.573883646537,0.818920593002,0.00271468144158,0.0,0.818886055726,-0.573820771008,-0.0116660789491,0.0,-0.00799600564106,0.00891815840854,-0.999928262599,0.0,0.60613395362,0.188138609194,0.304024267064,1.0,-0.0820702857143,-0.107863804082,1.899
0.408959349971,0.280073609925,-0.125024954254,-1.75995561517,0.0505560885865,2.03213618932,0.0917888038043,-0.102448477039,-0.338871230863,-0.000269332655959,-0.492731355031,-0.0374303260868,0.146867742215,-0.108501231934,0.573823295167,0.818963398783,0.00255426688807,0.0,0.818926769062,-0.573760988026,-0.0117482949244,0.0,-0.00815604187686,0.00883337290585,-0.99992772264,0.0,0.604854471128,0.186505915254,0.303971591681,1.0,-0.0831074285714,-0.109226906122,1.914
0.407162745604,0.27412203649,-0.125034794919,-1.76825684736,0.0498679175962,2.03476086862,0.0900269293576,-0.108007713997,-0.352495038514,-0.000795082596595,-0.487063230297,-0.0369372896991,0.163107830116,-0.10375365946,0.573859638774,0.818937213649,0.00277524544042,0.0,0.818903479805,-0.573796578184,-0.0116329071793,0.0,-0.00793434701547,0.00894848634636,-0.999928482807,0.0,0.603475941621,0.184668674278,0.304064906114,1.0,-0.0842828571429,-0.110771755102,1.931
0.405310163972,0.268223162779,-0.12507108599,-1.77663523552,0.049125554833,2.0373251153,0.0881539081691,-0.106836557782,-0.352299209492,-0.00353486865023,-0.497470167295,-0.0433023411723,0.151332769833,-0.107577660329,0.573847577006,0.818945537753,0.00281273172261,0.0,0.81891247694,-0.57378460367,-0.0115901080573,0.0,-0.00787791679324,0.0089545089299,-0.999928875069,0.0,0.602064659646,0.182769435572,0.304074909132,1.0,-0.0854582857143,-0.112316604082,1.948
0.403423631622,0.262189911807,-0.125142632287,-1.7852418038,0.0483588742356,2.03971598878,0.0863088338818,-0.10742004956,-0.357438327014,-0.000719723526575,-0.508476925124,-0.0428714908175,0.139188579022,-0.111498049365,0.573904058003,0.818906544188,0.00263647407525,0.0,0.81887096908,-0.573841429742,-0.0117088176731,0.0,-0.00807566484595,0.00887884100316,-0.999927972316,0.0,0.600553538785,0.180801922705,0.304038558079,1.0,-0.0866337142857,-0.113861453061,1.965
0.40138237457,0.255760829921,-0.125155638209,-1.79421759245,0.0475509406743,2.04240170109,0.0842933979986,-0.11007250278,-0.367985741054,0.00135837335367,-0.490805326949,-0.0474848556451,0.155370284751,-0.111918923865,0.573890745758,0.818915590363,0.00272299371213,0.0,0.818881278824,-0.573827972226,-0.0116471620713,0.0,-0.00797566619973,0.00891417872582,-0.999928460524,0.0,0.59900765562,0.178760893261,0.304090913658,1.0,-0.0878782857143,-0.11549717551,1.983
0.39953752469,0.250025321862,-0.125133643408,-1.8022381231,0.0468350787661,2.04484719229,0.0824694096661,-0.11462626044,-0.362567482889,0.0020869932357,-0.511477886994,-0.0497904747943,0.148973363062,-0.121937612878,0.57384688144,0.818945942562,0.00283667478695,0.0,0.818913171604,-0.573783805586,-0.0115805320243,0.0,-0.00785634291845,0.00896861520776,-0.999928918382,0.0,0.597619614592,0.176954824809,0.304125808999,1.0,-0.0889845714286,-0.11695115102,1.999
0.39753086278,0.243923352537,-0.125164742502,-1.81099047671,0.0460798772186,2.04729721123,0.0804777914889,-0.119207991234,-0.360325374204,-0.00398410652902,-0.520506865571,-0.050571078176,0.146282263706,-0.117734975779,0.573838797955,0.818952165729,0.00267041396307,0.0,0.818916628727,-0.573775612946,-0.0117408723839,0.0,-0.00808315008357,0.00892438631776,-0.999927506379,0.0,0.596049255805,0.174954111497,0.304038852331,1.0,-0.09016,-0.118496,2.016
0.395114157701,0.236515078111,-0.125154239137,-1.82115056234,0.0452041945122,2.05025059659,0.0780975258786,-0.124359841113,-0.381197513175,0.000599624493681,-0.49952354484,-0.0365410076713,0.159311865302,-0.116240829368,0.573799705411,0.818978967625,0.00284526977831,0.0,0.818945358801,-0.573735524627,-0.0116958958616,0.0,-0.00794641336227,0.00904139615426,-0.999927551211,0.0,0.594245683387,0.172627220323,0.304133807314,1.0,-0.0915428571428,-0.120313469388,2.036
0.393512155202,0.231732024851,-0.125154248957,-1.82777335776,0.044567279615,2.05222983895,0.0765825869307,-0.123140780692,-0.366400550555,-0.000510863327246,-0.515048404419,-0.056044177151,0.149674077285,-0.126751166245,0.573801683867,0.818977306084,0.00292345886052,0.0,0.818945072474,-0.573737651768,-0.0116112925982,0.0,-0.00783223750537,0.00905690584661,-0.999928311686,0.0,0.593077123782,0.171089959933,0.304164080039,1.0,-0.0924417142857,-0.12149482449,2.049
0.390969904485,0.224299419239,-0.125185850572,-1.83826066136,0.0435679541005,2.05505896622,0.0740470483821,-0.127299799792,-0.3717957848,-0.00945149475407,-0.526142867769,-0.0439506304037,0.137982044448,-0.115000114595,0.573716435516,0.819037788773,0.00270168144426,0.0,0.819002410213,-0.573652879619,-0.01175468716,0.0,-0.0080778611628,0.00895671327702,-0.999927260078,0.0,0.591148684132,0.168628878877,0.304086776252,1.0,-0.0938245714286,-0.123312293878,2.069
0.389004864924,0.218666954365,-0.125240553621,-1.84598404519,0.0428796354024,2.05729984308,0.0721698266141,-0.131842877428,-0.383196670517,-0.00571313970393,-0.514443844901,-0.0453672678388,0.14550402086,-0.132951830285,0.573759240846,0.819007414877,0.00281688143546,0.0,0.818973507578,-0.573695243427,-0.0117007886798,0.0,-0.00796715460025,0.0090205605736,-0.999927574345,0.0,0.589770017246,0.16676845429,0.30413104214,1.0,-0.0948617142857,-0.124675395918,2.084
0.386560616157,0.21185488953,-0.125284118935,-1.85528054105,0.0420137779873,2.05998432302,0.0699283506223,-0.135364191166,-0.376443320453,-0.00379883185619,-0.523720916653,-0.0409332469411,0.139597532316,-0.131025370884,0.573850767484,0.81894279801,0.0029558667201,0.0,0.818910886965,-0.573786508734,-0.0116081223979,0.0,-0.00781050216693,0.00908209624308,-0.999928253218,0.0,0.588103410154,0.164500114204,0.304190753042,1.0,-0.0961062857143,-0.126311118367,2.102
0.384496943854,0.206164526298,-0.125348067366,-1.86324272377,0.0412393395485,2.06203826398,0.0679500617332,-0.136475284626,-0.376101056843,-0.00216332728203,-0.539662183896,-0.0463807362271,0.127868111672,-0.133458487374,0.573858092396,0.818938383659,0.00274962968341,0.0,0.818903536722,-0.573794244592,-0.0117434798182,0.0,-0.00803961948132,0.00899094550254,-0.999927261063,0.0,0.586608434925,0.162550057556,0.30412355378,1.0,-0.0971434285714,-0.127674220408,2.117
0.381839547882,0.198842772258,-0.125383178937,-1.87319676276,0.0402960244311,2.06481424846,0.0653927048905,-0.143483061832,-0.383979183459,-0.00195324500534,-0.518985561913,-0.0411630184019,0.153350128426,-0.136062169605,0.573832039341,0.818956218709,0.00287217094206,0.0,0.818923046948,-0.573767862067,-0.0116717837971,0.0,-0.00791087285198,0.00904990471699,-0.999927756048,0.0,0.584682138172,0.159993948199,0.304181003893,1.0,-0.0985262857143,-0.129491689796,2.137
0.379664881749,0.193050010057,-0.125426291478,-1.8810620744,0.0395368690074,2.06705624537,0.0634264011908,-0.146932135126,-0.394228845662,-0.00337691427316,-0.522661957528,-0.0438705877484,0.148286160423,-0.142635910134,0.573911235837,0.818900394238,0.00296388221881,0.0,0.818868604292,-0.573846962839,-0.0116025448423,0.0,-0.007800663923,0.00908603587945,-0.999928294226,0.0,0.583237264219,0.15802856257,0.304207922096,1.0,-0.0995634285714,-0.130854791837,2.152
0.376992298734,0.186073259513,-0.125538698059,-1.89069229665,0.0386438941167,2.06950933481,0.0609023092984,-0.153990812752,-0.399509590797,-0.00188437517786,-0.53477509101,-0.0478844650624,0.13171556393,-0.14052258723,0.573978843848,0.818853606253,0.00279378656745,0.0,0.818818962077,-0.573914406189,-0.011768968235,0.0,-0.00803382239821,0.00904291830244,-0.999926838987,0.0,0.581502398511,0.155718299516,0.304139833346,1.0,-0.100738857143,-0.132399640816,2.169
0.374889303298,0.180547606453,-0.12558575365,-1.8980670515,0.037924135457,2.0715215412,0.0589337207605,-0.147698227416,-0.389375854455,-0.00231463589815,-0.513750946091,-0.0563389895593,0.149289623841,-0.139997212398,0.573996653798,0.818840724245,0.00290803150364,0.0,0.818807730096,-0.573932002014,-0.01169209566,0.0,-0.00790510393309,0.00909251751839,-0.999927415094,0.0,0.580122029228,0.153851678644,0.304201384439,1.0,-0.101706857143,-0.133671869388,2.183
0.372481154821,0.174214147418,-0.125554320752,-1.90656453575,0.0370340228225,2.07383110349,0.0567133508693,-0.147084610483,-0.392579857304,0.00515099500807,-0.542112475911,-0.0605453722244,0.141322304648,-0.141516414676,0.573944635607,0.818876929924,0.00297922757938,0.0,0.818845282701,-0.573880242344,-0.0116024716095,0.0,-0.00779142649494,0.00909887797109,-0.999928249472,0.0,0.578501408468,0.151759645861,0.304239768178,1.0,-0.102813142857,-0.135125844898,2.199
0.369571507295,0.166690789532,-0.125556216028,-1.91687240728,0.0360136608809,2.07636333941,0.0539311413347,-0.153691481346,-0.39579124931,0.000315379378688,-0.546624629247,-0.0518426976455,0.140799681651,-0.138963882958,0.573844992394,0.818947508332,0.00276589982699,0.0,0.818912374414,-0.573780530133,-0.0117971680382,0.0,-0.0080743973584,0.00903494934864,-0.999926584204,0.0,0.576458552455,0.149213890121,0.304153939888,1.0,-0.104126857143,-0.136852440816,2.218
0.366895327461,0.159814372205,-0.125558596499,-1.92588016683,0.0351346958642,2.07879385942,0.0513919664425,-0.15739177252,-0.411177541855,0.00052068546761,-0.520567814742,-0.0510281156678,0.142186954553,-0.152735149859,0.57377695481,0.818994343333,0.00300310152764,0.0,0.818962419844,-0.573711819762,-0.0116640323018,0.0,-0.00783001238532,0.00915215643644,-0.999927461838,0.0,0.57472801304,0.146940295836,0.304262693661,1.0,-0.105302285714,-0.138397289796,2.235
0.364122234341,0.152942329456,-0.125567103991,-1.9350523022,0.0341754462447,2.0811245552,0.0488672231043,-0.165605511983,-0.402170925161,-0.00103132571116,-0.549791135201,-0.0509844891691,0.127278014613,-0.153653118864,0.573767482335,0.819001016345,0.00299304878461,0.0,0.818969056589,-0.573702492284,-0.0116568262152,0.0,-0.00782998372181,0.00913969813649,-0.999927576014,0.0,0.572925325574,0.144590523022,0.304270703744,1.0,-0.106477714286,-0.139942138775,2.252
0.361279530571,0.146073421139,-0.125602218919,-1.94439652176,0.0332244200309,2.08330344397,0.0462872876329,-0.170223883324,-0.394632865821,-0.00176675067926,-0.548576947465,-0.0445791444661,0.129650040207,-0.151862416356,0.573788847302,0.818986918913,0.00274449691608,0.0,0.818950982037,-0.573723886415,-0.0118717344049,0.0,-0.0081483686268,0.00905965167064,-0.999925760644,0.0,0.571032379466,0.142179075915,0.30417109915,1.0,-0.107653142857,-0.141486987755,2.269
0.358555677228,0.139465175151,-0.125641806727,-1.95291766568,0.0323774991057,2.08557742086,0.0438158070358,-0.170489658569,-0.403804876776,-0.00340910473219,-0.531905847986,-0.0583200341649,0.141704485672,-0.159491190227,0.573826822616,0.818959308144,0.00302921633489,0.0,0.818927389633,-0.573761201784,-0.0116944746305,0.0,-0.0078394029805,0.00919148840975,-0.999927027488,0.0,0.569377517952,0.139932774595,0.304294051564,1.0,-0.108759428571,-0.142940963265,2.285
0.355591855389,0.132483367955,-0.125681961403,-1.96216183345,0.0313958479056,2.0878801487,0.0410510352602,-0.176850794814,-0.408571707044,-0.000881589685006,-0.558624937303,-0.0601833438166,0.125486609358,-0.163275513722,0.573770705411,0.818998626124,0.00302901311109,0.0,0.818966812675,-0.573705219019,-0.0116802529517,0.0,-0.00782850121281,0.00918262498259,-0.999927194333,0.0,0.567528418744,0.13748885417,0.304290138271,1.0,-0.109934857143,-0.144485812245,2.302
0.352378859989,0.125037202228,-0.125803936379,-1.97209696592,0.0303157346456,2.09016742561,0.038184600012,-0.177654771052,-0.408077066645,-0.0101717701024,-0.553985931664,-0.061009789616,0.133291094597,-0.150730324709,0.573862701729,0.818934896837,0.00282510299091,0.0,0.81890024259,-0.573797696087,-0.0118043869815,0.0,-0.00804614176067,0.0090877498974,-0.999926333489,0.0,0.565495563263,0.134806830146,0.304221344711,1.0,-0.111179428571,-0.146121534694,2.32
0.349619566676,0.118674491509,-0.12588414228,-1.9801261132,0.0294628189725,2.09227701343,0.03572112647,-0.186607861195,-0.429865723497,-0.00619868978223,-0.5384348096,-0.0580952505332,0.141470083572,-0.167975447765,0.573936936738,0.818881679084,0.00315201692552,0.0,0.818852040643,-0.573871717132,-0.0115470651167,0.0,-0.00764697393375,0.00920849996518,-0.999928361093,0.0,0.563918737745,0.132588609403,0.304374963392,1.0,-0.112216571429,-0.147484636735,2.335
0.346443684705,0.111597860487,-0.125902233538,-1.98947627377,0.0284492600169,2.09443583062,0.0328199483098,-0.187248106579,-0.411517986794,-0.00352977702188,-0.55157196324,-0.0621211807853,0.116828935794,-0.174032634492,0.573888082933,0.81891635099,0.00303730952876,0.0,0.818884959131,-0.573822922168,-0.011637207748,0.0,-0.00778717180255,0.00916583840529,-0.999927671065,0.0,0.561979636902,0.130065457263,0.304321604606,1.0,-0.113392,-0.149029485714,2.352
0.343066815956,0.104009867926,-0.125904823309,-1.99942002114,0.0273497700534,2.09665701796,0.0297661622745,-0.187965056679,-0.428725757114,0.00111461884968,-0.554441385866,-0.0545535730302,0.125557515855,-0.180539546252,0.573829033761,0.818958216948,0.00290272406095,0.0,0.818924785153,-0.573763998991,-0.0117395326039,0.0,-0.00794886116412,0.00911377279724,-0.999926874702,0.0,0.559881265298,0.127404692406,0.304277635297,1.0,-0.114636571429,-0.150665208163,2.37
0.340226909518,0.097576965118,-0.12589498158,-2.00748951681,0.0265328239136,2.09866431742,0.0271314279716,-0.191870056774,-0.422649342421,-0.000285784014626,-0.54182161471,-0.0560691838468,0.125323820001,-0.1784731824,0.5737447096,0.819016149153,0.00320975607513,0.0,0.81898672454,-0.57367868741,-0.0115868692539,0.0,-0.00764861164445,0.00927683115755,-0.999927716959,0.0,0.558099453151,0.125082327018,0.304398614957,1.0,-0.115742857143,-0.152119183673,2.386
0.336682830652,0.0898993230792,-0.12591886333,-2.01751201201,0.025501787649,2.10080545054,0.0239964231811,-0.201495551712,-0.436434680372,-0.00576114487223,-0.55527581823,-0.0560428854241,0.112726723501,-0.176173102443,0.573789686533,0.818985127541,0.00308275794398,0.0,0.818953057168,-0.573722890096,-0.011776350742,0.0,-0.0078761589578,0.00928196135002,-0.999925902912,0.0,0.55606624937,0.122501816609,0.304336244872,1.0,-0.116918285714,-0.153664032653,2.403
0.332616595979,0.0813034122333,-0.126011431999,-2.02853360094,0.0242404085555,2.10323093479,0.0202804197021,-0.202411315356,-0.434709262155,-0.00694169469887,-0.531405679492,-0.0601805318566,0.13360287423,-0.183578474514,0.573741856704,0.819018791089,0.00304115280965,0.0,0.818986293699,-0.573675346278,-0.0117811165503,0.0,-0.00790447362915,0.009250160246,-0.999925974176,0.0,0.553721258022,0.119380262546,0.304334423901,1.0,-0.118301142857,-0.155481502041,2.423
0.329937542712,0.0756257736143,-0.126049967876,-2.03558795696,0.0234270441715,2.10491718629,0.0179283883299,-0.20733236631,-0.429266531822,-0.00165837471024,-0.549367845567,-0.0592475303299,0.124498436134,-0.184906366473,0.573770013069,0.818998255855,0.00325206247251,0.0,0.818969221331,-0.57370366059,-0.0115875467614,0.0,-0.00762460723956,0.00931210521442,-0.999927572408,0.0,0.552245058429,0.117371305369,0.304431756371,1.0,-0.1192,-0.156662857143,2.436
0.326335186375,0.0682525532187,-0.126142327764,-2.04515886341,0.0223703508892,2.10684307221,0.0147273095469,-0.214306277163,-0.44009924589,-0.00335983755663,-0.5580987524,-0.0599658451309,0.113326285474,-0.186033073182,0.573817151571,0.818966045179,0.00303978756683,0.0,0.818933395958,-0.573750478964,-0.0117994819263,0.0,-0.00791944794986,0.00926030695368,-0.999925761774,0.0,0.5501398114,0.114647891309,0.304333168363,1.0,-0.120375428571,-0.158207706122,2.453
0.322618594093,0.0608107775972,-0.1262616318,-2.05453892421,0.0212598164473,2.1087740827,0.0114631905519,-0.220531040982,-0.446638894763,-0.00252943721075,-0.543553436856,-0.0682888693048,0.11663212432,-0.192531737998,0.573903831708,0.818905337841,0.00303092522037,0.0,0.818872837929,-0.573837487953,-0.0117711351838,0.0,-0.00790033902585,0.0092376197751,-0.999926122783,0.0,0.547987752807,0.111715513915,0.304361020022,1.0,-0.12162,-0.159843428571,2.471
0.318888986587,0.0533128040495,-0.126289787721,-2.06380873607,0.0202159437741,2.11090455667,0.00816024604238,-0.210662190179,-0.436486806179,0.000155567638442,-0.555684815266,-0.0662870053091,0.111227367766,-0.193454791317,0.573895987788,0.818909931121,0.00326600883025,0.0,0.81888087699,-0.573829329022,-0.0116085036044,0.0,-0.00763233417751,0.00933672557883,-0.999927283871,0.0,0.546103143659,0.109189065775,0.304437423896,1.0,-0.122726285714,-0.161297404082,2.487
0.315113185193,0.0457969454513,-0.126289939471,-2.07337956826,0.019150604225,2.11271501304,0.00482755490863,-0.219217608916,-0.444258641585,-0.000694203103156,-0.573341639131,-0.0593871896884,0.110842362269,-0.197963026764,0.57387089871,0.818928174471,0.00309573457554,0.0,0.81889585496,-0.573803552921,-0.0118240553618,0.0,-0.0079068608055,0.00932074494205,-0.999925299843,0.0,0.543925157996,0.106479155627,0.304357760327,1.0,-0.123901714286,-0.162842253061,2.504
0.311462469467,0.0386238383581,-0.126303814644,-2.08216105335,0.018123440153,2.11450582077,0.00155337000814,-0.233599324876,-0.460443019822,-0.00265927289384,-0.542260251649,-0.0604856113795,0.122632869023,-0.212631746461,0.573805236323,0.818973673485,0.00322797269969,0.0,0.818943288556,-0.573737697202,-0.0117342165748,0.0,-0.0077581541989,0.00937686202648,-0.999925940009,0.0,0.541965301913,0.103903797165,0.304432783984,1.0,-0.125008,-0.164296228571,2.52
0.307711759946,0.0314805370056,-0.126368162217,-2.09095525807,0.0170446349643,2.11633692536,-0.00172204292027,-0.240409050272,-0.444889591069,-0.00902871388785,-0.55399413682,-0.0628111625482,0.0988719343954,-0.205544717581,0.573832295482,0.818954324863,0.00332525942638,0.0,0.818925802121,-0.573765165427,-0.0116108769633,0.0,-0.00760100622262,0.00938601763335,-0.999927061029,0.0,0.540007215678,0.10125957385,0.304473652639,1.0,-0.126114285714,-0.165750204082,2.536
0.303912358285,0.0242772571639,-0.126448204042,-2.09996231097,0.0159804291791,2.11787977779,-0.00510612127296,-0.238167336674,-0.44694800422,-0.00724385144777,-0.562159161965,-0.0744421240074,0.0999168271292,-0.209656789924,0.573821045615,0.818962985823,0.00312767677758,0.0,0.818931029111,-0.573753530985,-0.0118153350678,0.0,-0.00788195824286,0.00934141933638,-0.99992530352,0.0,0.53790653822,0.0985796516476,0.304409349158,1.0,-0.127220571429,-0.167204179592,2.552
0.299506808793,0.0160750964289,-0.126543630658,-2.1098300784,0.0147840810411,2.11982124638,-0.00893150314039,-0.244590240391,-0.454693347879,-0.00867820366358,-0.537683903017,-0.0625668287587,0.116954554406,-0.221295315376,0.573895544601,0.818910024073,0.00332012968921,0.0,0.818881120518,-0.573828034853,-0.0116552038956,0.0,-0.00763952689224,0.00940784223736,-0.99992656237,0.0,0.535668598444,0.0955406469649,0.304510233525,1.0,-0.128465142857,-0.168839902041,2.57
0.295257270242,0.00839160396259,-0.126639957711,-2.11930733221,0.013653822555,2.12151701791,-0.0126953018177,-0.248195426053,-0.455227412915,-0.00126486473368,-0.578144375168,-0.0581001531653,0.0950076873484,-0.227784106115,0.573910999207,0.818899481057,0.00324835579078,0.0,0.818869144175,-0.573843113882,-0.0117538193374,0.0,-0.00776129938293,0.0094058056177,-0.999925643762,0.0,0.533457857091,0.092629638388,0.304468752588,1.0,-0.129640571429,-0.17038475102,2.587
0.290191108449,-0.00067465263684,-0.126649036571,-2.1304434693,0.0123271430639,2.12344070777,-0.0171744224979,-0.259339737308,-0.45517292568,-0.00016433043139,-0.548785027551,-0.0659302242045,0.0905009147789,-0.230288505994,0.573845871288,0.818945497265,0.00315204966943,0.0,0.818913099596,-0.573777366869,-0.0119002302362,0.0,-0.00793721802484,0.0094103339314,-0.999924220221,0.0,0.530815907538,0.0892557391606,0.304411163306,1.0,-0.12998,-0.170830857143,2.607
0.285870058835,-0.00846964046252,-0.126645817948,-2.13961441563,0.0111596647013,2.12521848666,-0.0209923625872,-0.257459359398,-0.45887880607,-0.00102728585248,-0.553093237323,-0.0673842985162,0.102025511926,-0.219754270446,0.573757625504,0.819006239039,0.00342264394446,0.0,0.818978457908,-0.573689547138,-0.0116333953724,0.0,-0.0075644339755,0.00947800344596,-0.999926470691,0.0,0.528680769642,0.0864289321529,0.304536261002,1.0,-0.12998,-0.170830857143,2.624
0.281673314698,-0.0156931365866,-0.126676214787,-2.14839257665,0.0100658037606,2.12658934666,-0.0246623877744,-0.265381751249,-0.454098157869,-0.00184581373885,-0.546669760589,-0.0705877400124,0.0785612779207,-0.230551255134,0.573738821331,0.819019983315,0.00328309748524,0.0,0.818989758469,-0.573670428419,-0.0117797275843,0.0,-0.00776456584058,0.00944749212977,-0.999925225409,0.0,0.526549699738,0.0836869834519,0.304484020069,1.0,-0.12998,-0.170830857143,2.64
0.277421853328,-0.0228650816517,-0.126752601253,-2.15706633944,0.00899422386324,2.12790926613,-0.028354479859,-0.265449506369,-0.451183543189,-0.00108286601299,-0.532483029152,-0.0623953458494,0.099905080149,-0.230905760804,0.573786138159,0.818987326099,0.00315820311495,0.0,0.818954695781,-0.573717248669,-0.0119361526341,0.0,-0.00796379545562,0.00943540585642,-0.999923772634,0.0,0.524430935134,0.0809214566465,0.304431675161,1.0,-0.12998,-0.170830857143,2.656
0.272836589475,-0.0305889844108,-0.126864614793,-2.16592716399,0.00784245930055,2.12956155094,-0.0322842432789,-0.268539581634,-0.454419334149,-0.00507340564143,-0.529034317957,-0.0642840607585,0.0908267913888,-0.233475795387,0.573898572831,0.818907080601,0.0035168658144,0.0,0.818880516416,-0.573830172562,-0.0115922298796,0.0,-0.0074750193285,0.00953284061482,-0.999926621826,0.0,0.522343665363,0.0779805180893,0.304596149019,1.0,-0.12998,-0.170830857143,2.673
0.268460224498,-0.037727300687,-0.12693177343,-2.17450275492,0.00679538527326,2.13074300587,-0.0360772646572,-0.271709173529,-0.445101903242,-0.00414706347868,-0.523323191466,-0.0563392840165,0.0752522683514,-0.250243652885,0.573952742019,0.818869773836,0.00336010826026,0.0,0.818840009149,-0.573883390639,-0.011816948265,0.0,-0.00774838061219,0.00953394449553,-0.999924530402,0.0,0.52019785374,0.0752059176947,0.304525800615,1.0,-0.12998,-0.170830857143,2.689
0.263825236992,-0.0452432249638,-0.126932050431,-2.18348026526,0.00569251824649,2.13207950614,-0.0401553534667,-0.270718724279,-0.442257622503,0.000929733145749,-0.51203686917,-0.0630028400787,0.0801824891135,-0.22601659584,0.573904512362,0.818903789543,0.00330772791879,0.0,0.818872548597,-0.573834384501,-0.0119413240414,0.0,-0.00788085922628,0.00956197143947,-0.999923227433,0.0,0.517824278942,0.0721719266288,0.304471386756,1.0,-0.12998,-0.170830857143,2.707
0.259162435932,-0.0528793806186,-0.126935134672,-2.1920990739,0.0045082254398,2.13351856229,-0.0442304940885,-0.273555397808,-0.446004362708,-0.00170286885752,-0.514480362149,-0.069327145783,0.0762684913853,-0.24734707052,0.573826644702,0.818957175227,0.00358801818737,0.0,0.818931110775,-0.573757491219,-0.0116156780123,0.0,-0.00745423405677,0.00960391016443,-0.999926096921,0.0,0.515838049823,0.0694877430819,0.304623408509,1.0,-0.12998,-0.170830857143,2.723
0.254666462011,-0.0599040066008,-0.126961376364,-2.20044504788,0.00343443691231,2.13454784971,-0.0481190465083,-0.282529106744,-0.429740969751,-0.000626422096211,-0.52399550829,-0.0636017050872,0.0573914316187,-0.244047676362,0.573832860088,0.818953626823,0.00339892583285,0.0,0.818924018497,-0.573762960132,-0.0118433276477,0.0,-0.00774910757797,0.00957973701829,-0.999924087104,0.0,0.513554461051,0.0665753098253,0.304541052372,1.0,-0.12998,-0.170830857143,2.74
0.249851212401,-0.0673847327619,-0.127030185473,-2.20918686167,0.00229267306894,2.13570991465,-0.0523382765153,-0.28375081543,-0.434074187393,-0.00388551197871,-0.508647116355,-0.0658130404584,0.0692495527086,-0.246184505573,0.573824726432,0.818959626681,0.00332567345685,0.0,0.818928590376,-0.573754508633,-0.0119362720477,0.0,-0.00786735623105,0.00957300142841,-0.999923228228,0.0,0.511440342954,0.0638282112207,0.304498788746,1.0,-0.12998,-0.170830857143,2.756
0.244649896199,-0.0753037984008,-0.127166163426,-2.21803774983,0.00108163800686,2.13703672297,-0.0568400857481,-0.291031743492,-0.4396808847,-0.0039441112495,-0.500500973288,-0.0587018743387,0.0702491910831,-0.250421912452,0.573916615299,0.818894086986,0.00359720498432,0.0,0.81886775244,-0.573846918772,-0.01166467879,0.0,-0.00748803565914,0.00964037373733,-0.999925493482,0.0,0.509212646713,0.060699622886,0.304630956199,1.0,-0.12998,-0.170830857143,2.774
0.240315072554,-0.0818242386567,-0.12717763749,-2.2256215615,0.000108103258788,2.13789724241,-0.0606332006699,-0.291413053761,-0.434944158923,0.00167732100684,-0.505392724631,-0.0669071586884,0.0578182198078,-0.250229301163,0.573883853875,0.818917548283,0.00348113155915,0.0,0.818888740604,-0.573813324499,-0.0118425520912,0.0,-0.00770070231338,0.00964709460865,-0.999923813473,0.0,0.507206180664,0.0581571885114,0.304570908259,1.0,-0.12998,-0.170830857143,2.789
0.2354212329,-0.0891817625441,-0.127170214874,-2.2341475914,-0.00101068209113,2.13887050467,-0.0649245915107,-0.288287376666,-0.436644200835,-0.00113809523006,-0.496574245388,-0.0705662037749,0.0573701084747,-0.250310418788,0.57380715333,0.818971793197,0.00336149303116,0.0,0.818940543924,-0.573735976808,-0.0120067204261,0.0,-0.00790470806014,0.00964259064962,-0.999922264997,0.0,0.504934276372,0.0553212700504,0.304501694729,1.0,-0.12998,-0.170830857143,2.806
0.230402311124,-0.0966050811464,-0.127178717771,-2.24228905417,-0.00214831987949,2.13996256574,-0.0693444536124,-0.298985230569,-0.428443722735,-0.00222405902189,-0.475892125473,-0.0793993486142,0.0691278845025,-0.248319932595,0.573727728701,0.819026359449,0.00361424242103,0.0,0.818999618626,-0.573657196466,-0.0117385064676,0.0,-0.00754095522969,0.00969495647641,-0.999924568062,0.0,0.502811968634,0.05245390305,0.304633094086,1.0,-0.12998,-0.170830857143,2.823
0.225288576347,-0.103909216872,-0.127238762953,-2.25057098694,-0.00329683772648,2.1408017803,-0.0737232836109,-0.303143648884,-0.430886694045,-0.00531455450729,-0.487634596345,-0.0734954246448,0.0419543113292,-0.252016680101,0.573787914159,0.818984621289,0.00351661173549,0.0,0.818956137123,-0.573717101402,-0.0118439828325,0.0,-0.00768264741772,0.00967607126178,-0.999923672374,0.0,0.500572189704,0.0495281678333,0.304601639135,1.0,-0.12998,-0.170830857143,2.84
0.220379570029,-0.110755593994,-0.127385513254,-2.25838074694,-0.00434904268359,2.14155970583,-0.0779606592606,-0.305371536398,-0.422042762368,-0.0112658908603,-0.482278674057,-0.0708110861786,0.0514019330008,-0.270914175677,0.573911385415,0.818898598641,0.00339907876685,0.0,0.818867599087,-0.57383975809,-0.0120222335987,0.0,-0.00789461570499,0.00968327864242,-0.999921951533,0.0,0.498310782064,0.0465299807193,0.304533215283,1.0,-0.12998,-0.170830857143,2.857
0.214853008983,-0.118517090422,-0.127461462697,-2.26677443109,-0.00554069574415,2.14254534689,-0.0827372795529,-0.300091586248,-0.431589012891,-0.00177933411906,-0.458635778791,-0.0585331427739,0.0543537885084,-0.26847277032,0.573958034688,0.818864832658,0.00364789728352,0.0,0.818838190814,-0.573886921478,-0.0117713857798,0.0,-0.0075458385856,0.00974350665234,-0.999924059316,0.0,0.496186221982,0.0436238570946,0.304656206347,1.0,-0.12998,-0.170830857143,2.874
0.209963489913,-0.125252043337,-0.12745422262,-2.2743071196,-0.00654850649154,2.14326409663,-0.0870619813387,-0.306735281882,-0.422880292036,-0.000720468313994,-0.479646080792,-0.0576349842594,0.0345566361805,-0.259693901382,0.573874604852,0.818923402391,0.0036257168827,0.0,0.818895901187,-0.573802845154,-0.0118551597716,0.0,-0.00762816797895,0.00977264797727,-0.999923150249,0.0,0.494095889844,0.0409548916948,0.304623889419,1.0,-0.12998,-0.170830857143,2.89
0.204622062886,-0.132497300373,-0.127467424546,-2.28230774305,-0.0076884754198,2.14390476947,-0.091709626481,-0.31504099561,-0.425193218865,0.00149679933178,-0.46933269342,-0.0662854753537,0.0403496265818,-0.276024532528,0.573841308214,0.818947065572,0.00355016599688,0.0,0.818918173275,-0.573769303801,-0.0119397821317,0.0,-0.00774122231047,0.00975902354269,-0.999922414459,0.0,0.491841569476,0.0380531494281,0.304607954724,1.0,-0.12998,-0.170830857143,2.907
0.199910335206,-0.138823625005,-0.127494247283,-2.28923373645,-0.00868912739628,2.14453195175,-0.095860889896,-0.31700858908,-0.42850091072,-0.00139077217579,-0.451454383094,-0.0623557317403,0.0398174048751,-0.275100449738,0.573780701306,0.818989462394,0.00356569745052,0.0,0.818960916607,-0.573708831943,-0.0119138625544,0.0,-0.00771180424517,0.00975629910313,-0.999922668361,0.0,0.489895034026,0.03551334867,0.304613268028,1.0,-0.12998,-0.170830857143,2.922
0.195434474247,-0.144788066711,-0.127577670611,-2.29547997006,-0.00956417415183,2.14517808707,-0.0997543094464,-0.321349734009,-0.411186214606,-0.0105704275835,-0.453544047857,-0.0631906365864,0.0364324152435,-0.265734104441,0.573859734312,0.818932879547,0.00383288847497,0.0,0.818908703886,-0.57378811543,-0.0116824737341,0.0,-0.00736803785816,0.00984307651606,-0.999924410074,0.0,0.488029649574,0.0329322529071,0.304730967861,1.0,-0.12998,-0.170830857143,2.937
0.188930978309,-0.153085726837,-0.12769979073,-2.30463289898,-0.0108981410862,2.14575345291,-0.105418510455,-0.327610976927,-0.417812412456,-0.00228424153437,-0.457668503494,-0.0721140763628,0.0286519237371,-0.290675481127,0.573895503813,0.818908588302,0.00366355142035,0.0,0.818881296031,-0.573823244921,-0.0118765946359,0.0,-0.00762376116416,0.00981612698817,-0.999922757975,0.0,0.485502857813,0.0296310411712,0.304657819281,1.0,-0.12998,-0.170830857143,2.956
0.183824589771,-0.159763486369,-0.127673532218,-2.31185931454,-0.0119675544997,2.14619995381,-0.109943650107,-0.316445896414,-0.413686375826,0.00110192111619,-0.449147437204,-0.0620589854442,0.0321125655399,-0.283046926325,0.573755731671,0.81900686332,0.00358679660358,0.0,0.818978340652,-0.573683471327,-0.0119373016455,0.0,-0.00771919466908,0.00978679239651,-0.999922313347,0.0,0.483383685578,0.0269844680617,0.304639267919,1.0,-0.12998,-0.170830857143,2.972
0.177218928081,-0.168078250503,-0.127705976096,-2.32050660051,-0.0131541936574,2.14687910993,-0.115718781405,-0.335125752273,-0.415145630648,-0.00114047904247,-0.433780918521,-0.0566731411532,0.0295345775503,-0.29256527992,0.573778967353,0.818989273982,0.0038746131755,0.0,0.818965077861,-0.573706473564,-0.0117401165355,0.0,-0.00739228118086,0.00990959561372,-0.999923574126,0.0,0.481001665802,0.0237689103171,0.304757901556,1.0,-0.12998,-0.170830857143,2.991
0.173231887565,-0.172990070301,-0.127731181311,-2.32581898092,-0.0138864630856,2.14717586157,-0.119237747612,-0.331719971124,-0.40689575214,-0.00221835528242,-0.451884285167,-0.0575187717671,0.0202123274741,-0.287907927892,0.573767599807,0.818997320998,0.00385700805607,0.0,0.818972341915,-0.573694426113,-0.0118218241586,0.0,-0.00746944210185,0.00994195400671,-0.999922679503,0.0,0.479295431803,0.0215640443676,0.304727655754,1.0,-0.12998,-0.170830857143,3.004
0.166070056633,-0.181567703023,-0.127921762104,-2.33501865253,-0.0152980174368,2.14757952804,-0.125435526455,-0.339967423445,-0.41142546794,-0.00292995682515,-0.428728327016,-0.0639330604301,0.0177479045171,-0.298271674822,0.573908965707,0.818898923782,0.00371464809415,0.0,0.818871394531,-0.573835358207,-0.0119736290271,0.0,-0.00767374324766,0.00991378298678,-0.999921412198,0.0,0.476517851666,0.0178675820031,0.304667042726,1.0,-0.12998,-0.170830857143,3.025
0.160633272918,-0.18811972684,-0.12796301074,-2.34186191757,-0.0162740139427,2.14794248729,-0.130224501642,-0.335474812749,-0.413928454126,-0.000223730769183,-0.410754425683,-0.0521138289208,0.0223703276389,-0.303449221799,0.57388853325,0.818912691432,0.00383433400774,0.0,0.818886766885,-0.57381455797,-0.0119190176865,0.0,-0.00756058374376,0.00998026510765,-0.999921612869,0.0,0.474327613151,0.0149920015226,0.304706902359,1.0,-0.12998,-0.170830857143,3.042
0.155203660841,-0.194642574756,-0.127957423781,-2.34849128355,-0.0172972532386,2.14832451243,-0.135064339051,-0.346335088527,-0.409741571949,0.00113904223989,-0.412796218335,-0.0604216655188,0.0195279281148,-0.303272461128,0.573792273526,0.818979450417,0.00397913784422,0.0,0.818956510087,-0.573719302178,-0.0117108409229,0.0,-0.00730817058065,0.00997852299761,-0.999923506935,0.0,0.472313897847,0.0123091267595,0.304792504183,1.0,-0.12998,-0.170830857143,3.058
0.148921251396,-0.201847119868,-0.128017872979,-2.35617953846,-0.0184735353589,2.14850606595,-0.140571860223,-0.353027729992,-0.396648065924,-0.00794635356265,-0.434028449586,-0.0594288204505,0.0092824019806,-0.30011846604,0.573786572916,0.818984338838,0.00379056482978,0.0,0.818957934659,-0.573712887305,-0.011923552333,0.0,-0.00759065287458,0.00994607886714,-0.999921725689,0.0,0.470033800545,0.0093913018416,0.304698149613,1.0,-0.12998,-0.170830857143,3.075
0.143660868877,-0.207859926104,-0.128105841365,-2.36245465997,-0.0193772525308,2.14867866521,-0.145209836835,-0.355754543875,-0.401494019537,-0.00994685731833,-0.400785737365,-0.0659277183537,0.00682316348238,-0.304942114064,0.573826628413,0.81895628798,0.00378758545276,0.0,0.818929145006,-0.573752032706,-0.012016959962,0.0,-0.00766837771072,0.00999760822016,-0.999920618756,0.0,0.468060522818,0.00682131568989,0.304672120845,1.0,-0.12998,-0.170830857143,3.09
0.137923295022,-0.214283857653,-0.128235792158,-2.36889843893,-0.0203202261323,2.14888713652,-0.150214214429,-0.361133477682,-0.405234477715,-0.0102645320831,-0.394102798182,-0.0568963390951,0.0119796082235,-0.31608096651,0.573964511759,0.818858776333,0.00397373443615,0.0,0.818834381444,-0.5738896525,-0.0119024963811,0.0,-0.00746612229328,0.0100856350829,-0.999921265392,0.0,0.466034229126,0.00403143481675,0.304750804784,1.0,-0.12998,-0.170830857143,3.106
0.130879615976,-0.222203076548,-0.128217759595,-2.37694568147,-0.0215740958322,2.14909218089,-0.156517537879,-0.353732604214,-0.385003340612,0.000996026541543,-0.414232100307,-0.0690846823379,0.00830008871401,-0.323521809039,0.573808324703,0.818967986597,0.00402372110581,0.0,0.818944743608,-0.573733999386,-0.0118132030137,0.0,-0.00736623130772,0.0100739134341,-0.99992212442,0.0,0.463465389288,0.000710550476986,0.304780450369,1.0,-0.12998,-0.170830857143,3.126
0.125455305437,-0.228086790915,-0.128254554454,-2.38309768703,-0.022536919344,2.14910427975,-0.161305547169,-0.368733880595,-0.386458504508,-0.00337341822275,-0.404595366312,-0.0625776067944,0.00133322161682,-0.326279987849,0.573780495231,0.818988239579,0.00386699174388,0.0,0.818962072302,-0.573705536183,-0.0119928639421,0.0,-0.00760364634939,0.0100483844466,-0.999920604114,0.0,0.461449781108,-0.00184379665377,0.30469840954,1.0,-0.12998,-0.170830857143,3.141
0.118855424208,-0.235170355692,-0.128307313995,-2.39023962442,-0.0236130318496,2.1491350604,-0.167134865153,-0.369483783028,-0.39491531521,-0.006102632909,-0.3949445004,-0.057258533238,0.00417606828021,-0.32749089626,0.573795261501,0.818977741755,0.00389913965743,0.0,0.818951681631,-0.573719768928,-0.0120215138726,0.0,-0.00760848526752,0.0100912889641,-0.99992013523,0.0,0.459101048283,-0.00491650235477,0.304705872559,1.0,-0.12998,-0.170830857143,3.159
0.112502027826,-0.241842442249,-0.128473222662,-2.39671894271,-0.0246862614215,2.14921418215,-0.172714288346,-0.374799952482,-0.391070343784,-0.00578892928963,-0.380161575438,-0.0614755163863,0.0040309490669,-0.326407092532,0.573914572165,0.818893257201,0.00407971420991,0.0,0.818870749619,-0.573840053777,-0.0117913103801,0.0,-0.00731486197601,0.0101081580987,-0.999922155937,0.0,0.456966319148,-0.00790549382772,0.304812706153,1.0,-0.12998,-0.170830857143,3.176
0.106577579861,-0.248063114815,-0.128513237148,-2.40290709545,-0.0256303342823,2.14923147427,-0.17802006904,-0.374426095749,-0.39117323464,0.00100234073126,-0.387334120448,-0.0555007097556,7.89411572602e-06,-0.332993632853,0.573868347961,0.818925294668,0.00415064618088,0.0,0.818903789841,-0.57379371617,-0.0117516453936,0.0,-0.00724224440581,0.0101430725012,-0.999922330972,0.0,0.454895713572,-0.0106056496654,0.304829728902,1.0,-0.12998,-0.170830857143,3.192
0.100216826191,-0.254551793275,-0.128534682215,-2.40954327326,-0.0266212002887,2.14916743628,-0.183735514963,-0.378714157964,-0.390391945569,-0.0025721419062,-0.387471652712,-0.0608615437542,-0.000193573642788,-0.335828222794,0.573792595539,0.818978772062,0.00407125498981,0.0,0.818955215631,-0.573716833317,-0.0119204387442,0.0,-0.00742698175722,0.0101742308806,-0.999920659337,0.0,0.452635265976,-0.0134637673544,0.304745512159,1.0,-0.12998,-0.170830857143,3.209
0.0937396414604,-0.261018706988,-0.128613289104,-2.41594603308,-0.0276407378135,2.14910884197,-0.189442911103,-0.380398239454,-0.384503580557,-0.00567721775035,-0.365291558391,-0.0573567696187,-0.00907591316755,-0.333506668513,0.573851967529,0.81893701822,0.00410200605901,0.0,0.818913913391,-0.573776158466,-0.011902492702,0.0,-0.00739390095971,0.0101896548725,-0.999920747441,0.0,0.450437379398,-0.0163781340178,0.304743092093,1.0,-0.12998,-0.170830857143,3.226
0.0871482889252,-0.267524763909,-0.128776009465,-2.42211425755,-0.0286361285595,2.14902854121,-0.195295670017,-0.383281226584,-0.389953092521,-0.0110132473867,-0.359853318366,-0.0586852286342,0.000435346935886,-0.350102392713,0.57396404289,0.81885741191,0.00430851837025,0.0,0.81883789529,-0.573888801767,-0.011700057481,0.0,-0.00710820519817,0.0102435876287,-0.999922268145,0.0,0.448296820667,-0.0193525973771,0.304847452955,1.0,-0.12998,-0.170830857143,3.243
0.0806114704621,-0.273927121933,-0.1287975406,-2.42831971496,-0.0296292344111,2.14889721632,-0.201162231077,-0.383677082965,-0.372004134919,0.000656665964098,-0.370298884437,-0.0543997087672,-0.016559935485,-0.355207173155,0.573904863332,0.818898556574,0.00437135974046,0.0,0.818880203595,-0.573829942039,-0.0116256905512,0.0,-0.00701197910736,0.0102518576812,-0.999922862806,0.0,0.446114528863,-0.0222115011069,0.304873252632,1.0,-0.12998,-0.170830857143,3.26
0.0740202925857,-0.280248877533,-0.128815951773,-2.4346430514,-0.0306647002995,2.14864669487,-0.20713573576,-0.394555907492,-0.371952206858,-0.0028358983656,-0.367995326381,-0.0600363577751,-0.0116799082649,-0.353544976525,0.573773991148,0.818991027494,0.0042250287468,0.0,0.818969985985,-0.573698421568,-0.0117911003512,0.0,-0.00723305232746,0.0102257953203,-0.999921554955,0.0,0.443844005609,-0.0250644324702,0.30478684998,1.0,-0.12998,-0.170830857143,3.277
0.0676645232796,-0.286174585346,-0.128845397411,-2.44036060193,-0.0316022089408,2.14845637031,-0.212788742918,-0.398861848302,-0.363641261649,-0.000852743327988,-0.354372474173,-0.0595934543129,-0.0134242100355,-0.354517217842,0.573779020855,0.818987373442,0.00425020831216,0.0,0.818966896236,-0.573703704214,-0.0117485974174,0.0,-0.00718373099718,0.0102220754389,-0.999921948545,0.0,0.441778034262,-0.0277979488865,0.304792636557,1.0,-0.12998,-0.170830857143,3.293
0.0608229967103,-0.29248392214,-0.129022008989,-2.44629607324,-0.0324851617217,2.14820842988,-0.218916892319,-0.407941224838,-0.364248479991,-0.0104450942021,-0.34727987244,-0.0518426707987,-0.0103678862884,-0.357481893334,0.57392190027,0.818886215817,0.00444576615129,0.0,0.818868191302,-0.573845811247,-0.0116883312917,0.0,-0.00702036426075,0.0103488850413,-0.999921804475,0.0,0.439598660552,-0.0307623134124,0.304849041115,1.0,-0.12998,-0.170830857143,3.31
0.0540182911577,-0.298732087857,-0.129057802312,-2.45210016988,-0.0334222540526,2.14796706479,-0.225059043708,-0.393330039673,-0.365926617749,-0.00186164865185,-0.341887427551,-0.0504650214754,-0.0177900832766,-0.364455916625,0.573888125687,0.818909010348,0.00460422277108,0.0,0.818893882742,-0.573812833081,-0.0115060114604,0.0,-0.00678054489218,0.0103737329397,-0.999923201989,0.0,0.437451581977,-0.0336344707091,0.304928256473,1.0,-0.12998,-0.170830857143,3.327
0.0471258683021,-0.304879716592,-0.129071586544,-2.45807615336,-0.0344528663531,2.14754591474,-0.231240068412,-0.412643503997,-0.357784345894,-0.00384462938716,-0.350822702581,-0.0606845818537,-0.0340794863036,-0.361999938024,0.57382657359,0.818953021185,0.00444515853947,0.0,0.818935213222,-0.573750832711,-0.011655273888,0.0,-0.00699484302219,0.0103286015933,-0.999922193053,0.0,0.435182273969,-0.0365086744101,0.304858527584,1.0,-0.12998,-0.170830857143,3.344
0.0405732305454,-0.3106233591,-0.129136730073,-2.46355238788,-0.0353622172507,2.14718148885,-0.237150842739,-0.41426850634,-0.355997946891,-0.00745501385735,-0.330846032809,-0.0582854976959,-0.0225935607813,-0.368648842559,0.573815149779,0.818961167441,0.00441893757358,0.0,0.818942694704,-0.573739015665,-0.0117111739805,0.0,-0.00705581566774,0.0103391047558,-0.99992165612,0.0,0.433083654111,-0.0392345411532,0.30483251515,1.0,-0.12998,-0.170830857143,3.36
0.0334859457479,-0.316687006481,-0.129295429773,-2.46921382777,-0.0362499200324,2.14680034569,-0.243526472363,-0.416890572985,-0.354942375876,-0.0060150434829,-0.328655571784,-0.0584912871501,-0.0198817736793,-0.376636829728,0.573933539959,0.818877603312,0.00452873115951,0.0,0.818860284799,-0.573856636524,-0.0117107470751,0.0,-0.00699096066456,0.0104297894172,-0.999921169874,0.0,0.43088327263,-0.0421883434331,0.304846590144,1.0,-0.12998,-0.170830857143,3.377
0.0264832625398,-0.322714110482,-0.129315257097,-2.47465999188,-0.0371905201688,2.14643464943,-0.249959066542,-0.412293995126,-0.355826739251,-0.000124985158451,-0.318722770483,-0.0559835830795,-0.0256977560117,-0.389490418131,0.573807027353,0.818965530908,0.00465848108273,0.0,0.818951077604,-0.573731550883,-0.0114885557669,0.0,-0.00673614328828,0.0104074825122,-0.999923151388,0.0,0.428750747547,-0.0450376956864,0.304934274845,1.0,-0.12998,-0.170830857143,3.394
0.0193067062168,-0.328663834224,-0.129344674634,-2.48016420816,-0.0381349291689,2.14598464314,-0.256440936041,-0.426012980841,-0.353665929518,-0.00356994288589,-0.327870578141,-0.0576368320498,-0.0323755133126,-0.379246252539,0.573783632977,0.818981865945,0.00466826328342,0.0,0.81896777356,-0.573708495795,-0.0114496560908,0.0,-0.00669896737925,0.0103929825528,-0.999923551953,0.0,0.426551419918,-0.0479318052246,0.304943779306,1.0,-0.12998,-0.170830857143,3.411
0.0129234556688,-0.333832777015,-0.129418937499,-2.48511097349,-0.0389442781435,2.14547752506,-0.262237893522,-0.422033323518,-0.347009773619,-0.00800198793788,-0.328175652036,-0.0548372124882,-0.0355259974935,-0.3905693107,0.573784056901,0.818982171782,0.00456127728455,0.0,0.818965439309,-0.573707319902,-0.0116733547211,0.0,-0.00694356492037,0.010433714166,-0.999921459173,0.0,0.424534084565,-0.0504903372492,0.304857470059,1.0,-0.12998,-0.170830857143,3.426
0.00556590517955,-0.339697871445,-0.129572558104,-2.49044137561,-0.0397974206737,2.1449895553,-0.268805152332,-0.428563913995,-0.342328237561,-0.00944746654467,-0.308562614538,-0.0501706516869,-0.0271355471443,-0.384052648899,0.573975596741,0.818847240023,0.00468601685053,0.0,0.81883203198,-0.573898299015,-0.0116444275346,0.0,-0.00684584205238,0.0105208805021,-0.999921219657,0.0,0.422335809877,-0.0534490604445,0.304883259876,1.0,-0.12998,-0.170830857143,3.443
-0.00257771353431,-0.346154122665,-0.129579536372,-2.49630386796,-0.0407829223989,2.14437279278,-0.276344517446,-0.429825251577,-0.340389174893,-0.0027531788558,-0.306731242963,-0.0505311192663,-0.0344638329637,-0.387865577069,0.57381919782,0.818956700004,0.00471154255529,0.0,0.818941888756,-0.573741948754,-0.0116235098676,0.0,-0.00681607290685,0.010528475373,-0.999921343085,0.0,0.419884238118,-0.0566303622472,0.304897402765,1.0,-0.12998,-0.170830857143,3.462
-0.0100238958188,-0.351896823172,-0.129645916346,-2.50135474467,-0.0417062521281,2.14383594425,-0.283098249386,-0.436838256634,-0.341615558251,-0.00390197244738,-0.295390172911,-0.0530883194967,-0.0237291295444,-0.401420226091,0.573834662602,0.818945365625,0.00479739711773,0.0,0.818932685995,-0.573758757967,-0.011440732774,0.0,-0.00661691386897,0.0104940363814,-0.999923042864,0.0,0.417728105969,-0.0595533069072,0.304972672965,1.0,-0.12998,-0.170830857143,3.479
-0.017094510701,-0.357232208878,-0.129797576848,-2.50617562249,-0.0425409016751,2.1432552046,-0.289547169498,-0.444354127077,-0.32433391737,-0.00835695714953,-0.30317260704,-0.0572880549117,-0.0436501902706,-0.404032386338,0.573903977976,0.818896647483,0.00482200228046,0.0,0.818883962278,-0.573827479473,-0.0114815950984,0.0,-0.0066353700707,0.010538196327,-0.999922456135,0.0,0.415631818537,-0.0623256602531,0.304966461412,1.0,-0.12998,-0.170830857143,3.495
-0.0237208659488,-0.362162229013,-0.129847104374,-2.51073733178,-0.0433021569479,2.14264045478,-0.295659544484,-0.433142457202,-0.324969533698,0.00179407001406,-0.29869023977,-0.0508780655159,-0.0360531358284,-0.404489973503,0.573847417122,0.818936745409,0.00474297204209,0.0,0.818921957854,-0.573769472551,-0.0116690279735,0.0,-0.00683495481784,0.0105805692224,-0.999920664327,0.0,0.413625770033,-0.0648556803228,0.304899265957,1.0,-0.12998,-0.170830857143,3.51
-0.0312767661413,-0.367728866719,-0.129869804965,-2.51567612852,-0.0441936412628,2.14203500983,-0.302618986603,-0.449155971183,-0.325417542436,-0.00449782160671,-0.280710838652,-0.0549593996319,-0.0420022879811,-0.408703276251,0.573761819947,0.818996631682,0.00475795807768,0.0,0.818982507387,-0.573684572016,-0.0115935898881,0.0,-0.00676567418417,0.0105488467684,-0.999921470659,0.0,0.411431888057,-0.0677230510256,0.304918232763,1.0,-0.12998,-0.170830857143,3.527
-0.038523668585,-0.372823493216,-0.129910272949,-2.5202119038,-0.0449827124291,2.14139552666,-0.30922288149,-0.448566451675,-0.312836608067,-0.0107907840849,-0.286027582379,-0.0564140743267,-0.0399162000175,-0.409929197024,0.573800277577,0.818969726086,0.00475143231175,0.0,0.818955202368,-0.57372255338,-0.0116428157146,0.0,-0.0068092408175,0.0105720646442,-0.999920929718,0.0,0.409228577778,-0.0706280170109,0.304907293626,1.0,-0.12998,-0.170830857143,3.544
-0.0463044318105,-0.378205794643,-0.130067343718,-2.52491974624,-0.0457549624754,2.14071174102,-0.316317195078,-0.452900548531,-0.318571201791,-0.00796468342549,-0.266710928627,-0.0452340514228,-0.0317302292585,-0.426344615885,0.573934808514,0.818874807251,0.00486132973577,0.0,0.818861490476,-0.5738563803,-0.0116387759458,0.0,-0.00674112511119,0.0106608596115,-0.999920448488,0.0,0.407165155362,-0.073406664408,0.304931906622,1.0,-0.12998,-0.170830857143,3.56
-0.0539966261133,-0.383588569695,-0.130082545069,-2.52955699749,-0.0465871317006,2.14006594416,-0.323508831312,-0.4561188568,-0.308242134501,-0.000410338458859,-0.269535030402,-0.0413429820319,-0.0349283569348,-0.426056649877,0.573795665623,0.81897190922,0.00492878505943,0.0,0.818960225271,-0.573718271945,-0.0114995983161,0.0,-0.00659024082368,0.0106351033515,-0.999921728588,0.0,0.404997818664,-0.0762524646633,0.304980677333,1.0,-0.12998,-0.170830857143,3.577
