nelsonifechukwu/NELSON_IML_WORK/CNN-GradCAM/train2dof/data_sample_2022-02-22-07-33-41/robot_state.csv
position_joint1,position_joint2,position_joint3,position_joint4,position_joint5,position_joint6,position_joint7,velocity_joint1,velocity_joint2,velocity_joint3,velocity_joint4,velocity_joint5,velocity_joint6,velocity_joint7,ee_T_00,ee_T_10,ee_T_20,ee_T_30,ee_T_01,ee_T_11,ee_T_21,ee_T_31,ee_T_02,ee_T_12,ee_T_22,ee_T_32,ee_T_03,ee_T_13,ee_T_23,ee_T_33,v_x,v_y,time
0.465089276702,0.547664340807,-0.1240431108,-1.35584556885,0.0795117002262,1.89415785758,0.159121519286,0.000505570335796,-0.000156403941815,-0.000760516186974,0.000759233897354,-0.00014877509848,0.000540998604525,-0.00160583738286,0.573804248337,0.818978094615,0.00207654348268,0.0,0.818936826901,-0.57374539362,-0.011808630148,0.0,-0.00847976542256,0.0084765632767,-0.999928118143,0.0,0.661696551871,0.260875063101,0.303297980037,1.0,0.0,0.0,0.0
0.465093190873,0.547675169347,-0.124043189648,-1.35584768794,0.0795130226546,1.8941571455,0.159124633228,0.00120192731739,0.00275199756519,-0.000403586005367,0.00101873397434,0.000427190110167,-0.00011423273818,-6.75803276738e-05,0.573804129345,0.818978206252,0.00206536469293,0.0,0.818936778121,-0.573745303916,-0.0118163690205,0.0,-0.00849251891865,0.0084718475544,-0.999928049872,0.0,0.661694558997,0.260877377059,0.303289243479,1.0,-0.0001,-0.000131428571429,0.006
0.465088216677,0.547668261989,-0.124040684211,-1.35584588829,0.079512412303,1.8941563317,0.159125433753,0.000117044088974,-0.000987545406598,0.000185050633497,0.00101556043835,-7.66001175458e-05,0.000151751094472,3.3790321256e-06,0.573806829597,0.818976296231,0.00207253950445,0.0,0.818934955714,-0.573747969696,-0.0118132332698,0.0,-0.00848580607512,0.0084759521655,-0.999928072078,0.0,0.661695749287,0.26087568732,0.303294838529,1.0,-0.00044,-0.000578285714286,0.023
0.465082480138,0.547648071953,-0.124040722138,-1.35586322025,0.079512412303,1.89415505731,0.159121598514,-0.00107556438929,-0.000129146399083,1.31848402592e-05,-0.00212305747938,-0.000119203347039,0.000429917507552,0.000349529298616,0.573809315194,0.818974548376,0.00207504472839,0.0,0.818933221526,-0.573750426168,-0.0118141463477,0.0,-0.00848509073658,0.00847855352802,-0.999928056095,0.0,0.661693560909,0.260869990919,0.303300782257,1.0,-0.00078,-0.00102514285714,0.04
0.465089258639,0.54758450721,-0.124038876451,-1.35591016137,0.0795113476978,1.89416684977,0.159130221727,8.87150457035e-05,-0.00455532683188,0.00134686688914,-0.000129902431901,-4.04344272016e-06,1.97915651013e-05,0.0012507750138,0.573811784221,0.818972750575,0.0021016675496,0.0,0.818931739346,-0.573752759139,-0.0118035830585,0.0,-0.00846113823184,0.00849432085893,-0.999928125243,0.0,0.661684702091,0.260871440198,0.303324430309,1.0,-0.00112,-0.001472,0.057
0.4650864466,0.54746647013,-0.124036424729,-1.35605371129,0.0795102664975,1.89420040688,0.159125316847,0.000733744736057,-0.00863529801582,0.000682432502647,-0.0124026348595,0.000211843412672,0.00151547888932,0.000758970867071,0.573815932897,0.818969810422,0.00211463292333,0.0,0.818928862798,-0.573756750775,-0.0118091286216,0.0,-0.00845819775986,0.00850816390038,-0.999928032429,0.0,0.661661835061,0.260857612387,0.303342551319,1.0,-0.00142,-0.00186628571429,0.072
0.465068738517,0.547317769625,-0.124040960288,-1.35625291005,0.0795061951917,1.89426373683,0.159120530437,-0.000525795165777,-0.0077875548697,0.000122784707104,-0.0106588546689,-0.000156290595499,0.00697976432753,0.00189976730896,0.573839657453,0.818953148596,0.00212951624842,0.0,0.818912334251,-0.573780353204,-0.011808555772,0.0,-0.00844894201301,0.00852026876263,-0.999928007608,0.0,0.661638610954,0.260825219234,0.30335871422,1.0,-0.00176,-0.00231314285714,0.089
0.465049877787,0.547136741889,-0.124041087572,-1.3564555455,0.0795027051446,1.89437741512,0.159107342717,-0.00117188829323,-0.0140296285549,0.00013518563599,-0.00882828897863,-0.0001508435125,0.00882056375651,-0.00189918488031,0.573854985135,0.81894218878,0.00221232289641,0.0,0.818902427997,-0.573795334435,-0.011767518955,0.0,-0.00836765827667,0.00856469090324,-0.999928311613,0.0,0.661624749734,0.260798158086,0.303400365019,1.0,-0.0021,-0.00276,0.106
0.465040953753,0.546961026904,-0.124041804975,-1.35665966375,0.0795018817253,1.89447888161,0.159093555586,0.000536359610773,-0.00953974229453,-0.000139004753008,-0.0151265727381,0.000235849244439,0.00432996449018,0.00103615774789,0.573863852719,0.81893577059,0.00228672081676,0.0,0.818896906062,-0.573803846159,-0.0117367063968,0.0,-0.00829963929127,0.00860802588413,-0.999928506383,0.0,0.661602864063,0.260777343737,0.303441072433,1.0,-0.00242,-0.00318057142857,0.122
0.465012326034,0.54672747324,-0.124043880726,-1.35697691995,0.0794936812868,1.89462186163,0.159063625874,-0.00279702396104,-0.0191612831439,-0.00107390585575,-0.0221108688055,0.000155039819707,0.00495376185078,-0.00294059608532,0.573878893615,0.818925090911,0.00233620210283,0.0,0.818886827789,-0.573818657698,-0.0117157266927,0.0,-0.00825390510541,0.00863665968383,-0.999928638034,0.0,0.661575671811,0.260730333231,0.303463384603,1.0,-0.00276,-0.00362742857143,0.139
0.464980652538,0.5464588654,-0.124043251872,-1.35735758596,0.0794867995398,1.89475527975,0.158970567799,-0.00263963676559,-0.018476504407,-0.000229767717309,-0.0244460629734,-0.00325547074076,0.010283999182,-0.00402626309984,0.573847573684,0.818946956113,0.00236477312673,0.0,0.81890890659,-0.573787070851,-0.0117195107665,0.0,-0.00824094008735,0.00866191336231,-0.999928526527,0.0,0.661530532823,0.260676025903,0.303483974765,1.0,-0.0031,-0.00407428571429,0.156
0.46494162458,0.54616284458,-0.124044044943,-1.3578310834,0.0794681496987,1.89492247725,0.158924650035,-0.00389245092915,-0.0127284529421,-0.00070847972037,-0.028942781767,-0.00021065619091,0.0154138618815,-0.00250032343741,0.57386400242,0.818935454853,0.0023610192275,0.0,0.818897260606,-0.573803410639,-0.0117332609455,0.0,-0.00825418142255,0.00866689512983,-0.999928374144,0.0,0.661474424781,0.260605754402,0.303482732097,1.0,-0.00346,-0.00454742857143,0.174
0.464894066975,0.545840120226,-0.124041700476,-1.35836631378,0.0794405257204,1.8950996357,0.158870255669,0.000776875377081,-0.0147693806335,0.000689064819299,-0.0323563566329,0.000253252325258,0.0112096609598,-0.00348602044611,0.573879277455,0.81892482837,0.00233394248694,0.0,0.818886197336,-0.573818695975,-0.0117578426839,0.0,-0.00828968906978,0.00865898226403,-0.999928148959,0.0,0.661408797613,0.260523901074,0.303471736925,1.0,-0.00382,-0.00502057142857,0.192
0.464841182011,0.545545508414,-0.124047060502,-1.35887651292,0.0793895914043,1.89526477811,0.158798284077,-0.00468560932889,-0.0196632970949,-0.00394029686271,-0.0328912680539,-0.00188359571347,0.0150778169809,0.0068826703738,0.573882303524,0.818922864077,0.00227844145341,0.0,0.818883675766,-0.573822101971,-0.0117672322651,0.0,-0.0083291958476,0.0086189508123,-0.999928166512,0.0,0.661350191532,0.260432076513,0.303451898995,1.0,-0.00412,-0.00541485714286,0.207
0.46476458232,0.545138044638,-0.12404178246,-1.35959026096,0.0793389906844,1.89548342402,0.158710508153,-0.00425950877016,-0.0306656083549,0.00087607218466,-0.0441558113036,-0.00531682568464,0.0120891082164,-0.00719813935877,0.573895684923,0.8189136982,0.00220105148074,0.0,0.818873473844,-0.573835748752,-0.0118116125005,0.0,-0.0084098111649,0.00858118133247,-0.999927816596,0.0,0.661262119281,0.260311734417,0.303419339834,1.0,-0.00448,-0.005888,0.225
0.464713422835,0.544771497698,-0.124047779864,-1.36020653857,0.0793187236167,1.89568347034,0.158621705767,-0.00433771765937,-0.0258883402918,-0.00112415702855,-0.046086770333,-0.000251240305623,0.0130083036896,-0.00800957469195,0.573897945793,0.818912205108,0.00216680446137,0.0,0.818871367476,-0.573837973311,-0.0118495069449,0.0,-0.00846047407133,0.00857490692019,-0.999927443043,0.0,0.661185847606,0.260216378362,0.303402992646,1.0,-0.00478,-0.00628228571429,0.24
0.464650618785,0.544336698949,-0.124053080273,-1.36094224977,0.0792861342146,1.89593868796,0.158567135761,-0.00185085623069,-0.0303581839667,-0.000499080694764,-0.0434008270676,-4.83837413772e-05,0.0190026800964,-0.00300153530502,0.573940738812,0.81888230528,0.00213197851707,0.0,0.818840905338,-0.5738807899,-0.0118809776679,0.0,-0.00850578462896,0.00856489322034,-0.999927144462,0.0,0.661098400382,0.260102197955,0.30338281801,1.0,-0.00512,-0.00672914285714,0.257
0.464566035096,0.543799928341,-0.124055592715,-1.36183320143,0.0792377572735,1.89625109909,0.158426757322,-0.00394544429313,-0.0315537016995,-0.00155111272932,-0.0489184907151,-0.00860067934482,0.0144591038936,-0.00254835156807,0.573933557319,0.818887425235,0.0020984463518,0.0,0.818845515227,-0.57387367128,-0.0119070779514,0.0,-0.00854647783997,0.00855233964906,-0.99992690493,0.0,0.6609951298,0.259959477072,0.303365711118,1.0,-0.0055,-0.00722857142857,0.276
0.464497295725,0.543304616838,-0.124053163649,-1.36261225749,0.0791932261561,1.89651586724,0.158332462236,-0.00196057668046,-0.0359114297641,0.000199168928551,-0.05320992573,-0.00127437490684,0.0201124514729,-0.00151038027118,0.573949354901,0.8188763892,0.00208425542214,0.0,0.818834222308,-0.57388945289,-0.0119230507762,0.0,-0.0085675375156,0.00855005158412,-0.999926744276,0.0,0.660895264443,0.259830375133,0.30337044841,1.0,-0.00584,-0.00767542857143,0.293
0.464420070613,0.542791025795,-0.124054244994,-1.36344013895,0.0791446398716,1.89680754832,0.158240528477,-0.00576287434752,-0.0323324289061,0.000260236655059,-0.0545905309621,-0.00187913666772,0.0165364886013,-0.0075782535011,0.573964089285,0.818866108953,0.00206560399648,0.0,0.818823661567,-0.573904224809,-0.0119372905279,0.0,-0.00858974916499,0.00854310599541,-0.999926613082,0.0,0.66080545541,0.259708965103,0.303362716584,1.0,-0.00614,-0.00806971428571,0.308
0.464356326024,0.542236139235,-0.124055276677,-1.36429093235,0.0790944586408,1.89712053522,0.158116070273,-0.0027461344941,-0.0395126730781,0.00125469492323,-0.0494206343147,-0.00342574568107,0.019217717163,-0.0063199076999,0.573948998236,0.818876648138,0.00208073533679,0.0,0.818834381528,-0.573889056993,-0.0119311689751,0.0,-0.00857620953701,0.00855182476278,-0.999926654772,0.0,0.660705999435,0.259585655499,0.303377343254,1.0,-0.00646,-0.00849028571429,0.324
0.464267726306,0.541582952336,-0.124059531429,-1.36531671095,0.0790333605224,1.89748642962,0.157980658346,-0.00102130489859,-0.0395713233438,-0.000195021462934,-0.061576160985,-0.000796835823523,0.0229151746988,-0.0109111099482,0.573954245149,0.818872986274,0.00207454271668,0.0,0.818830623313,-0.573894313136,-0.0119362714549,0.0,-0.00858388725019,0.0085497373875,-0.999926606742,0.0,0.660586983575,0.259426402884,0.303382802959,1.0,-0.00682,-0.00896342857143,0.342
0.464178998097,0.540925479444,-0.124060982769,-1.36633118779,0.0789724369741,1.89785273615,0.157858672277,-0.00413782803171,-0.0408031387127,-0.00374678856077,-0.0657146815857,-0.00387079778897,0.0236994392663,-0.0135164458803,0.573967442669,0.818863711079,0.0020843068393,0.0,0.818821447097,-0.573907440645,-0.011934581968,0.0,-0.0085767620061,0.00855690138074,-0.999926606603,0.0,0.660463077915,0.259260992868,0.303397334521,1.0,-0.00718,-0.00943657142857,0.36
0.464087165842,0.540221288417,-0.124062724093,-1.36739190333,0.0789177231285,1.89823866135,0.157719004102,-0.00629594001438,-0.0433824438959,-0.000163466805857,-0.0614702771293,0.000176485473034,0.021295852555,-0.00361535327052,0.57397412447,0.818858954627,0.00211276272859,0.0,0.818816981801,-0.573913925221,-0.0119291095046,0.0,-0.00855587891511,0.00857713132064,-0.999926612184,0.0,0.660347763301,0.259109162139,0.303422866528,1.0,-0.0075,-0.00985714285714,0.376
0.464000889019,0.539567532948,-0.124063096966,-1.36839381913,0.0788574996549,1.89861922183,0.157599630561,-0.00489531451218,-0.0451855601024,0.000595482477473,-0.0695049262312,0.000209606408887,0.0195703070505,-0.00914891710128,0.573986702185,0.818850067876,0.00213984956483,0.0,0.818808454128,-0.573926397169,-0.011914402305,0.0,-0.00852815717836,0.00859100080517,-0.999926729936,0.0,0.660235111745,0.258957701275,0.303440935427,1.0,-0.0078,-0.0102514285714,0.391
0.46390007401,0.538814329649,-0.124064152656,-1.3695616645,0.0787853689094,1.89905650747,0.15745676827,-0.00581464138553,-0.0409770447015,0.00127340953536,-0.067979363041,-0.00501619764248,0.0244735497287,-0.00573241148111,0.573998320641,0.818841877551,0.0021573991404,0.0,0.818800509104,-0.573937959981,-0.0119034148178,0.0,-0.00850896510111,0.00859918519077,-0.999926823086,0.0,0.660102403992,0.258779787399,0.303455115636,1.0,-0.00814,-0.0106982857143,0.408
0.463778661452,0.53798571806,-0.124077986126,-1.37083964641,0.0787142370873,1.8995574195,0.157292907108,-0.00768342279844,-0.0461243305007,-0.00037649467146,-0.0735130928847,-0.00554209572198,0.0240267367367,-0.00763361814745,0.574024992363,0.818823067292,0.00219988976779,0.0,0.818782295464,-0.573964501977,-0.0118764475318,0.0,-0.00846221348542,0.00861877443572,-0.999927051174,0.0,0.659966827758,0.258573266662,0.303475951881,1.0,-0.0085,-0.0111714285714,0.426
0.463671002442,0.537152103508,-0.124073130803,-1.37218645965,0.0786336352572,1.9000454203,0.157129863121,-0.00634512672304,-0.0433084570273,6.52009391414e-05,-0.0793225671202,-0.00124479437678,0.0219169382569,-0.0100358118061,0.574028888783,0.818820391429,0.00217906493651,0.0,0.818779284746,-0.573968416416,-0.0118948194713,0.0,-0.0084891697274,0.00861230904715,-0.999926878392,0.0,0.659805244815,0.258376174624,0.303465666191,1.0,-0.00886,-0.0116445714286,0.444
0.463570248737,0.536393759312,-0.124082216715,-1.37334008101,0.0785643735306,1.90048177733,0.15699481777,-0.00650768764088,-0.0423978843939,-0.000356856568483,-0.0798047547978,-0.00136651174544,0.0304266634197,-0.00411515951163,0.574052180326,0.818803975133,0.00221166700064,0.0,0.818763339271,-0.573991622025,-0.0118726160973,0.0,-0.00845202965435,0.00862649910245,-0.999927070695,0.0,0.659676671868,0.258195837998,0.30349002071,1.0,-0.00916,-0.0120388571429,0.459
0.463442067011,0.53542091727,-0.124085079914,-1.37487173145,0.078484501072,1.90104443496,0.156811863562,-0.013767372518,-0.0530174332826,0.000671724708831,-0.0778249576042,-0.00649047167015,0.0399229824463,-0.0109166114038,0.574072139587,0.818789957635,0.00222052419557,0.0,0.818749315587,-0.574011419503,-0.0118825673482,0.0,-0.00845488335277,0.00863966986715,-0.999926932857,0.0,0.659497159197,0.257965824149,0.303496445752,1.0,-0.00954,-0.0125382857143,0.478
0.46332922976,0.534585377437,-0.124084035923,-1.37623215617,0.0784096326824,1.90152775647,0.156640456246,-0.00852758678139,-0.0486580314392,0.00111088362119,-0.088440342254,-0.00363255154947,0.029987704455,-0.016306048954,0.574077970197,0.818785954983,0.00218882553023,0.0,0.818744779166,-0.574017253169,-0.0119132931517,0.0,-0.00849817710796,0.00863141480778,-0.999926637141,0.0,0.659332471077,0.257762174922,0.303480296639,1.0,-0.00986,-0.0129588571429,0.494
0.463199183795,0.533670988409,-0.124089006991,-1.37771269601,0.0783167179742,1.9020537795,0.156463609415,-0.0100892953523,-0.0507180896831,0.000434238475536,-0.0898857949397,-0.0063537753003,0.039657741438,-0.0102158169902,0.574099231156,0.818771148224,0.00215093531628,0.0,0.818729480296,-0.574038666708,-0.0119329007113,0.0,-0.00853575911572,0.00861186908264,-0.999926485561,0.0,0.659156908571,0.257530468854,0.303466306128,1.0,-0.0102,-0.0134057142857,0.511
0.463084183476,0.532855466258,-0.124088737499,-1.37902139113,0.078250370734,1.90255784662,0.156298762069,-0.0133102275342,-0.055776763443,0.000565120130353,-0.0899147180239,-0.00598136789519,0.033327453242,-0.012457698749,0.574112203957,0.818762013728,0.0021654202564,0.0,0.818720428287,-0.574051471477,-0.0119379772884,0.0,-0.00853146389708,0.0086267783438,-0.999926393701,0.0,0.659007480687,0.257333631112,0.303462178697,1.0,-0.0105,-0.0138,0.526
0.462951367738,0.531893301075,-0.124090098769,-1.38056287231,0.0781641759536,1.90314101233,0.156099384205,-0.0054387714255,-0.0594645316272,-0.000392846089643,-0.0931425662493,-0.00526450046063,0.0317684879122,-0.0125409031818,0.574119832546,0.818756650916,0.00217056689375,0.0,0.81871507138,-0.574059016239,-0.0119425571722,0.0,-0.00853217888887,0.00863370097873,-0.999926327852,0.0,0.658829168924,0.257100579087,0.303457363102,1.0,-0.01084,-0.0142468571429,0.543
0.462818206414,0.530888278667,-0.124089724023,-1.38218445794,0.0780563221939,1.90370622672,0.155897180175,-0.00911696044734,-0.0587466361034,0.00084721521434,-0.0986960074688,-0.00757557653968,0.0307294949784,-0.0147549342415,0.574123403171,0.818754275492,0.00212160222977,0.0,0.818712031958,-0.57406276181,-0.011970845086,0.0,-0.00858341301719,0.00860988935917,-0.999926094682,0.0,0.65861822899,0.256839122108,0.303443377316,1.0,-0.0112,-0.01472,0.561
0.462668236264,0.529803262649,-0.124090777202,-1.38391857827,0.0779573351774,1.90432918538,0.155677135805,-0.0140917570762,-0.0562681684247,0.000346160266733,-0.0960172666904,-0.00727768031833,0.0343334732749,-0.0100156044033,0.574133200675,0.818747455942,0.00210194492473,0.0,0.818704886362,-0.574072570022,-0.0119891741394,0.0,-0.00860960266202,0.00860442116462,-0.999925916595,0.0,0.658422182071,0.25658997736,0.303435801203,1.0,-0.01154,-0.0151668571429,0.578
0.462535447389,0.528810151048,-0.124090424776,-1.38548397128,0.0778547237964,1.90491577267,0.155455096216,-0.00958582989703,-0.0604514790862,0.00061152218921,-0.0985970949746,-0.00569648861597,0.0385455213991,-0.0129456231345,0.574117260861,0.818758614774,0.00210912666738,0.0,0.818716193907,-0.574056657355,-0.0119789349105,0.0,-0.00859726347317,0.00860425511504,-0.999926024191,0.0,0.658238959977,0.256353184144,0.30344094361,1.0,-0.01186,-0.0155874285714,0.594
0.462390217309,0.527631852807,-0.124099246174,-1.38732021611,0.0777345786088,1.90561928403,0.155206543549,-0.00759991930416,-0.0656079976966,-0.00256703017812,-0.0975546146573,-0.00648155115729,0.0295844010156,-0.0126509442054,0.574106119436,0.818766348147,0.0021395490161,0.0,0.818724456538,-0.574045524816,-0.0119476611215,0.0,-0.0085543090245,0.00861109225847,-0.99992633373,0.0,0.658026322182,0.256078263362,0.303457724153,1.0,-0.01222,-0.0160605714286,0.612
0.462249989161,0.526547837683,-0.124099295384,-1.38900034581,0.0776403821337,1.90625261396,0.154978845576,-0.00838899153036,-0.0685198886423,-0.000220080930099,-0.11279627971,-0.00289766017535,0.0317387657924,-0.00755299320218,0.574100054723,0.818770507609,0.0021748420119,0.0,0.818729002456,-0.574039242375,-0.0119379919219,0.0,-0.0085261952006,0.008634374285,-0.999926373078,0.0,0.657828523218,0.255828486582,0.30347581551,1.0,-0.01254,-0.0164811428571,0.628
0.462097100829,0.525368514232,-0.124103207998,-1.39082820146,0.0775199676215,1.90691417992,0.154726159062,-0.00623308715707,-0.0685780706011,-0.000273590438723,-0.108192658537,-0.00664202007939,0.033902479588,-0.00804146205634,0.574087049572,0.81877961175,0.00218032069861,0.0,0.818738235223,-0.57402627458,-0.0119283350423,0.0,-0.00851528011229,0.00863318080724,-0.999926476394,0.0,0.65760923477,0.255549594658,0.303492900263,1.0,-0.01288,-0.016928,0.645
0.461964473321,0.524328448645,-0.124110987633,-1.39247504234,0.0774138749577,1.90749994441,0.154503636732,-0.00716893498837,-0.0743222219734,2.67588917828e-05,-0.112337383152,-0.0067504686608,0.0432630195168,-0.0109112138044,0.574078782284,0.818785468774,0.00215748875803,0.0,0.818743825247,-0.574018132106,-0.0119364791797,0.0,-0.00853514236171,0.00861907597486,-0.999926428731,0.0,0.657408043799,0.255298642876,0.303491492987,1.0,-0.01318,-0.0173222857143,0.66
0.461800232585,0.523133452684,-0.124120545969,-1.39438330385,0.0772957340086,1.90821172269,0.154238293988,-0.0146875651037,-0.0692409926599,-0.00101635000422,-0.113785562121,-0.00724148175737,0.0486491188029,-0.0117992650047,0.574073420265,0.818789244207,0.00215142188108,0.0,0.818747562279,-0.57401283655,-0.0119348078865,0.0,-0.00853731292233,0.00861309323293,-0.999926461753,0.0,0.657183215443,0.255003485679,0.303485315042,1.0,-0.01352,-0.0177691428571,0.677
0.461651618766,0.521899018367,-0.124120909017,-1.39633045481,0.0771765397213,1.90897528365,0.153977804374,-0.00881741692679,-0.0696702572473,-6.94173914515e-05,-0.113882764807,-0.00297032204345,0.0456168697473,-0.0103605814662,0.574054489738,0.818802410293,0.00219148600581,0.0,0.818761290536,-0.573993786679,-0.0119091928986,0.0,-0.00849354002606,0.00863099573631,-0.999926680157,0.0,0.656953958478,0.25472320569,0.303492204253,1.0,-0.01386,-0.018216,0.694
0.461482486214,0.520646553991,-0.124123119824,-1.3983474616,0.0770435122286,1.90973763766,0.153702388685,-0.0123556906939,-0.0764719909332,-0.000624745092747,-0.115981373567,-0.013204826642,0.0372451572308,-0.0171134809653,0.574040964944,0.818811919647,0.00218121780996,0.0,0.818770753724,-0.57398039386,-0.0119040838296,0.0,-0.00849539303716,0.008619515071,-0.999926763447,0.0,0.656714181983,0.254418072747,0.303478122157,1.0,-0.0142,-0.0186628571429,0.711
0.461317261442,0.519418343603,-0.124124185211,-1.40026856717,0.0769246898381,1.91043431249,0.153440750002,-0.0126136332701,-0.0761952792411,0.000883374808125,-0.121494739655,-0.00528064711322,0.0365470117211,-0.0197592128932,0.574032919739,0.818817554151,0.00218333942064,0.0,0.818776386972,-0.573972311803,-0.0119063144003,0.0,-0.00849608643746,0.00862244918974,-0.999926732259,0.0,0.656480581919,0.254125141883,0.303486549677,1.0,-0.01452,-0.0190834285714,0.727
0.461133046399,0.518079924104,-0.12412808434,-1.40237673707,0.0767896249955,1.91118284823,0.153156348224,-0.0129671501541,-0.074731580415,0.000499467593002,-0.126704506505,-0.00434130040856,0.0436168737848,-0.0207518094953,0.57402892915,0.818820410144,0.00216132627458,0.0,0.818778952926,-0.573968407341,-0.0119180754012,0.0,-0.00851839439406,0.00861113431514,-0.999926639971,0.0,0.656221662279,0.253798308137,0.303487520589,1.0,-0.01486,-0.0195302857143,0.744
0.460958979485,0.516713869911,-0.124135722013,-1.4044983026,0.0766508892068,1.91195155772,0.152865624317,-0.0128534810883,-0.0750291662919,-0.000690490109245,-0.122456615091,-0.00654374008478,0.0487486122085,-0.0215786586982,0.574013545435,0.818831181983,0.00216609568612,0.0,0.8187898501,-0.573953070183,-0.011908043595,0.0,-0.00850760394042,0.00860912123759,-0.999926749171,0.0,0.655962027428,0.253475550248,0.303502938487,1.0,-0.0152,-0.0199771428571,0.761
0.460768619739,0.515346490778,-0.124140863811,-1.40668010263,0.0765144616947,1.91278523996,0.15256556112,-0.0119849457297,-0.084104094727,0.00120846977744,-0.120637165464,-0.00583703360131,0.0393064725854,-0.0156720926823,0.574005968031,0.818836464725,0.00217706276241,0.0,0.818795327383,-0.573945501923,-0.0118962001709,0.0,-0.00849169060309,0.00861122450504,-0.999926866327,0.0,0.655703768098,0.253141214049,0.303495808515,1.0,-0.01554,-0.020424,0.778
0.46058730181,0.514044333819,-0.124145488909,-1.40879403851,0.0763829968438,1.91354130592,0.15227922344,-0.0164525715264,-0.0807261462154,0.000769293670714,-0.135062882214,-0.0144078025923,0.0469716576246,-0.0140863709757,0.573998974161,0.81884150006,0.00212658004856,0.0,0.81879966569,-0.573938673597,-0.0119269994756,0.0,-0.00854596014569,0.00858749383252,-0.999926608064,0.0,0.655440903038,0.25281595958,0.303468126626,1.0,-0.01586,-0.0208445714286,0.794
0.460397416723,0.51263611845,-0.124144045114,-1.41106472676,0.0762660065628,1.9143238055,0.151961230512,-0.00825024169956,-0.0840691448287,0.00180579942572,-0.135723501642,-0.0104033024826,0.0438212577143,-0.0178593467243,0.573980570869,0.818854540368,0.00207192765871,0.0,0.81881165661,-0.573920162154,-0.0119943892897,0.0,-0.00863270527731,0.00858123014562,-0.9999259167,0.0,0.655148011898,0.25247561199,0.303441879929,1.0,-0.0162,-0.0212914285714,0.811
0.460190700391,0.511103888457,-0.124149746739,-1.41349816683,0.0761067623368,1.91524855226,0.151609071218,-0.00730616360701,-0.0880127596912,0.000832190212898,-0.133140864531,-0.00960052971929,0.0510671162172,-0.0256574457309,0.573949985361,0.818875950907,0.00208284211825,0.0,0.818833318192,-0.573889643008,-0.011975874379,0.0,-0.00861159980032,0.008579218624,-0.999926115949,0.0,0.654855269195,0.252105242914,0.303437037583,1.0,-0.01656,-0.0217645714286,0.829
0.459995067469,0.509720641444,-0.124154743317,-1.41570234308,0.0759567774859,1.91608822679,0.151304584635,-0.00930569723332,-0.0855325089673,-0.000581825880386,-0.137064756292,-0.0169744340159,0.0531587435894,-0.0241319491321,0.573938925522,0.818883691882,0.0020870653405,0.0,0.81884126553,-0.573878717837,-0.0119560018295,0.0,-0.0085930179789,0.00857115508954,-0.999926344959,0.0,0.654591892534,0.251763600814,0.303429125898,1.0,-0.01688,-0.0221851428571,0.845
0.459800355725,0.508317617765,-0.124156473882,-1.41792619555,0.0758179606357,1.91688053458,0.150992192844,-0.0103140343554,-0.0828164373732,0.000430623887519,-0.140885343795,-0.0067252336204,0.0505143952322,-0.0200973970289,0.573918186841,0.81889830959,0.00205432861912,0.0,0.81885540101,-0.573858062946,-0.0119792624942,0.0,-0.00863107093945,0.00855747945356,-0.999926134352,0.0,0.654292875625,0.251398683528,0.303419150581,1.0,-0.01722,-0.022632,0.862
0.45955985014,0.506606166167,-0.124160071813,-1.42060985953,0.0756485617863,1.91786130062,0.15063079357,-0.00900391092479,-0.0890481932654,-0.000742644459014,-0.143430422714,-0.00982173286657,0.062107859913,-0.0231120240561,0.57391848478,0.81889807385,0.00206503620427,0.0,0.818855295479,-0.573858306733,-0.0119747968682,0.0,-0.00862126589668,0.00856368798291,-0.999926165785,0.0,0.653981292788,0.251004970797,0.3034256684,1.0,-0.01758,-0.0231051428571,0.88
0.459336413936,0.505008421615,-0.124169963166,-1.42306680177,0.0754979676195,1.91880109063,0.15028374718,-0.0131904759752,-0.0953334455025,-0.00145028513628,-0.142700949119,-0.0125860062106,0.0644087908555,-0.0131909889942,0.57391069034,0.818903369194,0.00213033719867,0.0,0.818861493485,-0.573850294728,-0.0119348493724,0.0,-0.00855115836889,0.00859415420667,-0.999926506401,0.0,0.653688292663,0.250622006118,0.303454696624,1.0,-0.01792,-0.023552,0.897
0.459119787975,0.503440339415,-0.1241734134,-1.42540327315,0.0753529295027,1.91968140732,0.149959215182,-0.014186323969,-0.0907959181042,-0.00152057425886,-0.140534999264,-0.0156029595334,0.0510957785936,-0.0252957593582,0.573905794824,0.818906549099,0.00222472713493,0.0,0.818865929484,-0.573845045879,-0.0118827502103,0.0,-0.00845437609665,0.00864149883296,-0.999926921341,0.0,0.653407079382,0.250258136241,0.303514316451,1.0,-0.01824,-0.0239725714286,0.913
0.458885812417,0.501750982836,-0.12417732,-1.42792268473,0.0751839910441,1.92060729114,0.149601105228,-0.0110254230695,-0.0973888343983,0.00165469206905,-0.145095576219,-0.00853701175498,0.0599510581253,-0.017838070276,0.57388521533,0.818920728858,0.00231222253089,0.0,0.818881325004,-0.573824205155,-0.0118281037789,0.0,-0.00835963106049,0.00868157688115,-0.999927370758,0.0,0.653079365502,0.249846367239,0.303582158688,1.0,-0.0186,-0.0244457142857,0.931
0.458646440624,0.500044126676,-0.124169642906,-1.43051798704,0.0750193259696,1.9215160079,0.149241865835,-0.0119890445188,-0.0946529093764,0.00154946044676,-0.152186394964,-0.00478273285687,0.0559380500384,-0.0226412127995,0.57387400283,0.818928567294,0.00231893233492,0.0,0.818889170608,-0.573812884862,-0.011834117114,0.0,-0.00836082429227,0.00869040805192,-0.999927284069,0.0,0.652766755242,0.249459949022,0.303609067824,1.0,-0.01892,-0.0248662857143,0.947
0.458412110443,0.49847477245,-0.124172812898,-1.43297923285,0.0748626733646,1.9224392495,0.148895780274,-0.00952275601186,-0.0909152459628,0.000955199999837,-0.151978117148,-0.0119501785749,0.0607356306317,-0.0309469552109,0.573867732757,0.818932898507,0.0023409283405,0.0,0.818893819089,-0.573806563186,-0.0118189679434,0.0,-0.00833586212066,0.00869966358162,-0.999927411994,0.0,0.652465923652,0.249071267733,0.303612237818,1.0,-0.01924,-0.0252868571429,0.963
0.458132097751,0.496700648661,-0.124175432403,-1.43580176379,0.0746952874648,1.92345542882,0.148466305652,-0.0224291910097,-0.091688586486,-2.97447443041e-05,-0.155023332318,-0.00375768609515,0.0566338084874,-0.0220897914674,0.573845109294,0.818948819573,0.00231697237819,0.0,0.818909278831,-0.573783879393,-0.0118490377159,0.0,-0.00837447528553,0.00869706996797,-0.999927111912,0.0,0.652112351705,0.248617702106,0.3035936853,1.0,-0.0196,-0.02576,0.981
0.457868278795,0.495028058793,-0.124180491975,-1.43853633143,0.0745168652695,1.92439105996,0.148081556895,-0.0184550683825,-0.0963747119959,-0.000696158760675,-0.164724749319,-0.00391143038368,0.0586892619901,-0.0171963849655,0.573839087443,0.818953350667,0.00220409951194,0.0,0.81891226192,-0.573778225065,-0.0119164851983,0.0,-0.00849454472182,0.0086432755184,-0.999926565553,0.0,0.651757019709,0.248175414686,0.303538721777,1.0,-0.01994,-0.0262068571429,0.998
0.457593170562,0.493294004751,-0.124201905082,-1.44125915268,0.0743508803087,1.92537615639,0.147699532695,-0.0178161643263,-0.11917157907,-0.00264134515346,-0.180545293845,-0.00692359399028,0.0699984294073,-0.0312683160996,0.573858989342,0.818939422206,0.00219772805479,0.0,0.818898240794,-0.573798140369,-0.0119210836406,0.0,-0.00850175676296,0.00864090301181,-0.999926524764,0.0,0.651420568306,0.24772374708,0.303536179174,1.0,-0.025804,-0.0339138285714,1.014
0.457263990765,0.490680328276,-0.124270570369,-1.44529869665,0.0741263921069,1.92690464442,0.147107632323,-0.0204597057415,-0.159640158084,-1.29535085114e-05,-0.252722110581,-0.0159603728809,0.0937639760447,-0.0355166739449,0.57383564072,0.818955551586,0.00228229424217,0.0,0.818915534369,-0.573774521734,-0.0118698222158,0.0,-0.00841149646011,0.00868050037189,-0.999926945152,0.0,0.650921111209,0.247092060953,0.303566591957,1.0,-0.033868,-0.0445122285714,1.032
0.456887036478,0.488223849136,-0.124282189472,-1.4492821657,0.0739064017817,1.92834743582,0.146510675557,-0.0320186341446,-0.189536756685,-0.00162144262031,-0.302024464817,-0.0211709095549,0.112730829294,-0.0450288867353,0.573803289442,0.818978385101,0.00222186059805,0.0,0.818937242024,-0.57374206866,-0.0119406522824,0.0,-0.00850452496598,0.0086713168978,-0.999926237939,0.0,0.650410001352,0.246462631874,0.303503969046,1.0,-0.04014,-0.0527554285714,1.046
0.456325249649,0.484548479985,-0.12435815752,-1.45498112617,0.0735637564349,1.93050674259,0.145665687778,-0.0397174461191,-0.228772912665,-0.00150922566584,-0.358257904935,-0.0213519826078,0.129035460569,-0.0520723753198,0.57381606949,0.818969146414,0.00232433191828,0.0,0.818929548472,-0.57375465562,-0.0118632497724,0.0,-0.00838220066381,0.00871095515699,-0.999926926316,0.0,0.649717555537,0.245517119294,0.303533357854,1.0,-0.047756,-0.0627650285714,1.063
0.455618406921,0.479991066151,-0.124461082658,-1.46217307104,0.073133512568,1.93300138744,0.14456323284,-0.040839404293,-0.265931426961,-0.00388086495772,-0.418115607874,-0.0293430168619,0.145845560543,-0.0621584784884,0.573808246989,0.818975010219,0.00218522869839,0.0,0.818933435316,-0.573747221246,-0.0119541430251,0.0,-0.00853653986748,0.00864910922055,-0.999926157472,0.0,0.648730468165,0.244230283341,0.303482682932,1.0,-0.056268,-0.0739522285714,1.082
0.454817183272,0.474973871576,-0.124552095805,-1.46992406594,0.0726657521889,1.93580232711,0.14345083537,-0.0460585264469,-0.302537981644,-0.000437937829494,-0.473314150793,-0.0217617489362,0.176793348903,-0.0612730931541,0.573862595942,0.8189367557,0.00224900916809,0.0,0.818896046855,-0.573801340359,-0.0119177661234,0.0,-0.00846957531474,0.00868103205927,-0.999926450283,0.0,0.647806946479,0.242996726064,0.303520502848,1.0,-0.063436,-0.0833730285714,1.098
0.453953755386,0.469709089986,-0.124618750298,-1.47800431188,0.0721957183843,1.93872347565,0.142236386466,-0.0571915916816,-0.347023459917,-0.00556308952098,-0.515192328193,-0.0326644717587,0.189847953814,-0.0808878576521,0.573884046508,0.818921440369,0.00235001464106,0.0,0.818881754762,-0.573822083848,-0.011901038043,0.0,-0.00839768659913,0.00875436853147,-0.999926417238,0.0,0.646773553459,0.241634680148,0.303568581979,1.0,-0.070604,-0.0927938285714,1.114
0.452916159659,0.463513701808,-0.124657832975,-1.4874284729,0.0715875403693,1.94219886834,0.140691969383,-0.0618713727101,-0.370167503766,0.000348517271512,-0.578167818832,-0.0434764529762,0.203596428263,-0.0982463852611,0.573777588205,0.818995440339,0.00254850534003,0.0,0.818958443406,-0.57371499186,-0.0117865597776,0.0,-0.0081911807003,0.00885015420158,-0.999927287021,0.0,0.645570716316,0.240046941091,0.303658771042,1.0,-0.07822,-0.102803428571,1.131
0.451743391988,0.4567258049,-0.124715630729,-1.49796921106,0.0709064392622,1.94577011716,0.139128550738,-0.06915551655,-0.42035786863,-0.00063179582647,-0.639263676423,-0.042699342407,0.21726366446,-0.0954250688008,0.573803373857,0.818977850919,0.00239055547908,0.0,0.818938399056,-0.573740953727,-0.0119148424346,0.0,-0.00838659393854,0.00879466378937,-0.999926156739,0.0,0.644145566048,0.238235558596,0.303625101345,1.0,-0.085836,-0.112813028571,1.148
0.450381002845,0.448800913094,-0.124841689313,-1.5098090441,0.0700770334592,1.95012751352,0.137231894466,-0.0757604603868,-0.452175221211,-0.00302188103615,-0.675267897178,-0.0509522723416,0.258156081317,-0.107080001863,0.573771309262,0.818999331145,0.00270687149453,0.0,0.818964943562,-0.573708754911,-0.0116375537259,0.0,-0.00797834645073,0.00889429854146,-0.999928616173,0.0,0.642625889251,0.236155796431,0.303810750538,1.0,-0.0939,-0.123411428571,1.166
0.449037788076,0.441340851449,-0.1248784762,-1.52119132509,0.0693516750216,1.95414581774,0.135481198981,-0.0820267560593,-0.477651923532,-0.000660513288673,-0.748862072991,-0.0512719591614,0.258382214624,-0.118053289862,0.573776794854,0.818995190315,0.00279550166929,0.0,0.818961566139,-0.573713503111,-0.0116411527164,0.0,-0.00793038371331,0.0089690044004,-0.999928330419,0.0,0.641088695761,0.234187162288,0.303850105969,1.0,-0.101068,-0.132832228571,1.182
0.447381343859,0.432317511404,-0.124934064436,-1.53484567215,0.0684258899966,1.95892310998,0.13323327399,-0.089125651223,-0.521590686503,-0.00544028887256,-0.781369102443,-0.0506157471791,0.27872694081,-0.129382761303,0.573677184146,0.819064592308,0.00290326007434,0.0,0.81903229511,-0.573613463858,-0.0115948501003,0.0,-0.00783173288765,0.00902973856854,-0.999928561339,0.0,0.63922320379,0.23178541171,0.303926378018,1.0,-0.109132,-0.143430628571,1.2
0.445753017512,0.423856102876,-0.124977467647,-1.54769961785,0.0675133926351,1.96340836299,0.13113170963,-0.104967404417,-0.54965583862,-0.00272840646919,-0.801026238721,-0.057749221905,0.281288906296,-0.132314337084,0.573619224147,0.819105024949,0.00294799821563,0.0,0.819073451172,-0.573555531909,-0.011553367644,0.0,-0.0077727304568,0.00904203494396,-0.999928910606,0.0,0.637449280961,0.229484562784,0.303956605702,1.0,-0.1163,-0.152851428571,1.216
0.443979039141,0.414918108082,-0.125096741575,-1.56123328982,0.0665255563602,1.96806000527,0.128949591529,-0.109700611169,-0.575338162875,-0.00871955080956,-0.867387924904,-0.0623322233747,0.306963298904,-0.126475335633,0.573663956171,0.819073736036,0.00293721412859,0.0,0.819042490947,-0.573600837506,-0.0114988754422,0.0,-0.0077337872839,0.00900236687746,-0.999929570482,0.0,0.63556647796,0.226979613205,0.303985073312,1.0,-0.123468,-0.162272228571,1.232
0.441800965114,0.404360128675,-0.125174523521,-1.57734375751,0.0654495009795,1.97354031575,0.126244279528,-0.125114255259,-0.605344991886,-0.00316543226094,-0.908410518526,-0.0633901728699,0.303702178156,-0.153030251112,0.573648971469,0.819084424767,0.00288262698591,0.0,0.819051793644,-0.573585246792,-0.0116133927965,0.0,-0.00785906815857,0.00902320536083,-0.999928405843,0.0,0.633264839813,0.2240147098,0.30393231784,1.0,-0.131532,-0.172870628571,1.25
0.439517066643,0.393782948809,-0.125318656014,-1.59307018736,0.0643488871989,1.97896845485,0.123558535997,-0.138133813604,-0.624530135965,-0.0120390109819,-0.938068757572,-0.0685785778868,0.328503729038,-0.161127264501,0.573742573622,0.819018103016,0.003090800315,0.0,0.818988309821,-0.573678334811,-0.0114918860806,0.0,-0.00763908463593,0.00912488930403,-0.999929187883,0.0,0.631047308829,0.220992555359,0.304043247097,1.0,-0.139148,-0.182880228571,1.267
0.437236530138,0.383549777326,-0.125431432035,-1.60863103317,0.063157424388,1.98406727229,0.120797654405,-0.151183765972,-0.659373968621,-0.00609037255183,-0.973647470855,-0.0721708415664,0.317301370478,-0.181764886058,0.573689667388,0.819056013525,0.00285642114607,0.0,0.819023476669,-0.57362652175,-0.0115717376572,0.0,-0.00783953332372,0.0089782351644,-0.999928963982,0.0,0.628612020579,0.21779108088,0.303967938168,1.0,-0.146764,-0.192889828571,1.284
0.434939022578,0.373423054677,-0.125525770369,-1.62360537159,0.0620594240505,1.98909120675,0.118108161851,-0.160079209955,-0.673810743482,-0.00614321298406,-1.01405403496,-0.0686837252391,0.330957165065,-0.184660219407,0.573686470974,0.819057890282,0.00295842699071,0.0,0.819026518382,-0.573622814382,-0.0115401866713,0.0,-0.00775520904371,0.00904365324228,-0.999929032016,0.0,0.626545916495,0.215063909094,0.30402370938,1.0,-0.153036,-0.201133028571,1.298
0.432119068629,0.361559064081,-0.125687834371,-1.6410976861,0.0606936917713,1.99494152716,0.115027284374,-0.166472979764,-0.720679573241,-0.0111294386663,-1.03230643683,-0.0797176124828,0.359004890226,-0.188392090047,0.573830994207,0.818956244874,0.00306691550974,0.0,0.818926944294,-0.573767773603,-0.0113995081024,0.0,-0.00757614692944,0.00905314511579,-0.999930318853,0.0,0.623958760434,0.211539913344,0.304102728886,1.0,-0.160652,-0.211142628571,1.315
0.428915907629,0.348656422793,-0.125833570865,-1.66040553266,0.0592549108142,2.00111208593,0.111407236674,-0.182049555703,-0.736749269197,-0.00988882336929,-1.07966862426,-0.0729498037395,0.341539046896,-0.198740969312,0.573853479572,0.818941270488,0.00285067970536,0.0,0.818908530589,-0.57379018465,-0.0115926454414,0.0,-0.00785815504545,0.00898709888222,-0.999928738187,0.0,0.620982710094,0.207626994382,0.303997263113,1.0,-0.168716,-0.221741028571,1.333
0.425873394163,0.336661423783,-0.125962413997,-1.67784020371,0.057895978808,2.00684201261,0.108088115602,-0.188391094167,-0.732954357893,-0.00447139875133,-1.10124456688,-0.0941210282496,0.352360809167,-0.218371984263,0.573907048514,0.818903010243,0.00305063622155,0.0,0.818873070774,-0.573843356479,-0.0114648631764,0.0,-0.00763817069684,0.00907802441784,-0.999929621434,0.0,0.618309407421,0.204028577377,0.304102083244,1.0,-0.175884,-0.231161828571,1.349
0.422514132266,0.323543464612,-0.126004290488,-1.69700476516,0.0562911768821,2.01296697858,0.10433990389,-0.196979461415,-0.77245042603,-0.000257094787209,-1.1290715955,-0.0963083376278,0.363728626087,-0.228658022023,0.573750161592,0.819012977776,0.00303993565956,0.0,0.818983203568,-0.573686882927,-0.0114288902334,0.0,-0.00761658485281,0.00904715804919,-0.999930065838,0.0,0.615256251784,0.200121300606,0.304113642284,1.0,-0.1835,-0.241171428571,1.366
0.418657377349,0.309190249059,-0.126067079554,-1.71778341658,0.0546430672792,2.01948540356,0.10017693022,-0.218608514342,-0.848560869127,-0.00485611473199,-1.14500981313,-0.0959860800154,0.381858030258,-0.229539879849,0.573684340719,0.819058842796,0.00310421536227,0.0,0.819029307012,-0.573620168632,-0.0114735912192,0.0,-0.00761705245903,0.00912483865268,-0.99992935642,0.0,0.611889174391,0.195782834368,0.304149031592,1.0,-0.191564,-0.251769828571,1.384
0.414776738831,0.295326019711,-0.126192535372,-1.73799571402,0.0529087429095,2.0255977587,0.0960367432463,-0.235730219619,-0.850321146769,-0.0085686782976,-1.20016734129,-0.0933877408344,0.350787044352,-0.240025802829,0.573618438395,0.819105980338,0.00283319756039,0.0,0.819072858087,-0.573555054313,-0.0116189379538,0.0,-0.00789229873373,0.00898560526893,-0.999928482702,0.0,0.608529241506,0.191447211322,0.304050987055,1.0,-0.19918,-0.261779428571,1.401
0.410607432466,0.280926000365,-0.126352265637,-1.75843559665,0.0512378586901,2.03190588969,0.0917332370716,-0.248717704074,-0.825794299981,-0.0134676035787,-1.22456883638,-0.100365441434,0.363064056513,-0.254586648443,0.573677274316,0.819064048426,0.00303585402817,0.0,0.819033274547,-0.573612896582,-0.011553655717,0.0,-0.00772192767403,0.00911471067228,-0.999928644395,0.0,0.605137272276,0.186955211015,0.304151257767,1.0,-0.206796,-0.271789028571,1.418
0.40642944108,0.267020209115,-0.126505321939,-1.77807031876,0.0495361116551,2.03780639967,0.0874519182147,-0.265205779364,-0.874138796597,-0.0116583189113,-1.23364841892,-0.109337760268,0.365321640847,-0.260946866246,0.573684150774,0.819058888822,0.00312709027724,0.0,0.819029348377,-0.573619547922,-0.011501636428,0.0,-0.00762690428277,0.00915966159067,-0.999928962942,0.0,0.601808071089,0.18255194226,0.304226877132,1.0,-0.213964,-0.281209828571,1.434
0.401633596495,0.251966276277,-0.126711747053,-1.79927285498,0.0476379223275,2.04403741971,0.0827637438321,-0.28607475759,-0.891119252008,-0.00881369088957,-1.24884991951,-0.108884588031,0.372055415755,-0.272493551294,0.573842545192,0.818947942012,0.00312225942626,0.0,0.818918518398,-0.57377815192,-0.0114821385416,0.0,-0.00761193603849,0.00914599175705,-0.999929202126,0.0,0.598161420552,0.177631327339,0.304261670598,1.0,-0.22158,-0.291219428571,1.451
0.396645110539,0.236600490498,-0.126842416493,-1.82088483764,0.0457009210109,2.05023292224,0.0777378021772,-0.295523212604,-0.919818915621,-0.00685392634792,-1.26229926658,-0.117625343031,0.371804749051,-0.296125286465,0.573777780746,0.818993622525,0.00304162576386,0.0,0.81896266779,-0.573713069612,-0.0115848790897,0.0,-0.00774307071666,0.00913830010486,-0.999928265591,0.0,0.594325185499,0.172645835728,0.304231713147,1.0,-0.229196,-0.301229028571,1.468
0.391439771653,0.22091158022,-0.126943411494,-1.842829972,0.0436765198943,2.05647798201,0.0725633787694,-0.316110997282,-0.916861838647,-0.00621081987733,-1.2894902808,-0.114303614946,0.346290912961,-0.305075712986,0.573678027132,0.819063715124,0.00298306109533,0.0,0.819031648136,-0.573613108448,-0.0116579616893,0.0,-0.00783764136331,0.00913131371378,-0.999927592622,0.0,0.590349455458,0.167565055592,0.304183215335,1.0,-0.236812,-0.311238628571,1.485
0.386154417205,0.205665916644,-0.127120674118,-1.86367369894,0.0416763539172,2.06233520593,0.0674397473146,-0.339271739616,-0.93552092244,-0.0121767828977,-1.32592230152,-0.120429884889,0.364209817854,-0.326977097346,0.57368495922,0.81905834263,0.00312183194369,0.0,0.819028466253,-0.573620051352,-0.0115392831768,0.0,-0.00766074824723,0.00917695911236,-0.999928545626,0.0,0.586551633019,0.162535230524,0.304277019032,1.0,-0.24398,-0.320659428571,1.501
0.379815607267,0.188225925639,-0.127348628408,-1.88741583593,0.0393951006711,2.06877827401,0.0613499830947,-0.367460373542,-0.971479473636,-0.0110444754911,-1.35046246197,-0.133575945484,0.361325491243,-0.350106300947,0.573716012616,0.819036353189,0.00318369662191,0.0,0.819007145388,-0.573650747968,-0.0115265805787,0.0,-0.00761450517626,0.00922063165651,-0.999928497075,0.0,0.582128601585,0.156664730357,0.304329432636,1.0,-0.252044,-0.331257828571,1.519
0.373767548081,0.172445897732,-0.127592088304,-1.90870452401,0.0373612006311,2.07444537574,0.0557342452975,-0.378191782002,-0.989662528082,-0.00700382432614,-1.34845385556,-0.131873968603,0.347828531816,-0.345570507536,0.573906471323,0.81890246758,0.003295097277,0.0,0.818874285279,-0.573840328067,-0.011529514039,0.0,-0.00755083317103,0.00931531249445,-0.999928102351,0.0,0.578106663319,0.15123376726,0.30437862091,1.0,-0.259212,-0.340678628571,1.535
0.366721644652,0.154372026621,-0.127773240126,-1.93290213783,0.0348563448095,2.08069362513,0.0490640620295,-0.399263904768,-1.0033900412,-0.0039299283521,-1.33463398784,-0.131592191664,0.345380562558,-0.369167004286,0.573821396093,0.818962023213,0.00331010912097,0.0,0.818934254547,-0.573755489695,-0.0114922441613,0.0,-0.00751266289199,0.00930543649282,-0.999928481817,0.0,0.573401112896,0.145067442496,0.304410851244,1.0,-0.267276,-0.351277028571,1.553
0.360974570512,0.140148086619,-0.127936960911,-1.9519316321,0.0328576741116,2.08537944445,0.0437269797175,-0.421595927842,-1.03559934455,-0.0120819794684,-1.34486581288,-0.137957290389,0.343519017841,-0.386987585617,0.573813464409,0.818968184197,0.00315725135969,0.0,0.81893814514,-0.573747680997,-0.0116043046265,0.0,-0.00769223874233,0.00924447779688,-0.999927681932,0.0,0.569601433166,0.140140555159,0.304356637563,1.0,-0.273548,-0.359520228571,1.567
0.353612446523,0.122537025422,-0.128176060265,-1.97519302116,0.0304201208373,2.09103845828,0.0368265512268,-0.439394829686,-1.02878529729,-0.0140627239283,-1.35558492393,-0.144056471624,0.322517538109,-0.406017797676,0.573757448288,0.819007547765,0.00312636193232,0.0,0.818976639859,-0.573691213496,-0.0116791190949,0.0,-0.00777186995181,0.00926157727455,-0.999926907941,0.0,0.564896119291,0.133989383304,0.304334380543,1.0,-0.281164,-0.369529828571,1.584
0.345257976837,0.103464708544,-0.12849680081,-1.99996828729,0.0276906802079,2.09691959656,0.0292415743315,-0.469515399258,-1.0569125425,-0.0149729870209,-1.37055509508,-0.14311323019,0.310053935178,-0.430781751118,0.573865206231,0.818931816571,0.00318618686987,0.0,0.81890200997,-0.573799150833,-0.0116094561269,0.0,-0.00767926952478,0.0092716162737,-0.99992753035,0.0,0.559814267791,0.127200259841,0.304378214057,1.0,-0.289228,-0.380128228571,1.602
0.337098877255,0.0851972173925,-0.12869853154,-2.02351172527,0.0251330933169,2.10224952436,0.0216835576222,-0.486321221793,-1.06721124099,-0.0218143175445,-1.40097968735,-0.140556239362,0.304150855835,-0.457376179964,0.57373499812,0.819022900744,0.00322286997564,0.0,0.818992815389,-0.573667928105,-0.0116886057991,0.0,-0.00772452740687,0.00934584951774,-0.999926490685,0.0,0.554823972502,0.120791074151,0.304378021896,1.0,-0.296844,-0.390137828571,1.619
0.328963622856,0.0676536297237,-0.128934211988,-2.04561647678,0.0225949922257,2.10711583327,0.0142274947745,-0.51630782012,-1.07490668522,-0.0180087958844,-1.39211464821,-0.158894652322,0.299916452767,-0.466119460394,0.573635587257,0.819091756815,0.00341377381977,0.0,0.819064473052,-0.573568321446,-0.0115549348618,0.0,-0.00750666390275,0.00942460415279,-0.999927410782,0.0,0.550075236124,0.114569848638,0.304494460583,1.0,-0.29998,-0.394259428571,1.635
0.319281909866,0.0481355935618,-0.12927289998,-2.07014622721,0.0196878183087,2.11215366787,0.00566140338568,-0.544541165556,-1.07989822973,-0.0112835342231,-1.34878123611,-0.16208119992,0.278225741226,-0.478089311079,0.573787130835,0.818985777263,0.0033722441011,0.0,0.818957867433,-0.57371986333,-0.0115877819767,0.0,-0.00755565067385,0.00941082719825,-0.999927171585,0.0,0.544685408709,0.107368470136,0.304511431018,1.0,-0.29998,-0.394259428571,1.653
0.309970024771,0.0298194817983,-0.129463795288,-2.09284397103,0.0170230548192,2.11661740982,-0.00260675636514,-0.544182744236,-1.06766541376,-0.0114546744924,-1.32323634889,-0.155439254941,0.242569309863,-0.483013222819,0.573791464121,0.818982459243,0.00344006637704,0.0,0.818954790458,-0.573723182889,-0.0116407690015,0.0,-0.00756008534825,0.00949681557098,-0.999926325088,0.0,0.539561896834,0.100707662698,0.30454628643,1.0,-0.29998,-0.394259428571,1.67
0.30087914897,0.0126846346961,-0.129683194185,-2.1136655754,0.0143889013753,2.12060316302,-0.0106153743505,-0.577547929328,-1.0774196567,-0.0168582601821,-1.29019596394,-0.167534622736,0.24924163722,-0.496238987974,0.573804476876,0.818972679261,0.00359441809753,0.0,0.818947828745,-0.573736770969,-0.0114594211543,0.0,-0.00732284400017,0.00951929133319,-0.999927876923,0.0,0.534803865738,0.0943678635629,0.304658056117,1.0,-0.29998,-0.394259428571,1.686
0.290934535192,-0.00521666180992,-0.129914330666,-2.135340663,0.0117360974003,2.12439868594,-0.0193742816761,-0.587006138542,-1.0647197572,-0.0114558489051,-1.25053011585,-0.152063492891,0.232981555837,-0.524472729194,0.573857793764,0.818935155949,0.00363177479286,0.0,0.818910020857,-0.573788971034,-0.0115473529784,0.0,-0.00737280294005,0.00960082012091,-0.999926730331,0.0,0.529708647181,0.0876368538106,0.304682178449,1.0,-0.29998,-0.394259428571,1.703
0.280232806116,-0.0239685646814,-0.130103814073,-2.15788690027,0.00880668073048,2.12816515432,-0.0288415700547,-0.609996052034,-1.04520004051,-0.00987423371265,-1.22913896302,-0.16380179668,0.18857603439,-0.526587236351,0.573745399615,0.819014193571,0.00356567693514,0.0,0.818988031333,-0.573676573894,-0.011599137885,0.0,-0.00745445675461,0.00957538309028,-0.999926368846,0.0,0.524279987777,0.0805910689753,0.304655479756,1.0,-0.29998,-0.394259428571,1.721
0.270320229004,-0.0405588687242,-0.130396923318,-2.17741155303,0.00618712214613,2.13132052008,-0.037421166104,-0.626623274917,-1.02740550967,-0.0228323799949,-1.22760650895,-0.156505309661,0.189803660139,-0.544147319667,0.573888670327,0.818913313222,0.0036778254257,0.0,0.818889238164,-0.573820315707,-0.011463324215,0.0,-0.00727719797518,0.00959058820078,-0.999927528878,0.0,0.519524395961,0.0741996522327,0.304717698828,1.0,-0.29998,-0.394259428571,1.737
0.260896023778,-0.0559999342727,-0.130530189698,-2.19532340984,0.00386616015085,2.13397757555,-0.0457280120403,-0.623239593169,-1.02504770161,-0.00632149662841,-1.18971207335,-0.173954128205,0.176153310478,-0.554563186921,0.573821506719,0.81895958023,0.00385113977722,0.0,0.81893748954,-0.5737523296,-0.0114192559135,0.0,-0.00714244612488,0.00970664425789,-0.999927380624,0.0,0.515042121613,0.0683506602122,0.304793050987,1.0,-0.29998,-0.394259428571,1.752
0.249915124994,-0.0732122276758,-0.130778269452,-2.21528761232,0.00111151176421,2.13668197958,-0.0553246390679,-0.65341526303,-1.03450599041,-0.0217940663397,-1.15728988444,-0.166472924133,0.167143685324,-0.566296372121,0.573826334044,0.818956493753,0.00378769032301,0.0,0.818933409395,-0.573757101049,-0.011472003889,0.0,-0.00722199690771,0.00968499055182,-0.999927019196,0.0,0.509932736867,0.0616372781031,0.304767078759,1.0,-0.29998,-0.394259428571,1.769
0.238623519998,-0.0902280892599,-0.131041319915,-2.23489940449,-0.001538095695,2.13904391954,-0.0652450876173,-0.655066678741,-1.00921625601,-0.00660068468731,-1.14702855574,-0.149220496407,0.126035576623,-0.584314613752,0.573837816182,0.818948994779,0.00366763851897,0.0,0.818922961967,-0.5737671117,-0.01171455484,0.0,-0.00748939674479,0.00972595522107,-0.999924654527,0.0,0.504778336054,0.0549191031798,0.30467936515,1.0,-0.29998,-0.394259428571,1.786
0.22783535754,-0.106215799062,-0.131217082079,-2.25279534447,-0.00409350046613,2.14107056677,-0.0747105036343,-0.681113864264,-0.988449520036,-0.0128781779944,-1.11842696386,-0.155272961187,0.120234921745,-0.600433248946,0.573754800789,0.819006805133,0.00374547973879,0.0,0.818981989841,-0.573684130159,-0.011651867692,0.0,-0.00739437901103,0.009752983251,-0.999925098433,0.0,0.49999043303,0.0486889505686,0.304738167383,1.0,-0.29998,-0.394259428571,1.802
0.215165474365,-0.123894547676,-0.131575944919,-2.27256831428,-0.00696237431562,2.14304960518,-0.0857214671058,-0.709161133436,-0.990802705318,-0.0139362804721,-1.0882936566,-0.156588387641,0.104389325655,-0.624125915633,0.573896676732,0.818907720022,0.00367388417927,0.0,0.818881392163,-0.573825454976,-0.0117626396652,0.0,-0.0075244930388,0.00975920309974,-0.999924067097,0.0,0.494580074382,0.0414925211465,0.304692015862,1.0,-0.29998,-0.394259428571,1.82
0.202345233812,-0.141444955005,-0.131794166564,-2.29184823095,-0.00976261422512,2.14470742541,-0.0970296111196,-0.721832662512,-0.991552335069,-0.0146201288037,-1.05056264514,-0.159271501405,0.0974979916181,-0.642980996063,0.573796662672,0.818977834971,0.00366641971348,0.0,0.818950703736,-0.573724567648,-0.0118580027171,0.0,-0.00760807280634,0.00980688820254,-0.999922968119,0.0,0.489154630765,0.0344715871171,0.304680778148,1.0,-0.29998,-0.394259428571,1.838
0.1889944509,-0.158812417859,-0.13218191542,-2.3107145527,-0.0126325884885,2.14612097572,-0.108686997362,-0.753033534159,-0.958487836443,-0.0203416345593,-1.04726663322,-0.170649138886,0.0680769327676,-0.660469070334,0.573899679658,0.818905822717,0.00362741075027,0.0,0.818877816879,-0.573827236562,-0.0119235273521,0.0,-0.00768288680864,0.00981350366423,-0.999922331182,0.0,0.484032822499,0.027666300456,0.304648070141,1.0,-0.29998,-0.394259428571,1.855
0.178562072931,-0.172206891911,-0.132321759734,-2.32489212368,-0.0146822683454,2.14699974819,-0.117961542618,-0.741674787787,-0.951526490837,-0.0149521852935,-1.01041635682,-0.150829609256,0.061418517741,-0.677781134357,0.573808099744,0.818969291572,0.00378299246109,0.0,0.818942770048,-0.573734413372,-0.0119293419302,0.0,-0.0075994780625,0.00994339879053,-0.99992168531,0.0,0.47954863668,0.0218717564736,0.304708666984,1.0,-0.29998,-0.394259428571,1.87
0.166212129318,-0.187317607265,-0.13265593844,-2.3408995345,-0.017206705631,2.14775809772,-0.128803160343,-0.781656617321,-0.939309871903,-0.0240662494944,-0.985189275088,-0.156644759738,0.0375475719156,-0.6864750197,0.573871192356,0.818925422603,0.00370859797174,0.0,0.818897388532,-0.573797063631,-0.012030948638,0.0,-0.0077246157941,0.00994136743636,-0.999920746622,0.0,0.474716027601,0.0155139412877,0.304679972644,1.0,-0.29998,-0.394259428571,1.886
0.152082208256,-0.204150847807,-0.132905417052,-2.35832374811,-0.0199290232344,2.14851096744,-0.141382092305,-0.796733212656,-0.925748082664,-0.0124689422711,-0.971066032661,-0.146895527414,0.0255650292335,-0.705200521795,0.573750565819,0.81900918602,0.00387147742526,0.0,0.818983606184,-0.573676295754,-0.011920880515,0.0,-0.00754248103493,0.0100104812163,-0.999921447538,0.0,0.469355656366,0.00848652771739,0.30473975289,1.0,-0.29998,-0.394259428571,1.904
0.137510702469,-0.220822115719,-0.133287923377,-2.37526535863,-0.0226839842722,2.14894238869,-0.154244408595,-0.813047954505,-0.93800282477,-0.0186160767586,-0.949304359045,-0.162756057654,0.0248604661564,-0.714519112406,0.573825914168,0.818955682223,0.00401966227694,0.0,0.818932538212,-0.573751807326,-0.0117944202578,0.0,-0.00735296055971,0.0100599699033,-0.999922362474,0.0,0.463987750922,0.00135732408827,0.304822563004,1.0,-0.29998,-0.394259428571,1.922
0.124358780125,-0.235344338355,-0.133503213802,-2.39006425511,-0.0251320920959,2.1490713477,-0.165994900487,-0.830018610988,-0.900583107679,-0.0122914802847,-0.92227429505,-0.153802426882,0.00680000332806,-0.737751822699,0.573675311833,0.819061578209,0.00393885732253,0.0,0.819037024072,-0.573601015432,-0.0118732976031,0.0,-0.00746577305276,0.0100376809411,-0.999921750536,0.0,0.459154228904,-0.00487243422413,0.304783465295,1.0,-0.29998,-0.394259428571,1.938
0.109009796073,-0.251468006094,-0.133921335725,-2.40601332428,-0.0277254059351,2.14909200042,-0.179619137297,-0.855593666763,-0.871558933462,-0.0161158238139,-0.870606355423,-0.139238829352,-0.00928614844967,-0.760167229162,0.573826742479,0.81895430627,0.00417860737906,0.0,0.818933095886,-0.573751929607,-0.0117496653306,0.0,-0.0072250940784,0.0101644677568,-0.999922237782,0.0,0.453823994679,-0.0120350837018,0.30486523363,1.0,-0.29998,-0.394259428571,1.956
0.0969743803151,-0.263849392552,-0.134152272943,-2.41831833496,-0.0297713498106,2.14897573273,-0.190420119553,-0.870453168436,-0.864633268745,-0.0152098495668,-0.84148293493,-0.140704773622,-0.0211273828616,-0.775328597949,0.573753510084,0.819005502232,0.00420046204467,0.0,0.81898430902,-0.573678261406,-0.0117771333776,0.0,-0.0072359625886,0.0101974804525,-0.999921823063,0.0,0.449307688441,-0.0178783271542,0.304828056409,1.0,-0.29998,-0.394259428571,1.971
0.0809712978307,-0.279433493953,-0.134573256848,-2.43345563233,-0.0324155876857,2.1486478571,-0.204706497965,-0.887009868377,-0.838423612199,-0.017471271731,-0.860244891814,-0.146387425783,-0.024361006505,-0.800367605038,0.57384461553,0.818941031664,0.00432328421249,0.0,0.81892215588,-0.573769996579,-0.0116292964113,0.0,-0.00704327283763,0.0102140390077,-0.999923029895,0.0,0.444265554632,-0.024656442073,0.304867544166,1.0,-0.29998,-0.394259428571,1.988
0.0647501119381,-0.294832228365,-0.134898713921,-2.44818923447,-0.0348989715625,2.14801363081,-0.219398929554,-0.912086827368,-0.848907450826,-0.0272573540558,-0.791762272667,-0.143958326405,-0.0276120605351,-0.820336326325,0.573765627311,0.818995613218,0.00446512567047,0.0,0.818978380069,-0.573690303137,-0.0116015502486,0.0,-0.00694015308018,0.0103136107136,-0.999922728869,0.0,0.438886131559,-0.0316883837715,0.304898866402,1.0,-0.29998,-0.394259428571,2.006
0.0499689985569,-0.308225783793,-0.135217549932,-2.4608769624,-0.0371693447211,2.14732955422,-0.232751787828,-0.915928414528,-0.807291786512,-0.00964960260846,-0.785875984161,-0.139334827512,-0.0534260318856,-0.829830587859,0.57373841674,0.819014365447,0.00452164233457,0.0,0.818998198585,-0.573663430123,-0.0115311125264,0.0,-0.00685037784824,0.0103192578485,-0.999923289678,0.0,0.434110602556,-0.0379814275981,0.304909565275,1.0,-0.29998,-0.394259428571,2.022
0.0329212922357,-0.323021456238,-0.135654111382,-2.47468225401,-0.0396471155888,2.14630089395,-0.248144712214,-0.952025064648,-0.802351088021,-0.0221585983071,-0.741732410219,-0.129807327178,-0.0458179981959,-0.866816423792,0.573834106749,0.818946897254,0.00459829424815,0.0,0.818931553084,-0.573758626116,-0.0115281057119,0.0,-0.00680272638724,0.0103811083624,-0.999922974785,0.0,0.428717364905,-0.0451096860882,0.304924620753,1.0,-0.29998,-0.394259428571,2.04
0.0166433874127,-0.336711617789,-0.135932667727,-2.48730301484,-0.0419156556958,2.14525026466,-0.263136484107,-0.96534857397,-0.789880419566,-0.0140550236867,-0.748916915664,-0.133522056703,-0.0707297304394,-0.891460281974,0.573619905025,0.819096435463,0.00468837635296,0.0,0.819082488879,-0.573544560773,-0.0114568809712,0.0,-0.00669542651667,0.0104122624149,-0.999923375092,0.0,0.423642895708,-0.0517082694774,0.304939178719,1.0,-0.29998,-0.394259428571,2.057
0.00178811522932,-0.348478066544,-0.136343177106,-2.4980874852,-0.0439494078064,2.14407275739,-0.276588003003,-0.983233299675,-0.78163362334,-0.0174908521578,-0.706270587564,-0.135821192556,-0.0809413698812,-0.906119277818,0.573760588016,0.818998101169,0.00465239963974,0.0,0.81898301246,-0.573684279418,-0.0115723701889,0.0,-0.00680887176769,0.0104502073953,-0.99992221319,0.0,0.419110514062,-0.0576868095354,0.304905128634,1.0,-0.29998,-0.394259428571,2.072
-0.0162756127791,-0.362389469028,-0.136766425053,-2.51038771473,-0.0462363826386,2.14267877514,-0.293152374883,-1.02483544121,-0.756911245237,-0.0322130106884,-0.688723650041,-0.125853831197,-0.0861875309049,-0.926772666856,0.573797768271,0.81897064194,0.00489445289315,0.0,0.818959622949,-0.573722262238,-0.0113423406674,0.0,-0.0064811122127,0.0105167715383,-0.999923693439,0.0,0.413780177712,-0.0647864692795,0.305012618394,1.0,-0.29998,-0.394259428571,2.09
-0.0315387641299,-0.373566304663,-0.137063118427,-2.5204836593,-0.0481537500823,2.14127625229,-0.307317541376,-1.01589159446,-0.726749964771,-0.0220187458228,-0.661109168835,-0.129257429218,-0.102214008181,-0.946549832148,0.573649412717,0.81907513513,0.0047980414303,0.0,0.819061717775,-0.573572357977,-0.0115498719298,0.0,-0.00670831813068,0.0105556725347,-0.999921785064,0.0,0.409233382195,-0.0706340649186,0.304934255556,1.0,-0.29998,-0.394259428571,2.105
-0.0493263256334,-0.38600284645,-0.137479121226,-2.5311766493,-0.050317438369,2.13974973455,-0.32362648425,-1.05416354513,-0.715871717634,-0.018910786651,-0.627191403302,-0.129874723897,-0.0838547244571,-0.968481994421,0.573752489355,0.819002021534,0.00495142242582,0.0,0.818992089258,-0.57367742112,-0.0112659278853,0.0,-0.00638642142277,0.0105192324942,-0.999924276818,0.0,0.404208991118,-0.077395464417,0.30504618303,1.0,-0.29998,-0.394259428571,2.122
-0.0684060733989,-0.398657206245,-0.137899300303,-2.54225598006,-0.0524521569971,2.13792336641,-0.341401838522,-1.08525863964,-0.693683174332,-0.0365393549375,-0.606859017906,-0.116277687028,-0.103000205426,-0.994300082251,0.573697853887,0.819040222037,0.00496326818384,0.0,0.819029429738,-0.573621103065,-0.0114179788945,0.0,-0.0065048738375,0.0106157370836,-0.999922493368,0.0,0.398786117791,-0.084460705066,0.304996388929,1.0,-0.29998,-0.394259428571,2.14
-0.0856047237719,-0.409570149892,-0.13819284016,-2.55162416918,-0.0542311671523,2.13615141498,-0.357493431145,-1.07829735639,-0.680273131748,-0.014969600654,-0.556243415441,-0.122034780388,-0.100988659127,-1.01861409764,0.573597980612,0.819109874863,0.00501163059784,0.0,0.819098925956,-0.573519833036,-0.0115194406467,0.0,-0.00656154437292,0.0107127553864,-0.99992108839,0.0,0.393692701875,-0.0910639846797,0.304996540413,1.0,-0.29998,-0.394259428571,2.157
-0.103263290945,-0.420174237893,-0.138591001671,-2.56044890844,-0.0561199664779,2.13458304111,-0.373910442482,-1.10508606877,-0.651482124589,-0.0172007130807,-0.546443957827,-0.117654599316,-0.0984233110922,-1.02619557022,0.573668906344,0.819059453054,0.00513275346065,0.0,0.819051450943,-0.573592719048,-0.0112632262021,0.0,-0.00628126281277,0.0106655571716,-0.99992339288,0.0,0.389246442503,-0.0970407915892,0.305068448328,1.0,-0.29998,-0.394259428571,2.172
-0.122286402624,-0.430971006818,-0.138989274656,-2.56964847434,-0.0580164404902,2.1325242185,-0.391733155746,-1.13624745981,-0.631814550971,-0.0285695712996,-0.523353226094,-0.103945058731,-0.116962628841,-1.05853201145,0.573666334846,0.81906186776,0.00503388002637,0.0,0.819050733644,-0.573587336927,-0.011584883885,0.0,-0.00660149389307,0.0107690683445,-0.99992022054,0.0,0.384055929152,-0.103723444709,0.304983592479,1.0,-0.29998,-0.394259428571,2.189
-0.141479056786,-0.441321696414,-0.139304512043,-2.5781720795,-0.0597571253773,2.13062396197,-0.409902219963,-1.14134187693,-0.604691651689,-0.0164527706068,-0.475407669105,-0.0974574014616,-0.102365625666,-1.08203271017,0.573547546557,0.819144489429,0.00512485873294,0.0,0.819134509817,-0.573468254849,-0.0115569203588,0.0,-0.00652796951638,0.0108266004092,-0.999920081975,0.0,0.378997702077,-0.110342220085,0.305010047604,1.0,-0.29998,-0.394259428571,2.206
-0.161205940324,-0.451202939998,-0.139746647368,-2.58613134439,-0.0615359897884,2.12880211773,-0.428435989801,-1.17369527821,-0.557959653529,-0.0217395348494,-0.470951734365,-0.103036063887,-0.112088632066,-1.09793342411,0.573663341265,0.81906266971,0.00524031276292,0.0,0.81905526063,-0.573585519591,-0.0113524733559,0.0,-0.00629274077054,0.0108048115589,-0.999921825675,0.0,0.373944980889,-0.117120399852,0.305080561523,1.0,-0.29998,-0.394259428571,2.223
-0.181089510152,-0.460584750778,-0.140103416299,-2.59382855347,-0.0632474453256,2.12672711704,-0.447355981948,-1.1738705461,-0.537406691812,-0.00855998234314,-0.444993346905,-0.103960959535,-0.116521474483,-1.10182065027,0.573563685122,0.819132976329,0.00515878867928,0.0,0.819123148152,-0.573483808979,-0.0115903365788,0.0,-0.00653567094883,0.0108736887357,-0.999919520711,0.0,0.368791732415,-0.123778102494,0.305027654908,1.0,-0.29998,-0.394259428571,2.24
-0.202496554886,-0.469892942812,-0.140563806229,-2.60137310265,-0.0649232698644,2.12481994188,-0.467744793938,-1.20341772223,-0.502937721897,-0.0258085878963,-0.402670006733,-0.095309309511,-0.0964781095227,-1.13493805024,0.57360054014,0.819106645634,0.00524121464064,0.0,0.819097555801,-0.573519849889,-0.0116156258941,0.0,-0.00650862104024,0.0109560063256,-0.999918798592,0.0,0.363400186628,-0.130887445868,0.305000480349,1.0,-0.296844,-0.390137828572,2.258
-0.221569900781,-0.477584088754,-0.140707299907,-2.60734417795,-0.0661898145573,2.12315766848,-0.485869071402,-1.19541565132,-0.467818103717,-0.00536858542173,-0.362356233857,-0.078312121385,-0.101858105309,-1.14683141454,0.573604886139,0.819102807302,0.00536400684836,0.0,0.819096139257,-0.573525249957,-0.0114476730172,0.0,-0.0063005490421,0.0109602894976,-0.999920084375,0.0,0.358757867774,-0.137070269182,0.305075701523,1.0,-0.289676,-0.380717028572,2.274
-0.24171237535,-0.485045593603,-0.140868095317,-2.61330314001,-0.0674175901535,2.1213873207,-0.505052290216,-1.17800526013,-0.431135183813,-0.00745786770655,-0.340454162804,-0.060426525835,-0.109540061017,-1.10632080307,0.573644727007,0.819074536867,0.00542006763744,0.0,0.819067590441,-0.573563169967,-0.0115896181604,0.0,-0.00638413286597,0.0110879385627,-0.999918146883,0.0,0.353838751371,-0.14349493283,0.305041884774,1.0,-0.28206,-0.370707428572,2.291
-0.259402672331,-0.491041286169,-0.140917366873,-2.61814256256,-0.0684357890132,2.11986093844,-0.521843848294,-1.18102453394,-0.38734859469,0.00679825807977,-0.309172571572,-0.0693713238989,-0.0944929896578,-1.12161541318,0.573704624426,0.81903281692,0.0053847582459,0.0,0.819023948489,-0.573620661722,-0.0118260368888,0.0,-0.00659723073493,0.0111951135526,-0.999915569425,0.0,0.349555685708,-0.149045153478,0.304972283001,1.0,-0.27534,-0.361875428572,2.306
-0.279211814053,-0.497260832185,-0.140916721679,-2.62295577696,-0.0693237232137,2.11844108035,-0.540639492705,-1.17038372805,-0.347347554737,-0.0078981262961,-0.273209982553,-0.043961241116,-0.0805644681099,-1.09763388752,0.573877034569,0.818910789194,0.00556915050202,0.0,0.818904612784,-0.573792909206,-0.0117336868303,0.0,-0.00641342715235,0.0112945138925,-0.999915647396,0.0,0.344909758457,-0.15520363777,0.304998011852,1.0,-0.267724,-0.351865828572,2.323
-0.301883149639,-0.503720972228,-0.140751918016,-2.6278975979,-0.070290129338,2.11677645121,-0.562347355902,-1.1507701711,-0.302528411564,0.00373382215376,-0.232766649956,-0.0401088120719,-0.0710369801611,-1.08174568556,0.573846807493,0.818931504204,0.00563736237035,0.0,0.818926205363,-0.573762439195,-0.0117166735645,0.0,-0.00636076878669,0.011340377831,-0.999915464652,0.0,0.339635778089,-0.162133651013,0.305026416205,1.0,-0.258764,-0.340089828572,2.343
-0.319750391146,-0.508246067866,-0.14062614209,-2.63129850112,-0.0709372670772,2.11567663784,-0.579478572325,-1.10247375038,-0.274172292312,0.00791869580812,-0.203562545525,-0.0294183420545,-0.0665826891293,-1.06945527469,0.57389121143,0.818899559274,0.00575640210627,0.0,0.81889652113,-0.573807735952,-0.0115722402654,0.0,-0.00617355325333,0.0113553232691,-0.999916468448,0.0,0.33531316099,-0.167898696328,0.305075088121,1.0,-0.251148,-0.330080228572,2.36
-0.336213591302,-0.512103090576,-0.140439377408,-2.63420991102,-0.0714754785407,2.11464099428,-0.59520687174,-1.08301501698,-0.244602652028,0.0201776769488,-0.186500848531,-0.0418856268387,-0.0729532267509,-1.05422208066,0.573950775515,0.818857467374,0.00580536923741,0.0,0.818855163882,-0.573867316697,-0.0115442761083,0.0,-0.0061217228921,0.0113798219002,-0.999916508596,0.0,0.331802154832,-0.172507288792,0.305094685252,1.0,-0.244876,-0.321837028572,2.374
-0.353272789849,-0.515603568313,-0.140177883175,-2.63700991278,-0.0718902004,2.11360194197,-0.611716422819,-1.06893891825,-0.209026686913,0.00946842502695,-0.16582885056,-0.0276588382211,-0.0601127340597,-1.02683700656,0.573873509671,0.818911230827,0.00585984850877,0.0,0.818908219728,-0.57378726314,-0.0117580279247,0.0,-0.00626659533303,0.0115465211685,-0.999913700092,0.0,0.32790526299,-0.177543164952,0.305033379589,1.0,-0.237708,-0.312416228572,2.39
-0.37106343326,-0.518763856705,-0.139898059237,-2.63956910802,-0.0723021454446,2.11270589434,-0.628832108028,-1.03580980871,-0.180523251801,0.0177654286446,-0.136043423357,-0.0185195267197,-0.0540920232199,-0.999951465646,0.573901427998,0.8188914429,0.00589089031953,0.0,0.818887785686,-0.573813132485,-0.0119176484255,0.0,-0.00637911290549,0.0116637581428,-0.999911627927,0.0,0.323890602899,-0.182784787052,0.304965380003,1.0,-0.230092,-0.302406628572,2.407
-0.388440745311,-0.521518586837,-0.139620429906,-2.64168800421,-0.0726684198029,2.11191131729,-0.645553128472,-1.00571979665,-0.150532620709,0.0237700062148,-0.118111252144,-0.0234423325135,-0.0479873627141,-0.97623068363,0.573960314311,0.818849884061,0.00593058766021,0.0,0.818846520677,-0.573871441811,-0.0119453233684,0.0,-0.0063781545632,0.0117126081302,-0.999911063023,0.0,0.320007384901,-0.18789508718,0.304954244329,1.0,-0.222476,-0.292397028572,2.424
-0.407209464645,-0.524080063566,-0.139236179231,-2.64361595416,-0.0729192181379,2.11114035477,-0.663727374794,-0.983222511154,-0.126770746292,0.0124209319419,-0.0904432529917,-0.0157267358234,-0.0370506286109,-0.946246774744,0.573953594731,0.818853992102,0.00601312021464,0.0,0.818851609365,-0.573864219883,-0.0119434450253,0.0,-0.0063293449569,0.0117790631543,-0.999910592535,0.0,0.315853416188,-0.193362974897,0.304961747104,1.0,-0.213964,-0.281209828572,2.443
-0.424483819725,-0.526052148742,-0.13885266915,-2.64508542014,-0.073129506686,2.11054947733,-0.680476944585,-0.942435385657,-0.0980418473563,0.0238428326537,-0.0676760488409,-0.00606179675917,-0.0352123215231,-0.911063006637,0.5739351172,0.818866650993,0.00605277111857,0.0,0.818865017527,-0.57384602393,-0.0118983524914,0.0,-0.00626992613235,0.0117855117674,-0.999910890899,0.0,0.312051130441,-0.198377262077,0.304975474218,1.0,-0.2059,-0.270611428572,2.461
-0.438541011784,-0.527386116226,-0.138605910205,-2.6460420506,-0.0732714312261,2.11015495345,-0.694006712633,-0.935177355066,-0.0775394594521,0.015641931504,-0.0568885714846,-0.0055190316646,-0.0265327291354,-0.894469073875,0.574075069429,0.818768088272,0.00611385212255,0.0,0.818767712813,-0.573986587505,-0.0118142591998,0.0,-0.0061639879789,0.011788323351,-0.999911516428,0.0,0.308963872305,-0.202472836994,0.305001200197,1.0,-0.19918,-0.261779428572,2.476
-0.451972255509,-0.52841274787,-0.138212452798,-2.64681980343,-0.0733189279213,2.10981093052,-0.70712608894,-0.886317977049,-0.0625791612493,0.0266496342187,-0.0431147895946,-0.00274710740423,-0.0185654585544,-0.86316283023,0.573986330237,0.818830121978,0.00613766600759,0.0,0.818830088125,-0.573897836576,-0.0118028325622,0.0,-0.00614223984038,0.0118005973447,-0.99991150548,0.0,0.306033910046,-0.206321340917,0.305003699432,1.0,-0.19246,-0.252947428572,2.491
-0.46693580204,-0.529292964514,-0.137837088388,-2.6474841536,-0.0733518628804,2.10948560404,-0.721498809554,-0.865153071127,-0.0450254950826,0.0280548325662,-0.0319602438088,-0.00290650900485,-0.0196185623724,-0.836056084908,0.574151889988,0.818713719047,0.00618064466999,0.0,0.818714226311,-0.574063162416,-0.0118003429258,0.0,-0.0061131399147,0.0118355987844,-0.999911270124,0.0,0.302761718812,-0.210619639181,0.305005116271,1.0,-0.184844,-0.242937828572,2.508
-0.481127332069,-0.529844239167,-0.137343651321,-2.64789489063,-0.0733494338891,2.10925084364,-0.735434207077,-0.82266315619,-0.0293756495289,0.0261306454895,-0.0205299126927,-0.00177594813693,-0.0142963003649,-0.815015049083,0.573990348362,0.818827177597,0.00615468249015,0.0,0.818827494993,-0.573902039321,-0.0117783533753,0.0,-0.00611236870065,0.0118005115994,-0.999911689538,0.0,0.299693827179,-0.214663747678,0.30501242081,1.0,-0.177228,-0.232928228572,2.525
-0.494932237561,-0.530115686904,-0.136927325369,-2.64813341587,-0.0733503937782,2.10906053181,-0.748812778021,-0.789573230724,-0.00702147333169,0.0392697922417,-0.0105375991147,-4.07560421958e-05,-0.00630104128858,-0.780913899974,0.574031686707,0.818798406297,0.00612694077176,0.0,0.818798089905,-0.573942950634,-0.011828959676,0.0,-0.00616913764101,0.0118071524,-0.999911262509,0.0,0.296688230674,-0.218607643959,0.304997597193,1.0,-0.169612,-0.222918628572,2.542
-0.507249857964,-0.530234205169,-0.136436949312,-2.64824966974,-0.0733274224716,2.10895822714,-0.760897449375,-0.763829963317,-0.00450194461165,0.0281044319238,-0.0062464986679,-0.00181753239178,-0.000953307302802,-0.738385453455,0.573885559083,0.818901404704,0.00604990504401,0.0,0.818900165953,-0.573797301283,-0.0118288691156,0.0,-0.00621537801287,0.0117429114977,-0.999911732657,0.0,0.293855313892,-0.222303912468,0.304990538936,1.0,-0.161996,-0.212909028572,2.559
-0.520032107529,-0.530186270306,-0.135987457685,-2.64825601141,-0.0732856030291,2.10889445575,-0.773218962668,-0.729116822224,0.00665458642095,0.037028421276,0.00187247490137,0.00525735864971,-0.00194672745419,-0.716180209624,0.573958010668,0.818850968036,0.00600341882943,0.0,0.818849051643,-0.573869779181,-0.0118513318812,0.0,-0.00625941445862,0.0117182862987,-0.999911746854,0.0,0.291231177026,-0.225706078261,0.304977847618,1.0,-0.154828,-0.203488228572,2.575
-0.532000479386,-0.529991834508,-0.135459161827,-2.6481657147,-0.073153956589,2.10889157301,-0.784959802986,-0.699275742301,0.01266179605,0.029929500419,0.00650245370676,0.00554808811768,0.00041458269492,-0.680399362684,0.57383350942,0.818938470223,0.00596928444323,0.0,0.818936048657,-0.573745320697,-0.0118660056213,0.0,-0.0062928006299,0.0116977990826,-0.999911777187,0.0,0.288637626493,-0.229053501825,0.304961451176,1.0,-0.147212,-0.193478628572,2.592
-0.543639140798,-0.529704361837,-0.135038386817,-2.64797290832,-0.0729833747113,2.10889446225,-0.796154724027,-0.667021402717,0.0275172799496,0.0265237154888,0.0172028625469,0.0119353606601,0.00126731520949,-0.616994380356,0.57398407261,0.818832680507,0.0060060489901,0.0,0.818830650817,-0.573895549657,-0.0118747744159,0.0,-0.00627672942547,0.0117340943017,-0.999911452929,0.0,0.286089037436,-0.232321122362,0.304955397506,1.0,-0.139596,-0.183469028572,2.609
-0.554409185949,-0.529207290666,-0.134460967965,-2.64764973117,-0.0727242533459,2.10893701996,-0.806825376455,-0.627933669845,0.0311958793946,0.0276921109418,0.020465972164,0.00789845304952,0.00119402807341,-0.621764466523,0.573787426614,0.818970433487,0.00601373709689,0.0,0.818968179653,-0.573698308595,-0.0119213393654,0.0,-0.00631327521714,0.0117656004837,-0.999910852627,0.0,0.283779935051,-0.235300613014,0.304939488169,1.0,-0.13198,-0.173459428572,2.626
-0.564855487868,-0.528625203865,-0.133992289821,-2.64725590664,-0.0724903185907,2.10901618708,-0.816875147894,-0.605420196369,0.0327237914049,0.0259662707404,0.0297212333114,0.020849594569,0.00441828452097,-0.566673435183,0.5739039239,0.818888611462,0.00603945776877,0.0,0.818886466671,-0.573814257243,-0.0119540699698,0.0,-0.00632364653492,0.0118063452038,-0.999910306831,0.0,0.281515008304,-0.238214116907,0.304924829379,1.0,-0.124364,-0.163449828572,2.643
-0.574574712193,-0.527886769335,-0.133461316571,-2.6467499783,-0.0722029688104,2.10914713718,-0.826431101726,-0.543387835528,0.0477479397317,0.0321937290151,0.0294127122248,0.0197884167223,0.0104393191415,-0.550719944186,0.573814378816,0.81895122034,0.00605840475342,0.0,0.818949121351,-0.573724278028,-0.011980665314,0.0,-0.00633584857091,0.0118364311625,-0.999909873899,0.0,0.279444783039,-0.240914010003,0.304909874605,1.0,-0.116748,-0.153440228572,2.66
-0.583199663066,-0.527142892951,-0.132972299238,-2.64624930043,-0.0719405450296,2.10925168022,-0.834827924566,-0.537979082225,0.0474708260313,0.0329686381868,0.0327524775797,0.0184224819106,0.00814613781202,-0.517868469057,0.573796463777,0.818963712197,0.0060665609834,0.0,0.818961243326,-0.573705445113,-0.0120536749034,0.0,-0.0063912263261,0.0118848631812,-0.999908946981,0.0,0.277598827788,-0.243299686563,0.304886978133,1.0,-0.10958,-0.144019428572,2.676
-0.592923520992,-0.526231932122,-0.132436995183,-2.64560759386,-0.0716145987474,2.10939606799,-0.844156105908,-0.500785896244,0.0466192914267,0.0325445721289,0.0386151817976,0.0187714533224,0.00882885240664,-0.486809015558,0.573917687799,0.818878516025,0.00610004308517,0.0,0.818876127471,-0.57382583631,-0.0121055500635,0.0,-0.00641273601181,0.0119429989007,-0.999908116576,0.0,0.275513965628,-0.245994088423,0.304871421405,1.0,-0.101068,-0.132832228572,2.695
-0.600765288348,-0.525332453458,-0.131872338681,-2.64497601604,-0.0712808929983,2.10955284952,-0.851881855656,-0.443225061391,0.0581587427956,0.0340905522835,0.0374868630333,0.0205782557303,0.0139113531802,-0.443636373356,0.573791536259,0.818966853127,0.00610846109467,0.0,0.818964243783,-0.573699059569,-0.0121533269295,0.0,-0.00644887768597,0.0119763179319,-0.999907485613,0.0,0.273877304986,-0.248147505014,0.304856942456,1.0,-0.0934520000001,-0.122822628572,2.712
-0.607738159234,-0.524539046516,-0.131366980357,-2.64439455159,-0.0709888730964,2.10970075255,-0.858655883798,-0.428759374313,0.0482946316583,0.0329544475491,0.033398581191,0.0217612594051,0.013803038363,-0.41098202916,0.573754036428,0.818993129453,0.00610790406916,0.0,0.818990449227,-0.573661452129,-0.0121626196446,0.0,-0.00645735713142,0.0119808978815,-0.999907376023,0.0,0.272414573027,-0.250059120232,0.304855973983,1.0,-0.0862840000001,-0.113401828572,2.728
-0.615022177719,-0.523683084616,-0.130803832794,-2.64371389717,-0.0706474079722,2.10987244743,-0.865625887021,-0.391686122514,0.0465410068148,0.035468126448,0.0444716634908,0.0215936700427,0.0126321455372,-0.376713625418,0.573795888465,0.818963788105,0.00611056912305,0.0,0.818961491318,-0.573703931944,-0.0121087204489,0.0,-0.00641106946858,0.0119524849323,-0.999908013915,0.0,0.270902530882,-0.252055395363,0.304880380637,1.0,-0.0782200000001,-0.102803428572,2.746
-0.621633966395,-0.522784806824,-0.130280933248,-2.64305116859,-0.0702875727358,2.11004267737,-0.871956538925,-0.34995840248,0.050610167742,0.0311247792868,0.0316289731628,0.0170509263545,0.00643314448528,-0.33661004111,0.573846080964,0.818928367054,0.00614425720271,0.0,0.818926411323,-0.573753781751,-0.0121193096227,0.0,-0.00639967884671,0.0119865436104,-0.99990767918,0.0,0.269534490931,-0.253863036944,0.304879705867,1.0,-0.0701560000001,-0.0922050285715,2.764
-0.626847303825,-0.522100192982,-0.129746503996,-2.64253396548,-0.0699518142915,2.11017690084,-0.877013074188,-0.316228952586,0.0420741374525,0.0319273571646,0.0284828904446,0.0255792461046,0.011426403152,-0.306565130209,0.573767609852,0.81898326093,0.00615589984618,0.0,0.818981521118,-0.573675396174,-0.0121059817362,0.0,-0.00638323101299,0.0119878192282,-0.999907769023,0.0,0.268477320044,-0.255249768965,0.304888245311,1.0,-0.0629880000001,-0.0827842285715,2.78
-0.6311186684,-0.521574940628,-0.129295497532,-2.64210817509,-0.0696843453989,2.11029024706,-0.881064998018,-0.298331174016,0.0403108095665,0.03086055472,0.0260096195822,0.0183616432775,0.00817281503045,-0.283659700193,0.57376498259,0.818985142461,0.00615045382758,0.0,0.818983658511,-0.573673408052,-0.0120554919961,0.0,-0.00634503918322,0.0119543704912,-0.999908412558,0.0,0.26760993834,-0.256382117417,0.304909713857,1.0,-0.0567160000001,-0.0745410285715,2.794
-0.635791144579,-0.520912484911,-0.128789307064,-2.64160342708,-0.0693529230938,2.1104300515,-0.885418098566,-0.257342982882,0.041125675382,0.0289255509104,0.0327723173257,0.0203438043237,0.0066674072661,-0.241029088439,0.573836613346,0.81893484208,0.00616542885464,0.0,0.818933696487,-0.573745229668,-0.0120315872874,0.0,-0.00631582224009,0.0119534728859,-0.999908608261,0.0,0.266671531686,-0.257621264255,0.304920144006,1.0,-0.0491000000001,-0.0645314285715,2.811
-0.639818257161,-0.520275329134,-0.128303586163,-2.64114663004,-0.0690048882869,2.11056342582,-0.889206953993,-0.232319003357,0.0354216589396,0.0321895684936,0.0222289235228,0.0199693271023,0.00218205786001,-0.211700256442,0.573860752205,0.818917629035,0.00620490419199,0.0,0.81891691792,-0.573769042027,-0.0120380587065,0.0,-0.00629811781827,0.0119897012802,-0.999908286182,0.0,0.265880067833,-0.258675524645,0.304916861266,1.0,-0.0414840000001,-0.0545218285715,2.828
-0.643155893133,-0.519809619576,-0.127859614985,-2.64080776798,-0.0687150122497,2.11063860853,-0.892226021884,-0.200404661614,0.0254059320852,0.0267605247574,0.0210419224601,0.0244396479583,0.00100526529415,-0.167867711683,0.573948856653,0.818855732117,0.00622469497479,0.0,0.818855151053,-0.573856798017,-0.0120566937571,0.0,-0.00630073057512,0.0120172805106,-0.999907938644,0.0,0.265216791992,-0.259524186732,0.30491687898,1.0,-0.0343160000001,-0.0451010285715,2.844
-0.646112060719,-0.519373029687,-0.127314535588,-2.6405060639,-0.0684027282046,2.11073848492,-0.89490185786,-0.157278266332,0.0211717486295,0.0375255004616,0.0153402899213,0.0173298786159,0.00564536830925,-0.149387132934,0.573941462214,0.818861016666,0.00621129915849,0.0,0.818860251427,-0.573849445361,-0.0120602484728,0.0,-0.00631143826332,0.0120082938306,-0.999907979079,0.0,0.264670222363,-0.260240239619,0.304915172273,1.0,-0.0267000000001,-0.0350914285715,2.861
-0.648430970001,-0.519024882617,-0.126731450956,-2.64028620336,-0.0680911193894,2.11082610887,-0.896996639001,-0.133566079905,0.0158432083012,0.0334799216862,0.0150802607859,0.0253114130043,0.00813590712166,-0.113719602774,0.573856383436,0.818920863811,0.0061819823738,0.0,0.818919656779,-0.573764399573,-0.0120729625565,0.0,-0.00633992158375,0.0119909243762,-0.999908007332,0.0,0.264277532762,-0.260757293544,0.304908580253,1.0,-0.01994,-0.0262068571429,2.878
-0.65018278211,-0.518751656582,-0.126310295444,-2.64011540442,-0.0678522533018,2.11084408353,-0.898570756197,-0.104621710688,0.0167768876628,0.019227854028,0.0120125333784,0.0179377081356,0.000162415327883,-0.09816503007,0.573801014041,0.818959698242,0.00617704156114,0.0,0.818958004096,-0.573708266984,-0.0121391442565,0.0,-0.00639777328502,0.0120244224195,-0.999907236579,0.0,0.263951552623,-0.261168694037,0.304897270866,1.0,-0.0196,-0.02576,2.895
-0.651833590605,-0.518494831497,-0.125996957486,-2.63992122915,-0.0676812515393,2.11089995444,-0.900234862521,-0.0967882801416,0.014408486893,0.0153719285958,0.0158597113529,0.00458901357444,0.000315113330321,-0.0933451311151,0.573664414179,0.819055500635,0.00616227921398,0.0,0.819053705204,-0.573571933729,-0.0121248394651,0.0,-0.0063965292063,0.0120030576475,-0.999907501233,0.0,0.263669495775,-0.261548934091,0.304903306005,1.0,-0.01928,-0.0253394285714,2.911
-0.653413597709,-0.518229322331,-0.125821743121,-2.639710292,-0.0675658652161,2.11099207332,-0.901722825129,-0.088095899674,0.0135682396172,0.0106534189437,0.012205833393,0.00987679587002,0.00530477549682,-0.0840826996115,0.573675745017,0.819047582708,0.00615984907856,0.0,0.81904608427,-0.573583890764,-0.0120738974613,0.0,-0.00635602870175,0.0119719328856,-0.999908132641,0.0,0.263361487569,-0.261978214432,0.304913436394,1.0,-0.01894,-0.0248925714286,2.928
-0.654924627901,-0.517946662813,-0.125737152752,-2.63950894378,-0.0675259311342,2.11105177426,-0.903176849281,-0.0840362484371,0.0155496496278,0.00379366820718,0.00711216622033,0.000326402391912,0.000777530553103,-0.0797881113237,0.573690130273,0.819037625817,0.00614400717247,0.0,0.8190358536,-0.573598215587,-0.0120873692212,0.0,-0.00637594139523,0.0119667969801,-0.999908067345,0.0,0.263036545651,-0.262408972085,0.304907900417,1.0,-0.0186,-0.0244457142857,2.945
-0.656568474896,-0.51768443335,-0.125718904731,-2.63929830461,-0.0674796040203,2.11105899925,-0.9046926407,-0.0871590600379,0.0155747078463,-5.79216986976e-05,0.0132854254105,0.000502788421905,-1.71726148586e-05,-0.0795911328271,0.573812873469,0.818951433763,0.00617108427266,0.0,0.818949785764,-0.573720383295,-0.012120936053,0.0,-0.00638610407717,0.0120091885028,-0.999907494254,0.0,0.262656310562,-0.262883320837,0.304908042967,1.0,-0.01822,-0.0239462857143,2.964
-0.657951453063,-0.517462194461,-0.125709569226,-2.63909220563,-0.0674460355859,2.11111530667,-0.906140439413,-0.0795628048695,0.0137662612048,-0.000535462560416,0.0154529608995,-0.000353368978442,0.0056247798664,-0.0832826017962,0.573778085878,0.818975709803,0.00618399707568,0.0,0.818974525813,-0.573686103877,-0.0120717516988,0.0,-0.00633892027123,0.0119912735248,-0.999908009493,0.0,0.262348376257,-0.263298380731,0.30492480982,1.0,-0.01788,-0.0234994285714,2.981
-0.659126591368,-0.517237124648,-0.125703173336,-2.638902769,-0.0674086160209,2.11119064414,-0.907326479176,-0.0773416467376,0.0158244131937,0.00159387662823,0.0184315412983,0.000481447962367,0.00563057347397,-0.0803445471192,0.573790407479,0.818966965439,0.00619876654869,0.0,0.8189662609,-0.57369890351,-0.0120240808916,0.0,-0.00629122059338,0.0119761135142,-0.999908492437,0.0,0.262093442771,-0.263657211101,0.304934504991,1.0,-0.01758,-0.0231051428571,2.996
-0.660625412242,-0.516984286667,-0.125693931984,-2.63870885352,-0.0673746787629,2.11120991551,-0.908831694828,-0.0776290771188,0.0141038472699,0.00136461385172,0.0139967266908,0.00222416499803,-0.000510862476129,-0.0808751688941,0.573803295959,0.818957770679,0.00622047356749,0.0,0.818957140865,-0.573711298972,-0.0120537860749,0.0,-0.00630290715198,0.0120110346758,-0.999907999972,0.0,0.261744490571,-0.264092996852,0.304931262143,1.0,-0.0172,-0.0226057142857,3.015
-0.661693091302,-0.516798919159,-0.125686228034,-2.63855372959,-0.0673524470935,2.11122522363,-0.909904647237,-0.0722810862212,0.0109600754951,-0.00108212137607,0.0111018776904,0.00160325849209,0.000291598999204,-0.0703281009537,0.573811071547,0.818952241248,0.00623118177269,0.0,0.818951688637,-0.573718907213,-0.0120620929523,0.0,-0.00630345262119,0.0120246308284,-0.999907833122,0.0,0.261499533348,-0.264407645529,0.304934878599,1.0,-0.01692,-0.0222377142857,3.029
-0.662940865906,-0.516541362319,-0.125650313151,-2.63836046445,-0.0673240397764,2.11131054341,-0.911125826336,-0.0747213350481,0.0142327563086,0.000994232264372,0.0108599071794,0.000390359509334,0.00417814656178,-0.0744082102797,0.57382960609,0.818939310179,0.00622385090986,0.0,0.818938844601,-0.573737818149,-0.0120346055253,0.0,-0.00628487390893,0.012002997316,-0.999908209995,0.0,0.261231321988,-0.264781034533,0.304935828866,1.0,-0.01658,-0.0217908571429,3.046
-0.664165306828,-0.516306263063,-0.12559398385,-2.63818226341,-0.0672959925386,2.11135191798,-0.912417997841,-0.0706760407394,0.0153346662947,0.00115268105861,0.0112876452051,0.00117986461415,0.000803423294565,-0.079241847293,0.573755454733,0.818991339513,0.00621376432509,0.0,0.818990689967,-0.573663626165,-0.0120432829404,0.0,-0.00629885512513,0.0119991454326,-0.99990816825,0.0,0.260963510211,-0.265133902256,0.304934934226,1.0,-0.01624,-0.021344,3.063
-0.665586910587,-0.516040816129,-0.125525326664,-2.63797730892,-0.0672657526742,2.11137684448,-0.913840490576,-0.0695384372044,0.0136547930182,0.00245436956014,0.00722444342767,-0.000430013151439,0.00340596606232,-0.0696058522433,0.573729604884,0.81900954904,0.00620048080186,0.0,0.819008558571,-0.573637520785,-0.0120715630976,0.0,-0.00633001888641,0.0120042910901,-0.999907909688,0.0,0.260648630893,-0.265539109094,0.304933866303,1.0,-0.01584,-0.0208182857143,3.083
-0.666559126363,-0.515846520482,-0.125494827408,-2.63783133412,-0.0672410867513,2.1114262427,-0.914837831101,-0.0718676367375,0.0116950292977,0.000747292785144,0.0108580588429,0.00165283947438,0.00473419983817,-0.0748625583779,0.57370553321,0.819026423765,0.00619880959138,0.0,0.819025453018,-0.573613540292,-0.0120648499363,0.0,-0.00632583157316,0.0119988850153,-0.999908001075,0.0,0.260435707589,-0.265825081078,0.304933426075,1.0,-0.01556,-0.0204502857143,3.097
-0.667657410142,-0.51562921507,-0.125482732431,-2.63765110911,-0.0672123597624,2.11150439754,-0.915960630689,-0.0672697595742,0.0132955395949,-8.27607099747e-06,0.0151363418079,0.00237879244158,0.00367494385607,-0.0623264149753,0.573698434646,0.819031363962,0.00620305022393,0.0,0.819030743918,-0.573606986598,-0.0120171686914,0.0,-0.00628444611269,0.0119749502615,-0.99990854897,0.0,0.260196880078,-0.266159902001,0.30494205986,1.0,-0.01524,-0.0200297142857,3.113
-0.668813614612,-0.515397010506,-0.12547905105,-2.63747339493,-0.0671858310544,2.11152690018,-0.91705679086,-0.0710802285674,0.0125527662605,0.000637212546413,0.0113698179768,0.00374131265293,-0.000551929360197,-0.0638667511141,0.573765630192,0.818984180693,0.00621773965516,0.0,0.818983587018,-0.573673789965,-0.0120421677257,0.0,-0.00629551180375,0.0120018397526,-0.999908156969,0.0,0.259930571983,-0.266502714436,0.304939090317,1.0,-0.0149,-0.0195828571429,3.13
-0.67003521925,-0.51518153615,-0.12547273788,-2.63728164891,-0.0671549374793,2.11155572622,-0.918259993116,-0.068457546309,0.0127335340275,0.000486915313401,0.0130542881626,0.000500323855131,0.00853937750493,-0.0689756740281,0.573799268586,0.818960504812,0.00623200044644,0.0,0.818960166975,-0.573707493131,-0.0120293031464,0.0,-0.00627629966221,0.0120063966335,-0.99990822304,0.0,0.259651860125,-0.26686611593,0.304949260015,1.0,-0.01454,-0.0191097142857,3.148
-0.671074664865,-0.514986069739,-0.125461430265,-2.63711553261,-0.0671346418818,2.11161276597,-0.919348455936,-0.069076127095,0.0144581817251,-0.000548070398208,0.011296925026,0.000292568849802,0.00312551946227,-0.0616940763627,0.573768311176,0.818982187889,0.00623280933987,0.0,0.818982066449,-0.573676933248,-0.0119957490404,0.0,-0.00624880615571,0.011987570539,-0.999908621112,0.0,0.259420542733,-0.267179660741,0.304957680899,1.0,-0.01422,-0.0186891428571,3.164
-0.672087113435,-0.51479004361,-0.125420625364,-2.63694909285,-0.067111025199,2.11165046668,-0.920326842239,-0.0623611778874,0.0133197028667,0.00532973511724,0.00984800896608,0.000182584427427,-0.00038873301603,-0.0662224727872,0.573785870562,0.818969959399,0.00622312197133,0.0,0.818969804698,-0.573694708195,-0.0119828078441,0.0,-0.00624350771702,0.0119723453208,-0.999908836624,0.0,0.259200059461,-0.267476643071,0.304965078465,1.0,-0.0139,-0.0182685714286,3.18
-0.673186472082,-0.514569878452,-0.12538045867,-2.63676123367,-0.0670861141188,2.11168737313,-0.921461389095,-0.0589467442241,0.0112872828279,0.00276842919549,0.00804432698318,0.00270072795862,2.19949787731e-05,-0.0584311433074,0.573748816079,0.818995983478,0.00621465978054,0.0,0.818995787287,-0.573657829023,-0.0119725731516,0.0,-0.00624052123457,0.0119592601036,-0.999909011857,0.0,0.2589600935,-0.267801040515,0.304973193451,1.0,-0.01354,-0.0177954285714,3.198
-0.674142658976,-0.514375970273,-0.125334074158,-2.63660303154,-0.0670589012705,2.11174658862,-0.922458200155,-0.0585940515421,0.0153492638275,0.00214640155717,0.00612824258542,0.00186055943889,0.00125483156681,-0.0684851093243,0.573702349032,0.819028616349,0.00620380670264,0.0,0.819028463336,-0.573611770812,-0.0119440166331,0.0,-0.00622403470017,0.0119336344293,-0.999909420778,0.0,0.258757126675,-0.268082521568,0.304979575055,1.0,-0.01322,-0.0173748571429,3.214
-0.675172640788,-0.514161156157,-0.125313646038,-2.63642162295,-0.067036135973,2.11178145399,-0.923452143488,-0.0595267937234,0.0113914656651,-0.000624540111908,0.0140936320129,0.000727521047692,-0.000122893367917,-0.0595914269208,0.573736409984,0.81900476612,0.00620256669507,0.0,0.819004643457,-0.573645918833,-0.0119373658143,0.0,-0.00621880215714,0.011929062003,-0.999909507895,0.0,0.258528772394,-0.268391147583,0.304986067784,1.0,-0.01286,-0.0169017142857,3.232
-0.676255740852,-0.513926134187,-0.12531184555,-2.63625306364,-0.0670084818561,2.11182106663,-0.924522028457,-0.0640403832647,0.0116563068452,-0.000146152349353,0.00643426130732,0.00207455638896,0.000629308866261,-0.0618180977825,0.573766612161,0.818983487959,0.00621836960617,0.0,0.818983434015,-0.573675785962,-0.0119571866178,0.0,-0.00622553019199,0.0119536062947,-0.99990917291,0.0,0.258279466427,-0.268713769074,0.304979209569,1.0,-0.01248,-0.0164022857143,3.251
-0.677100070268,-0.513755562595,-0.125307282024,-2.63611832716,-0.0669911241689,2.11184731775,-0.925393727078,-0.052306886296,0.0131790393166,-0.0014697482206,0.00896046953042,0.00521567594485,0.000245295687625,-0.061934088943,0.573755356462,0.818991320644,0.00622531458915,0.0,0.818991320561,-0.57366443336,-0.0119616740187,0.0,-0.0062253854934,0.0119617834582,-0.999909076022,0.0,0.25808547907,-0.268965280854,0.30497971661,1.0,-0.01218,-0.016008,3.266
-0.677932345427,-0.513590797519,-0.125295594042,-2.63596862179,-0.0669720664831,2.11189394818,-0.926184901873,-0.0546641700514,0.0102519781422,-0.000442212956317,0.00942468674637,0.00505600627907,8.90590023439e-06,-0.0515659995408,0.573796472477,0.818962529404,0.00622338379905,0.0,0.818962732282,-0.573705987538,-0.0119260176791,0.0,-0.00619668836135,0.0119400561581,-0.999909513962,0.0,0.25790286738,-0.269218846817,0.304991068252,1.0,-0.01188,-0.0156137142857,3.281
-0.678828662342,-0.513396561383,-0.125289474347,-2.63581156246,-0.0669527364386,2.11193217153,-0.927064648298,-0.0502880128779,0.0109368713645,-0.000880899359702,0.00722304626609,0.000870153039543,0.000564164963836,-0.0565592790231,0.573822060119,0.818944571358,0.00622730003857,0.0,0.818944860466,-0.573731621579,-0.0119201014086,0.0,-0.00618922255113,0.0119400623915,-0.999909560127,0.0,0.257701222166,-0.269490162548,0.304994005924,1.0,-0.01154,-0.0151668571429,3.298
-0.679686417311,-0.513211161235,-0.125271085701,-2.6356634349,-0.066933549854,2.11195620949,-0.927939114155,-0.0471793627375,0.00779101022442,0.00164472368518,0.00351720612351,0.000324181168422,0.0014399585818,-0.0568838635342,0.57381115768,0.818952205076,0.0062280032217,0.0,0.818952448442,-0.57372061269,-0.0119286489947,0.0,-0.00619597886538,0.0119454603636,-0.999909453812,0.0,0.257508490437,-0.269744541833,0.304995221341,1.0,-0.0112,-0.01472,3.315
-0.680528415106,-0.513021233507,-0.125245968867,-2.63551926829,-0.0669149775834,2.11199557242,-0.928824121075,-0.0432907075442,0.00894719569352,0.00232623599785,0.00975901913506,0.00051183388114,0.00387798101394,-0.0501072244654,0.573771984143,0.818979686527,0.00622335688478,0.0,0.818979899407,-0.573681524469,-0.0119239151096,0.0,-0.00619533867313,0.0119386424825,-0.999909539206,0.0,0.257334661857,-0.269979986233,0.304996321201,1.0,-0.01088,-0.0142994285714,3.331
-0.681313214775,-0.512847709769,-0.125219883131,-2.63539359055,-0.0668982014401,2.11203347372,-0.929581807229,-0.0498105556641,0.012045965344,0.00240067161849,0.00950692316923,0.000107712871241,0.00468026250911,-0.0420164284193,0.573790861947,0.818966496686,0.00621859736333,0.0,0.818966573601,-0.573700275428,-0.0119370096062,0.0,-0.00620851945125,0.0119424003345,-0.999909412577,0.0,0.257148051755,-0.270224709647,0.304991170928,1.0,-0.01054,-0.0138525714286,3.348
-0.682119203943,-0.512662940739,-0.125197252258,-2.63525645602,-0.0668795880047,2.11206556406,-0.930333233802,-0.0444380545541,0.00883892711083,0.00137762720529,0.00612990464833,0.00199916942697,0.00291722199873,-0.0426435608878,0.57383453642,0.818935914406,0.00621609267748,0.0,0.818935893179,-0.573743825028,-0.0119487658901,0.0,-0.00621894846473,0.0119474259692,-0.999909287732,0.0,0.256968344896,-0.270462835242,0.304988381827,1.0,-0.0102,-0.0134057142857,3.365
-0.682958735022,-0.512467384359,-0.125185500702,-2.6350983134,-0.0668559043304,2.11210299782,-0.931177595482,-0.0461539639107,0.0137329197335,-0.000396153267816,0.00545708048739,0.00015425304321,0.00117559252321,-0.0506467509462,0.57384048497,0.81893171244,0.00622053615334,0.0,0.818931775802,-0.573749805236,-0.0119438048692,0.0,-0.00621224877321,0.0119482635381,-0.99990931937,0.0,0.256782582129,-0.270717416816,0.304991335258,1.0,-0.00984000000001,-0.0129325714286,3.383
-0.683733313361,-0.512289372448,-0.125179433898,-2.63494975632,-0.0668350306805,2.11214017216,-0.931986027662,-0.0432430945801,0.00736889781794,0.000351941236117,0.0135931084946,0.000362212987645,0.00147962623353,-0.0445426340345,0.573824984583,0.81894253623,0.00622545758636,0.0,0.818942733804,-0.573734422783,-0.0119313772891,0.0,-0.006199472422,0.011945045623,-0.999909437113,0.0,0.256610842452,-0.270954434733,0.304996258945,1.0,-0.00948000000001,-0.0124594285714,3.401
-0.684397067975,-0.512130168972,-0.125154999455,-2.63483640491,-0.06681011562,2.11217354183,-0.932633693055,-0.0427758519192,0.0105462548641,0.000122440412351,0.0102964516807,0.000848516674556,0.00195924943252,-0.0392367393085,0.573837334061,0.818933860346,0.00622842824575,0.0,0.818934043321,-0.57374665469,-0.0119396743441,0.0,-0.00620438318551,0.0119523329415,-0.999909319572,0.0,0.256465541732,-0.271149087111,0.304992254253,1.0,-0.00916000000001,-0.0120388571429,3.417
-0.685008252244,-0.511995812996,-0.125112515791,-2.63473757325,-0.0667865063588,2.11220446242,-0.933229518456,-0.042667100978,0.0068375779956,-0.000329472470768,0.00155556935425,2.46408854758e-05,0.00723906239267,-0.0348115866977,0.573834891475,0.818935620404,0.00622204634184,0.0,0.818935718602,-0.573744235855,-0.011941001721,0.0,-0.00620916797448,0.0119478494519,-0.999909343454,0.0,0.256335309169,-0.271322715954,0.304991059275,1.0,-0.00886000000001,-0.0116445714286,3.432
-0.685679436081,-0.511837182139,-0.125075106528,-2.63464594093,-0.0667668170316,2.11223610607,-0.933898972806,-0.0413751902311,0.00651451845132,0.000580060452935,0.0031869873353,0.000386029269003,0.00377302312553,-0.0365692345708,0.573823007616,0.818943972444,0.0062187482012,0.0,0.818943832381,-0.573731993081,-0.0119727366029,0.0,-0.00623722576059,0.0119632675414,-0.99990898448,0.0,0.256185146835,-0.271510887019,0.304977542123,1.0,-0.00852000000001,-0.0111977142857,3.449
-0.686302510615,-0.511684599156,-0.125058766892,-2.6345661007,-0.066743008237,2.11225608521,-0.93455357845,-0.0367582109963,0.00630044613403,-4.39682476113e-05,0.0026450755252,-0.000234553778275,-0.000185086994376,-0.0394819431161,0.573800088368,0.818959926534,0.00623251336222,0.0,0.818959651051,-0.573708417066,-0.0120203593746,0.0,-0.00626866794627,0.0120016913094,-0.999908327402,0.0,0.256039239836,-0.271686014931,0.304959414315,1.0,-0.00818000000001,-0.0107508571429,3.466
-0.686924101869,-0.511541090408,-0.125040272452,-2.63449382847,-0.0667190369318,2.11227498917,-0.935183770052,-0.0353723583914,0.00315122946179,0.00219451076676,0.00574018832884,-0.00041803674971,0.0017267573982,-0.0307757344078,0.573794093928,0.818964023744,0.00624599778746,0.0,0.818963612657,-0.573701769709,-0.0120676210509,0.0,-0.00629972879786,0.012039806403,-0.999907673977,0.0,0.25589248818,-0.271858209923,0.304941162318,1.0,-0.00784000000001,-0.010304,3.483
-0.687521638975,-0.511411226224,-0.125032172249,-2.63442544262,-0.0666977076987,2.11229166444,-0.935754375193,-0.0352109259194,0.00530041478207,-0.00252739049229,0.00218706752813,0.000755857704393,-0.000431079417426,-0.0349430706917,0.573823230463,0.818943489142,0.00626168307905,0.0,0.818943018157,-0.573730325152,-0.0121075973363,0.0,-0.00632304227693,0.012075814753,-0.999907092601,0.0,0.255748642963,-0.272025526567,0.304925757051,1.0,-0.00750000000001,-0.00985714285715,3.5
-0.688045875611,-0.511288554655,-0.125011865467,-2.63436739433,-0.0666752965775,2.11230701502,-0.936271062783,-0.0313229809002,0.00502067658075,0.00448654585923,0.00797822393108,0.00590516075558,0.000486963126612,-0.0285638295908,0.573827756287,0.818940229254,0.00627327066904,0.0,0.818939614306,-0.573734234455,-0.0121524991787,0.0,-0.00635310263546,0.0121111043754,-0.999906475245,0.0,0.255625207945,-0.272168525127,0.304908490576,1.0,-0.00718000000001,-0.00943657142858,3.516
-0.688573595975,-0.51117135304,-0.124993044402,-2.63428534567,-0.0666509623869,2.11232294293,-0.936810383354,-0.0292333048614,0.00624862554281,0.00076081339138,0.00608624892884,1.48110925592e-05,0.000858810602584,-0.0351845005425,0.573819546144,0.818945910691,0.00628257320402,0.0,0.818945312885,-0.573725784703,-0.0121673896511,0.0,-0.00636008220839,0.0121272033719,-0.99990623575,0.0,0.255506077735,-0.27231903952,0.304904159368,1.0,-0.00684000000001,-0.00898971428572,3.533
-0.689092080596,-0.511067083023,-0.124964284269,-2.6342003579,-0.0666270482088,2.11233912003,-0.937326819863,-0.0305579594352,0.0114717188269,0.000632537471565,0.00214287551372,0.000104235011849,0.0010927813739,-0.0344507529371,0.573815322673,0.81894885268,0.00628482788379,0.0,0.818948285299,-0.573721553691,-0.0121668293456,0.0,-0.0063583921339,0.0121286956406,-0.999906228399,0.0,0.25539257956,-0.272466124897,0.304906201784,1.0,-0.00650000000001,-0.00854285714286,3.55
-0.689588281656,-0.510955313231,-0.124917236859,-2.63411335408,-0.066606293492,2.11236762528,-0.937831575751,-0.0299955899335,0.00656320036283,0.00462560724677,-1.44443637227e-05,0.000143478550016,0.00159394878474,-0.0307494341787,0.573788150541,0.818967975988,0.00627371547493,0.0,0.818967309385,-0.57369452583,-0.0121607603409,0.0,-0.00636019951185,0.0121159013362,-0.999906372015,0.0,0.255291130224,-0.272606113241,0.304907855764,1.0,-0.00616000000001,-0.00809600000001,3.567
-0.690098525897,-0.510851678879,-0.124891228667,-2.63401626209,-0.066581295437,2.11241161909,-0.938380995994,-0.0213848213178,0.00297553125273,-0.000633942891979,0.00188004284622,0.000213930598224,0.00169864053693,-0.0250164267259,0.573753103883,0.818992541866,0.00627208524978,0.0,0.818992111632,-0.573659985752,-0.0121197662008,0.0,-0.00632807562762,0.012090774604,-0.999906879978,0.0,0.255186108726,-0.272758793165,0.304917930367,1.0,-0.00578000000001,-0.00759657142858,3.586
