nelsonifechukwu/NELSON_IML_WORK/CNN-GradCAM/train2dof/data_sample_2022-07-06-09-05-49/robot_state.csv
position_joint1,position_joint2,position_joint3,position_joint4,position_joint5,position_joint6,position_joint7,velocity_joint1,velocity_joint2,velocity_joint3,velocity_joint4,velocity_joint5,velocity_joint6,velocity_joint7,ee_T_00,ee_T_10,ee_T_20,ee_T_30,ee_T_01,ee_T_11,ee_T_21,ee_T_31,ee_T_02,ee_T_12,ee_T_22,ee_T_32,ee_T_03,ee_T_13,ee_T_23,ee_T_33,v_x,v_y,w_z,time
0.4650811148735944,0.5472825236441331,-0.1240012399614432,-1.355547222272646,0.07944288278950586,1.8941871895002584,0.15913080911385633,-0.000344541574858255,0.001380560787425282,0.0002884855150714995,0.0002275059884901642,9.513475481246415e-06,0.00024201288428730283,-0.0014194326781581989,0.5737540565192571,0.8190115900257313,0.0026542291590480604,0.0,0.8189785491800359,-0.57369393845164,-0.011408236849649898,0.0,-0.00782091359863657,0.008719446792458174,-0.9999313999260729,0.0,0.6617772303211302,0.26092524376704235,0.3037115551992873,1.0,5e-324,6.90370110632637e-310,6.90348890674737e-310,0.0
0.465079666390058,0.5472694470665358,-0.1240034136437051,-1.3555525119848917,0.07944420521789126,1.8941863527798626,0.15913966992554382,-0.0002876903764687227,-0.009033186948198586,-0.0010281912721502929,-0.0010054847383798534,0.0004436282693555545,1.1425885467842835e-05,0.001783474663647571,0.5737646240413758,0.8190041655905989,0.002660797834028673,0.0,0.8189712038286481,-0.5737044776423157,-0.01140554837878369,0.0,-0.00781483046128878,0.00872338493500957,-0.9999314131379898,0.0,0.6617769969081297,0.26092272803169725,0.3037183028659267,1.0,-4e-05,-5.2571428571428585e-05,-2e-05,0.003
0.4650765525149153,0.5472793228053622,-0.12400134543471598,-1.355547580583906,0.07944288278950586,1.8941863027943888,0.1591334010324824,-0.00016032796664492463,0.002013298279834762,-1.4936762257980286e-05,0.0016169353261059223,-0.00017468787129576107,-6.512666724185516e-05,-0.0009246139333621146,0.5737599961183227,0.8190074233728027,0.0026559773630877104,0.0,0.8189744047693718,-0.5736998714568576,-0.011407397785942377,0.0,-0.007819160139320158,0.008720453885158297,-0.9999314048567293,0.0,0.661778269789033,0.26092210255845044,0.3037135787236824,1.0,-0.00036000000000000013,-0.0004731428571428574,-0.00018000000000000007,0.019000000000000006
0.46507829677689977,0.5472638216996958,-0.12400899727427193,-1.3555540144515208,0.07944349314106836,1.8941843538214425,0.15913458160841967,-0.00017635104834954867,-0.00481456604502826,-0.0014461689006071967,0.0013045772678823802,-0.0008814841867006744,0.0010312700613446285,0.0008831300995435044,0.5737653487234702,0.8190036566679603,0.0026611783016086315,0.0,0.8189707277316309,-0.5737052322041084,-0.011401778877061723,0.0,-0.007811517073282148,0.008721540680441536,-0.9999314551153861,0.0,0.6617780807834501,0.2609182340545088,0.30372158252995113,1.0,-0.0006800000000000004,-0.0008937142857142863,-0.0003400000000000002,0.03500000000000002
0.4650776427207952,0.5472164086887842,-0.12400202566347265,-1.3556013314425952,0.07944313827267399,1.894192203881049,0.15913423056770556,-0.000857356177920027,-0.0035952113851256454,0.0002809581318204114,-0.001903812204076893,2.899478972239608e-05,-0.00024677175778876453,-0.0012720634464777531,0.5737631800409883,0.8190051412387541,0.0026718448587428377,0.0,0.8189722857139857,-0.5737029585021823,-0.01140427724414541,0.0,-0.0078074667128755215,0.008731689380786042,-0.9999313981789374,0.0,0.6617686386060968,0.2609173158827878,0.30373309601231485,1.0,-0.0010200000000000007,-0.0013405714285714297,-0.0005100000000000004,0.05200000000000003
0.4650743435106669,0.5470436777392533,-0.12399943435803497,-1.3558222246952223,0.07943941450155395,1.8942258939093566,0.15913096041759647,0.0002442416318443185,-0.01109367479997607,-0.0005158639143329467,-0.014331622193156243,-0.0004242925136018531,0.0011672226043884177,0.0012382811980226418,0.5737724006561113,0.8189986942884637,0.002667939340229083,0.0,0.8189656398987288,-0.5737120244055538,-0.01142543736385664,0.0,-0.007826940095649992,0.008740719559724941,-0.999931167046171,0.0,0.6617297512840307,0.2608943558072095,0.3037531301477099,1.0,-0.001480000000000001,-0.0019451428571428588,-0.0007400000000000005,0.07500000000000005
0.4650619260227924,0.5469079875442069,-0.12400657956273396,-1.3560021244307334,0.07943598717094572,1.8942857159567998,0.15913573510147144,0.0015853834613824712,-0.008986864349355179,-0.0013561068585231809,-0.012760452729726023,0.0003202569109847014,0.008252194738915407,0.00017948101588397848,0.5738037832587045,0.8189766675724698,0.0026801475889453065,0.0,0.8189437331218979,-0.5737433223771083,-0.011424049599672284,0.0,-0.007818463818836108,0.00875022142111298,-0.9999311502541537,0.0,0.6617116859651383,0.26086435809329866,0.30376602597205565,1.0,-0.0017600000000000014,-0.0023131428571428595,-0.0008800000000000007,0.08900000000000007
0.46504284640411264,0.546787720881337,-0.1239992922920628,-1.3561547216565188,0.07943379457092274,1.8943619526504747,0.15913179957726925,-0.0002311339310797155,-0.009493405800294332,0.0012528881912455185,-0.012309727741014282,0.00027320643649310394,0.010827465799224688,0.0008092642043125796,0.5738158930979809,0.8189680293750021,0.002726644641328735,0.0,0.8189356326152608,-0.5737552144115026,-0.011407474298067698,0.0,-0.00777807991736601,0.008778905527736955,-0.9999312137794948,0.0,0.6616959064569652,0.2608458196409266,0.30378796167236455,1.0,-0.0020200000000000014,-0.002654857142857145,-0.0010100000000000007,0.10200000000000008
0.46502008278037815,0.5465984348797509,-0.12399995540440763,-1.356382370072628,0.07942533023873509,1.89448454081822,0.1591270192704656,-0.000605204700022867,-0.012817432742979432,-0.00023869398836733622,-0.015398614058886756,-1.5314169109856238e-05,0.0038359972685612846,0.0007767555732230981,0.5738417200193062,0.8189496841700359,0.0028003685991356856,0.0,0.818918248531108,-0.5737808226879173,-0.01136734971432192,0.0,-0.007702637959402403,0.008816502205561141,-0.9999314669802755,0.0,0.661679706543906,0.2608127945333972,0.30382432727280123,1.0,-0.002340000000000002,-0.0030754285714285744,-0.001170000000000001,0.11800000000000009
0.4649818235064331,0.5463167717791058,-0.12400454319656959,-1.3567448782243536,0.07941799179424816,1.8946391124444586,0.15911853781147564,-0.002382429248631643,-0.006074518672481456,-0.0008759209044493628,-0.015559061712227496,0.0003448795170334991,0.01136337408678659,0.0009211099825831314,0.573883933681351,0.8189198522847385,0.0028728204902334535,0.0,0.8188892617429673,-0.5738227112122052,-0.011341075801730435,0.0,-0.007639089553917178,0.008861153648309389,-0.999931559791373,0.0,0.661642501588182,0.2607549087576635,0.30386516955153536,1.0,-0.002780000000000002,-0.003653714285714289,-0.001390000000000001,0.1400000000000001
0.46495592663784746,0.5460985775202368,-0.12400025957133601,-1.357067528393149,0.07940483786075007,1.8947537239462964,0.1591097687047449,-0.0023569658819395244,-0.015201348527852161,0.0007413907520598832,-0.02016138229481829,0.0004396788739352006,0.00856388319068095,0.0006910647769031089,0.5739131972549236,0.8188993077996365,0.002883158531134339,0.0,0.818868797801543,-0.5738518792982599,-0.011342817732794424,0.0,-0.007634266631766362,0.008870892143331865,-0.9999315102773673,0.0,0.661607360907722,0.2607103604860997,0.30387553194510064,1.0,-0.0030400000000000023,-0.003995428571428575,-0.0015200000000000012,0.1530000000000001
0.46491545650504734,0.5458397068092828,-0.12400487659887047,-1.3574757476611479,0.0793846061264878,1.8948999267568005,0.1590924457963156,-0.0042323728635838154,-0.01856492165353843,-0.0006656523348421945,-0.028743928236895987,-0.000905641113228143,0.008254125047757313,-0.001565815133754954,0.5739495286407086,0.8188738325453365,0.0028864938643901154,0.0,0.8188433695214596,-0.5738882009183867,-0.011340896728573496,0.0,-0.0076303857064008995,0.008872859523788884,-0.9999315224443337,0.0,0.6615593583720595,0.26063970882888304,0.3038822030297552,1.0,-0.0033800000000000024,-0.004442285714285718,-0.0016900000000000012,0.17000000000000012
0.4648639684272658,0.5455205563216328,-0.12400522460373625,-1.3580085505073898,0.07933928507370967,1.8950760481295266,0.1590636078065475,-0.003229787000253571,-0.016361102992781488,-0.0013951044967084165,-0.029201176118557527,-0.0007293612660302121,0.007805826794063687,-0.006965589958370363,0.5739893110425937,0.818846105036311,0.0028414744270756414,0.0,0.8188151190271956,-0.573928179020682,-0.011357512037925597,0.0,-0.007669399911207131,0.008845903042070696,-0.9999314628035124,0.0,0.6614997259525593,0.26055380332640327,0.3038648892189736,1.0,-0.003720000000000003,-0.004889142857142862,-0.0018600000000000014,0.18700000000000014
0.46481889812615185,0.5451936592467189,-0.12400601415019846,-1.3585408125193619,0.07929591456610009,1.8952452114829421,0.158981938539284,-0.0043198756325371086,-0.018006221433605536,0.00042770114035339503,-0.03496602951065562,-0.002513012864580059,0.0071989171941332164,-0.005037661550985723,0.5739779894612547,0.8188541672578756,0.002804867133251749,0.0,0.8188227649064459,-0.5739170333293572,-0.01136949544181174,0.0,-0.007700345953669641,0.008822699060420991,-0.9999314299758175,0.0,0.6614342299528452,0.2604691038683297,0.303857582693537,1.0,-0.004040000000000003,-0.00530971428571429,-0.0020200000000000014,0.20300000000000015
0.4647492848251816,0.5448148692136037,-0.12400313150141422,-1.3591698595278805,0.07927158240296751,1.895460464520154,0.1589389560726561,-0.004340701494152057,-0.024251741519585163,0.00045199449940016504,-0.03542991067590506,-0.0025369108291446564,0.01538038756508513,0.0016499618711190206,0.574026393632375,0.8188203121497741,0.002782575347527993,0.0,0.8187884746195176,-0.5739653309959543,-0.011400857255341821,0.0,-0.007738300702496703,0.00882290346714977,-0.999931135167141,0.0,0.6613614942332017,0.2603657090355555,0.30384483248651684,1.0,-0.004380000000000004,-0.005756571428571435,-0.002190000000000002,0.22000000000000017
0.46468831080284734,0.5444115929859326,-0.1240140837199739,-1.359881328189284,0.07923962929395664,1.8956845120460457,0.15892570624812138,-0.0018767446821656279,-0.027738986750086896,-0.0026442717260525238,-0.04287925151289937,-0.00025381022072236154,0.012283899932130023,0.0014355376733143994,0.5741042264220153,0.8187659756119853,0.002713168948219647,0.0,0.8187331512751135,-0.5740432688194353,-0.011449865825760163,0.0,-0.00781743470140206,0.008794947055436153,-0.9999307659138115,0.0,0.6612734985611601,0.260249921227094,0.30381134806860816,1.0,-0.004720000000000004,-0.006203428571428578,-0.002360000000000002,0.23700000000000018
0.46461998408078564,0.5439757255131129,-0.12401207140310688,-1.3606219520168397,0.07920642226727156,1.8959303636658449,0.15887721373972802,-0.0029975581746424537,-0.03068450742389988,0.0005407258275772352,-0.038352941093737304,-0.004647861593629,0.018570227817974242,0.0009741315266574399,0.5741514429391128,0.8187330113193569,0.0026690163133633116,0.0,0.8186994722804455,-0.5740904601133721,-0.01149193611822721,0.0,-0.007876722311889794,0.008783403059429498,-0.999930402116226,0.0,0.6611829214331211,0.26013502960083146,0.3037884814484729,1.0,-0.005060000000000004,-0.0066502857142857206,-0.002530000000000002,0.25400000000000017
0.46455757707050593,0.5435119526520352,-0.1240133667471855,-1.361397605748662,0.0791645276282705,1.8962002201244652,0.15881211079423008,-0.0051195080556876976,-0.02627493964494163,-0.00018833341491057186,-0.04670358767811301,4.2364046341731535e-05,0.016307878287008404,-0.0013029076746154322,0.574182187729898,0.8187115615064169,0.002634625332162987,0.0,0.8186775151601215,-0.5741212443450161,-0.011518240498773272,0.0,-0.007917674730246516,0.008770645910810088,-0.9999301906619147,0.0,0.6610894143029699,0.2600185736276371,0.30377082389282883,1.0,-0.005400000000000004,-0.0070971428571428635,-0.002700000000000002,0.2710000000000002
0.464493665525044,0.5430271419824649,-0.1240180055971942,-1.362177297092777,0.0791224929234803,1.8964783571580808,0.15876790316995598,-0.004221437063793818,-0.02589830544294495,-3.828833791215267e-06,-0.047959057272998894,0.00017397950489813225,0.016376180413420118,-0.0007114896577120572,0.5742337570076953,0.8186754360253274,0.0026210041540231186,0.0,0.8186411774734016,-0.574172812569286,-0.011530427244738977,0.0,-0.007934920997091532,0.008766991275211716,-0.9999300860023915,0.0,0.6609982406385358,0.25989952670741845,0.30376691032079217,1.0,-0.005720000000000004,-0.007517714285714292,-0.002860000000000002,0.2870000000000002
0.46442298656721054,0.5424906510735942,-0.12402119008336872,-1.3630534694199075,0.07906499340048033,1.8967717782837548,0.15870711678879076,-0.0015752159868130376,-0.02804304503194888,6.914216410828818e-05,-0.052291515628183245,-0.0013383721351808875,0.013779746120625085,0.0013410352415405458,0.574277368758368,0.818644981222083,0.0025778582328681264,0.0,0.8186101739287972,-0.5742165740434529,-0.011552321639927008,0.0,-0.007977154794091557,0.008744666212722116,-0.9999299454532897,0.0,0.6608914336095811,0.25976461561511344,0.3037548216375212,1.0,-0.006060000000000005,-0.007964571428571435,-0.0030300000000000023,0.3040000000000002
0.4643465799442593,0.5419304772885957,-0.12402127810907518,-1.3639655461249536,0.07901520749660805,1.8971072538310396,0.15859545827032723,-0.005457052167332438,-0.03072766185003397,-0.0009290579934651622,-0.05690602743080032,-0.0019759454073168263,0.023056921912404712,-0.004862813128721246,0.5742860346412914,0.81863894031919,0.002565679298687287,0.0,0.8186039195352762,-0.5742252189654313,-0.011565799876961953,0.0,-0.007995090328400123,0.008742520799587747,-0.9999298209678065,0.0,0.6607855781176774,0.259627872182489,0.30374589692214327,1.0,-0.006400000000000005,-0.008411428571428578,-0.0032000000000000023,0.32100000000000023
0.4642577274984774,0.5413118871722485,-0.1240221599888143,-1.3649070904651537,0.07895390178093853,1.8974461455736564,0.15856662488839665,-0.0029538845489913788,-0.03325958935623015,-0.000763451799047113,-0.05156525683312152,-0.007160769264555391,0.027478824696362234,0.0013906032429104168,0.5743578617735792,0.8185884946799861,0.002582614497937989,0.0,0.8185537102418297,-0.5742969985722756,-0.011555422165326422,0.0,-0.007976101445740458,0.008751124732448365,-0.9999298973536317,0.0,0.6606850650958185,0.2594878531754636,0.30376911323495054,1.0,-0.006720000000000005,-0.008832000000000008,-0.0033600000000000023,0.33700000000000024
0.46418430041655057,0.5406930794017769,-0.12402655989646835,-1.3658450663123376,0.07890005118325882,1.8977855833861734,0.15849467702557588,-0.0016332415413486524,-0.04387936872661913,-0.00162398279649244,-0.06001565724119697,-0.004702939276755035,0.02507828477806972,-0.0065646557278066535,0.5744154025610069,0.8185480915672496,0.0025911374911627505,0.0,0.8185134444081765,-0.5743545331197735,-0.011548095472339981,0.0,-0.007964593289235822,0.008754453332738762,-0.9999299599474865,0.0,0.6605619663260905,0.2593279045154754,0.303786251165346,1.0,-0.0070800000000000056,-0.009305142857142866,-0.0035400000000000028,0.35500000000000026
0.46408299559457544,0.5399952099156379,-0.12402551435056684,-1.3668997604183846,0.07883931228542272,1.8981801828718676,0.15841281425266943,-0.005510102335149428,-0.042111054406056045,-0.005916399859442938,-0.06310338394946449,-0.001695001903942407,0.023989973313453015,-0.007767444909525806,0.5744708200418192,0.8185090854713691,0.0026269416649905746,0.0,0.8184748493034362,-0.5744097662045583,-0.011536396653660165,0.0,-0.007933857278340006,0.008777577924912863,-0.9999300015673392,0.0,0.6604526559338582,0.2591727455842623,0.30381035291874375,1.0,-0.0074000000000000055,-0.009725714285714294,-0.0037000000000000028,0.3710000000000003
0.463995308915265,0.5392779507391439,-0.12404140469921468,-1.368022108948217,0.07877718560331246,1.898592171316867,0.15834530144433692,-0.007581204654763311,-0.043403847364092016,-0.002046998819454693,-0.06783451839298836,4.880793650019244e-05,0.020339059371535677,-0.005320784657210897,0.5745394699975517,0.818460918867864,0.0026208018071429496,0.0,0.8184266150521089,-0.5744784411326229,-0.01153877590504412,0.0,-0.007938595835737694,0.00877458508260047,-0.9999299902257082,0.0,0.6603300863074061,0.2590094070115058,0.3038120722776037,1.0,-0.0077200000000000055,-0.010146285714285724,-0.0038600000000000028,0.3870000000000003
0.46389038757858586,0.5385291914639967,-0.1240455481032793,-1.3691700810208458,0.07871131970014106,1.8990386680517675,0.15823329198421726,-0.007372895901728185,-0.044992879988602276,5.679225043353883e-05,-0.06723424041058221,-0.0038337792434519264,0.02964252152064275,9.946498323285305e-05,0.5745870017037767,0.8184273898794359,0.0026705560107220406,0.0,0.8183937493141532,-0.5745258242712392,-0.011510657243808647,0.0,-0.007886485609811034,0.008799609799484936,-0.9999301826688215,0.0,0.6601992965335244,0.2588212369921641,0.3038405161677097,1.0,-0.008080000000000006,-0.01061942857142858,-0.004040000000000003,0.4050000000000003
0.46378184715324366,0.5377741208046182,-0.12404356868230516,-1.3703665309498048,0.07864314551120749,1.8995031592689253,0.1581626004739461,-0.0038015755490777435,-0.04338622252593757,-3.7516727295734466e-05,-0.06967903992871946,-0.01475112602675945,0.02587534013103836,-0.004337790568838863,0.5746645397192854,0.8183728831930507,0.0026903056933609984,0.0,0.8183394782840362,-0.5746032660607755,-0.011503556637388567,0.0,-0.007868491867058458,0.008812439104449898,-0.9999302114411628,0.0,0.660066357494657,0.2586391097629015,0.3038444900009135,1.0,-0.008420000000000007,-0.011066285714285726,-0.004210000000000004,0.4220000000000003
0.4636770836158421,0.5369675023806179,-0.12404998695004713,-1.3716248032157166,0.07856289975552157,1.8999739385477648,0.1580657043434829,-0.008506204582124241,-0.04935205335289781,-0.00032834244765902337,-0.07811239658573259,-0.0002088625718751152,0.025949730332544624,-0.006312875405272086,0.574723364475093,0.8183315369942922,0.002701256781006558,0.0,0.8182983385570021,-0.5746621207117234,-0.011490127726132476,0.0,-0.007850575079924094,0.008814248502522104,-0.9999303363206111,0.0,0.6599230606663941,0.25844643347033797,0.303856098830007,1.0,-0.008760000000000007,-0.01151314285714287,-0.004380000000000004,0.43900000000000033
0.4635792603855938,0.5361875286211122,-0.12405271396336867,-1.372877820046449,0.07849542574415772,1.9004317028886113,0.15799014399972197,-0.002336514321404642,-0.04597374239098882,0.0001367960680475424,-0.07652772870410328,-0.009063360288179537,0.03314228060491239,-0.00566872398295378,0.574794392932468,0.8182816845229864,0.002690265568226136,0.0,0.8182482730121544,-0.5747330963971772,-0.011505586449560155,0.0,-0.007868777499564106,0.008814821446380267,-0.9999301881949213,0.0,0.6597740668943446,0.25826194888428433,0.3038500319954612,1.0,-0.009080000000000006,-0.011933714285714296,-0.004540000000000003,0.45500000000000035
0.4634495688854698,0.5353118641500465,-0.12406197787870152,-1.3742467739254132,0.07841208591501421,1.9009263709767312,0.15787562830174567,-0.006469299726028256,-0.05888308266229593,-0.0005142004980048658,-0.08760862460893841,-0.002362149124197048,0.035811062063279324,-0.01467995801102426,0.574866117908703,0.818231304386915,0.002688103992140739,0.0,0.8181978895247061,-0.5748048470231192,-0.011504273869014172,0.0,-0.007868173296600889,0.008812987948958809,-0.9999302091108089,0.0,0.6596183594566821,0.25804009536481787,0.30385955537584947,1.0,-0.009420000000000008,-0.012380571428571442,-0.004710000000000004,0.47200000000000036
0.46333327288862136,0.5344285178800974,-0.12406525617227154,-1.3756621634291306,0.07834427890879093,1.90143275532732,0.1577775494605868,-0.00840274105538161,-0.05154173649595177,0.003985452842102855,-0.08720702018598785,-0.007934291019624427,0.028188425070677568,0.00025481107280667505,0.574942747804539,0.8181775077731672,0.0026738403586306766,0.0,0.8181437435216659,-0.5748813297185882,-0.011533368048872682,0.0,-0.007899353512666074,0.008818781866927916,-0.9999299121940824,0.0,0.6594483893311539,0.2578284636672195,0.30385308024293944,1.0,-0.009760000000000008,-0.012827428571428585,-0.004880000000000004,0.4890000000000004
0.4631831409520263,0.5332877455588003,-0.12406913564283369,-1.377479070629982,0.07824251059069391,1.9020981262786394,0.1576348046135151,-0.008054258258833685,-0.05390403793457953,0.0026760370314827297,-0.08606212506216095,-0.006072445336038848,0.03880179797494152,-0.00017369444660645826,0.5750514924606831,0.8181011282468009,0.0026593008969328542,0.0,0.8180671170946994,-0.5749900434460642,-0.011549405502834054,0.0,-0.007919662612231426,0.008817159247317574,-0.9999297658570405,0.0,0.6591863223596277,0.2574874122455149,0.30384195988303514,1.0,-0.010280000000000008,-0.013510857142857156,-0.005140000000000004,0.5150000000000003
0.46304795670738236,0.5323073364056301,-0.12407195738261036,-1.3790523027763226,0.07815328428205676,1.9027048370139883,0.15753827461344014,-0.005834685401171554,-0.05574932948747834,0.0020490741244675093,-0.0845213640218093,-0.0063662635781957565,0.028615043448911654,-0.0007358439763187966,0.5751195325988352,0.8180532402419762,0.002676986012156677,0.0,0.8180194285022502,-0.5750579834914797,-0.011544570878699888,0.0,-0.007904803628503043,0.008829504770912516,-0.9999297744967369,0.0,0.6590548815466959,0.2573173058925778,0.3038457251473594,1.0,-0.010540000000000008,-0.013852571428571442,-0.005270000000000004,0.5280000000000004
0.462957174660068,0.531615073748922,-0.12406974336133486,-1.3801557443566075,0.07808715628012916,1.9031187465285535,0.15744664388703938,-0.006940913789495878,-0.05750717092469666,0.0009507142954215474,-0.09078247911688807,-0.006974714509428339,0.032492728517968535,-0.013838009652619972,0.575159768522547,0.8180249462812873,0.0026785883961056647,0.0,0.8179911374261851,-0.5750981891167976,-0.011546378999691808,0.0,-0.007904926919315491,0.008832244289635222,-0.999929749328026,0.0,0.6589250688820435,0.2571542597173492,0.30384425515266755,1.0,-0.010780000000000008,-0.014168000000000014,-0.005390000000000004,0.5400000000000004
0.4628435347906705,0.5307454926718771,-0.12406938543876635,-1.3815681001636153,0.07799428814028903,1.9036231622598028,0.15735287890693597,-0.01238048114982254,-0.05639209254052731,-0.001484646034008327,-0.09698898967058776,-0.002865570428798274,0.03188492570417946,-0.0031646016097645973,0.575227669130298,0.8179773253599442,0.0026402206583453353,0.0,0.8179430424232366,-0.5751662342145961,-0.01156413732312459,0.0,-0.007940789228908063,0.008811731528976949,-0.9999296461521098,0.0,0.6587534697143003,0.25694258315542723,0.3038284679504682,1.0,-0.011080000000000008,-0.014562285714285727,-0.005540000000000004,0.5550000000000004
0.4627020791313576,0.5297313574748125,-0.12407053661399889,-1.3832163813328415,0.07789944237849585,1.904210422477896,0.15723302546056267,-0.008671643980579909,-0.058173525758533684,0.0006669719074739797,-0.09451774053025827,-0.0023074650248962126,0.031924419455324815,-0.0066066024810271,0.5753101951288309,0.8179194101489757,0.0026009197578013843,0.0,0.8178845356223436,-0.575248791444583,-0.011595742002063552,0.0,-0.00798836031193828,0.00879857004190937,-0.9999293831390016,0.0,0.6585543463493668,0.25669091845858183,0.30380928992547995,1.0,-0.011420000000000008,-0.01500914285714287,-0.005710000000000004,0.5720000000000004
0.4625298369917676,0.5284086520243074,-0.12408393852983637,-1.38529556740715,0.07775797602643084,1.9049676715508097,0.15708052482708298,-0.006796712893319332,-0.064646417629254,-0.0006868347123828256,-0.10498753863610255,-0.005354850954787246,0.037905310894189,-0.003934100883018105,0.5754364343301368,0.8178306218123468,0.002594411813245416,0.0,0.8177957552110746,-0.575375138565297,-0.011588769603446538,0.0,-0.007985044331132507,0.008790468470780244,-0.9999294808790737,0.0,0.6582497150224756,0.2562980509371462,0.30381358595988806,1.0,-0.011940000000000008,-0.01569257142857144,-0.005970000000000004,0.5980000000000004
0.4623774236036449,0.5271790884220946,-0.12408754393500591,-1.3872192999170618,0.07764094289005458,1.905708709702332,0.1569381990436486,-0.007168260502098514,-0.06501975271691977,-0.00047134149928785174,-0.09548010338612235,-0.0026855530394839996,0.03224376147816441,-0.007763059937688581,0.5754936924687104,0.8177902470572151,0.0026208105686457758,0.0,0.8177558345282212,-0.5754324242338571,-0.011561450454308097,0.0,-0.007946895046750335,0.008796894313422357,-0.9999297282857202,0.0,0.6580975145803875,0.2560984450355948,0.30383278594813923,1.0,-0.01216000000000001,-0.0159817142857143,-0.006080000000000005,0.6110000000000004
0.46226949591067956,0.5263702332433705,-0.12409077999648957,-1.3884909959660636,0.07755905409396847,1.9061941098200545,0.15685556875310963,-0.008159925968271906,-0.06777777147053278,-0.0009622107681531865,-0.10692775039590585,-0.005894289042448572,0.035903845317612516,-0.008180221413998302,0.5755635264567535,0.8177410458536748,0.0026373926541804604,0.0,0.8177069109875118,-0.5755022640050761,-0.011545507762819462,0.0,-0.007923562702464082,0.008801956827957591,-0.9999298688958634,0.0,0.657938488928936,0.255891966713215,0.3038373638911665,1.0,-0.01246000000000001,-0.016376000000000016,-0.006230000000000005,0.6240000000000004
0.4621261745287548,0.5252643133560245,-0.12409372561313346,-1.3901958081468409,0.07746234293883895,1.9068239411600814,0.15672959248904716,-0.00744066415626265,-0.07592118001192918,-0.0008958009392571675,-0.1083942977687968,-0.010948475829740945,0.041586423297974975,-0.010321867497646322,0.5756439530704903,0.8176844015135515,0.002646831315490164,0.0,0.81765032825881,-0.5755825818641002,-0.011548984982452782,0.0,-0.00792010735774673,0.008812455530283966,-0.9999298037997308,0.0,0.657746727079181,0.25564981435008177,0.3038460788054632,1.0,-0.01276000000000001,-0.01677028571428573,-0.006380000000000005,0.6390000000000005
0.4619792717096477,0.5241879263703043,-0.12409787200712674,-1.3919344630352113,0.07734962725942554,1.9074391944906428,0.1566154446044261,-0.005029650519868582,-0.06609258437046492,0.001114789805708847,-0.10342544707598063,-0.0046089890134228696,0.04346851609722127,-0.007144876811843111,0.5757382173226356,0.817618121908504,0.002618920039389439,0.0,0.817583716719163,-0.5756769600768593,-0.011560739316921437,0.0,-0.007944771002676043,0.008797315200429062,-0.9999297414613584,0.0,0.6575234331030545,0.2553675028263781,0.3038413979561919,1.0,-0.01310000000000001,-0.017217142857142872,-0.006550000000000005,0.6560000000000005
0.46174230824334195,0.5223412931399346,-0.12410425683672786,-1.394873381748585,0.07716597086943812,1.9085390862701554,0.15638794233539888,-0.008800157316272365,-0.0750191538964101,0.0013946909291853115,-0.11580176170281031,-0.008355991757507652,0.045289680309073585,-0.006473010316686969,0.57584231047426,0.8175448425147073,0.002609759850331855,0.0,0.8175103980962453,-0.5757811587262239,-0.011556520307329947,0.0,-0.007945475999087126,0.008788408373090598,-0.9999298141816833,0.0,0.6571971908204857,0.25496582429332926,0.3038355823207213,1.0,-0.01358000000000001,-0.017848000000000017,-0.006790000000000005,0.6800000000000005
0.4616216181523914,0.5214207577834671,-0.1241052420207189,-1.3963667091745338,0.07707378586554493,1.9091266474464328,0.15627873071142906,-0.002771621339759759,-0.07181947702486333,-0.0006725005798347571,-0.11877045616503178,-0.0036914561167073977,0.03659104936795194,-0.010300863078387606,0.5759216261651543,0.8174889190292846,0.0026257724243658265,0.0,0.8174547017080609,-0.5758604330448837,-0.01154639380727589,0.0,-0.007927123168509298,0.008796437270418594,-0.9999298892470506,0.0,0.6570126924607882,0.2547247143358155,0.30382583291030746,1.0,-0.013860000000000011,-0.018216000000000017,-0.006930000000000006,0.6940000000000005
0.4614987255383409,0.520535430613537,-0.12410988504834315,-1.3977941904673112,0.07698362468122191,1.909667573459158,0.156169012376159,-0.009888313695440465,-0.07851978827672947,0.0010630499994835564,-0.125198212345919,-0.007297230256772958,0.042479217465901276,-0.007612944842493409,0.5759898304487401,0.8174408902407572,0.0026178394218586603,0.0,0.8174066221931946,-0.5759287128139868,-0.011544637384719461,0.0,-0.007929522440565995,0.00878960223616257,-0.9999299303283178,0.0,0.6568298253247836,0.2544891390743842,0.30381244574578103,1.0,-0.014120000000000011,-0.018557714285714302,-0.0070600000000000055,0.7070000000000005
0.46134316644017337,0.5192816211764569,-0.1241184832628401,-1.3997367205432534,0.07685889827430285,1.9103680168252353,0.1560357921524294,-0.003357375706716206,-0.07875675044096156,-0.002429235487428568,-0.11729923526193371,-0.009193926688687393,0.045749633480931445,-0.0095150564562439,0.5760836838546696,0.8173747395123927,0.0026213173576520327,0.0,0.8173405691985239,-0.5760226014380032,-0.011537047977556872,0.0,-0.007920306032282665,0.008788983336036796,-0.9999300088127538,0.0,0.6565923316569087,0.25419526047176416,0.3038291398874165,1.0,-0.01444000000000001,-0.018978285714285732,-0.007220000000000005,0.7230000000000005
0.46110667308917436,0.5174571891271982,-0.12412473038492836,-1.4025612333261592,0.07667348165890932,1.9113931395075927,0.1558214121001544,-0.013601619898969658,-0.08128272738907472,-0.00464435201808385,-0.12288672687355284,-0.008319328575539915,0.04271222775763978,-0.008702773932678898,0.576243496437679,0.8172620986956576,0.002615673920033048,0.0,0.817227993048349,-0.5761825655454897,-0.011524124296155874,0.0,-0.007911276614621265,0.008778472638737655,-0.9999301726222977,0.0,0.656172241419452,0.2536631672416693,0.30384823434035396,1.0,-0.015000000000000012,-0.019714285714285733,-0.007500000000000006,0.7510000000000006
0.46096131175306976,0.5164423202055535,-0.12412899206438127,-1.4041821677576254,0.07657137463979781,1.9119844006891684,0.1557074242989027,-0.005958646001409455,-0.08152445895742007,-0.00043109423865311043,-0.12626498790680463,-0.003378490180750454,0.03766467390052706,-0.010349115134565108,0.5762951456809043,0.8172256475483536,0.002625443773511791,0.0,0.8171916685971422,-0.5762341765441871,-0.011519438313972131,0.0,-0.007901262128416853,0.008784256283550854,-0.9999302010132122,0.0,0.6560413011600693,0.25349040805026046,0.3038508512471295,1.0,-0.015180000000000011,-0.019950857142857163,-0.007590000000000006,0.7600000000000006
0.46076831492093684,0.5149819620825218,-0.12413310484769975,-1.4064814282780604,0.07642997053170622,1.9128578032360535,0.1555293710810626,-0.008774420761592143,-0.08086971039714419,0.00025791774502039523,-0.12935970038687356,-0.007538273829285632,0.048706414549927676,-0.011766501556368048,0.5763907450369734,0.8171581784151375,0.002639580683574713,0.0,0.8171243827558909,-0.5763297181314136,-0.011512862614382276,0.0,-0.007886712894625114,0.00879294248800283,-0.9999302395277984,0.0,0.6557779176631583,0.25316514622896885,0.3038512709546846,1.0,-0.015520000000000011,-0.020397714285714304,-0.007760000000000006,0.7770000000000006
0.4605980117847189,0.5137324448153786,-0.12413589652178211,-1.408455115295229,0.07631159137491204,1.913566006512275,0.15537369660321346,-0.015391935261886364,-0.08136616251897318,-2.102067005858533e-05,-0.13222901506627557,-0.0014531911475750554,0.04705024583825104,-0.009282260387040317,0.5764763718231221,0.8170978199883321,0.0026253002063140922,0.0,0.8170637836937433,-0.5764153188837504,-0.011528245027619722,0.0,-0.007906592851184502,0.008790967840285421,-0.999930099893946,0.0,0.6555336048208312,0.2528629872357758,0.30384907432522146,1.0,-0.01582000000000001,-0.02079200000000002,-0.007910000000000006,0.7920000000000006
0.4604331462484694,0.5125183442217017,-0.12414403351961524,-1.4104652779036768,0.07619368430083784,1.914268534761359,0.15521867387012878,-0.009788100177184117,-0.07778380279107448,-0.0014465391488676898,-0.1366404892179326,-0.0009189344723558725,0.046644278733493603,-0.011771693680366548,0.5765636818314073,0.817036470319829,0.002544378418307726,0.0,0.8170012976606267,-0.5765027910425571,-0.011582678541776099,0.0,-0.007996783495861692,0.008757080855956015,-0.9999296800218517,0.0,0.6552776859689304,0.252556250070935,0.3038041023697878,1.0,-0.016120000000000013,-0.021186285714285734,-0.008060000000000006,0.8070000000000006
0.46024754724202704,0.5111652213941605,-0.1241471833994215,-1.4126334952975228,0.07605868511300218,1.9150708894845851,0.15504981265587148,-0.010786801537930716,-0.08630961862092394,-0.002085419022291127,-0.1404562904304208,-0.00506502766750543,0.048158135411678994,-0.01216136273453339,0.5766565237587128,0.8169709952706741,0.002528516199163499,0.0,0.816935623988419,-0.5765956829982173,-0.011591009778270104,0.0,-0.008011741520767668,0.008749834825953234,-0.999929623717751,0.0,0.6550120263841818,0.25222593653742953,0.3037893581453388,1.0,-0.016440000000000014,-0.021606857142857164,-0.008220000000000007,0.8230000000000006
0.46004613228964,0.50969641395452,-0.12414514908548188,-1.4149578999120258,0.0759077075676015,1.9159602827726987,0.15486558127712677,-0.014992842574489676,-0.08666614247239882,-0.00011848134984353956,-0.14230016094689676,-0.014416997613088872,0.04937232302391533,-0.004405263631955134,0.5767495810788623,0.8169052392522042,0.002549060388492579,0.0,0.8168702087702648,-0.5766887406021645,-0.011571749544548893,0.0,-0.00798316210570632,0.008756421782137688,-0.9999297946357871,0.0,0.6547323796633984,0.2518746454764084,0.30378817596484486,1.0,-0.016780000000000014,-0.02205371428571431,-0.008390000000000007,0.8400000000000006
0.45972063063450835,0.5073054127188608,-0.12415112932937981,-1.4187386685097998,0.07566836770486689,1.9173107931146323,0.15456027607750922,-0.014384966986945191,-0.08752586545847375,-0.0005744590874713185,-0.1400775517455281,-0.00747555515902827,0.048335681799353186,-0.00959931233881939,0.576906343424419,0.8167946377729127,0.002517443800861081,0.0,0.816759204068704,-0.5768455978336227,-0.011589034913914473,0.0,-0.00801383949157164,0.008742101463626431,-0.9999296745464668,0.0,0.6542406869954303,0.2512742967132461,0.3037867236150721,1.0,-0.017340000000000015,-0.02278971428571431,-0.008670000000000008,0.8680000000000007
0.45955453593666235,0.5061149001809659,-0.12415366455071059,-1.4205863046911962,0.07555539184087068,1.9179907609565,0.15441973945339574,-0.009714351831642501,-0.09580448558174295,-0.0003212615105638711,-0.14719841762592717,-0.0030236679744051536,0.049026197412621486,-0.011766971021053188,0.5770004002897632,0.8167281664661912,0.002527264812901311,0.0,0.8166927905375193,-0.5769395335653449,-0.011593420317149324,0.0,-0.008010748168071846,0.008753575649655065,-0.9999295989354118,0.0,0.6540142466152354,0.2509853458888379,0.3037905125383104,1.0,-0.017600000000000015,-0.023131428571428594,-0.008800000000000007,0.8810000000000007
0.4594003240545222,0.5050052780821331,-0.12415967665263963,-1.422311629179446,0.07545774720723683,1.9186580459092197,0.15428949074182582,-0.008541671271085271,-0.09547910824675387,-0.0009982081103137304,-0.14354476057246887,-0.004967889691739668,0.05949022794887777,-0.006347022583952044,0.5770757466714673,0.8166747972613415,0.002570023915006263,0.0,0.8166399786474616,-0.5770147291908929,-0.011571277917433783,0.0,-0.007967182786900728,0.008776457093215811,-0.9999297464318836,0.0,0.6538248458533441,0.2507431789011893,0.30380270105196105,1.0,-0.017820000000000013,-0.02342057142857145,-0.008910000000000006,0.8920000000000007
0.4591827333741255,0.5033558786819246,-0.12416105034808758,-1.4247944646819162,0.07530006269022907,1.9196135094959756,0.1540926192662342,-0.00467693562068647,-0.0985765191755867,0.0004908316557308556,-0.14216647326535478,-0.01167346146261147,0.04402069608848698,-0.015449413460106007,0.5771786421235265,0.8166017638620613,0.002668564224598404,0.0,0.8165682966596306,-0.5771173704465995,-0.011511060785192248,0.0,-0.007860029102860044,0.008823173250232033,-0.9999301833409663,0.0,0.6535263568700729,0.2503665954161606,0.30385589677579106,1.0,-0.018160000000000013,-0.02386742857142859,-0.009080000000000006,0.9090000000000007
0.458948893960367,0.5016605260039133,-0.12416432655850725,-1.4272930039511786,0.07514046994105884,1.9205421595469006,0.15389121908569814,-0.009626441654649761,-0.09535045324118603,0.0005233601383362734,-0.14770406656737983,-0.009572750600573316,0.052122687856800375,-0.006685436542424754,0.5772919738135507,0.8165213053429244,0.002771604724721843,0.0,0.816489222608362,-0.5772304195051271,-0.011451596549664145,0.0,-0.007750767231325728,0.008874071015903873,-0.9999305858263015,0.0,0.6532234434120906,0.24997503473276864,0.30393072971498786,1.0,-0.018500000000000013,-0.024314285714285736,-0.009250000000000006,0.9260000000000007
0.45873281053468595,0.5000519990645381,-0.12416501650212096,-1.429737713592594,0.07498145013021235,1.9214013518029085,0.15370284122583078,-0.014534184827000737,-0.09725817972309395,0.0003808679312858227,-0.14980030078088266,-0.01089003839656986,0.058215769861155876,-0.011354316224046508,0.5773963064204622,0.8164474774474972,0.0027872572242983165,0.0,0.81641558764613,-0.5773346796603,-0.011445645948185444,0.0,-0.007735737442349233,0.008884404992102038,-0.9999306104496247,0.0,0.6529111972075627,0.24959741520774822,0.3039639090839365,1.0,-0.018820000000000014,-0.024734857142857166,-0.009410000000000007,0.9420000000000007
0.4584717221064432,0.4982775225284561,-0.12417030720803875,-1.432506261527994,0.07480358130630171,1.9224376618090928,0.15347836688624397,-0.015182555817812873,-0.09547008981458577,-0.0008925007966508491,-0.15290790876246071,-0.00437541719178363,0.06772586266976642,-0.013149018099389287,0.5775157889149231,0.8163628917396254,0.0028088157111583224,0.0,0.8163313529821755,-0.5774541642048655,-0.011426166546980978,0.0,-0.007706084400903812,0.008891887113801566,-0.9999307729071856,0.0,0.6525917255338257,0.24918580100392576,0.303971897242248,1.0,-0.019160000000000014,-0.025181714285714307,-0.009580000000000007,0.9590000000000007
0.45822408038294954,0.49669226258471,-0.12416329925079973,-1.4350036049318422,0.07465000962319215,1.9233502469341652,0.15328884437021273,-0.01626609817160015,-0.08966276935826617,0.0008534050031359282,-0.1581099068179055,-0.013507633587707134,0.05291634825361201,-0.013246880442511837,0.5776498505493802,0.8162680151447308,0.002815051183961005,0.0,0.8162364724348147,-0.5775880922895738,-0.011435191894722325,0.0,-0.007708389758052103,0.008903455756222853,-0.9999306521969085,0.0,0.6522614833639688,0.24876490645552932,0.30396882281709997,1.0,-0.019500000000000014,-0.025628571428571452,-0.009750000000000007,0.9760000000000008
0.4579595720597789,0.4950280409873763,-0.12416509630359175,-1.4377113176866279,0.07448769254555185,1.9242875445217078,0.15307150802609593,-0.016768988360472643,-0.09414549573436055,-0.000681826978435729,-0.157398798735973,-0.008679588164010108,0.05919683124602585,-0.016245462172524434,0.5777821461542698,0.8161746814698525,0.0027254016509107868,0.0,0.8161418208046272,-0.5777204702431187,-0.011503629730904692,0.0,-0.007814601463296766,0.008871076936005085,-0.9999301155570648,0.0,0.6519117771248261,0.2483297586136766,0.30392080178939024,1.0,-0.019840000000000017,-0.0260754285714286,-0.009920000000000009,0.9930000000000008
0.4576761568056916,0.49330443561160703,-0.12418685300297362,-1.4405209569255848,0.07430816152647401,1.9252832141702894,0.15286727572544104,-0.01568822417977256,-0.10086758939860246,-0.00290955335226537,-0.1651562901399477,-0.007539632133114479,0.06532586095488113,-0.010867555305917227,0.577954759963052,0.8160527473519293,0.002637399595770842,0.0,0.8160187867948753,-0.5778933919590655,-0.011546169454604807,0.0,-0.007898299573211753,0.008825501132308303,-0.9999298612370846,0.0,0.6515593480422865,0.24786061555524821,0.30387065773588934,1.0,-0.02345657142857132,-0.03082863673469374,-0.02559281606742802,1.0099999999999996
0.4574193898390348,0.49102429652583723,-0.1242900020906347,-1.4439946031655828,0.07412187845269283,1.9265833485164638,0.15281787692677679,-0.018084097771913124,-0.14259898807686336,-0.0039027920737359514,-0.21693580017815017,-0.01406925185242619,0.08170466588473557,-0.002436281343682443,0.5783218544217635,0.8157923778233545,0.002715858004059179,0.0,0.8157596334481477,-0.5782604131862998,-0.011483112790608214,0.0,-0.007797512842966536,0.008856592930345936,-0.9999303773539086,0.0,0.6511314934092273,0.24730916509659978,0.3039196282850347,1.0,-0.03002342857142774,-0.03945936326530504,-0.055064801972567634,1.0269999999999977
0.45710144827239124,0.48850393304354756,-0.12439385551139248,-1.4481171327210252,0.07392028872856457,1.928097756480513,0.15300803562605633,-0.022983763603614104,-0.16692027623350977,-0.007817192622638566,-0.2748464599617579,-0.011441982881122983,0.09635811022055918,0.01886117873336332,0.5789626986040525,0.8153379648441952,0.0026350730630489245,0.0,0.8153041272339888,-0.5789013827900695,-0.011537591610809372,0.0,-0.00788174077114251,0.00882839109213844,-0.9999299663842167,0.0,0.6506085362189143,0.24665595076356137,0.3038444950730752,1.0,-0.03620399999999857,-0.04758239999999814,-0.08280314164799354,1.0429999999999962
0.4566515339027759,0.4851832382530193,-0.12454678258095228,-1.4533315747411368,0.07365603382885956,1.930095488547225,0.15375569129781694,-0.026738328325002607,-0.20340525778870294,-0.011011395658103253,-0.3217266440953182,-0.011139153371341625,0.12923089811385602,0.04396170319588242,0.5802364884053165,0.8144317466221617,0.0027008365835007363,0.0,0.814399026787555,-0.5801751025110468,-0.011481397780244568,0.0,-0.007784006572377655,0.008861655229432483,-0.9999304377346836,0.0,0.6499798893141971,0.24579190133585813,0.30384703116851963,1.0,-0.042770857142854994,-0.056213126530609434,-0.11227512755313317,1.0599999999999943
0.4561011296152466,0.4813016352521264,-0.12469974492200546,-1.4594202646144867,0.07332562371428691,1.9322610344470748,0.15486482985108094,-0.032449355252288294,-0.23578537685904255,-0.010483167192379697,-0.37653861561835517,-0.015555998981917247,0.1310378390278596,0.07699248450377486,0.5819067575759751,0.8132393938303618,0.002638315949523928,0.0,0.8132060316418654,-0.5818455482710289,-0.011508907840611877,0.0,-0.007824555492725649,0.008842775939139708,-0.9999302883926616,0.0,0.6492080185702334,0.24476789174661842,0.30383423811289656,1.0,-0.04933771428571142,-0.06484385306122073,-0.14174711345827276,1.0769999999999924
0.4554863287075969,0.47710231394800867,-0.12486060153516697,-1.4659718690611943,0.07296643454085258,1.9346381054947266,0.15627811953498844,-0.04383195873405312,-0.27146976770565695,-0.01169543345713205,-0.4207212834860732,-0.020308405404295335,0.16082531038797152,0.094912265986794,0.5840207998835716,0.8117226115430596,0.0026180363398105692,0.0,0.8116892643030567,-0.583959702112266,-0.011504408951560461,0.0,-0.007809711518452556,0.008844016383378756,-0.9999303934675698,0.0,0.6483301506071728,0.2435873697162933,0.30382933348585034,1.0,-0.055904571428567834,-0.07347457959183203,-0.1712190993634124,1.0939999999999905
0.4547091563495505,0.4718529998226627,-0.12501517357029202,-1.4741451196081041,0.07252169687013928,1.9376337464708078,0.15818845938076725,-0.04740200354177291,-0.29687641481559895,-0.005641675927839581,-0.46736473301806586,-0.025423778147673298,0.1697469921278664,0.10493296092850414,0.5864560726986356,0.8099647931253107,0.0026562367314159584,0.0,0.8099320483583419,-0.5863946693124027,-0.011494161355515049,0.0,-0.0077524122226929615,0.008892363189867122,-0.9999304105694701,0.0,0.6473461893618969,0.24229547959537176,0.3038410774798684,1.0,-0.06247142857142425,-0.08210530612244332,-0.200691085268552,1.1109999999999887
0.45392357712512316,0.46661385896134827,-0.12515030096876512,-1.482054410537002,0.07207418286397879,1.9406236510590495,0.16036166092584014,-0.05171458208934084,-0.3352521162345732,-0.0037066479791540183,-0.5049296940780256,-0.021889055523886522,0.18948023334818279,0.14910774240059815,0.5892017582904836,0.8079688572896196,0.002891466533974602,0.0,0.8079394819995676,-0.5891396973791306,-0.01135593675154098,0.0,-0.0074719093791975055,0.009027241677097786,-0.9999313373816886,0.0,0.6463579417146856,0.2409712068370232,0.3039566049196216,1.0,-0.06865199999999501,-0.09022834285713631,-0.22842942494397753,1.126999999999987
0.45297201759866124,0.46060950303265485,-0.12527571618009886,-1.49136719039971,0.07151290205812605,1.9439381231607664,0.1629833954072582,-0.06020663360576609,-0.36141595442703195,-0.011961855727430285,-0.5603199468846192,-0.030041852772465655,0.2019657040168195,0.16227826681225527,0.5924576743964555,0.8055846028868634,0.002845793661907562,0.0,0.8055548685289243,-0.5923955977528497,-0.011382286835232906,0.0,-0.007483703467160652,0.009036140100591991,-0.9999311688083824,0.0,0.6451352895410207,0.23939567317867985,0.30395260388448375,1.0,-0.07521885714285143,-0.0988590693877476,-0.25790141084911716,1.143999999999985
0.4518442162665018,0.4537063356561341,-0.1254245024404348,-1.50211783368901,0.0708375123389969,1.947648571653259,0.1660862471686318,-0.06983955150139674,-0.3888833939064154,-0.0055838269466106935,-0.6144738775490832,-0.03947446340509102,0.2248028331050531,0.18522377397544043,0.5962760224712098,0.8027630907629674,0.002659329954955332,0.0,0.8027312693026183,-0.5962143722546215,-0.011475125360684953,0.0,-0.007626423194003473,0.008977242257395587,-0.9999306209886354,0.0,0.6436901104832391,0.23754633552384719,0.30390807893441635,1.0,-0.08217199999999351,-0.10799748571427721,-0.28910704298397083,1.161999999999983
0.45074628441329645,0.4469331085697693,-0.12555484384514654,-1.512103860845949,0.07017093829113741,1.9514831252182134,0.16924033804448563,-0.06671301081641472,-0.43060723085371305,-0.0073405982449138195,-0.6460121356192434,-0.04663558832309675,0.23505316389277658,0.21023931985651442,0.6000455658812434,0.7999477727785029,0.003102675326150056,0.0,0.7999226604549718,-0.5999834865135152,-0.011148995602051542,0.0,-0.007057196113769371,0.009171982265543138,-0.9999330331198847,0.0,0.6424289092784914,0.23582689093635298,0.3041359399297964,1.0,-0.08835257142856426,-0.1161205224489702,-0.3168453826593964,1.1779999999999813
0.44947857722632023,0.4394711673380784,-0.1256649712395904,-1.5236669127249378,0.06945940446402396,1.9555328441311142,0.17298681434237526,-0.07948349872165167,-0.44586474757023303,-0.011043886149698808,-0.7018277538365596,-0.04444842929008242,0.23451370338023317,0.2233812010143224,0.6044449495265262,0.7966291744230477,0.0030013915333842126,0.0,0.7966028293914548,-0.604382612242992,-0.011239978873387662,0.0,-0.007140243706946103,0.00918504229093603,-0.9999323236689167,0.0,0.6408453647073823,0.23384568522810487,0.30409220265189396,1.0,-0.09491942857142069,-0.1247512489795815,-0.346317368564536,1.1949999999999794
0.4480968197893923,0.431442302693049,-0.12578185654022356,-1.535830949438569,0.06865213536125497,1.95989343402596,0.17708156714529402,-0.08466670282002439,-0.4862612966999709,-0.006990077600200014,-0.7296056640484883,-0.048936794701953897,0.26371824437540436,0.24970305599722276,0.6091862517843942,0.7930089593288908,0.0031061169003311247,0.0,0.7929845312465955,-0.6091237822635248,-0.011157866543546769,0.0,-0.006956412394041489,0.009260499845098316,-0.9999329234849822,0.0,0.6391932378878422,0.23173419365798475,0.30416165371154275,1.0,-0.1014862857142771,-0.1333819755101928,-0.3757893544696756,1.2119999999999775
0.4466260998138977,0.4235458274740072,-0.1258767141972376,-1.5479232714396693,0.06782551824863062,1.964147398120239,0.18124297449590712,-0.09494895001528006,-0.5000161283444021,-0.009387671320221681,-0.7604526133642943,-0.053406690833274095,0.28150573288581215,0.2711024234005237,0.613993149774416,0.7892932200675619,0.003061321067615583,0.0,0.7892687622953372,-0.613930851050782,-0.011156966167244684,0.0,-0.006926811666537858,0.009266684301367067,-0.9999330716813977,0.0,0.6375253300721294,0.229581031693973,0.304150168385818,1.0,-0.10766685714284793,-0.14150501224488587,-0.40352769414510153,1.227999999999976
0.4449388678444953,0.4146556428484663,-0.12604585872797397,-1.5613961121215523,0.06687796132386666,1.9688978300184197,0.1860697194903465,-0.101326366458578,-0.5389439929451427,-0.009251719072658315,-0.7993699286884809,-0.06033947114584661,0.29702222465653283,0.282466004673176,0.6195344214176407,0.7849511878579268,0.0030790031418228047,0.0,0.7849279069402576,-0.6194726125209084,-0.011072946496542745,0.0,-0.006784495007875979,0.009277045604573111,-0.9999339513449569,0.0,0.6356666653379217,0.22711793080545573,0.30418415728459597,1.0,-0.11423371428570436,-0.15013573877549719,-0.43299968005024114,1.2449999999999741
0.4432011009245441,0.4059430734771062,-0.12615959095306942,-1.5746785356744093,0.06599200949664077,1.9735374343867393,0.19093472230428518,-0.11301145215320343,-0.5544093085441729,-0.006086217039754958,-0.8464638818837298,-0.05341008801777649,0.2897928057251094,0.3116596958881913,0.6254202255821071,0.7802698806896654,0.0030334176385361797,0.0,0.7802463795589429,-0.6253581903348512,-0.011111609581434492,0.0,-0.0067732121227334074,0.009316417871072846,-0.999933661777416,0.0,0.6336707486150163,0.2245276992531699,0.30415339321466717,1.0,-0.12080057142856078,-0.1587664653061085,-0.46247166595538075,1.2619999999999723
0.44105100066723746,0.3955808643182236,-0.12636527292019925,-1.5901532607017959,0.06493338538503628,1.9789322732147994,0.19684423525231345,-0.12651708811860785,-0.5799771879122996,-0.012787828813715396,-0.866326044242157,-0.0638027778289008,0.3146877448462519,0.3326116786062524,0.6317979910681764,0.7751141621580582,0.0031750599107273347,0.0,0.7750931514090662,-0.6317357518111966,-0.01101332935641957,0.0,-0.0065309144372637795,0.009419347906112083,-0.9999343093631885,0.0,0.631622964901911,0.2217358962530061,0.3042476104912375,1.0,-0.1273674285714172,-0.16739719183671978,-0.49194365186052036,1.2789999999999704
0.439012120723825,0.38610512108486994,-0.12650392233882635,-1.6046061024293243,0.06384847760705366,1.9838327752649696,0.2023206239522756,-0.1269177618921241,-0.6042222780758881,-0.008228726196829666,-0.9219542961420566,-0.07222313557534422,0.2971038252306424,0.35109746038101414,0.6379438759946139,0.7700646721056496,0.0029595197237785543,0.0,0.7700418981460064,-0.6378825458999996,-0.011048965428436124,0.0,-0.0066207194330754615,0.009327753605007691,-0.9999345774033783,0.0,0.6295213780682531,0.21897882647702183,0.3041587623862765,1.0,-0.13354799999998795,-0.17552022857141278,-0.519681991535946,1.2949999999999686
0.4366900966008018,0.37551931947801354,-0.1266534440903637,-1.620321641764512,0.06269388258627938,1.9892027223718136,0.20853202756078748,-0.1458981837828782,-0.6295718403538536,-0.010329978346423496,-0.941912434528449,-0.07484530254762559,0.31507343192123405,0.3602859437289384,0.6448463115092752,0.7642936620303844,0.003029787826823143,0.0,0.7642725818661001,-0.6447850200561842,-0.010974762871227062,0.0,-0.006434503784218171,0.009392799962617923,-0.9999351841344083,0.0,0.6272299548088884,0.2159377656980386,0.3042267016239765,1.0,-0.14011485714284438,-0.18415095510202406,-0.5491539774410855,1.3119999999999667
0.43419659004276656,0.36462604668462434,-0.12681919302282046,-1.6365726612751907,0.061497023970817445,1.9946679603248347,0.2151001461552376,-0.15207195097594622,-0.6500170601159256,-0.01028167849927804,-0.9615953874967635,-0.07630919562539241,0.32499598894162796,0.39139889352431445,0.6520969003390708,0.7581170686930788,0.00298154751732832,0.0,0.7580961204284801,-0.6520357211439846,-0.01097439951614329,0.0,-0.006375926862608738,0.009416852816917037,-0.9999353331289313,0.0,0.6248157780835784,0.21273690283219088,0.304224947171206,1.0,-0.14668171428570081,-0.19278168163263537,-0.5786259633462252,1.3289999999999649
0.4321532371282428,0.3560265340453465,-0.12693298225432145,-1.6493617636664495,0.060495661198047675,1.9989772007975413,0.22036690015063753,-0.16467518307192802,-0.6650815506455771,-0.0023663637021156007,-0.9821524314808612,-0.08536119943584318,0.3212658589718971,0.40797952484643796,0.6578521543594392,0.7531285281504053,0.0029512695330504444,0.0,0.7531080624150887,-0.6577914603167744,-0.010926479804791337,0.0,-0.006287844817811472,0.009410814346185487,-0.9999359477390983,0.0,0.6229003015516975,0.21018034809242903,0.30422020753190404,1.0,-0.15170342857141453,-0.19938164897957342,-0.6011633643325084,1.3419999999999634
0.42878199759385915,0.34226110468866794,-0.12714513338571642,-1.669556980567612,0.05898002553818558,2.0056585436968675,0.2289369760362429,-0.17257414299459536,-0.6902685973652595,-0.008031016665140337,-1.0313839204795936,-0.08070769977991041,0.35663944967946887,0.42873588529438733,0.6676515108059019,0.7444548890240175,0.003020799239028273,0.0,0.7444361628988673,-0.6675905672854547,-0.010880291407132137,0.0,-0.006083346177672144,0.00951321834930291,-0.9999362437555313,0.0,0.6196742861217552,0.20585027778524873,0.3042931441517007,1.0,-0.15981542857141381,-0.21004313469385819,-0.6375699351565052,1.3629999999999616
0.4257604289657109,0.33031822960621254,-0.12727974577345694,-1.6872683165188236,0.05758815698521039,2.011443818196095,0.23655902274858517,-0.18042846491192965,-0.7035077735888262,-0.003137108879438993,-1.0400456212957574,-0.08513992033390336,0.3373858247089955,0.4563762490805232,0.6753157138341074,0.7375102312621823,0.0028447027156895677,0.0,0.7374900682390698,-0.6752550363787221,-0.010944496110443748,0.0,-0.006150896445508702,0.009489112898120752,-0.9999360595604718,0.0,0.6170564883777119,0.20244570139415266,0.3042108537573004,1.0,-0.16599599999998457,-0.21816617142855116,-0.6653082748319307,1.3789999999999598
0.42259039693082484,0.3178765111581375,-0.12735968468697978,-1.7053209423814935,0.05606422010622404,2.0173723028004753,0.2444579156339623,-0.19150537574968046,-0.7251486869752047,-0.0009290200869802284,-1.0647861571646262,-0.0825201980971521,0.34249952920678123,0.453773187788292,0.6840906321570168,0.7293779464675891,0.002926619712917187,0.0,0.729360039352672,-0.6840304243813631,-0.010819353831417045,0.0,-0.005889614548766242,0.009536161671710924,-0.9999371850576604,0.0,0.6140226109508344,0.19853108368645497,0.30427741421758725,1.0,-0.17294914285712665,-0.22730458775508078,-0.6965139069667844,1.3969999999999578
0.4194367731728546,0.30582716924038106,-0.1274553151833487,-1.7226801349886125,0.054651570507742,2.0229843692437393,0.25222125542095086,-0.19539065946982592,-0.7683272127450439,-0.0009528486290164961,-1.0866651979262694,-0.09291885291993975,0.3546741426509206,0.4957407820395777,0.6916695967665901,0.7221943937688399,0.0030287652284521752,0.0,0.7221784234827718,-0.6916091646367134,-0.010762664523908016,0.0,-0.0056781235131234675,0.009631702169281983,-0.9999374926597622,0.0,0.6113969447676431,0.19515353998137522,0.30433800741781303,1.0,-0.17874342857141173,-0.23491993469385544,-0.7225186004124958,1.4119999999999562
0.4155693964080655,0.2919951718860275,-0.1275814890798579,-1.7426824762664508,0.052935006722691295,2.029208427159401,0.26138267266235965,-0.2198835588002509,-0.8054328280557994,-0.009410148014402549,-1.1186880156065486,-0.09222341370539243,0.3603198980762666,0.5222860746253253,0.7011465374068239,0.7129979811735113,0.0028563658951293158,0.0,0.7129810359654932,-0.7010866783989568,-0.010782329354000628,0.0,-0.005685328444232252,0.009596712373194663,-0.999937788140896,0.0,0.6081012780464021,0.19085830615807364,0.30431392382233435,1.0,-0.18569657142855392,-0.24405835102038517,-0.75372423254735,1.4299999999999544
0.41168478517824103,0.27859499568234897,-0.1277340181603031,-1.7620164211694238,0.05135091236403803,2.0351834147506773,0.2703555981349143,-0.22605892493832502,-0.7808582111409224,-0.010439204925716565,-1.1444808975060186,-0.08755831129845512,0.3425266025921114,0.5287730628870418,0.7103924333636542,0.7037868662126261,0.0027174376691252236,0.0,0.7037688385772736,-0.7103322456557302,-0.01087517956133555,0.0,-0.00572363513874552,0.00963827879088397,-0.9999371698175579,0.0,0.6048660959583869,0.18664280544828096,0.3042588064369511,1.0,-0.19226342857141032,-0.25268907755099645,-0.7831962184524895,1.4469999999999525
0.40783051317668184,0.26555319320496695,-0.12787703874303882,-1.7803689612039737,0.04973074257827466,2.040897923151238,0.27907086053850694,-0.24729279773449855,-0.8263279765977471,-0.011895183706459051,-1.1606499526532215,-0.09995389128429989,0.3510321143987213,0.5307917143379983,0.7192468880294884,0.6947347568659135,0.002877249305237373,0.0,0.6947197231296842,-0.7191867937079637,-0.010752160335581417,0.0,-0.005400723774659666,0.009732527082976061,-0.9999380531309371,0.0,0.6017810187031055,0.18256392536469096,0.30436683197090186,1.0,-0.19844399999998108,-0.26081211428568946,-0.810934558127915,1.4629999999999508
0.4034085768100012,0.25148490388971473,-0.12807538103215438,-1.8001836873009827,0.047926905494611254,2.046898986997255,0.2886248542237505,-0.2685037995566715,-0.833564749326211,-0.012475532188967096,-1.1613548605567636,-0.10879261066817267,0.3512836243419656,0.5640050677849158,0.7289379292839306,0.6845597115547993,0.0028711441053376344,0.0,0.6845458838518035,-0.7288784451474001,-0.010672019596584655,0.0,-0.005213019972241051,0.009744857363967754,-0.9999389292240425,0.0,0.5983987788169118,0.1779996124786204,0.3044098900975861,1.0,-0.2050108571428376,-0.2694428408163008,-0.840406544033055,1.4799999999999491
0.3987374495922742,0.2371405957173635,-0.12822105609850787,-1.8203239426386164,0.04608456049464361,2.0528913681715757,0.29848996100476055,-0.2814923630471436,-0.8559977276629919,-0.01208175601774822,-1.1809796839987154,-0.10547557611873086,0.364310533817152,0.5832431290298987,0.7387942557019138,0.6739108507884772,0.002821317531626801,0.0,0.6738975050178879,-0.7387350335909488,-0.010651280545244137,0.0,-0.005093905506201035,0.009770571841907355,-0.9999392921835684,0.0,0.5948823930133902,0.17332565644344505,0.3044156524386988,1.0,-0.21157771428569402,-0.27807356734691213,-0.8698785299381947,1.4969999999999473
0.393945994242095,0.22253671194907587,-0.12828286822823987,-1.8408243752648974,0.04420172145929783,2.0589679718716387,0.30871691768685067,-0.28310670519306774,-0.8418181192028595,0.00040529535348872263,-1.2127890120617435,-0.11316996948335312,0.33941252282968926,0.6097210937274864,0.7487258043241292,0.6628595515088511,0.002762573777974375,0.0,0.6628464151834639,-0.7486664964053975,-0.010670236159798825,0.0,-0.005004717880288001,0.00982043235023812,-0.9999392541086649,0.0,0.5912085177659012,0.1686426715510759,0.30436209603498005,1.0,-0.21814457142855043,-0.28670429387752344,-0.8993505158433344,1.5139999999999454
0.3891180456097777,0.2083469530622426,-0.12838555106175592,-1.8601853281619083,0.042306842891991006,2.0645759622738935,0.3185481357833626,-0.3114527974456518,-0.8944728630967028,-0.006234783310921977,-1.2210589724149652,-0.11717645625282612,0.3465619685491849,0.6242862295262691,0.7588267940539645,0.6512712043133738,0.002908944688036465,0.0,0.6512610468029537,-0.7587678795157954,-0.010540438009543181,0.0,-0.004657559636351227,0.009893039616997862,-0.9999402156656017,0.0,0.5874834286949542,0.16374929017160303,0.3044800584611169,1.0,-0.22471142857140686,-0.29533502040813475,-0.9288225017484739,1.5309999999999435
0.3836891742112269,0.19313658632845412,-0.1285311816504427,-1.8810785427104573,0.04027027452296561,2.070517118541758,0.32922313201303793,-0.3188134034871065,-0.8949975853134851,-0.006765903846069089,-1.228135792842185,-0.11550930597349811,0.33443069906841544,0.6214406171081437,0.7684762712950589,0.6398566200214197,0.0029108714186769813,0.0,0.6398475786753691,-0.7684176793509117,-0.010492522358120523,0.0,-0.0044770310278582914,0.009925959592804928,-0.999940714002254,0.0,0.5838639599445025,0.15898134604850317,0.30448933252264,1.0,-0.2308919999999776,-0.30345805714282775,-0.9565608414238994,1.5469999999999418
0.37749269795856194,0.17665237832252406,-0.12875244938613525,-1.9034544946228322,0.03808094228083164,2.0767152753920697,0.3409176053332843,-0.3536088556742769,-0.934509840730666,-0.01803946401449274,-1.2559080219110064,-0.12583177034379178,0.3562523738332735,0.6573344628896968,0.7796450573466921,0.6261994201566644,0.002935583679373278,0.0,0.6261917800368316,-0.7795864870314592,-0.01046473857586157,0.0,-0.00426455396618497,0.009997212554050464,-0.9999409329158491,0.0,0.579689201053754,0.15336000491203394,0.3045211352944579,1.0,-0.23784514285711977,-0.3125964734693575,-0.9877664735587536,1.56499999999994
0.3717112250214849,0.1618314307628868,-0.12889044328526983,-1.9236329804558017,0.036018978077604596,2.0820030913131857,0.35157014304656664,-0.36425473931554075,-0.9344062240328797,-0.00641073254073485,-1.2400284661897154,-0.12796689126434413,0.33342858577634243,0.6633748982024452,0.7895986338317048,0.6136023767728503,0.002620605087114071,0.0,0.6135922051228763,-0.7895405261281004,-0.010540887771774771,0.0,-0.004398924563731976,0.009931244645359522,-0.9999410081812208,0.0,0.5757950445608959,0.1482517185488593,0.3044301078647535,1.0,-0.24402571428569053,-0.32071951020405043,-1.015504813234179,1.5809999999999382
0.3657554005368415,0.14667293352580701,-0.12898362429882554,-1.943881883188872,0.03387631410155661,2.087444153469659,0.3623874216992879,-0.3782693477415773,-0.9314575703749115,-0.002120296311651882,-1.2815648032176115,-0.14120410088060564,0.32536647215222336,0.6675021718196601,0.7994740474678765,0.6006786133971946,0.0026828592514961712,0.0,0.600670417426151,-0.7994164949215061,-0.010443379611768354,0.0,-0.004128472331064392,0.00996091693247353,-0.9999418662352705,0.0,0.5718560170684979,0.14312642523850588,0.30445438886643206,1.0,-0.2502062857142613,-0.32884254693874343,-1.0432431529096045,1.5969999999999365
0.358610044222706,0.12928709340699143,-0.12909365148416024,-1.9667153152060364,0.03148430340847015,2.093386076311876,0.374764262299439,-0.4074222419972317,-0.9537533155610868,-0.005013519686243795,-1.270728732717503,-0.12437655895619432,0.3255326540032377,0.6978516313555931,0.8106867613545005,0.5854566215931846,0.0028750823387008783,0.0,0.5854517134761509,-0.8106290161270816,-0.010374791655107799,0.0,-0.003743437377396741,0.01009412247132166,-0.9999420460047348,0.0,0.5673403790625544,0.13717791467452978,0.30455506412072875,1.0,-0.25715942857140345,-0.33798096326527316,-1.0744487850444586,1.6149999999999347
0.35192798270391185,0.1136177485978926,-0.1292535772209086,-1.987168751196248,0.029193845754301513,2.0985371452105706,0.3861211185019541,-0.4286428750974476,-0.9693119947359239,-0.012769749722288616,-1.3017875543176165,-0.1453178620614788,0.30876888467829205,0.7131609190399495,0.820761494076479,0.5712466090614539,0.002937410142388672,0.0,0.5712437623475631,-0.8207046768663173,-0.010253987027617229,0.0,-0.003446875440186903,0.010094249279902545,-0.9999431109724068,0.0,0.5632192203799801,0.13170709482127924,0.30461075155694833,1.0,-0.2633399999999742,-0.34610399999996616,-1.102187124719884,1.630999999999933
0.34440336342564937,0.09669508995360969,-0.12939964653170816,-2.009050017604998,0.02671219722637675,2.103871510270496,0.39831200695668,-0.43212014103507534,-1.022795848289801,-0.005790649081061709,-1.2822404203252118,-0.14508335114778942,0.3210340413442048,0.7147016512943619,0.831440924982551,0.5555877526124954,0.0029973842538849973,0.0,0.5555869148942338,-0.8313848970561873,-0.010152824552225314,0.0,-0.0031488656017062966,0.01010697589786172,-0.9999439652718659,0.0,0.5587241355393489,0.12573437479204552,0.30466549669227727,1.0,-0.26990685714283064,-0.3547347265305774,-1.1316591106250238,1.647999999999931
0.33660388838450284,0.07958816616685356,-0.12942816128026227,-2.031041756811792,0.024333030698734517,2.1089544945113907,0.4106006107208211,-0.4689983649866748,-1.0396617828771944,-0.007779264600169154,-1.2581470203485372,-0.14575038080306116,0.3129312239809292,0.723620841571273,0.8419562557356768,0.539519922701293,0.0029433547456804163,0.0,0.5395193071826827,-0.8418993560436714,-0.010253700384621887,0.0,-0.0030541259753060213,0.010221360689321238,-0.9999430964310847,0.0,0.554057763240384,0.1197662832292641,0.3046659219292624,1.0,-0.276473714285687,-0.3633654530611887,-1.1611310965301633,1.6649999999999292
0.3283623750567014,0.0623158793838028,-0.1295176504451949,-2.0531927043806473,0.02173738720260077,2.1139418232516394,0.42321365824378504,-0.4912767654632067,-1.0158511209107899,-0.0033349797477637737,-1.2932907957228212,-0.14673260970029908,0.2644938456422176,0.7504526124777353,0.8525050754655175,0.5226933057289287,0.002747972508189342,0.0,0.5226918486182737,-0.8524488386657105,-0.010244791198524249,0.0,-0.003012435803492086,0.010170275133395953,-0.9999437437847394,0.0,0.5492824726876224,0.11357911250563,0.30459013140263835,1.0,-0.27998,-0.3679737142857144,-1.17686727,1.6819999999999273
0.3196453516373214,0.044992866918516804,-0.12966156689415723,-2.0749949655582607,0.019121275257652642,2.118727055164025,0.43569922870925215,-0.5169510899442376,-1.005097577429373,-0.0032231533171516277,-1.3032377776024033,-0.14418603683258213,0.27275026622457194,0.7287504272705384,0.862882424532647,0.5053782106729912,0.0027445420083070902,0.0,0.5053780551736939,-0.8628269144104492,-0.010172709521391527,0.0,-0.0027730544130100676,0.010165079267660762,-0.9999444891256238,0.0,0.5445326937618677,0.10722475217747397,0.3045955151391644,1.0,-0.27998,-0.3679737142857144,-1.17686727,1.6989999999999255
0.31078883610355873,0.027701411225594726,-0.12966439571089566,-2.096277505904013,0.016563638030418982,2.1231000972544134,0.4479267036902083,-0.5272966435456826,-1.0058287893308766,-0.0013616455001452903,-1.2365581103623702,-0.1553751163872226,0.25778212944608014,0.7037850787531716,0.8722029637097627,0.48911621118631865,0.0028405900540469865,0.0,0.4891181154768266,-0.8721473640904399,-0.010158313034339665,0.0,-0.002491230419207624,0.010249692127255364,-0.9999443672436454,0.0,0.5400397668020868,0.10137759541514495,0.3046935757706162,1.0,-0.27998,-0.3679737142857144,-1.17686727,1.7149999999999237
0.30160744186574057,0.010673813053002412,-0.12968534184440936,-2.1170931102885335,0.013926861893096908,2.1273310299200756,0.4600653528927512,-0.5400648597562383,-0.9959822334744015,-0.0010275935691969667,-1.2204641691441058,-0.15818588196003616,0.24603529984827976,0.7243727458255979,0.8823730920106514,0.4705205692250116,0.0029778067335249105,0.0,0.4705253718288869,-0.8823187126899477,-0.010015518141863968,0.0,-0.0020851728394687963,0.010238754459202762,-0.9999454084905604,0.0,0.5350398226665222,0.09473485446604427,0.30476217426802904,1.0,-0.27998,-0.3679737142857144,-1.17686727,1.7329999999999217
0.29266172585854067,-0.005219095160808829,-0.12979795836547042,-2.136296833539676,0.011576935032325994,2.1310011174510075,0.4713126464765831,-0.5579394916610944,-0.9900749305260103,-0.011098801351209305,-1.1828625881888537,-0.14950889125047562,0.24339742791451524,0.6956839853549769,0.891200375723827,0.45357808880311623,0.0030910465267090974,0.0,0.45358509365818767,-0.8911458762388689,-0.010016834567862745,0.0,-0.0017888777550491008,0.010329258228990973,-0.9999450516607482,0.0,0.5305990716727291,0.08875035786903712,0.3048235721854071,1.0,-0.27998,-0.3679737142857144,-1.17686727,1.74899999999992
0.28311686635203515,-0.02186295791764156,-0.12977515888324598,-2.1564310446069848,0.008950638581897489,2.134571910114696,0.4830032333867284,-0.5769790588181466,-0.972592321155836,-0.0013393206689091548,-1.1780651964530882,-0.15476470047971808,0.18839141008214982,0.6708637559013193,0.900012622349452,0.4358321416760775,0.0028932326064400778,0.0,0.4358382398534615,-0.8999589323327972,-0.009984773260158656,0.0,-0.0017479282396780094,0.010247600670185625,-0.9999459642537558,0.0,0.5257923853826062,0.08254592656298776,0.30476999224211065,1.0,-0.27998,-0.3679737142857144,-1.17686727,1.765999999999918
0.27377344249464747,-0.03753264030561765,-0.1298258859511385,-2.1749027963385217,0.006506290134838723,2.137814629770302,0.49385848924010084,-0.6003959056341448,-0.9673880914751903,-0.007331396487138823,-1.132434362026038,-0.14563191667112652,0.17328095799241322,0.6707401956674451,0.9085860324750568,0.4176633260652358,0.003084566836339112,0.0,0.4176726210194215,-0.9085333066304757,-0.009877210895236424,0.0,-0.0013229425181533472,0.010262832565794876,-0.999946460612177,0.0,0.5210798833433482,0.07623666720056238,0.30486189532611413,1.0,-0.27998,-0.3679737142857144,-1.17686727,1.7829999999999162
0.26364013339074704,-0.05401501862788263,-0.1298739684080875,-2.1941500043860462,0.004051584724739077,2.140868365235567,0.5052505813841205,-0.5883233513078543,-0.9553783490164071,0.0025729510712525685,-1.129419463594351,-0.1508251361326381,0.18161515271711176,0.6730907935825116,0.9163491499063688,0.4003438602099368,0.0031266530492095905,0.0,0.4003545341204632,-0.9162960623974832,-0.009925721397619016,0.0,-0.0011087830897276718,0.010347395309212394,-0.9999458495390512,0.0,0.5165950977260367,0.07034477831696831,0.3049077350353146,1.0,-0.27998,-0.3679737142857144,-1.17686727,1.7989999999999144
0.2533275704553819,-0.07013871309877469,-0.12987111675685808,-2.2131281262857376,0.001483020725393972,2.143638959208996,0.5163675889478325,-0.6115773701671855,-0.9513657179090076,-0.0016209005105635836,-1.097750566082273,-0.15109179288248073,0.15900187651268438,0.6505057980046846,0.9245779216472424,0.38095718290618624,0.0028352241280862702,0.0,0.3809659828388009,-0.9245255101112537,-0.009912011622322218,0.0,-0.0011548372254697736,0.010244748294785687,-0.9999468543294484,0.0,0.5115044073224653,0.06375574026461385,0.3048107263505933,1.0,-0.27998,-0.3679737142857144,-1.17686727,1.8169999999999125
0.24329237147667163,-0.08528144722114082,-0.1299550488419159,-2.2306097523747885,-0.0008779103700007191,2.146187418628667,0.5265763914372574,-0.6239358878330983,-0.9247153747369773,-0.004636070488875115,-1.0874825093925222,-0.14538632153210965,0.14379075462923038,0.6272216270329852,0.9311932317244433,0.3644889336913243,0.0027801633688250647,0.0,0.36449808921476246,-0.9311409537856393,-0.00992038523270587,0.0,-0.0010271664404853942,0.010251357190829195,-0.9999469258939944,0.0,0.5073003993303928,0.058183598906868625,0.30476215118358946,1.0,-0.27998,-0.3679737142857144,-1.17686727,1.8319999999999108
0.23320014970558506,-0.10042016389103664,-0.12991262883525576,-2.2476842087951283,-0.0032288039915960567,2.148392308000926,0.536665501863052,-0.6260941850472846,-0.9502872538168049,0.00537930267327768,-1.064633700106276,-0.15296297461303485,0.13469570642040518,0.6252027325556871,0.9378372046621848,0.34703618930688074,0.0028297992837347996,0.0,0.3470468537363016,-0.9377853828174376,-0.009889589824366708,0.0,-0.0007783161468601918,0.01025709569514182,-0.9999470917062943,0.0,0.5028069725502474,0.05239990922231178,0.30481293019423067,1.0,-0.27998,-0.3679737142857144,-1.17686727,1.847999999999909
0.2220682203740087,-0.1161723349669011,-0.12997769003793846,-2.265509981909356,-0.005779156733753614,2.1504771771625935,0.5471313780559506,-0.66178276738287,-0.9186367918612911,-0.005194998068016423,-1.0171913442928495,-0.15114252588351457,0.12115025527626767,0.5963593569664809,0.9446034032335591,0.32817428564496437,0.0026068644390878073,0.0,0.3281837346682646,-0.944552347882103,-0.009851157840845982,0.0,-0.0007705915969208332,0.01016116336352988,-0.9999480771258529,0.0,0.4980190228441352,0.04611251041012098,0.3047428159889538,1.0,-0.27998,-0.3679737142857144,-1.17686727,1.8649999999999072
0.21136385863558094,-0.13096785784969708,-0.13005353831795446,-2.2819317192282305,-0.008038194732347502,2.1522912982205824,0.556763195643829,-0.6610585033110339,-0.9104409066787545,-0.0034082653020540326,-1.0398309526964333,-0.14162068779732245,0.11337162666464372,0.5940438531951129,0.950645691025052,0.3102365965003371,0.002602158449535559,0.0,0.31024694172932715,-0.9505944699261852,-0.009886141540685879,0.0,-0.0005934568979871213,0.0102057260492322,-0.9999477441170204,0.0,0.4935310446612879,0.04021706232492926,0.3047389610874914,1.0,-0.27998,-0.3679737142857144,-1.17686727,1.8809999999999054
0.19980516884799301,-0.14660778273864336,-0.13005912027254932,-2.2989507638899407,-0.010507300578581706,2.1539630952063127,0.5666581425646726,-0.683288540826725,-0.89115989204342,0.0019102175018666742,-0.9917368602906497,-0.14026362850934315,0.09363842719724481,0.566704240227089,0.9566052623017343,0.291341618274572,0.002679645310900368,0.0,0.2913537871844251,-0.9565548409273956,-0.00982618404396671,0.0,-0.0002995544340739231,0.010180700184472126,-0.999948130460223,0.0,0.48877589227306617,0.03401942578784771,0.30479265372897985,1.0,-0.27998,-0.3679737142857144,-1.17686727,1.8979999999999035
0.18782976477558952,-0.16198319594527286,-0.1301915432181973,-2.3156621092457064,-0.012994511460958823,2.1553978003264818,0.5764546644438211,-0.6989901733613822,-0.9016555782291051,-0.0016506506712901294,-0.9692095829329433,-0.14114182882823617,0.07928391567701122,0.5757614976754432,0.9622987275188538,0.2719472667168194,0.0025671077216042784,0.0,0.27195931699153986,-0.9622490541453816,-0.009779294403048922,0.0,-0.00018925905014838262,0.010108946051234434,-0.9999488853890208,0.0,0.4840010571673248,0.027686765179801405,0.3047589569995709,1.0,-0.27998,-0.3679737142857144,-1.17686727,1.9149999999999017
0.17581851422858244,-0.1772775838597723,-0.1301933215223534,-2.3319219345561515,-0.01530060398447598,2.1566171650393593,0.5858970284998067,-0.7054144674434174,-0.8937366133440604,0.0007325313890350607,-0.9605344267428356,-0.14160256350851586,0.061545217938695156,0.5466216932422444,0.9675037997164653,0.2528046159482361,0.00264018762116028,0.0,0.25281839146145185,-0.9674540293511004,-0.009813711447381104,0.0,7.331001029742268e-05,0.010162486761561958,-0.9999483579107791,0.0,0.47924635994559667,0.02155602049734573,0.3047988622844751,1.0,-0.27998,-0.3679737142857144,-1.17686727,1.9319999999999
0.16252262295353198,-0.19338086140439312,-0.13034850237204346,-2.348692337918029,-0.01788756047412196,2.1577208643189687,0.5956224403898231,-0.7345120392352691,-0.8807755992329082,-0.006814376402234523,-0.9038566438929769,-0.14450218605490875,0.057399591656938205,0.5360708874822415,0.9729480894832838,0.23096406384475676,0.0028919343615599856,0.0,0.23098145586378266,-0.9728999247639911,-0.009697955582290495,0.0,0.0005736945359097745,0.010103785093951484,-0.9999487908894908,0.0,0.4739760380432457,0.01448006726980296,0.30491358282513176,1.0,-0.27998,-0.3679737142857144,-1.17686727,1.950999999999898
0.14915154757346508,-0.20916456661949737,-0.13037660487893782,-2.365216915638087,-0.020304324605339027,2.1584715480626553,0.6049603168230099,-0.7613765372546629,-0.8923628940467654,-0.0026786680385002697,-0.8960364958324237,-0.1402667050326322,0.021868594604374646,0.5086935347698464,0.9773350415547819,0.21163571582353752,0.002699488503434647,0.0,0.21165215994652886,-0.9772864226744482,-0.009765149633107515,0.0,0.0005715300335699669,0.010115370247187248,-0.9999486750019637,0.0,0.46915702241639445,0.008322792434829064,0.30485328104954057,1.0,-0.27998,-0.3679737142857144,-1.17686727,1.967999999999896
0.1368014683366246,-0.22304671957295008,-0.13055354094235794,-2.3793437264993536,-0.022536954279788038,2.1590560931876537,0.6130973579546608,-0.7750847393615522,-0.8291531144522793,-0.0073940280320500045,-0.8989191852770423,-0.1484559862106864,0.033220353271106215,0.5050316873802364,0.9811857143844588,0.19299510523461438,0.0028688228505979276,0.0,0.19301411493444276,-0.9811383185071432,-0.009690113222141871,0.0,0.0009445857928913615,0.010061717686990067,-0.9999489334935397,0.0,0.46473236031314713,0.0023540156746560924,0.30492128849473465,1.0,-0.27998,-0.3679737142857144,-1.17686727,1.9839999999998943
0.1236141164699991,-0.23760616382992766,-0.13060588633056197,-2.3941660873311856,-0.024850026798159862,2.1593668918644133,0.6214426066849132,-0.7801767220220125,-0.8505025485845549,-0.007060084271577659,-0.8571100947109894,-0.13778555661879513,0.015631640670117075,0.4902658554662221,0.9848258682197972,0.1734681243466063,0.0027506402892434867,0.0,0.17348685171579636,-0.9847790660280757,-0.009656619274885658,0.0,0.0010336772433667818,0.0099874806753929,-0.9999495895999535,0.0,0.4599432236180051,-0.003820370680399798,0.3048985501801036,1.0,-0.27998,-0.3679737142857144,-1.17686727,2.0009999999998924
0.10994887360213779,-0.25197272408849025,-0.1307842970315929,-2.408492849333046,-0.027053136707012454,2.159609229148735,0.6294618131012147,-0.8202158955606569,-0.8490146154860461,-0.007960489550386265,-0.8185600899710481,-0.1275365499787693,0.005426311078106129,0.47828124326505456,0.9881262699229236,0.15355427203624333,0.002882209020364991,0.0,0.15357527524444398,-0.9880798607043384,-0.009673190026920986,0.0,0.0013625192672290787,0.01000116177652735,-0.9999490588546828,0.0,0.4552220164984399,-0.010125976721279732,0.304937774887514,1.0,-0.27998,-0.3679737142857144,-1.17686727,2.0179999999998905
0.09699444158569503,-0.2653565880187301,-0.1308970524254451,-2.421733454885249,-0.02912921831233365,2.1596403820568986,0.6366832144294146,-0.8080574551450869,-0.8136743212847093,-0.009492896726834637,-0.8178421487502635,-0.1344317144758945,0.004519718481958062,0.44202019269317994,0.99082366365684,0.13505811734932582,0.0029187971668315268,0.0,0.1350803385569691,-0.990777780387118,-0.009666381314608284,0.0,0.0015863866592809028,0.009972143452581989,-0.999949018566611,0.0,0.45074106147606513,-0.015957193838397554,0.30494647967944943,1.0,-0.27998,-0.3679737142857144,-1.17686727,2.033999999999889
0.08276186399151912,-0.2792850081166808,-0.13108226356806701,-2.435386134232113,-0.031331412255288994,2.1595812933092042,0.6440809290801702,-0.8374980647443515,-0.7924776288097237,-0.008216091968958235,-0.7689753838326517,-0.12975982783828294,-0.0028538845111338506,0.431111467807811,0.9933386888269526,0.11510885247646724,0.002991364623308004,0.0,0.11513265170785908,-0.993293722292393,-0.009633310253891846,0.0,0.0018624602706756033,0.00991373438807827,-0.9999491232618901,0.0,0.44600805249225234,-0.022266446097153263,0.3049427777228436,1.0,-0.27998,-0.3679737142857144,-1.17686727,2.050999999999887
0.06930246486977858,-0.2923210937170179,-0.13118709354204075,-2.4478893778551654,-0.03330346874039989,2.159410377233069,0.650773615837649,-0.8397111053903595,-0.8248269511540514,0.0020294184211506897,-0.7751392905345018,-0.1165499135654265,-0.006156126168965207,0.4144580057784342,0.9954316114585187,0.095320351565361,0.0032686981752495514,0.0,0.09534777060081961,-0.9953877897941873,-0.009627952601914066,0.0,0.002335927399137794,0.009895821982584834,-0.9999483067391408,0.0,0.4413032538132411,-0.028443822426169767,0.30500933621868187,1.0,-0.27998,-0.3679737142857144,-1.17686727,2.067999999999885
0.05362058162292923,-0.3066391879082592,-0.13139478981727867,-2.4615302693952454,-0.03561243560404056,2.1590003684431784,0.6580501952199731,-0.877827871797328,-0.8011198058670668,-0.0014458388901210564,-0.7448227582187058,-0.13747029299954858,-0.027385101771417245,0.39360303006303254,0.9971495130073575,0.07524859256067346,0.0033533457972127157,0.0,0.07527750386417581,-0.9971072890186683,-0.009544553369800254,0.0,0.0026254818779650746,0.009769966347903933,-0.9999488259918451,0.0,0.4365683262899813,-0.03475883294907883,0.30501754477669796,1.0,-0.27998,-0.3679737142857144,-1.17686727,2.084999999999883
0.0395177468218172,-0.31923576632694095,-0.13153452953626385,-2.473346177624218,-0.037523357917638896,2.1583992842547977,0.6641396377747519,-0.8899955393974972,-0.7929635949087447,-0.010650058802880304,-0.7209247162343219,-0.12345022603535853,-0.033770152143390325,0.3747739808936443,0.9983868557928105,0.05650409036183035,0.0034235732409811197,0.0,0.05653450996489584,-0.9983452550996641,-0.00955759929187362,0.0,0.0028779200554686635,0.009735918988059207,-0.9999484634007958,0.0,0.4320916577161565,-0.04061330735096296,0.30504351147807024,1.0,-0.27998,-0.3679737142857144,-1.17686727,2.1009999999998814
0.02422180654322472,-0.33229871679604245,-0.1316917011971645,-2.4854610928473884,-0.03955308666374256,2.157733939160601,0.6703273291599969,-0.8930206936466879,-0.7720617990624493,-0.0006119884688871764,-0.707982939402792,-0.11666412581526903,-0.041131806818663144,0.35215754896787277,0.9993164612766239,0.03653029174706629,0.0035909480152903576,0.0,0.036563025112198055,-0.9992763991419626,-0.00951683843122173,0.0,0.0032407591124783974,0.009641814860903583,-0.9999482651050315,0.0,0.427379063898978,-0.04685546435845785,0.3050757744551297,1.0,-0.27998,-0.3679737142857144,-1.17686727,2.1179999999998795
0.008607291414495823,-0.3451188150597838,-0.1319274918531069,-2.49727507485894,-0.04147805289259653,2.156743316492668,0.6762055132869778,-0.9249038361310433,-0.7350792950483066,-0.013129083631113155,-0.6756044651523633,-0.1225758336593911,-0.05363190604917137,0.3456373043294066,0.9998495748725708,0.016409981604899593,0.003505286304260616,0.0,0.016442916205138824,-0.9998092531113677,-0.009583047572061153,0.0,0.00334742449572234,0.009639428758759137,-0.999947936725933,0.0,0.4225931857665148,-0.05311925664769813,0.305057564779694,1.0,-0.27998,-0.3679737142857144,-1.17686727,2.1349999999998777
-0.0072379367516136935,-0.35770355565838713,-0.13205376271919128,-2.5084986343229407,-0.04341242466036401,2.1558564947642296,0.6816364080106186,-0.9308147709652226,-0.7319079740512271,-0.008623961144607223,-0.6657113806785352,-0.1068358178672668,-0.05396735786123803,0.30404571669103636,0.999977070899807,-0.003401234958516297,0.0038776509136411656,0.0,-0.0033642216232155353,-0.999939472595439,-0.009512100695091792,0.0,0.003909844375528715,0.009499020199705277,-0.9999472394742659,0.0,0.4179349015364022,-0.05933503378409831,0.3051679366302373,1.0,-0.27998,-0.3679737142857144,-1.17686727,2.151999999999876
-0.022509400209651212,-0.3692773222318317,-0.13228350322955829,-2.518996055522722,-0.04527913816696843,2.1547070019210337,0.6865780021868567,-0.9600348515893279,-0.720177197217439,-0.009990734534793357,-0.6389569145339611,-0.11480924577248505,-0.06873293295886257,0.30318027892249705,0.9997348608618525,-0.022297734474203024,0.003710244743730641,0.0,-0.022261773484007708,-0.9996977261455897,-0.009466608785224515,0.0,0.003920282640404116,0.009381682815140943,-0.9999483063696719,0.0,0.4133925726396863,-0.0652494176958928,0.3051134781363845,1.0,-0.27998,-0.3679737142857144,-1.17686727,2.167999999999874
-0.038908747273905024,-0.3812801962823273,-0.13245093560204926,-2.5295126706066116,-0.047007243961661234,2.1534477783764654,0.6914523810914285,-0.9795119400584742,-0.7002388516070305,-0.017067660163478604,-0.5955697111317194,-0.10341158396453619,-0.06051689818864396,0.27358763142688336,0.9990901001269856,-0.042247393422962964,0.003857003814259631,0.0,-0.04220909751415386,-0.9990537863331179,-0.009522132203937654,0.0,0.004255721465808493,0.009350847399734685,-0.999947223851195,0.0,0.4086824319501289,-0.07144950233040442,0.3051759594344279,1.0,-0.27998,-0.3679737142857144,-1.17686727,2.184999999999872
-0.05571747164873244,-0.39290364370054376,-0.13265368845329614,-2.5397984820076434,-0.048863059876550895,2.1520903921732963,0.6960213698140995,-0.9842990907698644,-0.6826964415396332,-0.010054953042527692,-0.5933356529786423,-0.10284685787787921,-0.08569692115940813,0.2590494206446131,0.9980443687705929,-0.06224238659253517,0.003751023564679559,0.0,-0.062204629382460075,-0.9980089520190645,-0.009458471039651112,0.0,0.0043323563190931225,0.009206819987472525,-0.999948231237219,0.0,0.4038986075119794,-0.07771793796606094,0.30513362461763543,1.0,-0.27998,-0.3679737142857144,-1.17686727,2.2019999999998703
-0.07179672100386522,-0.4035853937087929,-0.1329416705244332,-2.549129272613044,-0.050488043645265435,2.1506651420365612,0.7000265000222524,-1.013141886419736,-0.6601390896856629,-0.01720376020559737,-0.5568860802527777,-0.10107420260736774,-0.09460826309341493,0.24729371655759574,0.9966847138976711,-0.0811623249508856,0.0036062435431458476,0.0,-0.08112503178813668,-0.9966489735035836,-0.009502617157132999,0.0,0.004365497476425562,0.009178733359522892,-0.9999483453087455,0.0,0.3993707909285649,-0.08363384306734994,0.30509461304344765,1.0,-0.27998,-0.3679737142857144,-1.17686727,2.2179999999998685
-0.0890213443671743,-0.4146627238147931,-0.13306689536337515,-2.55840519278171,-0.052150979478905415,2.1492870734366543,0.7038894512085838,-1.0160792686330622,-0.6364424981049872,-0.011189659923868639,-0.5419122058930483,-0.08817720564606289,-0.080989212782157,0.21944706421299245,0.9948817917019692,-0.10087263595801838,0.003959640888920937,0.0,-0.1008317416889764,-0.9948490279689772,-0.009440249909691686,0.0,0.004891601960438197,0.008992848397174236,-0.9999475990810549,0.0,0.39471308206929956,-0.08982772532825349,0.3052109523805599,1.0,-0.27998,-0.3679737142857144,-1.17686727,2.2349999999998666
-0.10670306671928767,-0.4252683938448021,-0.13329203813748694,-2.5675517388055162,-0.05373541894821714,2.1476395432541593,0.7075325434778628,-1.038466403892202,-0.6124460866036268,-0.003760379691018864,-0.5332189739931429,-0.10089745137046291,-0.10286780227121488,0.20112514524588826,0.9926473630236666,-0.1209057439064713,0.0037095382182061524,0.0,-0.12086623365064952,-0.9926138375676312,-0.009479975399502145,0.0,0.0048284154062278595,0.008962087216777909,-0.9999481823561578,0.0,0.38989200454140177,-0.0960865830727574,0.30513415886722917,1.0,-0.27998,-0.3679737142857144,-1.17686727,2.2519999999998648
-0.12454986493495204,-0.43551723584019647,-0.1335708885436201,-2.5762210042450824,-0.05530911887004955,2.1459672978619704,0.710719914228205,-1.0437255813843802,-0.6019972896679723,-0.013937158877254385,-0.49164697033308186,-0.09679869533417496,-0.09510581897272516,0.18367480959235777,0.9900403395747184,-0.140670587716408,0.0035579021212867683,0.0,-0.1406317141589366,-0.9900067718351131,-0.009489973369082378,0.0,0.004857400844860638,0.00889527384434119,-0.9999486385611345,0.0,0.3851028828266094,-0.1023301524460141,0.3050951035256963,1.0,-0.27998,-0.3679737142857144,-1.17686727,2.268999999999863
-0.14264640396876344,-0.44547043953263293,-0.13373868070426867,-2.584262955132427,-0.05678898462633078,2.1445063120783154,0.7136620463689589,-1.0791671631551072,-0.5803089559676138,-0.003615061016943962,-0.4691002065812907,-0.09106710664537149,-0.09217651364643697,0.1651604993247377,0.9870406837340807,-0.16036146523607758,0.003954241053015416,0.0,-0.16031872110872591,-0.9870103939766446,-0.009441225838819688,0.0,0.005416990122599219,0.008685102353794993,-0.9999476112352665,0.0,0.38045075715159943,-0.10855865382796363,0.3052144196350511,1.0,-0.27998,-0.3679737142857144,-1.17686727,2.285999999999861
-0.1600629269256678,-0.4543751984910079,-0.133963854293388,-2.591731400909262,-0.05816534055694093,2.1427696014920343,0.7161092283791836,-1.09181701536712,-0.5550388153192165,-0.011399578536715626,-0.4509275630508971,-0.07856929730602988,-0.11638982037904816,0.14963511815803734,0.9838397445147871,-0.17896112741671394,0.0036081696225777277,0.0,-0.1789208051095545,-0.9838084035381984,-0.0094402080368115,0.0,0.005239278741750564,0.008642241639191695,-0.9999489295047604,0.0,0.3758839163828234,-0.11445155573959517,0.30513062482016917,1.0,-0.27998,-0.3679737142857144,-1.17686727,2.3019999999998593
-0.1787239665556509,-0.46342688440942004,-0.1342606497865265,-2.5991879371460094,-0.059472200534651305,2.141136216055605,0.7184039345313176,-1.1105044398898034,-0.5258671807717055,-0.02030175651395684,-0.4255239553694089,-0.075596317107715,-0.1025590793391748,0.12955043878198366,0.9800521072148021,-0.19866091052702006,0.0035294013103634374,0.0,-0.1986202171598292,-0.980020477366434,-0.009519463170657282,0.0,0.005350133784865652,0.008628725614954508,-0.9999484592531487,0.0,0.3711070857814721,-0.12070076155979319,0.30509199687749444,1.0,-0.27998,-0.3679737142857144,-1.17686727,2.3189999999998574
-0.19760655108128333,-0.47213748042381887,-0.1344718667275525,-2.606022756019906,-0.060734502246986954,2.1395649650243684,0.7204092120006916,-1.1289758984024696,-0.49608450452258995,-0.019744269814849835,-0.38120546834847313,-0.06839210177651106,-0.08754107231753593,0.10536043138317092,0.9758885953705063,-0.21819208765427306,0.0037959467934263426,0.0,-0.21814849470574743,-0.975859272100225,-0.00952167080104506,0.0,0.0057819744257256445,0.008464172826198796,-0.9999474618949281,0.0,0.36642013806833007,-0.12694370523024115,0.3051880097248576,1.0,-0.27998,-0.3679737142857144,-1.17686727,2.3359999999998555
-0.21676444012448007,-0.4802994147456985,-0.13468388922993976,-2.6125754487065875,-0.06200953521893945,2.1379824999337043,0.7221718846150792,-1.0970536381820561,-0.4655146544778598,-0.005029186770134847,-0.388258428209832,-0.06376089132127752,-0.10414630147145598,0.1007102223170193,0.9713280427503089,-0.23767256520372532,0.003785765119922861,0.0,-0.23762878127030718,-0.9712999605336774,-0.009470790910658106,0.0,0.0059281748175504245,0.008299797843751927,-0.9999479836966948,0.0,0.3616706501622668,-0.13318873325185138,0.30517892926743884,1.0,-0.27772171428577075,-0.36500568163272734,-1.166732107426539,2.3529999999998537
-0.23591188908884372,-0.4878501921467803,-0.13484651066667488,-2.618731045198257,-0.06312719332619761,2.13631701061499,0.7234972495377557,-1.10684752930379,-0.4244497733043873,-0.005126307974252063,-0.3502461489564735,-0.0670319760547066,-0.08358956179543701,0.06799901998656839,0.9664795862175135,-0.25668225529135985,0.0034894332739238043,0.0,-0.25664032456505786,-0.9664505489918165,-0.009477713952555263,0.0,0.005805237464412638,0.008264646891248756,-0.9999489961141742,0.0,0.35692736959970917,-0.1393082701410553,0.3050926405761894,1.0,-0.2711548571429143,-0.3563749551021161,-1.1372601215213993,2.369999999999852
-0.25498471224366304,-0.49479941567494157,-0.1350370159486621,-2.6242451029761926,-0.06411788834605989,2.13487959235473,0.7244878128651773,-1.1244274503997245,-0.41178960910974294,-0.008941600308224775,-0.3080279828671814,-0.05452129985930078,-0.07871361478698914,0.0471926968402312,0.9613350824162183,-0.2753245203481675,0.0034662244679962723,0.0,-0.27528202530307966,-0.9613064486090801,-0.009511325293606996,0.0,0.0059509195813917115,0.008189539067316787,-0.9999487576901133,0.0,0.3523282841508678,-0.1453712765552293,0.30507423813558593,1.0,-0.2645880000000579,-0.3477442285715048,-1.1077881356162598,2.38699999999985
-0.2726943862336172,-0.5008460798742747,-0.13503619804720063,-2.6288606946069826,-0.06489308653017715,2.1335877539311077,0.7251290485746863,-1.092614602393762,-0.3660751397606366,-6.45436032815287e-05,-0.27662182458184065,-0.04465766648756592,-0.0787919417629961,0.03788926024750254,0.956331872856937,-0.29222794994879553,0.003594597039443922,0.0,-0.29218388763660563,-0.9563047390365412,-0.009516764314652617,0.0,0.006218714439087114,0.008051056710888266,-0.9999482526993901,0.0,0.3481528020636011,-0.15089942735981185,0.3051300343719904,1.0,-0.25840742857148713,-0.3396211918368118,-1.0800497959408344,2.402999999999848
-0.29129466716676766,-0.5066692777460811,-0.13506556445281342,-2.6332166641907473,-0.06561578436592466,2.1324162035119887,0.7255053230467543,-1.081232293571783,-0.33358105216659284,-0.001211845264439431,-0.2514987314917035,-0.04314018966417961,-0.06634001841742836,0.017294966354205604,0.9508156480002434,-0.30970191542320824,0.0038825252454279947,0.0,-0.30965493628917246,-0.9507910149905275,-0.009540081039459422,0.0,0.006646179449589562,0.007868766726137538,-0.9999469539975274,0.0,0.3438502378274576,-0.15668461524995542,0.30521971230806166,1.0,-0.2518405714286307,-0.33099046530620047,-1.0505778100356946,2.4199999999998463
-0.30855440450252714,-0.5116171749714772,-0.13507369755221274,-2.6370417831295163,-0.06620986038608986,2.1312511256203983,0.7256596732355515,-1.0636610086908456,-0.3005932444217647,0.002161518346368995,-0.22770230370069675,-0.03689664093477853,-0.07067401010345983,0.0038104948437833928,0.9454644016093654,-0.3256732777143583,0.003837756302784979,0.0,-0.32562591731686347,-0.9454398904515471,-0.009587617833775049,0.0,0.006750928800182077,0.007815228908910732,-0.9999466721567888,0.0,0.3398196863165038,-0.16196877151187564,0.3052166751568612,1.0,-0.24566000000005997,-0.3228674285715075,-1.0228394703602692,2.4359999999998445
-0.32749848068372867,-0.5165435813711379,-0.1349603520410059,-2.640942491491373,-0.06675634518764084,2.1300101635710345,0.7256602512226613,-1.0390205144495543,-0.26632307735595406,0.002249463276417129,-0.20336113464783623,-0.03135901447711635,-0.06326360930169932,-0.00424752651627883,0.9393518068790763,-0.3429078334729798,0.003625956024269688,0.0,-0.34286142589920776,-0.9393264443541949,-0.009623952850889607,0.0,0.006706214316613501,0.007797227167858273,-0.9999471135705291,0.0,0.33541121582232125,-0.16766675348653742,0.3051601015195191,1.0,-0.2387068571429179,-0.3137290122449779,-0.9916338382254155,2.4539999999998425
-0.34505961282159603,-0.5205947740593582,-0.13485471461285908,-2.6441015127993226,-0.0672538527803267,2.12908385711753,0.725491479374609,-1.0187999148558493,-0.23109881050186495,0.013505006948025868,-0.17728503801869272,-0.020378648700856747,-0.0524270136980677,-0.016983580909752143,0.9334521817177936,-0.3586570159173293,0.003593922755924168,0.0,-0.3586106408873966,-0.9334276176082164,-0.009593634857973923,0.0,0.00679562204267431,0.007666528050399829,-0.999947520557307,0.0,0.331406110666043,-0.17294849421333758,0.30513895841104355,1.0,-0.23214000000006146,-0.3050982857143666,-0.9621618523202758,2.4709999999998407
-0.36136812070672586,-0.5240722655740075,-0.1347578024122469,-2.6466639392838855,-0.06762874206134625,2.1282897806637107,0.7250515420072776,-1.0122651408075503,-0.2077018666270717,0.005727128133125707,-0.15749780923103932,-0.020854789993487027,-0.05041906612052544,-0.03481415924033464,0.9278151567671753,-0.3729958916982068,0.003721095345475382,0.0,-0.3729481996191304,-0.9277922121388025,-0.009591579465611746,0.0,0.007030158370061712,0.007511581617048124,-0.999947075106929,0.0,0.3277317676565059,-0.17783640023152458,0.3051854258850156,1.0,-0.2259594285714907,-0.2969752489796736,-0.9344235126448504,2.486999999999839
-0.37812600210438757,-0.5272164962024302,-0.134541397276227,-2.6490711106215747,-0.06792700887423184,2.1274912853222094,0.7243955101908885,-0.9831275731543652,-0.17469482168036976,0.013754152135466182,-0.13654653375991177,-0.010165719319938506,-0.042692264663240304,-0.03758007973457513,0.9218886763518103,-0.3874126138546539,0.003671776384814934,0.0,-0.3873650845985003,-0.9218662823346278,-0.009570560575912157,0.0,0.007092779292182383,0.007400815939982236,-0.9999474588223798,0.0,0.3239626161091559,-0.1827812771098717,0.30517921376752066,1.0,-0.2193925714286343,-0.2883445224490623,-0.9049515267397107,2.503999999999837
-0.3945974589825537,-0.5298932698021825,-0.1344289883900839,-2.6511944728637546,-0.06817952754739001,2.1268080331042003,0.7236353697927224,-0.9507884787794862,-0.14446459410400395,0.012564333013002213,-0.11625222742609352,-0.009731503514209408,-0.038889084312613,-0.04640078556389589,0.9158413688840773,-0.40150056316601923,0.0035541129860086587,0.0,-0.40145338131545827,-0.9158186830191052,-0.009595278252626896,0.0,0.00710756953905034,0.0073610838175730275,-0.999947647079725,0.0,0.320250385558448,-0.18764223372802757,0.30513560307753734,1.0,-0.21282571428577787,-0.279713795918451,-0.875479540834571,2.520999999999835
-0.4107136093998387,-0.532207021570201,-0.1343214678554064,-2.652984208364178,-0.0683459305658323,2.126255613292534,0.7227416686443877,-0.9476790398715405,-0.1328919262768355,0.0005162629009771227,-0.09637760695994842,0.00042627800153182066,-0.0277939256590581,-0.057025852811377314,0.9101192373773054,-0.4143080430729586,0.0035448698165284737,0.0,-0.4142602492499986,-0.9100967796458654,-0.00964595618703984,0.0,0.00722271089527271,0.007310612386912246,-0.9999471923025993,0.0,0.3168617194785673,-0.19210496197494226,0.30512355597141994,1.0,-0.20664514285720714,-0.271590759183758,-0.8477412011591455,2.5369999999998334
-0.4253672109980351,-0.5340227216548186,-0.1341053722703467,-2.654358426978963,-0.0684608077793315,2.1258168833125692,0.7217433157496429,-0.8999136142984211,-0.10818271813041908,0.012442958119256642,-0.08025154018298669,-0.003070879926176928,-0.028444073508572053,-0.06618711570537932,0.9041449391846397,-0.4271884860656352,0.0035599467640803823,0.0,-0.42714038949498767,-0.9041233904529546,-0.009629610539015484,0.0,0.007332431057755662,0.0071861049425676615,-0.9999472962864282,0.0,0.31340779916268857,-0.19665932984920126,0.30512475875189227,1.0,-0.2000782857143507,-0.2629600326531467,-0.8182692152540059,2.5539999999998315
-0.44060911791225804,-0.5356857419700183,-0.13396198158852926,-2.6555991452452195,-0.06856445245964922,2.1254203696282774,0.7205791401187304,-0.8828855374110687,-0.09767685759206374,0.017852652771520615,-0.07178776526604864,-0.011376828048413161,-0.019399963444747103,-0.06956130863231656,0.8981585481316777,-0.43963506466602376,0.003602670579744966,0.0,-0.43958630301134327,-0.8981379179920065,-0.009638950721494236,0.0,0.007473459664717241,0.007073757536164876,-0.9999470532758019,0.0,0.3100214766052464,-0.20111014334822186,0.30513485157578946,1.0,-0.19351142857149428,-0.25432930612253546,-0.7887972293488663,2.5709999999998296
-0.4552337520669347,-0.5370020075619164,-0.13368866865199983,-2.6565920458419043,-0.06861110473863481,2.125078076661821,0.719381736142559,-0.8382018283979707,-0.07008106989556671,0.018221294861168417,-0.052669106663418334,-0.004691032924520482,-0.020717878474932016,-0.07206047442772534,0.8923239171726322,-0.4513599375155411,0.0036028528785884326,0.0,-0.45131123202792167,-0.8923042265382275,-0.009596147594915987,0.0,0.007546302719702858,0.006936997598911171,-0.9999474643097883,0.0,0.3067932960499696,-0.2053291614099195,0.30513885563252074,1.0,-0.18694457142863785,-0.24569857959192415,-0.7593252434437268,2.5879999999998278
-0.46962978081834184,-0.5379715500005922,-0.13350015303375704,-2.657352745262914,-0.06862011297956257,2.1248014831916873,0.7181243008418363,-0.8151700351131711,-0.043940703489803196,0.0179761491317103,-0.03923542012835706,0.0004997513118417122,-0.014800148781008611,-0.0842980763073413,0.8864193842772878,-0.46284856018763787,0.0035542103079409092,0.0,-0.46279994196032154,-0.8863999579756919,-0.009595578326648981,0.0,0.00759189764780821,0.006860950402418742,-0.9999476438542574,0.0,0.30360899319745016,-0.20949715454185402,0.3051255886750972,1.0,-0.18037771428578142,-0.23706785306131284,-0.7298532575385871,2.604999999999826
-0.4833601642321578,-0.5386233231672891,-0.13327786277006382,-2.6578804649480627,-0.06860925878019422,2.1246092005911437,0.7167390253171301,-0.78991753278235,-0.032374645719296234,0.012055930661414277,-0.023062221364589547,0.0026453179437110714,-0.010844461544946058,-0.07821114229349899,0.880743887573342,-0.473559566084095,0.0035055347164530304,0.0,-0.47351131217590514,-0.8807249161362543,-0.009560661036187865,0.0,0.00761510087522449,0.006760713590003881,-0.9999481501510037,0.0,0.30058647468278776,-0.21346188473910152,0.30511091260662504,1.0,-0.17381085714292502,-0.22843712653070156,-0.7003812716334474,2.621999999999824
-0.4959738684868877,-0.5390129925406558,-0.13306655115646596,-2.6582029964468834,-0.06858749115543943,2.124461152117509,0.7155014740686763,-0.7567036132259349,-0.013777448263374719,0.019603307824627967,-0.012738193424943105,0.004384353713108337,-0.00928924292613401,-0.07740609211614417,0.8750836812659571,-0.48393950396735075,0.003442990424503838,0.0,-0.4838918485714875,-0.8750651534576362,-0.009508048771451932,0.0,0.007614307949348587,0.006654431437877223,-0.9999488691211622,0.0,0.29764908632594467,-0.21731156555839584,0.30510026200835916,1.0,-0.16724400000006862,-0.21980640000009025,-0.6709092857283079,2.638999999999822
-0.5087555614310506,-0.5392151778768712,-0.13279286069761234,-2.6583967317687995,-0.0685200718572349,2.124403468264042,0.7140509370032648,-0.7457185005363522,-0.011746440251923009,0.010938544343003957,-0.01300916145764636,0.004516362742980217,-0.0045896134447762854,-0.0850394466929386,0.8699655078371098,-0.4930812479192782,0.0034124808124590686,0.0,-0.49303402918075356,-0.8699476133711564,-0.00945214054218195,0.0,0.007629499684032093,0.006540693011067161,-0.9999495037598181,0.0,0.2950091735135164,-0.22076719202341819,0.30508500615620476,1.0,-0.16106342857149786,-0.21168336326539727,-0.6431709460528823,2.6549999999998204
