nelsonifechukwu/NELSON_IML_WORK/CNN-GradCAM/train2dof/data_sample_2022-02-21-07-58-16/robot_state.csv
position_joint1,position_joint2,position_joint3,position_joint4,position_joint5,position_joint6,position_joint7,velocity_joint1,velocity_joint2,velocity_joint3,velocity_joint4,velocity_joint5,velocity_joint6,velocity_joint7,ee_T_00,ee_T_10,ee_T_20,ee_T_30,ee_T_01,ee_T_11,ee_T_21,ee_T_31,ee_T_02,ee_T_12,ee_T_22,ee_T_32,ee_T_03,ee_T_13,ee_T_23,ee_T_33,v_x,v_y,time
0.465098930806,0.547533975066,-0.123996345275,-1.35574825364,0.0794392749671,1.89411018327,0.159150106461,-0.00138999661236,-0.00177465072275,-0.000308060726234,-0.00233628545282,-4.5876966208e-05,-1.89806948085e-05,-0.000677600106958,0.573761991738,0.819007366279,0.0022040234189,0.0,0.818968210769,-0.573703113979,-0.0116856177666,0.0,-0.00830631185392,0.0085099522833,-0.999929290448,0.0,0.661703613584,0.260906831555,0.303430831374,1.0,0.0,0.0,0.0
0.465098575436,0.547544199124,-0.123989210085,-1.35574533676,0.0794380940316,1.89411084367,0.159152016387,-0.000921904239921,0.00346129132524,0.00101550324922,-5.8459335226e-05,0.000178594644084,0.000202043881807,0.00082539866514,0.573758413186,0.819009886618,0.00219905013324,0.0,0.818970645431,-0.573699532792,-0.0116908039881,0.0,-0.00831345007443,0.00850881847317,-0.999929240775,0.0,0.661702664138,0.260910790412,0.303424795842,1.0,-0.00026,-0.000341714285714,0.014
0.465102805961,0.547530794391,-0.12399871612,-1.3557461676,0.0794390724307,1.89411013532,0.159145325798,0.00310992191512,-0.000798606230994,-0.00153523165919,-0.0016792549973,0.00038899147402,2.177249808e-05,-0.00151939253067,0.573756384864,0.819011283857,0.00220785961116,0.0,0.818972193065,-0.5736975088,-0.0116817071991,0.0,-0.00830096627139,0.00851079357848,-0.999929327679,0.0,0.661703711145,0.26090827772,0.303434151638,1.0,-0.00052,-0.000683428571429,0.027
0.4651003486,0.547494011444,-0.123993786759,-1.35577859704,0.0794380925591,1.8941143454,0.159150937437,0.000152218545591,-0.00660965284131,-6.89360922132e-05,-0.005574506601,9.00625489094e-05,0.000296627494616,0.00114722997329,0.573761021868,0.819008009192,0.00221755848979,0.0,0.81896900232,-0.573702066128,-0.0116815863793,0.0,-0.00829525462676,0.00851871461368,-0.999929307627,0.0,0.66169765227,0.260906265575,0.303444973409,1.0,-0.00092,-0.00120914285714,0.047
0.465102420963,0.547408273946,-0.12399101249,-1.35585386071,0.0794380920662,1.89412622811,0.15914928947,1.2724824985e-05,-0.00935230059055,0.00069925142478,-0.0110689639771,-5.40357201628e-05,-0.000287562092344,-0.000458926879558,0.573760070025,0.819008611138,0.00224138961084,0.0,0.818969840135,-0.573700950511,-0.0116776381522,0.0,-0.00827835823828,0.00853595731885,-0.99992930061,0.0,0.66168385447,0.260902242442,0.303470824712,1.0,-0.00116,-0.00152457142857,0.059
0.465096838942,0.547239616497,-0.123997029705,-1.35608071087,0.0794333033531,1.89416754504,0.159141103154,0.00058281438492,-0.00748180357474,-0.00190618836752,-0.00976530248246,-0.000351277409935,0.000398168071543,-0.00453776493013,0.573773246505,0.818999404378,0.00223251543863,0.0,0.818960415928,-0.573714052987,-0.0116948471457,0.0,-0.00829740711674,0.0085386965827,-0.999929119336,0.0,0.661647645898,0.260872377195,0.303486093634,1.0,-0.0016,-0.00210285714286,0.081
0.465078008611,0.54711504096,-0.123991749039,-1.35623372828,0.0794272388727,1.89423082613,0.159141646708,-0.00169753516811,-0.0124786282875,0.00132409862492,-0.011205933215,0.000224697950084,0.00628354247747,0.0005531868059,0.57379237638,0.818985911751,0.00226540566241,0.0,0.818947306623,-0.573733013524,-0.0116826823915,0.0,-0.00826837346434,0.00855884674186,-0.999929187564,0.0,0.661632512114,0.260849765316,0.303506811386,1.0,-0.00186,-0.00244457142857,0.094
0.465047511248,0.546882824043,-0.123986711474,-1.35649706501,0.0794249177659,1.89439916132,0.159127372333,-0.0013976992778,-0.0120648048276,0.00347743563302,-0.0161247305809,0.000289797979637,0.0014006650282,-8.20087183053e-05,0.573814803481,0.818969871227,0.00238080436991,0.0,0.818932741839,-0.573754997173,-0.0116238747467,0.0,-0.00815376178511,0.00861983601245,-0.99992960482,0.0,0.661619003875,0.260816704011,0.30355848473,1.0,-0.00226,-0.00297028571429,0.114
0.465023299296,0.546725979553,-0.123991748979,-1.3566915193,0.0794175374756,1.89448774106,0.159121256245,-0.00263776004217,-0.0132225522081,-0.000263333671919,-0.0149120983594,0.000119782660703,-0.000159902626452,0.000789788111875,0.573843918533,0.818949314543,0.00243398325537,0.0,0.818912855818,-0.573783901094,-0.0115981171684,0.0,-0.00810184568325,0.00864889570024,-0.999929775884,0.0,0.661603854164,0.260780234681,0.303586779531,1.0,-0.00254,-0.00333828571429,0.128
0.464978267839,0.546446393606,-0.123989255125,-1.35710527699,0.0793970432946,1.8946515284,0.159087305746,-0.00351445802644,-0.0108228466316,0.00635211290381,-0.0196819298611,-0.000586405511302,0.00748039249152,-0.00361839445749,0.573869009174,0.818931649548,0.00246182418825,0.0,0.818895514959,-0.573808852359,-0.0115880730125,0.0,-0.00807737874958,0.00866617961508,-0.999929824179,0.0,0.661561304955,0.260714247009,0.303601944902,1.0,-0.00294,-0.003864,0.148
0.464948842272,0.546228290947,-0.123991749087,-1.35741552017,0.0793819745939,1.89476195856,0.159001975892,-0.000194622855284,-0.0143684497104,0.00134727301833,-0.0194703056444,-0.000316261293357,0.0114752728809,-0.0153864288867,0.573838260541,0.81895314135,0.00247990207525,0.0,0.818917211341,-0.573778013,-0.0115818681179,0.0,-0.00806224921598,0.00867712060792,-0.999929851397,0.0,0.661526986117,0.260664431345,0.303618366549,1.0,-0.0032,-0.00420571428571,0.161
0.464895563287,0.545876292798,-0.123990070659,-1.35799407688,0.0793298057516,1.89495656481,0.158924696562,-0.00130896496708,-0.0124579202582,0.000314650276435,-0.02625890923,-0.00465333783966,0.0105185244931,-0.0013001731776,0.573835856979,0.818954934643,0.00244359795051,0.0,0.818918644258,-0.573775853713,-0.0115875227683,0.0,-0.00808773716516,0.00865061052979,-0.999929875264,0.0,0.661458722631,0.26057086398,0.303608968746,1.0,-0.00362,-0.00475771428571,0.182
0.464863114736,0.545631374507,-0.123994941447,-1.35840151622,0.0792970066529,1.89509945126,0.158898073363,-0.0024832073856,-0.0196092051616,-0.000522344698589,-0.0351646315458,-2.48704991425e-05,0.00872997159534,-0.00213504647187,0.573858081383,0.818939430277,0.00242051013933,0.0,0.81890292329,-0.573798244066,-0.0115898332635,0.0,-0.00810264298309,0.00863324852586,-0.999929904642,0.0,0.66141154678,0.260505820131,0.303600946121,1.0,-0.00388,-0.00509942857143,0.195
0.464796519458,0.545217117454,-0.123998141319,-1.35911385476,0.0792687195377,1.89532941367,0.158781904,-0.00224753371932,-0.0254678049236,0.00069745067676,-0.0381313874989,-0.0016151403021,0.0159274552565,-0.0103053937633,0.573851867134,0.818943932613,0.0023699629695,0.0,0.818906607482,-0.573792036742,-0.0116367390706,0.0,-0.00817012827825,0.00861870871506,-0.999929480946,0.0,0.661324390469,0.260391830935,0.303575172034,1.0,-0.00428,-0.00562514285714,0.215
0.464749269057,0.544907657132,-0.12399037269,-1.35963403658,0.0792449288949,1.89549280259,0.158726207453,-0.00676207427934,-0.0276407823754,0.00171155035786,-0.0391729789341,-0.0026154318303,0.00957544644797,-0.0032008373605,0.573862087894,0.818936868426,0.00233591779289,0.0,0.818898956546,-0.573802226732,-0.011672637552,0.0,-0.00821895665246,0.00861153059863,-0.999929142636,0.0,0.661257461565,0.260314634865,0.303560513862,1.0,-0.00454,-0.00596685714286,0.228
0.464668327481,0.544377783058,-0.124003168149,-1.36055271123,0.079199261678,1.89580562899,0.158622649273,-0.00153844550776,-0.0223751463045,-0.000437849493075,-0.0439339235642,-0.00118545360936,0.0156646559288,-0.00819360804209,0.57389156786,0.818916388757,0.00227232599848,0.0,0.818877584021,-0.573831867486,-0.0117148259537,0.0,-0.0082896894959,0.00858396192539,-0.999928795788,0.0,0.661149184145,0.260165448609,0.303525771386,1.0,-0.00498,-0.00654514285714,0.25
0.464618391169,0.544044997558,-0.123998918516,-1.3610860896,0.0791740506334,1.89599383704,0.1585458924,-0.00583194846269,-0.0283418762365,0.000949060726182,-0.0464554480431,-0.000998112464491,0.0130737519952,-0.00761847146606,0.573889613006,0.818917774416,0.00226665631011,0.0,0.818878796439,-0.573829831026,-0.011729819659,0.0,-0.00830524270368,0.00858790379965,-0.999928632879,0.0,0.661086239195,0.260084645159,0.303523552258,1.0,-0.00522,-0.00686057142857,0.262
0.464535421268,0.543436746378,-0.124004458323,-1.36209813318,0.079121426384,1.89635048202,0.158427378793,-0.00556882686232,-0.0338361035091,0.00204541455302,-0.0466634962406,-0.000395054099975,0.0168424542683,-0.00838595304237,0.573906710935,0.81890589592,0.00222882760307,0.0,0.818866345161,-0.573846986202,-0.0117597657766,0.0,-0.00835129631461,0.00857428549309,-0.999928366173,0.0,0.660966288802,0.259930129007,0.303503274654,1.0,-0.00564,-0.00741257142857,0.283
0.464482716185,0.54307286718,-0.124004613204,-1.3626881844,0.0790743710083,1.89656155816,0.158361354994,-0.00341541317455,-0.033104496914,8.95216487053e-05,-0.0513339803428,-0.00352785321151,0.0163343531057,-0.0105999406332,0.57391619323,0.818899303781,0.0022091439422,0.0,0.818859584492,-0.573856631916,-0.0117598381076,0.0,-0.00836255234187,0.00855830498421,-0.999928409004,0.0,0.660898477366,0.259836650853,0.303498099538,1.0,-0.00588,-0.007728,0.295
0.464394574704,0.542372086941,-0.12401075905,-1.36380239192,0.0790087631871,1.8969476154,0.158212239212,-0.00470609563832,-0.0326624139509,-0.000510770384007,-0.0535603314526,-0.00680419245425,0.0209062597682,-0.00243448131012,0.573914882628,0.818900285597,0.00218555437263,0.0,0.81886022902,-0.573855380677,-0.0117760051826,0.0,-0.00838934339159,0.00854825276667,-0.999928270573,0.0,0.66076520657,0.259667365103,0.303497053293,1.0,-0.0063,-0.00828,0.316
0.464335991916,0.541916357424,-0.124014421188,-1.36450645653,0.078968041286,1.89721864225,0.158109694781,-0.0051101232998,-0.0367567205081,-0.000661073915233,-0.0633819507074,-0.00447991860544,0.0271442719962,-0.0109309724737,0.573909762418,0.818903823227,0.00220449705999,0.0,0.818864021631,-0.573850197256,-0.0117648667135,0.0,-0.00836940439568,0.00855731994357,-0.999928360107,0.0,0.66068728478,0.259560747695,0.303507809443,1.0,-0.00656,-0.00862171428571,0.329
0.464230937133,0.541146230708,-0.124011616512,-1.36569004095,0.0788969534748,1.89765649964,0.157956908699,-0.00262987516333,-0.0365808862536,0.000651373324443,-0.0572696135995,-0.00020408529947,0.0155803356596,-0.00833213427527,0.573915392459,0.818899819298,0.0022260172882,0.0,0.818860270053,-0.573855716409,-0.0117567757006,0.0,-0.00835036952159,0.00857035666395,-0.999928407595,0.0,0.660552455617,0.259380799554,0.303526778983,1.0,-0.00698,-0.00917371428571,0.35
0.464165907665,0.540628323945,-0.124016283276,-1.36648072487,0.0788605041344,1.89794994669,0.15785685523,-0.00159761687174,-0.037473274263,6.85490864912e-05,-0.0557757117867,-0.00536106252862,0.0230964369865,-0.00645147094161,0.57392407132,0.818893674922,0.00224865154338,0.0,0.818854337645,-0.57386422365,-0.0117547197583,0.0,-0.00833560547462,0.00858780003285,-0.999928381121,0.0,0.660462071897,0.259262098223,0.303542118292,1.0,-0.00724,-0.00951542857143,0.363
0.464048706293,0.539786542341,-0.124021898796,-1.36777314083,0.0787707450158,1.89842475285,0.15768576015,-0.00758386347049,-0.0463520925633,-0.00120312269384,-0.0630877167275,-0.00994762821563,0.0226626966095,-0.00975423256048,0.573931394295,0.818888507264,0.00226146278912,0.0,0.81884945091,-0.57387161541,-0.0117342521034,0.0,-0.00831141490535,0.00858661855287,-0.999928592633,0.0,0.660317050987,0.259056780009,0.30356315147,1.0,-0.00764,-0.0100411428571,0.383
0.463975633272,0.539255431932,-0.124018144771,-1.36859796746,0.0787158744137,1.89873231706,0.15758754657,-0.00346727670169,-0.0453180926829,0.000144536410958,-0.0649594039756,-0.00337013616847,0.0252467377775,-0.00902248328391,0.573939118901,0.818883067077,0.00227093633192,0.0,0.818844155776,-0.573879326239,-0.0117266520241,0.0,-0.00829967315833,0.00859009265977,-0.999928660322,0.0,0.660222826366,0.258931766749,0.303572328282,1.0,-0.00788,-0.0103565714286,0.395
0.46384535341,0.538270921063,-0.124029688024,-1.37012106571,0.078655960624,1.89931541582,0.157392536309,-0.00421546203434,-0.0490419374677,-0.000514054976779,-0.0700637429095,-0.00597777996808,0.0275582265488,-0.00483243391033,0.573962456276,0.818866565077,0.00232256013483,0.0,0.818828110904,-0.573902246156,-0.0117253380267,0.0,-0.00826872399461,0.00863184753192,-0.999928557154,0.0,0.660052368843,0.25870105695,0.303593777244,1.0,-0.00832,-0.0109348571429,0.417
0.463754203619,0.5377333169,-0.124033598573,-1.37099187901,0.078594947907,1.89965179321,0.157295092719,-0.00921198735288,-0.0465755520086,-0.00126353899141,-0.0753442016474,-0.0039782442999,0.0223289163254,-0.00981055740084,0.57398793415,0.818848704707,0.00232317689995,0.0,0.818810389495,-0.573927855342,-0.0117093901601,0.0,-0.00825504196488,0.00862345607873,-0.999928742605,0.0,0.659950922682,0.25854481907,0.303593932877,1.0,-0.00858,-0.0112765714286,0.43
0.463618490829,0.536653680626,-0.124044971451,-1.37264916305,0.0784963297509,1.90026727052,0.15709321996,-0.00343951406009,-0.0564306483073,-0.000625852974265,-0.0755669511231,-0.00258747100868,0.0270168218662,-0.00849555211616,0.574010534365,0.818832791568,0.00234793355998,0.0,0.818794798704,-0.573950362512,-0.0116964049787,0.0,-0.00822996107434,0.00863650173798,-0.999928836757,0.0,0.659770099741,0.258302375007,0.303615352138,1.0,-0.009,-0.0118285714286,0.451
0.463530383803,0.536020704546,-0.124048113029,-1.3736667239,0.0784459698865,1.90065531888,0.156965249874,-0.00350591105231,-0.0493594617958,-0.000337338624845,-0.0791475872293,-0.00647612965668,0.035260975057,-0.0160711094217,0.574022697476,0.818824245115,0.00235484511273,0.0,0.818786263147,-0.573962415969,-0.0117024457664,0.0,-0.00823081219921,0.00864575077354,-0.999928749824,0.0,0.659654392385,0.258148122313,0.303611553024,1.0,-0.00926,-0.0121702857143,0.464
0.463375880378,0.53482442416,-0.124053540693,-1.37555512362,0.0783217277601,1.9013297459,0.156734335132,-0.00272044934721,-0.045041324809,0.00110818574459,-0.0744874991677,-0.00211874442289,0.0304798038936,-0.00902705203968,0.57403414606,0.818816282431,0.00233274174299,0.0,0.818778073194,-0.573974007152,-0.0117069582353,0.0,-0.00824707367669,0.0086303577243,-0.999928748812,0.0,0.659429908328,0.257860286911,0.303615451338,1.0,-0.00972,-0.0127748571429,0.487
0.463294979502,0.534292730524,-0.124060957187,-1.37642453852,0.0782831796494,1.90164665806,0.15663204219,-0.00981393664238,-0.0545000699208,-0.000585982289879,-0.0798774521554,-0.00359111646088,0.0325791008663,-0.0068534058213,0.574059209732,0.818798746922,0.00232005647368,0.0,0.818760268859,-0.573999005967,-0.0117264737527,0.0,-0.00827007112932,0.00863142649928,-0.999928549647,0.0,0.659329734509,0.257721672285,0.303604445586,1.0,-0.00992,-0.0130377142857,0.497
0.463126493129,0.533102281338,-0.124062051334,-1.37833831545,0.0781763830642,1.90235308042,0.156393616262,-0.00766331437117,-0.0563268658556,0.000812703855556,-0.0846814200142,-0.00512134628421,0.0335666977569,-0.0146651877986,0.574078849385,0.818785009358,0.00230868818899,0.0,0.818746283183,-0.574018580982,-0.0117447589699,0.0,-0.00829136229934,0.00863281379793,-0.999928361353,0.0,0.659106312111,0.257429073959,0.303594374529,1.0,-0.01036,-0.013616,0.519
0.463036222067,0.532435968527,-0.124067376237,-1.37941758483,0.078107675271,1.90276160183,0.156257192442,-0.00272743052262,-0.0540669586804,-0.000892772156814,-0.0918700373268,-0.00850369812448,0.0292400978278,-0.0147483524697,0.574085413946,0.818780430389,0.00230026266594,0.0,0.818741646931,-0.574025230651,-0.0117429577925,0.0,-0.00829465492579,0.00862494768569,-0.999928401925,0.0,0.658982244344,0.257263725341,0.303586026091,1.0,-0.0106,-0.0139314285714,0.531
0.46286722154,0.531243233369,-0.124062749778,-1.3813409099,0.0779958205445,1.90346949458,0.156015118566,-0.00894042271418,-0.0561999027366,0.000745616648802,-0.0867667046907,-0.0144781411192,0.0376553918162,-0.015943335568,0.574097193078,0.818772219818,0.0022829486616,0.0,0.818733116914,-0.57403697557,-0.0117635388686,0.0,-0.00832132209854,0.00862270633243,-0.999928199689,0.0,0.658755048385,0.256972357068,0.30357246547,1.0,-0.01102,-0.0144834285714,0.552
0.46277616882,0.530512526126,-0.124068040575,-1.38251422785,0.0779306643878,1.90387257516,0.155858475552,-0.00776678718589,-0.0650463829414,-0.00134131310825,-0.103382435065,-0.00693847796906,0.0377825037787,-0.0111368286478,0.57409340797,0.818774960282,0.00225171985143,0.0,0.818735364441,-0.574033220191,-0.0117903363912,0.0,-0.00836123119277,0.00861248289012,-0.99992795488,0.0,0.658609051973,0.256796444518,0.303563977752,1.0,-0.01126,-0.0147988571429,0.564
0.462600801763,0.529231589245,-0.124073716215,-1.38453773292,0.0777895203592,1.90461562883,0.155589389357,-0.00721966951924,-0.0633138534763,-0.000841609943292,-0.0957854623865,-0.00490315574559,0.0365407955967,-0.0147585839317,0.574092537521,0.81877560331,0.00223979656121,0.0,0.81873600699,-0.574032554624,-0.0117781148741,0.0,-0.00835807788895,0.00859569544208,-0.999928125694,0.0,0.658372324091,0.256481899286,0.303567665607,1.0,-0.01168,-0.0153508571429,0.585
0.462495113683,0.528400575512,-0.124074387326,-1.38582788734,0.0777173381888,1.90510460558,0.155411194081,-0.00663934193987,-0.0647163611126,-0.000520496602043,-0.100306569861,-0.00621273059318,0.0401152337492,-0.00472561358913,0.574084235905,0.818781347136,0.00226772331982,0.0,0.818742062338,-0.574024094361,-0.0117695094625,0.0,-0.00833508746418,0.0086135361517,-0.999928164076,0.0,0.658221212006,0.256291195474,0.303581150096,1.0,-0.01194,-0.0156925714286,0.598
0.462325598748,0.52709572421,-0.124071641663,-1.3878607866,0.0775832252872,1.90589186997,0.155129492544,-0.0062435945088,-0.0690743193323,0.000345723278428,-0.103234845474,-0.00400881884161,0.0330880193021,-0.0128621656258,0.574064460906,0.818795091045,0.00231095367468,0.0,0.818756468871,-0.574004263467,-0.0117344409527,0.0,-0.00828176483596,0.00862859991726,-0.99992847726,0.0,0.657986767512,0.255988781167,0.303600160991,1.0,-0.01234,-0.0162182857143,0.618
0.462208761058,0.526206577182,-0.124080454257,-1.38924731053,0.0775004569226,1.90641348358,0.154949279956,-0.0103846419854,-0.0667419388654,-0.000559072487576,-0.109590880573,-0.00738177785453,0.0411402730471,-0.0153514644471,0.574071396994,0.818790175601,0.00232946219985,0.0,0.81875181695,-0.574011153881,-0.011721960709,0.0,-0.00826084802899,0.00863666005084,-0.999928580696,0.0,0.657825637463,0.255775880875,0.303611362007,1.0,-0.0126,-0.01656,0.631
0.462023894774,0.52476212402,-0.124092794273,-1.39150862866,0.0773511864931,1.9072281172,0.15463767381,-0.00916262068838,-0.0700387765233,-0.000848797199147,-0.111457051181,-0.00522398050857,0.0385887081031,-0.00887085338012,0.574057689369,0.818799817615,0.00231837254444,0.0,0.818761414148,-0.573997592733,-0.0117156792342,0.0,-0.00826221483391,0.00862383576916,-0.999928680088,0.0,0.657553631738,0.255428831241,0.303622028284,1.0,-0.01302,-0.017112,0.652
0.461902434631,0.523868817807,-0.124096760301,-1.3929525535,0.0772593840538,1.90774426656,0.154437248582,-0.0106451980751,-0.0673209239761,0.000418295316269,-0.11469040724,-0.00630936580321,0.0360448376984,-0.00939041679205,0.574048576196,0.81880629925,0.00228547084395,0.0,0.818767473376,-0.573988608466,-0.0117323822719,0.0,-0.00829487398208,0.00860639222668,-0.999928559987,0.0,0.657377703558,0.255207204382,0.303607742133,1.0,-0.01328,-0.0174537142857,0.665
0.461724861537,0.522430032899,-0.124100408013,-1.39522295349,0.0771226611128,1.90860225022,0.154132896616,-0.0102108888067,-0.0735977447351,0.000418233913735,-0.116480733692,-0.0128820743668,0.0481971831335,-0.014800396766,0.574042437193,0.818810577504,0.00229463971036,0.0,0.818771857747,-0.573982422424,-0.0117290498812,0.0,-0.00828694679662,0.00861192460448,-0.999928578083,0.0,0.657093864693,0.254851640154,0.303603706457,1.0,-0.0137,-0.0180057142857,0.686
0.461582672961,0.521429210226,-0.124106380886,-1.39684151237,0.0770261788867,1.90924715296,0.153920850263,-0.0120241171524,-0.0697147283454,-0.000284107792774,-0.11450518505,-0.0111591390514,0.0486245109581,-0.020497145917,0.574040226071,0.81881204113,0.0023253073826,0.0,0.818773773079,-0.573980153309,-0.0117063669155,0.0,-0.00825079275364,0.00862399224842,-0.999928773052,0.0,0.6569226002,0.254626122955,0.303601775025,1.0,-0.01396,-0.0183474285714,0.699
0.461379851888,0.519842850548,-0.124120247841,-1.39935063464,0.076868346976,1.91016593896,0.153577616629,-0.0116805112016,-0.080224870785,-0.0023406026298,-0.119134374991,-0.00467896834629,0.0439709083995,-0.0205221106611,0.574026212037,0.818821894549,0.00231512467314,0.0,0.818783549282,-0.573966236064,-0.0117049641615,0.0,-0.00825563648227,0.00861470809638,-0.999928813102,0.0,0.656618993681,0.254244697077,0.303601684064,1.0,-0.01438,-0.0188994285714,0.72
0.461249416439,0.518817581571,-0.12412068426,-1.40094048765,0.0767628849317,1.91072189875,0.153365609496,-0.00828494160361,-0.082796055986,-0.000402572469261,-0.125191755095,-0.00574232511714,0.0456111644967,-0.0169886004602,0.574015494496,0.818829438861,0.002304134254,0.0,0.818790960167,-0.573955570205,-0.0117095636472,0.0,-0.00826582388364,0.00860824100075,-0.999928784635,0.0,0.656420232307,0.254004293745,0.303612867671,1.0,-0.01464,-0.0192411428571,0.733
0.461023146043,0.517136597106,-0.124122358384,-1.40355942031,0.0765888100157,1.911669745,0.152998444694,-0.0160660047541,-0.0869179439145,0.000647856658447,-0.125876807174,-0.0128689276601,0.0477586842271,-0.0216404837427,0.573992894295,0.818845279793,0.0023047691009,0.0,0.818806871901,-0.573933035597,-0.0117014562976,0.0,-0.00825905814203,0.00860387919703,-0.999928878082,0.0,0.656101184731,0.253602295702,0.303628036746,1.0,-0.01506,-0.0197931428571,0.754
0.460899394637,0.516208846592,-0.124127946317,-1.40505973804,0.0764943995653,1.91223745727,0.152793657961,-0.0109583497509,-0.0762324912162,0.000287654193792,-0.129343010396,-0.00248977572034,0.0411311709171,-0.0186363517721,0.573984463358,0.81885121446,0.00229593164809,0.0,0.818812732134,-0.573924680344,-0.0117011918123,0.0,-0.00826400239653,0.00859640587603,-0.999928901508,0.0,0.655921161042,0.253375235947,0.303614069704,1.0,-0.0153,-0.0201085714286,0.766
0.460672174802,0.514492903961,-0.124131833273,-1.40778219746,0.0763329532922,1.91325680978,0.152433952006,-0.0111059988296,-0.0880064696587,0.000987569768197,-0.132283709612,-0.00341128982519,0.0432967824507,-0.0175496604737,0.573978838696,0.81885512727,0.00230655000604,0.0,0.818816729165,-0.573918961251,-0.0117020023013,0.0,-0.00825863080446,0.00860550910565,-0.999928867585,0.0,0.655590911572,0.252966466169,0.303609822332,1.0,-0.01572,-0.0206605714286,0.787
0.460521895883,0.51342948554,-0.124131951655,-1.40951914575,0.0762357369209,1.91384586487,0.152183801037,-0.0106338159759,-0.0766615057472,-0.000484529090944,-0.136465086846,-0.00960110204528,0.0419652538412,-0.0176389567629,0.573962001615,0.818867112621,0.00224041760347,0.0,0.818827669433,-0.573902181682,-0.0117592743517,0.0,-0.00834366312573,0.00858405783895,-0.999928346051,0.0,0.65536694801,0.252700040178,0.303579435944,1.0,-0.01598,-0.0210022857143,0.8
0.460288271708,0.511775522957,-0.124136181413,-1.41221024815,0.0760690193115,1.91480286901,0.151813314541,-0.0104088017372,-0.0794593439585,0.000103646693881,-0.133185801581,-0.00325834824864,0.0482392299853,-0.0192350185414,0.573948777889,0.818876572577,0.00216936543286,0.0,0.818836136451,-0.573889162571,-0.0118049831568,0.0,-0.00842201098499,0.00855197511745,-0.999927964132,0.0,0.655029944938,0.252284935982,0.303540275687,1.0,-0.01638,-0.021528,0.82
0.460137321725,0.510666075828,-0.124134932154,-1.41396805092,0.0759576791892,1.9154842665,0.151558965842,-0.00681133951115,-0.0846711614773,0.00157278680334,-0.131654775547,-0.00731684481018,0.0576732525673,-0.0162102970784,0.573925163217,0.818893058852,0.00219364812834,0.0,0.818852975336,-0.573865494026,-0.0117875549113,0.0,-0.00839404954226,0.00856161451073,-0.999928116761,0.0,0.654819974467,0.25202101467,0.303539452563,1.0,-0.01664,-0.0218697142857,0.833
0.459883199638,0.508808081927,-0.124146551698,-1.41689256779,0.0757746086108,1.91655723274,0.151151202706,-0.011691101868,-0.090291483556,-0.000571525420064,-0.137395582666,-0.00779627244449,0.0477341314506,-0.0233865530672,0.573910387037,0.818903414415,0.00219372101221,0.0,0.818863354553,-0.573850742546,-0.0117846829019,0.0,-0.00839181020276,0.00855987447648,-0.999928150454,0.0,0.65446136143,0.25156852454,0.303541125797,1.0,-0.01706,-0.0224217142857,0.854
0.45974119705,0.507755827305,-0.124149452238,-1.41856740062,0.0756683679759,1.91715591094,0.150922495979,-0.0112575930894,-0.0876452973321,-0.00351046712269,-0.138194225067,-0.00998575930037,0.0468057934653,-0.022921586412,0.573899536111,0.818911080052,0.00217078810767,0.0,0.818870705156,-0.573839964713,-0.0117987302976,0.0,-0.00841658804555,0.00854904522857,-0.999928034846,0.0,0.654250185714,0.251312521239,0.303532006423,1.0,-0.0173,-0.0227371428571,0.866
0.459457125354,0.505742897934,-0.124147933151,-1.42171400483,0.0754750033587,1.91832754513,0.150485593179,-0.00940267795271,-0.0935560735846,0.000835367054151,-0.147370456126,-0.00595456061484,0.0609140945468,-0.0171329311563,0.573883861382,0.818921980693,0.00220229048505,0.0,0.818881964476,-0.573824117894,-0.0117879972875,0.0,-0.00838988422342,0.00856852233065,-0.999928092549,0.0,0.653864882729,0.250829012637,0.303543160866,1.0,-0.01774,-0.0233154285714,0.888
0.459298355884,0.504580364014,-0.124155686994,-1.42346612367,0.0753523558289,1.91901329969,0.150241807504,-0.016705569375,-0.0991989042869,0.00236680936981,-0.149965878352,-0.00872306966999,0.0588873198757,-0.0216961184769,0.573876933191,0.818926642533,0.00227301606461,0.0,0.818887738672,-0.57381712013,-0.0117273611268,0.0,-0.00829971273635,0.00859157243739,-0.99992864728,0.0,0.653660253293,0.250554807378,0.3035811636,1.0,-0.01798,-0.0236308571429,0.9
0.459020123521,0.502532969218,-0.124159662999,-1.42651047792,0.0751598829592,1.92016549851,0.149818990554,-0.010964048388,-0.101433456501,-0.000279010445129,-0.145783526285,-0.00748494350863,0.0516116981921,-0.0177114478886,0.573865642405,0.818934186409,0.00240201988148,0.0,0.818897014654,-0.573805417931,-0.0116519803026,0.0,-0.00816407017081,0.00865384468504,-0.999929226961,0.0,0.653293625565,0.25008351714,0.303661899866,1.0,-0.0184,-0.0241828571429,0.921
0.458837846333,0.501221592617,-0.124167445313,-1.42846686983,0.0750358738652,1.92086071347,0.149550075061,-0.0112454256882,-0.102743185811,-0.000678577132573,-0.154252496663,-0.00546567960508,0.0519035653682,-0.0254657351382,0.573866531956,0.818933440776,0.00244335442836,0.0,0.818896805093,-0.573806160081,-0.0116301402949,0.0,-0.00812245536862,0.00867517043622,-0.999929381075,0.0,0.653050059889,0.249772297846,0.303706481279,1.0,-0.01866,-0.0245245714286,0.934
0.458536873189,0.499118800301,-0.124163460762,-1.4316751734,0.074832039852,1.922010526,0.149093164,-0.014731562048,-0.0996877067193,-0.000120871667426,-0.150928383967,-0.00817716896194,0.043322676142,-0.0210565215196,0.57384404085,0.818949087854,0.00248096443699,0.0,0.818912872735,-0.573783467402,-0.0116183607174,0.0,-0.00809146532049,0.00869898825885,-0.999929425406,0.0,0.652646639152,0.249270484037,0.303745835707,1.0,-0.01908,-0.0250765714286,0.955
0.458344967206,0.497828981413,-0.124163192611,-1.43369027772,0.0747086198256,1.92277398822,0.14879594729,-0.0183433982403,-0.106915213425,0.00130214880602,-0.155874456617,-0.00815823801165,0.0569621860366,-0.0206400758272,0.573826749865,0.818961106227,0.00251287256361,0.0,0.818925284138,-0.573766045027,-0.0116039422204,0.0,-0.00806153161441,0.00871667515113,-0.999929513157,0.0,0.652400759715,0.24895527253,0.303752201037,1.0,-0.01934,-0.0254182857143,0.968
0.458053512834,0.495971644054,-0.124161775011,-1.43669570726,0.0745222706758,1.92382929771,0.148353037924,-0.0135098861147,-0.0992028728586,-0.000236036612554,-0.158037465006,-0.00454313381021,0.0561270403671,-0.020331431686,0.573803221428,0.818977828817,0.00243431436126,0.0,0.818940844037,-0.573742642325,-0.0116628147078,0.0,-0.00815507372385,0.00868588733817,-0.999929022548,0.0,0.652015483221,0.248475750111,0.303707599844,1.0,-0.01972,-0.0259177142857,0.987
0.457862206506,0.494787571037,-0.124166173777,-1.43862532058,0.0744033712055,1.92449693922,0.148080940486,-0.0141674622619,-0.0977022421576,-0.00064518024785,-0.162366527181,-0.00958956659087,0.0627519384271,-0.0307278419496,0.57380522178,0.818976622684,0.00236766908587,0.0,0.81893868082,-0.573744787179,-0.0117091051036,0.0,-0.00823120403281,0.0086578881398,-0.999928641581,0.0,0.651767265361,0.248161491194,0.303672015847,1.0,-0.01996,-0.0262331428571,0.999
0.457485507239,0.492448003681,-0.124167440804,-1.44242974508,0.0741572143486,1.9258789552,0.147556746115,-0.0179991407973,-0.106478679739,0.000190298660213,-0.16939339588,-0.0137830030014,0.0620270907022,-0.0123973540107,0.573809714165,0.818973699581,0.00228871723009,0.0,0.818934708803,-0.573749548964,-0.0117534966588,0.0,-0.00831281421061,0.00861874647414,-0.999928304594,0.0,0.651288079981,0.247549311036,0.303609897638,1.0,-0.02118,-0.0278365714286,1.022
0.457258624142,0.4910478563,-0.124165044892,-1.44468177999,0.0740207831381,1.92666625923,0.147237798818,-0.0212070550466,-0.108236360249,5.72790526807e-05,-0.180539540676,-0.0115817982813,0.0568103455054,-0.0206400281156,0.573808149078,0.818974939927,0.00223667706492,0.0,0.818935118789,-0.573748024076,-0.0117992789558,0.0,-0.00838018607209,0.00860238143846,-0.999927883157,0.0,0.650997226822,0.24718602034,0.303580353283,1.0,-0.0219228571429,-0.0288128979592,1.035
0.45687334972,0.488696221298,-0.124178819194,-1.44845449689,0.0737777209969,1.92801633768,0.146688374758,-0.0178462590455,-0.116602754986,5.10335537789e-05,-0.184026704803,-0.0114740686544,0.0671677190732,-0.0324837450778,0.573805394624,0.818977054227,0.00216809844593,0.0,0.818936330066,-0.573745526458,-0.0118365986503,0.0,-0.00845012860154,0.00856760369697,-0.999927593125,0.0,0.650520395032,0.246563686567,0.303537277443,1.0,-0.0231228571429,-0.0303900408163,1.056
0.456633718545,0.487240113219,-0.124180287775,-1.45067664369,0.0736303286889,1.92888644826,0.146373122726,-0.0188234291059,-0.121842773826,-0.00103703681703,-0.181426929825,-0.0144227428717,0.0730562973501,-0.0285545798341,0.573814860827,0.818970203084,0.00224918994398,0.0,0.818930655618,-0.573754800946,-0.0117794983347,0.0,-0.00835673550788,0.00860134739558,-0.999928088312,0.0,0.65025710973,0.246198080172,0.303566746559,1.0,-0.0238085714286,-0.0312912653061,1.068
0.456197410144,0.484631986165,-0.124194100983,-1.45465887247,0.0733783907186,1.93036814146,0.14576452139,-0.0215227214818,-0.131347764273,-0.00139431855876,-0.195270154156,-0.0118913370681,0.0728238748827,-0.0288959423348,0.573811911528,0.81897202664,0.00233595170799,0.0,0.818933647752,-0.57375156714,-0.0117288825123,0.0,-0.00826552986515,0.00864332835851,-0.999928484388,0.0,0.649771043601,0.245528955087,0.303611040598,1.0,-0.0250085714286,-0.0328684081633,1.089
0.455919746869,0.482947339184,-0.124216043896,-1.4572595643,0.0732125882771,1.93123434856,0.145380359527,-0.0183980223491,-0.134542615204,-0.00269118296642,-0.197474900723,-0.013061633382,0.0644666793477,-0.0311920481602,0.573822649646,0.818964629156,0.00229125420045,0.0,0.818925611568,-0.573762411268,-0.0117594657712,0.0,-0.0083161111004,0.00862438060066,-0.999928228602,0.0,0.649432409132,0.245082230371,0.303617797798,1.0,-0.0257514285714,-0.0338447346939,1.102
0.455455760756,0.480132883183,-0.124225719084,-1.46160715302,0.0729460692809,1.93282390616,0.144730289743,-0.0223306894911,-0.138478738182,-0.00125728881292,-0.206874476355,-0.0103289561291,0.0772080880369,-0.0321675692434,0.573817420889,0.818968152715,0.00234077424667,0.0,0.818929670898,-0.573756884652,-0.0117464180947,0.0,-0.00827706634779,0.00865739550096,-0.999928267265,0.0,0.648885318509,0.24436268518,0.30363788443,1.0,-0.0269514285714,-0.035421877551,1.123
0.455150072674,0.478335189436,-0.124237417786,-1.46435218459,0.072776816103,1.93382910793,0.14433515067,-0.0187514281596,-0.134937776621,-8.7857316182e-05,-0.21153725141,-0.0118008676346,0.0776272022829,-0.0357035820704,0.573840116467,0.818952109506,0.00238955460279,0.0,0.818914232653,-0.57377936594,-0.0117245759789,0.0,-0.00823094757738,0.00868503953312,-0.999928408232,0.0,0.648543422482,0.243897273075,0.303664178971,1.0,-0.0276942857143,-0.0363982040816,1.136
0.454665822186,0.475498495727,-0.124253432908,-1.46872140231,0.0725006970263,1.93542564206,0.14371421917,-0.0252524427688,-0.141168966561,0.000385804384305,-0.2199604421,-0.0191988145578,0.0817623775785,-0.026203429638,0.573875928243,0.818926866784,0.00243982465825,0.0,0.818889629401,-0.573814975019,-0.0117002651313,0.0,-0.00818181106445,0.00871261536799,-0.9999285716,0.0,0.647994320388,0.243158303988,0.303687089816,1.0,-0.0288371428571,-0.037900244898,1.156
0.454341251229,0.473581883755,-0.124266140335,-1.47168422356,0.0723180656097,1.93646722221,0.143290631811,-0.0236491526858,-0.148277693267,-0.00193570464401,-0.231608201851,-0.00852102127845,0.0872959611682,-0.0237476158272,0.573896697357,0.818912319752,0.00243725699996,0.0,0.818874942731,-0.573835637754,-0.0117147732278,0.0,-0.00819494497247,0.00871904622063,-0.999928407992,0.0,0.647610857598,0.24265682132,0.303693242434,1.0,-0.02958,-0.0388765714286,1.169
0.453806480963,0.470429958143,-0.124261314913,-1.47654535885,0.0720035396659,1.9381920597,0.142542726319,-0.0266063130564,-0.154181499338,0.00117381271951,-0.236407346777,-0.0128404603489,0.0849975820208,-0.036713134779,0.573864823798,0.818934616443,0.00245048955389,0.0,0.818897268239,-0.573803567442,-0.0117250570777,0.0,-0.0081961132733,0.00873546520024,-0.999928255114,0.0,0.646977323271,0.241846986582,0.303707092155,1.0,-0.03078,-0.0404537142857,1.19
0.453467425349,0.468400849455,-0.124261164465,-1.47958379716,0.0718071076791,1.93939895394,0.142042562269,-0.0252728841189,-0.160241630273,-0.000104851814388,-0.234081260878,-0.01748564955,0.090152182472,-0.0341500282126,0.573823992132,0.818962723843,0.00261340970848,0.0,0.818927614356,-0.573762295539,-0.0116248683592,0.0,-0.00802101233162,0.00881099138669,-0.999929012376,0.0,0.64660838643,0.241345450392,0.303766390078,1.0,-0.0315228571429,-0.0414300408163,1.203
0.452890139048,0.465064015907,-0.124265123146,-1.48477315234,0.0714425968315,1.94117526465,0.141263492194,-0.0297299465911,-0.162492271328,-0.000130478143199,-0.251853597097,-0.0176316384982,0.082640173413,-0.0420652143357,0.573805524559,0.818975914383,0.00253348506866,0.0,0.818939781592,-0.573744124688,-0.0116644936809,0.0,-0.00809952314592,0.00876809143701,-0.999928756611,0.0,0.645915901628,0.240463525312,0.303752427958,1.0,-0.0327228571429,-0.0430071836735,1.224
0.452542884649,0.463121030331,-0.124275819799,-1.48785170638,0.0712374794139,1.94224667982,0.140807333901,-0.0261233492639,-0.163685320815,0.00036586308614,-0.262587463471,-0.0184904883162,0.0909712288559,-0.0443017554404,0.573812085153,0.818971503502,0.00247270805867,0.0,0.818934544941,-0.57375086248,-0.0117006755095,0.0,-0.00816395861419,0.00873914331619,-0.99992848602,0.0,0.645507819072,0.239935101614,0.303719648819,1.0,-0.0334085714286,-0.0439084081633,1.236
0.451913374075,0.459620949487,-0.124277102408,-1.4932733898,0.0708783299566,1.94415667182,0.139999274837,-0.0306026360501,-0.167640378997,-0.00161722212943,-0.256495740246,-0.0183765663398,0.0877419849066,-0.0442205125678,0.573820485448,0.818965662191,0.00245795327438,0.0,0.818928403611,-0.573759199533,-0.0117216727046,0.0,-0.0081895318192,0.0087391919293,-0.999928276474,0.0,0.64479205136,0.239006750522,0.303714848601,1.0,-0.0346085714286,-0.0454855510204,1.257
0.451495901898,0.457454641081,-0.124287724464,-1.49670389543,0.0706531497973,1.94538320831,0.139464616525,-0.0313481912175,-0.169991952945,-0.00176208563289,-0.263953299405,-0.0165983140512,0.0972168028387,-0.0430718041139,0.573829249112,0.818959633808,0.00242032190852,0.0,0.818921849314,-0.573768061188,-0.0117457897741,0.0,-0.00823078275131,0.00872230015084,-0.999928085262,0.0,0.644345405138,0.238402545341,0.303679138267,1.0,-0.0353514285714,-0.046461877551,1.27
0.450810316267,0.453819655898,-0.124333497201,-1.50248366187,0.0702494929411,1.94733784825,0.138580138654,-0.0313088905398,-0.180441436661,-0.00849181407778,-0.279908561702,-0.0178283285151,0.0912902637503,-0.0430498920636,0.573853197389,0.818943378488,0.00223552638933,0.0,0.818903264984,-0.573792786665,-0.0118333203621,0.0,-0.00840825232442,0.00862143457405,-0.99992748345,0.0,0.643568313212,0.237369302534,0.303597420705,1.0,-0.0365514285714,-0.0480390204082,1.291
0.4503801231,0.451404465174,-0.124361637038,-1.50603056202,0.0700185751432,1.94869757495,0.137993274915,-0.036505658483,-0.186387732667,-0.00457843656786,-0.279087106055,-0.0191207907567,0.108858944221,-0.0532157318245,0.573844175336,0.818949172424,0.00242122286779,0.0,0.818911661358,-0.573783259757,-0.0117136081764,0.0,-0.00820375052012,0.00870472105823,-0.999928460595,0.0,0.643126919,0.236744852661,0.303685526222,1.0,-0.0372942857143,-0.0490153469388,1.304
0.449699073651,0.447662203537,-0.124370911242,-1.51163574557,0.0696223657265,1.95064540721,0.137167737754,-0.0349121203698,-0.188577983059,0.00109581862435,-0.286089148169,-0.0182627211989,0.0961011799476,-0.0411434123877,0.573875697184,0.818926912342,0.00247857318814,0.0,0.818890234982,-0.573814665192,-0.01167304433,0.0,-0.00813728517467,0.00872872388858,-0.99992879445,0.0,0.642376562767,0.235760219506,0.303752631768,1.0,-0.0384371428571,-0.0505173877551,1.324
0.449248826784,0.445219909689,-0.124377336985,-1.51538850371,0.0693667768813,1.95193793601,0.136601419588,-0.0373250752993,-0.187874471637,-0.000654657972089,-0.285778783727,-0.0252409832052,0.115534845016,-0.0506482374342,0.573882811249,0.818921987992,0.00245834021785,0.0,0.818884985528,-0.573821784244,-0.0116913346552,0.0,-0.00816379902644,0.0087227218323,-0.999928630708,0.0,0.641865253963,0.235105106223,0.303751699791,1.0,-0.03918,-0.0514937142857,1.337
0.448509260335,0.441216177218,-0.124382295252,-1.52155033499,0.0689286685498,1.95414962836,0.135617826529,-0.0369045085805,-0.187012737981,-0.00120560268317,-0.298769164665,-0.0215831325112,0.106075286929,-0.0457566182218,0.573839100184,0.818952544252,0.00248279370651,0.0,0.818916009316,-0.573778151766,-0.0116597231122,0.0,-0.00812434354268,0.00872417250056,-0.999928939403,0.0,0.641037827095,0.234036368261,0.303750336677,1.0,-0.04038,-0.0530708571429,1.358
0.448019294711,0.438755033954,-0.124378844931,-1.52544325444,0.0686838243737,1.955500264,0.134972339245,-0.0370999912362,-0.185272676753,-0.00125570120581,-0.300981076058,-0.0240231018148,0.100116026403,-0.040538165955,0.573813766914,0.818970478982,0.00242123063294,0.0,0.818932847406,-0.573752727164,-0.0117280183101,0.0,-0.00821587127518,0.00871269140773,-0.999928291663,0.0,0.640502697001,0.233352288817,0.303696965811,1.0,-0.0411228571429,-0.0540471836735,1.371
0.447229039698,0.434707966804,-0.124398592445,-1.53152858123,0.0682607698919,1.9576375048,0.134012522757,-0.04182744044,-0.204565283922,-0.00094939199813,-0.302184778492,-0.0239460272972,0.111759041461,-0.0462447174279,0.573837855163,0.818953388202,0.002492154793,0.0,0.818916744099,-0.573776625676,-0.0116831914828,0.0,-0.00813820576772,0.0087452932048,-0.999928642181,0.0,0.639684311797,0.232251594083,0.303748935518,1.0,-0.0422657142857,-0.0555492244898,1.391
0.446661147692,0.431846158864,-0.124406091457,-1.53585392957,0.0679508703561,1.95918609706,0.133315137121,-0.0428964510831,-0.208020267414,-0.00239814915961,-0.312741427604,-0.0265378702157,0.106095974065,-0.0545855235412,0.573838359398,0.818952857298,0.00254984489075,0.0,0.818917093041,-0.573777067317,-0.0116369518314,0.0,-0.00806722774815,0.0087660096858,-0.999929035937,0.0,0.639104543029,0.231470268692,0.303775835482,1.0,-0.0430657142857,-0.0566006530612,1.405
0.445839289293,0.427715027138,-0.124437690068,-1.54227550895,0.0674817720984,1.96126049075,0.132304269015,-0.0414363572269,-0.208445151999,-0.00217679977826,-0.31622285588,-0.0277849352275,0.108283615543,-0.0440558196723,0.573850236246,0.818945145586,0.00234558801159,0.0,0.818906680984,-0.573789630476,-0.0117496680073,0.0,-0.00827661884898,0.00866353425522,-0.999928217801,0.0,0.638189135891,0.230296142013,0.303713744938,1.0,-0.0442085714286,-0.0581026938775,1.425
0.445297380378,0.424938824487,-0.124435680535,-1.54642934218,0.0671806193249,1.96274848167,0.131595035701,-0.041764668983,-0.210767981038,0.00060489213336,-0.320965183399,-0.0209104919253,0.1157035478,-0.0597109148869,0.573804006685,0.8189773004,0.00242698238044,0.0,0.818940004031,-0.573743223685,-0.0116931593333,0.0,-0.00818412493887,0.00869730208667,-0.999928685975,0.0,0.637622628523,0.22955509759,0.303753590345,1.0,-0.0449514285714,-0.0590790204082,1.438
0.444373863723,0.4204377194,-0.124446579132,-1.55328412372,0.0667057731669,1.96508540571,0.130490806285,-0.0442381575096,-0.216126342003,0.000820222549267,-0.332773179449,-0.0260164610686,0.112369223294,-0.0513525882081,0.573819899738,0.8189662253,0.00240652944907,0.0,0.818928499657,-0.57375901597,-0.0117239474814,0.0,-0.00822090732378,0.00869837739012,-0.999928374892,0.0,0.636663612577,0.228301681841,0.303751356088,1.0,-0.0461514285714,-0.0606561632653,1.459
0.443788190661,0.417586123343,-0.124459207994,-1.55753191371,0.0664143256958,1.96664538508,0.129817872006,-0.0421545792812,-0.222965094422,-0.00104490450544,-0.325144275791,-0.0170682765302,0.123616516265,-0.0450175370312,0.573854037057,0.818941910451,0.00253739273435,0.0,0.818905974132,-0.573792775244,-0.0116448920292,0.0,-0.00808070808513,0.00876052303815,-0.999928975174,0.0,0.636093383415,0.227522155297,0.303799298707,1.0,-0.0468942857143,-0.0616324897959,1.472
0.442819106046,0.412896838172,-0.124462592103,-1.56457305056,0.0659109267891,1.96911388182,0.128611827548,-0.0430731382567,-0.224979010783,-0.00215975002154,-0.337313450929,-0.0253981865535,0.115164901998,-0.0525486434307,0.573811584666,0.818971388428,0.00262243034796,0.0,0.818936588574,-0.573750070587,-0.0115960035486,0.0,-0.00799232940625,0.00880169479483,-0.999929323922,0.0,0.635113156011,0.226232361852,0.30383850832,1.0,-0.0480942857143,-0.0632096326531,1.493
0.442214746682,0.409960813531,-0.124492953626,-1.56907260985,0.0655852854222,1.97052664277,0.127873351326,-0.0431513200687,-0.222183498194,-0.00581687738597,-0.339779482674,-0.0298880179906,0.112200920518,-0.0550772766871,0.57381554361,0.818969040192,0.0024859644926,0.0,0.818932337506,-0.573754362512,-0.0116835348175,0.0,-0.00814227708693,0.00874019887139,-0.999928653579,0.0,0.63445003791,0.225390516383,0.303806589119,1.0,-0.0488371428571,-0.0641859591837,1.506
0.441238919493,0.405386652344,-0.124499429965,-1.57602503311,0.0651172218999,1.9729379104,0.126742330886,-0.0550664414257,-0.222471462585,0.00184858238339,-0.347114156848,-0.0239408147342,0.129920970679,-0.050876721396,0.573843560544,0.818949315102,0.00251678711544,0.0,0.818912736464,-0.573781968039,-0.0117017140411,0.0,-0.00813918033965,0.00877615124169,-0.999928363891,0.0,0.633464458648,0.224108837629,0.303797113708,1.0,-0.04998,-0.065688,1.526
0.440574556265,0.402407235264,-0.124509774587,-1.58058263957,0.0648047092793,1.97448429192,0.125960936863,-0.0497047355234,-0.234318514749,-0.000649099848784,-0.351164479667,-0.0264593657032,0.120755474883,-0.0653335225948,0.57384993672,0.818944929703,0.00248980759724,0.0,0.818907813773,-0.573788240501,-0.0117385904132,0.0,-0.00818479436301,0.00877528121334,-0.999927999198,0.0,0.632813245367,0.223247436729,0.303772528403,1.0,-0.0507228571429,-0.0666643265306,1.539
0.439473244618,0.397377742602,-0.124544099851,-1.58794556245,0.0642526593401,1.97708277499,0.124683125538,-0.0512513811672,-0.242685315019,-0.00103433678598,-0.353105776687,-0.0245661480303,0.112899894123,-0.0605084011419,0.573865077052,0.818933706173,0.0026842383395,0.0,0.818899499943,-0.573803116783,-0.0115904729902,0.0,-0.00795175777274,0.00884965949291,-0.999929224033,0.0,0.631791191571,0.221831533389,0.303881333971,1.0,-0.0519228571429,-0.0682414693878,1.56
0.438776216891,0.394243573752,-0.124547145309,-1.59272288171,0.0638913924653,1.97863239054,0.123917932643,-0.0494511579455,-0.24412308378,-0.000207972046016,-0.366923665561,-0.0297751524354,0.124203948216,-0.0646767021738,0.573894441033,0.818913424648,0.00259237009429,0.0,0.818877952968,-0.573832710795,-0.0116475347499,0.0,-0.00805089081678,0.00880745973177,-0.999928803371,0.0,0.631084001416,0.220926398865,0.303850295293,1.0,-0.0526657142857,-0.0692177959184,1.573
0.437711220459,0.389371962967,-0.124560588126,-1.60004349757,0.0633322014674,1.98105302922,0.122666875757,-0.0559486934902,-0.252866726304,8.18156935615e-05,-0.371441295786,-0.0269277844548,0.119113428069,-0.0662728924553,0.573873901291,0.818927968066,0.00254468813395,0.0,0.818891919853,-0.573812387274,-0.0116668209653,0.0,-0.00809426825359,0.00877927764274,-0.999928701011,0.0,0.630004743052,0.219541294353,0.303848020729,1.0,-0.0538085714286,-0.0707198367347,1.593
0.437008843901,0.386234174518,-0.124553121652,-1.60486523392,0.062973802281,1.98269135625,0.121761920016,-0.0539184891978,-0.243951962071,0.000292361203516,-0.367619671631,-0.034320113712,0.1267163338,-0.0670362562769,0.573783801613,0.818991247141,0.0024966004091,0.0,0.818954491558,-0.573722381087,-0.0117011579516,0.0,-0.00815094734347,0.00875870564365,-0.999928421005,0.0,0.629291915505,0.218642923692,0.303799746916,1.0,-0.0545514285714,-0.0716961632653,1.606
0.435868493187,0.381194038289,-0.124566369056,-1.61224441331,0.0624474002216,1.98524909301,0.12046798932,-0.0579979418479,-0.258089527113,0.0004660506023,-0.368972222306,-0.0286310565145,0.144884276353,-0.0668313479627,0.573796233024,0.818981969807,0.00267637822939,0.0,0.818947508002,-0.573734137281,-0.0116131716575,0.0,-0.00797560220036,0.00885557792929,-0.999928981733,0.0,0.628227648823,0.217224004502,0.303883667402,1.0,-0.0556942857143,-0.0731982040816,1.626
0.435041016443,0.377677197253,-0.124572982156,-1.61757403699,0.0620344262018,1.9869647137,0.119539060368,-0.0590316318958,-0.255801459181,-0.000787120100454,-0.384213169861,-0.0343698232898,0.120673308266,-0.0706237934219,0.573803448663,0.818977230185,0.0025779141781,0.0,0.818941416599,-0.573741612167,-0.0116732834926,0.0,-0.00808125233453,0.00880950062436,-0.999928540476,0.0,0.627482763964,0.21626034492,0.303840565501,1.0,-0.0564371428571,-0.0741745306122,1.639
0.433817146432,0.372518956754,-0.1246055804,-1.62532748008,0.0614237078983,1.98945137112,0.118149855225,-0.0561089942703,-0.255690534037,-0.00100560350818,-0.384289497902,-0.0326491409183,0.130451211015,-0.0744457366151,0.573792129836,0.818985532612,0.00245682981784,0.0,0.818948217658,-0.573730807012,-0.0117270960442,0.0,-0.00819492082329,0.00874110010966,-0.999928215644,0.0,0.626255649568,0.214651262792,0.303816281618,1.0,-0.0576371428571,-0.0757516734694,1.66
0.433013298989,0.369129358611,-0.124630047727,-1.63031977037,0.0610489712007,1.99111187061,0.117301073248,-0.0642510892661,-0.263261369313,-0.0035153147945,-0.386338827528,-0.0338842503327,0.136177033822,-0.0634885601023,0.573846237549,0.818947508584,0.00249414048762,0.0,0.818910698754,-0.573784794113,-0.0117057426548,0.0,-0.00815544591471,0.00875994336575,-0.999928373482,0.0,0.625514154904,0.213660168312,0.30384299561,1.0,-0.05838,-0.076728,1.673
0.43173926044,0.363847810056,-0.124652463816,-1.63796799239,0.0604581865048,1.99377916675,0.115905133103,-0.0617639197179,-0.262139379709,-0.00494484877347,-0.38144405628,-0.0319081163043,0.140612618436,-0.0749682552879,0.573858124593,0.81893841777,0.00273269848031,0.0,0.818905132393,-0.57379633204,-0.0115282426824,0.0,-0.00787306003822,0.00885356699497,-0.999929812175,0.0,0.624350090674,0.212054633116,0.303953352225,1.0,-0.05958,-0.0783051428571,1.694
0.430824679,0.360137158462,-0.124657801334,-1.64350169342,0.0600348594272,1.99558941738,0.114854275936,-0.0639161192437,-0.264855629269,0.00135202795337,-0.399058068688,-0.031680011923,0.127111120665,-0.0746233453684,0.573829061934,0.818958892784,0.00269935386921,0.0,0.818925001127,-0.573767187769,-0.0115673536285,0.0,-0.00792453901367,0.00884842241167,-0.999929451063,0.0,0.623561544366,0.211033536714,0.303934298796,1.0,-0.0603228571429,-0.0792814693877,1.707
0.42948757486,0.354742608843,-0.124687931335,-1.65160883911,0.0594221676049,1.9980838529,0.113394240259,-0.06829968748,-0.274161181586,-0.000433296946209,-0.405044455734,-0.0311922810169,0.136714777296,-0.0771241183163,0.573853260919,0.818942538293,0.00251014108432,0.0,0.818905762807,-0.573791572126,-0.0117188010893,0.0,-0.00815688395608,0.00878061027252,-0.999928180485,0.0,0.62228873692,0.209406106245,0.303869361138,1.0,-0.0614657142857,-0.0807835102041,1.727
0.428594568379,0.351254221671,-0.124701153033,-1.65685550707,0.0590264168139,1.99977937713,0.112440394511,-0.0750890197679,-0.263575251827,4.3648704909e-05,-0.394957790795,-0.0320187455297,0.135311417558,-0.0836908599746,0.573877360609,0.818925828604,0.0024513522259,0.0,0.818888107535,-0.573815690431,-0.0117714763094,0.0,-0.00823350014095,0.00876293565374,-0.999927707604,0.0,0.621479349995,0.208346585341,0.303828530827,1.0,-0.0622085714286,-0.0817598367347,1.74
0.42704098974,0.34514199442,-0.124709306275,-1.66561923868,0.0583744283194,2.00280153104,0.110746732587,-0.0677988956598,-0.280566294699,0.00056849743837,-0.395528945564,-0.0306422319077,0.130562263651,-0.0729200537096,0.573874071706,0.818927159599,0.0027575342991,0.0,0.818893463293,-0.573811370301,-0.0116083586297,0.0,-0.00792424819176,0.00892003458331,-0.999928817103,0.0,0.620171646836,0.206566703674,0.303955224885,1.0,-0.0634657142857,-0.0834120816326,1.762
0.426181615872,0.341782235858,-0.124716375714,-1.67054707952,0.0579644102715,2.00431009488,0.109863432688,-0.0684003045664,-0.282364060081,-0.000957203435393,-0.41723551048,-0.033723458174,0.119684689533,-0.0779055031454,0.573900151384,0.81890911074,0.00268914296524,0.0,0.818874520279,-0.573837671834,-0.0116444545956,0.0,-0.00799277230517,0.00888499597454,-0.999928583669,0.0,0.619388722436,0.20555707928,0.303955579819,1.0,-0.0641514285714,-0.0843133061224,1.774
0.424738313016,0.336142999388,-0.124718907311,-1.678941769,0.0572796718078,2.00687084593,0.108231409249,-0.0747095518894,-0.283671263245,5.95912833697e-05,-0.410830125148,-0.0352072662638,0.130614555559,-0.0833824960754,0.573812153783,0.818971376599,0.00249867641569,0.0,0.818934090078,-0.573750123166,-0.0117685673323,0.0,-0.00820466185265,0.00879936767987,-0.999927624707,0.0,0.617967143123,0.203775088805,0.303891973864,1.0,-0.0653514285714,-0.0858904489796,1.795
0.423721211884,0.332188250033,-0.124711466991,-1.68477884996,0.0567988393391,2.00878694866,0.10713924666,-0.0767557777054,-0.282836688135,0.000701933050308,-0.420868235019,-0.0357644530726,0.136295067728,-0.0862608470055,0.57379229509,0.818985252095,0.00251114474323,0.0,0.818948192694,-0.573730290866,-0.0117540600532,0.0,-0.00818583963464,0.00880105599121,-0.999927764112,0.0,0.617113418981,0.202687805943,0.303879801313,1.0,-0.0660942857143,-0.0868667755102,1.808
0.422202497492,0.326402535115,-0.124718621564,-1.6929747913,0.056165887682,2.01157206374,0.105476135657,-0.0772269252969,-0.279957037538,-0.000777387903656,-0.423749119103,-0.032483591099,0.145648452169,-0.0787700532334,0.573750407625,0.819013604321,0.00281648510051,0.0,0.818980642246,-0.573687491208,-0.0115808877106,0.0,-0.00786927382169,0.00895135816251,-0.999928971336,0.0,0.615855774155,0.200994110767,0.304011646428,1.0,-0.0672371428571,-0.0883688163265,1.828
0.42116038453,0.322668866716,-0.124730455269,-1.69856497502,0.0557008380719,2.01326161874,0.104415302934,-0.0804448170771,-0.291526410791,-0.00243302135378,-0.426833751337,-0.0333539998009,0.128121017525,-0.0783597215754,0.573776735227,0.818995687642,0.00265869083054,0.0,0.818960535891,-0.573714193288,-0.011679553675,0.0,-0.00804033022967,0.008878989992,-0.99992825574,0.0,0.614946432664,0.199814437284,0.303941731777,1.0,-0.06798,-0.0893451428571,1.841
0.419632608542,0.317057194755,-0.124785820386,-1.70677979496,0.0550261307067,2.01575395837,0.102853090466,-0.0815810429692,-0.29708782522,-0.00298531640089,-0.433828489535,-0.0323296795149,0.135445379551,-0.0842909199066,0.573825070928,0.81896225301,0.00252250281957,0.0,0.818925227046,-0.573762897897,-0.0117624999832,0.0,-0.00818588256319,0.00881552830765,-0.999927636275,0.0,0.613470438281,0.197885457944,0.303902948034,1.0,-0.0691228571429,-0.0908471836735,1.862
0.418399639359,0.312608856576,-0.124797439736,-1.71319186104,0.0544827927783,2.01780369575,0.101481500937,-0.0817666506425,-0.2950941797,-0.000855791965188,-0.417668183941,-0.0409094141985,0.149177441016,-0.0949960515315,0.573758995735,0.819008339945,0.00258859333359,0.0,0.818972344173,-0.573696777053,-0.0117070226674,0.0,-0.00810323756036,0.00883716606204,-0.999928118435,0.0,0.612585040116,0.196707717877,0.30393923821,1.0,-0.0699228571429,-0.0918986122449,1.875
0.416695779521,0.306583945403,-0.124804086165,-1.72169629184,0.0537703699646,2.02058588551,0.099754994534,-0.0848439790509,-0.299149038438,-0.00130749120118,-0.438820971283,-0.0291833032801,0.131020319256,-0.0845957909679,0.573777912711,0.818994347495,0.00281292683366,0.0,0.818961584468,-0.573715283449,-0.0115517792852,0.0,-0.0078471739048,0.00893200679185,-0.99992931806,0.0,0.611240047191,0.194877630627,0.304049361688,1.0,-0.0710657142857,-0.0934006530612,1.895
0.415556356471,0.302696091946,-0.124834838023,-1.72745231309,0.0532917136501,2.0222836327,0.0985484384443,-0.0933572175638,-0.292878481699,-0.00212184042356,-0.45245387457,-0.0367723566075,0.125071357389,-0.0911958621084,0.573765867075,0.819003304241,0.00265787951816,0.0,0.818968309075,-0.573703513954,-0.0116590612307,0.0,-0.00802412934238,0.00886646117785,-0.999928497051,0.0,0.610281248704,0.193623330797,0.303981986267,1.0,-0.0718085714286,-0.0943769795918,1.908
0.413704955303,0.296335872367,-0.124891328252,-1.73676318816,0.0525455112461,2.02505697,0.0967469462843,-0.0885919057431,-0.301778591808,-0.000578574246431,-0.443061741248,-0.0319458963747,0.137265994077,-0.0945866474759,0.573885710175,0.818919817595,0.00250417808419,0.0,0.818882327699,-0.573823354903,-0.0117999004429,0.0,-0.00822637483202,0.00882259128645,-0.999927241673,0.0,0.608725906118,0.191598022271,0.303912445521,1.0,-0.0730085714286,-0.095954122449,1.929
0.412523475895,0.292266560358,-0.124911929648,-1.74235770588,0.0520907039539,2.02691724905,0.0955193374166,-0.0934828688343,-0.311787196094,-0.00108864755751,-0.428423648977,-0.0348361506849,0.147702479922,-0.0897989233206,0.573879727563,0.818923139719,0.00277424348306,0.0,0.818889401496,-0.573816677524,-0.0116325239895,0.0,-0.00793438865184,0.00894764055324,-0.999928490046,0.0,0.60784033108,0.190363417635,0.30403897198,1.0,-0.0737514285714,-0.0969304489796,1.942
0.410687237271,0.28606002751,-0.12493148883,-1.75125250832,0.0513259820638,2.02961640029,0.0936493088648,-0.0940620189168,-0.310314238737,-0.000687654379189,-0.460971272722,-0.0359935196728,0.12792929979,-0.0973162777993,0.573870540481,0.818929632819,0.00275792667406,0.0,0.818895655373,-0.573807516213,-0.0116441766418,0.0,-0.00795339537455,0.00894087625371,-0.999928399554,0.0,0.606351420247,0.188416520694,0.304041991123,1.0,-0.0748942857143,-0.0984324897959,1.962
0.409473259258,0.282010633251,-0.124932857915,-1.75715302267,0.0507905706418,2.03128747808,0.09240257118,-0.0939942658204,-0.313069172266,-0.000805166168943,-0.452348378802,-0.0506128848053,0.133666135797,-0.101726535617,0.573825728361,0.818961581994,0.00258990163512,0.0,0.818925334451,-0.573763203497,-0.01174009409,0.0,-0.00812885227538,0.00885787464649,-0.999927727297,0.0,0.605251514585,0.187028990311,0.303991840826,1.0,-0.0756942857143,-0.0994839183673,1.976
0.407461411894,0.275349990203,-0.124941513246,-1.76660253461,0.0499871663831,2.03420667298,0.0903923085107,-0.096094451301,-0.32141640837,-0.000973111593294,-0.450313403552,-0.0332662833361,0.154183062265,-0.101187592241,0.573834512007,0.818955156378,0.00267424228048,0.0,0.818919929995,-0.573771602208,-0.0117065647399,0.0,-0.00805290232258,0.00890779266853,-0.999927898398,0.0,0.603739405552,0.185047405131,0.304016320438,1.0,-0.0768371428571,-0.100985959184,1.996
0.406189293217,0.27121212547,-0.124958820359,-1.77236600272,0.0494860988812,2.03604871927,0.0890809427692,-0.0977137599706,-0.319684649301,-0.00338041701866,-0.452903786768,-0.0434663285666,0.132320216905,-0.102754747473,0.573804781078,0.818975449177,0.0028343886538,0.0,0.818942560262,-0.573741617397,-0.0115925130548,0.0,-0.00786792833762,0.00897321367866,-0.999928786034,0.0,0.602787832746,0.183751612129,0.30408237178,1.0,-0.07758,-0.101962285714,2.009
0.404163110272,0.264794607627,-0.125021793405,-1.78157548378,0.0486760472606,2.03864502462,0.0871174415101,-0.105227017237,-0.329716427105,0.000369021902929,-0.464348865644,-0.0476623012574,0.12997393391,-0.0930576468871,0.573876703279,0.818925675292,0.00264852473345,0.0,0.818890086788,-0.573813848584,-0.0117234736523,0.0,-0.00808104899234,0.00889685035133,-0.999927768742,0.0,0.601183329722,0.181649034707,0.304027438541,1.0,-0.0787228571429,-0.103464326531,2.029
0.402727265319,0.260264500498,-0.125050516602,-1.78805462721,0.0480873340772,2.04049834781,0.085688763535,-0.0999806877604,-0.319975818738,-0.000685719198506,-0.46131929149,-0.0409869278265,0.127745421183,-0.100956733052,0.573873376967,0.818928335347,0.00254473490569,0.0,0.818891340375,-0.57381083743,-0.0117831408587,0.0,-0.00818950913474,0.00884606252782,-0.999927336919,0.0,0.60005019668,0.180177010805,0.303993654079,1.0,-0.0795228571429,-0.104515755102,2.043
0.400537278235,0.253352619606,-0.125041284153,-1.79753447964,0.0472423439659,2.04343900671,0.0835601689234,-0.105122045195,-0.330962665754,-0.000584615894608,-0.450649938215,-0.0393664309215,0.140500662973,-0.0965241722111,0.573869765597,0.818929940001,0.0028270840121,0.0,0.81889695278,-0.573806613741,-0.0115973124508,0.0,-0.00787533851041,0.00897061017248,-0.99992875106,0.0,0.598438077138,0.178025659091,0.304129348166,1.0,-0.0807228571429,-0.106092897959,2.064
0.399150977829,0.249107366214,-0.125041256943,-1.80360566481,0.0467105115994,2.04518920207,0.0821575932455,-0.108972827647,-0.32640322855,-0.000891380183924,-0.472680720345,-0.0355448074395,0.128168866876,-0.108366504018,0.573825537564,0.81896116555,0.00275838030068,0.0,0.81892701134,-0.573762312272,-0.0116664483102,0.0,-0.00797186692961,0.00895359049318,-0.999928138695,0.0,0.597362186156,0.176651496862,0.304085707687,1.0,-0.0814657142857,-0.10706922449,2.077
0.396878229915,0.24218770324,-0.125045207634,-1.81349422774,0.0458377433584,2.04795877039,0.0799192736867,-0.111844277869,-0.326572647917,0.000521252824537,-0.465669074164,-0.0423988049964,0.138117312418,-0.113125271061,0.573796564313,0.818982026777,0.0025864068228,0.0,0.818945040349,-0.573733301836,-0.0118265021553,0.0,-0.00820194289128,0.0089043027798,-0.999926718077,0.0,0.595581553044,0.174405775866,0.304000425803,1.0,-0.0826657142857,-0.108646367347,2.098
0.395559674778,0.238116795134,-0.125049453652,-1.81903124287,0.0453736709153,2.04958390647,0.0785924068222,-0.109588718429,-0.346057620675,-0.000727734947906,-0.461555512875,-0.0378581899227,0.141134528625,-0.107911993544,0.573764954888,0.819003711219,0.00272845257578,0.0,0.8189683677,-0.5737009484,-0.0117805523203,0.0,-0.00808315586595,0.00899395758451,-0.999926882986,0.0,0.594604057081,0.173134145701,0.304074364329,1.0,-0.0833514285714,-0.109547591837,2.11
0.393078028424,0.230682049027,-0.125043092767,-1.82925173402,0.044397051854,2.05262309562,0.0762214120058,-0.116187520413,-0.333945460613,0.00461749875146,-0.475690690506,-0.0504513219906,0.126934680191,-0.118285472685,0.573745788794,0.819016594147,0.0028870840483,0.0,0.81898383172,-0.573681819548,-0.0116361592869,0.0,-0.00787409151875,0.00904084660929,-0.999928128305,0.0,0.592800005433,0.170760326962,0.304153091376,1.0,-0.0846085714286,-0.111199836735,2.132
0.391790714856,0.226964739992,-0.125059658769,-1.83453302534,0.0439023063676,2.05403500881,0.0749401199781,-0.120323596885,-0.344827926532,-0.000191221142325,-0.482257742916,-0.0448132750227,0.128632213661,-0.112405403668,0.573709233559,0.819042677761,0.00274849705,0.0,0.819007873024,-0.573645472726,-0.011735520717,0.0,-0.00803538412948,0.00898399028854,-0.999927357622,0.0,0.591827765154,0.1695159439,0.304098213368,1.0,-0.0852371428571,-0.112025959184,2.143
0.38928600104,0.219789904768,-0.125129071624,-1.84450234613,0.0429972781042,2.05684639559,0.0725593445455,-0.121175401496,-0.339911325092,-0.00905834929801,-0.464094405604,-0.0313686177433,0.143309249268,-0.112099257818,0.573767687453,0.819001743338,0.00274447561793,0.0,0.81896672428,-0.573703752324,-0.011758230891,0.0,-0.00805565073434,0.00899430032168,-0.999927101869,0.0,0.59002931124,0.167123290505,0.304093814919,1.0,-0.0864371428571,-0.113603102041,2.164
0.387697105803,0.215288856136,-0.125179913283,-1.85052566856,0.0424573126928,2.05869364238,0.0710720115831,-0.124362783531,-0.340642860746,-0.00388494698895,-0.470007342512,-0.0376555636763,0.134877538607,-0.109447557753,0.573830828217,0.818956613201,0.00299886352286,0.0,0.8189252384,-0.573766406607,-0.0115892821615,0.0,-0.00777062172958,0.00910630773123,-0.999928343731,0.0,0.588981606705,0.165644330338,0.304198281854,1.0,-0.08718,-0.114579428571,2.177
0.3851760242,0.208363468999,-0.125233149396,-1.86018451269,0.0415202641466,2.06123488427,0.0686938905177,-0.121742678913,-0.344334720949,-0.000597502891676,-0.488038502847,-0.0508579932654,0.13298492391,-0.120804071138,0.573856967074,0.818938976494,0.00280731571193,0.0,0.818904897329,-0.573792936431,-0.0117124776866,0.0,-0.00798114022475,0.00902038517739,-0.999927464395,0.0,0.587185334531,0.163280594223,0.304139781607,1.0,-0.0883228571428,-0.116081469388,2.197
0.383415248395,0.20351029174,-0.125278988925,-1.86697889138,0.0408395829663,2.06298100996,0.067032883162,-0.128874867168,-0.3429817983,-0.00254090567169,-0.479399622854,-0.048032745522,0.128784349074,-0.119887045071,0.573867663568,0.818932119607,0.00261440019189,0.0,0.818895414604,-0.573804197241,-0.0118232850796,0.0,-0.00818247164551,0.00892609316835,-0.999926683322,0.0,0.585901392272,0.161622672088,0.30407605493,1.0,-0.0891228571428,-0.117132897959,2.211
0.380684341321,0.196060630443,-0.125298533488,-1.87688562615,0.0399288290087,2.0659297634,0.0644634769735,-0.133817583049,-0.352027957547,-0.00202621852811,-0.476572941621,-0.0460752945513,0.14062277971,-0.122064383912,0.573884421921,0.818919035475,0.00300508139882,0.0,0.818887789584,-0.57382002981,-0.0115805164119,0.0,-0.00775927882266,0.00910687776642,-0.999928426623,0.0,0.584120931279,0.159183508693,0.304230412198,1.0,-0.0903228571428,-0.118710040816,2.232
0.379093596014,0.1918781332,-0.125340032539,-1.88272485822,0.0393722926672,2.06750146961,0.0629837481197,-0.129323702254,-0.34753735503,-0.0019887429199,-0.490902825537,-0.043852246224,0.132474055398,-0.13273038513,0.573918977758,0.818895119465,0.00292184648164,0.0,0.818862620478,-0.573854653278,-0.011644423365,0.0,-0.00785899757299,0.00907572115658,-0.999927931124,0.0,0.583024711678,0.157732790288,0.304174875661,1.0,-0.0910085714286,-0.119611265306,2.244
0.37622856806,0.184397225536,-0.125434146101,-1.89302934911,0.0383927662746,2.07006827254,0.0603210982751,-0.137853711,-0.362224717887,-0.00159174572839,-0.489326740618,-0.0500830115137,0.131965938347,-0.124803078159,0.573994040569,0.818843246745,0.0027065756337,0.0,0.818807232058,-0.573929655417,-0.0118412104056,0.0,-0.00814286792857,0.00901312143946,-0.999926225951,0.0,0.581045420589,0.155130415535,0.304107066115,1.0,-0.0922085714286,-0.121188408163,2.265
0.374456070829,0.179661960861,-0.125436098737,-1.8992255775,0.0377888540293,2.07183399292,0.0586440399501,-0.139643048058,-0.365169893306,0.000166835439855,-0.479482722641,-0.0458235339056,0.138097260206,-0.127945322281,0.573963848666,0.818863603343,0.00294048400948,0.0,0.818830983861,-0.573899036497,-0.0116817240847,0.0,-0.00787834941998,0.00911282217926,-0.999927441409,0.0,0.579896367566,0.153586821379,0.304218458797,1.0,-0.0929514285714,-0.122164734694,2.278
0.371724482191,0.172440805955,-0.125411611433,-1.90894285159,0.036791064187,2.07442067408,0.0560789218645,-0.135796228468,-0.357586375201,-2.24747421359e-05,-0.493214692558,-0.0463078619069,0.118612262423,-0.131411356784,0.573880017942,0.818922235066,0.00297402462459,0.0,0.818890256114,-0.573815342109,-0.0116382345428,0.0,-0.00782441873095,0.00911452551763,-0.999927849345,0.0,0.578025645716,0.151203288929,0.304242380881,1.0,-0.0940942857143,-0.12366677551,2.298
0.369906991356,0.16775062652,-0.125408869118,-1.91539051275,0.0361540353215,2.07597476136,0.0543347229216,-0.141192360893,-0.356071595683,0.00369312275304,-0.495775203666,-0.0542539742479,0.120308158726,-0.136780792025,0.573808711206,0.818972856567,0.00278748127329,0.0,0.818937883899,-0.573744041489,-0.011801019983,0.0,-0.0080655695618,0.00905447640947,-0.99992647882,0.0,0.576641945509,0.149486354295,0.304168135936,1.0,-0.0948942857143,-0.124718204082,2.312
0.366893448411,0.160037914568,-0.125411690019,-1.92562313543,0.0351452751988,2.07869025677,0.0514918983465,-0.144041455897,-0.374568795189,0.000342322347786,-0.475084977624,-0.0491509711576,0.137704415117,-0.133229246999,0.573740919116,0.81901977203,0.00295256787928,0.0,0.818986974041,-0.573675706929,-0.0117160800754,0.0,-0.00790203690573,0.0091402851628,-0.999927003836,0.0,0.574760253399,0.147040111544,0.304239067146,1.0,-0.0960371428571,-0.126220244898,2.332
0.364956474175,0.155224158142,-0.125417305447,-1.93196361041,0.0344614365405,2.08039402316,0.0497427797569,-0.150635631287,-0.364855526773,0.00111245921922,-0.497374215287,-0.0577177907387,0.123351641932,-0.143981042186,0.573740291545,0.819019839013,0.00305418774475,0.0,0.818988884491,-0.573675352574,-0.0115993029864,0.0,-0.00774809620815,0.00915650958242,-0.999928060081,0.0,0.573540691706,0.145404771723,0.304291600532,1.0,-0.09678,-0.127196571429,2.345
0.361601747211,0.147111455519,-0.125459027851,-1.94297947238,0.0333416485226,2.08294923577,0.0467003142066,-0.149853876806,-0.367507634597,-0.00403849847793,-0.4977589007,-0.0484832673187,0.126776150028,-0.134979976757,0.57377036081,0.818999808776,0.00276282157498,0.0,0.81896419557,-0.573705428851,-0.0118521804567,0.0,-0.00812204416558,0.00906325630142,-0.99992594215,0.0,0.571312529778,0.142555347659,0.304185700252,1.0,-0.0980371428571,-0.128848816327,2.367
0.359737412378,0.142636943652,-0.125482842444,-1.94888414444,0.0327806988122,2.08446755183,0.0450016053472,-0.156875186718,-0.377282318938,-0.00248717554144,-0.482000521232,-0.0391745426656,0.126716698708,-0.147864483463,0.573798065796,0.818980114133,0.00284591707538,0.0,0.818945328901,-0.573732538678,-0.0118435313353,0.0,-0.00806697673047,0.00912662158344,-0.99992581158,0.0,0.570150062958,0.141011211233,0.304207659505,1.0,-0.0987228571428,-0.129750040816,2.379
0.356416505896,0.134771670013,-0.125546302411,-1.95911998198,0.0317089862349,2.08720326546,0.0419335101702,-0.157129127802,-0.373363277488,-0.00573469561381,-0.499315961588,-0.050016870033,0.117312853477,-0.148245248544,0.573788115554,0.818986164154,0.00309972185577,0.0,0.818955379165,-0.573722522649,-0.0116318890631,0.0,-0.00774812513847,0.0092129509714,-0.99992754142,0.0,0.568159997708,0.138277518955,0.304304144734,1.0,-0.0999228571428,-0.131327183673,2.4
0.354465146929,0.130233891148,-0.125603441787,-1.96515067659,0.031026556093,2.08852725742,0.0401901286486,-0.164916771377,-0.38118750639,-0.00548179150132,-0.503365756763,-0.0598323833599,0.111759564416,-0.151550557324,0.573810607575,0.818971090449,0.00291316742668,0.0,0.818937808561,-0.573745555066,-0.011732461489,0.0,-0.00793728273436,0.00911808935521,-0.999926927325,0.0,0.566812193543,0.136512385925,0.30426800943,1.0,-0.100665714286,-0.132303510204,2.413
0.351003029544,0.122279705809,-0.125730923944,-1.9756719761,0.0299235826513,2.09106855148,0.0371466298281,-0.170717753915,-0.383819701767,-0.00489756524118,-0.484668469367,-0.0532958150193,0.12254167071,-0.152397674576,0.573971558045,0.818858347119,0.00289910507534,0.0,0.818824854862,-0.573906501755,-0.0117444116298,0.0,-0.00795334736964,0.00911499302589,-0.999926827907,0.0,0.564692207582,0.133659733948,0.304254648294,1.0,-0.101865714286,-0.133880653061,2.434
0.348800941064,0.117250893018,-0.125747699634,-1.98202139827,0.0292588420955,2.09274019076,0.0351353953552,-0.162485442552,-0.379804779727,0.00205376394778,-0.493980093711,-0.04543864556,0.120889220682,-0.151993526263,0.573959688877,0.818865745265,0.00314859903924,0.0,0.818835915043,-0.573894299549,-0.0115682359197,0.0,-0.00766601668217,0.00921806454103,-0.999928127154,0.0,0.563536728882,0.132057322112,0.304360194454,1.0,-0.102551428571,-0.134781877551,2.446
0.34539339825,0.109642512198,-0.125765893102,-1.99208506219,0.0281443046558,2.09499171895,0.0320272912113,-0.168186843251,-0.381614610755,0.000337731649919,-0.513148145508,-0.0551664108203,0.106350212713,-0.152553290922,0.573891261281,0.818914481591,0.00293921196179,0.0,0.818881558795,-0.57382613161,-0.0117179455323,0.0,-0.00790955094426,0.00913186883084,-0.999927021325,0.0,0.561319498228,0.129217138175,0.304281401617,1.0,-0.103751428571,-0.136359020408,2.467
0.343354110835,0.105031188903,-0.125751495693,-1.99814234047,0.0274835450704,2.09634557873,0.0302094120191,-0.168247130758,-0.378441676882,0.000288749830579,-0.506576481155,-0.0551293676099,0.121079446853,-0.152735496219,0.573871146472,0.81892883238,0.00286734103158,0.0,0.818894764193,-0.573806029594,-0.011779324246,0.0,-0.00800128472774,0.00910804022566,-0.999926508823,0.0,0.560144785842,0.12774650177,0.304254430734,1.0,-0.10438,-0.137185142857,2.478
0.339571215462,0.0964339712846,-0.125730102379,-2.0090092385,0.0263751876397,2.09897076506,0.0266606804962,-0.170918753003,-0.384224885304,0.00106252169247,-0.493098652648,-0.0525827877256,0.120124064914,-0.159487829142,0.573718850345,0.819034406543,0.0031730993532,0.0,0.819004230104,-0.573652615883,-0.0116402003129,0.0,-0.00771361632194,0.00927716274828,-0.999927214538,0.0,0.557885519087,0.124843434578,0.304379836725,1.0,-0.105637142857,-0.138837387755,2.5
0.337234936379,0.0913898168149,-0.12575055468,-2.01562386241,0.0256872513606,2.10040143323,0.0246045332945,-0.179073162692,-0.391239811573,-0.00143852580746,-0.511199693286,-0.0621523903271,0.103455159546,-0.155366992117,0.573754676098,0.819009686241,0.00307447570278,0.0,0.818977582316,-0.573688000604,-0.0117704939693,0.0,-0.00787651040106,0.00927148113753,-0.999925997373,0.0,0.556466881526,0.123039809573,0.304324232559,1.0,-0.10638,-0.139813714286,2.513
0.333324880454,0.0831913140557,-0.125804029384,-2.02624723921,0.0244772072611,2.10266700774,0.0210875244559,-0.183903025873,-0.396675354391,-0.00214464595936,-0.496800535124,-0.0532409053654,0.120295757271,-0.169204826512,0.573729102144,0.819028185258,0.0029147910667,0.0,0.81899372775,-0.573662683913,-0.011880483693,0.0,-0.00805849928375,0.00920355204043,-0.99992517481,0.0,0.554188795199,0.12004834197,0.304271280014,1.0,-0.10758,-0.141390857143,2.534
0.33109536093,0.078359537857,-0.125861601821,-2.0321486648,0.0237985818353,2.10411319274,0.0190706344552,-0.185588436208,-0.394625252327,-0.00652259687174,-0.485512737886,-0.056295786174,0.120265989863,-0.159095769849,0.573717950341,0.819034979824,0.00318781767144,0.0,0.819004955526,-0.573651621221,-0.0116381783734,0.0,-0.0077035267306,0.00928804913602,-0.999927191259,0.0,0.552862705218,0.118221553337,0.304406754584,1.0,-0.108322857143,-0.142367183673,2.547
0.327052023018,0.070088193992,-0.125935666681,-2.04279290774,0.0226273798773,2.10636699041,0.0155325186639,-0.195406745693,-0.388886668102,-0.0010881555488,-0.509080040347,-0.0575615835912,0.10368581783,-0.170144445727,0.573808040681,0.818972254528,0.00308636745301,0.0,0.818940330723,-0.573741346697,-0.0117621726686,0.0,-0.00786226782268,0.00927695864603,-0.999926058658,0.0,0.550660698196,0.115324234879,0.304350927294,1.0,-0.109465714286,-0.14386922449,2.567
0.324092972398,0.0641287509067,-0.126039111264,-2.05044873797,0.0217319644852,2.10788222612,0.0129026163178,-0.198762974132,-0.392933228706,-0.00571949181022,-0.508886756399,-0.0598773085742,0.105316634866,-0.173939368337,0.573849226871,0.818943992965,0.00292371474706,0.0,0.818909662158,-0.573782771508,-0.0118761629464,0.0,-0.00804849011213,0.00920956249335,-0.999925200085,0.0,0.548868231782,0.112939023232,0.304298448429,1.0,-0.11038,-0.145070857143,2.583
0.320881053554,0.0576797785058,-0.126086761254,-2.0583346407,0.0207963952876,2.10973127734,0.0100903089819,-0.200717099493,-0.399820425351,0.000960461581749,-0.491293540434,-0.048065464725,0.110404397693,-0.181054810569,0.573884352431,0.818918340411,0.0032013552009,0.0,0.818888631036,-0.573818125396,-0.0116153273078,0.0,-0.00767515669263,0.00928758678304,-0.999927413716,0.0,0.54730585376,0.110758502073,0.304424789736,1.0,-0.111237142857,-0.146197387755,2.598
0.317471725296,0.0508651351474,-0.126082314875,-2.06693555146,0.0198398162282,2.11146807191,0.00707395345275,-0.203334282443,-0.393716316316,0.00129802728362,-0.51777110511,-0.0558752853905,0.0954941753431,-0.174835835065,0.573859457052,0.818935894933,0.00317339629556,0.0,0.818905315169,-0.573792713449,-0.0116941729664,0.0,-0.00775605566056,0.00930970208335,-0.999926583829,0.0,0.545385874198,0.108309666203,0.304405782796,1.0,-0.112208571429,-0.147474122449,2.615
0.314007890773,0.0440232449134,-0.126090161515,-2.07564308584,0.018863801575,2.11312487968,0.0040247599181,-0.211570823851,-0.402013280313,-0.000579251366996,-0.503366405007,-0.0552594963435,0.0917663920503,-0.18172495767,0.573847096947,0.818945119029,0.00302460683028,0.0,0.818911719736,-0.573779830611,-0.0118763699825,0.0,-0.00799079068173,0.00929228532294,-0.999924897529,0.0,0.543405253443,0.105829422619,0.304332126407,1.0,-0.11318,-0.148750857143,2.632
0.310439544873,0.0370379994906,-0.126110898767,-2.08410071569,0.0178738000482,2.11491710528,0.00081851403469,-0.206636588088,-0.410022930102,-0.000934178865869,-0.49767312029,-0.0628331681622,0.105567355397,-0.19018393563,0.573787444765,0.81898600969,0.0032605312025,0.0,0.818956236619,-0.57372002805,-0.0116943926041,0.0,-0.0077070602664,0.00938050861722,-0.999926300924,0.0,0.541535893283,0.103324038906,0.304448881583,1.0,-0.114151428571,-0.150027591837,2.649
0.306796630757,0.0301209355906,-0.126188135522,-2.09267172379,0.016838738968,2.11660820711,-0.00234078952389,-0.213100999267,-0.419802085969,-0.00616965255579,-0.504807461557,-0.0527295386647,0.0922592865572,-0.182485893105,0.57384742432,0.818943977475,0.0032622476787,0.0,0.818914362965,-0.573780159715,-0.0116765298024,0.0,-0.00769075883628,0.00937222847615,-0.99992650408,0.0,0.539602899454,0.100748298577,0.304453093325,1.0,-0.115122857143,-0.151304326531,2.666
0.303089594728,0.0231614268239,-0.126259709359,-2.10139255819,0.0158119666148,2.11810069856,-0.00564079763205,-0.223215644091,-0.405824345148,-0.00311085403131,-0.50956929925,-0.0627574101283,0.0791433187408,-0.18899128112,0.573835877221,0.818952846656,0.00306069736903,0.0,0.818919702779,-0.573768230282,-0.0118863459631,0.0,-0.0079783795585,0.00932745672488,-0.999924669168,0.0,0.53756717109,0.0981453315133,0.304380110707,1.0,-0.116094285714,-0.152581061224,2.683
0.299524065616,0.0165039026242,-0.126330469465,-2.10939287008,0.0148158704376,2.11971308259,-0.00873118068052,-0.222580826033,-0.424692216834,-0.00522563431105,-0.495845753086,-0.0639487232694,0.0970789746137,-0.198217574164,0.57388326514,0.818918976663,0.00323335050083,0.0,0.818888849653,-0.5738159248,-0.0117082561057,0.0,-0.00773291398328,0.00936710726101,-0.99992622695,0.0,0.535759348739,0.0956873306894,0.304468699125,1.0,-0.117008571429,-0.153782693878,2.699
0.295177052913,0.00867044643331,-0.126404544935,-2.11899286353,0.0136748572831,2.12144492755,-0.0125720097942,-0.232038780696,-0.409429958675,-0.00147037887598,-0.505713659484,-0.058351112851,0.0833247246591,-0.20583671885,0.573893183237,0.818912109657,0.00321213201169,0.0,0.818881318291,-0.573825444212,-0.0117683061434,0.0,-0.00779415539414,0.00938428624679,-0.999925590388,0.0,0.533526936285,0.0927288613861,0.304456049388,1.0,-0.118094285714,-0.155209632653,2.718
0.291276443018,0.00163141978194,-0.126418535695,-2.12766796981,0.0126584800637,2.12295932922,-0.0159948274208,-0.232903506169,-0.405476990838,-0.00104147866399,-0.505068928174,-0.0605859879603,0.0893601643752,-0.200280542151,0.573873790947,0.818925987823,0.00313774344957,0.0,0.818893503099,-0.573805452458,-0.0118945455333,0.0,-0.00794045102904,0.00939562655693,-0.999924332857,0.0,0.531470883123,0.0901201293731,0.30440282134,1.0,-0.119065714286,-0.156486367347,2.735
0.287801039563,-0.00470689918004,-0.126412084513,-2.13512541966,0.0117513559941,2.12435317086,-0.0191497898321,-0.237286319942,-0.426663000683,0.00090579435975,-0.491256023303,-0.0633492534349,0.0967941328416,-0.209168684385,0.573747139001,0.819013898729,0.00334680123194,0.0,0.818984593455,-0.573678640336,-0.0117388333137,0.0,-0.00769442740011,0.00947628312305,-0.999925495147,0.0,0.529726021502,0.0878399708449,0.304506000391,1.0,-0.119922857143,-0.157612897959,2.75
0.283758375682,-0.0117946519114,-0.126444122793,-2.14365354448,0.0106641376833,2.12588835453,-0.0226549917695,-0.237217261574,-0.419229602185,-0.00254036146028,-0.509325357544,-0.0554231747925,0.0770105485849,-0.206461357709,0.573746196743,0.819014385828,0.00338886878751,0.0,0.818985974706,-0.573677989443,-0.0116740980074,0.0,-0.0076172814334,0.00947358773516,-0.99992611135,0.0,0.527707654981,0.0851850981248,0.304518438582,1.0,-0.11998,-0.157688,2.767
0.279584096379,-0.0188397032597,-0.126520506482,-2.15227868485,0.00958561757153,2.12714059492,-0.026321991958,-0.240776688297,-0.407137639697,-0.00578053995503,-0.504529310396,-0.0615282062668,0.0704821447632,-0.220122197376,0.573751985269,0.819011303447,0.00314501630036,0.0,0.818978693233,-0.573683376453,-0.0119176555202,0.0,-0.00795660420074,0.00941366109648,-0.999924034832,0.0,0.525592196299,0.0824461054328,0.304424089056,1.0,-0.11998,-0.157688,2.784
0.275639558228,-0.0255462109536,-0.126603072588,-2.16010215278,0.00858809694444,2.12848602563,-0.029703898319,-0.249646463192,-0.421367921232,-0.00747307010693,-0.48297049327,-0.061000167484,0.0891084984821,-0.207743848172,0.573837233981,0.818950944931,0.00330538875102,0.0,0.818920950974,-0.573768678989,-0.0117781988689,0.0,-0.0077493877558,0.00946580340559,-0.999925169978,0.0,0.523723552241,0.079897698358,0.304509662175,1.0,-0.11998,-0.157688,2.8
0.271368965112,-0.0326111444884,-0.126704222257,-2.16840043497,0.00751780347044,2.12989762433,-0.0333463829677,-0.249809229552,-0.409982429552,-0.00503498801993,-0.506409371681,-0.0591651906471,0.0719463678113,-0.212221238477,0.573952249726,0.818869863332,0.00342182148502,0.0,0.818841844923,-0.573883863302,-0.0116658195463,0.0,-0.0075892060399,0.00949773685214,-0.999926095742,0.0,0.521727246602,0.0771608783113,0.304558280398,1.0,-0.11998,-0.157688,2.817
0.267091368773,-0.0396313326664,-0.126735926068,-2.17676685511,0.00650949604475,2.13106441134,-0.0371138308984,-0.251528649338,-0.421066272574,0.000527907557665,-0.488746968681,-0.0611556193273,0.0704533572763,-0.222771163321,0.573932852794,0.818883837175,0.00332995487109,0.0,0.818853563158,-0.573863466182,-0.0118453023118,0.0,-0.00778913713006,0.00952533695162,-0.999924295784,0.0,0.519630876155,0.0744763004085,0.304516057219,1.0,-0.11998,-0.157688,2.834
0.262824697353,-0.04655683537,-0.126725969971,-2.18496674781,0.00549642297738,2.1323431351,-0.0408355348523,-0.251697606909,-0.412711999448,0.00412060305653,-0.464268601799,-0.0610959527745,0.0788507068554,-0.210894758273,0.573899897542,0.81890684042,0.00335279228405,0.0,0.81887652146,-0.573830015681,-0.011878661777,0.0,-0.00780373478133,0.00956286977436,-0.999923823721,0.0,0.517591197763,0.0718506132236,0.304494996958,1.0,-0.11998,-0.157688,2.851
0.258752341523,-0.0531937113986,-0.126728119047,-2.19244510603,0.00446594558204,2.13355560527,-0.0444151382875,-0.254093510925,-0.413920697105,0.00010151172977,-0.46545834156,-0.0564819582389,0.0657507992824,-0.227295959861,0.573821732636,0.81896061687,0.00358804569587,0.0,0.818934615919,-0.573752661128,-0.0116071356968,0.0,-0.00744727962733,0.00959898635058,-0.99992619602,0.0,0.515749738032,0.0693654633337,0.304632258276,1.0,-0.11998,-0.157688,2.867
0.254588204091,-0.0596884264529,-0.126759627872,-2.20016061468,0.0034697846267,2.13451290164,-0.0479974893824,-0.261288167856,-0.40831300165,-0.00220674322321,-0.481387044257,-0.061757525086,0.0595675874542,-0.223934638362,0.573848382256,0.818942724646,0.00340511848083,0.0,0.818913424661,-0.573778740487,-0.0118112986366,0.0,-0.00771914111131,0.0095665760377,-0.999924444887,0.0,0.513761301606,0.066824073466,0.304552669601,1.0,-0.11998,-0.157688,2.883
0.249363746339,-0.0677859838594,-0.126812854433,-2.20962964408,0.00224567372405,2.13579432167,-0.0525801248122,-0.264995197948,-0.403234456619,-0.00132881958889,-0.466504941082,-0.0621091692974,0.0631651017433,-0.231780233985,0.573824968286,0.818959342055,0.003353913262,0.0,0.818928844121,-0.573754855952,-0.0119021190937,0.0,-0.00782317822198,0.00957653380038,-0.999923541018,0.0,0.511333495416,0.0636709617227,0.304511031404,1.0,-0.11998,-0.157688,2.903
0.24591203116,-0.0730833225078,-0.12689069098,-2.21550342768,0.00140894443964,2.13668059816,-0.0555564359131,-0.267794269196,-0.396829347636,-0.0021183854118,-0.456709167006,-0.0591103264889,0.0608562737295,-0.248522745871,0.573870921569,0.818926326036,0.00354750669507,0.0,0.818899469876,-0.573801548787,-0.0116699506311,0.0,-0.00752140976985,0.00960228154901,-0.999925609525,0.0,0.509859056216,0.0615947964793,0.304622249597,1.0,-0.11998,-0.157688,2.916
0.2402909313,-0.0815383805836,-0.126930154727,-2.22527572694,0.000164448368598,2.13784477104,-0.0604739848808,-0.26771200247,-0.406123878761,0.00230616269918,-0.460665390975,-0.0636015992095,0.0543524234253,-0.230822246386,0.573859483946,0.818934627948,0.00348062255947,0.0,0.818905923113,-0.573789096992,-0.0118282781881,0.0,-0.00768959137035,0.00963825761341,-0.999923984198,0.0,0.50729410263,0.0582857685237,0.304579915264,1.0,-0.11998,-0.157688,2.937
0.236843288304,-0.0867259425407,-0.126911747309,-2.23131987662,-0.000611518954138,2.13855688964,-0.0635081403868,-0.261077966309,-0.400431194459,0.00133888201745,-0.466461002855,-0.068157787186,0.0512546049512,-0.240283651945,0.57379217359,0.818982137996,0.00339795102994,0.0,0.818951651387,-0.573721215707,-0.0119543397789,0.0,-0.00784106511942,0.00964224985605,-0.999922769375,0.0,0.505687842266,0.056291748011,0.304520908295,1.0,-0.11998,-0.157688,2.95
0.231428629927,-0.0947829794664,-0.126940410798,-2.24026938601,-0.0018354965183,2.13968287263,-0.0682786259914,-0.276556283587,-0.398194052611,-0.00816551551429,-0.438943972903,-0.0662140820566,0.0660662957512,-0.237099626608,0.573723096904,0.819029819277,0.00356512481137,0.0,0.819002142147,-0.573652349156,-0.011799168086,0.0,-0.00761887496899,0.00968948666538,-0.99992403041,0.0,0.503337810274,0.0531743322927,0.30461257518,1.0,-0.11998,-0.157688,2.97
0.227520679672,-0.100350617878,-0.12699400015,-2.24650771479,-0.00272462560248,2.14040349431,-0.071595911692,-0.28331458298,-0.393944762413,-0.00561063567388,-0.453468665084,-0.0626402766785,0.0463885775568,-0.24102421506,0.573797218168,0.818977815483,0.00358288590549,0.0,0.818950660472,-0.573726771327,-0.0117539132069,0.0,-0.0075707423592,0.00967875582543,-0.999924499923,0.0,0.501680306623,0.0509296919213,0.304634204829,1.0,-0.11998,-0.157688,2.984
0.221918404605,-0.108309517266,-0.127119100487,-2.25556115058,-0.00394285886757,2.14126970793,-0.0764271570387,-0.283452542858,-0.391930443071,-0.00363432095471,-0.450762464089,-0.067416535928,0.040123033165,-0.243478154973,0.573897234135,0.818908292801,0.00345246796949,0.0,0.818878376209,-0.573825887927,-0.0119499884599,0.0,-0.00780497942057,0.00968540316386,-0.999922634638,0.0,0.4992109626,0.047716565484,0.304572061621,1.0,-0.11998,-0.157688,3.004
0.218231755413,-0.113424979946,-0.127214928,-2.26133318719,-0.00477909504844,2.14186841181,-0.079614604437,-0.278967379031,-0.394774057573,-0.00465115750645,-0.438588567292,-0.0662264692118,0.0496165249015,-0.251641963542,0.573949272755,0.818872053367,0.00339697212552,0.0,0.81884135687,-0.573878053564,-0.0119816033614,0.0,-0.00786210376564,0.0096585997582,-0.99992244638,0.0,0.497641662871,0.0456141357013,0.304546242172,1.0,-0.11998,-0.157688,3.017
0.212297047754,-0.121721775675,-0.127204033578,-2.27026979942,-0.00601047730208,2.14292513235,-0.0848225872946,-0.28346164225,-0.388339775072,0.000643009838895,-0.432760373499,-0.0604740991838,0.0462232734597,-0.25236343517,0.573883279714,0.818916972061,0.00370419180982,0.0,0.818891431618,-0.573812473417,-0.0116968147142,0.0,-0.00745335212424,0.00974612496764,-0.999924727462,0.0,0.495231935026,0.0423652812646,0.304688129192,1.0,-0.11998,-0.157688,3.038
0.208611074842,-0.126764954194,-0.127201157699,-2.27598959822,-0.00676695451923,2.14337189079,-0.0880445140308,-0.289272780326,-0.387958052425,-0.00662059718944,-0.445747823171,-0.0555805418142,0.0358846208789,-0.254148957325,0.573855994514,0.818936588651,0.00359280266793,0.0,0.81890864047,-0.573784328715,-0.0118713767688,0.0,-0.00766055841608,0.00975482568079,-0.999923076652,0.0,0.493741519328,0.0405105298139,0.304624966364,1.0,-0.11998,-0.157688,3.05
0.202793328661,-0.134622356751,-0.127225140565,-2.28466241294,-0.00799719192051,2.144098189,-0.0931209130568,-0.295795275028,-0.387865699798,-0.00495090469755,-0.426608386568,-0.0598338994979,0.0275588704763,-0.250056569131,0.573817174514,0.818964101506,0.00352101954017,0.0,0.818934794656,-0.573745235865,-0.0119563090017,0.0,-0.00777176930296,0.00974440847312,-0.999922320036,0.0,0.491175614013,0.0372008341476,0.304599050552,1.0,-0.11998,-0.157688,3.071
0.199005104342,-0.139702115502,-0.127264557597,-2.29012326502,-0.00878080673266,2.14462731428,-0.0964628790256,-0.294020212814,-0.390628982518,-0.00031666199594,-0.411077616101,-0.0637532524747,0.0489546882009,-0.253168870326,0.57380142105,0.818974586888,0.00364720902813,0.0,0.818947483771,-0.573729749842,-0.011829618427,0.0,-0.0075957907835,0.00977491271765,-0.999923374586,0.0,0.489540401748,0.0350011191747,0.304657495503,1.0,-0.11998,-0.157688,3.085
0.192735844203,-0.147827309788,-0.127427122126,-2.2988436255,-0.0100099295601,2.14541505186,-0.101833606404,-0.305654971119,-0.381522378305,-0.0066389280735,-0.43000895616,-0.0605407101259,0.0300152679111,-0.250344670796,0.573980773864,0.818848228717,0.00379426709404,0.0,0.818823293682,-0.573908918642,-0.0117351492351,0.0,-0.00743188552675,0.00984277382234,-0.999923940548,0.0,0.48719535079,0.0317748826567,0.304711084749,1.0,-0.11998,-0.157688,3.105
0.188863787947,-0.152832655827,-0.127441232726,-2.304387839,-0.0108244959824,2.14570928076,-0.10529271097,-0.297928696264,-0.385021875067,0.000396919083238,-0.424181213993,-0.0639089566936,0.0259834696075,-0.272639846615,0.573881104495,0.818918847361,0.00362577470893,0.0,0.818890950684,-0.573808836659,-0.0119070047022,0.0,-0.00767051667975,0.00980250783673,-0.999922534006,0.0,0.485566988996,0.0297321882516,0.304645344732,1.0,-0.11998,-0.157688,3.118
0.182941121791,-0.160530068892,-0.127420106854,-2.31269680202,-0.0120454543808,2.14625666663,-0.110504810269,-0.297069850772,-0.38713548444,0.00154308954487,-0.416668363259,-0.0610912663223,0.0278355278705,-0.257690769622,0.573766334902,0.818999473295,0.00357806890482,0.0,0.818970836547,-0.573694104073,-0.0119411363657,0.0,-0.00772721613221,0.00978194446404,-0.999922298828,0.0,0.483138917836,0.026662660481,0.304635650237,1.0,-0.11998,-0.157688,3.138
0.178994081067,-0.165498913181,-0.127435787393,-2.31784551379,-0.0127367991467,2.14667353375,-0.113951162099,-0.302126065625,-0.383521629337,6.51552626714e-05,-0.395639933212,-0.0520480083412,0.0377393419618,-0.265368930874,0.573793418322,0.818979559869,0.00378688653123,0.0,0.818954066808,-0.573721004616,-0.0117979753733,0.0,-0.0074898285359,0.00987107679282,-0.999923229209,0.0,0.481652585357,0.0246404772151,0.304721931268,1.0,-0.11998,-0.157688,3.151
0.172539309921,-0.17348111552,-0.127468128155,-2.32639569823,-0.013926988013,2.14716255437,-0.119646297507,-0.308122263271,-0.373288712344,-0.00273783807533,-0.408266423597,-0.0662910609747,0.0133975084545,-0.269218962296,0.573759625283,0.819003224779,0.00378907617944,0.0,0.818977087761,-0.573686324719,-0.0118860192509,0.0,-0.00756109248324,0.00992307557619,-0.999922178198,0.0,0.479112084575,0.0213482117108,0.304701979794,1.0,-0.11998,-0.157688,3.172
0.168130827781,-0.178772782253,-0.127590103684,-2.33208721955,-0.0148139429578,2.1474056961,-0.123433761403,-0.313133412396,-0.37848218814,-0.00912068273015,-0.403438836767,-0.0659484465586,0.0178258051343,-0.279758081309,0.573865305857,0.818929693632,0.00367621034098,0.0,0.818901666037,-0.573791848958,-0.0119884249378,0.0,-0.00770844604422,0.0098903863372,-0.999921376968,0.0,0.477394119527,0.0190643597849,0.304658767405,1.0,-0.11998,-0.157688,3.186
0.161829233652,-0.186324653167,-0.127674485051,-2.34000736189,-0.0159771155501,2.14783584628,-0.128936674382,-0.310054958318,-0.382284950731,-0.00172817403385,-0.392854167291,-0.0562862162513,0.0137691504426,-0.276044751192,0.57391596194,0.818893868918,0.00374793009749,0.0,0.818866847221,-0.573842328492,-0.0119505420193,0.0,-0.00763565166566,0.00992785366322,-0.999921564197,0.0,0.475009816641,0.0158865490887,0.304681357232,1.0,-0.11998,-0.157688,3.206
0.157778177319,-0.191228947309,-0.127669074493,-2.34499147361,-0.0166953557603,2.14813822784,-0.132572048477,-0.31174384294,-0.379229047508,0.00633493700265,-0.383728020982,-0.0608489320087,0.0180982792631,-0.272637933896,0.573831967651,0.81895191717,0.00392137294111,0.0,0.818927817275,-0.573758624432,-0.0117905845868,0.0,-0.00740614289857,0.00997732783108,-0.999922798008,0.0,0.473509196484,0.0138934732838,0.304761012642,1.0,-0.11998,-0.157688,3.219
0.151048267925,-0.199049119887,-0.127700996807,-2.35320645376,-0.0179734100805,2.14841575174,-0.138513123699,-0.324521072116,-0.367184429954,-0.00358881718895,-0.393123323881,-0.0576313638174,0.00743060377689,-0.284495553796,0.573763056931,0.819000619153,0.00383239216319,0.0,0.818975200544,-0.57368980955,-0.0118477935668,0.0,-0.00750489042898,0.00993665170652,-0.999922466781,0.0,0.470964098622,0.0105799244132,0.304732809747,1.0,-0.11998,-0.157688,3.24
0.146871952239,-0.203853249382,-0.127742025332,-2.35829656026,-0.0187098747516,2.14856024228,-0.142174778627,-0.324918183863,-0.365553564288,-0.00430267164883,-0.38154091384,-0.0535467202,0.0140298213078,-0.28232341949,0.573780169807,0.818988907861,0.0037725904922,0.0,0.818961997502,-0.573706194198,-0.0119664651362,0.0,-0.00763619069966,0.00995592032541,-0.999921281023,0.0,0.469368004929,0.00854013836268,0.304683709247,1.0,-0.11998,-0.157688,3.253
0.139976877085,-0.2116334472,-0.127895794544,-2.3662861262,-0.019868824264,2.14879347764,-0.148201502742,-0.332643404474,-0.367943322341,-0.00480687382725,-0.375307961936,-0.0433147890003,0.00856120394727,-0.278379360257,0.573920457003,0.818890181367,0.00386352114835,0.0,0.818864063281,-0.573845614039,-0.0119834893454,0.0,-0.00759624334896,0.010041461637,-0.999920729926,0.0,0.466854506655,0.00517020040929,0.304702070326,1.0,-0.11998,-0.157688,3.274
0.136039603643,-0.216078773267,-0.12792588625,-2.37066883615,-0.0205428145665,2.1489596946,-0.151649491685,-0.321900119561,-0.378218192536,-0.00178434871703,-0.370456357168,-0.0591510164378,0.0192887257853,-0.294321108366,0.573943815251,0.818873032308,0.00402502109011,0.0,0.818849882211,-0.573869568896,-0.0118040332087,0.0,-0.00735630898102,0.0100709337974,-0.999922227481,0.0,0.465478658045,0.00328636241211,0.304789741976,1.0,-0.11998,-0.157688,3.286
0.129189952981,-0.223727150684,-0.127911664614,-2.3785446641,-0.0217833335185,2.14908929631,-0.157840901771,-0.327869713372,-0.360761915198,0.000493980928394,-0.380700218774,-0.0625417574136,0.000443844331913,-0.29933234565,0.573732472344,0.819021473803,0.00395253443838,0.0,0.818997301275,-0.573658394599,-0.0118411870868,0.0,-0.00743092500721,0.0100309817085,-0.999922077344,0.0,0.462941645647,6.05647987688e-05,0.304761524908,1.0,-0.11998,-0.157688,3.307
0.124800817844,-0.228418091433,-0.127946340493,-2.38342463005,-0.0225251164635,2.14909306805,-0.161646557465,-0.340662941992,-0.362379766228,-0.00579160841133,-0.37328909562,-0.051136340215,0.0013876359961,-0.295951052062,0.573788875371,0.818982421807,0.00385566757143,0.0,0.818956226315,-0.573714114043,-0.011981720599,0.0,-0.00760091398995,0.0100327941141,-0.999920781437,0.0,0.461340300468,-0.00200231616755,0.304705491387,1.0,-0.11998,-0.157688,3.32
0.118028009442,-0.235678966657,-0.128032639988,-2.39072915838,-0.02361573614,2.14912485458,-0.16762328615,-0.343159209591,-0.362031634171,-0.0131832284803,-0.367685554947,-0.0468369156284,-0.000353269601067,-0.302592835638,0.573840841157,0.818945752667,0.00391025697634,0.0,0.818919917383,-0.573765406669,-0.0120072447141,0.0,-0.00758985800391,0.0100926290411,-0.999920263268,0.0,0.458936967474,-0.00516647292886,0.304719175469,1.0,-0.11998,-0.157688,3.34
0.113521964932,-0.240385243198,-0.128159237683,-2.39531792794,-0.0243939104653,2.14917152107,-0.171585387062,-0.351986544145,-0.357380361854,-0.011968186863,-0.348344662496,-0.0646033639003,0.00368225356951,-0.305929717282,0.573921475877,0.818888769464,0.00400869977131,0.0,0.818865054553,-0.573846806953,-0.0118579712309,0.0,-0.0074101225736,0.0100883227381,-0.999921654845,0.0,0.457423353449,-0.00729418701469,0.304786027087,1.0,-0.11998,-0.157688,3.353
0.10636833538,-0.247923310548,-0.128180752633,-2.40280186517,-0.0255450959879,2.1492293856,-0.177990610027,-0.333996794112,-0.357867558197,-0.000545056543892,-0.362702608371,-0.0474924264191,-0.000112249526518,-0.296815068073,0.573841266944,0.818944463482,0.00411254004255,0.0,0.818922517899,-0.573766839395,-0.0117588515666,0.0,-0.00727034726199,0.0101157606871,-0.999922403708,0.0,0.454930126691,-0.0105481652233,0.304818919286,1.0,-0.11998,-0.157688,3.374
0.101892610626,-0.252505519081,-0.128183257901,-2.40750556437,-0.0262338866894,2.14918889104,-0.182004599739,-0.344904219604,-0.346232413627,-0.00111800076234,-0.363665770767,-0.0543594394333,-4.99771546273e-05,-0.30536790704,0.573788113486,0.81898200244,0.0040530731904,0.0,0.818958479147,-0.573712785099,-0.0118910280296,0.0,-0.00741338076903,0.0101424244695,-0.999921083392,0.0,0.453331173219,-0.0125556904368,0.304753903421,1.0,-0.11998,-0.157688,3.387
0.0930899752826,-0.261296751799,-0.128249107398,-2.41620741517,-0.027600435868,2.14910808252,-0.189787848404,-0.352840825385,-0.356616873116,-0.0112073352609,-0.340627988285,-0.0563919565904,-0.0117347927191,-0.30889281157,0.573841510229,0.818944353995,0.00410037794847,0.0,0.818921458191,-0.573766025927,-0.0118718030294,0.0,-0.00736983039444,0.0101706166841,-0.999921118967,0.0,0.450224569073,-0.0166621049576,0.304753675257,1.0,-0.11998,-0.157688,3.413
0.0884553339206,-0.265886152586,-0.128376150097,-2.42058263127,-0.028310484309,2.14903658491,-0.193909702443,-0.360114062452,-0.348327127852,-0.0162274918631,-0.329599222626,-0.051036334805,0.000699433665443,-0.324821363307,0.573902959045,0.818900692998,0.00421847228224,0.0,0.818879865779,-0.573827814616,-0.011753786455,0.0,-0.00720464585441,0.0102001512273,-0.999922021956,0.0,0.448827748062,-0.0186017061566,0.304817098375,1.0,-0.11998,-0.157688,3.425
0.082738774294,-0.27147670846,-0.128419644617,-2.42592299184,-0.0291765911001,2.14897719262,-0.199006952651,-0.350852826043,-0.342162721763,0.00173259161648,-0.340875113812,-0.0567726011015,-0.00568495941245,-0.311711187889,0.573902759767,0.818900141281,0.00435061405755,0.0,0.818881886184,-0.573828437292,-0.0115813615674,0.0,-0.00698760709098,0.0102094109737,-0.999923467709,0.0,0.446965888408,-0.0211233432162,0.304883136399,1.0,-0.11998,-0.157688,3.441
0.0781528234469,-0.275988445416,-0.128403465342,-2.43041144094,-0.0298680285415,2.1488083678,-0.203207551919,-0.351344926893,-0.342623858549,-0.000311362376579,-0.348610153966,-0.0533422709333,-0.0139924529391,-0.331559351369,0.573764877297,0.818997079662,0.00428905426446,0.0,0.818977440582,-0.573689915951,-0.0116867041914,0.0,-0.00711092633055,0.0102182558135,-0.999922507985,0.0,0.445366420422,-0.0231009111293,0.304838801317,1.0,-0.11998,-0.157688,3.454
0.0708540572313,-0.282844200872,-0.12844437435,-2.43715532399,-0.0309729153456,2.14856209817,-0.209708924467,-0.367107992054,-0.344557130435,0.00041781363669,-0.327014898458,-0.0552942977924,-0.00442835470719,-0.332143287916,0.573753938946,0.819005099623,0.0042203361642,0.0,0.818984237227,-0.573678727531,-0.0117594069815,0.0,-0.00721003602147,0.0102035913203,-0.999921948006,0.0,0.442938376008,-0.0262604659445,0.304793309358,1.0,-0.11998,-0.157688,3.474
0.0657305018812,-0.287640302027,-0.128515992557,-2.44174793757,-0.0317181494935,2.14838968778,-0.214305932461,-0.369677228397,-0.344776449065,-0.00807860767381,-0.324624199137,-0.0509826122759,-0.0186240437917,-0.330467996441,0.573767368731,0.818995445565,0.00426774239388,0.0,0.818975322855,-0.57369217811,-0.0117240023502,0.0,-0.00715367182937,0.0102222224938,-0.999922162544,0.0,0.441269520596,-0.0284758371767,0.304808425091,1.0,-0.11998,-0.157688,3.488
0.0575349870778,-0.295141481718,-0.128675173108,-2.4487374404,-0.0327973902292,2.14813625781,-0.221596685366,-0.370901576532,-0.342122962654,0.000531581126493,-0.314467182061,-0.0517200346422,-0.0153895938494,-0.332648451823,0.573931404724,0.818879132877,0.00452275483112,0.0,0.818862966495,-0.573856363463,-0.0115352987419,0.0,-0.00685073568894,0.0103241854212,-0.999923236362,0.0,0.438702889198,-0.032001604465,0.304905373417,1.0,-0.11998,-0.157688,3.51
0.0534991594489,-0.298854283557,-0.128664001074,-2.4522401055,-0.0333490051063,2.14795729247,-0.225302918615,-0.368057661253,-0.340736263542,0.00291749073621,-0.316706528207,-0.0525879850386,-0.0202147414984,-0.342927263237,0.573834104042,0.818947082939,0.00456544479515,0.0,0.81893160253,-0.573759157658,-0.0114980990639,0.0,-0.00679699979105,0.0103369874159,-0.999923470814,0.0,0.43739951021,-0.0336846648066,0.304924057243,1.0,-0.11998,-0.157688,3.521
0.0455963767774,-0.305857263933,-0.128703666827,-2.45905424539,-0.0345205108248,2.14747103473,-0.232326679209,-0.380797929145,-0.331235299891,-0.0054301768242,-0.324044866238,-0.0576251660347,-0.0312729873828,-0.333953866062,0.573840116894,0.818943868365,0.00438264887276,0.0,0.81892521614,-0.573764519851,-0.0116838790759,0.0,-0.00705396851252,0.0102939384003,-0.999922135149,0.0,0.434806184547,-0.0369873290816,0.304839527989,1.0,-0.11998,-0.157688,3.542
0.0406878050314,-0.310167482354,-0.128755326382,-2.46313578577,-0.0351845473685,2.14722412517,-0.236808716965,-0.380346100761,-0.330212887809,-0.00153326600783,-0.313138323344,-0.0540319571112,-0.014865915688,-0.338970219737,0.57379798248,0.818973275847,0.00440404941664,0.0,0.818954819921,-0.573722205844,-0.0116867596342,0.0,-0.00704457850566,0.0103127551493,-0.999922007456,0.0,0.433246496979,-0.0390287106319,0.304834640544,1.0,-0.11998,-0.157688,3.555
0.032985364366,-0.316735789191,-0.128926107821,-2.46925166409,-0.0361521319799,2.14681101767,-0.243716287754,-0.384064912512,-0.327097922942,-0.00130762621739,-0.304353875237,-0.0529032241107,-0.0177677077834,-0.341258517138,0.573943468154,0.818870667537,0.00452461184248,0.0,0.81885360556,-0.573867039045,-0.0116679500808,0.0,-0.00695815043655,0.0104019387262,-0.99992168884,0.0,0.430868276424,-0.0422417530025,0.304857982034,1.0,-0.11998,-0.157688,3.575
0.0276629743645,-0.321313323739,-0.128928119864,-2.47342055345,-0.036853898013,2.14651634989,-0.248577311693,-0.380212215324,-0.328932882233,0.000119955407334,-0.294860569324,-0.046933509497,-0.0194876387668,-0.352237867626,0.573865847631,0.818924631077,0.0046026556982,0.0,0.818909223616,-0.573790166539,-0.011544486199,0.0,-0.00681323669779,0.0103943436857,-0.99992276573,0.0,0.429235511298,-0.0444013180507,0.304909700748,1.0,-0.11998,-0.157688,3.589
